NicholasDascanio/dvrk_moveit_final/test/execution/noob_justexecution/yes_ramp/noob_500vel3.csv
Current Position (x),Current Position (y),Current Position (z), ,Planned Position (x),Planned Position (y),Planned Position (z), ,Position Error,,Cartesian linear Velocity(x),Cartesian linear Velocity(y),Cartesian linear Velocity(z),Cartesian Angular Velocity(x),Cartesian Angular Velocity(y),Cartesian Angular Velocity(z), ,Total Linear Velocity, ,Total Angular Velocity, ,MSE, ,Joint 1 Position,Joint 2 Position,Joint 3 Position,Joint 4 Position,Joint 5 Position,Joint 6 Position, ,Joint 1 Velocity,Joint 2 Velocity,Joint 3 Velocity,Joint 4 Velocity,Joint 5 Velocity,Joint 6 Velocity, ,Time Stamp
0.010010246582187144,0.018774648866685704,-0.08072194065694169, ,0.010278263012313554,0.01875340753787621,-0.08082811372300945, ,0.00028906179412978, ,7.918236299397197e-05,1.2667178134094907e-05,7.453122009812255e-06,0.2719286773765576,-0.037554751283410376,-0.014062612688903655, ,8.053479396436786e-05, ,0.2745096809289661, ,2.4088482844148335e-05, ,0.14041472911915004,-0.22392836242101388,0.09007530323000001,-4.537480687061622,0.15535570023330578,-1.3855148995491762, ,0.0009768728948079345,-0.00045676772450380386,5.1964766460524046e-06,0.0,0.0,-0.35387344658210784, ,0.022290945053100586
0.010047595910744495,0.01877812290789247,-0.08073095795945903, ,0.01029057350244488,0.018821407340295748,-0.08085689631252505, ,0.0002770778246810319, ,0.0025884236137536146,0.00039528484948185045,-0.00150795377302231,0.2077973100225197,-0.2968128220113957,-0.07740163455665475, ,0.0030216074361239303, ,0.3623224715125406, ,2.5733619036855084e-05, ,0.14043017458489848,-0.22401331248263034,0.09008567355000001,-4.537480687061622,0.15139324174010801,-1.3916768354581448, ,-0.0011610989395891412,-0.004853529859022077,0.0015205720444197905,0.0,-0.2761495574206797,-0.24460600050201609, ,0.046998023986816406
0.010084027284376145,0.018792228957200497,-0.08076377452106974, ,0.010302893402410576,0.018889324315696548,-0.08088567228128582, ,0.0002686800145351997, ,0.0009640590808285729,0.0011414930829574913,-0.0026638324205497557,0.20714346988766844,-0.0946099540151128,-0.024922239439876415, ,0.003054246148322005, ,0.2277267233236166, ,2.6088113542062862e-05, ,0.14043017458489848,-0.22414459894149216,0.09012067338,-4.537480687061622,0.14784069274620656,-1.3953142691732827, ,-0.000380604416348783,-0.007241532757775964,0.0028664407989922626,0.0,-0.0691244342546092,-0.21191266856900604, ,0.06985282897949219
0.01011673800654062,0.018828905930574624,-0.08080962554581843, ,0.010315222728919674,0.018957158559223607,-0.08091444176433325, ,0.00025851762306854635, ,0.0009205590528493838,0.0017037866146638863,-0.0013853881528809197,-0.1263603296859962,-0.05421091996175302,-0.010115740808703831, ,0.0023810959939140606, ,0.1374982063935677, ,2.6031839438441855e-05, ,0.1404378973177727,-0.2244998446537065,0.09017382127000001,-4.537900066948591,0.1449713262511323,-1.3988553624857785, ,0.0006794103015131483,-0.017275976981334568,0.001747163379390775,0.0,-0.07467948210489289,0.13426933250676637, ,0.09467291831970215
0.010118971843851025,0.018865855452355636,-0.08083408254116473, ,0.0103275614986609,0.01902491016585189,-0.08094320489642162, ,0.00028410514672545193, ,6.401443804284179e-05,0.002059599980843101,-0.0011664278708495785,-0.22935217217960105,0.049050956703893006,0.017151886919234544, ,0.0023678268321947705, ,0.23453872865065675, ,2.6489276983461727e-05, ,0.1404378973177727,-0.22486281309879505,0.09020622852000001,-4.537900066948591,0.14510796275089774,-1.3951278796028683, ,0.0004884044543576755,-0.020616324475009946,0.0016186617112778853,0.0,0.015751164408266058,0.2545434739199734, ,0.11757683753967285
0.010115074469363687,0.018913003382357546,-0.08085708461750311, ,0.010339909728303847,0.019092579230387086,-0.08097196181201685, ,0.0003098308388097685, ,-0.00036952013950518266,0.0024658580759224598,-0.0011263573015127559,0.0017525837022458295,0.06874513415025227,0.03325165997084321, ,0.002735997433252276, ,0.06876747064541304, ,2.721408454757707e-05, ,0.14046878824926962,-0.22532617707124852,0.09023993206000001,-4.537480687061622,0.14620105474902126,-1.393405503147942, ,0.0013637757355778291,-0.024744965204294856,0.0016860612452808748,-0.011588869360229676,0.0712899554927515,0.03157317741039292, ,0.14133000373840332
0.010125067254892022,0.01899124670312841,-0.08088695094542418, ,0.010352267434497027,0.019160165847464855,-0.0810007126452984, ,0.0003051152623094673, ,0.0004763792410848044,0.002895021356834283,-0.0012945837964924599,0.03307085527687761,-0.006347579842899343,0.013324376128517666, ,0.0032068727826348176, ,0.0336745191294921, ,2.767206255915619e-05, ,0.14055373831088608,-0.22615250948879054,0.09028789479,-4.537480687061622,0.14633769124878673,-1.393190206091076, ,0.0035890563498262467,-0.03026050432349196,0.001965791869677897,-0.00961169007952971,0.0,-0.004466031227619113, ,0.16537690162658691
0.01013492125378371,0.01905359366553143,-0.08091683000425981, ,0.010364634633868811,0.01922767011155167,-0.08102945753015899, ,0.00030944434982615126, ,0.0005212641946111168,0.0031181083733154264,-0.0014186224518184815,-0.007660298888020233,-0.00020024802093876145,0.002497614611939172, ,0.0034650838155991016, ,0.007662915784343994, ,2.8071132366895086e-05, ,0.14060779744100566,-0.2268012190502254,0.09033196865000001,-4.537690377005107,0.14620105474902126,-1.3925887157465362, ,0.003571938012764814,-0.032332859134061594,0.0021401063442160425,0.0031445078874172624,-0.002856592490817998,0.04010271051454129, ,0.19007086753845215
0.010143871972024562,0.019115208536444193,-0.08094410839593005, ,0.010377011343027868,0.019295092116944704,-0.08105819660020394, ,0.0003157976998015368, ,0.0005030351856842779,0.003062713120539938,-0.0011060692795609877,0.03073167798678478,-0.005261637488769952,0.001043290271919656, ,0.0032949423831005703, ,0.031178852784299268, ,2.845250602051015e-05, ,0.14066957930399945,-0.22744220587878602,0.09037344993,-4.537690377005107,0.14620105474902126,-1.3925070370063954, ,0.003943454754399246,-0.03248782662049667,0.001825651750143267,0.0031199790785043447,-0.002324702284790998,0.0015492389291144226, ,0.21219086647033691
0.010159198734197293,0.019207712877991178,-0.08097144849162252, ,0.01038939757856323,0.019362431957772493,-0.08108692998875203, ,0.000300442137149671, ,0.0004746840651075213,0.003030355656536071,-0.0010804970106655467,-0.010519669338375432,0.0030254811030492384,0.0017723878124262086, ,0.0032520538367044826, ,0.010946094230006954, ,2.860855579447652e-05, ,0.14079314302998702,-0.228438438419561,0.09042270895000001,-4.537480687061622,0.14606441824925584,-1.3917421891815747, ,0.0038882892880134573,-0.03208145421178863,0.0017956046473728354,0.004729915810092195,0.0,0.04336463722867505, ,0.23593592643737793
0.010169267709912189,0.019269513729515835,-0.08099308167715663, ,0.01040179335704238,0.019429689727994182,-0.08111565782883645, ,0.00030781396982996687, ,0.0005375683036054495,0.002961185963654058,-0.0012381439387171426,0.033150925596907625,-0.003660191689999096,7.923467875242074e-06, ,0.003254320575076317, ,0.03335237429533817, ,2.8802559472022963e-05, ,0.1408780930916035,-0.22909487071387008,0.09045900507000001,-4.537480687061622,0.14606441824925584,-1.3911704380005907, ,0.004378605648592649,-0.030810695311191814,0.0019413819266314164,0.004388109659111242,0.0,-0.002066089546831998, ,0.25859785079956055
0.010179958484029895,0.01932527369882717,-0.08101872484522549, ,0.010414198695014339,0.019496865521400977,-0.08114438025320361, ,0.0003163882291906362, ,0.0006712994469281667,0.002859336128833573,-0.0012685907469113021,0.028736963927322636,-0.0050508771278573545,0.0009160068065528391, ,0.003199338764221132, ,0.02917746485762033, ,2.9035040082436135e-05, ,0.14096304315321997,-0.2296663529465627,0.09049789377,-4.537270997118139,0.14606441824925584,-1.390762044299888, ,0.005947935493855373,-0.029489416270500553,0.0019650643375277574,0.0033884164582747957,0.0,0.0009328536514221376, ,0.2830088138580322
0.010194425644144254,0.019384923518085195,-0.08104058261310412, ,0.010426613609006707,0.01956395943161505,-0.08117309739431437, ,0.00032175344069588254, ,0.0005888408589537101,0.0025794012473982775,-0.0009788370214032958,0.004217358929850025,-0.0048505477711484005,0.0009014870180163641, ,0.0028210222024512336, ,0.006427591307984655, ,2.9272941899644628e-05, ,0.14111749781070446,-0.23056218995997274,0.09055104166000001,-4.537270997118139,0.14579114524972495,-1.3901308147917923, ,0.00415148741058451,-0.027829015119786152,0.0018357313984733844,0.0029102375453894185,-0.0036512480631109233,0.037199823210155455, ,0.30658602714538574
0.010205211323506077,0.019438339881159346,-0.08106268587409639, ,0.010439038115528012,0.019630971552090773,-0.08120180938434357, ,0.00033337258498053045, ,0.0004975431610858595,0.0027635710382507093,-0.0012976897682631322,0.0036500596901529537,-0.0027291099202133746,0.0015181199410625426, ,0.0030933594707463655, ,0.004557518699315064, ,2.9768800820805824e-05, ,0.1411638342079498,-0.23085565380919326,0.09056918972000001,-4.537270997118139,0.14579114524972495,-1.389967457311511, ,0.0034187895176068022,-0.028378271997150352,0.001948904463942222,0.002767227233096683,-0.003393314117733872,0.024592741684967383, ,0.3267548084259033
0.010221580806977925,0.019509365267452124,-0.08110164611929055, ,0.010451472231066189,0.019697901976114155,-0.08123051635518087, ,0.00032404273650379754, ,0.0005983697531800002,0.0028133796847830193,-0.0016633627685180843,-0.010500067279701484,-0.003910987214146057,-0.003967260258733053, ,0.003322638606884992, ,0.011204786202991049, ,3.014295768158279e-05, ,0.14126422973531474,-0.23156614523362193,0.09062493019000001,-4.536851617231169,0.14551787225019408,-1.389254549063275, ,0.003524358366343277,-0.027894456660338265,0.0023223227175973174,0.00787697599594428,-0.007708423837843294,0.03849445973047212, ,0.34772181510925293
0.010235063913303876,0.01957893111908243,-0.08114228664979915, ,0.01046391597208828,0.019764750796803288,-0.08125921843843122, ,0.0003171360285915774, ,0.0006033171263948541,0.0028549712966579755,-0.0015673473316977643,-0.01805185933679336,-0.006986350457700625,0.011826491623242008, ,0.0033123149484797438, ,0.019356619493695916, ,3.0431318747352172e-05, ,0.14135690252980543,-0.2322534684594279,0.09068196695000001,-4.536641927287684,0.14551787225019408,-1.3886011191421503, ,0.003790987501132216,-0.028844055184945525,0.0022416002701942024,-0.008099971883362981,-0.007708423837843294,0.04485965082975188, ,0.3674139976501465
0.010246764050193901,0.01963789026110434,-0.0811710646137555, ,0.010476369355042887,0.01983151810710891,-0.08128791576541351, ,0.00032228020480160985, ,0.0005656228768309759,0.002878003124636714,-0.001258063123872765,-0.00013442915381536792,-0.00855485683321562,0.011495816190508825, ,0.0031914814816730083, ,0.008555912963036734, ,3.0719404081134555e-05, ,0.14143412985854767,-0.23285584162361742,0.09072474452000001,-4.536641927287684,0.14538123575042863,-1.3881629862778917, ,0.003965721129669591,-0.02991706858715977,0.00194655051596236,-0.008099971883362981,-0.006777092682003518,0.027965938339433727, ,0.3884298801422119
0.010257371886052028,0.019688841511089936,-0.08119248458143773, ,0.010488832396357608,0.019898203999814047,-0.08131660846716218, ,0.0003358769990979001, ,0.000540583947191268,0.002990387441273932,-0.001211504613099602,0.00667752834553381,-0.0023223733147893525,-0.002083125407565932, ,0.0032714509747895294, ,0.007069851668602622, ,3.105501064818365e-05, ,0.1415113571872899,-0.2333887101919389,0.09075844806000001,-4.536851617231169,0.14524459925066321,-1.3876431746734927, ,0.004072558363382073,-0.031032354989689596,0.0019302900029832624,0.006912788039444802,-0.0033237751982544113,0.024772435708295643, ,0.41029787063598633
0.010271124631139198,0.019755795775113508,-0.08122185252221863, ,0.0105013051124398,0.019964808567534336,-0.08134529667442758, ,0.00033452632195675783, ,0.0005533546997947656,0.0031227323054135235,-0.0014546599613810593,0.027081826217600823,-0.006224628054232817,-0.00918011046961284, ,0.003489082125474171, ,0.027787970521205036, ,3.135087745529712e-05, ,0.14159630724890637,-0.23407603341774488,0.09080381821000001,-4.5364322373442,0.1449713262511323,-1.3868485876851158, ,0.0034185825008171723,-0.03183392873481073,0.0021952606835722163,0.01266922874125969,-0.006741727559487354,0.005274487889325933, ,0.4308598041534424
0.010281872048044578,0.019820606435078287,-0.08125174837181555, ,0.010513787519676684,0.020031331902718292,-0.08137398051767544, ,0.0003363490838042452, ,0.0005180550171983534,0.0031116586056357913,-0.0014748007863065974,-0.003765884840244705,-0.011303228751560476,0.02916709608352362, ,0.0034822173450493035, ,0.01191406181086498, ,3.162878097686928e-05, ,0.14167353457764864,-0.23473246571205397,0.09084918836000001,-4.536012857457231,0.1449713262511323,-1.3864401939844129, ,0.003063192750543042,-0.03222307013869975,0.002209572967124428,-0.02597154883864327,-0.006741727559487354,0.03146281676512522, ,0.45201992988586426
0.010294734544306289,0.019882267892993643,-0.08127958547625258, ,0.01052627963443623,0.020097774097647732,-0.08140266012708677, ,0.00033941629702424644, ,0.0005889019847085059,0.0030696749316572536,-0.0013571063215312958,-0.01121216723058363,-0.009307404755262141,0.027019651853348862, ,0.0034075573805262306, ,0.014571907125707547, ,3.189719895840076e-05, ,0.14176620737213932,-0.23536572980774037,0.09089196593000001,-4.536012857457231,0.14483468975136687,-1.3860020611201542, ,0.004279241800656806,-0.03193033026866446,0.002098381177710447,-0.02304977062483158,-0.005189207168930464,0.03931695576712855, ,0.4749929904937744
0.0103084681655792,0.019946944013055336,-0.08130939215490224, ,0.010538781473065327,0.020164135244437414,-0.08143133563255942, ,0.00033924395696546903, ,0.0004971257062145192,0.003189174352203638,-0.0015856153046254339,-0.004084305853228068,-0.005779065467471242,0.021433161187057154, ,0.0035961288785018794, ,0.007076662488066593, ,3.214212462196819e-05, ,0.1418511574337558,-0.23602988483492368,0.09093733608000001,-4.536012857457231,0.144561416751836,-1.3852891528719182, ,0.0029278681697758185,-0.03255469693258002,0.0023393760493464534,-0.01698761021638559,-0.003601320419171747,0.03380750900716575, ,0.4958808422088623
0.010321467565107363,0.02000873904113052,-0.08133845055867539, ,0.010551293051890655,0.020230415435035422,-0.08146000716370771, ,0.0003416667765774763, ,0.0005764468075977874,0.0031277772744287753,-0.0013779979993715813,-0.005784333676102166,-0.0006286637829033032,0.0027817194995424094, ,0.003466144845025213, ,0.005818396189969808, ,3.237810504980496e-05, ,0.1419438302282465,-0.2366631489306101,0.09098140994000001,-4.536222547400715,0.14442478025207056,-1.3846876625273783, ,0.00434002855826239,-0.03202731743451596,0.002137808551872232,0.0028602970754409733,-0.0021709522848286276,0.03795594851799925, ,0.5171909332275391
0.010328842335163402,0.020047336063817124,-0.08135356546705542, ,0.010563814387220292,0.02029661476122393,-0.08148867484986108, ,0.0003682475791512885, ,0.0004965499467967094,0.002952426777903365,-0.0010354942642960287,-0.0044042939079196475,0.0017837799872386037,-0.006348670269254333, ,0.0031679068957175234, ,0.004751807642257896, ,3.271076580176619e-05, ,0.14207511668710832,-0.2375821541426428,0.09102937267000001,-4.535593477570262,0.14428814375230511,-1.3839228147025573, ,0.0034551975693427185,-0.030011682972318397,0.0013009975061498017,0.0131795284166736,-0.010129325797659464,0.020263366734478067, ,0.5376088619232178
0.010350245416063166,0.020156524184870822,-0.08139146490006165, ,0.010576345495340646,0.020362733314618534,-0.08151733882006718, ,0.00033088924850794047, ,0.0006579066938708339,0.0029468845294453564,-0.001756397277618754,-0.006881651527224782,-0.008485904573933185,0.02247767908771528, ,0.003493121962450066, ,0.010925552808134701, ,3.2862817286316374e-05, ,0.142167789481599,-0.2381999727725808,0.09107085395,-4.5353837876267775,0.1441515072525397,-1.3833213243580174, ,0.004505383941723276,-0.029163165813912345,0.002471115656220912,-0.01878286208965284,-0.004186794801107702,0.0329032526754698, ,0.5582189559936523
0.010358751206326818,0.0201965369090427,-0.0814154483174096, ,0.010588886392518811,0.020428771186668894,-0.08154599920308958, ,0.00035204899854993365, ,0.0007363575209448207,0.003128143457442269,-0.0019477871928696427,0.006332648139638684,-0.00222679587069007,-0.008111416446938663, ,0.0037578423114465404, ,0.006712752958522769, ,3.308885601311592e-05, ,0.1422295713445928,-0.23859383214916624,0.09110455749000002,-4.535593477570262,0.1441515072525397,-1.3830762881375958, ,0.005075675062150438,-0.030173908285682283,0.0027099032868322563,0.012944556349495198,-0.0037585197252885303,0.02503996568584661, ,0.5784599781036377
0.01037257824130033,0.020255050875045214,-0.08145465867841375, ,0.010601437095001517,0.02049472846865883,-0.08157465612740986, ,0.0003524501547217806, ,0.0007080140404004296,0.003127506726495796,-0.0018647615841788081,0.013261648109334301,-0.00945152246199624,-0.007704312800364171, ,0.003709436341482308, ,0.016285041829939555, ,3.3300679465068394e-05, ,0.14229907594046082,-0.23915759164898462,0.09115770538000001,-4.535593477570262,0.14387823425300877,-1.3822000224090787, ,0.004147596263486719,-0.03053312147955945,0.0026198703157894743,0.010429679828778187,-0.010543065762443472,0.017083959260466883, ,0.5994429588317871
0.010385689845475847,0.0203147181347763,-0.08148809492526694, ,0.010613997619015336,0.02056060525170651,-0.08160330972122644, ,0.00035476663165917463, ,0.000723287155087375,0.003066027064685059,-0.0017491927931812426,-0.013424340896922602,-0.008172405737461717,0.0035257622257281167, ,0.003603240444074315, ,0.01571627004216047, ,3.3632864412206086e-05, ,0.14238402600207728,-0.2397445193474257,0.09120566811000001,-4.5353837876267775,0.14374159775324336,-1.3818435682849604, ,0.004649188023937057,-0.030250858003975385,0.0024982452195734008,0.0,-0.009686291819372958,0.042427025892092435, ,0.6172628402709961
0.01040021452247652,0.020378518670051124,-0.08151759412442061, ,0.010626567980767146,0.020626401626764598,-0.08163196011245513, ,0.00035462857686352945, ,0.0005699413412051243,0.002860179307279172,-0.0010420973615830871,-0.0351880120260037,0.003656526369072449,-0.007539254421835658, ,0.003097002698290896, ,0.03537748401778558, ,3.394514784857792e-05, ,0.14249214426231643,-0.2403855061759863,0.09125103826000001,-4.534964407739808,0.1436049612534779,-1.3809970417199988, ,0.0045650008633309,-0.02957212264209124,0.0017569873995855055,0.01385965829213919,-0.004273916359387212,0.06643587601253505, ,0.6365699768066406
0.010412437014423319,0.02044292503630814,-0.08154433954466786, ,0.01063914819644339,0.02069211768462056,-0.08166060742873, ,0.00035638905270811026, ,0.0005568813938803939,0.0031633397709482217,-0.0015842055496280132,-0.029206454188217962,-0.003908467799401447,0.02269527564436746, ,0.003581416286441038, ,0.029466813312223873, ,3.4245955897937805e-05, ,0.14259253978968134,-0.2410419384702954,0.09129381583000001,-4.534754717796323,0.1436049612534779,-1.380180254318593, ,0.0035554905692130176,-0.031984139386070365,0.0023521576373301835,-0.017569249281259695,-0.004273916359387212,0.05842489596135153, ,0.6566200256347656
0.010427285934433454,0.02050862377115592,-0.08158519900623161, ,0.010651738282210539,0.020757753515896808,-0.08168925179740316, ,0.00035110036953540225, ,0.0007281457327564673,0.0034303821537189742,-0.0024290395847377734,-0.0265318730032,-0.004327356529628722,0.022835596883071105, ,0.004265905675575602, ,0.02688245337590845, ,3.451193080259953e-05, ,0.1427006580499205,-0.2416752025659818,0.09135085259,-4.534754717796323,0.1436049612534779,-1.379445145657328, ,0.004211735003276171,-0.03256586875719657,0.0032534337254901966,-0.017569249281259695,-0.0037181148073499003,0.056381759085980816, ,0.6742169857025146
0.01044324113844365,0.02057810542097993,-0.08162105151207964, ,0.01066433825421494,0.020823309211050738,-0.08171789334554447, ,0.00034407437273981984, ,0.0006110667918003165,0.003421346642725618,-0.0014524437096776455,-0.0026851428947659434,7.30509377698022e-05,-0.0038321986436406167, ,0.003766776898558388, ,0.002686136407250598, ,3.4740048005012355e-05, ,0.14281649904303387,-0.24237024852466202,0.09140400048000001,-4.534964407739808,0.14346832475371246,-1.378598619092367, ,0.0044697776101147784,-0.0347735220075012,0.0022995252663490693,0.009893064610502001,-0.0031677163668528763,0.0384090580628128, ,0.692533016204834
0.01045214263572539,0.02061399242193774,-0.08163392155121428, ,0.010676948128583021,0.020888784860375015,-0.08174653219994243, ,0.00037246416209917694, ,0.0008777845664646152,0.0034047774260170787,-0.001264100195879478,0.022166702810661607,-0.007930545229612342,-3.0376263111204246e-05, ,0.003736437390223673, ,0.02354264770861367, ,3.5049014599976667e-05, ,0.1428860036389019,-0.24274093970262478,0.09142603741000001,-4.534754717796323,0.14333168825394704,-1.3780788074879675, ,0.008036507873592877,-0.03506908409403946,0.002148477410304829,0.004967268933699106,-0.0029732409696437033,0.012941493474472552, ,0.7099559307098389
0.010466108845180476,0.020682316580984524,-0.08166335361747148, ,0.010689567921420895,0.02095418055399789,-0.08177516848710445, ,0.0003692513285661541, ,0.0006876596024402901,0.00339079280585461,-0.0016077021272543211,0.016543451564318874,-0.0024064620026039143,-0.0062193590610433135, ,0.003815109134879602, ,0.016717561096649246, ,3.533200572025164e-05, ,0.14300184463201523,-0.24342826292843078,0.09147270385,-4.534335337909355,0.14333168825394704,-1.377425377566843, ,0.005168531965618649,-0.033867573718226546,0.0024547405640314383,0.01155496366520357,-0.002636631654232371,0.018388678929223162, ,0.7280619144439697
0.010480180765847464,0.020755978526588763,-0.08169423282733725, ,0.010702197648814485,0.021019496381883093,-0.08180380233325693, ,0.0003615779763879419, ,0.0006630536457764046,0.003376539409701188,-0.0012375238203034843,-0.010351310552757103,-0.006083585333770448,0.027403890840816698, ,0.0036567914526619044, ,0.012006649852060524, ,3.55771048836862e-05, ,0.14310224015938017,-0.24417736801723056,0.09152196287000001,-4.534125647965871,0.1431950517541816,-1.3767422084821626, ,0.005797202849978634,-0.03518611107099398,0.002096447949460385,-0.02175932949052091,-0.0008316024080703753,0.042476821066232885, ,0.7489068508148193
0.01049471713433479,0.020827923302061374,-0.08172004775135272, ,0.010714837326830328,0.021084732433830477,-0.0818324338643446, ,0.0003564189496894039, ,0.0006330359767917806,0.003390451365590549,-0.0012404307958372067,-0.028959134783619306,0.0016189728314671085,-0.0082450043555421, ,0.003665319026989175, ,0.029004354163503134, ,3.579468703707988e-05, ,0.14321808115249354,-0.24492647310603033,0.09156603673000001,-4.534335337909355,0.14305841525441615,-1.375814003177061, ,0.004731132254341696,-0.03486294693551461,0.002094793729615992,0.014751365213279263,-0.006357643320282623,0.0652643170890721, ,0.7671949863433838
0.010508058053683907,0.020898749154744357,-0.08175013188566745, ,0.010727486971513767,0.02114988879947547,-0.08186106320603245, ,0.0003514625570008516, ,0.0007901922513082955,0.00354344658184779,-0.001714671927535846,-0.022816013270126407,-0.00124057435136536,-0.004787674886630653, ,0.004015036399774721, ,0.022849715233434046, ,3.59873055598734e-05, ,0.14332619941273267,-0.24564468726333322,0.09161399946000001,-4.534335337909355,0.14305841525441615,-1.3749972157756551, ,0.005803638947649052,-0.03522529382274342,0.0026099969719809934,0.010940339708482578,-0.006357643320282623,0.058888220862085235, ,0.7855348587036133
0.010521194039021022,0.02097071720598687,-0.08178664515485438, ,0.010740146598890974,0.02121496556829004,-0.08188969048370426, ,0.00034382528376948054, ,0.0005824599202563138,0.0035554730848252427,-0.0018355606914551592,-0.006744580051092608,0.0005863510836256517,-0.009944881058816645, ,0.004043504849463774, ,0.006770019766442926, ,3.6148943823718765e-05, ,0.14341887220722338,-0.24634745595488763,0.09166844364000001,-4.533706268078901,0.14305841525441615,-1.3741804283742494, ,0.0030912487151518943,-0.03497859991097338,0.0027057604076779346,0.01564915299718506,-0.006276910364889628,0.04307865637401097, ,0.8062469959259033
0.010534914198740891,0.021041656033485977,-0.08181925638387777, ,0.010752816224967933,0.021279962829582645,-0.08191831582246395, ,0.00033776351856397804, ,0.0007762774041591291,0.0034873885903147885,-0.001507505314861377,-0.020190018817824798,0.00010901414570015219,-0.008568596273235888, ,0.00387776457026482, ,0.020190313121402962, ,3.6286152772798506e-05, ,0.1435269904674625,-0.2470579473793163,0.09171899895,-4.533706268078901,0.14305841525441615,-1.3734453197129843, ,0.006073673364885025,-0.0350173216082918,0.0024007251725697066,0.015022881114573335,-0.005439535481262961,0.05673211653687092, ,0.8279030323028564
0.01054701498738014,0.02110819758486006,-0.0818450712692955, ,0.010765495865730466,0.02134488067249808,-0.08194693934713518, ,0.00033783114637544944, ,0.0006117446150826875,0.003254849821124694,-0.0009865988081059788,-0.013284438288547046,-0.00017653586472485662,-0.0059450329211884045, ,0.003455670128978496, ,0.013285611222402008, ,3.641748405509978e-05, ,0.14362738599482744,-0.24773754787224805,0.09176177652,-4.533706268078901,0.14305841525441615,-1.3725468535714382, ,0.005076940266915693,-0.03391599054984659,0.001824962148794862,0.011950672923999449,-0.004801848278147588,0.04831608759963711, ,0.8469419479370117
0.010551603464845261,0.021137185348689986,-0.08185453595314748, ,0.010778185537143667,0.021409719186017855,-0.08197556118226203, ,0.00037451466467672685, ,0.0005242272990179362,0.0031582394857262,-0.0010337240803536152,0.031386468217032386,-0.0053873016322680475,-0.006935071817882308, ,0.0033642051638594606, ,0.031845461309496545, ,3.674158236483156e-05, ,0.14366599965919855,-0.2480387344543428,0.09177862829000001,-4.533706268078901,0.14305841525441615,-1.3722201386108759, ,0.003973004810604279,-0.032711803363829985,0.0018365976617087515,0.010930553167428738,-0.0045626176898473396,0.0018795258092936728, ,0.8621509075164795
0.010566000923588564,0.021204781030477186,-0.08188258499417868, ,0.010790885255153398,0.021474478458960614,-0.08200418145210894, ,0.00037161184601021955, ,0.0005843023362806321,0.003390981472929013,-0.0017055689402720377,0.03988310285527147,-0.001993958424124484,-0.009474343679321477, ,0.0038404596053013638, ,0.03993291579069662, ,3.704589292189645e-05, ,0.1437741179194377,-0.24871833494727455,0.09182399844000001,-4.533286888191932,0.14292177875465073,-1.3717003270064767, ,0.0039000067917550987,-0.03326215967699642,0.002553512587367746,0.014361077234658954,-0.0009733047786436689,-0.005159594055157532, ,0.8780808448791504
0.010576192323723683,0.021241058205696068,-0.0819045824553074, ,0.010803595035685482,0.021539158579982124,-0.08203280028066062, ,0.00039625198711851933, ,0.000866174857086893,0.0034599973623245716,-0.002308137031065044,-0.00615746029988932,-0.0038662646390320524,-0.005043808513211612, ,0.004248451151245151, ,0.007270647807330009, ,3.740341442754983e-05, ,0.14382817704955728,-0.24906585792661468,0.09185510940000001,-4.5330771982484475,0.1426485057551198,-1.3713141337188026, ,0.005675103427114825,-0.032354906770702616,0.003179403497005989,0.009982835122665415,-0.006258132697454575,0.03907253530993591, ,0.8940248489379883
0.010594249615283484,0.021307745422359123,-0.081950040154953, ,0.010816314894644536,0.02160375963757528,-0.08206141779162339, ,0.00038644842069546887, ,0.0010853399629589693,0.003377420892774236,-0.002232597039085947,-0.04028186852132,-0.01914745022984687,-0.00733407918262558, ,0.004191589705717752, ,0.04460105135327983, ,3.772296447806937e-05, ,0.1439362953097964,-0.24969139928942685,0.09191733132,-4.5330771982484475,0.14237523275558894,-1.3704378679902853, ,0.006361990407376499,-0.031887413158088296,0.0030929731106796123,0.00821729806757701,-0.025535092261087505,0.07007156520792904, ,0.9103238582611084
0.010601965595201851,0.02134351727193421,-0.08197212871867074, ,0.010829044847916995,0.02166828172007085,-0.08209003410842336, ,0.00041344723329571597, ,0.0009762886366644012,0.0033780460148159536,-0.0020035695967402143,-0.010356565634288514,-0.01654111755650247,-0.0058369555072304395, ,0.004047051458688872, ,0.01951581465691539, ,3.809925284569967e-05, ,0.1440212453714129,-0.2502165451248741,0.09196399776000001,-4.5330771982484475,0.14237523275558894,-1.3697844380691608, ,0.006189052678270582,-0.033065136431522923,0.0027871936167979004,0.007105995816793901,-0.016467349348276008,0.06953005079497108, ,0.9260799884796143
0.010616136119509983,0.021412863796621842,-0.08200756096446635, ,0.010841784911367067,0.021732724915636843,-0.0821186493542093, ,0.00040690188382431017, ,0.0008989652159253136,0.0034668172333322104,-0.001545942174180067,-0.04918384539490041,-0.005904997361710587,-0.0011954221593755176, ,0.0039008841811416857, ,0.049537053219407844, ,3.8446300157344256e-05, ,0.14409847270015513,-0.2507108000288245,0.09200159017000001,-4.5330771982484475,0.14237523275558894,-1.3691310081480363, ,0.006694983973066271,-0.0346718821916225,0.002450586387692308,0.006336310097267593,-0.01270714544865841,0.08341923425474558, ,0.9430379867553711
0.010630461699509727,0.021477025167074806,-0.08203888748185764, ,0.010854535100840867,0.02179708931227959,-0.08214726365185014, ,0.00040545695264974615, ,0.0009907694249150821,0.0036241517148646687,-0.0015699096856442909,-0.030795033887970478,-0.004615900588269577,-0.00909732357021755, ,0.004071942549543502, ,0.031139053460124657, ,3.87780102584351e-05, ,0.14421431369326848,-0.2513363413916367,0.09204955290000001,-4.5326578183614785,0.14237523275558894,-1.3683142207466308, ,0.008009996933153211,-0.03613744918449001,0.002529587346355408,0.014911394116180799,-0.010027256577876573,0.06789732367011579, ,0.9594550132751465
0.010640284723464776,0.021520480614260633,-0.08205728671184143, ,0.010867295432162584,0.021861374997843023,-0.08217587712393819, ,0.0004263877677217982, ,0.0008868786550601919,0.003669024825630942,-0.001531156602196354,0.001544073873022473,-0.007853537081320834,-0.006016723350107541, ,0.004073418399863562, ,0.008003887105938972, ,3.914868417210198e-05, ,0.14429926375488497,-0.25176881443259325,0.09207936757000001,-4.532448128417994,0.14237523275558894,-1.3677424695656468, ,0.006971478874189285,-0.0368102954066993,0.00249355221039449,0.010798154592468377,-0.00882360887504594,0.03549473285405189, ,0.9746899604797363
0.010658556854271535,0.021598926255267704,-0.08208968486549262, ,0.010880065921138092,0.021925582060009725,-0.08220448989278561, ,0.000411035857033783, ,0.00091112289315357,0.0038955537430255625,-0.0016689179275489277,0.003997899303733191,-0.0072540051482252585,-0.0033604299136177056, ,0.004334832285120522, ,0.00828274045955333, ,3.947102550817037e-05, ,0.14446144114524367,-0.25255653318576415,0.09213251546000001,-4.532448128417994,0.14237523275558894,-1.3669256821642413, ,0.007176163358568839,-0.0389240941585196,0.002690223192028374,0.008730463178242009,-0.0073780320677571684,0.03504586218228338, ,0.9925298690795898
0.01067610076466459,0.021680688673379585,-0.08213475564791661, ,0.010892846583551895,0.021989710586300552,-0.08223310208042824, ,0.0003900580898510197, ,0.000991727888509626,0.004174038239289657,-0.0023342912528124113,0.003000408493843711,-0.006260401807401948,-0.00148844304276132, ,0.0048841616558890225, ,0.006942267774347541, ,3.973436095098016e-05, ,0.1445927276041055,-0.25334425193893506,0.09219862625000001,-4.532448128417994,0.14237523275558894,-1.3661088947628355, ,0.00708781230619413,-0.04005780563886483,0.0034130729633597605,0.007320871877250186,-0.006357969695273974,0.037134502325666466, ,1.011037826538086
0.010690918616188882,0.021761468794168896,-0.08216957353858582, ,0.010905637435169186,0.02205376066407489,-0.08226171380862339, ,0.00037420387197360116, ,0.0008282050992322999,0.004028141054753502,-0.0011763463039749338,0.016353887901600226,-0.009250488258438067,0.005492022931814366, ,0.004277339672069606, ,0.01878885793536569, ,3.995318406104107e-05, ,0.14470856859721887,-0.2541474161578544,0.09225436672000001,-4.53223843847451,0.14237523275558894,-1.3652921073614297, ,0.007243920679955471,-0.04187861498608596,0.002248561761716545,0.0,-0.005611935306370684,0.024539537699537418, ,1.0291528701782227
0.010698208262887244,0.021798871119297035,-0.08217898339435863, ,0.01091843849173487,0.02211773238053122,-0.08229032519885157, ,0.0004032007627000198, ,0.0005309881338864705,0.0036720539774067456,-0.0009124534120241482,-0.010342054448887618,0.00016094624547648736,-0.0037821619995982887, ,0.0038207983511867574, ,0.010343306720631301, ,4.023015373429832e-05, ,0.1447780731930869,-0.2545335528015656,0.09227381107,-4.531819058587541,0.14237523275558894,-1.3649653924008676, ,0.004155688908294851,-0.038560317577598854,0.001869548499634196,0.010315290943852308,-0.00530877452330229,0.04968887117019743, ,1.045590877532959
0.01071063280996722,0.021871328573841806,-0.08219731421670667, ,0.010931249768973217,0.022181625822706538,-0.08231893637231588, ,0.0003996850935287753, ,0.0006231731707892506,0.0037616555185208834,-0.0011590902207545834,0.00022499421471022872,-0.006026325720496254,0.011860941955514119, ,0.003985208549205305, ,0.00603052436228191, ,4.049080277930646e-05, ,0.14489391418620026,-0.2552903806232396,0.09231140348000001,-4.531609368644055,0.14237523275558894,-1.3643119624797433, ,0.004924246345772302,-0.039020123996081735,0.002143562309245055,-0.006325265353515375,-0.0048092289411598,0.03719656395511921, ,1.0610699653625488
0.010728301976831459,0.021956667178168618,-0.08223462070407371, ,0.010944071282589628,0.022245441077477633,-0.08234754744994204, ,0.00037775548726908664, ,0.0007245293867657143,0.003842785142288113,-0.002037671043280124,-0.005272361015288893,-0.0010456584726114086,0.013075382058273348, ,0.004409540085167577, ,0.005375052770136567, ,4.069584597020633e-05, ,0.14502520064506208,-0.2561398812394043,0.09237103282,-4.531609368644055,0.1422385962558235,-1.3637104721352034, ,0.00511209414464494,-0.03718532192730046,0.0030277155521763926,-0.006325265353515375,0.0,0.04160393453102294, ,1.07692289352417
0.010737762143018128,0.021995768398761918,-0.08225555633242189, ,0.01095690304826823,0.02230917823156002,-0.08237615855237936, ,0.0004009904676012105, ,0.0008623287825399467,0.004065366300330228,-0.0021994523949441904,0.008815507882415904,-0.005243902835654533,0.012498061545329885, ,0.004701957562833085, ,0.010257275277735817, ,4.103235968647237e-05, ,0.14508698250805585,-0.2565182951502413,0.09240214378000002,-4.531609368644055,0.14210195975605808,-1.3633540180110852, ,0.006326844770770272,-0.03916506048636846,0.003256759664690248,-0.006325265353515375,-0.0013496493011347802,0.029156745203507146, ,1.090505838394165
0.010745045112079212,0.02203546031131797,-0.08227914542196318, ,0.010969745081673945,0.0223728373715093,-0.08240476980000037, ,0.0004243758256975144, ,0.0008401539670072281,0.004111702299995534,-0.0025160641965726463,-0.0021692417513202184,0.0026277660005087273,-0.006504473449777191, ,0.004893110823733844, ,0.003407457091184872, ,4.140986321947805e-05, ,0.1451333189053012,-0.2568967090610783,0.09243584732000001,-4.531819058587541,0.14210195975605808,-1.3629456243103824, ,0.005456442167124954,-0.03843537527682089,0.0035706818022864834,0.013980155720323986,-0.001295564589137892,0.04239961927176825, ,1.103766918182373
0.01076539327140292,0.022119362242945667,-0.08233394944073265, ,0.010982597398450776,0.022436418583720315,-0.08243338131290157, ,0.0003969748773348841, ,0.0009729645096486334,0.004092744341842029,-0.002805610160243087,0.01010689254685064,-0.0002504845578892047,-0.004806618293059596, ,0.005056546702639559, ,0.01010999600857939, ,4.172056551658687e-05, ,0.14526460536416302,-0.2576689823485008,0.09251232843000001,-4.531399678700571,0.14196532325629263,-1.3619357402651397, ,0.006613432477691653,-0.03727295426491389,0.0038634032306572893,0.011684746080057831,-0.0005409130115242812,0.028621671084417863, ,1.1171958446502686
0.01076886529782506,0.02213543692898221,-0.08234405628782396, ,0.010995460014223708,0.0224999219544284,-0.0824619932109029, ,0.0004450883250542788, ,0.0010533358263787498,0.0041365967229814666,-0.002703224863146232,0.005650525041870788,0.0008391181549497311,-0.009674613009789047, ,0.005052561080525992, ,0.0057124909087391176, ,4.212297240079091e-05, ,0.1452877735627857,-0.257815714273111,0.09252658762,-4.531189988757087,0.14196532325629263,-1.3617723827848587, ,0.007733400454183263,-0.03794359918371483,0.0037871639372325256,0.017123497597676292,-0.0005351642122277717,0.03456476592103241, ,1.1323819160461426
0.01078683372964462,0.022211747663207708,-0.08239168039972845, ,0.011008332944597321,0.022563347569708538,-0.08249060561354844, ,0.0004271657692341303, ,0.0009599050032774211,0.0037022006237413126,-0.002214804373040833,-0.0160354450353565,0.009268936649504282,-0.024819078756034327, ,0.004419622776277223, ,0.018521573476386107, ,4.247894777799374e-05, ,0.14540361455589906,-0.2585262056975397,0.09259399470000002,-4.530980298813603,0.14182868675652718,-1.360599141259335, ,0.007551863355687325,-0.03420942377738672,0.0031991989395460945,0.03360538742980343,0.0007207444317476628,0.055254210103385944, ,1.146697998046875
0.010801344632898446,0.022287962296166836,-0.08242874548198728, ,0.011021216205155338,0.02262669551547608,-0.08251921864010667, ,0.00041384670409514915, ,0.0005828049710713734,0.004147072631469882,-0.0016949825010794952,-0.036179756497519,0.0005832110151125064,0.03240134528316023, ,0.004517835623831143, ,0.036184456819108486, ,4.279945789377436e-05, ,0.14551173281613822,-0.2592675880534652,0.09265103146,-4.530980298813603,0.14182868675652718,-1.3594556388973673, ,0.006806959095538281,-0.03768742714792326,0.0031895898117741293,0.012016234963742274,0.0007207444317476628,0.0467948401901047, ,1.1613290309906006
0.010810656580768567,0.022330970373701457,-0.08245243010145592, ,0.011034109811462177,0.022689965877487044,-0.08254783240957106, ,0.00043348669926466615, ,0.0008673863694468642,0.004207351189600816,-0.002411059836442239,0.02967704536480179,-0.0014571205790805562,-0.0029652634315879933, ,0.00492619251363997, ,0.029712795591882724, ,4.315142990951544e-05, ,0.14558123741200624,-0.25967689289579915,0.09268603129000001,-4.530980298813603,0.14182868675652718,-1.3592106026769455, ,0.006164314416602315,-0.03960640298767562,0.0035100950903481716,0.009773438169564797,0.0007207444317476628,0.011095148567198397, ,1.1747009754180908
0.010820580643951402,0.0223746447242419,-0.08247583823998098, ,0.011047013779062446,0.022753158741337928,-0.08257644704065875, ,0.00045240132248724395, ,0.0008319716571478613,0.0041206724399164936,-0.00223833505642442,0.02378404844405974,-0.0010188390253995832,-0.0013224415324984342, ,0.004762589843793313, ,0.02380586048209289, ,4.353232113595274e-05, ,0.14565846474074848,-0.26009392047100727,0.09272103112,-4.530980298813603,0.14182868675652718,-1.3589655664565239, ,0.006044678104879426,-0.03914890328319751,0.0033191938987289027,0.008206783573915827,0.0007207444317476628,0.016368969150557678, ,1.1884818077087402
0.010837555381228194,0.02246165384484955,-0.0825203679545453, ,0.011059928123479635,0.02281627419246613,-0.08260506265181268, ,0.00042705786397787335, ,0.0007334058822016113,0.00416208243445609,-0.0020923025340772883,0.002635269210145431,0.0006606160497091532,0.007507986250240696, ,0.004715776105092576, ,0.0027168101396630347, ,4.385501362070402e-05, ,0.14578202846673607,-0.2609279756214235,0.0927884382,-4.530770608870118,0.14182868675652718,-1.3586388514959618, ,0.005143798257583149,-0.040142530270080704,0.0031806732268370606,0.0,0.0007207444317476628,0.037563479102497487, ,1.2036428451538086
0.010843485193413487,0.022498673747326236,-0.08253777711437704, ,0.01107285286021833,0.022879312316150074,-0.08263367936120064, ,0.0004546344549168833, ,0.0009557570365017604,0.004174300633050338,-0.0017961490866673564,0.006096552372753718,-0.006539828514848798,0.000944169393513194, ,0.004643749436548344, ,0.008940766623655044, ,4.422329126145913e-05, ,0.14583608759685565,-0.26128322133363785,0.09281566029,-4.530560918926633,0.14196532325629263,-1.3584235544390957, ,0.007651847505680935,-0.04108092708158908,0.0029227177100917437,0.005176263692610371,-0.00524423411629453,0.034883781761942935, ,1.2168769836425781
0.010855520540324399,0.02255099249387137,-0.08256271266360647, ,0.011085788004762795,0.022942273197509654,-0.0826622972867153, ,0.000464801884008968, ,0.0008568303433788153,0.004490102330124923,-0.002374822963412883,-0.01784890514667024,0.0008733183846981608,0.0027741835653410842, ,0.0051512096909251395, ,0.017870257408900043, ,4.460249684404509e-05, ,0.1459210376584721,-0.2617929217033367,0.09285454899000001,-4.530560918926633,0.14182868675652718,-1.3577403853544152, ,0.00566865234309144,-0.0428622138927149,0.0035507827730717795,0.005176263692610371,-0.0032968083308070593,0.06113335435686013, ,1.230362892150879
0.010866527912766865,0.02259836743744334,-0.08258894786631475, ,0.011098733572576253,0.023005156921505565,-0.08269091654597635, ,0.00047936913169608123, ,0.001123378458626739,0.004468951475714961,-0.0024483721924364737,-0.029788221037776445,-0.0007194668600010502,0.0035446647038555397, ,0.005218048758520536, ,0.029796908313952413, ,4.5000530961774056e-05, ,0.14600598772008858,-0.2622408402100417,0.09289343769000001,-4.530560918926633,0.14182868675652718,-1.357250312913572, ,0.008703120267826108,-0.04227035258729211,0.003650885060738025,0.004750758258490503,-0.0032968083308070593,0.07254194759271516, ,1.2439818382263184
0.010889582340810406,0.022705383772525477,-0.08263921098725478, ,0.011111689579102774,0.023067963572940636,-0.08271953725632805, ,0.0004327216732198547, ,0.001010581474322258,0.004744308319168864,-0.002179510488792526,-0.012051763769852189,-0.0011657414381271015,0.002348082909508781, ,0.005317894537722131, ,0.012108012347850814, ,4.5302981681939874e-05, ,0.14619133330906997,-0.2632756864151878,0.09297251138000001,-4.5303512289831485,0.14182868675652718,-1.356106810551604, ,0.007844911564035922,-0.04608884971271043,0.003456023328270775,0.006092524150290048,-0.0030538434272227395,0.05866578082823602, ,1.2571899890899658
0.010899915984441526,0.02275505570664871,-0.08266077543467142, ,0.011124656039766631,0.023130693236459384,-0.08274815953484034, ,0.00044637162458217237, ,0.0011419441450344194,0.004534859607001004,-0.0019309889973123237,-0.01900273750960272,-0.002410017764443488,0.002897176520056047, ,0.00505941761404699, ,0.01915495284402831, ,4.562385251740042e-05, ,0.14627628337068643,-0.2637622185862639,0.09300751121,-4.5303512289831485,0.14182868675652718,-1.3556167381107609, ,0.009857009016581085,-0.044406617481736445,0.003181943971234519,0.0055406780208300515,-0.002850276461489564,0.06395641783473072, ,1.2705128192901611
0.010908706659040538,0.022799099744301922,-0.08268000750076608, ,0.011137632969972142,0.02319334599654814,-0.08277678349831034, ,0.00046605038026765853, ,0.0008251859470607434,0.004712581049541692,-0.0019098714953221926,0.0115886140447053,0.00025215584377068527,-0.007005124839808431, ,0.005151403801331268, ,0.011591357039677353, ,4.6057242531390685e-05, ,0.14634578796655445,-0.26418696889434623,0.09303862217000002,-4.5299318490961795,0.14182868675652718,-1.355208344410058, ,0.00612218619307577,-0.04640437240023021,0.0031705436942675164,0.015136148814726422,-0.0026875946534920974,0.036438147499989464, ,1.2816238403320312
0.010919494301198448,0.022848469227645628,-0.08270426532606778, ,0.01115062038510158,0.02325592193753538,-0.08280540926326194, ,0.0004792359267501098, ,0.0011490964844458106,0.005040008156710842,-0.0026525468432613084,-0.016785212378903864,0.001476006015461196,-0.004021110236012751, ,0.005810172949747113, ,0.016849983627032692, ,4.650661024636028e-05, ,0.14643073802817091,-0.2646580555996739,0.09307621458000001,-4.529722159152695,0.14182868675652718,-1.3547182719692146, ,0.008681247712757018,-0.047686905305764214,0.0040102748036253775,0.013486113176335463,-0.0025382808207452903,0.06617238178761473, ,1.2930409908294678
0.010930297302240701,0.022901173341205342,-0.08272893293381314, ,0.011163618300519582,0.023318421143591988,-0.08283403694594439, ,0.0004894703976753081, ,0.000937611952159914,0.004946720232008161,-0.0019674063921481075,0.024404579457558872,-0.002623529516833265,-0.0054230069066494024, ,0.005405538376374478, ,0.024545191089020344, ,4.696624771763668e-05, ,0.1465156880897874,-0.26516775596937275,0.09311510328000001,-4.529722159152695,0.14182868675652718,-1.3543915570086522, ,0.007382075161882913,-0.04874008297815653,0.0033061045080946456,0.013486113176335463,-0.0023969492789139516,0.025632856805123644, ,1.3041248321533203
0.010943556674506916,0.022957486493887326,-0.0827483472255627, ,0.011176626731569411,0.02338084369873141,-0.08286266666233513, ,0.0004966104187554663, ,0.0009997593186725775,0.004865518131292643,-0.0017653634469985237,0.005125949223424944,-0.007701864809444342,0.023283405362528254, ,0.005271555129296156, ,0.009251706705626892, ,4.743039520020278e-05, ,0.14662380635002653,-0.26573151546919116,0.09315010311000001,-4.529512469209211,0.14169205025676176,-1.3536267091838312, ,0.008740867021812563,-0.04876512926951222,0.0031038214185502735,-0.015400124525749351,-0.000586942896806603,0.04128082683781638, ,1.315363883972168
0.010960056989211802,0.023030991546859742,-0.08278150806317636, ,0.011189645693574987,0.023443189686809755,-0.08289129852813744, ,0.0004844297946511823, ,0.00120079493925748,0.005202414796259759,-0.0024389001673314394,-0.022740089744781606,0.0032465427179122317,-0.013977210791807198, ,0.005869860494483508, ,0.022970670889933945, ,4.7864978361275134e-05, ,0.14674737007601413,-0.26644972962649405,0.09320325100000001,-4.529722159152695,0.1415554137569963,-1.3528618613590104, ,0.009443676029093384,-0.04984083065045734,0.003861530065454546,0.02414122352381726,-0.00419191286406163,0.07562071446050465, ,1.3275480270385742
0.010974712148728156,0.0231089330476849,-0.08281888986907529, ,0.011202675201839863,0.023505459191526024,-0.08291993265878267, ,0.0004684119785886912, ,0.0010963534602019453,0.004900137150029746,-0.0023520807146970467,-0.021239448725773998,0.002162831673226833,-0.009415803336796385, ,0.005544873189465039, ,0.021349286239813914, ,4.8264084784240844e-05, ,0.14685548833625328,-0.2671988347152938,0.09326158405000001,-4.529722159152695,0.1415554137569963,-1.3521267526977452, ,0.008366411124280692,-0.04679336368760887,0.0036880786107895353,0.01868149218722603,-0.00419191286406163,0.07028106187944928, ,1.339115858078003
0.010985329003892368,0.023166304728378183,-0.08284622759624873, ,0.011215715271647204,0.023567652296422107,-0.08294856916942997, ,0.00047395305711218656, ,0.0010404575344675725,0.005738537238994707,-0.0027880241207250207,0.020320809094802692,-0.006299866187495144,0.008045477558311469, ,0.006464243190204393, ,0.02127495231673401, ,4.8665868261254624e-05, ,0.14693271566499552,-0.26774714874936373,0.09330436162000001,-4.529512469209211,0.1415554137569963,-1.3517183589970425, ,0.006987447831789767,-0.05504462967428699,0.004323781628664496,0.0001586097974825412,-0.00419191286406163,0.03390126465577204, ,1.352294921875
0.010996271074122122,0.02322173123328974,-0.08287539624189955, ,0.01122876591826056,0.02362976908488356,-0.0829772081749657, ,0.00048053554561439533, ,0.0011821217037577443,0.005397019480442984,-0.0027091341091548373,0.002494976232419201,0.0003280368946626752,-0.01347261948921105, ,0.006153424950071492, ,0.0025164487792649335, ,4.9072043268631544e-05, ,0.14700994299373776,-0.2682645718519368,0.09334843548,-4.529093089322242,0.1415554137569963,-1.351228286556199, ,0.008733484571669455,-0.051047305841027846,0.004177501054287963,0.022820869521914876,-0.00419191286406163,0.05114853921750189, ,1.3631489276885986
0.01100689886999314,0.023275218918570616,-0.08289833953097264, ,0.011241827156923524,0.02369180964013898,-0.08300584979000403, ,0.0004902015759806286, ,0.0009459003742836179,0.005250452336290697,-0.002132124230630865,0.01774391541368384,-0.00039355999436108775,-0.012559293906118766, ,0.00574525290901746, ,0.01774827945557165, ,4.948773318312641e-05, ,0.14709489305535423,-0.26878199495450983,0.09338602789000001,-4.528883399378757,0.1415554137569963,-1.3508198928554964, ,0.00694924111028323,-0.051240249221636495,0.003559510954189944,0.021264441214517184,-0.00419191286406163,0.03571468774123981, ,1.3742890357971191
0.011017055361331653,0.023325765405536783,-0.0829180754063969, ,0.011254899002859408,0.02375377404526092,-0.08303449412888794, ,0.0005033033999886497, ,0.0011561084072866708,0.005317844480615793,-0.0022608963204347817,0.005987036883165474,-0.01697517013713819,0.04105640390608079, ,0.0058930220380692885, ,0.018000028104591864, ,4.991848189368704e-05, ,0.14717984311697072,-0.2692762498584602,0.09341973143000001,-4.528673709435273,0.1415554137569963,-1.350329820414653, ,0.009362163876105585,-0.05228481628565883,0.0037295273987356593,-0.03459165378871451,-0.00419191286406163,0.04065974157200702, ,1.3864858150482178
0.01102693791270084,0.023379448850990938,-0.0829410133524525, ,0.011267981471271135,0.023815662383165473,-0.0830631413056886, ,0.0005131271574785863, ,0.0010547392051147345,0.0053873682647525905,-0.0021739187392204895,0.012911979488440114,-0.0019027787577469185,-0.003779225467283652, ,0.005904416507632519, ,0.013051428322688597, ,5.0358439736775775e-05, ,0.14735746597307786,-0.2704192143238454,0.09350269399000001,-4.528883399378757,0.14141877725723084,-1.3491565788891293, ,0.008324649299266117,-0.05254537184854417,0.00365927211578222,0.012911503194122402,-0.002754228736610892,0.040914159198068796, ,1.3983378410339355
0.011050656825092394,0.023498383464743228,-0.08299132580524954, ,0.011281074577341725,0.023877474736612805,-0.08309179143420575, ,0.0004548580828795892, ,0.0011278932604108552,0.005537121165656066,-0.0022540220538990936,0.006950880106495488,-0.002265081475629019,-0.0010277363982958952, ,0.006083787424746209, ,0.0073106311825949875, ,5.069464153180179e-05, ,0.1474346933018201,-0.27095980562504113,0.0935402864,-4.528883399378757,0.14141877725723084,-1.3485848277081454, ,0.009054640532394116,-0.05391871679458567,0.0037880645707491084,0.01054244127977995,-0.002716140215718731,0.04797495921806287, ,1.4095678329467773
0.011061792047023416,0.023552819592406835,-0.08301787708630695, ,0.011294178336235153,0.02393921118820747,-0.0831204446279674, ,0.000462408859475281, ,0.001193426961097726,0.005690266345147484,-0.002890744552889321,-0.008989374833799642,-0.00010329988560523113,0.0010732261541156333, ,0.006493058066909022, ,0.008989968329591444, ,5.103772141984164e-05, ,0.1475196433634366,-0.2714772287276142,0.09358176768000001,-4.528883399378757,0.14141877725723084,-1.3481764340074427, ,0.008724098299111107,-0.05361409127597219,0.0044481461938006145,0.00897563687824978,-0.0025832285121317254,0.06356790397885442, ,1.4209368228912354
0.011066112576907433,0.023573763907409378,-0.08302901579455829, ,0.011307292763094154,0.02400087182039819,-0.0831491010002316, ,0.0005049846613198465, ,0.0010421200064277118,0.005794350528860178,-0.0028660470126585097,-0.02141824618069514,0.0009890936985935063,0.010346688786450706, ,0.006547880392758247, ,0.021441072165544268, ,5.152847798695498e-05, ,0.14755053429493348,-0.2716702970494698,0.09359861945,-4.528673709435273,0.14141877725723084,-1.3480130765271614, ,0.007008151800934583,-0.05501271974404103,0.004434524365256124,0.0,-0.0025371264275419266,0.07624494446543544, ,1.4299969673156738
0.01108458937576131,0.023664400848044304,-0.08306462776929481, ,0.011320417873042284,0.02406245671547837,-0.08317776066398473, ,0.00047630096114684725, ,0.0010834376997262785,0.005280399030651618,-0.001982827591990442,-0.01577821369076125,0.0033802706963404986,-0.00822277979793706, ,0.005743522998269732, ,0.016136240492172098, ,5.196638244270706e-05, ,0.14770498895241796,-0.2725506885971314,0.09365954508,-4.528254329548303,0.14141877725723084,-1.3471962891257558, ,0.009005863938020324,-0.051658650821159925,0.0034620324972832,0.01878474382403465,-0.0023481366563794072,0.06991327201065402, ,1.4389369487762451
0.01108458937576131,0.023664400848044304,-0.08306462776929481, ,0.011333553681181293,0.024123965955585937,-0.08320642373194363, ,0.0005415620079607823, ,0.0010834376997262785,0.005280399030651618,-0.001982827591990442,-0.01577821369076125,0.0033802706963404986,-0.00822277979793706, ,0.005743522998269732, ,0.016136240492172098, ,5.2503735869744014e-05, ,0.14770498895241796,-0.2725506885971314,0.09365954508,-4.528254329548303,0.14141877725723084,-1.3471962891257558, ,0.009005863938020324,-0.051658650821159925,0.0034620324972832,0.01878474382403465,-0.0023481366563794072,0.06991327201065402, ,1.4480350017547607
0.011095862153354586,0.023721477691600948,-0.08308761161917874, ,0.011346700202595855,0.02418539962270414,-0.08323509031655378, ,0.0005476251010363933, ,0.0013085973517161793,0.00600312403284066,-0.0026593769324595507,0.023632118907941393,-0.002878090520422224,-0.007894440663190557, ,0.006694939196996914, ,0.023806731169772357, ,5.304391212183588e-05, ,0.14779766174690867,-0.27310672536407554,0.09369843378,-4.528254329548303,0.14141877725723084,-1.3467062166849124, ,0.010482447291051295,-0.05744366922425592,0.004335550223189984,0.017963738324330004,-0.0022454223305029704,0.03577654402037853, ,1.4570488929748535
0.011111912858140357,0.023787103109547462,-0.08312123908363599, ,0.011359857452347678,0.024246757798660847,-0.08326376052999131, ,0.0005413606170490865, ,0.0012449045787617577,0.006096833359056832,-0.0032864481626291124,0.0020930182841907585,0.002456198536577187,-0.00426582787641294, ,0.007037180255185913, ,0.003227016641676455, ,5.356725865373054e-05, ,0.14791350274002205,-0.2737245439940135,0.09375028538,-4.528254329548303,0.14128214075746542,-1.3459413688600916, ,0.008798029412457562,-0.056519917545247635,0.004956070790292471,0.015352864675399173,-0.0006358276066090572,0.05646975498746004, ,1.4658830165863037
0.011127394958914804,0.02384994772467672,-0.08315978269834745, ,0.011373025445480127,0.024308040565129703,-0.08329243448416249, ,0.0005364511931988933, ,0.0015257483257891183,0.006358120632040505,-0.004044520332768967,-0.03127679204471669,0.000739641552792603,-0.002486365975876241, ,0.007688416654123854, ,0.031285536421049295, ,5.4076235207575674e-05, ,0.14801389826738695,-0.2742960262267061,0.09380602585000002,-4.528254329548303,0.14114550425769998,-1.3452581997754112, ,0.01029672282046825,-0.056995160095177654,0.0057838821786492375,0.013541748271540406,-0.005149122974934868,0.08974841408586738, ,1.4746479988098145
0.011143288151169202,0.023917732672867252,-0.08320889381149067, ,0.011386204197016032,0.02436924800362957,-0.0833211122907035, ,0.0005248497750024331, ,0.0016573583265075695,0.006806362108127351,-0.005350795941989647,0.007461992769398936,-0.006948544640209423,0.006829683197183792, ,0.008815011002954485, ,0.010196254426077725, ,5.456060700376426e-05, ,0.14811429379475188,-0.2748829539251472,0.09387343293000001,-4.528044639604819,0.14114550425769998,-1.3445230911141461, ,0.009577693113609637,-0.05793464075608717,0.007171909734353896,0.0022987087738765488,-0.005085776770147962,0.0499487898251209, ,1.4835779666900635
0.011160339867648849,0.023982468411078692,-0.08325749990540894, ,0.011399393721958256,0.02443038019552503,-0.08334979406098122, ,0.0005160328701341503, ,0.0016590260123867317,0.006863053202211934,-0.004848887106481509,-0.003965653048953803,0.0006161904172992335,-0.0052313431431090405, ,0.008565370554597735, ,0.004013239595960054, ,5.502517867633695e-05, ,0.1482146893221168,-0.2754389906920914,0.09393954372,-4.527834949661335,0.14100886775793453,-1.3437582432893251, ,0.010717291616332876,-0.05975877931893626,0.006715350556492412,0.016743006818134537,-0.002333401284393211,0.06578424094570606, ,1.492583990097046
0.011174818811152683,0.02404626231790371,-0.08329700743579158, ,0.011412594035290245,0.024491437222026523,-0.08337847990609297, ,0.0005112294161053688, ,0.0014595535664845465,0.006619179721167967,-0.003884926102099058,-0.005871454297723843,0.0006554026972590881,-0.0020356016473015415, ,0.007812585206788441, ,0.005907920732448456, ,5.547654100408892e-05, ,0.14831508484948172,-0.276010472924784,0.09399658048000001,-4.52762525971785,0.14100886775793453,-1.3431048133682006, ,0.01006248710554692,-0.060099393007264586,0.005707205847366536,0.013521851177275938,-0.002333401284393211,0.06758827178576823, ,1.50174880027771
0.011191480199032088,0.024118315344674818,-0.08333788253869037, ,0.011425805151973188,0.024552419164190594,-0.0834071699368684, ,0.0004981516367887553, ,0.0014406659447925346,0.006440756688787387,-0.0034719952003181343,0.015191288299162895,-0.0045487600594095665,0.002528767010580305, ,0.0074574537048295916, ,0.015857693961034286, ,5.5902188882012496e-05, ,0.1484386485754693,-0.27666690521909304,0.09405750611000001,-4.527415569774365,0.14100886775793453,-1.3423697047069356, ,0.010571876744652825,-0.059422004732918456,0.0052657228165289265,0.007696236894030983,-0.002333401284393211,0.04479579008717245, ,1.5104598999023438
0.011191480199032088,0.024118315344674818,-0.08333788253869037, ,0.011439027086951147,0.02461332610292,-0.08343586426386662, ,0.0005620636360461293, ,0.0014406659447925346,0.006440756688787387,-0.0034719952003181343,0.015191288299162895,-0.0045487600594095665,0.002528767010580305, ,0.0074574537048295916, ,0.015857693961034286, ,5.642049650914584e-05, ,0.14853904410283422,-0.27725383291753414,0.09410287626000001,-4.527415569774365,0.14100886775793453,-1.3417979535259517, ,0.011042231970964716,-0.06438055736666945,0.004702926341895483,0.007696236894030983,-0.002333401284393211,0.04370357145627684, ,1.5195369720458984
0.0112042079615184,0.024180076731045396,-0.08336590130834225, ,0.011452259855146293,0.024674158118963806,-0.08346456299737949, ,0.0005615872939298461, ,0.0013820095720484833,0.006708477487686854,-0.0028081453931442326,0.021175592166851772,-0.005168542044113836,0.00322509971666526, ,0.007402655010810117, ,0.021797236758451403, ,5.693176790624366e-05, ,0.14853904410283422,-0.27725383291753414,0.09410287626000001,-4.527415569774365,0.14100886775793453,-1.3417979535259517, ,0.011042231970964716,-0.06438055736666945,0.004702926341895483,0.007696236894030983,-0.002333401284393211,0.04370357145627684, ,1.5287249088287354
0.01121908819409897,0.024250744976116224,-0.08339509163213815, ,0.011465503471461296,0.02473491529291781,-0.08349326624742946, ,0.0005520685099486279, ,0.001282381985517187,0.0063276090646712324,-0.0024549410992768268,-0.027439153736228336,0.0016698498265337223,0.004560034538502812, ,0.006907233587552043, ,0.02748991735372045, ,5.742245086891182e-05, ,0.14866260782882182,-0.2779334334104659,0.09415213528000001,-4.527415569774365,0.14100886775793453,-1.3410628448646866, ,0.010484544664774621,-0.061263358010633165,0.004252218772023492,0.007696236894030983,-0.002333401284393211,0.08970051410582663, ,1.5389518737792969
0.01123286698845085,0.02431295164120399,-0.08341748840800783, ,0.011478757950778762,0.024795597705224503,-0.08352197412377171, ,0.0005516582758082503, ,0.0013053245440215687,0.006695489766570678,-0.0021399329231669728,0.029214413304257298,-0.0003085975734185391,0.005328873860425159, ,0.007149319428808014, ,0.029216043146350446, ,5.7906613985201444e-05, ,0.14877072608906095,-0.2785435293075296,0.09419232027,-4.527415569774365,0.1408722312581691,-1.3402979970398659, ,0.012036649106858291,-0.06608422114099637,0.004068661946360154,0.007696236894030983,0.00464242212910297,0.03828227385293393, ,1.5478579998016357
0.011246112966141543,0.024379877386743576,-0.08343974013692695, ,0.011492023307961934,0.0248562054361735,-0.08355068673589287, ,0.0005474207291563246, ,0.001176962469941948,0.006551744847945006,-0.0025003662683921557,0.047804322990838005,-0.0005276259291944118,0.002319670465535357, ,0.007110726593277166, ,0.04780723465790292, ,5.8466046451070786e-05, ,0.14888656708217432,-0.2791999616018387,0.09423380155000001,-4.5272058798308805,0.1408722312581691,-1.340216318299725, ,0.009881742113658448,-0.06334909316319812,0.00435928065681445,0.009582149918460152,0.00464242212910297,0.017041643491788473, ,1.5544748306274414
0.0112601200096289,0.024454034888273826,-0.08347046014950688, ,0.011505299557851229,0.024916738565901222,-0.08357940419301292, ,0.0005348612051475321, ,0.0016264718550575645,0.007248550379530052,-0.003181247754052684,0.03154138214563809,-0.009567012007265927,-0.005891633986188009, ,0.008081288917774498, ,0.032960377820627614, ,5.9001758918722536e-05, ,0.14901013080816192,-0.27990273029339313,0.09428565315000001,-4.526786499943912,0.14100886775793453,-1.3399193425027187, ,0.01271224937152991,-0.06871610540077536,0.005250102676334873,0.016329132958547304,-0.006968612642080643,0.038140052378030795, ,1.5611279010772705
0.0112601200096289,0.024454034888273826,-0.08347046014950688, ,0.011518586715271662,0.024977197174392004,-0.08360812660408243, ,0.0005995463854095223, ,0.0016264718550575645,0.007248550379530052,-0.003181247754052684,0.03154138214563809,-0.009567012007265927,-0.005891633986188009, ,0.008081288917774498, ,0.032960377820627614, ,5.962867451019635e-05, ,0.14901013080816192,-0.27990273029339313,0.09428565315000001,-4.526786499943912,0.14100886775793453,-1.3399193425027187, ,0.01271224937152991,-0.06871610540077536,0.005250102676334873,0.016329132958547304,-0.006968612642080643,0.038140052378030795, ,1.5676968097686768
0.011276694612628573,0.024524432217801678,-0.08350630633186766, ,0.01153188479459509,0.025037581341433503,-0.083636854078008, ,0.0005877812229720646, ,0.001649523072786018,0.007688332936534991,-0.004286432697039285,-0.009380661313273342,0.009256214796371294,-0.03593602163349773, ,0.008955718562846294, ,0.013178555216102698, ,6.023265560242897e-05, ,0.1491259718012753,-0.280551439854828,0.09434139362,-4.526367120056943,0.1408722312581691,-1.3391544946778977, ,0.01106630983857434,-0.06947067464016894,0.006433284135702748,0.0504181679432865,-0.005651654463690926,0.08534440576087116, ,1.5746150016784668
0.011297877290421816,0.024605651921654304,-0.08355617900077056, ,0.011545193811463544,0.02509789114679294,-0.08366558672276202, ,0.0005616359728299354, ,0.002100801903531662,0.008094829530419541,-0.005413783102035058,-0.047341747569489,-0.023874430267452795,0.04260532100135146, ,0.009962363235714448, ,0.053021028647868895, ,6.079285855246227e-05, ,0.1492572582601371,-0.2812773767450051,0.09441398586000001,-4.526157430113458,0.14059895825863825,-1.3379515139888183, ,0.013378956937610431,-0.071512390021455,0.007669143726528648,-0.03448313561702606,-0.01723138016525044,0.11181926506288942, ,1.5812699794769287
0.011297877290421816,0.024605651921654304,-0.08355617900077056, ,0.011558513780209268,0.02515812666995327,-0.08369432464671835, ,0.000626293818276263, ,0.002100801903531662,0.008094829530419541,-0.005413783102035058,-0.047341747569489,-0.023874430267452795,0.04260532100135146, ,0.009962363235714448, ,0.053021028647868895, ,6.144280766317805e-05, ,0.1492572582601371,-0.2812773767450051,0.09441398586000001,-4.526157430113458,0.14059895825863825,-1.3379515139888183, ,0.013378956937610431,-0.071512390021455,0.007669143726528648,-0.03448313561702606,-0.01723138016525044,0.11181926506288942, ,1.5879490375518799
0.01131714314746109,0.024686005583957976,-0.08361044012395193, ,0.011571844715574599,0.025218287990289613,-0.08372306795776084, ,0.0006007349480745788, ,0.0020757532597657107,0.008160458425508282,-0.0052436771681195204,-0.05034508111010868,-0.03026753482378968,0.029421554612063996, ,0.009919575774867342, ,0.05874309195410403, ,6.204981425951194e-05, ,0.14937309925325046,-0.2819801454365595,0.09449046697,-4.526157430113458,0.14046232175887277,-1.3369416299435757, ,0.012102658023016296,-0.07271796288005423,0.007513590339622642,-0.023973524373558316,-0.029012671537017316,0.11587700474213217, ,1.5947809219360352
0.01133817336747362,0.024770329313526226,-0.08365915069306962, ,0.011585186632281835,0.025278375187025477,-0.0837518167635069, ,0.0005724623683536924, ,0.0016851005107178792,0.008165641339331193,-0.004336221450090467,0.009729237061268686,0.013338455982113862,0.019444177561649224, ,0.009397876285525408, ,0.016509768630968147, ,6.261050065367036e-05, ,0.14951983117786075,-0.28274469599110774,0.09456305921000001,-4.526367120056943,0.14032568525910732,-1.335931745898333, ,0.014115267225713338,-0.07442897377134963,0.006661987252195735,0.0,0.01933252362763768,0.06729843223646702, ,1.6013739109039307
0.01133817336747362,0.024770329313526226,-0.08365915069306962, ,0.011598539545033268,0.02533838833923295,-0.08378057117130798, ,0.0006365724904828421, ,0.0016851005107178792,0.008165641339331193,-0.004336221450090467,0.009729237061268686,0.013338455982113862,0.019444177561649224, ,0.009397876285525408, ,0.016509768630968147, ,6.32589702902626e-05, ,0.14951983117786075,-0.28274469599110774,0.09456305921000001,-4.526367120056943,0.14032568525910732,-1.335931745898333, ,0.014115267225713338,-0.07442897377134963,0.006661987252195735,0.0,0.01933252362763768,0.06729843223646702, ,1.6080029010772705
0.011356938554799688,0.024855746955565937,-0.08370489723144886, ,0.011611903468511148,0.025398327525832515,-0.08380933128824924, ,0.0006085287624052648, ,0.0018042794956179258,0.008647355634822867,-0.004710484736950908,0.01190871466267525,0.008530832744263552,0.01859697875849899, ,0.010011036431381995, ,0.014648979142195205, ,6.38614909399525e-05, ,0.14965111763672254,-0.28350152381278176,0.09463046629,-4.526367120056943,0.14032568525910732,-1.3351149584969275, ,0.01397187007633551,-0.07810447864894715,0.0071365643010752695,0.0,0.014433278481402537,0.06825509629142795, ,1.6148169040679932
0.01137661270240175,0.02494212139262699,-0.08375154138227159, ,0.0116252784173777,0.025458192825593657,-0.08383809722115011, ,0.0005793585029778476, ,0.0018304915125694527,0.00858443918435002,-0.0046260812561906535,0.020343667841661535,0.010023956496754617,-0.00036069709051468244, ,0.009921891103830526, ,0.0226791649533663, ,6.441704112642527e-05, ,0.14980557229420705,-0.2843046880317011,0.09470435482,-4.525947740169974,0.14032568525910732,-1.3343798498356625, ,0.014391407576352863,-0.07765707165177642,0.0070763267525544215,0.018688105809889402,0.011417896758911701,0.06136777751843722, ,1.621474027633667
0.01137661270240175,0.02494212139262699,-0.08375154138227159, ,0.011638664406275078,0.025517984317134822,-0.08386686907656485, ,0.0006431093844725216, ,0.0018304915125694527,0.00858443918435002,-0.0046260812561906535,0.020343667841661535,0.010023956496754617,-0.00036069709051468244, ,0.009921891103830526, ,0.0226791649533663, ,6.50587790167152e-05, ,0.14980557229420705,-0.2843046880317011,0.09470435482,-4.525947740169974,0.14032568525910732,-1.3343798498356625, ,0.014391407576352863,-0.07765707165177642,0.0070763267525544215,0.018688105809889402,0.011417896758911701,0.06136777751843722, ,1.6283559799194336
0.011395597364801006,0.02502829611904799,-0.08379418748072065, ,0.011652061449825446,0.02557770207892363,-0.08389564696078183, ,0.0006147477220361068, ,0.0019158535284466897,0.008874056550692696,-0.004100056981066002,0.03689970703657834,0.004207981303514663,0.0012629862084778418, ,0.009961417652891663, ,0.03713886757666953, ,6.565476109766116e-05, ,0.1499523042188173,-0.2851001295177462,0.09477176190000001,-4.525947740169974,0.14032568525910732,-1.3337264199145378, ,0.016108800128750767,-0.08237581732506143,0.006673151034771681,0.016628482027673214,0.009508953878082845,0.048780654743314736, ,1.6350510120391846
0.011395597364801006,0.02502829611904799,-0.08379418748072065, ,0.011665469562630919,0.025637346189277068,-0.08392443097982448, ,0.0006787756332297171, ,0.0019158535284466897,0.008874056550692696,-0.004100056981066002,0.03689970703657834,0.004207981303514663,0.0012629862084778418, ,0.009961417652891663, ,0.03713886757666953, ,6.643020884700166e-05, ,0.1499523042188173,-0.2851001295177462,0.09477176190000001,-4.525947740169974,0.14032568525910732,-1.3337264199145378, ,0.016108800128750767,-0.08237581732506143,0.006673151034771681,0.016628482027673214,0.009508953878082845,0.048780654743314736, ,1.6396169662475586
0.011414625690598828,0.02511905336263583,-0.08383266527206294, ,0.01167888875927362,0.025696916726361825,-0.08395322123945184, ,0.0006467571243327847, ,0.0015810540250825924,0.00880548532322924,-0.0035707997042908335,0.018839338326484704,0.007813850652946906,0.004236109922840387, ,0.009632596437928817, ,0.020395512497257347, ,6.715605165298864e-05, ,0.1501067588763018,-0.28595735286678514,0.09483657640000001,-4.525947740169974,0.14032568525910732,-1.3329913112532727, ,0.012974698052839868,-0.08338922808301474,0.006112360521872602,0.013982083375253402,0.00809176689162865,0.06744849762018068, ,1.6452019214630127
0.011414625690598828,0.02511905336263583,-0.08383266527206294, ,0.011692319054315621,0.025756413768194247,-0.08398201784515735, ,0.0007110893628200735, ,0.0015810540250825924,0.00880548532322924,-0.0035707997042908335,0.018839338326484704,0.007813850652946906,0.004236109922840387, ,0.009632596437928817, ,0.020395512497257347, ,6.796841399033244e-05, ,0.1501067588763018,-0.28595735286678514,0.09483657640000001,-4.525947740169974,0.14032568525910732,-1.3329913112532727, ,0.012974698052839868,-0.08338922808301474,0.006112360521872602,0.013982083375253402,0.00809176689162865,0.06744849762018068, ,1.6496198177337646
0.01143301315153837,0.025210803926486176,-0.08387086175923433, ,0.011705760462298922,0.025815837392640546,-0.08401082090217082, ,0.0006782662842758748, ,0.0019374092557809198,0.009499296336057865,-0.004148467475172103,-0.00022539380434874533,0.0031777637254849474,0.01820829919134441, ,0.010545139539009844, ,0.0031857469192275363, ,6.873011266490437e-05, ,0.15025349080091205,-0.2868222989486983,0.09490139090000001,-4.525738050226489,0.14032568525910732,-1.3320928451117264, ,0.016032596985719003,-0.08902152116179247,0.006910547297180044,0.0007600330254218576,0.007064497596025309,0.09026939832402778, ,1.6542508602142334
0.01143301315153837,0.025210803926486176,-0.08387086175923433, ,0.011719212997745579,0.025875187677417283,-0.08403963051545735, ,0.0007428317531900344, ,0.0019374092557809198,0.009499296336057865,-0.004148467475172103,-0.00022539380434874533,0.0031777637254849474,0.01820829919134441, ,0.010545139539009844, ,0.0031857469192275363, ,6.957797194762178e-05, ,0.15025349080091205,-0.2868222989486983,0.09490139090000001,-4.525738050226489,0.14032568525910732,-1.3320928451117264, ,0.016032596985719003,-0.08902152116179247,0.006910547297180044,0.0007600330254218576,0.007064497596025309,0.09026939832402778, ,1.6588129997253418
0.011450851982518141,0.0253047336305598,-0.08391779692154196, ,0.011732676675157561,0.025934464700091045,-0.08406844678971805, ,0.0007061740296100814, ,0.0019954444681318474,0.010100932584156393,-0.005267775069801572,-0.022155683102729733,0.007541119483319042,-0.00015181565084312215, ,0.01156546980805766, ,0.02340390507487845, ,7.036989664834082e-05, ,0.15039249999264812,-0.2876795222977372,0.09497527943,-4.525528360283005,0.14046232175887277,-1.3312241181337363, ,0.01392267335071461,-0.0916878662400684,0.008151899447287616,0.01939947725154348,0.0,0.11677908735124522, ,1.663228988647461
0.011450851982518141,0.0253047336305598,-0.08391779692154196, ,0.011746151509016868,0.025993668538079124,-0.08409726982939028, ,0.0007707422667796043, ,0.0019954444681318474,0.010100932584156393,-0.005267775069801572,-0.022155683102729733,0.007541119483319042,-0.00015181565084312215, ,0.01156546980805766, ,0.02340390507487845, ,7.12473374192084e-05, ,0.15039249999264812,-0.2876795222977372,0.09497527943,-4.525528360283005,0.14046232175887277,-1.3312241181337363, ,0.01392267335071461,-0.0916878662400684,0.008151899447287616,0.01939947725154348,0.0,0.11677908735124522, ,1.667651891708374
0.01147499595416103,0.025415624962601344,-0.08398068438216967, ,0.011759637513785394,0.026052799268649472,-0.08412609973864787, ,0.0007128516954128594, ,0.0024864089226405315,0.011052335140538355,-0.006630270997686266,-0.0317323421879849,0.006731885064013929,0.00010702372593618639, ,0.013126188894424956, ,0.03243855429018525, ,7.203949994778401e-05, ,0.15056240011588104,-0.28866803210563796,0.0950699086,-4.52531867033952,0.14046232175887277,-1.3298355795513466, ,0.017213303384449624,-0.09723047290826925,0.009790295955746774,0.020656236480125358,0.0,0.13217266830322408, ,1.6727118492126465
0.01147499595416103,0.025415624962601344,-0.08398068438216967, ,0.01177313470390507,0.026111856968920828,-0.08415493662140103, ,0.0007771676547565118, ,0.0024864089226405315,0.011052335140538355,-0.006630270997686266,-0.0317323421879849,0.006731885064013929,0.00010702372593618639, ,0.013126188894424956, ,0.03243855429018525, ,7.29163540403892e-05, ,0.15056240011588104,-0.28866803210563796,0.0950699086,-4.52531867033952,0.14046232175887277,-1.3298355795513466, ,0.017213303384449624,-0.09723047290826925,0.009790295955746774,0.020656236480125358,0.0,0.13217266830322408, ,1.6773228645324707
0.011500743697342027,0.02552610563506506,-0.08405431276807337, ,0.011786643093797787,0.026170841715862984,-0.08418378058129712, ,0.0007170669379056418, ,0.0027130600420496543,0.011155635474579775,-0.007947712719715935,-0.03441016549524656,0.005377013054306535,0.002588234667986797, ,0.013963346128654252, ,0.034827743640456765, ,7.370535159539593e-05, ,0.150732300239114,-0.28961792824916754,0.09517490809000001,-4.52531867033952,0.14046232175887277,-1.3286103984492383, ,0.017502202426866613,-0.09386443279769613,0.011107957824267782,0.017476399340240388,0.0,0.1310502229978947, ,1.6818478107452393
0.011500743697342027,0.02552610563506506,-0.08405431276807337, ,0.011800162697865421,0.026229753586297103,-0.08421263172172035, ,0.0007809206542481454, ,0.0027130600420496543,0.011155635474579775,-0.007947712719715935,-0.03441016549524656,0.005377013054306535,0.002588234667986797, ,0.013963346128654252, ,0.034827743640456765, ,7.457795483376694e-05, ,0.150732300239114,-0.28961792824916754,0.09517490809000001,-4.52531867033952,0.14046232175887277,-1.3286103984492383, ,0.017502202426866613,-0.09386443279769613,0.011107957824267782,0.017476399340240388,0.0,0.1310502229978947, ,1.68635892868042
0.01153020212432717,0.025643998716917086,-0.08413875336862531, ,0.011813693530489762,0.026288592656895662,-0.08424149014579205, ,0.000711634435793938, ,0.00296078960735388,0.01218872707147797,-0.008767259868118571,-0.019625238580910066,-0.001673503027855071,0.01817205699251479, ,0.015303469812990684, ,0.019696460340455003, ,7.535059017185266e-05, ,0.15092536856096958,-0.2906064380570683,0.09529287048000001,-4.525108980396035,0.14046232175887277,-1.3273035386069894, ,0.01894150530109197,-0.10225963530007626,0.012224721043745205,0.002023356954459468,0.0,0.1222499869357192, ,1.6909358501434326
0.01153020212432717,0.025643998716917086,-0.08413875336862531, ,0.011827235606032731,0.026347359004182756,-0.08427035595637104, ,0.0007747669482224621, ,0.00296078960735388,0.01218872707147797,-0.008767259868118571,-0.019625238580910066,-0.001673503027855071,0.01817205699251479, ,0.015303469812990684, ,0.019696460340455003, ,7.620547478538521e-05, ,0.15092536856096958,-0.2906064380570683,0.09529287048000001,-4.525108980396035,0.14046232175887277,-1.3273035386069894, ,0.01894150530109197,-0.10225963530007626,0.012224721043745205,0.002023356954459468,0.0,0.1222499869357192, ,1.695401906967163
0.01153020212432717,0.025643998716917086,-0.08413875336862531, ,0.011840788938836075,0.026406052704534312,-0.0842992292560546, ,0.0008384169367542157, ,0.00296078960735388,0.01218872707147797,-0.008767259868118571,-0.019625238580910066,-0.001673503027855071,0.01817205699251479, ,0.015303469812990684, ,0.019696460340455003, ,7.714264143454292e-05, ,0.15092536856096958,-0.2906064380570683,0.09529287048000001,-4.525108980396035,0.14046232175887277,-1.3273035386069894, ,0.01894150530109197,-0.10225963530007626,0.012224721043745205,0.002023356954459468,0.0,0.1222499869357192, ,1.699880838394165
0.011561525157435432,0.025772544478137965,-0.0842305209748486, ,0.011854353543221587,0.02646467383417822,-0.08432811014717652, ,0.0007578358368211905, ,0.003105569453573062,0.012499199457170231,-0.008651663386759748,-0.002860412363095034,0.0010706754419147002,-0.0014727439530558795, ,0.015515341699714184, ,0.003054219428277934, ,7.796491739360573e-05, ,0.15112615961569942,-0.2916798979265855,0.09542120319000001,-4.524689600509067,0.14046232175887277,-1.3260783575048807, ,0.020728908160434854,-0.10532401948775891,0.01223411023041475,0.02284764225153322,0.0,0.11140820619606796, ,1.704319953918457
0.011561525157435432,0.025772544478137965,-0.0842305209748486, ,0.011867929433491022,0.026523222469194547,-0.08435699873180998, ,0.0008206080974788626, ,0.003105569453573062,0.012499199457170231,-0.008651663386759748,-0.002860412363095034,0.0010706754419147002,-0.0014727439530558795, ,0.015515341699714184, ,0.003054219428277934, ,7.886801285921939e-05, ,0.15112615961569942,-0.2916798979265855,0.09542120319000001,-4.524689600509067,0.14046232175887277,-1.3260783575048807, ,0.020728908160434854,-0.10532401948775891,0.01223411023041475,0.02284764225153322,0.0,0.11140820619606796, ,1.7088639736175537
0.011592491752588627,0.025895483108546957,-0.08431163944739824, ,0.011881516623926138,0.026581698685515635,-0.08438589511176581, ,0.0007482921207768996, ,0.003129487502702568,0.012878221350983519,-0.008354849217868452,0.0029579893360759326,-0.0004085820248501248,0.0009381650564984312, ,0.015666709375226708, ,0.002986067560207126, ,7.96682243701387e-05, ,0.15134239613617773,-0.29273018959748004,0.09553786929000001,-4.524689600509067,0.14046232175887277,-1.3250165338830535, ,0.021494210998521127,-0.11008925934857398,0.012076430265352543,0.02102627912958594,0.0,0.1100204856246157, ,1.713310956954956
0.011592491752588627,0.025895483108546957,-0.08431163944739824, ,0.011895115128788622,0.026640102558926574,-0.08441479938859375, ,0.0008103585670391777, ,0.003129487502702568,0.012878221350983519,-0.008354849217868452,0.0029579893360759326,-0.0004085820248501248,0.0009381650564984312, ,0.015666709375226708, ,0.002986067560207126, ,8.054798398946155e-05, ,0.15134239613617773,-0.29273018959748004,0.09553786929000001,-4.524689600509067,0.14046232175887277,-1.3250165338830535, ,0.021494210998521127,-0.11008925934857398,0.012076430265352543,0.02102627912958594,0.0,0.1100204856246157, ,1.717728853225708
0.011617490015858744,0.026002442838986624,-0.08437924549025975, ,0.011908724962320217,0.02669843416506493,-0.08444371166358187, ,0.0007572170148111137, ,0.002983400794917919,0.012774964056651461,-0.007269577104302286,-0.002056391899768912,-0.0027921919079015923,0.011318925216067453, ,0.014998237837401087, ,0.0034677172597637165, ,8.13513816267017e-05, ,0.15151229625941065,-0.29364919480951274,0.09563638733,-4.524479910565582,0.14046232175887277,-1.3241180677415074, ,0.021715547267384616,-0.11243713454795115,0.011008162764340015,0.010699004110363855,0.0,0.11592366307878549, ,1.7231309413909912
0.011617490015858744,0.026002442838986624,-0.08437924549025975, ,0.011922346138742598,0.026756693579421342,-0.08447263203775769, ,0.0008188726899583845, ,0.002983400794917919,0.012774964056651461,-0.007269577104302286,-0.002056391899768912,-0.0027921919079015923,0.011318925216067453, ,0.014998237837401087, ,0.0034677172597637165, ,8.223333045291808e-05, ,0.15151229625941065,-0.29364919480951274,0.09563638733,-4.524479910565582,0.14046232175887277,-1.3241180677415074, ,0.021715547267384616,-0.11243713454795115,0.011008162764340015,0.010699004110363855,0.0,0.11592366307878549, ,1.7278978824615479
0.01165692974088155,0.02616202854224901,-0.08445876406667001, ,0.011935978672257451,0.02681488087733944,-0.08450156061188789, ,0.0007112777388739545, ,0.0027327045404855364,0.012687590626923819,-0.005459319689695644,0.0034239699561966876,0.002487626207343858,-0.004978469525750269, ,0.014080014257673674, ,0.0042322393078546355, ,8.296632117405495e-05, ,0.15181348284150542,-0.2950856231241185,0.09576342375,-4.524060530678613,0.14032568525910732,-1.3226181112554214, ,0.02192121542122217,-0.1168681546286586,0.009250180905923347,0.02872902411237471,0.0,0.11744709453050711, ,1.7325189113616943
0.01165692974088155,0.02616202854224901,-0.08445876406667001, ,0.011949622577046425,0.026872996134016194,-0.08453049748647821, ,0.0007721979645161252, ,0.0027327045404855364,0.012687590626923819,-0.005459319689695644,0.0034239699561966876,0.002487626207343858,-0.004978469525750269, ,0.014080014257673674, ,0.0042322393078546355, ,8.38889873632679e-05, ,0.15181348284150542,-0.2950856231241185,0.09576342375,-4.524060530678613,0.14032568525910732,-1.3226181112554214, ,0.02192121542122217,-0.1168681546286586,0.009250180905923347,0.02872902411237471,0.0,0.11744709453050711, ,1.7348198890686035
0.01165692974088155,0.02616202854224901,-0.08445876406667001, ,0.011963277867271178,0.026931039424502035,-0.08455944276177432, ,0.000833884351222589, ,0.0027327045404855364,0.012687590626923819,-0.005459319689695644,0.0034239699561966876,0.002487626207343858,-0.004978469525750269, ,0.014080014257673674, ,0.0042322393078546355, ,8.48916549620103e-05, ,0.15181348284150542,-0.2950856231241185,0.09576342375,-4.524060530678613,0.14032568525910732,-1.3226181112554214, ,0.02192121542122217,-0.1168681546286586,0.009250180905923347,0.02872902411237471,0.0,0.11744709453050711, ,1.7371578216552734
0.01165692974088155,0.02616202854224901,-0.08445876406667001, ,0.011976944557073262,0.026989010823701098,-0.08458839653776161, ,0.0008961661419509386, ,0.0027327045404855364,0.012687590626923819,-0.005459319689695644,0.0034239699561966876,0.002487626207343858,-0.004978469525750269, ,0.014080014257673674, ,0.0042322393078546355, ,8.597479846933865e-05, ,0.15181348284150542,-0.2950856231241185,0.09576342375,-4.524060530678613,0.14032568525910732,-1.3226181112554214, ,0.02192121542122217,-0.1168681546286586,0.009250180905923347,0.02872902411237471,0.0,0.11744709453050711, ,1.7395598888397217
0.01168328100032865,0.026285963223014054,-0.08450837223097576, ,0.011990622660574402,0.027046910406371246,-0.08461735891416584, ,0.0008278753584294156, ,0.0030044371684016555,0.013326851209203364,-0.005307173675877935,0.014844218773252815,0.001432138902504295,-0.012808043534259359, ,0.014655978243605925, ,0.014913143485326089, ,8.696399921595209e-05, ,0.1520297193619837,-0.29623631032237796,0.09585027518000001,-4.523641150791644,0.14032568525910732,-1.3214746088934535, ,0.025285622584191522,-0.12372482602147429,0.009342411448680353,0.03801971669369057,0.0,0.11412013415494121, ,1.741938829421997
0.01168328100032865,0.026285963223014054,-0.08450837223097576, ,0.012004312191876077,0.027104738247124418,-0.08464632999045242, ,0.0008902167766634744, ,0.0030044371684016555,0.013326851209203364,-0.005307173675877935,0.014844218773252815,0.001432138902504295,-0.012808043534259359, ,0.014655978243605925, ,0.014913143485326089, ,8.803357681574904e-05, ,0.1520297193619837,-0.29623631032237796,0.09585027518000001,-4.523641150791644,0.14032568525910732,-1.3214746088934535, ,0.025285622584191522,-0.12372482602147429,0.009342411448680353,0.03801971669369057,0.0,0.11412013415494121, ,1.7441749572753906
0.01168328100032865,0.026285963223014054,-0.08450837223097576, ,0.012018013165059935,0.0271624944204268,-0.08467530986582802, ,0.0009530061574164043, ,0.0030044371684016555,0.013326851209203364,-0.005307173675877935,0.014844218773252815,0.001432138902504295,-0.012808043534259359, ,0.014655978243605925, ,0.014913143485326089, ,8.918380631122864e-05, ,0.1520297193619837,-0.29623631032237796,0.09585027518000001,-4.523641150791644,0.14032568525910732,-1.3214746088934535, ,0.025285622584191522,-0.12372482602147429,0.009342411448680353,0.03801971669369057,0.0,0.11412013415494121, ,1.7464308738708496
0.01168328100032865,0.026285963223014054,-0.08450837223097576, ,0.012031725594187564,0.027220179000598917,-0.08470429863923944, ,0.001016149551755595, ,0.0030044371684016555,0.013326851209203364,-0.005307173675877935,0.014844218773252815,0.001432138902504295,-0.012808043534259359, ,0.014655978243605925, ,0.014913143485326089, ,0.0004969516196919674, ,0.1520297193619837,-0.29623631032237796,0.09585027518000001,-4.523641150791644,0.14032568525910732,-1.3214746088934535, ,0.025285622584191522,-0.12372482602147429,0.009342411448680353,0.03801971669369057,0.0,0.11412013415494121, ,1.7486519813537598
0.01168328100032865,0.026285963223014054,-0.08450837223097576, ,0.012045449493300501,0.02727779206181585,-0.08473329640937471, ,0.0010795746147482636, ,0.0030044371684016555,0.013326851209203364,-0.005307173675877935,0.014844218773252815,0.001432138902504295,-0.012808043534259359, ,0.014655978243605925, ,0.014913143485326089, ,0.0005011735254532449, ,0.1520297193619837,-0.29623631032237796,0.09585027518000001,-4.523641150791644,0.14032568525910732,-1.3214746088934535, ,0.025285622584191522,-0.12372482602147429,0.009342411448680353,0.03801971669369057,0.0,0.11412013415494121, ,1.7508659362792969
0.01168328100032865,0.026285963223014054,-0.08450837223097576, ,0.012059184876420272,0.027335333678107546,-0.08476230327466293, ,0.0011432248471022132, ,0.003288699465698954,0.015047419367668236,-0.007219078280081021,-0.010335670495764558,0.004701992843434584,-0.0061294869184621474, ,0.01701045164056802, ,0.011354946133286414, ,0.0005057925997097124, ,0.15229229227970734,-0.2975877885753673,0.09595916354,-4.523431460848159,0.1401890487593419,-1.3199746524073674, ,0.02505860616806728,-0.13556705936924396,0.011712361411764708,0.03407307493256358,-0.0009050677715096487,0.1506767574354761, ,1.7531399726867676
0.011717130743711777,0.026433232883115217,-0.0845729724249191, ,0.012072931757548437,0.02739280392335882,-0.08479131933327463, ,0.0010464446068043005, ,0.003288699465698954,0.015047419367668236,-0.007219078280081021,-0.010335670495764558,0.004701992843434584,-0.0061294869184621474, ,0.01701045164056802, ,0.011354946133286414, ,0.000509654399760388, ,0.15229229227970734,-0.2975877885753673,0.09595916354,-4.523431460848159,0.1401890487593419,-1.3199746524073674, ,0.02505860616806728,-0.13556705936924396,0.011712361411764708,0.03407307493256358,-0.0009050677715096487,0.1506767574354761, ,1.755417823791504
0.011717130743711777,0.026433232883115217,-0.0845729724249191, ,0.012086690150666539,0.027450202871309625,-0.08482034468312173, ,0.001109952767592009, ,0.003288699465698954,0.015047419367668236,-0.007219078280081021,-0.010335670495764558,0.004701992843434584,-0.0061294869184621474, ,0.01701045164056802, ,0.011354946133286414, ,0.0005139118349932364, ,0.15229229227970734,-0.2975877885753673,0.09595916354,-4.523431460848159,0.1401890487593419,-1.3199746524073674, ,0.02505860616806728,-0.13556705936924396,0.011712361411764708,0.03407307493256358,-0.0009050677715096487,0.1506767574354761, ,1.7577979564666748
0.011717130743711777,0.026433232883115217,-0.0845729724249191, ,0.012100460069736044,0.0275075305955553,-0.08484937942185836, ,0.0011736514708810234, ,0.003288699465698954,0.015047419367668236,-0.007219078280081021,-0.010335670495764558,0.004701992843434584,-0.0061294869184621474, ,0.01701045164056802, ,0.011354946133286414, ,0.000518557888767094, ,0.15229229227970734,-0.2975877885753673,0.09595916354,-4.523431460848159,0.1401890487593419,-1.3199746524073674, ,0.02505860616806728,-0.13556705936924396,0.011712361411764708,0.03407307493256358,-0.0009050677715096487,0.1506767574354761, ,1.7600460052490234
0.011758022468472094,0.026589981917488043,-0.08466254811722142, ,0.012114241528698487,0.02756478716954659,-0.08487842364688, ,0.0010600658199446274, ,0.004478730199963027,0.017201319777496702,-0.01143260391272668,-0.07373949144225837,-0.006933635121831771,-0.01074336878892699, ,0.021134068669261333, ,0.07406475341790457, ,0.0005223446575165873, ,0.1525625879303052,-0.298954712294105,0.09609527399000001,-4.52301208096119,0.1397791392600456,-1.3179251451533265, ,0.029289179493355175,-0.14422027592472764,0.01648945291925466,0.036817170853682454,-0.02002431373280445,0.22103532259140796, ,1.7622640132904053
0.011758022468472094,0.026589981917488043,-0.08466254811722142, ,0.012128034541475385,0.027621972666590045,-0.0849074774553249, ,0.0011233451032804274, ,0.004478730199963027,0.017201319777496702,-0.01143260391272668,-0.07373949144225837,-0.006933635121831771,-0.01074336878892699, ,0.021134068669261333, ,0.07406475341790457, ,0.0005265182717232806, ,0.1525625879303052,-0.298954712294105,0.09609527399000001,-4.52301208096119,0.1397791392600456,-1.3179251451533265, ,0.029289179493355175,-0.14422027592472764,0.01648945291925466,0.036817170853682454,-0.02002431373280445,0.22103532259140796, ,1.7645049095153809
0.011758022468472094,0.026589981917488043,-0.08466254811722142, ,0.012141839121968215,0.027679087159848056,-0.08493654094407382, ,0.00118681823444182, ,0.004478730199963027,0.017201319777496702,-0.01143260391272668,-0.07373949144225837,-0.006933635121831771,-0.01074336878892699, ,0.021134068669261333, ,0.07406475341790457, ,0.0005310720645696153, ,0.1525625879303052,-0.298954712294105,0.09609527399000001,-4.52301208096119,0.1397791392600456,-1.3179251451533265, ,0.029289179493355175,-0.14422027592472764,0.01648945291925466,0.036817170853682454,-0.02002431373280445,0.22103532259140796, ,1.7667338848114014
0.011758022468472094,0.026589981917488043,-0.08466254811722142, ,0.012155655284058443,0.02773613072233896,-0.08496561420974956, ,0.0012504471181671746, ,0.004478730199963027,0.017201319777496702,-0.01143260391272668,-0.07373949144225837,-0.006933635121831771,-0.01074336878892699, ,0.021134068669261333, ,0.07406475341790457, ,0.0005359992909641191, ,0.1525625879303052,-0.298954712294105,0.09609527399000001,-4.52301208096119,0.1397791392600456,-1.3179251451533265, ,0.029289179493355175,-0.14422027592472764,0.01648945291925466,0.036817170853682454,-0.02002431373280445,0.22103532259140796, ,1.7689909934997559
0.011758022468472094,0.026589981917488043,-0.08466254811722142, ,0.012169483041607582,0.027793103426937516,-0.08499469734871849, ,0.001314201005070785, ,0.004478730199963027,0.017201319777496702,-0.01143260391272668,-0.07373949144225837,-0.006933635121831771,-0.01074336878892699, ,0.021134068669261333, ,0.07406475341790457, ,0.0005412931801757291, ,0.15287149724527416,-0.3004374770059561,0.09628453233,-4.522383011130737,0.1395058662605147,-1.3154969833621384, ,0.03280226116780877,-0.15110977955170507,0.02068676820779221,0.06210972782459734,-0.04406403771039455,0.2747217200180063, ,1.771327018737793
0.011811858844087596,0.02678657139424065,-0.08480869321349968, ,0.01218332240845707,0.02785000534637489,-0.08502379045708956, ,0.0011467971810245666, ,0.00561749698474277,0.019197156045408708,-0.015345776360074177,-0.1198274910033352,-0.015991706520758396,-0.038319940502417583, ,0.0252107105155483, ,0.1208898731348971, ,0.0005453844234247077, ,0.15287149724527416,-0.3004374770059561,0.09628453233,-4.522383011130737,0.1395058662605147,-1.3154969833621384, ,0.03280226116780877,-0.15110977955170507,0.02068676820779221,0.06210972782459734,-0.04406403771039455,0.2747217200180063, ,1.7742559909820557
0.011811858844087596,0.02678657139424065,-0.08480869321349968, ,0.012197173398428383,0.027906836553238695,-0.08505289363071557, ,0.0012095847122133155, ,0.00561749698474277,0.019197156045408708,-0.015345776360074177,-0.1198274910033352,-0.015991706520758396,-0.038319940502417583, ,0.0252107105155483, ,0.1208898731348971, ,0.0005498421434836917, ,0.15287149724527416,-0.3004374770059561,0.09628453233,-4.522383011130737,0.1395058662605147,-1.3154969833621384, ,0.03280226116780877,-0.15110977955170507,0.02068676820779221,0.06210972782459734,-0.04406403771039455,0.2747217200180063, ,1.776533842086792
0.011811858844087596,0.02678657139424065,-0.08480869321349968, ,0.01221628337277738,0.027955089375804456,-0.0850818605153137, ,0.0012663387569778713, ,0.00561749698474277,0.019197156045408708,-0.015345776360074177,-0.1198274910033352,-0.015991706520758396,-0.038319940502417583, ,0.0252107105155483, ,0.1208898731348971, ,0.0005546187875736529, ,0.15287149724527416,-0.3004374770059561,0.09628453233,-4.522383011130737,0.1395058662605147,-1.3154969833621384, ,0.03280226116780877,-0.15110977955170507,0.02068676820779221,0.06210972782459734,-0.04406403771039455,0.2747217200180063, ,1.7788197994232178
0.011811858844087596,0.02678657139424065,-0.08480869321349968, ,0.0122301309694298,0.028011767530024743,-0.08511099648830278, ,0.0013294526738230432, ,0.00561749698474277,0.019197156045408708,-0.015345776360074177,-0.1198274910033352,-0.015991706520758396,-0.038319940502417583, ,0.0252107105155483, ,0.1208898731348971, ,0.0005597501378137151, ,0.15287149724527416,-0.3004374770059561,0.09628453233,-4.522383011130737,0.1395058662605147,-1.3154969833621384, ,0.03280226116780877,-0.15110977955170507,0.02068676820779221,0.06210972782459734,-0.04406403771039455,0.2747217200180063, ,1.7811388969421387
0.011861806122871032,0.02696818251205732,-0.08495818461907995, ,0.012243990344537768,0.02806837522379251,-0.08514014274635605, ,0.0011788119198277822, ,0.006059543538335904,0.02056096871804181,-0.01752165169780035,-0.07865893434377896,-0.010785947286309388,-0.024260786565854488, ,0.02768537124071686, ,0.07939498069446685, ,0.0005638229126953867, ,0.1532035747588658,-0.3019588553821783,0.09650101276,-4.521963631243768,0.1395058662605147,-1.3131282998980622, ,0.03589143024147911,-0.15789840525535903,0.02349382230088496,0.052438565434402486,-0.025261069992153395,0.24121836368630634, ,1.7841789722442627
0.011861806122871032,0.02696818251205732,-0.08495818461907995, ,0.012257861511026326,0.02812491252906533,-0.08516929938478798, ,0.0012407472131881472, ,0.006059543538335904,0.02056096871804181,-0.01752165169780035,-0.07865893434377896,-0.010785947286309388,-0.024260786565854488, ,0.02768537124071686, ,0.07939498069446685, ,0.0005682472545286727, ,0.1532035747588658,-0.3019588553821783,0.09650101276,-4.521963631243768,0.1395058662605147,-1.3131282998980622, ,0.03589143024147911,-0.15789840525535903,0.02349382230088496,0.052438565434402486,-0.025261069992153395,0.24121836368630634, ,1.7867958545684814
0.011861806122871032,0.02696818251205732,-0.08495818461907995, ,0.012271744481808526,0.028181379517664,-0.08519846649865118, ,0.0013029320067415898, ,0.006059543538335904,0.02056096871804181,-0.01752165169780035,-0.07865893434377896,-0.010785947286309388,-0.024260786565854488, ,0.02768537124071686, ,0.07939498069446685, ,0.0005730179347378474, ,0.1532035747588658,-0.3019588553821783,0.09650101276,-4.521963631243768,0.1395058662605147,-1.3131282998980622, ,0.03589143024147911,-0.15789840525535903,0.02349382230088496,0.052438565434402486,-0.025261069992153395,0.24121836368630634, ,1.7893128395080566
0.011861806122871032,0.02696818251205732,-0.08495818461907995, ,0.012285639269788672,0.028237776261271195,-0.0852276441827379, ,0.0013653246064272723, ,0.006059543538335904,0.02056096871804181,-0.01752165169780035,-0.07865893434377896,-0.010785947286309388,-0.024260786565854488, ,0.02768537124071686, ,0.07939498069446685, ,0.0005781295906842308, ,0.15358971140257704,-0.30367330208025617,0.09675378931,-4.521753941300283,0.13936922976074928,-1.3108115560105706, ,0.03503024789902945,-0.16707208020857534,0.023738914336810735,0.019541819524038304,0.0,0.20708527181698394, ,1.7916319370269775
0.01192568908929756,0.027190862143595982,-0.08514611526431652, ,0.012299545887861793,0.028294102831437292,-0.08525683253157894, ,0.001170114197166807, ,0.005756837936865888,0.021484712670747457,-0.01747103023802498,-0.03701107377424298,-0.0007083843542657663,0.01493670308624133, ,0.028283757868322552, ,0.03701783033279451, ,0.0005819243638027089, ,0.15358971140257704,-0.30367330208025617,0.09675378931,-4.521753941300283,0.13936922976074928,-1.3108115560105706, ,0.03503024789902945,-0.16707208020857534,0.023738914336810735,0.019541819524038304,0.0,0.20708527181698394, ,1.7938358783721924
0.01192568908929756,0.027190862143595982,-0.08514611526431652, ,0.012313464348912161,0.028350359299575075,-0.08528603163944506, ,0.0012306014378026249, ,0.005756837936865888,0.021484712670747457,-0.01747103023802498,-0.03701107377424298,-0.0007083843542657663,0.01493670308624133, ,0.028283757868322552, ,0.03701783033279451, ,0.0005860560649109886, ,0.15358971140257704,-0.30367330208025617,0.09675378931,-4.521753941300283,0.13936922976074928,-1.3108115560105706, ,0.03503024789902945,-0.16707208020857534,0.023738914336810735,0.019541819524038304,0.0,0.20708527181698394, ,1.7960519790649414
0.01192568908929756,0.027190862143595982,-0.08514611526431652, ,0.012327394665814543,0.02840654573696128,-0.08531524160034692, ,0.0012914556465173203, ,0.005756837936865888,0.021484712670747457,-0.01747103023802498,-0.03701107377424298,-0.0007083843542657663,0.01493670308624133, ,0.028283757868322552, ,0.03701783033279451, ,0.0005905206192249528, ,0.15358971140257704,-0.30367330208025617,0.09675378931,-4.521753941300283,0.13936922976074928,-1.3108115560105706, ,0.03503024789902945,-0.16707208020857534,0.023738914336810735,0.019541819524038304,0.0,0.20708527181698394, ,1.7982900142669678
0.01192568908929756,0.027190862143595982,-0.08514611526431652, ,0.012341336851432986,0.02846266221473834,-0.08534446250803492, ,0.0013526197219531372, ,0.005756837936865888,0.021484712670747457,-0.01747103023802498,-0.03701107377424298,-0.0007083843542657663,0.01493670308624133, ,0.028283757868322552, ,0.03701783033279451, ,0.0005953136953427401, ,0.15358971140257704,-0.30367330208025617,0.09675378931,-4.521753941300283,0.13936922976074928,-1.3108115560105706, ,0.03503024789902945,-0.16707208020857534,0.023738914336810735,0.019541819524038304,0.0,0.20708527181698394, ,1.8006529808044434
0.011972238427228058,0.02735897119971603,-0.08527662924420304, ,0.012355290918621184,0.028518708803911247,-0.08537369445599971, ,0.001225211074504337, ,0.0060506659251727685,0.02175371278564933,-0.01607458581185223,-0.02207514658666779,-0.0027963868391370347,0.0017657669730808813, ,0.027716906160702187, ,0.02225153484440486, ,0.0005992505539625001, ,0.15389089798467182,-0.30499388940174854,0.09693397362000002,-4.5213345614133145,0.13936922976074928,-1.3090963024676188, ,0.04072830109805613,-0.17348618200817328,0.02256205597733711,0.03436335585078603,0.0,0.20058902969915698, ,1.8031527996063232
0.011972238427228058,0.02735897119971603,-0.08527662924420304, ,0.012369256880223055,0.028574685575351585,-0.0854029375374732, ,0.0012851221265289558, ,0.0060506659251727685,0.02175371278564933,-0.01607458581185223,-0.02207514658666779,-0.0027963868391370347,0.0017657669730808813, ,0.027716906160702187, ,0.02225153484440486, ,0.0006035106258417948, ,0.15389089798467182,-0.30499388940174854,0.09693397362000002,-4.5213345614133145,0.13936922976074928,-1.3090963024676188, ,0.04072830109805613,-0.17348618200817328,0.02256205597733711,0.03436335585078603,0.0,0.20058902969915698, ,1.8054778575897217
0.011972238427228058,0.02735897119971603,-0.08527662924420304, ,0.012383234749071196,0.028630592599794343,-0.08543219184542764, ,0.001345413945447822, ,0.0060506659251727685,0.02175371278564933,-0.01607458581185223,-0.02207514658666779,-0.0027963868391370347,0.0017657669730808813, ,0.027716906160702187, ,0.02225153484440486, ,0.0006080902759628197, ,0.15389089798467182,-0.30499388940174854,0.09693397362000002,-4.5213345614133145,0.13936922976074928,-1.3090963024676188, ,0.04072830109805613,-0.17348618200817328,0.02256205597733711,0.03436335585078603,0.0,0.20058902969915698, ,1.8078749179840088
