NicholasDascanio/dvrk_moveit_final/test/execution/noob_justexecution/yes_ramp/noob_600vel5.csv
Current Position (x),Current Position (y),Current Position (z), ,Planned Position (x),Planned Position (y),Planned Position (z), ,Position Error,,Cartesian linear Velocity(x),Cartesian linear Velocity(y),Cartesian linear Velocity(z),Cartesian Angular Velocity(x),Cartesian Angular Velocity(y),Cartesian Angular Velocity(z), ,Total Linear Velocity, ,Total Angular Velocity, ,MSE, ,Joint 1 Position,Joint 2 Position,Joint 3 Position,Joint 4 Position,Joint 5 Position,Joint 6 Position, ,Joint 1 Velocity,Joint 2 Velocity,Joint 3 Velocity,Joint 4 Velocity,Joint 5 Velocity,Joint 6 Velocity, ,Time Stamp
0.009917447890254321,0.018803823941719165,-0.08073112170883756, ,0.010169630900384604,0.018808186755971616,-0.08085450426883063, ,0.00028078205223449693, ,3.8694201530080353e-07,5.817653460094082e-05,1.3597962820434167e-05,0.18782555331396372,-0.02397483053887709,-0.016756191121734237, ,5.974582408138312e-05, ,0.1893494942614437, ,2.3398504352874743e-05, ,0.14332619941273267,-0.2235267803115542,0.09013363628000001,-4.533915958022385,0.19279410116903647,-1.154589757972056, ,2.569497018509549e-05,-0.0006997298560579195,0.0,0.0007617762001276455,0.0,-0.18926336550312906, ,0.020518064498901367
0.00992259939806646,0.018807532741125246,-0.08073318373482725, ,0.01018693507790177,0.01890293928843615,-0.08089429409262741, ,0.00032393256751101325, ,0.0003682686653478117,0.0003401961234033813,5.6902857419578674e-05,0.2233729144723068,-0.06927229257616033,-0.02946157107247913, ,0.0005045722420409787, ,0.23386771782058688, ,2.7487028170250464e-05, ,0.1433339221456069,-0.22363489857179336,0.09013752515000001,-4.533915958022385,0.19101782667208575,-1.1596756244352475, ,7.369869855949738e-05,-0.0076275868172738,0.00020138404044368864,0.0007617762001276455,-0.2027830421966228,-0.24670728209470028, ,0.039695024490356445
0.009983044552134682,0.01883341137940179,-0.08078105124377034, ,0.01020425782340681,0.01899752809205848,-0.08093407458369128, ,0.00031509641273856816, ,0.0021527881729518725,0.0016125978749376754,-0.002651257506320924,0.039250631295689925,-0.18832487129160866,-0.048254652891758426, ,0.0037767890050515148, ,0.19237169543355426, ,2.8744094765127448e-05, ,0.14335709034422958,-0.2238356896265232,0.09018678417,-4.533915958022385,0.1865088221798262,-1.1635132777061974, ,0.0011782495999159309,-0.014599529470533966,0.0029014228633879786,0.0007617762001276455,-0.18815646138322573,-0.05248660992157117, ,0.06235790252685547
0.010012585829982868,0.018878621947380582,-0.08085024121250005, ,0.010221599178883321,0.019091953436107048,-0.08097384609010232, ,0.00032322603525691503, ,0.0009741302244252487,0.0025984890598057444,-0.003074338932190316,0.22802027547123221,-0.07208298950725353,-0.024881980690595905, ,0.004141573971094809, ,0.23914264237480695, ,2.9596120660499844e-05, ,0.14338798127572647,-0.22420638080448596,0.09026456157000001,-4.533915958022385,0.18459591118311003,-1.1667724727227407, ,0.0016056306620593644,-0.0226809133743955,0.0036095199456152283,0.0007617762001276455,-0.04473325021913679,-0.2143741543697073, ,0.08165407180786133
0.010045573063285886,0.018937496949588375,-0.08090432059503656, ,0.01023895918624774,0.01918621558919232,-0.08101360895889727, ,0.0003334712891929441, ,0.001206271598455124,0.0032350982726942826,-0.002586415218136382,-0.16486329493657906,-0.04150010204233117,0.001433908340161905, ,0.004313988373168903, ,0.17000636601831595, ,3.0317468402575723e-05, ,0.14344204040584604,-0.2247778630371786,0.09033067236,-4.533706268078901,0.18227309068709754,-1.16610354946201, ,0.0029671922780639755,-0.03165341613024376,0.0032802330148270185,0.0013046861627841694,-0.06607488809630789,0.1889636736465174, ,0.10249090194702148
0.010054920969398945,0.019010981181585663,-0.08094543560441865, ,0.010256337887350012,0.01928031481926749,-0.08105336353606986, ,0.00035321073264319233, ,0.0004735450635079843,0.0040787867347875624,-0.002052243987614864,-0.05593518507332746,0.038028395073555224,0.020037585781169272, ,0.004590473999463794, ,0.06763803486960122, ,3.1124501444792416e-05, ,0.14354243593321095,-0.22551152266022992,0.09038900541000001,-4.533706268078901,0.18281963668615933,-1.161811854148643, ,0.005513858599142958,-0.0412774865413096,0.003012826086627577,0.0012673787909730963,0.031222456140253995,0.1026374786536554, ,0.12441492080688477
0.010062137236541646,0.019093745313221003,-0.0809805539176934, ,0.01027373532397228,0.019374251393629832,-0.0810931101665736, ,0.0003689530063742628, ,0.0002821250363898223,0.004585333388315072,-0.0015204708662616027,-0.03752565865999817,0.03555257179779443,0.01965898772009119, ,0.00483908136667542, ,0.05169294361221749, ,3.192600133265823e-05, ,0.14362738599482744,-0.22636874600926882,0.09044344959,-4.533706268078901,0.18336618268522106,-1.1605422722204768, ,0.0038262552062125624,-0.04864015456610496,0.0025904718685965202,0.0012329719037705575,0.02850120247318835,0.09098050829618592, ,0.1435859203338623
0.010074653829352931,0.019192870683127465,-0.08100901798117854, ,0.010291151537828992,0.01946802557892125,-0.08113284919432098, ,0.00037136995543932014, ,0.0006445575722019765,0.004974272984314974,-0.0013841504173475888,0.0669457345889094,-0.007115534816421293,0.00646977775723873, ,0.005203337252592053, ,0.06732282091064903, ,3.2561488431594055e-05, ,0.1437432269879408,-0.2274344831459118,0.09049530119,-4.533496578135416,0.1835028191849865,-1.1608170476044544, ,0.005385728472578919,-0.05388809855676932,0.002553512587367746,0.00020776836531676235,0.0,-0.013740257901585569, ,0.16364598274230957
0.010088450023239152,0.01929087925063236,-0.08103388186569198, ,0.010308586570568637,0.019561637641129705,-0.08117258096218635, ,0.00037550984655960134, ,0.0006152021981201318,0.005156445174505199,-0.0014879765741547418,0.045363530288525654,-0.004897231377326919,0.005039828330742865, ,0.005401988047699021, ,0.04562710548998003, ,3.3103824977720806e-05, ,0.14385134524817994,-0.2285002202825548,0.09054326392,-4.533286888191932,0.18336618268522106,-1.1607873084408986, ,0.004569862866740993,-0.055658030239572304,0.0026934074264457226,0.0032122860543093213,-0.002440250752800655,0.009928437120419133, ,0.18463587760925293
0.010104207596389624,0.019396587767318556,-0.08107266762934433, ,0.010326040463772168,0.019655087845589822,-0.08121230581200531, ,0.0003681452615127264, ,0.0006865352853305703,0.005308018082083026,-0.0020996725451521785,0.04422739313942094,-0.00244861647987352,0.005879972216853511, ,0.005749348785261695, ,0.044295124184650356, ,3.3798981776861784e-05, ,0.1439594635084191,-0.22962001654931735,0.09060678213000001,-4.533286888191932,0.18322954618545564,-1.1601858180963587, ,0.0046189331090509735,-0.055625405368388496,0.0033365755173858404,0.0030799135773282504,0.0,0.011381482079295735, ,0.20592188835144043
0.010119315661759784,0.01950973094028738,-0.08111882683935374, ,0.010343513258953219,0.019748376456984056,-0.08125202408457685, ,0.0003534936369466333, ,0.0007799744930570671,0.005349960677955512,-0.0024113195678055425,0.019180022186762992,0.0012399360231203777,0.0024792725520382413, ,0.005919873438137993, ,0.019220059634263115, ,3.424718905826976e-05, ,0.144059859035784,-0.23079387194619946,0.09067937437000001,-4.532867508304963,0.18322954618545564,-1.1593690306949531, ,0.0051424541607016615,-0.05504462967428699,0.003663480110395585,0.008465742718262692,-0.0003300796245812342,0.03684746228157337, ,0.22366905212402344
0.01013394494688539,0.01960913766097061,-0.08115367916350362, ,0.01036100499755782,0.019841503739343676,-0.08129173611966496, ,0.0003530013939552913, ,0.000584453734736667,0.00503030261548864,-0.0016917363190088396,0.021191284206558667,0.003932345248911558,-0.004814250944258843, ,0.005339241738720309, ,0.021553047707132355, ,3.462346378457954e-05, ,0.14416025456314893,-0.231844163617094,0.09073770742000001,-4.5326578183614785,0.1830929096856902,-1.1585225041299916, ,0.004044656479144189,-0.053133785867004915,0.002876275102925244,0.015615679530126521,0.0,0.033959455715622124, ,0.24181199073791504
0.010148618674170943,0.01971485978969169,-0.08119361289569556, ,0.010378515720965382,0.01993446995604966,-0.08133144225599792, ,0.0003465230293269687, ,0.000759755139132083,0.004921216049329878,-0.002026239808148405,-0.003751461445089993,0.00037650511262851726,-0.0023054344120980535, ,0.005375987633518596, ,0.0037703075523990233, ,3.489621265384323e-05, ,0.14425292735763962,-0.23295623715098235,0.09080252192,-4.5326578183614785,0.18295627318592475,-1.15767597756503, ,0.005039565710398511,-0.05096505991324961,0.0031921465971943893,0.013120370479991017,-0.005044522581919885,0.0559263987031666, ,0.26067399978637695
0.010156139238366611,0.019762789046652268,-0.08121461180104261, ,0.010396045470488197,0.020027275369833765,-0.08137114283127127, ,0.00038988457110443236, ,0.0007692257764491394,0.004885036189330159,-0.0022105688355362695,0.011013105504829599,-0.0017469851805339577,-0.0025590468028202315, ,0.005416816541370335, ,0.011150804904971081, ,3.5449633509462525e-05, ,0.1443069864877592,-0.2334504920549327,0.09083492917000001,-4.5326578183614785,0.18295627318592475,-1.1572675838643274, ,0.004831558754249443,-0.05002474515470257,0.0033647679594423327,0.011975485361119389,-0.005044522581919885,0.039889912778853065, ,0.2775249481201172
0.010173451351516842,0.019861670983875673,-0.08126648366464775, ,0.010413594287371312,0.020119920242779442,-0.0814108381821476, ,0.0003810505689377252, ,0.0008410409539137947,0.005032107009961077,-0.0030475030640904808,0.017338119653297037,0.0017445941621360992,-0.009457408054051892, ,0.0059427877104521, ,0.017425670765848486, ,3.5874317532425276e-05, ,0.1444073820151241,-0.2344312791299592,0.09091011399000001,-4.531819058587541,0.18281963668615933,-1.1565027360395064, ,0.004439921619402822,-0.049143936591647217,0.004222908674443267,0.01913976711600719,-0.002780165153388785,0.03395676727597516, ,0.2951939105987549
0.010195471081585578,0.01996009483745279,-0.08132203306573461, ,0.010431162212791877,0.02021240483632283,-0.08145052864425861, ,0.0003684043411244258, ,0.0008944388894478896,0.004700347263825889,-0.0025222916598060825,-0.02677779840700117,-0.002254417027165783,-0.008985855168457627, ,0.005408811380020533, ,0.02687253027826522, ,3.616809484424849e-05, ,0.14454639120686014,-0.23541206620498573,0.09098918768000001,-4.531819058587541,0.18254636368662844,-1.155299755350427, ,0.005018841253972963,-0.04681644872149521,0.003635055116385213,0.01913976711600719,-0.011909923192441213,0.07491284675697592, ,0.3136148452758789
0.010216089098630508,0.020061119094180797,-0.0813674094225959, ,0.010448749287861034,0.02030472941125384,-0.08149021455220537, ,0.00035854964802048064, ,0.001009693805045877,0.004329947902714488,-0.0018337439425807904,-0.0029703394854155925,-0.005943871330038127,-0.010001004279020018, ,0.004809422758203042, ,0.0066447364903308, ,3.6369538712676814e-05, ,0.14470084586434465,-0.23644691241013183,0.09105918734000001,-4.531819058587541,0.182409727186863,-1.154534907525606, ,0.007924928181423013,-0.044282287241470264,0.0029056569719080635,0.018489497909471162,-0.00902679698924567,0.04862679990187357, ,0.3332948684692383
0.01022723431675924,0.020108480336628168,-0.08138680506455337, ,0.010466355553621874,0.02039689422771689,-0.0815298962395599, ,0.0004010444150669643, ,0.0010667018246907757,0.004604687642214584,-0.001954899046410395,0.0031180292552621027,-0.012060066891033722,-0.004758788273006502, ,0.005114941969056795, ,0.012456617511360261, ,3.679565759506336e-05, ,0.1447857959259611,-0.23693344458120796,0.09109029830000001,-4.531609368644055,0.18227309068709754,-1.1541784534014878, ,0.007974967696991924,-0.047259433047047196,0.003090572665890571,0.012017888244726823,-0.013163235922914435,0.04392553637011254, ,0.35111093521118164
0.010250380539608656,0.020199900592372217,-0.0814318322863963, ,0.01048398105105088,0.020488899545212155,-0.08156957403886604, ,0.00039631096888943557, ,0.0011440964359703853,0.004532538914241296,-0.002119552967940759,0.026652880765030373,-0.023934586590138925,-0.0045400201078201335, ,0.005132774147361082, ,0.03582234621396268, ,3.715362490568899e-05, ,0.1449402505834456,-0.23785244979324066,0.09115770538000001,-4.531189988757087,0.18186318118780123,-1.153190769769274, ,0.007780329899804566,-0.04611124468341632,0.003233619878197321,0.007404353871111194,-0.02105090055731491,0.0171592954174926, ,0.37071800231933594
0.010272169763661621,0.020284014926357962,-0.08147183504139885, ,0.010501625821056662,0.020580745622596406,-0.08160924828164125, ,0.0003994766413187925, ,0.001055421053587208,0.004655438543588637,-0.0023574173698561562,-0.0053260527852901605,-0.015513702896038588,0.0004582097271213191, ,0.005323949500998797, ,0.016402494192818497, ,3.7691770390285205e-05, ,0.14510242797380432,-0.23870195040940537,0.09121863101000001,-4.530980298813603,0.18158990818827037,-1.1523961827808973, ,0.006664863638105771,-0.04679336368760887,0.0034900989307624897,0.005834145744292237,-0.017553380452906452,0.05047481869565597, ,0.38721489906311035
0.01029600519920926,0.020381908642702406,-0.08152131938842923, ,0.010519289904480993,0.02067243271808403,-0.08164891929837671, ,0.0003879974677794155, ,0.0011544373031335431,0.004810739579373481,-0.0024295948655711306,0.020183027457616732,-0.007739219299524784,0.002485675425631438, ,0.0055117031848809115, ,0.0216159689266151, ,3.8128453747139415e-05, ,0.1452877735627857,-0.2396827374844319,0.09129251954,-4.530980298813603,0.18145327168850492,-1.151713013696217, ,0.009204961063462712,-0.04800047625618147,0.003633396788321168,0.005834145744292237,-0.0036996820000598325,0.02791145663057745, ,0.40511608123779297
0.010310517334501288,0.02043207847676779,-0.08155041809585235, ,0.010536973342098388,0.02076396108924785,-0.0816885874185386, ,0.00042487545654577695, ,0.0014083375426125482,0.004884502804408258,-0.0031115504243899262,-0.01394220032226876,-0.012960871115784912,-0.009899919814053717, ,0.00596016176992917, ,0.019035995629716716, ,3.87102393130067e-05, ,0.1453804463572764,-0.24016926965550803,0.09133400082000001,-4.530560918926633,0.18117999868897403,-1.15091842670784, ,0.009673392678610112,-0.04681644872149521,0.004322608282225238,0.01778191129945858,-0.01617918642740276,0.06111133287906441, ,0.42043399810791016
0.010337636255412007,0.020532933632403022,-0.08161383689602804, ,0.010554676174616202,0.020855330993020504,-0.08172825297056989, ,0.0004051387697750602, ,0.0007895166952524608,0.004956883761673887,-0.002324779669490626,0.048773430341592455,0.015155432129857885,-0.002785890578740248, ,0.0055316031808604615, ,0.05107381550521749, ,3.915629938436655e-05, ,0.14555034648050932,-0.2411423339976603,0.09142214854000001,-4.5303512289831485,0.1807700891896777,-1.1496040281150641, ,0.007367096791985995,-0.04934838354574663,0.003562695486468352,0.01583945910842541,0.01892995895325357,0.005087312567407375, ,0.43584489822387695
0.010347183933173883,0.02058749888513041,-0.08163907280926934, ,0.010572398442674881,0.020946542685695013,-0.08176791628189063, ,0.0004429838218837842, ,0.0013171864907063338,0.0051597060506963065,-0.0026394529094807863,-0.022173364729564278,-0.011526963795732039,-0.004210880573155627, ,0.005943421442423373, ,0.024990578177591174, ,3.974068418981183e-05, ,0.14563529654212581,-0.24169064803173027,0.09146103724000001,-4.5303512289831485,0.18090672568944316,-1.1493070523180577, ,0.00947182716254729,-0.051240249221636495,0.0039310985982231,0.013628731194920042,-0.015544174760257792,0.07336560953546642, ,0.45207691192626953
0.010369313216674393,0.020690897020440684,-0.08168441885588154, ,0.0105901401868468,0.021037596422925894,-0.08180757767889967, ,0.0004291073550130976, ,0.001066138860868972,0.005108072366164243,-0.0016990876041466287,0.0030522312769801574,0.0010307455645627807,-0.008001211249501471, ,0.005487800475162201, ,0.003221576038662018, ,4.022408367457097e-05, ,0.14580519666535874,-0.24273321696975056,0.09153233319000001,-4.5299318490961795,0.1807700891896777,-1.1480521320523933, ,0.009628214268400269,-0.052896845907731756,0.003008842372497167,0.020126376327406038,-0.0010622076402950517,0.052561474759781505, ,0.46869707107543945
0.010390332510727794,0.020791740737155638,-0.081722579322041, ,0.010607901447638115,0.021128492459730308,-0.08184723748697521, ,0.00041985428787861845, ,0.0011971560293874434,0.00546367333785882,-0.0023479694362616398,0.0032766800764744215,-0.012323215975257325,0.0016305863899761053, ,0.006066124741146266, ,0.012751403225725415, ,4.063610728163841e-05, ,0.14595965132284322,-0.24376806317489666,0.09159585140000001,-4.529512469209211,0.18049681619014685,-1.1467674726231731, ,0.0088744554345023,-0.05546285304410916,0.0037242954220247843,0.007290351105650681,-0.012474935548544555,0.05139312064058579, ,0.48661303520202637
0.010411816489287396,0.020908219717483564,-0.08177638891022514, ,0.01062568226548674,0.02121923105048876,-0.08188689603047643, ,0.00039329180402501387, ,0.001035947457995492,0.0053600238100290545,-0.002492938355221969,0.015415414042574804,-0.005350863696745563,-0.009888433016054033, ,0.006001481818912936, ,0.016317681584982507, ,4.091335502867868e-05, ,0.14612182871320195,-0.24493419583890455,0.09167881396000001,-4.529302779265726,0.18049681619014685,-1.1456239702612054, ,0.007057179250824627,-0.053523373693440936,0.0038299618946862233,0.01916600447478321,-0.008470364297808746,0.03945971383577569, ,0.5076758861541748
0.010421022599063988,0.020965728633120243,-0.08179958631359777, ,0.010643482680764402,0.021309812448946315,-0.08192655363274419, ,0.0004289555459424845, ,0.0009642577180721455,0.005498180935235162,-0.0022150512762857577,-0.026024421578161268,0.00159023237430471,-0.005237256122856108, ,0.006005517354901264, ,0.026072962191297504, ,4.131354678345449e-05, ,0.14619133330906997,-0.24552112353734562,0.09171640637,-4.529302779265726,0.18049681619014685,-1.1450522190802215, ,0.006809521845933958,-0.055854585967316524,0.0035924247902571044,0.018428313948238267,-0.007316282857496769,0.08377047157388359, ,0.5228710174560547
0.01044198824507148,0.021076566650019543,-0.0818414532565757, ,0.010661302733774483,0.021400236908213317,-0.0819662106161023, ,0.0004103969782422071, ,0.0010304117968475321,0.005344787723247881,-0.002062567827236974,0.00621400477312925,-0.0015128558339333603,0.008298524628716518, ,0.005820883980944551, ,0.006395513119164931, ,4.161846511923529e-05, ,0.14634578796655445,-0.2466177516054855,0.09178381345000002,-4.529302779265726,0.1803601796903814,-1.1439606562948383, ,0.008399195005880924,-0.05453847216004068,0.0033435792443324945,0.01359577006638875,0.0,0.04875194563429571, ,0.5390808582305908
0.010452924858843261,0.02113021119737582,-0.08186284681328378, ,0.010679142464754236,0.02149050468076681,-0.0820058673018584, ,0.0004488214116441311, ,0.0009988535319266896,0.005417717614536616,-0.002279914306660667,0.009916093750205919,-0.004092545466453611,-0.009377530001031984, ,0.005962162508253086, ,0.01072743415716271, ,4.220393781741181e-05, ,0.14643073802817091,-0.24719695657105234,0.09182140586000001,-4.528673709435273,0.18022354319061595,-1.1435225234305797, ,0.006994633799906495,-0.05460123219704877,0.0036458712565804537,0.01938306534599216,-0.008245990843707267,0.0461651196313535, ,0.5525588989257812
0.010474218446910153,0.021242362463924157,-0.08191515877236964, ,0.010697001913872763,0.02158061601845101,-0.08204552401030546, ,0.00042549152231741627, ,0.0009021921746495729,0.005295737979001278,-0.0026205865968872595,-0.010231122739095357,-0.007353358913942294,0.02201521685509008, ,0.00597714526960995, ,0.012599514264291938, ,4.2675184040584036e-05, ,0.14656202448703273,-0.24830903010494065,0.09190177584,-4.528044639604819,0.17995027019108506,-1.1422378640013595, ,0.005460109622794666,-0.05274982854834395,0.003937901488257108,-0.012226854787627767,-0.007116225741930796,0.06033157613681999, ,0.5660319328308105
0.010486589004407411,0.021296247669730293,-0.08194317741479308, ,0.010714881121231975,0.02167057117247854,-0.08208518106072261, ,0.00046086919052073627, ,0.0013660660634630768,0.00571972122929201,-0.0030776388470847744,-0.006451177497753292,-0.0257968051708351,0.01698140853878396, ,0.006637259095714474, ,0.026591217494756215, ,4.3248127158028014e-05, ,0.14663152908290075,-0.24884189867326215,0.09194325712000001,-4.528044639604819,0.1796769971915542,-1.1415249557531233, ,0.008480831134110361,-0.05631865967861767,0.0045188117787234045,-0.01112074481249395,-0.023241092160186057,0.0578551321958034, ,0.5793938636779785
0.010497271972244798,0.02135432241010336,-0.08197662877990637, ,0.010732780126867675,0.021760370393431497,-0.08212483877137611, ,0.0004922451190516568, ,0.0012850786636344025,0.00581825737906023,-0.0036233283463159406,-0.024393326269816402,-0.013940224913297088,0.0011793798254685405, ,0.006973668647558028, ,0.028095626643919423, ,4.390160380956409e-05, ,0.1467010336787688,-0.24940565817308055,0.09199121985000001,-4.528254329548303,0.1796769971915542,-1.1408715258319988, ,0.006796567631793413,-0.055430456517798356,0.005064804934817171,0.007635163101926099,-0.02019307365311514,0.07825337021666987, ,0.5948679447174072
0.01052260130216264,0.021471594823255905,-0.08204669502777254, ,0.01075069897074625,0.021850013931262232,-0.08216449745952087, ,0.0004572821674233574, ,0.0012916264919711619,0.005687838696767966,-0.0031401308395244305,-0.00774410584980297,-0.010700011640674861,0.0023119776744728406, ,0.006624215404449439, ,0.013208384618045528, ,4.4406556472043576e-05, ,0.14687865653487595,-0.2505177317069689,0.09209103418,-4.527834949661335,0.1796769971915542,-1.1394829872496093, ,0.008515060094996434,-0.055076576644498415,0.004585150120898101,0.007243526827440263,-0.012697944738517992,0.06210622647547502, ,0.6097660064697266
0.010534842764636766,0.021531730124332314,-0.0820766208803613, ,0.010768637692769336,0.021939502035294475,-0.08220415744140085, ,0.0004870354958234973, ,0.0012873557586023563,0.0057319534920238285,-0.0028012255135311808,-0.02252875279199297,-0.002961672323918585,-0.011157543274086657, ,0.006508413021742615, ,0.022722592394894464, ,4.498612752638303e-05, ,0.14697132932936666,-0.25110465940540994,0.09213640433,-4.52762525971785,0.1796769971915542,-1.1389112360686253, ,0.009216795457042317,-0.056152036425130634,0.0042761910120805375,0.023483673274870952,-0.010644519050270454,0.0807691271593836, ,0.6243619918823242
0.010557040813988436,0.0216466864034756,-0.0821340200650051, ,0.010786596332769408,0.022028834954224183,-0.08224381903225103, ,0.00045911770195704467, ,0.001168307826807242,0.005804147673976075,-0.002917236639657618,-0.014492905129357468,-0.013515376616083076,0.03608499363751575, ,0.006600253253570033, ,0.01981690449974065, ,4.5449840739477445e-05, ,0.14713350671972536,-0.2522244556721725,0.09222325576000001,-4.5272058798308805,0.1796769971915542,-1.1376043762263763, ,0.00801517019008152,-0.05744366922425592,0.004400224176795581,-0.025988123965362885,-0.008200587421127437,0.06719167949314966, ,0.637484073638916
0.010569324147111772,0.021708850463483184,-0.08216061073107857, ,0.010804574930512305,0.022118012936120663,-0.08228348254629805, ,0.0004877031300706523, ,0.0012565770402602188,0.006035206711959082,-0.002525239596985047,0.003478469697445274,-0.0038560050145492004,-0.008366686790648635, ,0.006661797125128196, ,0.0051931229530589, ,4.598303018883062e-05, ,0.14723390224709026,-0.2528499970349847,0.09226603333000001,-4.527415569774365,0.1796769971915542,-1.1369509463052518, ,0.009687572005330613,-0.06021379540512105,0.004097970547980449,0.02043616329928805,-0.007278233614968352,0.05858829882750907, ,0.6508920192718506
0.01057957523262889,0.02175550947267741,-0.08218228352300004, ,0.010822573525696724,0.02220703622842752,-0.08232314829676063, ,0.0005317588420315375, ,0.001175538235428617,0.006206259335620468,-0.0026769432356305604,0.0066719985949180195,0.003052136543120901,-0.004909199696422581, ,0.00686043512983827, ,0.007336968215208232, ,4.662880751409131e-05, ,0.14730340684295828,-0.2533133610074381,0.09229973687000001,-4.527415569774365,0.17954036069178875,-1.1363494559607121, ,0.009224655431637698,-0.061581402698553396,0.004290011182332346,0.019010749342493468,0.0,0.05759466266240609, ,0.6640288829803467
0.010610461494780104,0.021895791000398835,-0.08224147266384427, ,0.01084059215795356,0.022295905077963453,-0.0823628165958524, ,0.00047725857460420145, ,0.0011717691969570891,0.006340372741527779,-0.002585512435091069,0.005704470049312315,0.006230119106192294,-0.02598430835934676, ,0.0069468153930025015, ,0.008447210338644547, ,4.708319583338516e-05, ,0.14753508882918503,-0.25470345292479857,0.09239566233,-4.526576810000427,0.17926708769225788,-1.1348197603110703, ,0.008878799404836626,-0.06288730388235307,0.004238640638637574,0.0406317680057072,-0.003483702630344245,0.06248051482658502, ,0.6799750328063965
0.010623283206948754,0.02195911451822385,-0.08227024705503466, ,0.01085863086684759,0.02238461973092347,-0.08240248775478107, ,0.0005039154787499825, ,0.0014071122494282882,0.006247379323702695,-0.003022763006141023,0.004133570311971695,-0.019988168338185314,0.058496654488424824, ,0.007081441201338453, ,0.020411106701678075, ,4.773827365512975e-05, ,0.14763548435654994,-0.2553212715547365,0.09244103248,-4.526157430113458,0.17926708769225788,-1.1342480091300864, ,0.011252455820972717,-0.06206470997937919,0.0046670997714620575,-0.04860914206552107,-0.0032381636057810773,0.05043788371854882, ,0.6931419372558594
0.010634354680052326,0.022016367219815158,-0.08229677996591553, ,0.01087668969187435,0.02247318043287986,-0.08244216208375106, ,0.0005371596874036823, ,0.0012490588581738503,0.006567391220591012,-0.0031376043855450486,0.002028844297055206,-0.013451253152988923,0.04700633625610539, ,0.007384804449385914, ,0.013603397379456565, ,4.846714006638819e-05, ,0.14772043441816643,-0.2558850310545549,0.09248251376000001,-4.526157430113458,0.17926708769225788,-1.133757936689243, ,0.009133906181346683,-0.06508706554078929,0.004843056102158711,-0.03553114563203729,-0.0030130381691431283,0.057503531615656155, ,0.7055699825286865
0.0106541632591946,0.022106373948681736,-0.08234332419947098, ,0.010894768672464068,0.02256158742878299,-0.08248183989196312, ,0.0005331949684937422, ,0.0014567461341831625,0.006690977248680014,-0.003653194169099941,-0.02989561464349063,-0.0054008047055622704,0.038367723879350474, ,0.007761257209947173, ,0.030379540248809567, ,4.915968900380365e-05, ,0.14785944360990247,-0.25675769986934227,0.09255251342000001,-4.526157430113458,0.17913045119249243,-1.132584695163719, ,0.01089606658217922,-0.06451185693981698,0.005403260352781548,-0.023295957098214668,-0.0005803297132433302,0.09133673883074528, ,0.7169830799102783
0.010669432359951464,0.022175371484787983,-0.08238095779283892, ,0.01091286784797762,0.022649840962962308,-0.08252152148761717, ,0.0005514891429930969, ,0.001531324220645764,0.006884878448744909,-0.0037998041456274957,0.023686073713014504,-0.006533233662593171,0.012601934492477837, ,0.008011555196580521, ,0.024570576493770955, ,4.988028172563026e-05, ,0.14797528460301582,-0.2574218548965256,0.09260825389,-4.526367120056943,0.17913045119249243,-1.1319312652425948, ,0.01142923540388664,-0.06571810357234818,0.0056067622386483645,0.0,-0.0005803297132433302,0.04170068206570731, ,0.7280409336090088
0.010685010786534388,0.02224637263826931,-0.0824193233320623, ,0.010930987257711352,0.022737941279127673,-0.08256120717791185, ,0.0005676928560067238, ,0.0015134827823070414,0.007077656042361974,-0.0036787840873404266,0.024864845859108982,-0.0007545117323683442,-0.006239307591459368, ,0.008118946825025519, ,0.024876290858521197, ,5.062174903406381e-05, ,0.1480911255961292,-0.25809373265658314,0.09266529065000001,-4.525947740169974,0.17913045119249243,-1.1314411928017511, ,0.01134719774864621,-0.06778352968462198,0.005542383966597078,0.020325884114581656,-0.0005803297132433302,0.04550809472361753, ,0.7395100593566895
0.0107233883721595,0.022383398270959868,-0.08249622648303796, ,0.010949126940891705,0.02282588862036981,-0.08260089726904635, ,0.0005076530155310911, ,0.001793663328665011,0.0063002324894649055,-0.0035070557406973886,-0.03965015269668694,-0.03277226134548204,-0.041418258120474345, ,0.00743031611213583, ,0.05144079822511149, ,5.1175886320277686e-05, ,0.14832280758235594,-0.25939887451232707,0.09277806788000001,-4.525528360283005,0.17831063219389978,-1.1293841467971832, ,0.009602997813283764,-0.05975877931893626,0.0051466273085621975,0.04554569547940644,-0.0503757104812441,0.09900163553299293, ,0.751533031463623
0.010739044582029,0.022449047383556405,-0.08252820357264078, ,0.010967286936678701,0.022913683229161676,-0.08264059206622171, ,0.0005297284351125176, ,0.0019255841431602956,0.0072725533564980864,-0.003236950088638811,-0.015867642534650946,-0.03324010724562526,-0.02807660751430775, ,0.008189978784578184, ,0.03683322968397916, ,5.177126898656339e-05, ,0.14842320310972085,-0.2600398613408877,0.0928273269,-4.525528360283005,0.17803735919436892,-1.128671238548947, ,0.012450307200697982,-0.07140477167680269,0.005171692051948053,0.03446462466087815,-0.04311568289838423,0.0860753818164626, ,0.7630369663238525
0.01075562630077062,0.02252270262382978,-0.0825657561671174, ,0.010985467284165058,0.023001325347359203,-0.0826802918736411, ,0.0005431620542668003, ,0.0014912562995892755,0.007142281536077835,-0.0038921786499613504,0.04894997335181957,-0.000754838853620674,-0.014664997128863577, ,0.008269527527911012, ,0.04895579303765337, ,5.238320172431976e-05, ,0.14853904410283422,-0.26075035276531633,0.09288436366000001,-4.525528360283005,0.17790072269460347,-1.1281514269445478, ,0.010698017094547353,-0.0673983959932321,0.0057775885092491855,0.027447754621878172,0.0,0.021877958181157182, ,0.7754478454589844
0.010773097018114101,0.02260716326003971,-0.08261196643998203, ,0.011003668022376185,0.02308881521620245,-0.08271999699451163, ,0.0005448139091412695, ,0.0016530308208709118,0.007072117938928687,-0.0037108183211699,0.013771156964586714,-0.012990986910925224,0.011577541226637665, ,0.00815582832394088, ,0.01893173273526433, ,5.298039006316782e-05, ,0.14867805329457026,-0.2615457942513615,0.09295306703,-4.52531867033952,0.17803735919436892,-1.1277727724074007, ,0.01216939491644919,-0.06763858984923077,0.005598879268892795,0.0,-0.008116702538101223,0.05252696686741752, ,0.786890983581543
0.010805034428160921,0.022756468974492537,-0.08268873643734921, ,0.011021889190270574,0.023176153076316576,-0.08275970773104527, ,0.0004777003848673098, ,0.0014840656810409703,0.0071430631941370535,-0.003511033120065992,-0.01058813279458981,0.009482487772424683,-0.03597963354209169, ,0.008096490369986206, ,0.01421358962037748, ,5.3388089156250224e-05, ,0.14891745801367123,-0.26295905436734457,0.09306973313000001,-4.524479910565582,0.17803735919436892,-1.1261391976045894, ,0.010607196971139448,-0.06788050183009356,0.005417963102040817,0.05321231064958503,-0.005261218525592002,0.08554102070171558, ,0.8028969764709473
0.010821050751707315,0.0228349781058396,-0.08271649384940193, ,0.01104013082673815,0.02326333916771264,-0.08279942438445984, ,0.00048822817641908605, ,0.0014840656810409703,0.0071430631941370535,-0.003511033120065992,-0.01058813279458981,0.009482487772424683,-0.03597963354209169, ,0.008096490369986206, ,0.01421358962037748, ,5.394548898153444e-05, ,0.14905646720540727,-0.2637390503876412,0.09311899215000001,-4.524060530678613,0.17803735919436892,-1.1251590527229027, ,0.012321077844517109,-0.06982850740137658,0.003569081676002689,-0.03583443814670185,-0.004406884987515736,0.07219281958576797, ,0.8124098777770996
0.010821050751707315,0.0228349781058396,-0.08271649384940193, ,0.011058392970601958,0.02335037372978878,-0.08283914725498015, ,0.0005805237600268679, ,0.0013252157699315936,0.006694531153731595,-0.0017164379874677696,-0.008101317651577782,-0.016333089810700453,0.04861340492441098, ,0.007036981140374093, ,0.018231872378921325, ,5.471861414352249e-05, ,0.14905646720540727,-0.2637390503876412,0.09311899215000001,-4.524060530678613,0.17803735919436892,-1.1251590527229027, ,0.012321077844517109,-0.06982850740137658,0.003569081676002689,-0.03583443814670185,-0.004406884987515736,0.07219281958576797, ,0.8224890232086182
0.010833184659337202,0.022899819998223173,-0.08273222012655994, ,0.011076675660619253,0.023437257001331094,-0.08287887664183906, ,0.0006079757671887712, ,0.0013150766505686902,0.006909817251509093,-0.0018660682574014285,-0.0039006944056003815,-0.01260920158503905,0.038095135056562354, ,0.007277170589412126, ,0.013198764390480114, ,5.554019325033123e-05, ,0.14917230819852062,-0.2644109281476988,0.09315269569000001,-4.524060530678613,0.17803735919436892,-1.1244239440616377, ,0.01194573785982764,-0.071512390021455,0.0037728118237801995,-0.024459176155325064,-0.003859480686352239,0.07135494249811286, ,0.8321349620819092
0.010848535881374065,0.022975860165227884,-0.08276064355421775, ,0.01109497893547814,0.023523989220514536,-0.08291861284327862, ,0.0006213967625052261, ,0.0016649133235058322,0.007561829657018919,-0.003356100288169915,0.009666035865724142,-0.013303477351464026,0.0314437866644789, ,0.008438993617772932, ,0.01644429258352612, ,5.637440634803407e-05, ,0.1494194356504958,-0.2659168610581725,0.09326028776,-4.524270220622098,0.17803735919436892,-1.1230354054792482, ,0.010188603132398668,-0.07525530654914415,0.0059995523615819215,0.0,-0.0030573550056591696,0.07913124719573247, ,0.8428668975830078
0.010878987261786394,0.023129370472732627,-0.08283731031657038, ,0.011113302833799538,0.023610570624904216,-0.08295835615655145, ,0.0005487344249402713, ,0.0017462499157083686,0.00784362491389267,-0.0043380474388048295,-0.016662050454573907,-0.0023478869309293366,0.012969774964726774, ,0.009131839690843814, ,0.016826660300098516, ,5.7014364125492345e-05, ,0.14952755391073497,-0.2666350752154754,0.09331991710000001,-4.524060530678613,0.17803735919436892,-1.1222186180778424, ,0.01262767020072798,-0.073506538774958,0.006454137568881686,0.00397578459037264,-0.0027813809492246507,0.090536312252296, ,0.8531110286712646
0.010897222780781505,0.023216940786041106,-0.08288774647021013, ,0.011131647394137004,0.023697001451455948,-0.082998106877921, ,0.0005455204500433741, ,0.001684072116426227,0.008320217499780045,-0.004924366125906789,-0.008934255913101043,0.012081494808683167,-0.029843720516970554, ,0.009813842258715424, ,0.015026092061388812, ,5.7631540972449485e-05, ,0.14965111763672254,-0.26743823943439476,0.09339380563,-4.523431460848159,0.17803735919436892,-1.1212384731961558, ,0.010693340023596511,-0.07610019371168467,0.007139763119677276,0.049483064684035856,-0.0025292033812819733,0.09197408586248645, ,0.8635108470916748
0.010897222780781505,0.023216940786041106,-0.08288774647021013, ,0.011150012654977816,0.02378328193651756,-0.0830378653026637, ,0.0006381071094075074, ,0.001684072116426227,0.008320217499780045,-0.004924366125906789,-0.008934255913101043,0.012081494808683167,-0.029843720516970554, ,0.009813842258715424, ,0.015026092061388812, ,5.84510946130707e-05, ,0.14965111763672254,-0.26743823943439476,0.09339380563,-4.523431460848159,0.17803735919436892,-1.1212384731961558, ,0.010693340023596511,-0.07610019371168467,0.007139763119677276,0.049483064684035856,-0.0025292033812819733,0.09197408586248645, ,0.872978925704956
0.010914023703380796,0.02329805108560541,-0.08293334003214688, ,0.011168398654739927,0.023869412315829706,-0.08307763172506918, ,0.0006418569653191963, ,0.0017771151228127705,0.008462962308659292,-0.004328484393735233,-0.002286990556326403,0.012525654993929283,-0.038921909302370924, ,0.00967034882226733, ,0.012732727803273213, ,5.926035732662126e-05, ,0.1497669586298359,-0.26818734452319454,0.09346121271,-4.52301208096119,0.17803735919436892,-1.1204216857947502, ,0.01282737788030154,-0.07914674024893309,0.006625961530782031,0.05939819065498525,-0.0023356751876522606,0.08977467720587554, ,0.8822500705718994
0.010945188569682296,0.023443004124371322,-0.08300513107600443, ,0.011186805431776688,0.023955392824526862,-0.08311740643844188, ,0.000577517657830378, ,0.0019287725927532111,0.008606287652068147,-0.004567916738122291,-0.004024897418935261,-0.011975699157141924,0.039969373683330166, ,0.009932482780811372, ,0.012633968796325345, ,5.990387190602005e-05, ,0.15000636334893688,-0.2695619909748065,0.09357269365000001,-4.522802391017706,0.17803735919436892,-1.11895146847222, ,0.014496935771229878,-0.08124738147129348,0.006922560417209909,-0.02355159847065871,-0.0020553987308997274,0.08159498330296075, ,0.893420934677124
0.010945188569682296,0.023443004124371322,-0.08300513107600443, ,0.011205233024370391,0.02404122369713849,-0.08315718973510222, ,0.0006697847500969086, ,0.0019287725927532111,0.008606287652068147,-0.004567916738122291,-0.004024897418935261,-0.011975699157141924,0.039969373683330166, ,0.009932482780811372, ,0.012633968796325345, ,6.0879312410493584e-05, ,0.15000636334893688,-0.2695619909748065,0.09357269365000001,-4.522802391017706,0.17803735919436892,-1.11895146847222, ,0.014496935771229878,-0.08124738147129348,0.006922560417209909,-0.02355159847065871,-0.0020553987308997274,0.08159498330296075, ,0.9013619422912598
0.010968736791545555,0.023553872974462254,-0.08306569325688748, ,0.011223681470739296,0.02412690516758977,-0.08319698190638719, ,0.0006407803003348241, ,0.0019123207347400886,0.008785763479939274,-0.0045875876490146135,0.00019916562214690502,-0.009879455615381078,0.03327160572075982, ,0.010094185006990063, ,0.009881462855738439, ,6.177203836710672e-05, ,0.1501762634721698,-0.2705968371799526,0.09366343395000001,-4.522802391017706,0.17803735919436892,-1.1179713235905333, ,0.014238100758960356,-0.08287942494189587,0.006995525480895917,-0.016334290458923203,-0.0018905209987441951,0.08002433391941574, ,0.9092419147491455
0.0109875679139154,0.02364830868278748,-0.08310836397328965, ,0.011242150809031987,0.02421243746920262,-0.08323678324265157, ,0.0006320959158953763, ,0.0016381366386255577,0.008785168162427323,-0.003647442086267815,0.002725916024883004,-0.003502513047576578,0.01830038826530487, ,0.009652279785709272, ,0.004438267136799011, ,6.262951667986163e-05, ,0.15032299539678007,-0.2715081196591111,0.09373213732,-4.52301208096119,0.17803735919436892,-1.1171545361891277, ,0.012620952461560152,-0.08541578898152184,0.006070431219512196,0.0,-0.0017703159526256493,0.08239895106964734, ,0.9170570373535156
0.01100660352110984,0.023737065328803732,-0.08314732447647945, ,0.011260641077331032,0.02429782083469672,-0.08327659403326955, ,0.0006290408855335593, ,0.0016381366386255577,0.008785168162427323,-0.003647442086267815,0.002725916024883004,-0.003502513047576578,0.01830038826530487, ,0.009652279785709272, ,0.004438267136799011, ,6.346510789137181e-05, ,0.15046200458851614,-0.27235762027527577,0.09379565553000001,-4.522592701074221,0.17790072269460347,-1.1161446521438851, ,0.015288696883916672,-0.08770512158823549,0.00687772518134715,0.01657159737002835,0.0,0.09393463027970855, ,0.9264459609985352
0.011026196961047148,0.02383478373279937,-0.08319831844130376, ,0.011279152313651128,0.024383055496190683,-0.0833164145666352, ,0.0006152520067106816, ,0.001969547659053974,0.009770221602919415,-0.00575765873622624,-0.003220251953146918,0.0037400053837892025,0.0055456955345643, ,0.011510298965460478, ,0.0049353476660774324, ,6.425589908424969e-05, ,0.15060101378025217,-0.2732689027544343,0.09387343293000001,-4.522383011130737,0.17790072269460347,-1.1150828285220578, ,0.012855180379093847,-0.0891051094445735,0.008410143357972546,0.015479183160554777,0.0,0.09462635211028422, ,0.9340188503265381
0.011026196961047148,0.02383478373279937,-0.08319831844130376, ,0.011297684555938738,0.024468141685202647,-0.083356245130164, ,0.0007069573177405035, ,0.001969547659053974,0.009770221602919415,-0.00575765873622624,-0.003220251953146918,0.0037400053837892025,0.0055456955345643, ,0.011510298965460478, ,0.0049353476660774324, ,6.523189414152411e-05, ,0.15060101378025217,-0.2732689027544343,0.09387343293000001,-4.522383011130737,0.17790072269460347,-1.1150828285220578, ,0.012855180379093847,-0.0891051094445735,0.008410143357972546,0.015479183160554777,0.0,0.09462635211028422, ,0.9424529075622559
0.011049056038699427,0.0239377013650908,-0.08325818235727356, ,0.011316237842074224,0.024553079632651565,-0.08339608601029357, ,0.0006849043332882045, ,0.0022548998584542954,0.009822197620233439,-0.005600269441191297,-0.006804417795894742,0.0006884294491343197,0.005994592319213788, ,0.011529230558737115, ,0.006839154270732723, ,6.614367211296951e-05, ,0.15076319117061088,-0.27421107616508966,0.09396158065000002,-4.522383011130737,0.17790072269460347,-1.1141026836403711, ,0.01647516346501229,-0.08986452799097612,0.008317917242819845,0.015479183160554777,0.0,0.09900763872237656, ,0.9504430294036865
0.011069002293006362,0.024032122135692537,-0.08331128236489907, ,0.011334812209869618,0.024637869568858155,-0.08343593749248517, ,0.0006731446839447608, ,0.0020648073780767363,0.01020780252142197,-0.00566467093882759,-0.006096337652481638,0.005868674904118963,-0.0008185048101150888, ,0.0118554273929752, ,0.008462072563536078, ,6.701482348928697e-05, ,0.15090220036234692,-0.27507602224700284,0.09404065434000002,-4.522173321187252,0.17790072269460347,-1.1131225387586843, ,0.014073400794671627,-0.09367911308832258,0.00846826768740032,0.02359224566189411,0.0,0.10329303035267534, ,0.9587838649749756
0.011093605364351689,0.024133489049669606,-0.08337005040296602, ,0.011353407697070057,0.02472251172354557,-0.08347579986122422, ,0.0006524016480265801, ,0.0023699791102396576,0.010230049277257541,-0.005892173017648734,0.00039183448369887585,0.0012287404700069649,0.00023241566458549127, ,0.012041113406491848, ,0.0012897016334412566, ,6.782738660571283e-05, ,0.15107210048557987,-0.27600275019190973,0.09412750577000001,-4.522173321187252,0.17776408619483802,-1.1121943334535822, ,0.017238318175925665,-0.09294509457244934,0.008737691453647835,0.021795874494690146,0.0,0.0957306914915112, ,0.9668600559234619
0.01112390950409416,0.024276030343119346,-0.08344301538060427, ,0.011372024341352534,0.024807006325840892,-0.08351567340002194, ,0.0005905723109667104, ,0.002390199530405473,0.01056082666960348,-0.004907545089775165,0.01721656464318816,-0.005506695480775678,0.011426785309325331, ,0.011888150089426655, ,0.018075779108644375, ,6.849670057750287e-05, ,0.15129605973893237,-0.27732333751340216,0.09424028300000001,-4.521753941300283,0.17776408619483802,-1.1108874736113332, ,0.01924887252707318,-0.09957706354509001,0.007905117379652606,0.010184048248376779,0.0,0.08364436773352624, ,0.9779300689697266
0.01112390950409416,0.024276030343119346,-0.08344301538060427, ,0.01139066218032641,0.02489135360427571,-0.08355555839141658, ,0.0006800335545249751, ,0.002390199530405473,0.01056082666960348,-0.004907545089775165,0.01721656464318816,-0.005506695480775678,0.011426785309325331, ,0.011888150089426655, ,0.018075779108644375, ,6.948533277082052e-05, ,0.15129605973893237,-0.27732333751340216,0.09424028300000001,-4.521753941300283,0.17776408619483802,-1.1108874736113332, ,0.01924887252707318,-0.09957706354509001,0.007905117379652606,0.010184048248376779,0.0,0.08364436773352624, ,0.9837009906768799
0.011143860529771711,0.024366975830375205,-0.08348326334345237, ,0.011409321251535768,0.024975553786787123,-0.0835954551169735, ,0.0006733672978960421, ,0.0020232801750206097,0.009870889960948764,-0.004133722461496966,0.02342420387646942,-0.0042703493998483485,0.010620498560824613, ,0.010891087763693534, ,0.023810275303662327, ,7.044788204532069e-05, ,0.15145823712929107,-0.2781882835953153,0.09430639379000001,-4.521753941300283,0.17776408619483802,-1.1102340436902087, ,0.016316530529310657,-0.09442481747111521,0.00693763567944251,0.009359972302364138,5.0612258052908546e-05,0.07209754729547446, ,0.9894988536834717
0.011143860529771711,0.024366975830375205,-0.08348326334345237, ,0.011428001592454587,0.025059607100718927,-0.08363536385728756, ,0.0007639429209498862, ,0.0020232801750206097,0.009870889960948764,-0.004133722461496966,0.02342420387646942,-0.0042703493998483485,0.010620498560824613, ,0.010891087763693534, ,0.023810275303662327, ,7.158491759020531e-05, ,0.15145823712929107,-0.2781882835953153,0.09430639379000001,-4.521753941300283,0.17776408619483802,-1.1102340436902087, ,0.016316530529310657,-0.09442481747111521,0.00693763567944251,0.009359972302364138,5.0612258052908546e-05,0.07209754729547446, ,0.9952809810638428
0.011166051339690076,0.024475733184600074,-0.08352473140339173, ,0.01144670324049074,0.02514351377282251,-0.08367528489198316, ,0.0007398396828751328, ,0.002329851842917883,0.01088804401536578,-0.004345865691176027,0.014742235496105675,-0.0051298074124821735,0.01396753260727521, ,0.011952583850207088, ,0.01560924181251663, ,7.265871090330249e-05, ,0.15164358271827247,-0.2792385752662098,0.09437898603000001,-4.521544251356799,0.17776408619483802,-1.1093355775486624, ,0.019514073937583958,-0.10462727845476381,0.007471299962476548,0.00892598085533519,2.791815352484122e-05,0.09100992316611786, ,1.0020480155944824
0.01119204178464418,0.024586886473453473,-0.08357891644287604, ,0.011465426232983198,0.025227274029257764,-0.08371521849971598, ,0.0007095164049699072, ,0.0024653060771341467,0.011439346468090162,-0.005917223593475645,-0.0016222857074340885,0.001779902356960353,-0.004051760289364156, ,0.013112967502672546, ,0.00240828903220765, ,7.365777649732686e-05, ,0.15182120557437964,-0.2802734214713559,0.09446454117000001,-4.52112487146983,0.17749081319530713,-1.108132596859583, ,0.017884836328396304,-0.10520725228211839,0.009143979058553388,0.028579406442610346,-0.002889529529988994,0.11059688337332185, ,1.008039951324463
0.01119204178464418,0.024586886473453473,-0.08357891644287604, ,0.011484170607205208,0.02531088809559408,-0.08375516495817387, ,0.0008003631281973277, ,0.0024653060771341467,0.011439346468090162,-0.005917223593475645,-0.0016222857074340885,0.001779902356960353,-0.004051760289364156, ,0.013112967502672546, ,0.00240828903220765, ,7.482826093915584e-05, ,0.15182120557437964,-0.2802734214713559,0.09446454117000001,-4.52112487146983,0.17749081319530713,-1.108132596859583, ,0.017884836328396304,-0.10520725228211839,0.009143979058553388,0.028579406442610346,-0.002889529529988994,0.11059688337332185, ,1.014559030532837
0.01122076799452733,0.024705665143599766,-0.08364264228325953, ,0.011502936400362512,0.025394356196811338,-0.08379512454407788, ,0.0007597139039727441, ,0.0027615560191503775,0.011560012457261295,-0.006357967628172969,-0.011066933420061455,-0.010231205189692902,-0.0011347857715529412, ,0.013479014504771385, ,0.01507164770581657, ,7.590301821055198e-05, ,0.15201427389623526,-0.28136232680662154,0.09456176292000001,-4.520915181526345,0.17721754019577626,-1.106766258690222, ,0.0194780257714431,-0.10509074369708835,0.009630478548972188,0.02277372023425762,-0.013241975403269012,0.11764050129340424, ,1.021864891052246
0.011252141775785452,0.024837912225555325,-0.08371805362744772, ,0.01152172364959271,0.02547767855730115,-0.08383509753318372, ,0.0007040416335635835, ,0.002495263195014141,0.012237102449647763,-0.006998008648130606,0.03088005386080389,0.027530732417484875,-0.002464437602006799, ,0.014315905134320994, ,0.04137050805956091, ,7.685378184115465e-05, ,0.15223051041671354,-0.2825516276692521,0.09467454015000001,-4.520495801639376,0.17708090369601082,-1.1054296596844173, ,0.01933515516676259,-0.10932827368487416,0.010465710591327202,0.03528068848472667,0.027132144283608033,0.08729599631390074, ,1.0297269821166992
0.011252141775785452,0.024837912225555325,-0.08371805362744772, ,0.011540532391963941,0.02556085540086721,-0.08387508420028185, ,0.0007940242962494645, ,0.002495263195014141,0.012237102449647763,-0.006998008648130606,0.03088005386080389,0.027530732417484875,-0.002464437602006799, ,0.014315905134320994, ,0.04137050805956091, ,7.797176388624591e-05, ,0.15223051041671354,-0.2825516276692521,0.09467454015000001,-4.520495801639376,0.17708090369601082,-1.1054296596844173, ,0.01933515516676259,-0.10932827368487416,0.010465710591327202,0.03528068848472667,0.027132144283608033,0.08729599631390074, ,1.0356528759002686
0.011280300914656411,0.024958574943972536,-0.08378882464402009, ,0.011559362664480242,0.025643886950726873,-0.08391508481919983, ,0.0007506461474308753, ,0.0027457622161378343,0.012491955905035238,-0.00738412772427959,0.022798582460348944,0.0245923578969835,-0.01110480127490327, ,0.014768666653743302, ,0.03353445104935445, ,7.899095689565841e-05, ,0.15243130147144338,-0.28362508753876936,0.09477953964000001,-4.520076421752408,0.17708090369601082,-1.1042861573224494, ,0.02095317764594188,-0.11047373871766097,0.010940117802197802,0.04370691420601916,0.021823790162754007,0.0970765457675609, ,1.0431029796600342
0.011280300914656411,0.024958574943972536,-0.08378882464402009, ,0.01157821450407589,0.02572677342951197,-0.08395509966280303, ,0.0008405526764082923, ,0.0027457622161378343,0.012491955905035238,-0.00738412772427959,0.022798582460348944,0.0245923578969835,-0.01110480127490327, ,0.014768666653743302, ,0.03353445104935445, ,8.033196035856013e-05, ,0.15243130147144338,-0.28362508753876936,0.09477953964000001,-4.520076421752408,0.17708090369601082,-1.1042861573224494, ,0.02095317764594188,-0.11047373871766097,0.010940117802197802,0.04370691420601916,0.021823790162754007,0.0970765457675609, ,1.04709792137146
0.011307721552069128,0.025081496866477076,-0.08385072391488677, ,0.011597087947620606,0.025809515059269515,-0.083995129002995, ,0.0007966154840214746, ,0.002655846190430341,0.012497951294870194,-0.005667894148190298,-0.0052615520651206355,0.01988027933657011,0.0010386993261440858, ,0.013977744082335344, ,0.02056476187036134, ,8.157648396580937e-05, ,0.15263981525904743,-0.2847526065384061,0.09487676139000001,-4.519866731808922,0.17708090369601082,-1.1030609762203412, ,0.0225194450779475,-0.11601093100057551,0.009304212336448599,0.03283132251013478,0.017282397430440015,0.12871365630439513, ,1.0510509014129639
0.011307721552069128,0.025081496866477076,-0.08385072391488677, ,0.011615983031910485,0.02589211206146312,-0.08403517311071923, ,0.0008866474159097799, ,0.002655846190430341,0.012497951294870194,-0.005667894148190298,-0.0052615520651206355,0.01988027933657011,0.0010386993261440858, ,0.013977744082335344, ,0.02056476187036134, ,8.298680452717032e-05, ,0.15263981525904743,-0.2847526065384061,0.09487676139000001,-4.519866731808922,0.17708090369601082,-1.1030609762203412, ,0.0225194450779475,-0.11601093100057551,0.009304212336448599,0.03283132251013478,0.017282397430440015,0.12871365630439513, ,1.0549368858337402
0.011339634317972429,0.025217799857684707,-0.08391196769499899, ,0.011634899793681503,0.025974564656973783,-0.08407523225596057, ,0.0008285710467151977, ,0.0028249446547851317,0.013388367069530317,-0.006490205830636033,0.03459349877575268,0.010204408477016442,0.0054225113086475716, ,0.015144353958327337, ,0.0360671609417494, ,8.427340149350207e-05, ,0.15290238817677107,-0.28602685746265316,0.09497787201,-4.519866731808922,0.17708090369601082,-1.1017541163780922, ,0.0226809133743955,-0.12292349942807097,0.01037032,0.025713555615786716,0.01417152384135495,0.09379158636043901, ,1.0606849193572998
0.011339634317972429,0.025217799857684707,-0.08391196769499899, ,0.011653838269595743,0.026056873066100588,-0.0841153067077454, ,0.0009187571640002116, ,0.0028249446547851317,0.013388367069530317,-0.006490205830636033,0.03459349877575268,0.010204408477016442,0.0054225113086475716, ,0.015144353958327337, ,0.0360671609417494, ,8.57244853639338e-05, ,0.15290238817677107,-0.28602685746265316,0.09497787201,-4.519866731808922,0.17708090369601082,-1.1017541163780922, ,0.0226809133743955,-0.12292349942807097,0.01037032,0.025713555615786716,0.01417152384135495,0.09379158636043901, ,1.0645408630371094
0.011372633345603254,0.025361585832403256,-0.08399091923329363, ,0.011672798496252893,0.026139037508562175,-0.0841553967341436, ,0.0008494604609472321, ,0.003819056279688559,0.014634891795673717,-0.008882236159132004,-2.3652124661963732e-05,-0.0016946236690648338,-0.0017843776765147199, ,0.01754022143318318, ,0.0016947724086769777, ,8.703086588458768e-05, ,0.15315723836162048,-0.28730883111977445,0.09509842698000001,-4.519237661978469,0.17721754019577626,-1.10064035317968, ,0.02842928147347836,-0.12823911021414972,0.013120932059308074,0.03271949390295909,0.0,0.1330540125166497, ,1.068955898284912
0.011372633345603254,0.025361585832403256,-0.08399091923329363, ,0.01169178050972846,0.026221058203513368,-0.08419550260226155, ,0.0009393625625545559, ,0.003819056279688559,0.014634891795673717,-0.008882236159132004,-2.3652124661963732e-05,-0.0016946236690648338,-0.0017843776765147199, ,0.01754022143318318, ,0.0016947724086769777, ,8.849977342928131e-05, ,0.15315723836162048,-0.28730883111977445,0.09509842698000001,-4.519237661978469,0.17721754019577626,-1.10064035317968, ,0.02842928147347836,-0.12823911021414972,0.013120932059308074,0.03271949390295909,0.0,0.1330540125166497, ,1.0727920532226562
0.011372633345603254,0.025361585832403256,-0.08399091923329363, ,0.011710784347394317,0.026302935369482413,-0.08423562457827177, ,0.001029740625998757, ,0.003819056279688559,0.014634891795673717,-0.008882236159132004,-2.3652124661963732e-05,-0.0016946236690648338,-0.0017843776765147199, ,0.01754022143318318, ,0.0016947724086769777, ,9.013025350411915e-05, ,0.15315723836162048,-0.28730883111977445,0.09509842698000001,-4.519237661978469,0.17721754019577626,-1.10064035317968, ,0.02842928147347836,-0.12823911021414972,0.013120932059308074,0.03271949390295909,0.0,0.1330540125166497, ,1.076676845550537
0.011410985532342603,0.025511652059461036,-0.08408777254264731, ,0.011729810045188542,0.02638466922446763,-0.08427576292737389, ,0.0009482343724719394, ,0.003913162977657533,0.01606722395462998,-0.010700611181410503,-0.02154961683302395,0.017981635099984784,-0.03891655714053588, ,0.019696994942215742, ,0.028066439856595984, ,9.159306086690717e-05, ,0.15342753401221834,-0.28859852750976994,0.09523842630000001,-4.5186085921480155,0.17721754019577626,-1.0990884571170094, ,0.026027685561840586,-0.13673910887387722,0.015286767293666029,0.07616552546411401,0.0,0.16976977846679445, ,1.0807180404663086
0.011410985532342603,0.025511652059461036,-0.08408777254264731, ,0.011748857639438288,0.026466259985874627,-0.08431591791382101, ,0.0010380193467912442, ,0.003913162977657533,0.01606722395462998,-0.010700611181410503,-0.02154961683302395,0.017981635099984784,-0.03891655714053588, ,0.019696994942215742, ,0.028066439856595984, ,9.321513529775617e-05, ,0.15342753401221834,-0.28859852750976994,0.09523842630000001,-4.5186085921480155,0.17721754019577626,-1.0990884571170094, ,0.026027685561840586,-0.13673910887387722,0.015286767293666029,0.07616552546411401,0.0,0.16976977846679445, ,1.0850980281829834
0.011441062265183825,0.0256296324586521,-0.08417097686679761, ,0.011767927166403005,0.026547707870533344,-0.08435608980091444, ,0.0009919525814913147, ,0.0041322353365726245,0.016668631044327857,-0.012474781330061776,-0.05391431104728852,0.01560743110633951,-0.016469460924934697, ,0.021225899250717453, ,0.05612793011801864, ,9.473786178338151e-05, ,0.1536128796011997,-0.2895947600505449,0.09535509240000001,-4.518398902204531,0.17708090369601082,-1.097670179371064, ,0.02529910465435105,-0.1375317993601026,0.017183183948220066,0.05459462569766228,-0.001050720859427881,0.199947126830749, ,1.0892829895019531
0.011441062265183825,0.0256296324586521,-0.08417097686679761, ,0.011787018662274542,0.02662901309469876,-0.0843962788510059, ,0.0010812994351617907, ,0.0041322353365726245,0.016668631044327857,-0.012474781330061776,-0.05391431104728852,0.01560743110633951,-0.016469460924934697, ,0.021225899250717453, ,0.05612793011801864, ,9.641737913101809e-05, ,0.1536128796011997,-0.2895947600505449,0.09535509240000001,-4.518398902204531,0.17708090369601082,-1.097670179371064, ,0.02529910465435105,-0.1375317993601026,0.017183183948220066,0.05459462569766228,-0.001050720859427881,0.199947126830749, ,1.0931520462036133
0.011441062265183825,0.0256296324586521,-0.08417097686679761, ,0.011806132163177302,0.02671017587405204,-0.08443648532549719, ,0.0011710443393083626, ,0.0041322353365726245,0.016668631044327857,-0.012474781330061776,-0.05391431104728852,0.01560743110633951,-0.016469460924934697, ,0.021225899250717453, ,0.05612793011801864, ,9.825266915174291e-05, ,0.1536128796011997,-0.2895947600505449,0.09535509240000001,-4.518398902204531,0.17708090369601082,-1.097670179371064, ,0.02529910465435105,-0.1375317993601026,0.017183183948220066,0.05459462569766228,-0.001050720859427881,0.199947126830749, ,1.097135066986084
0.011495534056516238,0.025834561183482638,-0.08432940476103272, ,0.011825267705167907,0.026791196423701688,-0.0844767094848424, ,0.001022533101439141, ,0.0043223700714587285,0.016711193325189517,-0.012441965270309373,-0.04502957483115104,-0.0043700107690304415,0.016503532219218804, ,0.02127790791346944, ,0.04524112405145049, ,9.979664627909928e-05, ,0.15394495711479136,-0.29127059308425163,0.09557157283,-4.517979522317562,0.1769442671962454,-1.0951083992631507, ,0.02699002888466177,-0.1381323749031598,0.017201740302375815,0.016836040199975442,-0.006993056303259446,0.18506919169648461, ,1.1011199951171875
0.011495534056516238,0.025834561183482638,-0.08432940476103272, ,0.011844425324235476,0.026872074958184097,-0.08451695158854813, ,0.0011105556095473582, ,0.0043223700714587285,0.016711193325189517,-0.012441965270309373,-0.04502957483115104,-0.0043700107690304415,0.016503532219218804, ,0.02127790791346944, ,0.04524112405145049, ,0.00010149303793084817, ,0.15394495711479136,-0.29127059308425163,0.09557157283,-4.517979522317562,0.1769442671962454,-1.0951083992631507, ,0.02699002888466177,-0.1381323749031598,0.017201740302375815,0.016836040199975442,-0.006993056303259446,0.18506919169648461, ,1.1052260398864746
0.011495534056516238,0.025834561183482638,-0.08432940476103272, ,0.011863605056301546,0.026952811691465066,-0.0845572118951756, ,0.0011991065631762276, ,0.0043223700714587285,0.016711193325189517,-0.012441965270309373,-0.04502957483115104,-0.0043700107690304415,0.016503532219218804, ,0.02127790791346944, ,0.04524112405145049, ,0.00010353321176959422, ,0.15394495711479136,-0.29127059308425163,0.09557157283,-4.517979522317562,0.1769442671962454,-1.0951083992631507, ,0.02699002888466177,-0.1381323749031598,0.017201740302375815,0.016836040199975442,-0.006993056303259446,0.18506919169648461, ,1.1073379516601562
0.011543025246892486,0.026029316518091428,-0.08445861471531681, ,0.011882806937219988,0.027033406836940232,-0.08459749066234079, ,0.0010690816124831238, ,0.004636197019864067,0.01873223701508742,-0.011733083851245983,-0.024273754401744587,-0.0038529621351080677,0.007603114966949445, ,0.022584425674716125, ,0.02457763714453929, ,0.00010532458171525941, ,0.15426158916263458,-0.29292325791933566,0.09575694230000001,-4.517560142430592,0.1769442671962454,-1.093148109499777, ,0.031855300959540374,-0.16111535069349878,0.017183183948220066,0.030629465533545456,-0.006121848972536762,0.18922593984147812, ,1.1093409061431885
0.011543025246892486,0.026029316518091428,-0.08445861471531681, ,0.011902031002776998,0.027113860607436317,-0.08463778814671617, ,0.0011563840767714537, ,0.004636197019864067,0.01873223701508742,-0.011733083851245983,-0.024273754401744587,-0.0038529621351080677,0.007603114966949445, ,0.022584425674716125, ,0.02457763714453929, ,0.0001072709881875857, ,0.15426158916263458,-0.29292325791933566,0.09575694230000001,-4.517560142430592,0.1769442671962454,-1.093148109499777, ,0.031855300959540374,-0.16111535069349878,0.017183183948220066,0.030629465533545456,-0.006121848972536762,0.18922593984147812, ,1.1114020347595215
0.011543025246892486,0.026029316518091428,-0.08445861471531681, ,0.011921277288691244,0.027194173215212347,-0.084678104604031, ,0.0012442433617263755, ,0.004636197019864067,0.01873223701508742,-0.011733083851245983,-0.024273754401744587,-0.0038529621351080677,0.007603114966949445, ,0.022584425674716125, ,0.02457763714453929, ,0.00010937260070799011, ,0.15426158916263458,-0.29292325791933566,0.09575694230000001,-4.517560142430592,0.1769442671962454,-1.093148109499777, ,0.031855300959540374,-0.16111535069349878,0.017183183948220066,0.030629465533545456,-0.006121848972536762,0.18922593984147812, ,1.1134140491485596
0.011543025246892486,0.026029316518091428,-0.08445861471531681, ,0.011940545830613743,0.02727434487196011,-0.08471844028907355, ,0.001332526752150617, ,0.004636197019864067,0.01873223701508742,-0.011733083851245983,-0.024273754401744587,-0.0038529621351080677,0.007603114966949445, ,0.022584425674716125, ,0.02457763714453929, ,0.0006111424619714472, ,0.15426158916263458,-0.29292325791933566,0.09575694230000001,-4.517560142430592,0.1769442671962454,-1.093148109499777, ,0.031855300959540374,-0.16111535069349878,0.017183183948220066,0.030629465533545456,-0.006121848972536762,0.18922593984147812, ,1.115365982055664
0.011543025246892486,0.026029316518091428,-0.08445861471531681, ,0.011959836664127822,0.027354375788805545,-0.08475879545569152, ,0.0014211341616241137, ,0.004636197019864067,0.01873223701508742,-0.011733083851245983,-0.024273754401744587,-0.0038529621351080677,0.007603114966949445, ,0.022584425674716125, ,0.02457763714453929, ,0.0006192423789679739, ,0.15426158916263458,-0.29292325791933566,0.09575694230000001,-4.517560142430592,0.1769442671962454,-1.093148109499777, ,0.031855300959540374,-0.16111535069349878,0.017183183948220066,0.030629465533545456,-0.006121848972536762,0.18922593984147812, ,1.1174099445343018
0.011543025246892486,0.026029316518091428,-0.08445861471531681, ,0.011979149824749194,0.027434266176309487,-0.0847991703567929, ,0.0015099888524353156, ,0.004636197019864067,0.01873223701508742,-0.011733083851245983,-0.024273754401744587,-0.0038529621351080677,0.007603114966949445, ,0.022584425674716125, ,0.02457763714453929, ,0.000628061650982502, ,0.15426158916263458,-0.29292325791933566,0.09575694230000001,-4.517560142430592,0.1769442671962454,-1.093148109499777, ,0.031855300959540374,-0.16111535069349878,0.017183183948220066,0.030629465533545456,-0.006121848972536762,0.18922593984147812, ,1.1194589138031006
0.011543025246892486,0.026029316518091428,-0.08445861471531681, ,0.011998485347925896,0.027514016244468906,-0.08483956524434774, ,0.001599031108736685, ,0.004636197019864067,0.01873223701508742,-0.011733083851245983,-0.024273754401744587,-0.0038529621351080677,0.007603114966949445, ,0.022584425674716125, ,0.02457763714453929, ,0.0006375809593918568, ,0.15426158916263458,-0.29292325791933566,0.09575694230000001,-4.517560142430592,0.1769442671962454,-1.093148109499777, ,0.031855300959540374,-0.16111535069349878,0.017183183948220066,0.030629465533545456,-0.006121848972536762,0.18922593984147812, ,1.122607946395874
0.011590186571621855,0.02621582672990567,-0.08458078784135795, ,0.012017843269038344,0.027593626202717457,-0.08487998036938868, ,0.0014733423929810183, ,0.005288340995918169,0.020441726450557626,-0.013525876570526235,-0.026664194406471817,0.01601963100787985,-0.04592089198474139, ,0.02507548738847655, ,0.03110638822263747, ,0.0006456951480674796, ,0.15457049847760357,-0.29449869542567747,0.09593323774000001,-4.516721382656655,0.17680763069647995,-1.0911580805728478, ,0.036220206701706406,-0.1716038726192962,0.01949670932680539,0.09190707899165426,-0.0025735607827373956,0.21180007814757465, ,1.1245520114898682
0.011590186571621855,0.02621582672990567,-0.08458078784135795, ,0.012037223623399252,0.027673096259926994,-0.08492041598201218, ,0.0015616734238356768, ,0.005288340995918169,0.020441726450557626,-0.013525876570526235,-0.026664194406471817,0.01601963100787985,-0.04592089198474139, ,0.02507548738847655, ,0.03110638822263747, ,0.0006545026314883276, ,0.15457049847760357,-0.29449869542567747,0.09593323774000001,-4.516721382656655,0.17680763069647995,-1.0911580805728478, ,0.036220206701706406,-0.1716038726192962,0.01949670932680539,0.09190707899165426,-0.0025735607827373956,0.21180007814757465, ,1.1264748573303223
0.011590186571621855,0.02621582672990567,-0.08458078784135795, ,0.012056626446253691,0.027752426624408154,-0.08496087233138, ,0.001650202900248005, ,0.005288340995918169,0.020441726450557626,-0.013525876570526235,-0.026664194406471817,0.01601963100787985,-0.04592089198474139, ,0.02507548738847655, ,0.03110638822263747, ,0.0006639854911908008, ,0.15457049847760357,-0.29449869542567747,0.09593323774000001,-4.516721382656655,0.17680763069647995,-1.0911580805728478, ,0.036220206701706406,-0.1716038726192962,0.01949670932680539,0.09190707899165426,-0.0025735607827373956,0.21180007814757465, ,1.1283929347991943
0.011649260211847475,0.026423870666727026,-0.08472079506942345, ,0.012076051772778993,0.027831617503911436,-0.08500134966571987, ,0.0014975356675512327, ,0.006119898085808976,0.02274994155364969,-0.015994469444593942,-0.07721765165231671,-0.0026145987023412113,-0.021842811858112307, ,0.028475182986053216, ,0.07726189750651878, ,0.0006718491720998614, ,0.1549566351213148,-0.2962440330552522,0.09613416269000001,-4.516092312826201,0.1763977211971836,-1.0885368221378229, ,0.03950746942484212,-0.18791473575934806,0.02262615272727273,0.06792017977646526,-0.020346798719333006,0.27300786722779746, ,1.130634069442749
0.011649260211847475,0.026423870666727026,-0.08472079506942345, ,0.01209549963808493,0.027910669105628252,-0.08504184823232638, ,0.001585173289220402, ,0.006119898085808976,0.02274994155364969,-0.015994469444593942,-0.07721765165231671,-0.0026145987023412113,-0.021842811858112307, ,0.028475182986053216, ,0.07726189750651878, ,0.000680384911512203, ,0.1549566351213148,-0.2962440330552522,0.09613416269000001,-4.516092312826201,0.1763977211971836,-1.0885368221378229, ,0.03950746942484212,-0.18791473575934806,0.02262615272727273,0.06792017977646526,-0.020346798719333006,0.27300786722779746, ,1.1325960159301758
0.011649260211847475,0.026423870666727026,-0.08472079506942345, ,0.012114970077213492,0.027989581636191932,-0.08508236827756287, ,0.00167304264842418, ,0.006119898085808976,0.02274994155364969,-0.015994469444593942,-0.07721765165231671,-0.0026145987023412113,-0.021842811858112307, ,0.028475182986053216, ,0.07726189750651878, ,0.0006895761868539804, ,0.1549566351213148,-0.2962440330552522,0.09613416269000001,-4.516092312826201,0.1763977211971836,-1.0885368221378229, ,0.03950746942484212,-0.18791473575934806,0.02262615272727273,0.06792017977646526,-0.020346798719333006,0.27300786722779746, ,1.1345880031585693
0.011649260211847475,0.026423870666727026,-0.08472079506942345, ,0.012134463125138951,0.028068355301678425,-0.0851229100468615, ,0.0017610928529574377, ,0.006119898085808976,0.02274994155364969,-0.015994469444593942,-0.07721765165231671,-0.0026145987023412113,-0.021842811858112307, ,0.028475182986053216, ,0.07726189750651878, ,0.00069940661498337, ,0.1549566351213148,-0.2962440330552522,0.09613416269000001,-4.516092312826201,0.1763977211971836,-1.0885368221378229, ,0.03950746942484212,-0.18791473575934806,0.02262615272727273,0.06792017977646526,-0.020346798719333006,0.27300786722779746, ,1.1366050243377686
0.01172637294761112,0.0266950389130517,-0.08492080931726792, ,0.012153978816767889,0.028146990307607676,-0.08516347378472551, ,0.0015329369443185948, ,0.007636344273018493,0.026615446356291813,-0.020199068054658063,-0.13783260513559517,-0.027435780735917164,-0.02094608960719912, ,0.03427386889275002, ,0.14053663487005022, ,0.000706984163431872, ,0.15541227636089402,-0.2984527346572804,0.09641286504,-4.515253553052263,0.17571453869835643,-1.0847125830137183, ,0.045999486940606286,-0.21421431503040805,0.02794528336842106,0.06703658018959624,-0.05167754386813258,0.3557687998428136, ,1.139266014099121
0.01172637294761112,0.0266950389130517,-0.08492080931726792, ,0.012173517186939271,0.028225486858944347,-0.08520405973472915, ,0.001619394851431649, ,0.007636344273018493,0.026615446356291813,-0.020199068054658063,-0.13783260513559517,-0.027435780735917164,-0.02094608960719912, ,0.03427386889275002, ,0.14053663487005022, ,0.000715204079539978, ,0.15541227636089402,-0.2984527346572804,0.09641286504,-4.515253553052263,0.17571453869835643,-1.0847125830137183, ,0.045999486940606286,-0.21421431503040805,0.02794528336842106,0.06703658018959624,-0.05167754386813258,0.3557687998428136, ,1.1413350105285645
0.01172637294761112,0.0266950389130517,-0.08492080931726792, ,0.012193078270424283,0.02830384516009882,-0.08524466813951974, ,0.0017061523776117746, ,0.007636344273018493,0.026615446356291813,-0.020199068054658063,-0.13783260513559517,-0.027435780735917164,-0.02094608960719912, ,0.03427386889275002, ,0.14053663487005022, ,0.0007240518322013334, ,0.15541227636089402,-0.2984527346572804,0.09641286504,-4.515253553052263,0.17571453869835643,-1.0847125830137183, ,0.045999486940606286,-0.21421431503040805,0.02794528336842106,0.06703658018959624,-0.05167754386813258,0.3557687998428136, ,1.1441519260406494
0.01172637294761112,0.0266950389130517,-0.08492080931726792, ,0.012212662101926338,0.02838206541492841,-0.08528529924081796, ,0.0017931504298325013, ,0.007636344273018493,0.026615446356291813,-0.020199068054658063,-0.13783260513559517,-0.027435780735917164,-0.02094608960719912, ,0.03427386889275002, ,0.14053663487005022, ,0.0007335128817378923, ,0.15541227636089402,-0.2984527346572804,0.09641286504,-4.515253553052263,0.17571453869835643,-1.0847125830137183, ,0.045999486940606286,-0.21421431503040805,0.02794528336842106,0.06703658018959624,-0.05167754386813258,0.3557687998428136, ,1.1462059020996094
0.01172637294761112,0.0266950389130517,-0.08492080931726792, ,0.012232268716081192,0.02846014782673779,-0.08532595327941961, ,0.0018803408296896554, ,0.007636344273018493,0.026615446356291813,-0.020199068054658063,-0.13783260513559517,-0.027435780735917164,-0.02094608960719912, ,0.03427386889275002, ,0.14053663487005022, ,0.000743572776018171, ,0.15541227636089402,-0.2984527346572804,0.09641286504,-4.515253553052263,0.17571453869835643,-1.0847125830137183, ,0.045999486940606286,-0.21421431503040805,0.02794528336842106,0.06703658018959624,-0.05167754386813258,0.3557687998428136, ,1.1482329368591309
0.011807592444077048,0.02699227069994083,-0.08516258808194109, ,0.012251898147456858,0.028538092598280704,-0.0853666304951962, ,0.0016212976919276392, ,0.008236359482808283,0.028989073578449,-0.025339585480305904,-0.1408057639218117,0.011083486351781538,-0.04985332364712486, ,0.0393738313703468, ,0.14124127008835735, ,0.0007512051665912968, ,0.1559065312648444,-0.30076955451954773,0.09674082641000001,-4.51420510333484,0.17571453869835643,-1.0811187184475335, ,0.045733465811311214,-0.21966884620016383,0.03367613429175476,0.10839769259264731,-0.02691138845529685,0.3741823737533919, ,1.1504669189453125
0.011807592444077048,0.02699227069994083,-0.08516258808194109, ,0.012271550430553587,0.02861589993176047,-0.08540733112709652, ,0.0017062614259797805, ,0.008236359482808283,0.028989073578449,-0.025339585480305904,-0.1408057639218117,0.011083486351781538,-0.04985332364712486, ,0.0393738313703468, ,0.14124127008835735, ,0.0007594384102067147, ,0.1559065312648444,-0.30076955451954773,0.09674082641000001,-4.51420510333484,0.17571453869835643,-1.0811187184475335, ,0.045733465811311214,-0.21966884620016383,0.03367613429175476,0.10839769259264731,-0.02691138845529685,0.3741823737533919, ,1.156430959701538
0.011807592444077048,0.02699227069994083,-0.08516258808194109, ,0.012291225599803885,0.028693570028830807,-0.08544805541314715, ,0.0017915948294705746, ,0.008236359482808283,0.028989073578449,-0.025339585480305904,-0.1408057639218117,0.011083486351781538,-0.04985332364712486, ,0.0393738313703468, ,0.14124127008835735, ,0.0007682602599440126, ,0.1559065312648444,-0.30076955451954773,0.09674082641000001,-4.51420510333484,0.17571453869835643,-1.0811187184475335, ,0.045733465811311214,-0.21966884620016383,0.03367613429175476,0.10839769259264731,-0.02691138845529685,0.3741823737533919, ,1.158379077911377
0.011888920421013048,0.027285013252133596,-0.08541369175068014, ,0.012310923689572529,0.02877110309059751,-0.08548880359045426, ,0.0015466711205472368, ,0.00829266537047971,0.030792701858307826,-0.02496979163767273,-0.08911681638060924,0.015561017890671472,-0.0018866280668944251, ,0.040502460185897086, ,0.09046514540331163, ,0.0007748569621525145, ,0.15636989523729788,-0.30300142432019866,0.09707656552,-4.513576033504387,0.17557790219859098,-1.077658472198074, ,0.04965826350521757,-0.23843452652882108,0.033963350788912584,0.06712485722044748,0.0,0.3385281066817736, ,1.160398006439209
0.011888920421013048,0.027285013252133596,-0.08541369175068014, ,0.012330644734156527,0.028848499317618684,-0.08552957589520375, ,0.0016288149620936356, ,0.00829266537047971,0.030792701858307826,-0.02496979163767273,-0.08911681638060924,0.015561017890671472,-0.0018866280668944251, ,0.040502460185897086, ,0.09046514540331163, ,0.0007820330797990786, ,0.15636989523729788,-0.30300142432019866,0.09707656552,-4.513576033504387,0.17557790219859098,-1.077658472198074, ,0.04965826350521757,-0.23843452652882108,0.033963350788912584,0.06712485722044748,0.0,0.3385281066817736, ,1.1623458862304688
0.011888920421013048,0.027285013252133596,-0.08541369175068014, ,0.012350388767785131,0.028925758909906077,-0.08557037256266348, ,0.0017115923070099282, ,0.00829266537047971,0.030792701858307826,-0.02496979163767273,-0.08911681638060924,0.015561017890671472,-0.0018866280668944251, ,0.040502460185897086, ,0.09046514540331163, ,0.0007897794066925023, ,0.15636989523729788,-0.30300142432019866,0.09707656552,-4.513576033504387,0.17557790219859098,-1.077658472198074, ,0.04965826350521757,-0.23843452652882108,0.033963350788912584,0.06712485722044748,0.0,0.3385281066817736, ,1.1643810272216797
0.011888920421013048,0.027285013252133596,-0.08541369175068014, ,0.012370155824619781,0.029002882066926205,-0.08561119382718371, ,0.0017949005122136214, ,0.00829266537047971,0.030792701858307826,-0.02496979163767273,-0.08911681638060924,0.015561017890671472,-0.0018866280668944251, ,0.040502460185897086, ,0.09046514540331163, ,0.0007980861926885446, ,0.15636989523729788,-0.30300142432019866,0.09707656552,-4.513576033504387,0.17557790219859098,-1.077658472198074, ,0.04965826350521757,-0.23843452652882108,0.033963350788912584,0.06712485722044748,0.0,0.3385281066817736, ,1.166435956954956
0.011888920421013048,0.027285013252133596,-0.08541369175068014, ,0.012389945938754188,0.029079868987600826,-0.08565203992219796, ,0.0018786547132012509, ,0.00829266537047971,0.030792701858307826,-0.02496979163767273,-0.08911681638060924,0.015561017890671472,-0.0018866280668944251, ,0.040502460185897086, ,0.09046514540331163, ,0.0008069433117091406, ,0.15636989523729788,-0.30300142432019866,0.09707656552,-4.513576033504387,0.17557790219859098,-1.077658472198074, ,0.04965826350521757,-0.23843452652882108,0.033963350788912584,0.06712485722044748,0.0,0.3385281066817736, ,1.168370008468628
0.01197638164345235,0.027609325911739615,-0.0856626810129868, ,0.012409759144214228,0.02915671987030851,-0.08569291108022481, ,0.0016072205754492266, ,0.008038648120524388,0.03129781030326271,-0.021694489567647357,-0.026254251302587777,0.00048238948251078367,0.014289020626301484, ,0.038920735745684304, ,0.026258591079437277, ,0.0008134496309265397, ,0.15636989523729788,-0.30300142432019866,0.09707656552,-4.513576033504387,0.17557790219859098,-1.077658472198074, ,0.04965826350521757,-0.23843452652882108,0.033963350788912584,0.06712485722044748,0.0,0.3385281066817736, ,1.1704280376434326
0.01197638164345235,0.027609325911739615,-0.0856626810129868, ,0.012429595474958097,0.029233434912885194,-0.08573380753286829, ,0.0016876586759474385, ,0.008038648120524388,0.03129781030326271,-0.021694489567647357,-0.026254251302587777,0.00048238948251078367,0.014289020626301484, ,0.038920735745684304, ,0.026258591079437277, ,0.0008204997038702565, ,0.15691820927136782,-0.30554992616869275,0.09742137866000002,-4.512946963673933,0.17557790219859098,-1.0743913225924515, ,0.05242924947981811,-0.25305851082258873,0.031050314853801175,0.0486341513260421,0.0,0.2867627100726009, ,1.1726570129394531
0.01197638164345235,0.027609325911739615,-0.0856626810129868, ,0.012449454964876028,0.029310014312625324,-0.08577472951081933, ,0.0017688115417467591, ,0.008038648120524388,0.03129781030326271,-0.021694489567647357,-0.026254251302587777,0.00048238948251078367,0.014289020626301484, ,0.038920735745684304, ,0.026258591079437277, ,0.0008280861985732685, ,0.15691820927136782,-0.30554992616869275,0.09742137866000002,-4.512946963673933,0.17557790219859098,-1.0743913225924515, ,0.05242924947981811,-0.25305851082258873,0.031050314853801175,0.0486341513260421,0.0,0.2867627100726009, ,1.1746959686279297
0.01197638164345235,0.027609325911739615,-0.0856626810129868, ,0.012469337647790598,0.029386458266282927,-0.08581567724385726, ,0.0018505709590389543, ,0.008038648120524388,0.03129781030326271,-0.021694489567647357,-0.026254251302587777,0.00048238948251078367,0.014289020626301484, ,0.038920735745684304, ,0.026258591079437277, ,0.0008362011569896629, ,0.15691820927136782,-0.30554992616869275,0.09742137866000002,-4.512946963673933,0.17557790219859098,-1.0743913225924515, ,0.05242924947981811,-0.25305851082258873,0.031050314853801175,0.0486341513260421,0.0,0.2867627100726009, ,1.1767189502716064
0.01197638164345235,0.027609325911739615,-0.0856626810129868, ,0.012489243557456502,0.029462766970072392,-0.08585665096084988, ,0.001932846460592184, ,0.008038648120524388,0.03129781030326271,-0.021694489567647357,-0.026254251302587777,0.00048238948251078367,0.014289020626301484, ,0.038920735745684304, ,0.026258591079437277, ,0.0008448361593802338, ,0.15691820927136782,-0.30554992616869275,0.09742137866000002,-4.512946963673933,0.17557790219859098,-1.0743913225924515, ,0.05242924947981811,-0.25305851082258873,0.031050314853801175,0.0486341513260421,0.0,0.2867627100726009, ,1.1787919998168945
0.012056944851695285,0.027918230401986686,-0.08585787358742, ,0.012509172727560651,0.029538940619669447,-0.08589765088975526, ,0.0016830905784276959, ,0.008722168803587444,0.03299633344816338,-0.019509295199999846,0.023876812464308613,-0.01120950915382617,0.006406483662018271, ,0.03931217176475241, ,0.026377119681513364, ,0.0008513850220290421, ,0.1574819687711862,-0.3080984280171868,0.09771045133,-4.51231789384348,0.17557790219859098,-1.071859281648094, ,0.06386066053732892,-0.2758632022048569,0.029662591284916204,0.05898970170140504,0.0,0.26039469312454017, ,1.1815059185028076
0.012056944851695285,0.027918230401986686,-0.08585787358742, ,0.012529125191722053,0.029614979410212426,-0.08593867725762315, ,0.0017630770554746401, ,0.008722168803587444,0.03299633344816338,-0.019509295199999846,0.023876812464308613,-0.01120950915382617,0.006406483662018271, ,0.03931217176475241, ,0.026377119681513364, ,0.0008584524021332716, ,0.1574819687711862,-0.3080984280171868,0.09771045133,-4.51231789384348,0.17557790219859098,-1.071859281648094, ,0.06386066053732892,-0.2758632022048569,0.029662591284916204,0.05898970170140504,0.0,0.26039469312454017, ,1.1835830211639404
0.012056944851695285,0.027918230401986686,-0.08585787358742, ,0.012549100983492042,0.029690883536302903,-0.08597973029059505, ,0.0018437369250451502, ,0.008722168803587444,0.03299633344816338,-0.019509295199999846,0.023876812464308613,-0.01120950915382617,0.006406483662018271, ,0.03931217176475241, ,0.026377119681513364, ,0.0008660315138479782, ,0.1574819687711862,-0.3080984280171868,0.09771045133,-4.51231789384348,0.17557790219859098,-1.071859281648094, ,0.06386066053732892,-0.2758632022048569,0.029662591284916204,0.05898970170140504,0.0,0.26039469312454017, ,1.1884210109710693
0.012121680245696879,0.028168425626965296,-0.08599957455299208, ,0.012569100136353994,0.029766653192007057,-0.08602081021390623, ,0.0016598092846798395, ,0.008641131943838764,0.03417006010573684,-0.018001127264258322,0.053147135811314236,-0.018494523222984314,0.019407263237277185, ,0.039576542947616374, ,0.05627311564177013, ,0.0008720908861444047, ,0.15796077820938811,-0.3102067340918501,0.09792952434,-4.511898513956511,0.17557790219859098,-1.0699806706248611, ,0.06549133302862027,-0.29199058941067935,0.028648941582733817,0.04686102964104566,0.0,0.24505276292367761, ,1.1905078887939453
0.012121680245696879,0.028168425626965296,-0.08599957455299208, ,0.0125891226837235,0.029842288570856038,-0.08606191725188639, ,0.001739024496637203, ,0.008641131943838764,0.03417006010573684,-0.018001127264258322,0.053147135811314236,-0.018494523222984314,0.019407263237277185, ,0.039576542947616374, ,0.05627311564177013, ,0.0008786585650117744, ,0.15796077820938811,-0.3102067340918501,0.09792952434,-4.511898513956511,0.17557790219859098,-1.0699806706248611, ,0.06549133302862027,-0.29199058941067935,0.028648941582733817,0.04686102964104566,0.0,0.24505276292367761, ,1.1925129890441895
0.012121680245696879,0.028168425626965296,-0.08599957455299208, ,0.012609168658948258,0.02991778986584764,-0.08610305162796089, ,0.0018189633581737845, ,0.008641131943838764,0.03417006010573684,-0.018001127264258322,0.053147135811314236,-0.018494523222984314,0.019407263237277185, ,0.039576542947616374, ,0.05627311564177013, ,0.0008857285258626166, ,0.15796077820938811,-0.3102067340918501,0.09792952434,-4.511898513956511,0.17557790219859098,-1.0699806706248611, ,0.06549133302862027,-0.29199058941067935,0.028648941582733817,0.04686102964104566,0.0,0.24505276292367761, ,1.194580078125
0.012121680245696879,0.028168425626965296,-0.08599957455299208, ,0.012629238095308158,0.02999315726944692,-0.08614421356465155, ,0.0018995212505969854, ,0.008641131943838764,0.03417006010573684,-0.018001127264258322,0.053147135811314236,-0.018494523222984314,0.019407263237277185, ,0.039576542947616374, ,0.05627311564177013, ,0.0008932941432113806, ,0.15796077820938811,-0.3102067340918501,0.09792952434,-4.511898513956511,0.17557790219859098,-1.0699806706248611, ,0.06549133302862027,-0.29199058941067935,0.028648941582733817,0.04686102964104566,0.0,0.24505276292367761, ,1.1968090534210205
0.012121680245696879,0.028168425626965296,-0.08599957455299208, ,0.012649331026015233,0.030068390973586902,-0.08618540328357856, ,0.0019806100023590993, ,0.008641131943838764,0.03417006010573684,-0.018001127264258322,0.053147135811314236,-0.018494523222984314,0.019407263237277185, ,0.039576542947616374, ,0.05627311564177013, ,0.0009013483347606229, ,0.15796077820938811,-0.3102067340918501,0.09792952434,-4.511898513956511,0.17557790219859098,-1.0699806706248611, ,0.06549133302862027,-0.29199058941067935,0.028648941582733817,0.04686102964104566,0.0,0.24505276292367761, ,1.1988868713378906
0.012121680245696879,0.028168425626965296,-0.08599957455299208, ,0.012669447484213574,0.030143491169670363,-0.08622662100546033, ,0.0020621549255939726, ,0.008641131943838764,0.03417006010573684,-0.018001127264258322,0.053147135811314236,-0.018494523222984314,0.019407263237277185, ,0.039576542947616374, ,0.05627311564177013, ,0.0009098836773402799, ,0.15796077820938811,-0.3102067340918501,0.09792952434,-4.511898513956511,0.17557790219859098,-1.0699806706248611, ,0.06549133302862027,-0.29199058941067935,0.028648941582733817,0.04686102964104566,0.0,0.24505276292367761, ,1.2011849880218506
0.012121680245696879,0.028168425626965296,-0.08599957455299208, ,0.012689587502979563,0.030218458048570134,-0.08626786695011578, ,0.0021440924403718508, ,0.008641131943838764,0.03417006010573684,-0.018001127264258322,0.053147135811314236,-0.018494523222984314,0.019407263237277185, ,0.039576542947616374, ,0.05627311564177013, ,0.0009188925004281017, ,0.15796077820938811,-0.3102067340918501,0.09792952434,-4.511898513956511,0.17557790219859098,-1.0699806706248611, ,0.06549133302862027,-0.29199058941067935,0.028648941582733817,0.04686102964104566,0.0,0.24505276292367761, ,1.203197956085205
0.012121680245696879,0.028168425626965296,-0.08599957455299208, ,0.012709751115321515,0.0302932918006301,-0.08630914133646447, ,0.002226368162976516, ,0.008641131943838764,0.03417006010573684,-0.018001127264258322,0.053147135811314236,-0.018494523222984314,0.019407263237277185, ,0.039576542947616374, ,0.05627311564177013, ,0.0009283669617509163, ,0.15796077820938811,-0.3102067340918501,0.09792952434,-4.511898513956511,0.17557790219859098,-1.0699806706248611, ,0.06549133302862027,-0.29199058941067935,0.028648941582733817,0.04686102964104566,0.0,0.24505276292367761, ,1.205258846282959
0.012121680245696879,0.028168425626965296,-0.08599957455299208, ,0.012729938354179989,0.030367992615666542,-0.08635044438252851, ,0.0023089353610698245, ,0.008641131943838764,0.03417006010573684,-0.018001127264258322,0.053147135811314236,-0.018494523222984314,0.019407263237277185, ,0.039576542947616374, ,0.05627311564177013, ,0.0009382991085086064, ,0.15796077820938811,-0.3102067340918501,0.09792952434,-4.511898513956511,0.17557790219859098,-1.0699806706248611, ,0.06549133302862027,-0.29199058941067935,0.028648941582733817,0.04686102964104566,0.0,0.24505276292367761, ,1.2082328796386719
0.012121680245696879,0.028168425626965296,-0.08599957455299208, ,0.0127501492524276,0.030442560682968835,-0.08639177630543324, ,0.002391753699690508, ,0.008641131943838764,0.03417006010573684,-0.018001127264258322,0.053147135811314236,-0.018494523222984314,0.019407263237277185, ,0.039576542947616374, ,0.05627311564177013, ,0.0009486809270170484, ,0.15796077820938811,-0.3102067340918501,0.09792952434,-4.511898513956511,0.17557790219859098,-1.0699806706248611, ,0.06549133302862027,-0.29199058941067935,0.028648941582733817,0.04686102964104566,0.0,0.24505276292367761, ,1.2104160785675049
0.012121680245696879,0.028168425626965296,-0.08599957455299208, ,0.012770383842869054,0.03051699619130065,-0.08643313732140812, ,0.0024747882185761232, ,0.008641131943838764,0.03417006010573684,-0.018001127264258322,0.053147135811314236,-0.018494523222984314,0.019407263237277185, ,0.039576542947616374, ,0.05627311564177013, ,0.0009595043829855526, ,0.15959799757872373,-0.3171649164115264,0.09849211420000001,-4.5100113044651495,0.17557790219859098,-1.0647532312558652, ,0.0663614975933362,-0.29471099862879124,0.019935934317897377,0.03616840708191749,0.00031228986045010916,0.19305898364869684, ,1.2126760482788086
0.012316377715724781,0.02895020906711633,-0.08631076487942009, ,0.0127906421582412,0.03059129932890062,-0.08647452764578818, ,0.001716077577619138, ,0.007387869923937487,0.031961769063801576,-0.009440616992845485,0.10564293084990926,-0.029005582751448662,0.026817694747308496, ,0.03413591294965475, ,0.10955251067100243, ,0.000964832363229451, ,0.15959799757872373,-0.3171649164115264,0.09849211420000001,-4.5100113044651495,0.17557790219859098,-1.0647532312558652, ,0.0663614975933362,-0.29471099862879124,0.019935934317897377,0.03616840708191749,0.00031228986045010916,0.19305898364869684, ,1.2149300575256348
0.012316377715724781,0.02895020906711633,-0.08631076487942009, ,0.01281092423121296,0.030665470283483702,-0.08651594749301517, ,0.0017968854168469615, ,0.007387869923937487,0.031961769063801576,-0.009440616992845485,0.10564293084990926,-0.029005582751448662,0.026817694747308496, ,0.03413591294965475, ,0.10955251067100243, ,0.0009706509160519512, ,0.15959799757872373,-0.3171649164115264,0.09849211420000001,-4.5100113044651495,0.17557790219859098,-1.0647532312558652, ,0.0663614975933362,-0.29471099862879124,0.019935934317897377,0.03616840708191749,0.00031228986045010916,0.19305898364869684, ,1.2170159816741943
0.012316377715724781,0.02895020906711633,-0.08631076487942009, ,0.012831230094385335,0.030739509242241638,-0.08655739707663826, ,0.0018781628068994837, ,0.007387869923937487,0.031961769063801576,-0.009440616992845485,0.10564293084990926,-0.029005582751448662,0.026817694747308496, ,0.03413591294965475, ,0.10955251067100243, ,0.0009769530819606145, ,0.15959799757872373,-0.3171649164115264,0.09849211420000001,-4.5100113044651495,0.17557790219859098,-1.0647532312558652, ,0.0663614975933362,-0.29471099862879124,0.019935934317897377,0.03616840708191749,0.00031228986045010916,0.19305898364869684, ,1.2214179039001465
0.012316377715724781,0.02895020906711633,-0.08631076487942009, ,0.012851559780291387,0.030813416391844657,-0.08659887660931552, ,0.0019598392143383597, ,0.007387869923937487,0.031961769063801576,-0.009440616992845485,0.10564293084990926,-0.029005582751448662,0.026817694747308496, ,0.03413591294965475, ,0.10955251067100243, ,0.0009837316070114956, ,0.15959799757872373,-0.3171649164115264,0.09849211420000001,-4.5100113044651495,0.17557790219859098,-1.0647532312558652, ,0.0663614975933362,-0.29471099862879124,0.019935934317897377,0.03616840708191749,0.00031228986045010916,0.19305898364869684, ,1.22365403175354
0.012391918831716666,0.029292843856790943,-0.08640505729966706, ,0.012871913321396299,0.030887191918441696,-0.08664038630281468, ,0.0016815826448720187, ,0.008281843396526557,0.037535818091175885,-0.010647276431343278,0.0970553668210616,-0.02972318276714851,0.04158558713103757, ,0.039885975796310605, ,0.1015047372576599, ,0.0009885114086406774, ,0.16029304353740392,-0.32033895962283265,0.0986995206,-4.509591924578181,0.17571453869835643,-1.0626593231757666, ,0.07408036031106227,-0.3463392027681415,0.023051825643994214,0.0339134307216349,0.0,0.2528869914058817, ,1.2263820171356201
0.012391918831716666,0.029292843856790943,-0.08640505729966706, ,0.012892290750097249,0.030960836007661998,-0.08668192636801453, ,0.0017632998477510589, ,0.008281843396526557,0.037535818091175885,-0.010647276431343278,0.0970553668210616,-0.02972318276714851,0.04158558713103757, ,0.039885975796310605, ,0.1015047372576599, ,0.0009937820782944895, ,0.16029304353740392,-0.32033895962283265,0.0986995206,-4.509591924578181,0.17571453869835643,-1.0626593231757666, ,0.07408036031106227,-0.3463392027681415,0.023051825643994214,0.0339134307216349,0.0,0.2528869914058817, ,1.2284629344940186
0.012477210652025377,0.02965581818561308,-0.08654131623436975, ,0.012912692098723528,0.031034348844615603,-0.08672349701490575, ,0.0014571138270653217, ,0.00893811464855485,0.03670610710885836,-0.015529970043762782,0.02198637851936279,0.012736774382730224,-0.0520118096842088, ,0.040846152353898185, ,0.02540915895360224, ,0.0009969126982186168, ,0.1610035349618326,-0.32355161649851005,0.09895488973000001,-4.508543474860758,0.17571453869835643,-1.0597188885307063, ,0.07194612703447369,-0.31738107544639055,0.027558497439446373,0.134057937246156,0.0,0.3152996753846358, ,1.2304129600524902
0.012477210652025377,0.02965581818561308,-0.08654131623436975, ,0.012933117399536474,0.031107730613894716,-0.08676509845259255, ,0.0015381739638342395, ,0.00893811464855485,0.03670610710885836,-0.015529970043762782,0.02198637851936279,0.012736774382730224,-0.0520118096842088, ,0.040846152353898185, ,0.02540915895360224, ,0.0010005453241623457, ,0.1610035349618326,-0.32355161649851005,0.09895488973000001,-4.508543474860758,0.17571453869835643,-1.0597188885307063, ,0.07194612703447369,-0.31738107544639055,0.027558497439446373,0.134057937246156,0.0,0.3152996753846358, ,1.232348918914795
0.012477210652025377,0.02965581818561308,-0.08654131623436975, ,0.01295356668472945,0.031180981499574486,-0.08680673088929278, ,0.0016197169947849554, ,0.00893811464855485,0.03670610710885836,-0.015529970043762782,0.02198637851936279,0.012736774382730224,-0.0520118096842088, ,0.040846152353898185, ,0.02540915895360224, ,0.0010046731352998297, ,0.1610035349618326,-0.32355161649851005,0.09895488973000001,-4.508543474860758,0.17571453869835643,-1.0597188885307063, ,0.07194612703447369,-0.31738107544639055,0.027558497439446373,0.134057937246156,0.0,0.3152996753846358, ,1.2342889308929443
0.012477210652025377,0.02965581818561308,-0.08654131623436975, ,0.01297403998642788,0.03125410168521396,-0.08684839453233979, ,0.0017016599583064322, ,0.00893811464855485,0.03670610710885836,-0.015529970043762782,0.02198637851936279,0.012736774382730224,-0.0520118096842088, ,0.040846152353898185, ,0.02540915895360224, ,0.0010092889420747079, ,0.1610035349618326,-0.32355161649851005,0.09895488973000001,-4.508543474860758,0.17571453869835643,-1.0597188885307063, ,0.07194612703447369,-0.31738107544639055,0.027558497439446373,0.134057937246156,0.0,0.3152996753846358, ,1.2362680435180664
0.012477210652025377,0.02965581818561308,-0.08654131623436975, ,0.012994537336689186,0.03132709135385706,-0.08689008958818355, ,0.0017839349074133975, ,0.009631753373908817,0.039189623560433075,-0.017000031549611702,0.016503799538502485,-0.013077978047904842,0.019492129551064632, ,0.04379039096139755, ,0.021057243151903347, ,0.001014385297109831, ,0.16178353098212925,-0.3269959553604142,0.0992569253,-4.50770471508682,0.17557790219859098,-1.0561769635411062, ,0.07702673827797953,-0.33651397715769776,0.029941375037593993,0.06229272578396082,5.980776026151018e-05,0.3289151082428997, ,1.240041971206665
0.012575674624814567,0.0300548397867021,-0.08671216197621413, ,0.013015058767502875,0.03139995068803386,-0.08693181626239128, ,0.001432002013672984, ,0.009631753373908817,0.039189623560433075,-0.017000031549611702,0.016503799538502485,-0.013077978047904842,0.019492129551064632, ,0.04379039096139755, ,0.021057243151903347, ,0.0010171148181331196, ,0.16178353098212925,-0.3269959553604142,0.0992569253,-4.50770471508682,0.17557790219859098,-1.0561769635411062, ,0.07702673827797953,-0.33651397715769776,0.029941375037593993,0.06229272578396082,5.980776026151018e-05,0.3289151082428997, ,1.2424089908599854
0.012575674624814567,0.0300548397867021,-0.08671216197621413, ,0.01303560431079041,0.03147267986976104,-0.08697357475964858, ,0.0015133216645886489, ,0.009631753373908817,0.039189623560433075,-0.017000031549611702,0.016503799538502485,-0.013077978047904842,0.019492129551064632, ,0.04379039096139755, ,0.021057243151903347, ,0.0010203369405127009, ,0.16178353098212925,-0.3269959553604142,0.0992569253,-4.50770471508682,0.17557790219859098,-1.0561769635411062, ,0.07702673827797953,-0.33651397715769776,0.029941375037593993,0.06229272578396082,5.980776026151018e-05,0.3289151082428997, ,1.2444078922271729
0.012575674624814567,0.0300548397867021,-0.08671216197621413, ,0.013056173998405318,0.03154527908054347,-0.08701536528376135, ,0.0015950614979852776, ,0.009631753373908817,0.039189623560433075,-0.017000031549611702,0.016503799538502485,-0.013077978047904842,0.019492129551064632, ,0.04379039096139755, ,0.021057243151903347, ,0.0010240448408834915, ,0.16178353098212925,-0.3269959553604142,0.0992569253,-4.50770471508682,0.17557790219859098,-1.0561769635411062, ,0.07702673827797953,-0.33651397715769776,0.029941375037593993,0.06229272578396082,5.980776026151018e-05,0.3289151082428997, ,1.2463369369506836
0.012575674624814567,0.0300548397867021,-0.08671216197621413, ,0.013076767862133161,0.03161774850137454,-0.08705718803765582, ,0.0016771467037678758, ,0.009631753373908817,0.039189623560433075,-0.017000031549611702,0.016503799538502485,-0.013077978047904842,0.019492129551064632, ,0.04379039096139755, ,0.021057243151903347, ,0.0010282313912865966, ,0.16178353098212925,-0.3269959553604142,0.0992569253,-4.50770471508682,0.17557790219859098,-1.0561769635411062, ,0.07702673827797953,-0.33651397715769776,0.029941375037593993,0.06229272578396082,5.980776026151018e-05,0.3289151082428997, ,1.2484569549560547
0.012675514762073271,0.030446343394669995,-0.08689786641559913, ,0.013097385933691356,0.031690088312737764,-0.08709904322338022, ,0.0013286642971988096, ,0.010122971044464978,0.03892043174200405,-0.02001018062639496,0.023098521217368932,-0.03160946794742996,0.05863002906637036, ,0.04491861394179505, ,0.03914967353881828, ,0.0010301449766745724, ,0.16256352700242593,-0.33029356229770807,0.09957192377000001,-4.507285335199851,0.17557790219859098,-1.0530731714157648, ,0.07683962879228404,-0.32168454765583315,0.03284291035051547,0.015920074907006667,0.00013059305772765477,0.3002398693634072, ,1.2509279251098633
0.012675514762073271,0.030446343394669995,-0.08689786641559913, ,0.013118028244729511,0.03176229869460718,-0.08714093104210532, ,0.0014094810911906243, ,0.010122971044464978,0.03892043174200405,-0.02001018062639496,0.023098521217368932,-0.03160946794742996,0.05863002906637036, ,0.04491861394179505, ,0.03914967353881828, ,0.0010325458381588513, ,0.16256352700242593,-0.33029356229770807,0.09957192377000001,-4.507285335199851,0.17557790219859098,-1.0530731714157648, ,0.07683962879228404,-0.32168454765583315,0.03284291035051547,0.015920074907006667,0.00013059305772765477,0.3002398693634072, ,1.2529358863830566
0.012675514762073271,0.030446343394669995,-0.08689786641559913, ,0.013138694826829098,0.03183437982644896,-0.08718285169412682, ,0.0014907707796004048, ,0.010122971044464978,0.03892043174200405,-0.02001018062639496,0.023098521217368932,-0.03160946794742996,0.05863002906637036, ,0.04491861394179505, ,0.03914967353881828, ,0.001035427756029553, ,0.16256352700242593,-0.33029356229770807,0.09957192377000001,-4.507285335199851,0.17557790219859098,-1.0530731714157648, ,0.07683962879228404,-0.32168454765583315,0.03284291035051547,0.015920074907006667,0.00013059305772765477,0.3002398693634072, ,1.2550129890441895
0.012675514762073271,0.030446343394669995,-0.08689786641559913, ,0.013159385711503602,0.03190633188722167,-0.08722480537886457, ,0.001572446049881201, ,0.010122971044464978,0.03892043174200405,-0.02001018062639496,0.023098521217368932,-0.03160946794742996,0.05863002906637036, ,0.04491861394179505, ,0.03914967353881828, ,0.0010387841203661255, ,0.16256352700242593,-0.33029356229770807,0.09957192377000001,-4.507285335199851,0.17557790219859098,-1.0530731714157648, ,0.07683962879228404,-0.32168454765583315,0.03284291035051547,0.015920074907006667,0.00013059305772765477,0.3002398693634072, ,1.2571089267730713
0.012675514762073271,0.030446343394669995,-0.08689786641559913, ,0.013180100930198491,0.03197815505537804,-0.08726679229486556, ,0.0016544366017883334, ,0.010122971044464978,0.03892043174200405,-0.02001018062639496,0.023098521217368932,-0.03160946794742996,0.05863002906637036, ,0.04491861394179505, ,0.03914967353881828, ,0.0010426080488221642, ,0.16256352700242593,-0.33029356229770807,0.09957192377000001,-4.507285335199851,0.17557790219859098,-1.0530731714157648, ,0.07683962879228404,-0.32168454765583315,0.03284291035051547,0.015920074907006667,0.00013059305772765477,0.3002398693634072, ,1.2591049671173096
0.01277813914828218,0.030841561781376474,-0.08710132621603422, ,0.013200840514291184,0.03204984950886506,-0.08730881263980328, ,0.0012967984782817567, ,0.010417764270288336,0.03995111334580876,-0.020155323473007965,0.07936912168205175,-0.02355472301637928,0.014721536795560104, ,0.04594407833728457, ,0.0827905739003833, ,0.0010441771255472233, ,0.16335124575559684,-0.33353711010488235,0.09990636659,-4.506656265369397,0.17571453869835643,-1.050407512154682, ,0.07947817550960702,-0.32836311957948366,0.03346388974789917,0.061758023613058204,0.0016532260479717523,0.25729841539543963, ,1.2610740661621094
0.01277813914828218,0.030841561781376474,-0.08710132621603422, ,0.013221604495091115,0.032121415425125845,-0.08735086661048054, ,0.0013773007194143668, ,0.010417764270288336,0.03995111334580876,-0.020155323473007965,0.07936912168205175,-0.02355472301637928,0.014721536795560104, ,0.04594407833728457, ,0.0827905739003833, ,0.001046220828577083, ,0.16335124575559684,-0.33353711010488235,0.09990636659,-4.506656265369397,0.17571453869835643,-1.050407512154682, ,0.07947817550960702,-0.32836311957948366,0.03346388974789917,0.061758023613058204,0.0016532260479717523,0.25729841539543963, ,1.2630119323730469
