NicholasDascanio/dvrk_moveit_final/test/execution/noob_justexecution/yes_ramp/noob_300vel4.csv
Current Position (x),Current Position (y),Current Position (z), ,Planned Position (x),Planned Position (y),Planned Position (z), ,Position Error,,Cartesian linear Velocity(x),Cartesian linear Velocity(y),Cartesian linear Velocity(z),Cartesian Angular Velocity(x),Cartesian Angular Velocity(y),Cartesian Angular Velocity(z), ,Total Linear Velocity, ,Total Angular Velocity, ,MSE, ,Joint 1 Position,Joint 2 Position,Joint 3 Position,Joint 4 Position,Joint 5 Position,Joint 6 Position, ,Joint 1 Velocity,Joint 2 Velocity,Joint 3 Velocity,Joint 4 Velocity,Joint 5 Velocity,Joint 6 Velocity, ,Time Stamp
0.00999547986385293,0.018871914212413285,-0.08066111546863693, ,0.010287273477802852,0.018845491346185222,-0.08083853632884519, ,0.000342519842693387, ,-1.6609300332843196e-05,0.000205068949282399,6.348290418792198e-05,0.046343271709423865,-0.006044925691460437,-0.0008779218664101837, ,0.00021531191778781454, ,0.04673585303970352, ,2.8543320224448918e-05, ,0.1402139380644202,-0.22526439520825473,0.09003641453000001,-4.537690377005107,0.1541259717354168,-1.3890044691236396, ,-9.0147666567072e-05,-0.0025869403089464073,-1.6979513485129726e-05,-0.0010215025449941812,0.0,-0.04437214590087635, ,0.03997492790222168
0.010044881784522026,0.018902301132581983,-0.08072985428907298, ,0.010314363878831823,0.018996412764502472,-0.08090258803886478, ,0.00033363834721666897, ,0.0013520073601895881,0.001568324847445414,-0.0042612603474667,0.19335602903421684,-0.11250002641531505,-0.026779485635190448, ,0.0047377111011556545, ,0.22370250312842377, ,3.073446317772982e-05, ,0.14022166079729442,-0.22550379992735567,0.09011030306000001,-4.537900066948591,0.1497536037429227,-1.3934436127391292, ,-0.0005684472688748266,-0.008214398345887797,0.004529090565823146,-0.002968567001509307,-0.08916011126006047,-0.20022669883811717, ,0.07583498954772949
0.010112529549680468,0.0189826188560752,-0.08084828295774316, ,0.01034150277219064,0.019146922144555743,-0.08096661497700082, ,0.00030565793628467965, ,0.0007934502728308496,0.002505961794544518,-0.0022726705160792987,-0.13689535546730033,-0.004945335706098321,0.0035871241868126874, ,0.003474829366433448, ,0.13698465130701284, ,3.068175394358549e-05, ,0.14029116539316244,-0.2261988458860359,0.09024511722,-4.538109756892076,0.14469805325160143,-1.3973256668361365, ,0.0031061713143376193,-0.023321932061555854,0.002832795930997688,0.00028137407075623435,-0.02421355160901525,0.15819657567649864, ,0.11260390281677246
0.010123853803392488,0.019106022364596485,-0.0809056848828743, ,0.010368690336515862,0.019297020547013374,-0.08103061856840946, ,0.0003347142952128331, ,0.0004034935050741864,0.003591450678713607,-0.0014177553542056203,-0.001011903224545585,0.031295817463860474,0.013424366061948597, ,0.0038821843375409395, ,0.03131217237531424, ,3.1345962414465924e-05, ,0.14050740191364072,-0.22744220587878602,0.09033196865000001,-4.537690377005107,0.14633769124878673,-1.3917199887685459, ,0.00598737586943921,-0.037243697628913185,0.0022765201543518657,0.0016055430738905782,0.032432438628130715,0.043112664447433544, ,0.14986896514892578
0.010163001134673012,0.01926207374523091,-0.08098859228462085, ,0.010395926749958371,0.0194467090283651,-0.08109460023141382, ,0.0003155664982493664, ,0.0010764756064058213,0.004336576510155306,-0.002270198806351222,0.04099579270561925,-0.006430487267521857,-0.0030490242777938895, ,0.005011835809359288, ,0.0414970623779511, ,3.1386479224171834e-05, ,0.14083947942723238,-0.22901764338512784,0.09045252362,-4.537480687061622,0.14633769124878673,-1.391474952548124, ,0.009127090863417781,-0.043751471442356284,0.0033191938987289027,0.009694108203980702,0.0,0.003684633200806274, ,0.18923282623291016
0.010189090217391792,0.019386349551772333,-0.08102815948139575, ,0.010423212190184085,0.019595988640932416,-0.08115856137751515, ,0.000340244471460684, ,0.0007769744844808753,0.004023271990544963,-0.0008586891027899344,0.020364064776165085,-0.001952252561821465,-0.0037405208878175445, ,0.004186616036214466, ,0.020457429561714716, ,3.181195792125192e-05, ,0.14108660687920757,-0.23033823070662024,0.09052252328,-4.537061307174653,0.14633769124878673,-1.3904131289262969, ,0.007909626997384116,-0.04391343894422526,0.0018527343101364675,0.011387632047300405,0.0,0.02492207481696819, ,0.22594785690307617
0.010209959597572727,0.01950951106781316,-0.08106328988778898, ,0.010450546834372817,0.019744860432878326,-0.08122250341140556, ,0.0003723177248669316, ,0.000675764060892343,0.004362113599527321,-0.0022336439131774447,0.016100715192849495,0.001178133145854203,0.0006761122258534188, ,0.00494710594712197, ,0.016143761252416226, ,3.302336783076832e-05, ,0.14131056613256007,-0.23208356833619498,0.09061715245000002,-4.536851617231169,0.14620105474902126,-1.3890765299204921, ,0.004317573504030666,-0.04411759254229232,0.0032527693526648977,0.007019106955840612,0.0,0.028827956065461558, ,0.2589700222015381
0.010237324299706349,0.019682048527150726,-0.08115669319984971, ,0.010477930859220613,0.019893325448218008,-0.08128642773097709, ,0.0003454858932341573, ,0.0005998672937699811,0.004175287478334413,-0.0022332496220488175,-0.004996629415422332,0.004087925007084896,0.003443801522887276, ,0.004772868128416314, ,0.0064558064037781885, ,3.362681261523385e-05, ,0.14141868439279923,-0.23339643292481313,0.09072085565000002,-4.536641927287684,0.14606441824925584,-1.3879032883949682, ,0.0033992170213056764,-0.04191561022900653,0.00320434751961376,0.004658687250675623,0.0,0.04760944651751995, ,0.2920188903808594
0.01025782534219437,0.019807839968077758,-0.08121103294145206, ,0.010505364440937305,0.020041384726828395,-0.08135033572733569, ,0.0003677281956843922, ,0.0006011693806727145,0.004179837598331249,-0.001864139400213604,0.0336559576320516,-0.00320290375967914,-0.0063398260960578654, ,0.004616000723148848, ,0.033808017933645684, ,3.435812589778764e-05, ,0.14155769358453527,-0.23469385204768284,0.0908051145,-4.5364322373442,0.1459277817494904,-1.386811725609585, ,0.003593040483789658,-0.042842863006081616,0.0028495190554561718,0.012264659105642681,-0.003974338627393265,0.009980889366925372, ,0.32454991340637207
0.010283187140139583,0.01993276393668068,-0.08127322379731004, ,0.010532847755248178,0.020189039304458638,-0.08141422878481137, ,0.00038456455032462344, ,0.0009572348594629276,0.004361408124401846,-0.002572840198131659,-0.001997524383377482,-0.011963783941408868,0.0022289149919649787, ,0.00515341499288497, ,0.012129395275369829, ,3.5126915869670647e-05, ,0.14171214824201975,-0.23596038023905566,0.09089715109,-4.536222547400715,0.14551787225019408,-1.3857423632372308, ,0.005688882387493066,-0.043095795439814163,0.003612794629167612,0.0024293908663404386,-0.01327800833355133,0.04355881608684082, ,0.3577580451965332
0.010322988325779431,0.0201004648711429,-0.08135919954201024, ,0.010560380977393516,0.020336290212739923,-0.0814781082809698, ,0.00035511709474576447, ,0.0007980266646781347,0.004057757629488294,-0.0013513650374196956,-0.006763822308164628,-0.01134921357679872,0.02318188528716846, ,0.004350681670907228, ,0.013211886353723723, ,3.549116682218213e-05, ,0.14199788935836605,-0.23763621327276238,0.09102418751000001,-4.5353837876267775,0.14510796275089774,-1.3841012496838925, ,0.006570895160767878,-0.043095795439814163,0.0023573792393073853,-0.017643031467156334,-0.007221463834869392,0.04644531654568782, ,0.39201998710632324
0.01034677914224706,0.020221793137280047,-0.08140953796429641, ,0.010587964282128808,0.020483138479196077,-0.08154197558662396, ,0.0003794883176709919, ,0.0009419965801743086,0.004132867243666478,-0.0020802113844640476,0.03584168717651626,-0.007004988152713856,-0.010745665511876518, ,0.004721782355730225, ,0.03651980830508231, ,3.600899282452138e-05, ,0.14219868041309588,-0.23888729599838676,0.09110455749000002,-4.535593477570262,0.14510796275089774,-1.3832027835423464, ,0.007213071054910115,-0.04124160867382476,0.003102612294507207,0.016277240860530933,-0.004743190181558437,0.00662213074418613, ,0.42777085304260254
0.010377093665825196,0.02034693636904319,-0.08147493881861814, ,0.010615597843724732,0.020629585127253023,-0.08160583206584594, ,0.0003923105983311329, ,0.0010903506450942306,0.0040582332947884025,-0.0018837288475852102,-0.04733064147365818,-0.029337596307040748,-0.012979057007858398, ,0.004605057695122966, ,0.055685583227251416, ,3.684962714496462e-05, ,0.14237630326920306,-0.24013837872401114,0.09120048295000001,-4.535174097683293,0.14442478025207056,-1.3820739428428803, ,0.005523856856384874,-0.04149407151660287,0.0028767945674553013,0.012572171727842824,-0.04010265891573476,0.08532863646557816, ,0.4586169719696045
0.01040446900329723,0.02048361658208747,-0.08153970317985512, ,0.01064328183596643,0.020775631176249355,-0.08166967907597827, ,0.00039899602231605437, ,0.0007695744018826763,0.004188601662273246,-0.0021275203997806426,0.026955143857449012,-0.019666278272984426,0.02359349821778706, ,0.004760564220416952, ,0.033366784103995434, ,3.763901354766414e-05, ,0.1425770943239329,-0.24150530244274887,0.09129900099,-4.534335337909355,0.14428814375230511,-1.3809007013173566, ,0.004329987215851939,-0.0423269141652412,0.0031411578623545653,-0.02113036558749267,-0.012237343315618687,0.010395967681476985, ,0.48978495597839355
0.01043463271900979,0.0206181267946444,-0.08161694437832705, ,0.010671016432155279,0.02092127764144625,-0.08173351796764486, ,0.0004017052370626562, ,0.0009049993833430746,0.004408622058895746,-0.001965835960520491,0.005636955027745016,-0.010943020071159451,0.016486796194311492, ,0.004911159065404931, ,0.012309547117309383, ,3.835753589538802e-05, ,0.1427624399129143,-0.24282588976424127,0.09140918564000002,-4.534335337909355,0.14387823425300877,-1.3795863027245803, ,0.006780739459455071,-0.044889754758027804,0.0030667715671929157,-0.010799962353096434,-0.0068511286812118835,0.036704473800014015, ,0.5180180072784424
0.01046312360144461,0.020754380006423212,-0.08167746375340404, ,0.010698801805107067,0.02106652553403758,-0.0817973500847633, ,0.000409086517179431, ,0.0011177237855163175,0.00460813890211006,-0.0016955943176826243,-0.033743499799679014,-0.01613938540627127,0.003445016161618547, ,0.005035800898765422, ,0.03740459249890425, ,3.904825366576861e-05, ,0.14297095370051835,-0.24420825894872744,0.09150381481000001,-4.534335337909355,0.1436049612534779,-1.3783016432953605, ,0.008371068443936891,-0.047807023455149006,0.002872126130544537,0.0014921055340159682,-0.019758882376390174,0.07927208122809304, ,0.5479838848114014
0.01049005502063847,0.020875224087005297,-0.0817296502739262, ,0.010726638127153049,0.02121137586116022,-0.08186117676455583, ,0.000431588692267229, ,0.0009116527733402572,0.004757499992022266,-0.002228646487314442,0.0010689986129375387,-0.012473001211366502,0.05137846704257297, ,0.005332146108149123, ,0.012518726660416882, ,3.98123733000063e-05, ,0.14318719022099663,-0.2454207280099807,0.09158677737000001,-4.533496578135416,0.14346832475371246,-1.3769650442895556, ,0.007217060132432953,-0.04831819834952687,0.0034240781427343084,-0.044596386264950626,0.0,0.04099704227896277, ,0.5777499675750732
0.01052699712842975,0.0210443212224734,-0.0818126815420156, ,0.01075452557014084,0.021355829625903867,-0.08192499933756092, ,0.00040177352375615527, ,0.0010105430280787082,0.004916600771878912,-0.0024457307004114135,0.013314969806208552,-0.009140199168471242,0.028468093553768004, ,0.00558352568012127, ,0.016150283641226264, ,4.032014486925084e-05, ,0.1434574858715945,-0.24710428377656163,0.09171251750000001,-4.533496578135416,0.1431950517541816,-1.375026954939211, ,0.007890648826902186,-0.04899170963266432,0.003690642150139018,-0.02114215375183847,-0.0005170794186581326,0.032497338439761506, ,0.6075708866119385
0.010556805080208145,0.02118938847846653,-0.08187679690715732, ,0.010782464305431352,0.021499887827321196,-0.08198881912764534, ,0.00039985110910259664, ,0.0008931092260707509,0.004811376889066973,-0.001773565137309301,-0.016217787969186298,0.0016048096535757053,0.005798158253621738, ,0.005205048026158783, ,0.01629699544763222, ,4.1007923202688507e-05, ,0.14368916785782124,-0.24856388028979007,0.09181362812,-4.533496578135416,0.14305841525441615,-1.373363640972844, ,0.007533895408323452,-0.04927151690470964,0.003009979501133787,0.0038541686276393687,-0.0008077631422187141,0.06606656440168102, ,0.6329288482666016
0.010575078951592478,0.02129254995296495,-0.08192190227146702, ,0.010810454503903315,0.021643551460438427,-0.0820526374520144, ,0.0004423747238564151, ,0.0010773925997325869,0.005247736693161973,-0.0027535469736377736,0.03047454752655767,0.0037915831958343364,-0.027250038085227177, ,0.0060234156548213446, ,0.030709512368662942, ,4.1880503323124436e-05, ,0.14382817704955728,-0.24959100376206192,0.09188492407000001,-4.532867508304963,0.14305841525441615,-1.3720567811305946, ,0.00794138179479964,-0.05077417953904269,0.004087454842186297,0.0368323313951636,-0.0008077631422187141,0.02502981774687796, ,0.6581950187683105
0.010592267704066405,0.021386702726512954,-0.0819734520246952, ,0.010838496335949166,0.021786821516264456,-0.08211645562122456, ,0.0004910943022387792, ,0.0009574952389411334,0.005206990844114502,-0.002724730535618618,0.02277987893940756,-0.01119157940148583,0.035097752345499854, ,0.005954301577432882, ,0.02538058970638082, ,4.295039942570232e-05, ,0.14394401804267062,-0.2505022862412204,0.09196010889,-4.5326578183614785,0.14305841525441615,-1.3713216724693296, ,0.006726786959203072,-0.051323386456717565,0.0040387453144016235,-0.028137089704341804,-0.0008255879459134397,0.02423054988906568, ,0.6834249496459961
0.010628578463991931,0.021559437879588566,-0.08205246442637754, ,0.010866589971477485,0.02192969898180199,-0.0821802749391946, ,0.0004583429815044688, ,0.0010802732816934722,0.005426255172424963,-0.0023757812568650644,0.006885635140088278,-0.011208272613973705,0.0014810960916753087, ,0.0060212600126452595, ,0.013154366050702807, ,4.377170247530936e-05, ,0.1441834227617716,-0.2522321784050467,0.09208325644000001,-4.532867508304963,0.1425118692553544,-1.3693241047918732, ,0.00751221159489477,-0.054319943651099475,0.003769240776147658,0.00520423441999152,-0.011849186035728881,0.04638527125018378, ,0.7089300155639648
0.010652063548782719,0.02167493203760422,-0.08211085962657864, ,0.010894735579912766,0.022072184840057085,-0.08224409670321675, ,0.00048420204702221857, ,0.0013815076346354914,0.005799777786660585,-0.0034217271344379793,0.018244036642434826,-0.01111048715338847,-0.01034584393525988, ,0.006874169208111396, ,0.021360894113474194, ,4.466517046372672e-05, ,0.14436104561787877,-0.25335197467180925,0.09217140416000001,-4.53223843847451,0.1425118692553544,-1.3681806024299055, ,0.00925074091331615,-0.05510856071920487,0.004910237829839705,0.017297569512704898,-0.011849186035728881,0.03739777922266691, ,0.7338719367980957
0.010687663966194038,0.02184525348234345,-0.08219490753041421, ,0.010922933330194048,0.02221428007004929,-0.08230792220396879, ,0.0004520006775541762, ,0.001123136025922374,0.005563682534216728,-0.0022748538389549345,-0.00019997690702407709,-0.01853859211544367,0.037199847575393685, ,0.006114814622119053, ,0.01853967066388214, ,4.534159999920288e-05, ,0.14463906400135085,-0.25501236223976753,0.09229973687000001,-4.531819058587541,0.1425118692553544,-1.3663019914066727, ,0.008514274370212458,-0.05638558619041639,0.0037286543820224723,-0.030958178795482787,-0.00959905210641011,0.050830970502192645, ,0.7595188617706299
0.010711221059048072,0.021958444207579385,-0.0822414519160682, ,0.010951183390776916,0.022355985646821803,-0.08237175272552505, ,0.0004822856181857249, ,0.0010663308631831362,0.005770144612716661,-0.0024660874416120946,0.011666929812670736,-0.008976851243624104,0.007961830430587551, ,0.006364999421140341, ,0.014720771359298088, ,4.6333279330290186e-05, ,0.14483985505608069,-0.25614760397227854,0.09237621798000001,-4.532028748531025,0.1425118692553544,-1.365321846524986, ,0.007595824250524073,-0.05758309560586819,0.003965350141896938,0.0,-0.00782271783045971,0.04465556202355043, ,0.7821049690246582
0.010739495366494987,0.022078383092353104,-0.0822979557310741, ,0.010979485929632311,0.022497302541451877,-0.08243558954536809, ,0.000502027929566973, ,0.001499825383274675,0.006102599221015721,-0.0034305183284625415,0.019922985949929067,-0.00017804153002682526,-0.025795168406157573, ,0.007159584445662621, ,0.019923781455144764, ,4.736093186967198e-05, ,0.14514104163817543,-0.25782343700598526,0.09250584698000001,-4.531189988757087,0.14210195975605808,-1.3633540180110852, ,0.011375349815556102,-0.057548175596404356,0.005042358822412157,0.03626321954379051,-0.003964818677224402,0.041953868629691304, ,0.8054499626159668
0.010783823593144524,0.02225962038885254,-0.08240605514229309, ,0.011007841114247487,0.022638231721060314,-0.08249943393439942, ,0.0004497221247086894, ,0.0013395985424048467,0.006159493960991085,-0.0035006923209688,-0.021366637516037592,-0.009909881862724831,0.04093003419970441, ,0.007210321548751398, ,0.023552896992709182, ,4.8100023537040986e-05, ,0.1453572781586537,-0.25902046060149003,0.09261992050000001,-4.530980298813603,0.14196532325629263,-1.3618540615249994, ,0.009656799738838023,-0.05886907044570147,0.0051119420795892176,-0.03150804425203278,-0.0026234408787193754,0.07559686501241647, ,0.8267049789428711
0.010810260609526013,0.022379337944106247,-0.08247169262803189, ,0.011036249111624055,0.022778774148822113,-0.08256328715695327, ,0.00046798466048222215, ,0.0012671698964834416,0.006051897526604378,-0.0031441122355058944,0.009004221618205828,-0.005190020048892005,0.009627753244473715, ,0.006936614806123511, ,0.010392897322230088, ,4.8879956229475665e-05, ,0.14555806921338355,-0.2601634250668753,0.09271714225000001,-4.531189988757087,0.14196532325629263,-1.360628880422891, ,0.009312225799815164,-0.05814763575886691,0.004739307206188635,0.0,-0.0026234408787193754,0.048647177838167806, ,0.8492350578308105
0.010835235220097472,0.022502914042347295,-0.08253093363845401, ,0.011064710088280808,0.022918930783976194,-0.08262715047080472, ,0.0004847538790673992, ,0.0010683043605679435,0.005907638703122456,-0.002751953623035428,-0.0013890402656321047,-0.0009435260024756433,0.005875773097862949, ,0.006604144001820121, ,0.0016791885001568947, ,4.969128733833391e-05, ,0.14575113753523916,-0.26136044866238006,0.09280917884,-4.530980298813603,0.14196532325629263,-1.3593220205806418, ,0.007606005849134582,-0.05758309560586819,0.004307412525689562,0.004284821188546547,-0.0026234408787193754,0.05918757826255129, ,0.8714208602905273
0.010859392317576268,0.02262250263971429,-0.08258463337021955, ,0.011093224210251091,0.023058702581835767,-0.08269102512718453, ,0.0005062281595177845, ,0.0010376162871861582,0.006112693931331086,-0.0027385794037386186,0.0002268933075901737,-0.00058499446314459,-0.005229586326095456, ,0.006778015329589277, ,0.0006274543337179654, ,5.055112384861399e-05, ,0.14592876039134633,-0.262526581326388,0.09289473398,-4.530560918926633,0.14182868675652718,-1.357985421574837, ,0.006832781337734235,-0.05972117152830131,0.004346196867667122,0.01523283518071889,-0.006290987278499499,0.06072014999757791, ,0.8936150074005127
0.010880191856899793,0.022740284597338355,-0.08263762655199378, ,0.011121791643084931,0.023198090493798357,-0.08275491237078786, ,0.0005307661055572869, ,0.001152847053784422,0.006422795382223352,-0.003040114868275768,0.0077035687028033295,-0.0012935451765262117,-0.004807865613024481, ,0.0071988648593816805, ,0.007811416620744175, ,5.1676672376201914e-05, ,0.14608321504883082,-0.26367726852464746,0.09297899283000001,-4.530560918926633,0.14182868675652718,-1.3569235979530099, ,0.007765230481519717,-0.0621053282450725,0.00473789753718025,0.01523283518071889,-0.005340513586929431,0.05568585394759848, ,0.9115719795227051
0.010910240351671107,0.02287811675561806,-0.08270982023424324, ,0.011150412551848454,0.02333709546735573,-0.08281881343978717, ,0.0005293615611480855, ,0.001358775387313446,0.006663942055773703,-0.0036960603810663535,0.005554476795441274,-0.00361612832676562,0.0015153330872098086, ,0.007740494597657608, ,0.006627865105520526, ,5.27519826907538e-05, ,0.14628400610356065,-0.2649901331132656,0.09308788119000001,-4.5303512289831485,0.1415554137569963,-1.3553939023033679, ,0.00910882635058738,-0.06267961793822377,0.005462555390946503,0.008898001708213877,-0.004921369001175636,0.05759071882711869, ,0.9311480522155762
0.010936322942325544,0.023015973297443863,-0.08277526193418316, ,0.011179087101122583,0.02347571844610422,-0.08288272956584418, ,0.0005308948392742148, ,0.0014099417263586877,0.0067568374477565175,-0.0033458998287857512,-0.006563722476238501,-0.0020223624971596812,0.00042536584372591837, ,0.007670582352820459, ,0.006868216827944353, ,5.3791418199782774e-05, ,0.14647707442541627,-0.266310720434758,0.0931902881,-4.529722159152695,0.1415554137569963,-1.3540053637209781, ,0.010333436992919906,-0.06455574255678284,0.005166659591307169,0.01102171196855924,-0.0046534641229176886,0.07204909886200056, ,0.9492819309234619
0.010967641185765981,0.023158136149067875,-0.08285101918641882, ,0.011207815455005559,0.02361396036975486,-0.08294666197411998, ,0.000524029524558407, ,0.0015487681437302424,0.007257950577949559,-0.0038374445405901063,0.004043367660215431,-0.0013093254875515066,0.001523947996083241, ,0.008354789641702344, ,0.004250076991756839, ,5.47649771064984e-05, ,0.1467010336787688,-0.2676544759548731,0.09330436162000001,-4.529722159152695,0.14141877725723084,-1.3525054072348923, ,0.011395142350748372,-0.06836955443693861,0.00579862086639971,0.01102171196855924,-0.0018492185544207289,0.06554483391035645, ,0.9675989151000977
0.010986345063376389,0.02324893071534423,-0.08289775011968135, ,0.011236597777110214,0.023751822174143154,-0.08301061188328718, ,0.0005729432936585179, ,0.0014829424156161536,0.0073349851203595665,-0.003546804103600374,0.005142384037016823,0.0007783726146629168,-0.003924473080170566, ,0.008281361257259954, ,0.005200959233654335, ,5.588527076989175e-05, ,0.14684004287050484,-0.268511699303912,0.09337565757,-4.529512469209211,0.14141877725723084,-1.3516069410933462, ,0.011094791609806398,-0.06993142340344198,0.005538529735744089,0.017041120525721987,-0.0018492185544207289,0.06685333697957618, ,0.9859678745269775
0.011015446232112574,0.02339281829825738,-0.08295251191885311, ,0.011265434230566545,0.023889304791239487,-0.0830745805055414, ,0.0005691164880239983, ,0.0014811821924369754,0.007423969649927968,-0.0027490585304406805,0.02621497136001526,-0.004971126051962398,0.002378422249688315, ,0.008053977207195999, ,0.026682144169348766, ,5.695030802788638e-05, ,0.14708717032248,-0.2699249594198951,0.09347028674,-4.529093089322242,0.14141877725723084,-1.3503817599912378, ,0.01247167059514664,-0.0732794915509427,0.004809423768115943,0.0101917650383164,-0.0018492185544207289,0.04793545467169617, ,1.003769874572754
0.01103135487757978,0.023467761874938518,-0.082984904305739, ,0.011294324978019877,0.02402640914915921,-0.08313856904661299, ,0.0006362805224958206, ,0.0017162097757754166,0.007664830115968933,-0.0035132562321257194,0.02149583692879168,-0.005945912052635127,0.0033248622601735334, ,0.008604531716119225, ,0.022303023895239745, ,5.843030545681491e-05, ,0.14721845678134182,-0.27065089631007216,0.09352343463000001,-4.529093089322242,0.14141877725723084,-1.3497283300701133, ,0.013902276817824608,-0.07344964516909504,0.00563851735221239,0.009433202955605666,-0.0018492185544207289,0.05276331612888742, ,1.0179908275604248
0.011069750562170681,0.023631444569974153,-0.08307224149590538, ,0.011323270181632126,0.024163136172172583,-0.08320257870577788, ,0.0006032876143081, ,0.0019644102185995696,0.008138743177329516,-0.004523715884691942,-0.011219298948383721,-0.00312814865101779,-0.009170703075173611, ,0.009516409691626374, ,0.01164723061425535, ,5.975018542996076e-05, ,0.14748875243193968,-0.2721799974191686,0.09365565621000001,-4.528673709435273,0.14114550425769998,-1.3479535982000497, ,0.014422027592472762,-0.07519567476899429,0.006766699881053527,0.02265891864496103,-0.007277314962323332,0.08867049510080857, ,1.0331439971923828
0.01110743746905311,0.02380465857843462,-0.08316743455129393, ,0.011352270003080811,0.02429948678071485,-0.0832666106758696, ,0.0005609222969147861, ,0.0018445697686339945,0.00864438733362632,-0.004933063096939081,0.013156559107510962,-0.0030811095724974837,-0.004167561718104522, ,0.010122399988317978, ,0.013512523111018788, ,6.088371203275986e-05, ,0.14775132534966331,-0.2737863258570073,0.09379824811000001,-4.528464019491787,0.14100886775793453,-1.346371962973823, ,0.01252103728176155,-0.07934526886159764,0.007293411868131869,0.017921612951786743,-0.0049192560297742,0.06785242013126881, ,1.0494768619537354
0.01112649086741085,0.02389017845965686,-0.08322058068468971, ,0.011381324603560086,0.0244354618913967,-0.08333066614329039, ,0.0006118766723818448, ,0.0020667761152679247,0.00919602656741525,-0.005910511463995033,0.0036189872971674956,-0.0030754717929834846,-0.0006072939864738613, ,0.011125314103667626, ,0.004749272427787316, ,6.216267670029738e-05, ,0.14788261180852513,-0.27455859914442976,0.09387472922000001,-4.528464019491787,0.14100886775793453,-1.3455551755724176, ,0.01341489137100237,-0.08223305161045995,0.008410143357972546,0.015133939768239532,-0.0049192560297742,0.07997255321815433, ,1.0641160011291504
0.01115129540132496,0.02400766005011421,-0.08328953314127796, ,0.011410434143779742,0.02457106241701387,-0.08339474628802303, ,0.0006290031169375725, ,0.0018687064588860615,0.009120023367240548,-0.004768528577564947,-0.005171563842274579,0.0004139386143538709,-0.004767907324205293, ,0.010459720591084147, ,0.005188103245462529, ,6.346525344733979e-05, ,0.14805251193175809,-0.27562433628107275,0.09397583984,-4.528044639604819,0.14100886775793453,-1.3445750306907307, ,0.013049634427732505,-0.08472941210577749,0.0072834071879286704,0.02041210633387806,-0.0049192560297742,0.09210523664453256, ,1.0809299945831299
0.01118355409569561,0.024166718278862326,-0.08336046627747411, ,0.011439598783966049,0.024706289266557584,-0.08345885228364208, ,0.0006052896326252648, ,0.0016534980032570413,0.008550405337672982,-0.00342988759218803,-0.005884728663779832,0.000855929091135032,-0.006615113813501965, ,0.009359894015443073, ,0.005946649946035569, ,6.465251229475839e-05, ,0.14829191665085903,-0.27713799192442073,0.09409120965000001,-4.52762525971785,0.1408722312581691,-1.342830037984223, ,0.012834317224570027,-0.08244738623672526,0.005834729494505496,0.021945141576997892,-0.004977605761102972,0.09075893313978131, ,1.0958099365234375
0.011200458395631437,0.02425227229584192,-0.08339067535423171, ,0.01146881868386181,0.024841143345224526,-0.08352298529732531, ,0.0006605242449308677, ,0.0015793800846164497,0.008884850523863463,-0.0028844054535816918,0.03096172858490412,0.009212302964753573,-0.0026585934150882844, ,0.009473901261029255, ,0.03230317573676032, ,6.621293606748947e-05, ,0.14842320310972085,-0.2779797698077112,0.09414565383000001,-4.52762525971785,0.14073559475840366,-1.341901832679121, ,0.014481449955512097,-0.08746261894789933,0.005421651300204222,0.021945141576997892,0.009937235633709154,0.060682647786800076, ,1.1064739227294922
0.01121827233792452,0.0243460578137087,-0.08342629794041725, ,0.011498094002724914,0.024975625554426846,-0.08358714648986547, ,0.0007074800068582941, ,0.001711787431614212,0.009644884041878566,-0.0038976105752594045,0.02825962940286136,0.009586499551409253,-0.001911193832322205, ,0.010542550573209982, ,0.029841374410987755, ,6.789784069880014e-05, ,0.1485699350343311,-0.2788910522868697,0.09420787575,-4.52762525971785,0.14073559475840366,-1.3411667240178562, ,0.014129979386311909,-0.09249214576849003,0.006620453665835412,0.021945141576997892,0.008858922499240347,0.06827996658050155, ,1.1172189712524414
0.011235582627493745,0.02444065619531574,-0.08347104043106292, ,0.011527424899332216,0.02510973679180277,-0.08365133701568131, ,0.0007518960131908767, ,0.002028475876084123,0.010121824651509431,-0.005188356840138806,-0.00997255382545733,0.0024888421651892943,-0.0006165167173477063, ,0.01155357500327818, ,0.010278431853410442, ,6.969522591550335e-05, ,0.14870894422606715,-0.27977916656740554,0.09427917170000001,-4.52762525971785,0.1408722312581691,-1.340216318299725, ,0.01433488543179317,-0.09367911308832258,0.00801651309511827,0.01868502082159472,-0.0029089368874208954,0.10593301024498034, ,1.1281018257141113
0.011258969782048092,0.02455231818121919,-0.08353455985020145, ,0.011556811531973637,0.025243477951225807,-0.08371555802282908, ,0.0007740619317398675, ,0.002387856254290884,0.010717555367443345,-0.0065010199076461625,0.02320375819046547,-0.0058230659257985816,0.005934021041818426, ,0.012760529392818366, ,0.02392326230524963, ,7.152956440249478e-05, ,0.14887112161642588,-0.28079084457392894,0.09437380087000001,-4.527415569774365,0.1408722312581691,-1.339317852158179, ,0.016260613700903148,-0.09585549652370785,0.009487082501488983,0.01087983695898177,-0.0027287682243877205,0.07349571318656922, ,1.1388559341430664
0.011287725125463947,0.02466985117865099,-0.08361204229025258, ,0.011586254058016767,0.025376849922791014,-0.0837798106531653, ,0.000785565383262978, ,0.0026134964093766774,0.011023465573186092,-0.007606101106032822,-0.01953282341011966,-7.021058598367805e-05,0.005101872340519187, ,0.01364550954564312, ,0.019532948943774785, ,7.336550231264105e-05, ,0.14905646720540727,-0.2818179680462008,0.09448398552000001,-4.526996189887396,0.14073559475840366,-1.3380629318925146, ,0.016900612922256593,-0.09537381061152843,0.010661855100401608,0.013391923391016856,-0.002940041959826801,0.11651931909575555, ,1.150007963180542
0.011347778969077812,0.024911163962271297,-0.08376739305480739, ,0.011615752635669527,0.025509853592924233,-0.0838440960417523, ,0.0006603957207949093, ,0.0025300545873341886,0.01138987605220626,-0.006748816625971271,0.008532570484246306,0.012452200772126639,0.013543680811433558, ,0.013478760274984443, ,0.015095100169845074, ,7.476772910836395e-05, ,0.14944260384911848,-0.2839417195866126,0.0947069474,-4.526786499943912,0.14032568525910732,-1.3351966372370678, ,0.019426190697742228,-0.10127741895247683,0.009980458345864663,0.010788386445146346,0.016653566251968226,0.0964858469915942, ,1.1614739894866943
0.011347778969077812,0.024911163962271297,-0.08376739305480739, ,0.011645307421329324,0.025642489844241455,-0.08390841531778248, ,0.0008020274335664745, ,0.0025300545873341886,0.01138987605220626,-0.006748816625971271,0.008532570484246306,0.012452200772126639,0.013543680811433558, ,0.013478760274984443, ,0.015095100169845074, ,7.683257713162263e-05, ,0.14944260384911848,-0.2839417195866126,0.0947069474,-4.526786499943912,0.14032568525910732,-1.3351966372370678, ,0.019426190697742228,-0.10127741895247683,0.009980458345864663,0.010788386445146346,0.016653566251968226,0.0964858469915942, ,1.168609857559204
0.011347778969077812,0.024911163962271297,-0.08376739305480739, ,0.011674918571353145,0.02577475955566051,-0.0839727696039781, ,0.0009460429140622522, ,0.0025300545873341886,0.01138987605220626,-0.006748816625971271,0.008532570484246306,0.012452200772126639,0.013543680811433558, ,0.013478760274984443, ,0.015095100169845074, ,7.932433109325473e-05, ,0.14944260384911848,-0.2839417195866126,0.0947069474,-4.526786499943912,0.14032568525910732,-1.3351966372370678, ,0.019426190697742228,-0.10127741895247683,0.009980458345864663,0.010788386445146346,0.016653566251968226,0.0964858469915942, ,1.177083969116211
0.011404598375910787,0.025159949628506005,-0.08389818676452318, ,0.01170458624161444,0.025906663602385485,-0.08403716001675635, ,0.000816632134557893, ,0.0023297880599784685,0.011382772044398654,-0.005113790426603546,0.021045983266936876,0.011763546059336136,0.00802598708217745, ,0.012694339854690508, ,0.024110462958333186, ,8.13805294444153e-05, ,0.14987507689007507,-0.28620448031876033,0.09490916864000001,-4.526367120056943,0.14032568525910732,-1.333072989993413, ,0.019770196158014744,-0.10591176513222186,0.00841903357293869,0.016776579070450097,0.015541032069477892,0.08917753990895493, ,1.18430495262146
0.011404598375910787,0.025159949628506005,-0.08389818676452318, ,0.011734310587503238,0.026038202855916872,-0.08410158766624118, ,0.0009599014536662001, ,0.0023297880599784685,0.011382772044398654,-0.005113790426603546,0.021045983266936876,0.011763546059336136,0.00802598708217745, ,0.012694339854690508, ,0.024110462958333186, ,8.385612073254377e-05, ,0.14987507689007507,-0.28620448031876033,0.09490916864000001,-4.526367120056943,0.14032568525910732,-1.333072989993413, ,0.019770196158014744,-0.10591176513222186,0.00841903357293869,0.016776579070450097,0.015541032069477892,0.08917753990895493, ,1.1915669441223145
0.011427671346800113,0.025275316564042943,-0.08394483733256504, ,0.011764091763926073,0.026169378184061693,-0.08416605365627469, ,0.0009805414521198831, ,0.0028147555171637246,0.013033261808478589,-0.005258539524798404,0.013906545191857142,-0.010287246729340114,0.00789102415593826, ,0.014333213175126409, ,0.017297960585645967, ,8.636485286419439e-05, ,0.1500758679448049,-0.287293385654026,0.09498953862000001,-4.526157430113458,0.14046232175887277,-1.3321225842752824, ,0.02283921577821198,-0.12340304493949386,0.009076245880341883,0.013497604743869624,-0.006661507619213173,0.11021184348931753, ,1.1997158527374268
0.011458891082819027,0.025417463978758725,-0.08401117101101992, ,0.011793929925306023,0.026300190450943367,-0.0842305590844281, ,0.0009693235669395049, ,0.003415275959702326,0.01484218040648318,-0.008786249648203277,-0.03785889101818904,0.00331223219660686,-0.012001265120946996, ,0.017582736191505178, ,0.03800350587628958, ,8.880839231576223e-05, ,0.15030754993103163,-0.28860625024264414,0.09509713069,-4.525738050226489,0.14032568525910732,-1.330704306529337, ,0.023350625383481982,-0.13089233318409763,0.013035033977086746,0.037765309867684345,-0.008186215100680601,0.17328578109693732, ,1.2073149681091309
0.011500426786533235,0.025569320770211186,-0.08411975822628633, ,0.011823825225582753,0.026430640517012136,-0.0842951050420139, ,0.0009365921003268809, ,0.0041985597206542005,0.015240528973795206,-0.011710988225725551,-0.08997916502419216,-0.005501024729086694,-0.060838115200191736, ,0.019673557694328533, ,0.09014716407766, ,9.112234144897978e-05, ,0.15055467738300682,-0.2898805011668912,0.09524879662,-4.524899290452551,0.139915775759811,-1.3284097630548741, ,0.024103871363594303,-0.12502890850918416,0.016008855798994977,0.08101387302605063,-0.037174799013068305,0.22221378134339365, ,1.2146329879760742
0.011500426786533235,0.025569320770211186,-0.08411975822628633, ,0.011853777818212617,0.026560729239054993,-0.08435969261409691, ,0.0010794981306783932, ,0.0041985597206542005,0.015240528973795206,-0.011710988225725551,-0.08997916502419216,-0.005501024729086694,-0.060838115200191736, ,0.019673557694328533, ,0.09014716407766, ,9.384129129073867e-05, ,0.15055467738300682,-0.2898805011668912,0.09524879662,-4.524899290452551,0.139915775759811,-1.3284097630548741, ,0.024103871363594303,-0.12502890850918416,0.016008855798994977,0.08101387302605063,-0.037174799013068305,0.22221378134339365, ,1.2221598625183105
0.011533547730432709,0.025701166015215965,-0.08421991959291884, ,0.011883787856168523,0.026690457470205625,-0.08442432287950603, ,0.001069180261770036, ,0.004570381331420463,0.016923219609282517,-0.012828818459105567,-0.06857083579160772,-0.014017429282128973,-0.03417394245314946, ,0.02172239237550249, ,0.06998890981688691, ,9.649640478227048e-05, ,0.15076319117061088,-0.29096940650215686,0.09538620336,-4.524899290452551,0.139915775759811,-1.326939545732344, ,0.026776789378801007,-0.13934940023270306,0.01762036672566372,0.05567563982662905,-0.03417785478663223,0.21164560595554904, ,1.229308843612671
0.011589500705587664,0.025920808121347068,-0.08439519026216402, ,0.011913855491940172,0.026819826059954883,-0.08448899691084558, ,0.0009603327385366442, ,0.0045414115560223345,0.01738039563665509,-0.013470184748507388,-0.04160139783440854,-0.023205868958256468,0.02129949626539097, ,0.022453250289585103, ,0.04763599702337417, ,9.909050788663797e-05, ,0.15110299141707675,-0.2927456350632285,0.09562342443,-4.524689600509067,0.139915775759811,-1.3246525410084082, ,0.02654459903733448,-0.1420612897581898,0.018393546789838337,0.0,-0.022698589148785146,0.18065412969225747, ,1.233659029006958
0.011589500705587664,0.025920808121347068,-0.08439519026216402, ,0.011943980877533867,0.02694883585416057,-0.08455371577450625, ,0.001098921084427833, ,0.0045414115560223345,0.01738039563665509,-0.013470184748507388,-0.04160139783440854,-0.023205868958256468,0.02129949626539097, ,0.022453250289585103, ,0.04763599702337417, ,0.00010208401260682119, ,0.15110299141707675,-0.2927456350632285,0.09562342443,-4.524689600509067,0.139915775759811,-1.3246525410084082, ,0.02654459903733448,-0.1420612897581898,0.018393546789838337,0.0,-0.022698589148785146,0.18065412969225747, ,1.2373950481414795
0.011589500705587664,0.025920808121347068,-0.08439519026216402, ,0.011974164164472695,0.02707748769505776,-0.08461848053067791, ,0.0012392466085706863, ,0.0045414115560223345,0.01738039563665509,-0.013470184748507388,-0.04160139783440854,-0.023205868958256468,0.02129949626539097, ,0.022453250289585103, ,0.04763599702337417, ,0.00010547852781865362, ,0.15110299141707675,-0.2927456350632285,0.09562342443,-4.524689600509067,0.139915775759811,-1.3246525410084082, ,0.02654459903733448,-0.1420612897581898,0.018393546789838337,0.0,-0.022698589148785146,0.18065412969225747, ,1.2414329051971436
0.011635540879028789,0.026105573244059366,-0.08452619596499263, ,0.012004405503796571,0.027205782421268556,-0.08468329223335928, ,0.0011709827422106305, ,0.005034498994319448,0.020105470709605215,-0.013749003486853185,-0.02870781461354929,-0.015320205981177825,0.005517252058407609, ,0.024871896378444846, ,0.032539926857340314, ,0.0005888111219590256, ,0.15140417799917152,-0.29428245890519916,0.09580749761000001,-4.524270220622098,0.139915775759811,-1.3230189662055971, ,0.03207061221982791,-0.16915675857124915,0.01954455401226994,0.02320553253356434,-0.01825046941411263,0.19870394405226033, ,1.2450668811798096
0.011635540879028789,0.026105573244059366,-0.08452619596499263, ,0.012034705046062088,0.02733372086781274,-0.08474815193037143, ,0.0013103217423753918, ,0.005034498994319448,0.020105470709605215,-0.013749003486853185,-0.02870781461354929,-0.015320205981177825,0.005517252058407609, ,0.024871896378444846, ,0.032539926857340314, ,0.0006002636714894442, ,0.15140417799917152,-0.29428245890519916,0.09580749761000001,-4.524270220622098,0.139915775759811,-1.3230189662055971, ,0.03207061221982791,-0.16915675857124915,0.01954455401226994,0.02320553253356434,-0.01825046941411263,0.19870394405226033, ,1.2486469745635986
0.011635540879028789,0.026105573244059366,-0.08452619596499263, ,0.01206506294134269,0.027461303866117268,-0.08481306066336722, ,0.0014507880881691286, ,0.005034498994319448,0.020105470709605215,-0.013749003486853185,-0.02870781461354929,-0.015320205981177825,0.005517252058407609, ,0.024871896378444846, ,0.032539926857340314, ,0.0006135531155000642, ,0.15140417799917152,-0.29428245890519916,0.09580749761000001,-4.524270220622098,0.139915775759811,-1.3230189662055971, ,0.03207061221982791,-0.16915675857124915,0.01954455401226994,0.02320553253356434,-0.01825046941411263,0.19870394405226033, ,1.2528479099273682
0.01170581081377505,0.02637208138949184,-0.08471479242549936, ,0.01209547933922876,0.027588532244026662,-0.0848780194678444, ,0.0012877256340465076, ,0.005733928479727563,0.02236901363931483,-0.016257635135080606,-0.07316541252231751,0.01808762461286291,-0.04959194498482868, ,0.02824112970813829, ,0.07536802118893644, ,0.0006239250004007787, ,0.15168991911551782,-0.2957034417540565,0.0959773116,-4.523431460848159,0.1397791392600456,-1.3211922947589487, ,0.036178780617030414,-0.1741228285476528,0.02121013517976032,0.11312776752213127,0.0,0.22985233714546088, ,1.25667405128479
0.01170581081377505,0.02637208138949184,-0.08471479242549936, ,0.012125954388827439,0.027715406825813266,-0.08494302937315608, ,0.00142588076493149, ,0.005733928479727563,0.02236901363931483,-0.016257635135080606,-0.07316541252231751,0.01808762461286291,-0.04959194498482868, ,0.02824112970813829, ,0.07536802118893644, ,0.0006360758453179108, ,0.15168991911551782,-0.2957034417540565,0.0959773116,-4.523431460848159,0.1397791392600456,-1.3211922947589487, ,0.036178780617030414,-0.1741228285476528,0.02121013517976032,0.11312776752213127,0.0,0.22985233714546088, ,1.260288953781128
0.011754726513289997,0.026544733151578983,-0.08484364077011708, ,0.012156488238762852,0.027841928432186976,-0.08500809140252268, ,0.0013679079247468284, ,0.006981680990361101,0.02422618771495462,-0.01836327541195092,-0.16391554506473852,-0.03111650714911089,-0.006446277120027587, ,0.031190734593891, ,0.1668428627269793, ,0.0006469987121750588, ,0.15214556035509708,-0.297888975157462,0.09625212508000001,-4.522592701074221,0.1392325932609838,-1.3173977947984001, ,0.042650310812795855,-0.19606806107122063,0.02540480306220096,0.03557640722852339,-0.05158913032179983,0.3591979241816299, ,1.2638869285583496
0.011754726513289997,0.026544733151578983,-0.08484364077011708, ,0.012187081037176053,0.02796809788030578,-0.08507320657304325, ,0.0015051903677546523, ,0.006981680990361101,0.02422618771495462,-0.01836327541195092,-0.16391554506473852,-0.03111650714911089,-0.006446277120027587, ,0.031190734593891, ,0.1668428627269793, ,0.000659619177698288, ,0.15214556035509708,-0.297888975157462,0.09625212508000001,-4.522592701074221,0.1392325932609838,-1.3173977947984001, ,0.042650310812795855,-0.19606806107122063,0.02540480306220096,0.03557640722852339,-0.05158913032179983,0.3591979241816299, ,1.2675299644470215
0.011754726513289997,0.026544733151578983,-0.08484364077011708, ,0.012217732931724984,0.028093915983785335,-0.08513837589570666, ,0.0016435361831645802, ,0.006981680990361101,0.02422618771495462,-0.01836327541195092,-0.16391554506473852,-0.03111650714911089,-0.006446277120027587, ,0.031190734593891, ,0.1668428627269793, ,0.0006738788444441764, ,0.15214556035509708,-0.297888975157462,0.09625212508000001,-4.522592701074221,0.1392325932609838,-1.3173977947984001, ,0.042650310812795855,-0.19606806107122063,0.02540480306220096,0.03557640722852339,-0.05158913032179983,0.3591979241816299, ,1.2711060047149658
0.01180808998172039,0.026741275567245905,-0.08499535715626558, ,0.012248444069584684,0.02821938355270952,-0.08520360037540407, ,0.0015563033694326017, ,0.007214822930485559,0.026073274241141645,-0.020352166768306774,-0.17955188965131239,-0.03341957534891424,0.021307745980890427, ,0.033853803209344314, ,0.1826355540469255, ,0.0006864849090868682, ,0.15247763786868873,-0.2994644126638038,0.09646082777000001,-4.522383011130737,0.13909595676121836,-1.3147543359503464, ,0.04186014184317194,-0.20856470672191377,0.02789634241681261,0.009524258245280658,-0.050374909697911134,0.3838307831183269, ,1.2773058414459229
0.01180808998172039,0.026741275567245905,-0.08499535715626558, ,0.012279214597447088,0.028344501393640177,-0.08526888101093887, ,0.0016932533044516879, ,0.007214822930485559,0.026073274241141645,-0.020352166768306774,-0.17955188965131239,-0.03341957534891424,0.021307745980890427, ,0.033853803209344314, ,0.1826355540469255, ,0.0007006647456413022, ,0.15247763786868873,-0.2994644126638038,0.09646082777000001,-4.522383011130737,0.13909595676121836,-1.3147543359503464, ,0.04186014184317194,-0.20856470672191377,0.02789634241681261,0.009524258245280658,-0.050374909697911134,0.3838307831183269, ,1.2810418605804443
0.011893249357139733,0.027060998821677895,-0.08524738196472198, ,0.012310044661521318,0.028469270309627603,-0.08533421879503954, ,0.0014712197472254854, ,0.007020481417315568,0.027079068149676158,-0.020793662355150087,-0.07527599411272765,0.01598585599299011,-0.002532173764996555, ,0.03485598205940646, ,0.07695465544154195, ,0.0007113668984410825, ,0.15299506097126175,-0.3019897463136752,0.09680564091,-4.521753941300283,0.13895932026145294,-1.310722338519903, ,0.04407661010611741,-0.2146989628019701,0.0287005612972973,0.05064319466838943,0.004073311347033052,0.298485612209346, ,1.2847249507904053
0.011893249357139733,0.027060998821677895,-0.08524738196472198, ,0.012340934407533427,0.02859369110022028,-0.08539961471437033, ,0.001603977036966225, ,0.007020481417315568,0.027079068149676158,-0.020793662355150087,-0.07527599411272765,0.01598585599299011,-0.002532173764996555, ,0.03485598205940646, ,0.07695465544154195, ,0.0007235944345852627, ,0.15299506097126175,-0.3019897463136752,0.09680564091,-4.521753941300283,0.13895932026145294,-1.310722338519903, ,0.04407661010611741,-0.2146989628019701,0.0287005612972973,0.05064319466838943,0.004073311347033052,0.298485612209346, ,1.28830885887146
0.011893249357139733,0.027060998821677895,-0.08524738196472198, ,0.012371883980726639,0.028717764561475127,-0.0854650697495431, ,0.0017382036103754856, ,0.007020481417315568,0.027079068149676158,-0.020793662355150087,-0.07527599411272765,0.01598585599299011,-0.002532173764996555, ,0.03485598205940646, ,0.07695465544154195, ,0.0007373053693932386, ,0.15299506097126175,-0.3019897463136752,0.09680564091,-4.521753941300283,0.13895932026145294,-1.310722338519903, ,0.04407661010611741,-0.2146989628019701,0.0287005612972973,0.05064319466838943,0.004073311347033052,0.298485612209346, ,1.2920310497283936
0.011965923869700728,0.02734896319830855,-0.0854458310451005, ,0.012402893525861306,0.028841491485967652,-0.08553058487512846, ,0.0015574872010941567, ,0.007094613488477126,0.02919272605300259,-0.01849313411830157,0.009967635057604755,0.013512233249411686,-0.01921602896123031, ,0.035278106588563216, ,0.0167908318152388, ,0.000748241127149251, ,0.15348931587521214,-0.3043374571074395,0.09708952842000002,-4.52112487146983,0.13909595676121836,-1.3080566792588204, ,0.04909308926977277,-0.2427031753413575,0.02722873764102564,0.07216577739657296,0.007780030912365661,0.24403352966565442, ,1.2959098815917969
0.011965923869700728,0.02734896319830855,-0.0854458310451005, ,0.012433963187214883,0.028964872662801885,-0.08559616105966732, ,0.0016890302879042488, ,0.007094613488477126,0.02919272605300259,-0.01849313411830157,0.009967635057604755,0.013512233249411686,-0.01921602896123031, ,0.035278106588563216, ,0.0167908318152388, ,0.0007606199318960272, ,0.15348931587521214,-0.3043374571074395,0.09708952842000002,-4.52112487146983,0.13909595676121836,-1.3080566792588204, ,0.04909308926977277,-0.2427031753413575,0.02722873764102564,0.07216577739657296,0.007780030912365661,0.24403352966565442, ,1.2995150089263916
0.011965923869700728,0.02734896319830855,-0.0854458310451005, ,0.012465093108582069,0.029087908877620694,-0.08566179926568315, ,0.0018220165413479054, ,0.007094613488477126,0.02919272605300259,-0.01849313411830157,0.009967635057604755,0.013512233249411686,-0.01921602896123031, ,0.035278106588563216, ,0.0167908318152388, ,0.0007744043034473503, ,0.15403762990928208,-0.3070017999490469,0.09738508254000001,-4.520495801639376,0.13909595676121836,-1.3055246383144627, ,0.05413402256615561,-0.25717328335628936,0.027654186666666667,0.04300774729730779,0.006092293266063318,0.22939285887234256, ,1.3031389713287354
0.012044886633517783,0.02766878145930471,-0.08564509339545341, ,0.012496283433274724,0.0292106009126158,-0.08572750044969174, ,0.0016086507451984582, ,0.007542090259519322,0.03065578361203097,-0.018345968695541535,0.03426165414825887,-0.003746434439191064,0.00959144942882179, ,0.03651348739477226, ,0.03446584741024039, ,0.0007850997706492876, ,0.15403762990928208,-0.3070017999490469,0.09738508254000001,-4.520495801639376,0.13909595676121836,-1.3055246383144627, ,0.05413402256615561,-0.25717328335628936,0.027654186666666667,0.04300774729730779,0.006092293266063318,0.22939285887234256, ,1.3074259757995605
0.012044886633517783,0.02766878145930471,-0.08564509339545341, ,0.012527534304121936,0.029332949546537576,-0.08579326556221457, ,0.001739068482696013, ,0.007542090259519322,0.03065578361203097,-0.018345968695541535,0.03426165414825887,-0.003746434439191064,0.00959144942882179, ,0.03651348739477226, ,0.03446584741024039, ,0.0007971753239663348, ,0.15403762990928208,-0.3070017999490469,0.09738508254000001,-4.520495801639376,0.13909595676121836,-1.3055246383144627, ,0.05413402256615561,-0.25717328335628936,0.027654186666666667,0.04300774729730779,0.006092293266063318,0.22939285887234256, ,1.3110709190368652
0.012119773595577124,0.027968574684280455,-0.08581619685546116, ,0.0125588458634701,0.029454955554705804,-0.08585909554778902, ,0.0015504685892344093, ,0.00827651626186208,0.032558063105066745,-0.016916422007359357,0.03640433046773837,-0.013768264049299275,0.003662181790074684, ,0.03761241188912841, ,0.03892093249704604, ,0.0008065914897821857, ,0.15460138940910045,-0.30953485633179256,0.09764822941000001,-4.520076421752408,0.1392325932609838,-1.3032673727540827, ,0.06416290842357726,-0.2799319809984389,0.02704382261460102,0.05199343794401457,0.0,0.2503922451483652, ,1.3146288394927979
0.012119773595577124,0.027968574684280455,-0.08581619685546116, ,0.012590218253182824,0.029576619709018946,-0.08592499134498027, ,0.0016789768367686565, ,0.00827651626186208,0.032558063105066745,-0.016916422007359357,0.03640433046773837,-0.013768264049299275,0.003662181790074684, ,0.03761241188912841, ,0.03892093249704604, ,0.0008173616792511544, ,0.15460138940910045,-0.30953485633179256,0.09764822941000001,-4.520076421752408,0.1392325932609838,-1.3032673727540827, ,0.06416290842357726,-0.2799319809984389,0.02704382261460102,0.05199343794401457,0.0,0.2503922451483652, ,1.3182220458984375
0.012119773595577124,0.027968574684280455,-0.08581619685546116, ,0.012621651614641124,0.02969794277796508,-0.08599095388639272, ,0.0018091809111678164, ,0.00827651626186208,0.032558063105066745,-0.016916422007359357,0.03640433046773837,-0.013768264049299275,0.003662181790074684, ,0.03761241188912841, ,0.03892093249704604, ,0.000829457035737943, ,0.15460138940910045,-0.30953485633179256,0.09764822941000001,-4.520076421752408,0.1392325932609838,-1.3032673727540827, ,0.06416290842357726,-0.2799319809984389,0.02704382261460102,0.05199343794401457,0.0,0.2503922451483652, ,1.3219099044799805
0.01220379444208322,0.02830182788163745,-0.08598415396022761, ,0.012653146088743267,0.02981892552663133,-0.08605698409868136, ,0.001583921208857708, ,0.008505912541472578,0.03387775915606916,-0.016813532072334294,0.019223393870490546,-0.006526343908946465,-0.008850798063730902, ,0.038765293425269236, ,0.020301002266911988, ,0.0008385469655345667, ,0.15525782170340954,-0.3124077129610041,0.09792045031,-4.519447351921953,0.1392325932609838,-1.300653653069585, ,0.06664111064499352,-0.29199058941067935,0.02746346813793104,0.06880189411307601,0.0,0.282285991563131, ,1.3260149955749512
0.01220379444208322,0.02830182788163745,-0.08598415396022761, ,0.012684701815904921,0.029939568716714295,-0.08612308290256371, ,0.0017125326846787242, ,0.008505912541472578,0.03387775915606916,-0.016813532072334294,0.019223393870490546,-0.006526343908946465,-0.008850798063730902, ,0.038765293425269236, ,0.020301002266911988, ,0.00084895155742914, ,0.15525782170340954,-0.3124077129610041,0.09792045031,-4.519447351921953,0.1392325932609838,-1.300653653069585, ,0.06664111064499352,-0.29199058941067935,0.02746346813793104,0.06880189411307601,0.0,0.282285991563131, ,1.3296668529510498
0.01220379444208322,0.02830182788163745,-0.08598415396022761, ,0.012716318936059201,0.03005987310653012,-0.08618925121283069, ,0.0018426799105429534, ,0.008505912541472578,0.03387775915606916,-0.016813532072334294,0.019223393870490546,-0.006526343908946465,-0.008850798063730902, ,0.038765293425269236, ,0.020301002266911988, ,0.0008606424792304789, ,0.1558756403333475,-0.3151878967957249,0.09817711573000001,-4.519027972034984,0.1392325932609838,-1.2977948971646653, ,0.06754230715905395,-0.30030677708376824,0.02775054271777004,0.04755441286024353,0.0,0.3067022453991777, ,1.3345890045166016
0.012282606429452989,0.028623201220602534,-0.08613942381097613, ,0.012747997588656558,0.03017983945102457,-0.08625548993835803, ,0.0016288593731202579, ,0.008588142768471797,0.03478591674052281,-0.016722621584991933,0.0001333966998635697,-0.010505427726385417,0.013533320237101623, ,0.03954064076826623, ,0.010506212383757853, ,0.0008695752338105926, ,0.1558756403333475,-0.3151878967957249,0.09817711573000001,-4.519027972034984,0.1392325932609838,-1.2977948971646653, ,0.06754230715905395,-0.30030677708376824,0.02775054271777004,0.04755441286024353,0.0,0.3067022453991777, ,1.3382768630981445
0.012282606429452989,0.028623201220602534,-0.08613942381097613, ,0.012779737912664933,0.030299468501783028,-0.08632179998211874, ,0.0017579171702208818, ,0.008588142768471797,0.03478591674052281,-0.016722621584991933,0.0001333966998635697,-0.010505427726385417,0.013533320237101623, ,0.03954064076826623, ,0.010506212383757853, ,0.0008797860606658831, ,0.1558756403333475,-0.3151878967957249,0.09817711573000001,-4.519027972034984,0.1392325932609838,-1.2977948971646653, ,0.06754230715905395,-0.30030677708376824,0.02775054271777004,0.04755441286024353,0.0,0.3067022453991777, ,1.34220290184021
0.012374182018286347,0.028996488395123844,-0.08630914802837508, ,0.012811540046569722,0.030418761007040596,-0.08638818224119338, ,0.0014900965855635764, ,0.008303660540083867,0.03451246606170642,-0.014786367592650278,0.006710428178209615,-0.011210239817856849,0.014549681085092745, ,0.03845383932210621, ,0.013065168054447204, ,0.0008867214075397206, ,0.15660929995639883,-0.3184314446028992,0.09846618840000002,-4.518398902204531,0.1392325932609838,-1.2945277475590427, ,0.06749426853376299,-0.30221955910341014,0.025900506536585367,0.046856958975926455,0.0,0.3018498559922533, ,1.3458359241485596
0.012374182018286347,0.028996488395123844,-0.08630914802837508, ,0.012843404128373818,0.03053771771169252,-0.08645463760678188, ,0.0016176292567429262, ,0.008303660540083867,0.03451246606170642,-0.014786367592650278,0.006710428178209615,-0.011210239817856849,0.014549681085092745, ,0.03845383932210621, ,0.013065168054447204, ,0.0008949338552835768, ,0.15660929995639883,-0.3184314446028992,0.09846618840000002,-4.518398902204531,0.1392325932609838,-1.2945277475590427, ,0.06749426853376299,-0.30221955910341014,0.025900506536585367,0.046856958975926455,0.0,0.3018498559922533, ,1.349397897720337
0.012459209542985137,0.029355008755691706,-0.08644938252945164, ,0.012875330295597742,0.030656339357303875,-0.08652116696421575, ,0.0013681267560140668, ,0.008570941539058208,0.035614641286909145,-0.013321902425675599,0.0506390298741277,-0.01201410370947396,-0.007689736383415904, ,0.038978671053543995, ,0.05204468863331673, ,0.0009001915541805823, ,0.15730434591507902,-0.3216054878142055,0.09872285382000001,-4.517560142430592,0.13909595676121836,-1.291475895010286, ,0.07282957909322392,-0.3163231385282359,0.025005983547880698,0.07212831141645676,0.0,0.27533187479347687, ,1.3558149337768555
0.012459209542985137,0.029355008755691706,-0.08644938252945164, ,0.012907318685279355,0.03077462668211976,-0.08658777119296819, ,0.001495081363215208, ,0.008570941539058208,0.035614641286909145,-0.013321902425675599,0.0506390298741277,-0.01201410370947396,-0.007689736383415904, ,0.038978671053543995, ,0.05204468863331673, ,0.0009067288048293144, ,0.15730434591507902,-0.3216054878142055,0.09872285382000001,-4.517560142430592,0.13909595676121836,-1.291475895010286, ,0.07282957909322392,-0.3163231385282359,0.025005983547880698,0.07212831141645676,0.0,0.27533187479347687, ,1.359410047531128
0.012459209542985137,0.029355008755691706,-0.08644938252945164, ,0.01293936943397431,0.030892580421075722,-0.0866544511666672, ,0.0016238021101956854, ,0.008570941539058208,0.035614641286909145,-0.013321902425675599,0.0506390298741277,-0.01201410370947396,-0.007689736383415904, ,0.038978671053543995, ,0.05204468863331673, ,0.0009145230798876444, ,0.15730434591507902,-0.3216054878142055,0.09872285382000001,-4.517560142430592,0.13909595676121836,-1.291475895010286, ,0.07282957909322392,-0.3163231385282359,0.025005983547880698,0.07212831141645676,0.0,0.27533187479347687, ,1.3630058765411377
0.012546927673950952,0.029713560011232893,-0.08659631627926148, ,0.012971482677755714,0.03101020130580718,-0.08672120775310546, ,0.001370081558991969, ,0.008960137462606595,0.03639217520491806,-0.015468063956003395,0.08047016957586853,-0.023381980203888906,0.010088837679945456, ,0.04054547424856775, ,0.08379835502169461, ,0.0009194215581575835, ,0.15803028280525613,-0.32474091736114064,0.09898729698000001,-4.517140762543623,0.13909595676121836,-1.2889438540659286, ,0.07316649310599135,-0.31527223109126506,0.027416198829604135,0.05186904025639649,0.0,0.24108181437650256, ,1.366718053817749
0.012546927673950952,0.029713560011232893,-0.08659631627926148, ,0.013003658552214442,0.031127490064660448,-0.08678804181425284, ,0.0014981855599066193, ,0.008960137462606595,0.03639217520491806,-0.015468063956003395,0.08047016957586853,-0.023381980203888906,0.010088837679945456, ,0.04054547424856775, ,0.08379835502169461, ,0.0009255786220059775, ,0.15803028280525613,-0.32474091736114064,0.09898729698000001,-4.517140762543623,0.13909595676121836,-1.2889438540659286, ,0.07316649310599135,-0.31527223109126506,0.027416198829604135,0.05186904025639649,0.0,0.24108181437650256, ,1.3704569339752197
0.012603647124758659,0.02994449826053232,-0.08669399284595035, ,0.013035897192458916,0.03124444742270177,-0.08685495420626738, ,0.0013793536547118867, ,0.008927213637514012,0.036323228271353626,-0.015280977185866827,0.10558233180586366,-0.031830138295310784,0.022775562387576307, ,0.04040520163466162, ,0.11027595232075697, ,0.0009303552012976186, ,0.1584936467777096,-0.32674110517556476,0.09916099984000001,-4.51693107260014,0.13909595676121836,-1.287555315483539, ,0.07299764735266984,-0.3142282833061946,0.027275362191780828,0.037148350455487186,0.0,0.2124320989544771, ,1.3743219375610352
0.012603647124758659,0.02994449826053232,-0.08669399284595035, ,0.013068198733115287,0.03136107410172849,-0.08692194577950721, ,0.001508130581416788, ,0.008927213637514012,0.036323228271353626,-0.015280977185866827,0.10558233180586366,-0.031830138295310784,0.022775562387576307, ,0.04040520163466162, ,0.11027595232075697, ,0.0009363736948405266, ,0.1584936467777096,-0.32674110517556476,0.09916099984000001,-4.51693107260014,0.13909595676121836,-1.287555315483539, ,0.07299764735266984,-0.3142282833061946,0.027275362191780828,0.037148350455487186,0.0,0.2124320989544771, ,1.3779840469360352
0.012603647124758659,0.02994449826053232,-0.08669399284595035, ,0.013100563308327404,0.03147737082027815,-0.08698901737854155, ,0.001638189077226712, ,0.008927213637514012,0.036323228271353626,-0.015280977185866827,0.10558233180586366,-0.031830138295310784,0.022775562387576307, ,0.04040520163466162, ,0.11027595232075697, ,0.0009436089049682191, ,0.1584936467777096,-0.32674110517556476,0.09916099984000001,-4.51693107260014,0.13909595676121836,-1.287555315483539, ,0.07299764735266984,-0.3142282833061946,0.027275362191780828,0.037148350455487186,0.0,0.2124320989544771, ,1.3817429542541504
0.0127233376661759,0.03043380306777542,-0.08688729228771593, ,0.0131329910517569,0.03159333829363948,-0.08705616984216248, ,0.0012413127989082528, ,0.009363887345539026,0.03745641218071973,-0.015241196594544055,0.15368758457420464,-0.030827351699505717,-0.006305426172502956, ,0.041508544581874425, ,0.156748838728187, ,0.000946646699804342, ,0.15948987931848457,-0.3309963309892625,0.09951747959000001,-4.516092312826201,0.13909595676121836,-1.2850232745391816, ,0.07753018101182253,-0.32277871278391423,0.027798972984293194,0.06870582182200799,0.0,0.1771224557580604, ,1.3854780197143555
0.0127233376661759,0.03043380306777542,-0.08688729228771593, ,0.013165482096583093,0.0317089772338618,-0.08712340400339576, ,0.001370149478515196, ,0.009363887345539026,0.03745641218071973,-0.015241196594544055,0.15368758457420464,-0.030827351699505717,-0.006305426172502956, ,0.041508544581874425, ,0.156748838728187, ,0.0009509245056499062, ,0.15948987931848457,-0.3309963309892625,0.09951747959000001,-4.516092312826201,0.13909595676121836,-1.2850232745391816, ,0.07753018101182253,-0.32277871278391423,0.027798972984293194,0.06870582182200799,0.0,0.1771224557580604, ,1.389111042022705
0.0127233376661759,0.03043380306777542,-0.08688729228771593, ,0.01319803657550312,0.03182428834976552,-0.08719072068951356, ,0.0015002856957809767, ,0.009363887345539026,0.03745641218071973,-0.015241196594544055,0.15368758457420464,-0.030827351699505717,-0.006305426172502956, ,0.041508544581874425, ,0.156748838728187, ,0.0009564181175512169, ,0.15948987931848457,-0.3309963309892625,0.09951747959000001,-4.516092312826201,0.13909595676121836,-1.2850232745391816, ,0.07753018101182253,-0.32277871278391423,0.027798972984293194,0.06870582182200799,0.0,0.1771224557580604, ,1.3927679061889648
0.012821980685790357,0.030827604315838378,-0.08705458501540132, ,0.013230654620732023,0.031939272346952055,-0.08725812072204488, ,0.0012017682723303006, ,0.008987158227377126,0.03575352527234584,-0.015125548704896779,0.11026792524214482,-0.025311783286232372,-0.0014533370212043185, ,0.03984803390417637, ,0.11313576321678949, ,0.0009588473270044752, ,0.16029304353740392,-0.33435571978955014,0.09981692258000001,-4.5154632429957475,0.13909595676121836,-1.282899627295527, ,0.07322294873338794,-0.3041568639694576,0.027182272218430035,0.06161689181433086,0.0,0.201332598723293, ,1.3963840007781982
0.012821980685790357,0.030827604315838378,-0.08705458501540132, ,0.01326333636400254,0.032053929927814036,-0.08732560491678733, ,0.001331210399683269, ,0.008987158227377126,0.03575352527234584,-0.015125548704896779,0.11026792524214482,-0.025311783286232372,-0.0014533370212043185, ,0.03984803390417637, ,0.11313576321678949, ,0.0009624979453640713, ,0.16029304353740392,-0.33435571978955014,0.09981692258000001,-4.5154632429957475,0.13909595676121836,-1.282899627295527, ,0.07322294873338794,-0.3041568639694576,0.027182272218430035,0.06161689181433086,0.0,0.201332598723293, ,1.4000208377838135
0.012821980685790357,0.030827604315838378,-0.08705458501540132, ,0.013296081936565354,0.032168261791545305,-0.08739317408381864, ,0.0014617718770064609, ,0.00897475927276891,0.03620776771760687,-0.014329881249425818,0.0629218173675476,-0.028823345914545464,0.02707769095021474, ,0.03996115918887954, ,0.06920939073781612, ,0.0009673452650887546, ,0.16029304353740392,-0.33435571978955014,0.09981692258000001,-4.5154632429957475,0.13909595676121836,-1.282899627295527, ,0.07322294873338794,-0.3041568639694576,0.027182272218430035,0.06161689181433086,0.0,0.201332598723293, ,1.4046008586883545
0.012910027685598435,0.03118738931859638,-0.08720090948006039, ,0.013328891469189016,0.0322822686341511,-0.08746082902750801, ,0.001200735506253884, ,0.00897475927276891,0.03620776771760687,-0.014329881249425818,0.0629218173675476,-0.028823345914545464,0.02707769095021474, ,0.03996115918887954, ,0.06920939073781612, ,0.0009695894020230346, ,0.16102670316045525,-0.3374293674734915,0.10008525461000001,-4.515043863108779,0.1392325932609838,-1.2808057192154283, ,0.0743124052924595,-0.31012072404729013,0.026681426331658296,0.034174385145252624,-0.00028353476235512597,0.25086543677030804, ,1.4082088470458984
0.012910027685598435,0.03118738931859638,-0.08720090948006039, ,0.013361765092160102,0.03239595114845809,-0.08752857054652782, ,0.0013311837422250639, ,0.00897475927276891,0.03620776771760687,-0.014329881249425818,0.0629218173675476,-0.028823345914545464,0.02707769095021474, ,0.03996115918887954, ,0.06920939073781612, ,0.0009730331576440063, ,0.16102670316045525,-0.3374293674734915,0.10008525461000001,-4.515043863108779,0.1392325932609838,-1.2808057192154283, ,0.0743124052924595,-0.31012072404729013,0.026681426331658296,0.034174385145252624,-0.00028353476235512597,0.25086543677030804, ,1.4118058681488037
0.012997552592906757,0.03153673250617521,-0.08734747400819887, ,0.013394702935282946,0.03250931002412458,-0.08759639943386516, ,0.0010796292374760966, ,0.008767545836290531,0.034833844274273267,-0.015248078676673871,0.016983502011477945,-0.011182048387864274,0.0004909357633016445, ,0.039022691735012494, ,0.020334127039063767, ,0.0009740387810386487, ,0.16173719458488392,-0.34037945143144527,0.10035099406,-4.514414793278324,0.1392325932609838,-1.2781103207907898, ,0.06998299524960973,-0.2910949127560453,0.027135965110732543,0.06094095856889923,-0.00033317709757923835,0.2823834341086119, ,1.415410041809082
0.012997552592906757,0.03153673250617521,-0.08734747400819887, ,0.013427705127880009,0.03262234594765035,-0.0876643164768324, ,0.0012099491301642408, ,0.008767545836290531,0.034833844274273267,-0.015248078676673871,0.016983502011477945,-0.011182048387864274,0.0004909357633016445, ,0.039022691735012494, ,0.020334127039063767, ,0.0009762435506566449, ,0.16173719458488392,-0.34037945143144527,0.10035099406,-4.514414793278324,0.1392325932609838,-1.2781103207907898, ,0.06998299524960973,-0.2910949127560453,0.027135965110732543,0.06094095856889923,-0.00033317709757923835,0.2823834341086119, ,1.4189720153808594
0.012997552592906757,0.03153673250617521,-0.08734747400819887, ,0.01346077179879169,0.03273505960238701,-0.08773232245707988, ,0.0013411443586811209, ,0.008767545836290531,0.034833844274273267,-0.015248078676673871,0.016983502011477945,-0.011182048387864274,0.0004909357633016445, ,0.039022691735012494, ,0.020334127039063767, ,0.0009796222618420566, ,0.16173719458488392,-0.34037945143144527,0.10035099406,-4.514414793278324,0.1392325932609838,-1.2781103207907898, ,0.06998299524960973,-0.2910949127560453,0.027135965110732543,0.06094095856889923,-0.00033317709757923835,0.2823834341086119, ,1.4225568771362305
0.013086226723175927,0.031879892200135145,-0.08750355759001806, ,0.013493903076376408,0.03284745166854818,-0.08780041815060692, ,0.0010910992284424445, ,0.009352380686079572,0.03558548683244009,-0.017278571871011738,0.01506621729456044,-0.010090146099780461,-0.008422035091451681, ,0.040649021433496274, ,0.018132854486159408, ,0.0009806449863062803, ,0.16243996327643834,-0.3432136943962857,0.10062451125,-4.513576033504387,0.1392325932609838,-1.2753332436260105, ,0.0724957536733925,-0.28931994377582554,0.029443274528650653,0.07053802691411426,-0.00041216617354875306,0.2840217599012982, ,1.4261980056762695
0.013086226723175927,0.031879892200135145,-0.08750355759001806, ,0.013527099088510689,0.032959522823219095,-0.08786860432777283, ,0.001221977841682044, ,0.009352380686079572,0.03558548683244009,-0.017278571871011738,0.01506621729456044,-0.010090146099780461,-0.008422035091451681, ,0.040649021433496274, ,0.018132854486159408, ,0.000982838921355151, ,0.16243996327643834,-0.3432136943962857,0.10062451125,-4.513576033504387,0.1392325932609838,-1.2753332436260105, ,0.0724957536733925,-0.28931994377582554,0.029443274528650653,0.07053802691411426,-0.00041216617354875306,0.2840217599012982, ,1.4298620223999023
0.013086226723175927,0.031879892200135145,-0.08750355759001806, ,0.013560359962589046,0.03307127374036735,-0.08793688175330916, ,0.0013534999570056778, ,0.009352380686079572,0.03558548683244009,-0.017278571871011738,0.01506621729456044,-0.010090146099780461,-0.008422035091451681, ,0.040649021433496274, ,0.018132854486159408, ,0.000986178209964615, ,0.16243996327643834,-0.3432136943962857,0.10062451125,-4.513576033504387,0.1392325932609838,-1.2753332436260105, ,0.0724957536733925,-0.28931994377582554,0.029443274528650653,0.07053802691411426,-0.00041216617354875306,0.2840217599012982, ,1.4336819648742676
0.013216011479724217,0.03235200574593381,-0.08775315492484224, ,0.01359368582552414,0.033182705090852346,-0.08800525118633032, ,0.000946705782268043, ,0.009300288842196323,0.03415061014792897,-0.018600113785055217,0.00729972310235311,-0.0122602961276492,0.003062570703673293, ,0.03998404405311089, ,0.014268797855383661, ,0.0009858257775744671, ,0.16326629569398035,-0.3464031830733404,0.10097191697,-4.512946963673933,0.13909595676121836,-1.2720363548568323, ,0.07097751799436858,-0.2695935839729284,0.030691351676300584,0.0549115943063803,0.0016205015710594431,0.2700433599685914, ,1.4391438961029053
0.013216011479724217,0.03235200574593381,-0.08775315492484224, ,0.013627076803746795,0.03329381754243614,-0.08807371338034599, ,0.001076448737302283, ,0.009300288842196323,0.03415061014792897,-0.018600113785055217,0.00729972310235311,-0.0122602961276492,0.003062570703673293, ,0.03998404405311089, ,0.014268797855383661, ,0.0009866277506694037, ,0.16326629569398035,-0.3464031830733404,0.10097191697,-4.512946963673933,0.13909595676121836,-1.2720363548568323, ,0.07097751799436858,-0.2695935839729284,0.030691351676300584,0.0549115943063803,0.0016205015710594431,0.2700433599685914, ,1.442755937576294
0.013281052174053702,0.03259292384854442,-0.08788438412420872, ,0.01366053302320593,0.03340461175979282,-0.08814226908327166, ,0.0009323881339072173, ,0.009171566002788987,0.03326070234463728,-0.01846242118978015,0.02579672620172927,-0.013473522048109834,0.006117890782192124, ,0.039131227166943255, ,0.02910334575317726, ,0.0009861519645574545, ,0.163907282522541,-0.3488512893944696,0.10124932303,-4.512527583786964,0.1392325932609838,-1.2697790892964524, ,0.0682711809773171,-0.2585747726388849,0.029885199849906192,0.05034624661102985,0.004999016276234002,0.24017676429976292, ,1.446363925933838
0.013281052174053702,0.03259292384854442,-0.08788438412420872, ,0.013694054609368702,0.03351508840451891,-0.0882109190374411, ,0.0010618773608244182, ,0.009171566002788987,0.03326070234463728,-0.01846242118978015,0.02579672620172927,-0.013473522048109834,0.006117890782192124, ,0.039131227166943255, ,0.02910334575317726, ,0.0009868104462641238, ,0.163907282522541,-0.3488512893944696,0.10124932303,-4.512527583786964,0.1392325932609838,-1.2697790892964524, ,0.0682711809773171,-0.2585747726388849,0.029885199849906192,0.05034624661102985,0.004999016276234002,0.24017676429976292, ,1.4499928951263428
0.013281052174053702,0.03259292384854442,-0.08788438412420872, ,0.01372764168722039,0.03362524813514352,-0.08827966397961655, ,0.001192217174035013, ,0.009171566002788987,0.03326070234463728,-0.01846242118978015,0.02579672620172927,-0.013473522048109834,0.006117890782192124, ,0.039131227166943255, ,0.02910334575317726, ,0.000988581193917321, ,0.163907282522541,-0.3488512893944696,0.10124932303,-4.512527583786964,0.1392325932609838,-1.2697790892964524, ,0.0682711809773171,-0.2585747726388849,0.029885199849906192,0.05034624661102985,0.004999016276234002,0.24017676429976292, ,1.4535858631134033
0.013369766303246804,0.032914619557643035,-0.08806532445205911, ,0.013761294381264614,0.0337350916071384,-0.08834850464100144, ,0.0009521867670204475, ,0.008652583642674934,0.03138716887504232,-0.017946841715092664,0.045355360621369155,-0.02014520316412361,0.0255244047363998, ,0.03717674947101349, ,0.04962797684560258, ,0.00098827013043957, ,0.1645714375497243,-0.35133800937996984,0.10154098828000001,-4.51231789384348,0.13936922976074928,-1.2676035024762131, ,0.06351870251571003,-0.2408551816204842,0.02875236736462094,0.02595440267711825,0.007753934304517104,0.19934252456869478, ,1.4572019577026367
0.013369766303246804,0.032914619557643035,-0.08806532445205911, ,0.013795012815523174,0.03384461947292802,-0.08841744174725123, ,0.0010815364201943061, ,0.008652583642674934,0.03138716887504232,-0.017946841715092664,0.045355360621369155,-0.02014520316412361,0.0255244047363998, ,0.03717674947101349, ,0.04962797684560258, ,0.000989060522725627, ,0.1645714375497243,-0.35133800937996984,0.10154098828000001,-4.51231789384348,0.13936922976074928,-1.2676035024762131, ,0.06351870251571003,-0.2408551816204842,0.02875236736462094,0.02595440267711825,0.007753934304517104,0.19934252456869478, ,1.4607939720153809
0.013456397542607936,0.03322751305058819,-0.08824100146830212, ,0.013828797113536143,0.03395383238189974,-0.08848647601848497, ,0.0012116275090956925, ,0.008266398240219807,0.030158498003173304,-0.01646257371626291,0.04471556699928345,-0.012052190030668515,0.006044556396004444, ,0.03717674947101349, ,0.04631129459893272, ,0.0009909308335354595, ,0.1652047016454107,-0.35373977930385364,0.10182487579,-4.511688824013026,0.13936922976074928,-1.2656432127128396, ,0.061661430512326684,-0.23259054303546764,0.02695230375634518,0.04555075445009168,0.007753934304517104,0.19479640545118032, ,1.4651830196380615
0.013456397542607936,0.03322751305058819,-0.08824100146830212, ,0.013862647398362004,0.034062730980413625,-0.08855560816929672, ,0.000980614762234793, ,0.008266398240219807,0.030158498003173304,-0.01646257371626291,0.04471556699928345,-0.012052190030668515,0.006044556396004444, ,0.03533956246244013, ,0.04631129459893272, ,0.0009908448662746207, ,0.1652047016454107,-0.35373977930385364,0.10182487579,-4.511688824013026,0.13936922976074928,-1.2656432127128396, ,0.061661430512326684,-0.23259054303546764,0.02695230375634518,0.04555075445009168,0.007753934304517104,0.19479640545118032, ,1.4687738418579102
0.013456397542607936,0.03322751305058819,-0.08824100146830212, ,0.013896563792577477,0.034171315911812945,-0.08862483890876695, ,0.0011098834845022609, ,0.008266398240219807,0.030158498003173304,-0.01646257371626291,0.04471556699928345,-0.012052190030668515,0.006044556396004444, ,0.03533956246244013, ,0.04631129459893272, ,0.000991828656507907, ,0.1652047016454107,-0.35373977930385364,0.10182487579,-4.511688824013026,0.13936922976074928,-1.2656432127128396, ,0.061661430512326684,-0.23259054303546764,0.02695230375634518,0.04555075445009168,0.007753934304517104,0.19479640545118032, ,1.4724678993225098
0.013456397542607936,0.03322751305058819,-0.08824100146830212, ,0.013930546418277673,0.03427958781643403,-0.0886941689404744, ,0.0012397738612599791, ,0.008266398240219807,0.030158498003173304,-0.01646257371626291,0.04471556699928345,-0.012052190030668515,0.006044556396004444, ,0.03533956246244013, ,0.04631129459893272, ,0.0009938609942517765, ,0.1652047016454107,-0.35373977930385364,0.10182487579,-4.511688824013026,0.13936922976074928,-1.2656432127128396, ,0.061661430512326684,-0.23259054303546764,0.02695230375634518,0.04555075445009168,0.007753934304517104,0.19479640545118032, ,1.476351022720337
0.013538980572956246,0.03351657543468474,-0.08839909905469714, ,0.013964595397076092,0.03438754733161651,-0.0887635989625072, ,0.00103566413790815, ,0.0080249325558466,0.02863740359141354,-0.01592884757436798,0.03866608469622383,0.011671881460992614,-0.05288565244537951, ,0.03373764384231419, ,0.040389329000464935, ,0.0009942008572083323, ,0.16582252027534866,-0.3559562036387561,0.10208413379,-4.510850064239088,0.13936922976074928,-1.2636829229494662, ,0.059571212528857984,-0.21765353568456597,0.025942689771986976,0.10687446107706904,0.007753934304517104,0.1956173204619609, ,1.4799988269805908
0.013538980572956246,0.03351657543468474,-0.08839909905469714, ,0.013998710850104654,0.03449519509171296,-0.08883312966747428, ,0.00116508838019984, ,0.0080249325558466,0.02863740359141354,-0.01592884757436798,0.03866608469622383,0.011671881460992614,-0.05288565244537951, ,0.03373764384231419, ,0.040389329000464935, ,0.0009955789823937477, ,0.16582252027534866,-0.3559562036387561,0.10208413379,-4.510850064239088,0.13936922976074928,-1.2636829229494662, ,0.059571212528857984,-0.21765353568456597,0.025942689771986976,0.10687446107706904,0.007753934304517104,0.1956173204619609, ,1.4836299419403076
0.01362503835449588,0.03381338013493055,-0.08856858102645536, ,0.014032892898013733,0.03460253172809989,-0.08890276174251717, ,0.0009490955255702406, ,0.008435959597977927,0.02835398630584141,-0.017615368953996187,0.014968069273186103,-0.01037507578195489,0.0028640034910068805, ,0.034429858802440226, ,0.018212182711576066, ,0.0009952071147391595, ,0.1664557843710351,-0.3581957961722812,0.10235765098,-4.510220994408634,0.13936922976074928,-1.2614775969656709, ,0.060909461847542215,-0.20810732797910259,0.0275109007253886,0.045234760789905286,0.007753934304517104,0.2004138399073466, ,1.4873030185699463
0.01362503835449588,0.03381338013493055,-0.08856858102645536, ,0.01406714166097215,0.03470955786918692,-0.0889724958693212, ,0.0010778390720610684, ,0.008435959597977927,0.02835398630584141,-0.017615368953996187,0.014968069273186103,-0.01037507578195489,0.0028640034910068805, ,0.034429858802440226, ,0.018212182711576066, ,0.000995862923924254, ,0.1664557843710351,-0.3581957961722812,0.10235765098,-4.510220994408634,0.13936922976074928,-1.2614775969656709, ,0.060909461847542215,-0.20810732797910259,0.0275109007253886,0.045234760789905286,0.007753934304517104,0.2004138399073466, ,1.4909858703613281
0.01362503835449588,0.03381338013493055,-0.08856858102645536, ,0.014101457258667177,0.03481627414042742,-0.08904233272412707, ,0.0012071503757031111, ,0.008384465990963402,0.026821706793958917,-0.018741125561559272,-0.006644747175120729,-0.017988472600915236,0.026280637937585106, ,0.034429858802440226, ,0.018212182711576066, ,0.000997526604646922, ,0.16708132573384726,-0.36022687491820227,0.10264153849,-4.509801614521665,0.13936922976074928,-1.2594356284621568, ,0.05807646362207514,-0.18828758245728333,0.02804368225352113,0.016344396841487793,0.007753934304517104,0.19795768214292392, ,1.4954159259796143
0.013713243826968743,0.034095852295387155,-0.08875390564944746, ,0.014135839810304682,0.03492268116432839,-0.08911227297774227, ,0.0009953192882866608, ,0.008384465990963402,0.026821706793958917,-0.018741125561559272,-0.006644747175120729,-0.017988472600915236,0.026280637937585106, ,0.03377769993070656, ,0.019176430835419016, ,0.0009975093599878576, ,0.16708132573384726,-0.36022687491820227,0.10264153849,-4.509801614521665,0.13936922976074928,-1.2594356284621568, ,0.05807646362207514,-0.18828758245728333,0.02804368225352113,0.016344396841487793,0.007753934304517104,0.19795768214292392, ,1.4990699291229248
0.013713243826968743,0.034095852295387155,-0.08875390564944746, ,0.01417028943460903,0.0350287795604608,-0.08918231729555263, ,0.00112373507015649, ,0.008384465990963402,0.026821706793958917,-0.018741125561559272,-0.006644747175120729,-0.017988472600915236,0.026280637937585106, ,0.03377769993070656, ,0.019176430835419016, ,0.0009984878538651337, ,0.16708132573384726,-0.36022687491820227,0.10264153849,-4.509801614521665,0.13936922976074928,-1.2594356284621568, ,0.05807646362207514,-0.18828758245728333,0.02804368225352113,0.016344396841487793,0.007753934304517104,0.19795768214292392, ,1.5027868747711182
0.013784781223578582,0.034323754682640435,-0.08891312122973981, ,0.014204806249823138,0.03513456994546916,-0.08925246633753374, ,0.0009741650349357787, ,0.008625034479731748,0.02714353577125888,-0.01971378016119602,-0.018963581142437277,-0.006856144790407229,-0.0025183243523608425, ,0.03463806983921214, ,0.020164849457610132, ,0.0009983007552579848, ,0.16758330337067187,-0.3618177578902925,0.10288005585000001,-4.509382234634696,0.1395058662605147,-1.2576684353426204, ,0.0584340773143293,-0.18643799913255554,0.029120313564899455,0.047264063087765165,0.006040461212062165,0.213179953841946, ,1.5066308975219727
0.013784781223578582,0.034323754682640435,-0.08891312122973981, ,0.01423939037370858,0.035240052933082404,-0.0893227207582623, ,0.0011018365291234338, ,0.008625034479731748,0.02714353577125888,-0.01971378016119602,-0.018963581142437277,-0.006856144790407229,-0.0025183243523608425, ,0.03463806983921214, ,0.020164849457610132, ,0.0009990911046768051, ,0.16758330337067187,-0.3618177578902925,0.10288005585000001,-4.509382234634696,0.1395058662605147,-1.2576684353426204, ,0.0584340773143293,-0.18643799913255554,0.029120313564899455,0.047264063087765165,0.006040461212062165,0.213179953841946, ,1.5102648735046387
0.013784781223578582,0.034323754682640435,-0.08891312122973981, ,0.014274041923545457,0.03534522913412319,-0.08939308120692784, ,0.0012301006736305784, ,0.008625034479731748,0.02714353577125888,-0.01971378016119602,-0.018963581142437277,-0.006856144790407229,-0.0025183243523608425, ,0.03463806983921214, ,0.020164849457610132, ,0.001000841177168879, ,0.16758330337067187,-0.3618177578902925,0.10288005585000001,-4.509382234634696,0.1395058662605147,-1.2576684353426204, ,0.0584340773143293,-0.18643799913255554,0.029120313564899455,0.047264063087765165,0.006040461212062165,0.213179953841946, ,1.5138490200042725
0.013883585329820154,0.034627038100126045,-0.08914391680552733, ,0.014308761016132623,0.03545009915651859,-0.089463548327344, ,0.0009799837633961753, ,0.008652245726473527,0.02641547909526939,-0.020776419173803847,-0.016177612838744977,0.0064623267727481545,-0.0338190129505528, ,0.034703003985671006, ,0.01742047511429637, ,0.0010006843545089339, ,0.16824745839785518,-0.36384883663621354,0.10321579496000001,-4.508543474860758,0.13964250276028015,-1.2554111697822403, ,0.05648627473718499,-0.1738039222682615,0.029885199849906192,0.07929037129200583,0.0073744233528191365,0.2030487687354003, ,1.5174388885498047
0.013883585329820154,0.034627038100126045,-0.08914391680552733, ,0.014343547767787544,0.035554663605309844,-0.08953412275796019, ,0.0011064877801053375, ,0.008652245726473527,0.02641547909526939,-0.020776419173803847,-0.016177612838744977,0.0064623267727481545,-0.0338190129505528, ,0.034703003985671006, ,0.01742047511429637, ,0.001001473932311892, ,0.16824745839785518,-0.36384883663621354,0.10321579496000001,-4.508543474860758,0.13964250276028015,-1.2554111697822403, ,0.05648627473718499,-0.1738039222682615,0.029885199849906192,0.07929037129200583,0.0073744233528191365,0.2030487687354003, ,1.5210449695587158
0.013883585329820154,0.034627038100126045,-0.08914391680552733, ,0.014378402294346348,0.0356589230826626,-0.08960480513187268, ,0.0012337132952711495, ,0.008652245726473527,0.02641547909526939,-0.020776419173803847,-0.016177612838744977,0.0064623267727481545,-0.0338190129505528, ,0.034703003985671006, ,0.01742047511429637, ,0.001003194223889368, ,0.16824745839785518,-0.36384883663621354,0.10321579496000001,-4.508543474860758,0.13964250276028015,-1.2554111697822403, ,0.05648627473718499,-0.1738039222682615,0.029885199849906192,0.07929037129200583,0.0073744233528191365,0.2030487687354003, ,1.5246398448944092
0.013968916387766574,0.034882848796223616,-0.08934426420194132, ,0.014413324711163958,0.03576287818787701,-0.08967559607683646, ,0.00104006312279604, ,0.008951645037902677,0.025943901424430822,-0.020878443507249368,-0.021789034424708538,-0.013438970231310668,0.009346727045244467, ,0.03448372620948314, ,0.02560007763230072, ,0.00100346531873427, ,0.16881894063054778,-0.3655323924027945,0.10350486763000001,-4.508124094973789,0.1397791392600456,-1.2535622979225636, ,0.05953384037545218,-0.16825698857884888,0.029885199849906192,0.03173550058839962,0.0084920132621455,0.19582977535985724, ,1.5285749435424805
0.013968916387766574,0.034882848796223616,-0.08934426420194132, ,0.014448315133114023,0.03586652951739776,-0.08974649621527662, ,0.0011658651340537478, ,0.008951645037902677,0.025943901424430822,-0.020878443507249368,-0.021789034424708538,-0.013438970231310668,0.009346727045244467, ,0.03448372620948314, ,0.02560007763230072, ,0.001004650718846091, ,0.16881894063054778,-0.3655323924027945,0.10350486763000001,-4.508124094973789,0.1397791392600456,-1.2535622979225636, ,0.05953384037545218,-0.16825698857884888,0.029885199849906192,0.03173550058839962,0.0084920132621455,0.19582977535985724, ,1.5322129726409912
0.013968916387766574,0.034882848796223616,-0.08934426420194132, ,0.014483373674588964,0.03596987766482422,-0.08981750616429968, ,0.0012923838501283419, ,0.008951645037902677,0.025943901424430822,-0.020878443507249368,-0.021789034424708538,-0.013438970231310668,0.009346727045244467, ,0.03448372620948314, ,0.02560007763230072, ,0.0010067357415365422, ,0.16881894063054778,-0.3655323924027945,0.10350486763000001,-4.508124094973789,0.1397791392600456,-1.2535622979225636, ,0.05953384037545218,-0.16825698857884888,0.029885199849906192,0.03173550058839962,0.0084920132621455,0.19582977535985724, ,1.5358250141143799
0.013968916387766574,0.034882848796223616,-0.08934426420194132, ,0.014518500449499962,0.036072923220920525,-0.08988862653570495, ,0.0014193837140286053, ,0.009264328511207863,0.026072521467398347,-0.021945289531558568,-0.06693751041795626,-0.003256654211297923,-0.0031580537247431887, ,0.03531571733740461, ,0.06701664724333288, ,0.0010097044319861252, ,0.16941359106186307,-0.367200502703627,0.10381079207,-4.507495025143336,0.1397791392600456,-1.251356971938768, ,0.06059830240004519,-0.16418155978974183,0.030989905680933853,0.046351603083882566,0.008334779773292748,0.23969150595506653, ,1.5396358966827393
0.014060465335059584,0.03514419066198869,-0.08955960080483415, ,0.014553695571277062,0.036175666773625687,-0.08995985793599673, ,0.0012113731076111207, ,0.009264328511207863,0.026072521467398347,-0.021945289531558568,-0.06693751041795626,-0.003256654211297923,-0.0031580537247431887, ,0.03531571733740461, ,0.06701664724333288, ,0.0010111449225263039, ,0.16941359106186307,-0.367200502703627,0.10381079207,-4.507495025143336,0.1397791392600456,-1.251356971938768, ,0.06059830240004519,-0.16418155978974183,0.030989905680933853,0.046351603083882566,0.008334779773292748,0.23969150595506653, ,1.5433628559112549
0.014153499150205449,0.03540579055820116,-0.08978378911664378, ,0.014588959152869214,0.03627810890806373,-0.09003120096639454, ,0.001005871433546048, ,0.009053032766115982,0.024542229246320296,-0.021099146632931488,-0.023783004004462947,0.00990712652953132,-0.036967833596055134, ,0.03360732669048898, ,0.025763894389670455, ,0.0010111075218952382, ,0.17003140969180103,-0.3688222766072141,0.10412579054000001,-4.506865955312882,0.14005241225957646,-1.249211124282085, ,0.06017561290962003,-0.15110977955170507,0.029662591284916204,0.08199344582002466,0.015656750798838662,0.18981470027607228, ,1.5469510555267334
0.014153499150205449,0.03540579055820116,-0.08978378911664378, ,0.014624291306744131,0.03638025020655362,-0.09010265622284595, ,0.0011282256389318977, ,0.009053032766115982,0.024542229246320296,-0.021099146632931488,-0.023783004004462947,0.00990712652953132,-0.036967833596055134, ,0.03360732669048898, ,0.025763894389670455, ,0.0010119322973673273, ,0.17003140969180103,-0.3688222766072141,0.10412579054000001,-4.506865955312882,0.14005241225957646,-1.249211124282085, ,0.06017561290962003,-0.15110977955170507,0.029662591284916204,0.08199344582002466,0.015656750798838662,0.18981470027607228, ,1.550523042678833
0.014153499150205449,0.03540579055820116,-0.08978378911664378, ,0.014659692144888522,0.03648209124861958,-0.09017422429603696, ,0.0012518363125301822, ,0.009053032766115982,0.024542229246320296,-0.021099146632931488,-0.023783004004462947,0.00990712652953132,-0.036967833596055134, ,0.03360732669048898, ,0.025763894389670455, ,0.0010136099478230117, ,0.17003140969180103,-0.3688222766072141,0.10412579054000001,-4.506865955312882,0.14005241225957646,-1.249211124282085, ,0.06017561290962003,-0.15110977955170507,0.029662591284916204,0.08199344582002466,0.015656750798838662,0.18981470027607228, ,1.5541648864746094
0.014246707687667724,0.0356633137444056,-0.08999515710157177, ,0.014695161778807996,0.036583632611000935,-0.09024590577140389, ,0.0010540269367973198, ,0.00906458509000507,0.024958489283043332,-0.02024709097341409,-0.009481224402289611,-0.01154565928412161,0.02439469776768441, ,0.03339217847088503, ,0.014939627232758643, ,0.0010138906213575554, ,0.17067239652036167,-0.37044405051080126,0.10442782611000001,-4.506446575425913,0.14032568525910732,-1.247310312845823, ,0.06239115158347849,-0.15789840525535903,0.029067174306569344,0.01868524987217332,0.02213302952950701,0.17294288074423336, ,1.557790994644165
0.014246707687667724,0.0356633137444056,-0.08999515710157177, ,0.014730700319527062,0.03668487486766275,-0.09031770122914502, ,0.0011755299700460776, ,0.00906458509000507,0.024958489283043332,-0.02024709097341409,-0.009481224402289611,-0.01154565928412161,0.02439469776768441, ,0.03339217847088503, ,0.014939627232758643, ,0.0010150053754864419, ,0.17067239652036167,-0.37044405051080126,0.10442782611000001,-4.506446575425913,0.14032568525910732,-1.247310312845823, ,0.06239115158347849,-0.15789840525535903,0.029067174306569344,0.01868524987217332,0.02213302952950701,0.17294288074423336, ,1.5614969730377197
0.014336923955318041,0.035907375719689084,-0.0901967009682915, ,0.014766307877589351,0.03678581858980508,-0.09038961124423217, ,0.000996617681624316, ,0.009012168437730166,0.024907687017468805,-0.020936246015544478,-0.0011435233132522187,0.013881590437818298,-0.0017107268282055721, ,0.03339217847088503, ,0.014939627232758643, ,0.0010148794323777972, ,0.1712824924174254,-0.3719654288870235,0.10471560249,-4.505817505595459,0.14046232175887277,-1.2455431197262863, ,0.061541466639734616,-0.15330685227539706,0.02971793194029851,0.052234799265255025,0.03650599264765114,0.16738481411909706, ,1.5659348964691162
0.014336923955318041,0.035907375719689084,-0.0901967009682915, ,0.01480198456305733,0.036886464345873844,-0.09046163638642143, ,0.0011158345229355848, ,0.009012168437730166,0.024907687017468805,-0.020936246015544478,-0.0011435233132522187,0.013881590437818298,-0.0017107268282055721, ,0.03376297453918428, ,0.01392846639690437, ,0.0010155662017013196, ,0.1712824924174254,-0.3719654288870235,0.10471560249,-4.505817505595459,0.14046232175887277,-1.2455431197262863, ,0.061541466639734616,-0.15330685227539706,0.02971793194029851,0.052234799265255025,0.03650599264765114,0.16738481411909706, ,1.56955885887146
0.014336923955318041,0.035907375719689084,-0.0901967009682915, ,0.014837730485512608,0.0369868127015704,-0.0905337772202649, ,0.0012367747483608338, ,0.009012168437730166,0.024907687017468805,-0.020936246015544478,-0.0011435233132522187,0.013881590437818298,-0.0017107268282055721, ,0.03376297453918428, ,0.01392846639690437, ,0.0010170608540436136, ,0.1712824924174254,-0.3719654288870235,0.10471560249,-4.505817505595459,0.14046232175887277,-1.2455431197262863, ,0.061541466639734616,-0.15330685227539706,0.02971793194029851,0.052234799265255025,0.03650599264765114,0.16738481411909706, ,1.5731639862060547
0.014431832625338498,0.03615152980974005,-0.09040017023773832, ,0.014873545754055867,0.037086864219861904,-0.09060603430512322, ,0.0010546757611131217, ,0.009493361696442822,0.024941515706821408,-0.02035521240458557,-0.004628101900210396,0.013322724115533945,-0.037545164919401325, ,0.033563935914741896, ,0.014103574391355346, ,0.0010173133030843486, ,0.17192347924598603,-0.3734713617974973,0.10500597145000001,-4.505188435765006,0.14046232175887277,-1.243582829962913, ,0.0663614975933362,-0.1543039700137736,0.029280903529411772,0.08742129960435983,0.025676117268710975,0.17603091644474933, ,1.5768859386444092
0.014431832625338498,0.03615152980974005,-0.09040017023773832, ,0.014909430477306742,0.03718661946099157,-0.09067840819517543, ,0.0011734251809516678, ,0.009493361696442822,0.024941515706821408,-0.02035521240458557,-0.004628101900210396,0.013322724115533945,-0.037545164919401325, ,0.033563935914741896, ,0.014103574391355346, ,0.0010183540489367975, ,0.17192347924598603,-0.3734713617974973,0.10500597145000001,-4.505188435765006,0.14046232175887277,-1.243582829962913, ,0.0663614975933362,-0.1543039700137736,0.029280903529411772,0.08742129960435983,0.025676117268710975,0.17603091644474933, ,1.5806448459625244
0.014431832625338498,0.03615152980974005,-0.09040017023773832, ,0.014945384763404113,0.037286078982488285,-0.09075089943943133, ,0.0012938116543050988, ,0.009493361696442822,0.024941515706821408,-0.02035521240458557,-0.004628101900210396,0.013322724115533945,-0.037545164919401325, ,0.033563935914741896, ,0.014103574391355346, ,0.0010201782714889052, ,0.17192347924598603,-0.3734713617974973,0.10500597145000001,-4.505188435765006,0.14046232175887277,-1.243582829962913, ,0.0663614975933362,-0.1543039700137736,0.029280903529411772,0.08742129960435983,0.025676117268710975,0.17603091644474933, ,1.5843889713287354
0.01453430163952716,0.036415100209487995,-0.09061270167427986, ,0.014981408720005949,0.037385243339176984,-0.09082350858174275, ,0.0010888167824437127, ,0.009237294726967564,0.024937491406323887,-0.019685317583354088,-0.01067147201859984,-0.0071642523809141104,0.003754394948220872, ,0.03308652021399123, ,0.012853165803365041, ,0.0010206298406399237, ,0.17262624793754047,-0.3751163038997071,0.10531319218000001,-4.504769055878036,0.14046232175887277,-1.241540861459399, ,0.06407626033657716,-0.15659561313279005,0.028648941582733817,0.04033783549013289,0.019487122774230897,0.1759548357442648, ,1.5881030559539795
0.01453430163952716,0.036415100209487995,-0.09061270167427986, ,0.015017502454289353,0.03748411308318891,-0.0908962361608155, ,0.00120692309472483, ,0.009237294726967564,0.024937491406323887,-0.019685317583354088,-0.01067147201859984,-0.0071642523809141104,0.003754394948220872, ,0.03308652021399123, ,0.012853165803365041, ,0.001021847443607799, ,0.17262624793754047,-0.3751163038997071,0.10531319218000001,-4.504769055878036,0.14046232175887277,-1.241540861459399, ,0.06407626033657716,-0.15659561313279005,0.028648941582733817,0.04033783549013289,0.019487122774230897,0.1759548357442648, ,1.591789960861206
0.014628411825732273,0.036658548618845516,-0.09080733932155008, ,0.015053666072950668,0.037582688763971375,-0.09096908271022004, ,0.001030066554349267, ,0.00984167497676891,0.024580207230873247,-0.019615239402241566,-0.024875777008947834,-0.03493130638840144,0.011474323242471598, ,0.0329515215228111, ,0.04288353464897864, ,0.0010219008144567695, ,0.17328268023184956,-0.3766299595430551,0.1055957834,-4.504349675991068,0.14059895825863825,-1.239855347080003, ,0.06856715430525345,-0.15281311040011397,0.028546257204301078,0.023234553627277003,0.0,0.18098777239697736, ,1.5959248542785645
0.014628411825732273,0.036658548618845516,-0.09080733932155008, ,0.0150898996822054,0.03768097092829813,-0.09104204875840337, ,0.0011460396765760603, ,0.00984167497676891,0.024580207230873247,-0.019615239402241566,-0.024875777008947834,-0.03493130638840144,0.011474323242471598, ,0.0329515215228111, ,0.04288353464897864, ,0.00102270171034141, ,0.17328268023184956,-0.3766299595430551,0.1055957834,-4.504349675991068,0.14059895825863825,-1.239855347080003, ,0.06856715430525345,-0.15281311040011397,0.028546257204301078,0.023234553627277003,0.0,0.18098777239697736, ,1.5995099544525146
0.014628411825732273,0.036658548618845516,-0.09080733932155008, ,0.015126203387788278,0.0377789601202793,-0.09111513482870023, ,0.0012640634659783058, ,0.00984167497676891,0.024580207230873247,-0.019615239402241566,-0.024875777008947834,-0.03493130638840144,0.011474323242471598, ,0.0329515215228111, ,0.04288353464897864, ,0.0010242489010826722, ,0.17328268023184956,-0.3766299595430551,0.1055957834,-4.504349675991068,0.14059895825863825,-1.239855347080003, ,0.06856715430525345,-0.15281311040011397,0.028546257204301078,0.023234553627277003,0.0,0.18098777239697736, ,1.6032500267028809
0.01472352012209113,0.03691090586946682,-0.09100322489594549, ,0.01516257729495344,0.03787665688137151,-0.09118834143934522, ,0.0010769003448216773, ,0.009397107527188297,0.025001450352756426,-0.01892245152646613,-0.0004840554842840296,-0.007231236646791172,-0.02222776163004277, ,0.03273281719299981, ,0.007247252387969533, ,0.0010245842605969334, ,0.17397000345765554,-0.37820539704939693,0.10588355978000001,-4.503720606160614,0.14100886775793453,-1.2383926685079998, ,0.06580925212099221,-0.15789840525535903,0.02804368225352113,0.06578903123125,0.011773411336989153,0.16999998274302086, ,1.6071150302886963
0.01472352012209113,0.03691090586946682,-0.09100322489594549, ,0.01519902150847406,0.03797406175038803,-0.09126166910348335, ,0.0011929775370891622, ,0.009397107527188297,0.025001450352756426,-0.01892245152646613,-0.0004840554842840296,-0.007231236646791172,-0.02222776163004277, ,0.03273281719299981, ,0.007247252387969533, ,0.001025650040827897, ,0.17397000345765554,-0.37820539704939693,0.10588355978000001,-4.503720606160614,0.14100886775793453,-1.2383926685079998, ,0.06580925212099221,-0.15789840525535903,0.02804368225352113,0.06578903123125,0.011773411336989153,0.16999998274302086, ,1.6106698513031006
0.01472352012209113,0.03691090586946682,-0.09100322489594549, ,0.015235536132642854,0.03807117526350891,-0.09133511832918272, ,0.001310930475974257, ,0.009397107527188297,0.025001450352756426,-0.01892245152646613,-0.0004840554842840296,-0.007231236646791172,-0.02222776163004277, ,0.03273281719299981, ,0.007247252387969533, ,0.0010274442574011444, ,0.17397000345765554,-0.37820539704939693,0.10588355978000001,-4.503720606160614,0.14100886775793453,-1.2383926685079998, ,0.06580925212099221,-0.15789840525535903,0.02804368225352113,0.06578903123125,0.011773411336989153,0.16999998274302086, ,1.6142480373382568
0.014817103549085513,0.03715481600959204,-0.09118726344271699, ,0.015272121271271774,0.03816799795429097,-0.09140868961944446, ,0.0011325229941628605, ,0.009493646317953248,0.02484797380016065,-0.018069037558688168,0.01219576518400385,0.0024489548836592132,0.001996017544497047, ,0.03215651163732069, ,0.012439137524848454, ,0.0010281009995059052, ,0.17461099028621616,-0.3796958844941222,0.10614800294000001,-4.50309153633016,0.14114550425769998,-1.2367888328687444, ,0.06993142340344198,-0.15789840525535903,0.027275362191780828,0.04948459667375126,0.03637132228564016,0.15640303094424926, ,1.617866039276123
0.014817103549085513,0.03715481600959204,-0.09118726344271699, ,0.015308777027692157,0.03826453035367781,-0.09148238347221539, ,0.00124912151804618, ,0.009493646317953248,0.02484797380016065,-0.018069037558688168,0.01219576518400385,0.0024489548836592132,0.001996017544497047, ,0.03215651163732069, ,0.012439137524848454, ,0.0010294737977577081, ,0.17461099028621616,-0.3796958844941222,0.10614800294000001,-4.50309153633016,0.14114550425769998,-1.2367888328687444, ,0.06993142340344198,-0.15789840525535903,0.027275362191780828,0.04948459667375126,0.03637132228564016,0.15640303094424926, ,1.6214678287506104
0.014817103549085513,0.03715481600959204,-0.09118726344271699, ,0.01534550350475472,0.038360772990010346,-0.09155620038039916, ,0.0013673526303617323, ,0.009493646317953248,0.02484797380016065,-0.018069037558688168,0.01219576518400385,0.0024489548836592132,0.001996017544497047, ,0.03215651163732069, ,0.012439137524848454, ,0.0010315594695639058, ,0.17461099028621616,-0.3796958844941222,0.10614800294000001,-4.50309153633016,0.14114550425769998,-1.2367888328687444, ,0.06993142340344198,-0.15789840525535903,0.027275362191780828,0.04948459667375126,0.03637132228564016,0.15640303094424926, ,1.6252720355987549
0.014916703632664627,0.03740976695676252,-0.09137700600436029, ,0.015382300804829632,0.038456726389036335,-0.09163014083186752, ,0.0011734487719761233, ,0.01013251469153097,0.026234314425072888,-0.020107868165729383,-0.016223732521773563,-0.015144479642385147,0.02440582697224707, ,0.03457214875442415, ,0.02219372599060963, ,0.001032429956081772, ,0.17533692717639326,-0.3813562720620805,0.10644096448000001,-4.502881846386677,0.14114550425769998,-1.2347468643652304, ,0.07221989464114975,-0.1630531641898123,0.02977347947663552,0.02246099188856983,0.02524714536019951,0.1858945157612361, ,1.6303348541259766
