NicholasDascanio/dvrk_moveit_final/test/execution/noob_justexecution/yes_ramp/noob_400vel4.csv
Current Position (x),Current Position (y),Current Position (z), ,Planned Position (x),Planned Position (y),Planned Position (z), ,Position Error,,Cartesian linear Velocity(x),Cartesian linear Velocity(y),Cartesian linear Velocity(z),Cartesian Angular Velocity(x),Cartesian Angular Velocity(y),Cartesian Angular Velocity(z), ,Total Linear Velocity, ,Total Angular Velocity, ,MSE, ,Joint 1 Position,Joint 2 Position,Joint 3 Position,Joint 4 Position,Joint 5 Position,Joint 6 Position, ,Joint 1 Velocity,Joint 2 Velocity,Joint 3 Velocity,Joint 4 Velocity,Joint 5 Velocity,Joint 6 Velocity, ,Time Stamp
0.009920068496411836,0.018759643531556465,-0.08062924367973417, ,0.01018357021281864,0.018690586035393066,-0.08079203919376715, ,0.00031733967875913503, ,0.0004279359211616551,0.00010073821292850811,0.00043688020072890247,0.3074449407898936,-0.08423296677252749,-0.023190500781617027, ,0.0006197916181697118, ,0.31877513125807494, ,2.6444973229927918e-05, ,0.13937988291400394,-0.2240596488798757,0.08997160003000002,-4.537900066948591,0.1543992447349477,-1.3870219789472369, ,0.0013767445124241466,-0.0030113083827276494,-0.0004015896348859614,-0.0026591948324382023,-0.04215616202732269,-0.3139948201826308, ,0.02868199348449707
0.009986772213215395,0.01877445513013802,-0.08067259493420467, ,0.010204223223563638,0.018803546324496274,-0.08084014136342814, ,0.0002760489910073859, ,0.0023052176148670904,0.0009973671164927914,-0.003181255645119294,0.07234638955419471,-0.20762182867894152,-0.019215108110036835, ,0.004053289638868414, ,0.219865467559572, ,2.6972212262114588e-05, ,0.13941849657837507,-0.22421410353736018,0.09001697018,-4.537900066948591,0.147977329245972,-1.3944455421952924, ,0.0016600766075934483,-0.0065387660729589354,0.0033456860995589163,-0.031968907471597426,-0.19328612627117042,-0.09854766958622585, ,0.057376861572265625
0.010016005662067083,0.018804199138390924,-0.08073695070341727, ,0.010224903170999973,0.018916279097760454,-0.08088822617065589, ,0.0002812194045916882, ,0.0015034879185598514,0.001943928200926336,-0.0041523496053995105,0.1992064012826922,-0.10568272716711091,-0.04821343276816842, ,0.004825074094464624, ,0.22550394482634792, ,2.7331502323694033e-05, ,0.13946483297562043,-0.22456934924957453,0.09011808080000001,-4.538109756892076,0.1449713262511323,-1.3995904711470435, ,0.0035012315159377097,-0.015978606088309612,0.0022758696270895845,0.017693175349446946,-0.1053366629506712,-0.02994581136036445, ,0.08524894714355469
0.010055040198509136,0.018890910686278618,-0.08082965118628624, ,0.010245610126801476,0.01902878478212281,-0.08093629423525153, ,0.00025826130907825813, ,6.219462676855633e-05,0.0028007069332981463,-0.0015350760749784156,-0.11218484709084857,0.05779940796650948,0.02010858277222712, ,0.0031944148218092036, ,0.1261990946008233, ,2.6973080558011123e-05, ,0.13953433757148845,-0.22521033607813515,0.09019845078000001,-4.537900066948591,0.14387823425300877,-1.394451833430163, ,0.0027413865603020033,-0.027788269856067582,0.0021736915283842796,0.0,0.04230159118327736,0.14716165937985537, ,0.11607789993286133
0.010053817416088903,0.018948273375661098,-0.08085377677238931, ,0.010266344162504718,0.019141063803251195,-0.08098434617480656, ,0.00031525249524795584, ,-0.00015867695611277425,0.003034987974944367,-0.0008850837603965592,0.005309329875212199,0.060529247797577186,0.012490414916881593, ,0.003165391547245907, ,0.06076165585847526, ,2.7848497667008137e-05, ,0.1396115649002307,-0.225789541043702,0.09023604319,-4.537690377005107,0.14510796275089774,-1.3925958386585109, ,0.002980068543458834,-0.031855300959540374,0.0015935905414174365,0.008099348584842753,0.05919834810183259,0.03607113189887015, ,0.1444988250732422
0.010070048164835692,0.01905876905760697,-0.08090073338209886, ,0.010287105349510967,0.019253116585547226,-0.08103238260470348, ,0.0003197128412310758, ,0.0007687439728548328,0.0037574481049483365,-0.001854396211648784,0.035458087614416114,-0.007750873508727389,0.0005044198342141463, ,0.004260066767899048, ,0.03629534429369658, ,2.851346322444353e-05, ,0.1397428513590925,-0.22694022824196144,0.09030863543,-4.537480687061622,0.14524459925066321,-1.3926255778220669, ,0.005782133684538048,-0.03852900591086918,0.002735969000343525,0.004290474995373351,-0.003454968232542278,0.0028172949282835426, ,0.17259693145751953
0.010093814710056298,0.019185851690623566,-0.08096601329549406, ,0.010307893759083859,0.019364943552147934,-0.08108040413812105, ,0.000301643828005349, ,0.0007084490299288532,0.0040600867614664846,-0.0018797329712130829,0.03426917859078505,-0.004397550764353558,0.006152390106546748, ,0.004529856574076944, ,0.03455018167808555, ,2.8742757610011778e-05, ,0.13988958328370277,-0.22823764736483115,0.0904032646,-4.537270997118139,0.1449713262511323,-1.3920760270541117, ,0.005386240813691761,-0.04191561022900653,0.0028307822143237966,0.0,0.0,0.007310658833069306, ,0.2016439437866211
0.01011080947813226,0.019284042066733613,-0.08100498626690321, ,0.01032870946235126,0.019476545124928586,-0.08112841138603544, ,0.0003158664125383745, ,0.0007027798368875907,0.003961205978237824,-0.0014590779345937412,0.01002352062029981,0.001177881691917472,-0.00543714070555468, ,0.004279481361144265, ,0.010092490817390769, ,2.9089572688527106e-05, ,0.1400285924754388,-0.22926477083710303,0.09046548652000001,-4.537061307174653,0.1449713262511323,-1.3914225971329872, ,0.005957161087160188,-0.04163972863469539,0.0024043489086792453,0.013032839293258968,-0.0003404072278545225,0.033267450459292414, ,0.23002982139587402
0.01012289599951284,0.0193626676897367,-0.08102784283077813, ,0.010349552530303627,0.01958792172450432,-0.08117640495722406, ,0.0003523964649983639, ,0.00046829753212805354,0.0038692362362850847,-0.0010106515373759781,0.011667319509603591,0.0028535933944096436,-0.0034219879463259343, ,0.0040263765547672295, ,0.01201121724883621, ,3.008507060942403e-05, ,0.1401212652699295,-0.2301142714532677,0.0905069678,-4.537061307174653,0.14483468975136687,-1.3906577493081662, ,0.003919726595181674,-0.041841684990507395,0.0019252403288708103,0.01098790272425799,0.0,0.03157626789294919, ,0.2574758529663086
0.010141617357521546,0.019492551972347012,-0.08107928964271685, ,0.010370423033796166,0.019699073770233704,-0.08122438545826671, ,0.00034067005472732305, ,0.0008288585175477085,0.003946276001159611,-0.0021973113073322052,-0.002354237213287339,-0.004153343989559529,0.00344898487652555, ,0.004592197480593538, ,0.00477416999077484, ,3.07841148018491e-05, ,0.14022938353016864,-0.23147347243913122,0.09058863407000001,-4.536641927287684,0.144561416751836,-1.3893730898789463, ,0.005751294629728366,-0.03954039231602949,0.0031312780656575587,0.00271610042306541,-0.004859567818726002,0.04160799584095917, ,0.28523993492126465
0.010161417694344095,0.019622253951298387,-0.08115181072094109, ,0.010391321043546328,0.019810001680219673,-0.08127235349355101, ,0.00032036747606146304, ,0.00042923993412508803,0.0036533148168875354,-0.0015679128838551719,0.03492714929793644,-0.0024421021062316695,-0.006458327284067228, ,0.00399866313706178, ,0.03501242094983047, ,3.118145831418691e-05, ,0.14032977905753358,-0.23277089156200095,0.09069104098000001,-4.5364322373442,0.14442478025207056,-1.3884448845738442, ,0.0020923084038040546,-0.03774739123248639,0.0024130906711104377,0.011402725961116194,-0.003608944842612823,0.003525775911880384, ,0.314769983291626
0.010175119983503237,0.01969353294641129,-0.08117766068452066, ,0.01041224663013493,0.01992070587131257,-0.08132030966527308, ,0.00035802976979672983, ,0.0007575784245144839,0.0034464978890521164,-0.0010895352960482586,-0.002983980146066445,-0.01165629074427714,-0.006195383559882777, ,0.003693150407154508, ,0.012032175672990496, ,3.183736208511104e-05, ,0.14040700638627582,-0.23352771938367495,0.09073381855000001,-4.5364322373442,0.14401487075277425,-1.3877839159021925, ,0.00575533676506702,-0.03672482258454752,0.0019330874637668565,0.009805808737651142,-0.014052326922760676,0.03908854779805154, ,0.34041500091552734
0.010192821196152895,0.01980435327082622,-0.0812250838921603, ,0.0104331998640071,0.020031186759112782,-0.08136825457344028, ,0.00036018492381801335, ,0.0007357704182371405,0.003716064635788501,-0.002063257081406987,-0.018181280349868822,-0.006178464321691766,-0.010348659256741284, ,0.004313643966495944, ,0.019202405487270424, ,3.2417272833552095e-05, ,0.14053829284513764,-0.23466296111618595,0.09080770708000001,-4.5358031675137465,0.14401487075277425,-1.386803771020506, ,0.0038169087251351797,-0.037040180155531136,0.00293672778761062,0.014900305583990844,-0.013947510665771537,0.05546955353147937, ,0.3666388988494873
0.010216535231563566,0.019896824805013136,-0.08128436115750098, ,0.010454180815470629,0.020141444757972405,-0.08141618881587552, ,0.00036564036490633424, ,0.0012181318128529424,0.0039924224006882255,-0.002651328783049653,0.024634282132601625,-0.015821450022875466,0.009223779652983382, ,0.004944979884168295, ,0.029277399763024514, ,3.296054422623125e-05, ,0.14070819296837056,-0.235558798129596,0.09088937335000001,-4.535593477570262,0.14387823425300877,-1.3858755657154038, ,0.009433615783792117,-0.038560317577598854,0.0036383763179534036,-0.00529994191826636,-0.007074696848482568,0.011939162640689392, ,0.39345598220825195
0.010241834359860074,0.019987567398851977,-0.08133319853150459, ,0.010475189554696855,0.020251480280998005,-0.08146411298821846, ,0.0003758234310106588, ,0.0006971124320515424,0.00363587142356106,-0.0010874035465400504,0.018027565081105274,-0.004732935646894359,-0.009746040498473961, ,0.003858493647087763, ,0.018638502691729536, ,3.350660307433178e-05, ,0.14090126129022618,-0.2364700806087545,0.0909606693,-4.5358031675137465,0.1436049612534779,-1.3848359425066055, ,0.005914494221185858,-0.03852900591086918,0.00198785151857756,0.015214330579407652,-0.005551884684613903,0.02162904898582076, ,0.4199099540710449
0.010272628483683802,0.02010965154754285,-0.08137907263247118, ,0.010496226151720568,0.020361293740052796,-0.08151202768392968, ,0.0003619347398510163, ,0.0009757694988223599,0.003892067933174195,-0.0017243400481656368,-0.0033415799466059853,-0.008471532155905376,-0.014525498359545065, ,0.004367341011757927, ,0.009106756480375079, ,3.389865055603327e-05, ,0.14114838874220137,-0.2377366088001273,0.09103715041,-4.535174097683293,0.1431950517541816,-1.3836849013941106, ,0.008191742490256565,-0.03975573588540879,0.0027020884681933843,0.019546334584016223,-0.016601157403295524,0.049049327318102756, ,0.44600391387939453
0.010290877936868486,0.020189936519685536,-0.08142163058822746, ,0.010517290676439655,0.02047088554575896,-0.08155993349429214, ,0.00038642305536505114, ,0.0010322685745964774,0.004177068281710869,-0.002439972608140373,-0.00306958818155937,-0.02183189287271682,0.03843598663282196, ,0.004946407198022598, ,0.022046630534475573, ,3.460997062342084e-05, ,0.1412796752010632,-0.23853205028617244,0.09109937233000001,-4.534754717796323,0.14305841525441615,-1.3830017323094301, ,0.0070565747960761845,-0.04165800770784494,0.0034605282467955684,-0.03545115270370184,-0.012122496677012436,0.03812588404125109, ,0.46869993209838867
0.010320964072713261,0.02032224973994421,-0.0815036684144172, ,0.010538383198615577,0.02058025610750011,-0.0816078310084148, ,0.00035311217480544024, ,0.0010824842052442963,0.0045400189902765386,-0.002864685484790055,-0.0016657738949373763,-0.010334919768280102,0.00550479119849054, ,0.005476309652808341, ,0.010468303066539408, ,3.505839656352715e-05, ,0.1414727435229188,-0.23982174667616793,0.09121344585,-4.534964407739808,0.14278514225488526,-1.3813903579196478, ,0.007083093807922328,-0.04393376924003276,0.003970292003988036,0.0,-0.009688234235846338,0.04423424188119382, ,0.49416184425354004
0.010336303073751408,0.02040960437058691,-0.08154316559684942, ,0.010559503787872817,0.02068940583342345,-0.08165572081323534, ,0.0003752014047487783, ,0.0007703094088478166,0.004152393762735887,-0.0015225811080747883,-0.003845830701860084,-0.002515031767146146,-0.00848382792770917, ,0.0044893210819492105, ,0.004595192984950805, ,3.559061135139547e-05, ,0.14158858451603215,-0.24070213822382952,0.09127437148,-4.534545027852839,0.14278514225488526,-1.3804918917781015, ,0.005851192074600886,-0.04299816110488028,0.002552694153846154,0.01525179637391592,-0.0071464768727342,0.04797567057436914, ,0.5176548957824707
0.010352311667311535,0.020507362337599033,-0.08157871094133182, ,0.010580652513699013,0.02079833513044216,-0.08170360349352301, ,0.00039038808626379827, ,0.0007920261427838277,0.004431743759040671,-0.0019755473269005746,0.015661926725802036,-0.00806169759497892,0.02893429262178318, ,0.004916344719145818, ,0.01761496286817517, ,3.6158693047377376e-05, ,0.14170442550914553,-0.24171381623035293,0.09133400082000001,-4.534125647965871,0.1426485057551198,-1.3794003289927184, ,0.006192433911983418,-0.04529686947898366,0.00307091026026605,-0.022363048980358173,-0.00011742375271770951,0.026365959972922105, ,0.5415070056915283
0.01036852549136892,0.020598696637272297,-0.08162114721379511, ,0.010601829445446007,0.020907044404238045,-0.08175147963188012, ,0.00040803874765106844, ,0.0007960936146491363,0.004676919992029683,-0.0019453418137949396,0.010741737787691913,0.0027498746737751423,-0.009812452568108908, ,0.005127543313091665, ,0.011088135163008179, ,3.677090543537763e-05, ,0.14181254376938468,-0.24264054417525988,0.09139881532000001,-4.534335337909355,0.1425118692553544,-1.378472123687616, ,0.006077966766771938,-0.04751975040484265,0.0031044263340479442,0.018577999925390932,-0.0010009868852758727,0.039103819114197746, ,0.564018964767456
0.010394055242248538,0.020735667043037885,-0.0816830841516537, ,0.010623034652327808,0.021015534059263284,-0.08179934980874726, ,0.0003798352538016361, ,0.0010966792137329768,0.004766129473492328,-0.0023635455603663565,0.0018465884176543572,-0.008255094008800513,0.006928919719614321, ,0.005431854478155113, ,0.008459105496717103, ,3.7195004496360877e-05, ,0.14199788935836605,-0.24402291335974605,0.09149474078000001,-4.534125647965871,0.14237523275558894,-1.3768904884613897, ,0.00845959701984862,-0.04751975040484265,0.003565087627573859,0.0,-0.006164055266184017,0.0447734661826521, ,0.5863728523254395
0.010414902069398033,0.02084495598231277,-0.08173347662190067, ,0.01064426820342197,0.021123804498743123,-0.08184721460240395, ,0.00037855203970056634, ,0.000850432712990074,0.00457330249022194,-0.0017365085130841905,0.01900111757166049,-0.0020642691118846843,-0.014437443887958383, ,0.004965258631975551, ,0.019112919084288412, ,3.758068070459744e-05, ,0.14216006674872478,-0.24509637322926325,0.09157122189000001,-4.533496578135416,0.14237523275558894,-1.375910343579703, ,0.006629789255279685,-0.046862687189368285,0.0028972010767551837,0.02182133952528329,-0.00504847194655138,0.030479464308549097, ,0.6114649772644043
0.01043359889662585,0.02093654408167782,-0.08176985837477578, ,0.010665530167669635,0.02123185612467824,-0.08189507458897209, ,0.0003958287729899439, ,0.0008390440719170009,0.004470294193889311,-0.002074563315741147,0.006385642371202451,-0.009340563638564009,0.03611568582963237, ,0.004999133733514083, ,0.011314705366934371, ,3.8017301472272505e-05, ,0.14230679867333504,-0.2460462693727929,0.09163214752000001,-4.533286888191932,0.1422385962558235,-1.3748187807943197, ,0.006554260516242968,-0.045232097978298746,0.003197914378638828,-0.029565341346353507,-0.00032690493175166,0.03462847400794252, ,0.6343228816986084
0.01045344993221589,0.0210274874013406,-0.08181410596397419, ,0.010686820613874728,0.021339689337846957,-0.0819429303424193, ,0.0004105211866615397, ,0.0009075281733991195,0.004704627288117755,-0.002357508345035893,-0.010874093513270046,-0.004636408577474242,0.028285765489308824, ,0.005339941095417555, ,0.011821260261063362, ,3.865907958940864e-05, ,0.14246897606369374,-0.24694982911907715,0.09169955460000001,-4.533286888191932,0.1422385962558235,-1.3739203146527736, ,0.006855357563810422,-0.046862687189368285,0.0035397358933333335,-0.02031106247441631,-0.00032690493175166,0.05497776398053511, ,0.6545660495758057
0.010474208859665919,0.021122561838852392,-0.08186535413487274, ,0.010708139610704371,0.02144730453780758,-0.0819907824345611, ,0.0004194206422779236, ,0.0008945647405736788,0.004775259419698278,-0.0024928868852015073,-0.03342513642484869,0.0006144069189179904,0.008698927863877257, ,0.005460570814750456, ,0.03343078283237601, ,3.9300489439202024e-05, ,0.14261570798830403,-0.24788427979685831,0.09177473942000001,-4.533496578135416,0.14210195975605808,-1.3726653943871094, ,0.005948784025652018,-0.046978683939837014,0.0036846660929909783,0.0,-0.004539576123549541,0.08009279417696932, ,0.6748418807983398
0.01049195174062802,0.02120390514829827,-0.08190681050068571, ,0.010729487226689777,0.02155470212290091,-0.0820386314350633, ,0.00044368725840296733, ,0.0008643181876450917,0.00489879054355038,-0.0024953265410175003,-0.03878189009807029,0.011145946852083151,-0.023646684080632602, ,0.005565235778058203, ,0.040351792162325546, ,4.000586112258509e-05, ,0.14275471718004007,-0.24867199855002922,0.09183696134000001,-4.5326578183614785,0.14210195975605808,-1.371603570765282, ,0.005484911104860492,-0.047807023455149006,0.0037173422450408407,0.034337163497896644,-0.004482144658886594,0.09112907449349898, ,0.6962950229644775
0.010515075173146517,0.021314566171062872,-0.08196418956661196, ,0.010750863530223661,0.02166188249025207,-0.08208647791144605, ,0.00043724045351560504, ,0.000985120330263287,0.004751574428886723,-0.0022343361760102758,0.013711490784564016,-0.015088696693390694,0.03704391484053164, ,0.005342300980455561, ,0.020388078560390082, ,4.0644883178103424e-05, ,0.14293234003614722,-0.24975318115242065,0.09192251648000001,-4.532448128417994,0.14210195975605808,-1.3704600684033141, ,0.007624713254852349,-0.047710880622660025,0.003450034983755686,-0.03138379879266011,-0.003839740251333865,0.02892906600446892, ,0.715817928314209
0.010537739773304172,0.021408608456476828,-0.08200205353688264, ,0.010772268589563164,0.02176884603577355,-0.08213432242908529, ,0.0004497443040639, ,0.001133853561342122,0.0046586126358124326,-0.001777838255748158,0.004564465811641681,-0.017316949473466313,0.02543678728327068, ,0.0051136097282371016, ,0.01790840828199062, ,4.1297966663546804e-05, ,0.14309451742650595,-0.2507108000288245,0.09198473840000002,-4.532448128417994,0.14169205025676176,-1.3696357422513814, ,0.009664519892039437,-0.04775890365297976,0.0030054361358490566,-0.020132107575854923,-0.008396651353712401,0.03912831243570112, ,0.7376270294189453
0.010549332541345607,0.021451427363748464,-0.08202075087617375, ,0.010793702472827788,0.021875593154166928,-0.08218216555121713, ,0.000515449297694047, ,0.0010671630083940427,0.0046706708408459086,-0.002147415414338152,-0.02691091379928129,-0.025676644815870536,0.019176661448940067, ,0.005250275797684342, ,0.03719526005376296, ,4.2168595629120726e-05, ,0.1431717447552482,-0.25114327306978107,0.09201455307,-4.532448128417994,0.14141877725723084,-1.369004512743286, ,0.006381316298159051,-0.04709525635656118,0.0033372745694531746,-0.0172872680087318,-0.025514609567316916,0.06819910106747917, ,0.757889986038208
0.010583141214186314,0.02160822415565647,-0.08209814239019805, ,0.010815165248001003,0.021982124238925593,-0.08223000783893786, ,0.0004593744889604212, ,0.0013247341082516038,0.005154129601517345,-0.0027879605670168175,-0.04207939325776937,-0.00912408819543107,-0.003956126861578148, ,0.006007719744632172, ,0.0430572214868955, ,4.278355562745996e-05, ,0.14351926773458829,-0.2531743518157021,0.09217658932000002,-4.531819058587541,0.14141877725723084,-1.3667991867594909, ,0.0070130928294631755,-0.049322734697749886,0.0046358589988358566,0.03197840346225895,-0.0134793534653258,0.05220206301096798, ,0.7794070243835449
0.010605728832777004,0.021711384853420203,-0.08215987995350844, ,0.010836656982928825,0.022088439682337053,-0.08227784985120984, ,0.0004576188930821529, ,0.0013205313260975036,0.005298378766469104,-0.0030653414283124463,-0.01402916297182379,-0.003166936618580807,-0.023962489423999582, ,0.006262023523455024, ,0.014382173026544296, ,4.336068702778819e-05, ,0.14360421779620475,-0.253653161253904,0.09222066318000001,-4.531819058587541,0.14141877725723084,-1.366227435578507, ,0.009129115699100862,-0.05023660220141386,0.004434524365256124,0.03197840346225895,-0.011812857277769036,0.06718126033329479, ,0.798832893371582
0.010625186306487153,0.021810208260462823,-0.08219605706736183, ,0.010858177745320009,0.022194539875484826,-0.0823256921448629, ,0.00046776174939122206, ,0.0010904723216694882,0.00501283869688364,-0.0015072800144250462,-0.014687984222373881,-0.005116171217734973,-0.007948787056922377, ,0.005346921986263357, ,0.01555352334482782, ,4.410210712501852e-05, ,0.1437741179194377,-0.2546571165275532,0.0922828851,-4.531819058587541,0.14141877725723084,-1.36524729069682, ,0.009356100943737603,-0.051743152431009146,0.0028459552474539933,0.016154310513116263,-0.009499236213409756,0.06747212060000679, ,0.8157229423522949
0.010648649479313746,0.02192618442856731,-0.08224192216416157, ,0.010879727602746934,0.02230042520825133,-0.08237353527459652, ,0.00045910268039543267, ,0.001101679237213725,0.005564247675271701,-0.0026525409332616556,0.011515497374303161,-0.006490658978556401,-0.0028953326045627276, ,0.006261830621799264, ,0.01321874932140647, ,4.4782142221680477e-05, ,0.14397490897416754,-0.25582324919156113,0.09235936621000002,-4.531819058587541,0.14141877725723084,-1.3641037883348521, ,0.007694445403892305,-0.054569834133680724,0.004093757779491134,0.010780428690913526,-0.007807052423514722,0.043316480332656455, ,0.8329188823699951
0.010675795610244614,0.022041685458109115,-0.08231333317875328, ,0.010901306622644614,0.02240609606931988,-0.08242137979298367, ,0.00044195517999377174, ,0.0011433592695882602,0.005999446460027103,-0.0038785100631909607,-0.005211195744208994,-0.0010302398459196055,0.007346238735074501, ,0.00723487861379572, ,0.005312057449512929, ,4.537550635409037e-05, ,0.14413708636452624,-0.2568272044652103,0.09245140280000001,-4.531609368644055,0.14114550425769998,-1.3627374501654914, ,0.006767065188887349,-0.05514058196308587,0.005406928553971487,0.0,-0.0035826413986323846,0.05635747277621192, ,0.850639820098877
0.01068879938140917,0.0220990338558509,-0.08234901652470303, ,0.01092291487231219,0.022511552846177372,-0.08246922625047241, ,0.0004893182590403546, ,0.0014801705436306525,0.00593967896800343,-0.0037781024219278223,0.00216807116621654,-0.0011578142578132643,-0.010061525242318957, ,0.007193382305407591, ,0.0024578579429234025, ,4.6103913135687055e-05, ,0.14423748189189117,-0.257437300362274,0.09251103214,-4.531189988757087,0.14114550425769998,-1.3620023415042264, ,0.010695653899055831,-0.05494901074607457,0.0053291440347942465,0.020109858877317352,-0.003275448857349226,0.055100482491741744, ,0.867218017578125
0.010717982312865165,0.02222898606556944,-0.08242541238677462, ,0.010944552418909854,0.022616795925115903,-0.08251707519539059, ,0.00045840219305530813, ,0.0013170185025867785,0.005892741959680571,-0.002969369441766046,-0.006270902296648236,0.002529217714860589,-0.004410288120018428, ,0.00672875177289443, ,0.006761742203931423, ,4.670186943253306e-05, ,0.144438272946621,-0.25866521488927574,0.09262121679000002,-4.531189988757087,0.14100886775793453,-1.3605023850181404, ,0.01050202629577217,-0.05672261898294727,0.004531667573257468,0.0158543530442226,6.58392146412451e-05,0.06528095065211065, ,0.8844199180603027
0.010727661039125517,0.022278388237339023,-0.08244735070638215, ,0.01096621932946245,0.02272182569123599,-0.08256492717394669, ,0.0005170793547726107, ,0.0010762125747492302,0.00597858666670336,-0.0025791396648035536,0.010468740575455583,0.002264156268802168,-0.0032394692916056576, ,0.0065995222136071745, ,0.010710785812984168, ,4.7465960200847294e-05, ,0.14451550027536325,-0.2591517470603519,0.09265621662000001,-4.531189988757087,0.14100886775793453,-1.3600123125772972, ,0.00830611143639049,-0.058905612388870744,0.0041524534723670495,0.014338513464534457,2.941966530080904e-05,0.05033325178267474, ,0.9027018547058105
0.010756126447659905,0.02242243850655624,-0.08251288566442244, ,0.010987915670856958,0.022826642528448224,-0.08261278273023345, ,0.0004765359997540555, ,0.0011615980001703466,0.005888504132015527,-0.0024769709371469397,-0.013437721602583113,0.003953217722737427,-0.0016605982951153199, ,0.006493009768222613, ,0.01400715146411481, ,4.807273310764784e-05, ,0.14473945952871575,-0.2605572844434607,0.09275991982000001,-4.530770608870118,0.14100886775793453,-1.3583787377744858, ,0.009473762213330052,-0.05804094284921761,0.0040490115709201835,0.013501770667765069,-9.334477480401736e-05,0.07348681395729316, ,0.9196209907531738
0.010780206171053996,0.02254639603966363,-0.08257075651373169, ,0.011009641509843389,0.022931246819475996,-0.08266064240623089, ,0.0004569793989645126, ,0.001332961857829372,0.006179412478154373,-0.003164673047798278,0.005338353832564362,0.0009589371536445507,-0.0033142863198302986, ,0.00706944703559329, ,0.00542379772750305, ,4.859615857447587e-05, ,0.14492480511769715,-0.26176203077183974,0.09285066012000001,-4.530560918926633,0.14100886775793453,-1.3573169141526584, ,0.010295634208639328,-0.059052234946154816,0.004810876327393537,0.01465067799060372,-0.00014861013163923874,0.05568310952006741, ,0.9364769458770752
0.010792145534443472,0.02260540515666125,-0.0825991131816845, ,0.01103139691303518,0.023035638945857598,-0.08270850674180805, ,0.0005042908749132635, ,0.0012789954699341528,0.006096588105811306,-0.0029089994634879384,0.030132325377406736,-0.0027288419866613894,-0.002859816702324539, ,0.0068750631868081825, ,0.03025563767349421, ,4.924467663382468e-05, ,0.14501747791218783,-0.2623335130045324,0.09289473398,-4.530560918926633,0.14100886775793453,-1.3569901991920963, ,0.010093258523626619,-0.05886907044570147,0.00454071023945268,0.013096845591757044,-0.00016558401414301128,0.03022981150606035, ,0.9541158676147461
0.010824023884470398,0.02274284924573352,-0.08266186789785661, ,0.011053181946908018,0.02313981928794872,-0.08275637627472716, ,0.00046800690731570253, ,0.0014708139929056454,0.0060898782339957325,-0.0027425295976241,-0.013551813404395546,-0.0031300249405752036,-0.0069188835509262575, ,0.0068389603961761785, ,0.013908583771219335, ,4.9910693222853444e-05, ,0.1452568826312888,-0.2636695457917732,0.09299454831000001,-4.530141539039664,0.14073559475840366,-1.355542182282595, ,0.011992536529567898,-0.059125820285651574,0.004403873795963506,0.01745766436664715,-0.006165172461065564,0.07437387142912587, ,0.9691970348358154
0.010837226240502602,0.02280353644711528,-0.0826894954123856, ,0.011074996677801326,0.023243788224924688,-0.08280425154064502, ,0.0005133472291642982, ,0.0013189095251137186,0.0062008573826631466,-0.0028258420801403243,0.01793828286448748,-0.005723787123664763,-0.00623087937823295, ,0.006940860038745597, ,0.018829331665866478, ,5.0691148143119814e-05, ,0.14536500089152796,-0.26425647349021425,0.09303862217000002,-4.5299318490961795,0.14073559475840366,-1.3550521098417516, ,0.010061031173643884,-0.06013747880764941,0.00449712352343309,0.01567223907645569,-0.005988837902760609,0.04334524388235114, ,0.984583854675293
0.010852993255270869,0.022874796852585012,-0.08272603030130735, ,0.011096841171916592,0.023347546134782807,-0.08285213307311741, ,0.0005466768692099294, ,0.0015502523536972226,0.006421863083586299,-0.0035852480719764128,0.019923149679799877,-0.007543586054884087,-0.004566278558062126, ,0.00751648931098042, ,0.021303464111237343, ,5.154602023785547e-05, ,0.14548856461751553,-0.264936073983146,0.09309436264000001,-4.5299318490961795,0.14073559475840366,-1.3544803586607677, ,0.011522842814962264,-0.06017561290962003,0.00531491875875876,0.013968298218111762,-0.005592518582357061,0.04119453284401, ,0.9995629787445068
0.010877653694634766,0.02299100103571114,-0.08277871118834723, ,0.011118715495318461,0.02345109339434454,-0.08290002140360003, ,0.0005333966053007755, ,0.0013873356923520888,0.006369931298657686,-0.002384546679480624,0.03155542897722244,-0.00921352271261946,-0.0015288127753236194, ,0.006941670399803992, ,0.03287299953815272, ,5.2338165364612655e-05, ,0.14568935567224536,-0.2660635929827828,0.09317862149000002,-4.5299318490961795,0.14073559475840366,-1.3533368562988, ,0.011731603604706488,-0.06318038718939466,0.0041395040332640335,0.01104610084304862,-0.005025715470526503,0.03211462745598224, ,1.0137839317321777
0.01090699162445651,0.02312259547926083,-0.08284009144903028, ,0.011140619713934412,0.02355443037925828,-0.08294791706145299, ,0.0005026826312329017, ,0.0014577894153513112,0.006714216318717223,-0.0032920839151756205,-0.02038252502211042,0.006177620653688503,-0.008389484799737114, ,0.007618639462436651, ,0.021298129561798464, ,5.302086169438556e-05, ,0.1459133149255979,-0.2673223984412814,0.09327584324,-4.529093089322242,0.14059895825863825,-1.3516735423324326, ,0.011450869053714022,-0.06386066053732892,0.00512015799421408,0.022068760114288256,-0.00020654586069940504,0.08752409493944886, ,1.0283048152923584
0.010919225840193444,0.023180663447860933,-0.08286973491688934, ,0.01116255389355525,0.023657557464001378,-0.08299582057394184, ,0.0005500309419457854, ,0.0014916435886604133,0.006937206283002412,-0.003692249585327616,0.01363042391675076,0.012544138231220886,-0.04486909530650649, ,0.00799890858860581, ,0.018524142609797123, ,5.381674614542985e-05, ,0.14600598772008858,-0.2678707124753513,0.09332121339,-4.528883399378757,0.14059895825863825,-1.3511017911514487, ,0.011043348153651296,-0.06451185693981698,0.005569514517482518,0.05924335402566942,-0.00020654586069940504,0.059082018967679444, ,1.04207181930542
0.010938979418684215,0.023265367761312068,-0.08291938455024256, ,0.011184518099832902,0.023760475021882055,-0.08304373246624284, ,0.0005664652219006634, ,0.0014835918806472789,0.006816498731566519,-0.003907496317948445,0.01316937588272623,-0.009755112103665985,0.030036185758567667, ,0.00799588814957733, ,0.016388858178185427, ,5.463597890348361e-05, ,0.14615271964469884,-0.26865070849564804,0.09339380563,-4.528673709435273,0.14059895825863825,-1.3502033250099026, ,0.010779868217769634,-0.06356124685764955,0.005746324502164502,-0.019889783089749143,-0.00020654586069940504,0.047377067583559924, ,1.0559608936309814
0.010968305313014107,0.02339792779424553,-0.08298545260638646, ,0.01120651239828508,0.023863183425042834,-0.08309165326144206, ,0.0005333704121866254, ,0.0014297013491446889,0.007058753518395929,-0.0033686330043994736,0.025568802941643858,-0.00901942679460404,0.022916999357467365, ,0.007950958149779338, ,0.027112981081726478, ,5.534301835367168e-05, ,0.1463844016309256,-0.26990951395414664,0.09349621254000001,-4.528673709435273,0.14059895825863825,-1.3492231801282157, ,0.01103570241718995,-0.06763858984923077,0.00529724360492185,-0.012111170072658384,-0.0002482528052050629,0.04001672402470628, ,1.0735650062561035
0.010985786784861978,0.023475839376939905,-0.08302511708624807, ,0.011228536854288724,0.023965683044461693,-0.08313958348054246, ,0.0005585489864288028, ,0.0017132635490210676,0.007506048440947103,-0.0038913317107130466,0.010186175602845338,-0.007339485618920948,0.011953299701013588, ,0.008626615655577199, ,0.01255492818259385, ,5.624940790478489e-05, ,0.14650796535691318,-0.27065089631007216,0.09355713817000001,-4.528883399378757,0.14046232175887277,-1.3482949748231137, ,0.013194791651622744,-0.07066041813735724,0.005954695895327104,0.0,-0.002471618459816864,0.05997502186685879, ,1.0846049785614014
0.011017602529476938,0.02363200157505162,-0.08309749521962624, ,0.011250591533086936,0.024067974249955222,-0.0831875236424624, ,0.024069469293301445, ,0.001407100650785783,0.007233088383630027,-0.0025016488826912703,-0.0054855208693326595,0.007861222500148866,-0.02537329267484421, ,0.0077817573168993065, ,0.009585914578523647, ,0.00011966555594117401, ,0.14674737007601413,-0.27208732462467794,0.09366991540000001,-4.528044639604819,0.14046232175887277,-1.346988114980865, ,0.012483154638051932,-0.07178286048295822,0.0046521061682242995,0.04020342473049301,-0.002471618459816864,0.08670395359403892, ,1.0998408794403076
0.01102998856900812,0.02369874269879422,-0.08311896406570854, ,0.011272676499782273,0.024170057410180343,-0.08323547426404262, ,0.0005427795272744487, ,0.0012557226540274205,0.0071035916109692815,-0.00221627654141739,-0.031730941679607,0.020557507983806317,-0.049999153964154386, ,0.007546504811322116, ,0.037808250347317184, ,0.00011983428568725229, ,0.1468632110691275,-0.2727978160491066,0.09371269297000001,-4.527834949661335,0.14046232175887277,-1.3462530063195997, ,0.01049982289190273,-0.07029403078405243,0.004202852643799473,0.06714033697779229,-0.002471618459816864,0.1115200829887775, ,1.1111109256744385
0.011047004423486493,0.023791854687720344,-0.08315397977785684, ,0.011294791819343349,0.024271932892637463,-0.08328343586004512, ,0.0005555470759508196, ,0.0015558990413965883,0.008046867276864116,-0.003564713611519291,0.01993300672310923,-0.0133231981077388,0.035433001057523596, ,0.008937565548326695, ,0.02397566191507482, ,0.00012003274905496534, ,0.14700222026086354,-0.2736859303296424,0.09377232231,-4.52762525971785,0.14046232175887277,-1.3451911826977723, ,0.011930167906499364,-0.0778481883170392,0.005760872159132007,-0.02410324193905182,-0.002471618459816864,0.05377518857037897, ,1.1235148906707764
0.011063964935712144,0.02387324539976048,-0.08319772725302303, ,0.011316937556598523,0.024373601063671695,-0.083331408943159, ,0.0005763867899282278, ,0.0019089108207993955,0.008159550366610691,-0.0051665449438233115,-0.005936057889071722,-0.009777003919489258,0.029613409335974547, ,0.009844561410421894, ,0.011437944973762562, ,0.00012028083099751267, ,0.14712578398685114,-0.27446592634993905,0.09383972939000002,-4.52762525971785,0.14046232175887277,-1.3445377527766478, ,0.013263024676236308,-0.0736205908133986,0.00739842615884812,-0.017345517794607516,-0.002471618459816864,0.07674633013644463, ,1.1343178749084473
0.01108388484203936,0.023955773329024585,-0.08325310133923394, ,0.01133911377624053,0.024475062288476093,-0.08337939402400119, ,0.0005922437627256302, ,0.001889257098268839,0.00880147737706723,-0.005636780780491007,0.03367298449388817,-0.012814161138522913,0.025494391915463818, ,0.010621139014705449, ,0.036028774676903665, ,0.0001205643015044912, ,0.14724934771283874,-0.2751995859729904,0.09391750679000001,-4.52762525971785,0.14032568525910732,-1.3438545836919675, ,0.01213236945179792,-0.07908078463205898,0.008024590186397985,-0.013738252327813194,-0.0029501902462869176,0.04262702298736479, ,1.1451919078826904
0.011103119894777615,0.024044510398780656,-0.08330792079315674, ,0.01136132054282458,0.02457631693109386,-0.08342739161112023, ,0.0006031243974568854, ,0.0018703480886750434,0.008468766917723284,-0.0050080872030202825,-0.0018127959177018783,-0.0050224806956388835,0.013520669289295725, ,0.010014946455802459, ,0.005339619670627061, ,0.00012086952168489251, ,0.14738063417170055,-0.27600275019190973,0.09399658048000001,-4.527834949661335,0.14032568525910732,-1.3429561175504214, ,0.01295344547617674,-0.07702673827797953,0.007337084993090743,0.0,-0.002944459475821543,0.07838243347949536, ,1.1566598415374756
0.011124058355629914,0.024133731963272342,-0.08336111596842555, ,0.011383557920768297,0.024677365354420035,-0.08347540221099888, ,0.0006131383477807269, ,0.0019676050953819735,0.008750691237375423,-0.005349689362495051,-0.01497223759504993,-0.0031270550902923375,0.014506339581578967, ,0.010443430624964424, ,0.01529530541567078, ,0.0001211936723374954, ,0.14751192063056237,-0.2767518552807095,0.09406917272000001,-4.527834949661335,0.1401890487593419,-1.341864554765038, ,0.013491177361170142,-0.07862215539227074,0.007758797622990745,0.0,-0.0025212585800389884,0.09359009283163522, ,1.1674559116363525
0.011144110556525009,0.024222120681038323,-0.08341172442661751, ,0.011405825974351498,0.024778207920204534,-0.08352342632805691, ,0.0006246641435817898, ,0.002000656064399184,0.008943488810879394,-0.005101005618061518,-0.013213028762911206,-0.0033214221537435705,0.013427955493045712, ,0.0104885115776185, ,0.013624095227179013, ,0.00012184152128679887, ,0.14766637528804685,-0.2776168013626227,0.0941495427,-4.52762525971785,0.1401890487593419,-1.340966088623492, ,0.014328392202698293,-0.08159668233746413,0.007585148342857144,0.0016133382799967788,-0.0025212585800389884,0.09475344224563381, ,1.1756739616394043
0.011164275848670026,0.024313818973951098,-0.08346265342618651, ,0.011428124767717509,0.02487884498905438,-0.08357146446465374, ,0.0006330169760111788, ,0.00209297096308075,0.009386081313884735,-0.005203612914838251,-0.007517132345991167,-0.001286243523134431,0.0041150985357696875, ,0.010934195775210301, ,0.007626381664504153, ,0.00012250036959258898, ,0.1478131072126571,-0.2784508565130389,0.09422602381,-4.5272058798308805,0.1401890487593419,-1.3399042650016648, ,0.015185940399819298,-0.0858019363096481,0.007823581296660118,0.012074672299033487,-0.0025212585800389884,0.09469901044280002, ,1.1845128536224365
0.011173879186916211,0.024359927755980622,-0.08348740070006641, ,0.01145045436443579,0.024979276920383743,-0.08361951712134097, ,0.0006910441122223872, ,0.0021928040289446505,0.009754024416947952,-0.005508292538776052,-0.0025901319940560227,-0.0021938283172155577,0.0044793710494650165, ,0.011414493792039517, ,0.0033943572824837085, ,0.00012329142828071765, ,0.14788261180852513,-0.2788756068211213,0.09426361622000001,-4.5272058798308805,0.1401890487593419,-1.339495871300962, ,0.015816156926411796,-0.08877169462906527,0.008231943937984496,0.012074672299033487,-0.0025212585800389884,0.09268773249089118, ,1.1964359283447266
0.011173879186916211,0.024359927755980622,-0.08348740070006641, ,0.011472814829246813,0.025079504072625294,-0.08366758479586274, ,0.000799761778349943, ,0.0021928040289446505,0.009754024416947952,-0.005508292538776052,-0.0025901319940560227,-0.0021938283172155577,0.0044793710494650165, ,0.011414493792039517, ,0.0033943572824837085, ,0.00012433484452709578, ,0.14788261180852513,-0.2788756068211213,0.09426361622000001,-4.5272058798308805,0.1401890487593419,-1.339495871300962, ,0.015816156926411796,-0.08877169462906527,0.008231943937984496,0.012074672299033487,-0.0025212585800389884,0.09268773249089118, ,1.2073569297790527
0.011228269813626233,0.024598018050459195,-0.08360115968795741, ,0.011495206225444548,0.02517952680291767,-0.08371566798466758, ,0.0006500150976367498, ,0.0013693343834513913,0.007169711839300926,-0.0007702350778619133,0.059638756712872935,-0.006713030076811521,0.001109209385381872, ,0.0073398301470458446, ,0.06001538198719685, ,0.00012500233986216918, ,0.14829191665085903,-0.28104569475877833,0.09444250424,-4.5272058798308805,0.14005241225957646,-1.3375875211141732, ,0.015159255840011309,-0.07525530654914415,0.0031251346909947036,0.012074672299033487,0.002729914394803263,0.0169973546876971, ,1.2165329456329346
0.011238002555575693,0.024665676594029358,-0.08360836518765279, ,0.01151762861662208,0.025279345467318963,-0.08376376718190144, ,0.000692047686129583, ,0.0015553561196306968,0.00991143398130876,-0.0012441774956915561,0.05962169486177795,-0.011535247720765288,0.00438932967523826, ,0.010109581290315637, ,0.06072732859403086, ,0.00012576081035629136, ,0.14842320310972085,-0.2818179680462008,0.09447231891,-4.5272058798308805,0.1401890487593419,-1.337453902797448, ,0.01542788840163726,-0.10371250443548719,0.004157873014878622,0.01156295013141222,-0.00566782488683656,0.04423651927530574, ,1.226792812347412
0.011267359980985004,0.024788738118410713,-0.0836557419826512, ,0.011540082066235057,0.025378960420755662,-0.08381188287966383, ,0.0006686700843378732, ,0.002727150419115079,0.009898876494400483,-0.006053913605146285,-0.07236938662494626,-0.02163951441702187,-0.007577637509052836, ,0.011919520762113268, ,0.07553540028717497, ,0.00012645294254932937, ,0.14863943963019913,-0.2829995461759572,0.09455528147000002,-4.526576810000427,0.1397791392600456,-1.3359761467243905, ,0.017884836328396304,-0.08819418360452676,0.008859183270300336,0.01803202227643327,-0.03238178221948272,0.15917091155447163, ,1.2349519729614258
0.011267359980985004,0.024788738118410713,-0.0836557419826512, ,0.011562566637601617,0.02547837201702542,-0.08386001556801091, ,0.0007774764188739022, ,0.002727150419115079,0.009898876494400483,-0.006053913605146285,-0.07236938662494626,-0.02163951441702187,-0.007577637509052836, ,0.011919520762113268, ,0.07553540028717497, ,0.00012739189913240934, ,0.14863943963019913,-0.2829995461759572,0.09455528147000002,-4.526576810000427,0.1397791392600456,-1.3359761467243905, ,0.017884836328396304,-0.08819418360452676,0.008859183270300336,0.01803202227643327,-0.03238178221948272,0.15917091155447163, ,1.2432849407196045
0.011294931800391515,0.02489437961350389,-0.0837218780800266, ,0.011585082393902336,0.02557758060879907,-0.0839081657349579, ,0.0007652803782057992, ,0.0030097503549366966,0.010998050213875161,-0.006735987812618212,-0.07486050558342895,-0.03593134090248087,-0.008071812493180138, ,0.013243460179186636, ,0.08303707931634595, ,0.00012859024791161353, ,0.1488170624863063,-0.2839339968537383,0.09465120693000001,-4.526367120056943,0.1395058662605147,-1.334446451074749, ,0.01836241129227376,-0.09803403053561031,0.00984475372064277,0.015579642371918041,-0.047761646541477056,0.16895830333574877, ,1.2490308284759521
0.011319540259101995,0.024999759729461064,-0.0837935373667778, ,0.011607629398180327,0.025676586547623035,-0.08395633386648177, ,0.0007533874130578604, ,0.0029338378318915464,0.011309827549137723,-0.008605438895980663,-0.042770382518886194,-0.020482707087131263,-0.004170659644447989, ,0.014511139934806279, ,0.047422008215989936, ,0.0001297496098677692, ,0.148979239876665,-0.28484527933289683,0.09475231755,-4.526367120056943,0.1395058662605147,-1.3332212699726407, ,0.016127964234954245,-0.09499193349196275,0.011729610839469811,0.015579642371918041,-0.028999086952506335,0.13619408957851298, ,1.2546589374542236
0.011319540259101995,0.024999759729461064,-0.0837935373667778, ,0.011630207713341044,0.025775390183921713,-0.0840045204465242, ,0.0008617602502723606, ,0.0029338378318915464,0.011309827549137723,-0.008605438895980663,-0.042770382518886194,-0.020482707087131263,-0.004170659644447989, ,0.014511139934806279, ,0.047422008215989936, ,0.00013115021691552928, ,0.148979239876665,-0.28484527933289683,0.09475231755,-4.526367120056943,0.1395058662605147,-1.3332212699726407, ,0.016127964234954245,-0.09499193349196275,0.011729610839469811,0.015579642371918041,-0.028999086952506335,0.13619408957851298, ,1.2603609561920166
0.01135069247983079,0.02512460529982895,-0.08389131123235516, ,0.011652817402152455,0.025873991866999686,-0.08405272595699471, ,0.0008239626260178758, ,0.0031711032558139327,0.013159229696978888,-0.010157236754948482,-0.01348444877373826,0.006405046846023565,-0.00514433413043969, ,0.016923081296648112, ,0.014928324611902632, ,0.0001324503608789247, ,0.14915686273277218,-0.2858801255380429,0.09488453913000001,-4.526157430113458,0.13936922976074928,-1.3318846709668355, ,0.01918660363090796,-0.10907694432008136,0.013803129566724439,0.027770044974609408,0.00046701551336279166,0.12665951343771575, ,1.265988826751709
0.01135069247983079,0.02512460529982895,-0.08389131123235516, ,0.011675458527244892,0.025972391945044283,-0.0841009508777728, ,0.0009317531659668684, ,0.0031711032558139327,0.013159229696978888,-0.010157236754948482,-0.01348444877373826,0.006405046846023565,-0.00514433413043969, ,0.016923081296648112, ,0.014928324611902632, ,0.00013398688724806988, ,0.14915686273277218,-0.2858801255380429,0.09488453913000001,-4.526157430113458,0.13936922976074928,-1.3318846709668355, ,0.01918660363090796,-0.10907694432008136,0.013803129566724439,0.027770044974609408,0.00046701551336279166,0.12665951343771575, ,1.271399974822998
0.011383292859840225,0.025263646411117047,-0.08399647474174414, ,0.011698131151111004,0.026070590765127695,-0.08414919568671064, ,0.0008795487633732579, ,0.0033771161920798792,0.013437846959249348,-0.009949863073310588,-0.044625790792135335,0.007080586472625985,-0.008916629400706238, ,0.01705814819529496, ,0.045184021634883276, ,0.00013538958217668712, ,0.14936537652037624,-0.2870308127363024,0.09502842732000001,-4.525528360283005,0.1395058662605147,-1.330525871548002, ,0.021533229307572222,-0.11230407285026127,0.013719906563307495,0.032654104811850576,-0.0029478515187080496,0.1615670038983839, ,1.2781379222869873
0.011417560659579171,0.025398743010116694,-0.08409581148192269, ,0.01172083533610595,0.02616858867320936,-0.084197460859637, ,0.0008336488891582087, ,0.003587238162188376,0.01394170369035605,-0.010100836277180666,-0.04893831439379735,0.018035166345010692,-0.04417701504747436, ,0.017585968068899623, ,0.052155783338512285, ,0.00013667467287258858, ,0.14958933577372877,-0.28815833173593913,0.09516583406000001,-4.525108980396035,0.1395058662605147,-1.32881061800505, ,0.02356517048881817,-0.11629527151773382,0.014046571005291006,0.07111279535152436,-0.0028616932378441582,0.17548152824726942, ,1.2841899394989014
0.011417560659579171,0.025398743010116694,-0.08409581148192269, ,0.011743571144447122,0.02626638601413827,-0.08424574687035903, ,0.0009389184412806993, ,0.003587238162188376,0.01394170369035605,-0.010100836277180666,-0.04893831439379735,0.018035166345010692,-0.04417701504747436, ,0.017585968068899623, ,0.052155783338512285, ,0.00013818732990789658, ,0.14958933577372877,-0.28815833173593913,0.09516583406000001,-4.525108980396035,0.1395058662605147,-1.32881061800505, ,0.02356517048881817,-0.11629527151773382,0.014046571005291006,0.07111279535152436,-0.0028616932378441582,0.17548152824726942, ,1.2898828983306885
0.011455158094247372,0.02553964020853218,-0.08419964176835176, ,0.011766338638214302,0.02636398313165541,-0.08429405419066469, ,0.0008861649346108762, ,0.0040013610896105336,0.014978389779486243,-0.010946275088085801,-0.0322403914862378,0.003768796386439125,-0.01222824399918705, ,0.01897851388438291, ,0.0324599216300966, ,0.0001395669459142203, ,0.14984418595857815,-0.2893321871328213,0.09530972225,-4.524899290452551,0.1395058662605147,-1.327177043202239, ,0.0269517016638656,-0.12470031742243204,0.015213764584527223,0.038309408822513956,-0.0026382041595619018,0.16230670922577542, ,1.2954869270324707
0.011455158094247372,0.02553964020853218,-0.08419964176835176, ,0.01178913787934949,0.02646138036839602,-0.08434238329032659, ,0.0009907182047678177, ,0.0040013610896105336,0.014978389779486243,-0.010946275088085801,-0.0322403914862378,0.003768796386439125,-0.01222824399918705, ,0.01897851388438291, ,0.0324599216300966, ,0.00014116961328570539, ,0.14984418595857815,-0.2893321871328213,0.09530972225,-4.524899290452551,0.1395058662605147,-1.327177043202239, ,0.0269517016638656,-0.12470031742243204,0.015213764584527223,0.038309408822513956,-0.0026382041595619018,0.16230670922577542, ,1.3011078834533691
0.011455158094247372,0.02553964020853218,-0.08419964176835176, ,0.01181196892965708,0.026558578065891864,-0.08439073463710403, ,0.001096387164241943, ,0.0040013610896105336,0.014978389779486243,-0.010946275088085801,-0.0322403914862378,0.003768796386439125,-0.01222824399918705, ,0.01897851388438291, ,0.0324599216300966, ,0.00014299483287689494, ,0.14984418595857815,-0.2893321871328213,0.09530972225,-4.524899290452551,0.1395058662605147,-1.327177043202239, ,0.0269517016638656,-0.12470031742243204,0.015213764584527223,0.038309408822513956,-0.0026382041595619018,0.16230670922577542, ,1.3066790103912354
0.01150269550474726,0.02572889312213253,-0.08432960281667652, ,0.011834831850803688,0.026655576564573794,-0.0844391086967463, ,0.0009904788198827705, ,0.0036792752401332545,0.015434164238629113,-0.0090961862746111,0.0004581945489986641,-0.003928230168916165,0.0053025350217355115, ,0.018289097757408886, ,0.003954854261809679, ,0.00014456735331021855, ,0.15015309527354714,-0.290838120043295,0.09548342511,-4.524899290452551,0.1395058662605147,-1.3255434683994276, ,0.026441053652402,-0.13422481125667718,0.013672799587982834,0.02094539647463491,-0.0023552420000784733,0.13648210943703715, ,1.3124728202819824
0.01150269550474726,0.02572889312213253,-0.08432960281667652, ,0.011857726704318172,0.026752376203773614,-0.08448750593299505, ,0.0010947594097414255, ,0.0036792752401332545,0.015434164238629113,-0.0090961862746111,0.0004581945489986641,-0.003928230168916165,0.0053025350217355115, ,0.018289097757408886, ,0.003954854261809679, ,0.0001466835939704217, ,0.15015309527354714,-0.290838120043295,0.09548342511,-4.524899290452551,0.1395058662605147,-1.3255434683994276, ,0.026441053652402,-0.13422481125667718,0.013672799587982834,0.02094539647463491,-0.0023552420000784733,0.13648210943703715, ,1.3152940273284912
0.011538511986466701,0.025885716117551125,-0.08441207086471411, ,0.01188065355159165,0.02684897732172699,-0.08453592680758665, ,0.0010296957281844621, ,0.003604782999176954,0.015718300221311394,-0.007825644600424453,-0.01011617886610718,-0.006015132521384444,0.017336969221808992, ,0.017924846881649654, ,0.011769403755135488, ,0.00014864584315756402, ,0.15043883638989344,-0.2923440529537688,0.09562212814000001,-4.524689600509067,0.1395058662605147,-1.323991572336757, ,0.02782085651083869,-0.1422742752001061,0.012454113776387804,0.009754486907189733,-0.002133375096633048,0.15343912798722287, ,1.3181109428405762
0.011538511986466701,0.025885716117551125,-0.08441207086471411, ,0.011903612453877383,0.026945380255575357,-0.08458437178025639, ,0.0011339638628346349, ,0.003604782999176954,0.015718300221311394,-0.007825644600424453,-0.01011617886610718,-0.006015132521384444,0.017336969221808992, ,0.017924846881649654, ,0.011769403755135488, ,0.00015083058377769057, ,0.15043883638989344,-0.2923440529537688,0.09562212814000001,-4.524689600509067,0.1395058662605147,-1.323991572336757, ,0.02782085651083869,-0.1422742752001061,0.012454113776387804,0.009754486907189733,-0.002133375096633048,0.15343912798722287, ,1.3210320472717285
0.011538511986466701,0.025885716117551125,-0.08441207086471411, ,0.011926603472290975,0.027041585341368402,-0.08463284130873969, ,0.001239107845545535, ,0.003604782999176954,0.015718300221311394,-0.007825644600424453,-0.01011617886610718,-0.006015132521384444,0.017336969221808992, ,0.017924846881649654, ,0.011769403755135488, ,0.00015323827683469908, ,0.15043883638989344,-0.2923440529537688,0.09562212814000001,-4.524689600509067,0.1395058662605147,-1.323991572336757, ,0.02782085651083869,-0.1422742752001061,0.012454113776387804,0.009754486907189733,-0.002133375096633048,0.15343912798722287, ,1.323913812637329
0.011575506635067468,0.0260480005200431,-0.08449660598247895, ,0.011949626667810027,0.02713759291406644,-0.08468133584877566, ,0.001166748690813409, ,0.004034494906929462,0.01811110739714752,-0.009401653984787824,-0.016589161104016238,0.02165958407838966,-0.057335610044470346, ,0.020800972524253, ,0.027282554409894317, ,0.0008485596363867156, ,0.15071685477336552,-0.2937882040012488,0.09575434972,-4.523850840735128,0.1395058662605147,-1.3222763187938051, ,0.029757585938686354,-0.16111535069349878,0.014721637264325326,0.09331588881784646,-0.001958040562101915,0.1909647507316644, ,1.3266868591308594
0.011575506635067468,0.0260480005200431,-0.08449660598247895, ,0.011972682101274376,0.02723340330754266,-0.08472985585411025, ,0.0012717443226468207, ,0.004034494906929462,0.01811110739714752,-0.009401653984787824,-0.016589161104016238,0.02165958407838966,-0.057335610044470346, ,0.020800972524253, ,0.027282554409894317, ,0.0008535975493183835, ,0.15071685477336552,-0.2937882040012488,0.09575434972,-4.523850840735128,0.1395058662605147,-1.3222763187938051, ,0.029757585938686354,-0.16111535069349878,0.014721637264325326,0.09331588881784646,-0.001958040562101915,0.1909647507316644, ,1.329469919204712
0.011575506635067468,0.0260480005200431,-0.08449660598247895, ,0.011995769833386046,0.02732901685458551,-0.0847784017764979, ,0.001377328165235941, ,0.004034494906929462,0.01811110739714752,-0.009401653984787824,-0.016589161104016238,0.02165958407838966,-0.057335610044470346, ,0.020800972524253, ,0.027282554409894317, ,0.0008597590859762372, ,0.15071685477336552,-0.2937882040012488,0.09575434972,-4.523850840735128,0.1395058662605147,-1.3222763187938051, ,0.029757585938686354,-0.16111535069349878,0.014721637264325326,0.09331588881784646,-0.001958040562101915,0.1909647507316644, ,1.3322129249572754
0.011575506635067468,0.0260480005200431,-0.08449660598247895, ,0.012018889924709081,0.027424433886900926,-0.08482697406570526, ,0.0014833410347413754, ,0.004034494906929462,0.01811110739714752,-0.009401653984787824,-0.016589161104016238,0.02165958407838966,-0.057335610044470346, ,0.020800972524253, ,0.027282554409894317, ,0.0008670100388688551, ,0.15071685477336552,-0.2937882040012488,0.09575434972,-4.523850840735128,0.1395058662605147,-1.3222763187938051, ,0.029757585938686354,-0.16111535069349878,0.014721637264325326,0.09331588881784646,-0.001958040562101915,0.1909647507316644, ,1.3349828720092773
0.011629383439881525,0.026255982628307254,-0.08462379160079658, ,0.012042042435669684,0.02751965473511482,-0.08487557316951366, ,0.0013529776785571885, ,0.005730291090217089,0.021895839138471575,-0.015160171249112574,-0.07632244896800959,0.008854091763853083,-0.030707470418324577, ,0.027241416994328038, ,0.07683430455625707, ,0.0008725958738078015, ,0.15107210048557987,-0.2955798780280689,0.09594231177000001,-4.52301208096119,0.13909595676121836,-1.3195733816186395, ,0.038342198609483145,-0.18214384176289977,0.021525420972972976,0.0688991412668059,-0.010418355491154656,0.26757912626219116, ,1.337730884552002
0.011629383439881525,0.026255982628307254,-0.08462379160079658, ,0.01206522742655608,0.027614679728775283,-0.08492419953372185, ,0.0014581710179896697, ,0.005730291090217089,0.021895839138471575,-0.015160171249112574,-0.07632244896800959,0.008854091763853083,-0.030707470418324577, ,0.027241416994328038, ,0.07683430455625707, ,0.0008792501368098682, ,0.15107210048557987,-0.2955798780280689,0.09594231177000001,-4.52301208096119,0.13909595676121836,-1.3195733816186395, ,0.038342198609483145,-0.18214384176289977,0.021525420972972976,0.0688991412668059,-0.010418355491154656,0.26757912626219116, ,1.340566873550415
0.011629383439881525,0.026255982628307254,-0.08462379160079658, ,0.012088444957518664,0.027709509196355016,-0.08497285360214873, ,0.0015637522955327635, ,0.005730291090217089,0.021895839138471575,-0.015160171249112574,-0.07632244896800959,0.008854091763853083,-0.030707470418324577, ,0.027241416994328038, ,0.07683430455625707, ,0.0008869411723011367, ,0.15107210048557987,-0.2955798780280689,0.09594231177000001,-4.52301208096119,0.13909595676121836,-1.3195733816186395, ,0.038342198609483145,-0.18214384176289977,0.021525420972972976,0.0688991412668059,-0.010418355491154656,0.26757912626219116, ,1.3433949947357178
0.01169302383988638,0.026480820685072664,-0.08479746397726828, ,0.012111695088569721,0.027804143465253568,-0.08502153581663645, ,0.0014059434498647587, ,0.005730291090217089,0.021895839138471575,-0.015160171249112574,-0.07632244896800959,0.008854091763853083,-0.030707470418324577, ,0.027241416994328038, ,0.07683430455625707, ,0.0008927078642740659, ,0.15145823712929107,-0.29739472025351166,0.09618082913,-4.522592701074221,0.13868604726192205,-1.3163803720026306, ,0.04085102951290176,-0.1924887252707318,0.027089815510204087,0.026838750875772872,-0.05198130939409926,0.35815934876517375, ,1.3464558124542236
0.01169302383988638,0.026480820685072664,-0.08479746397726828, ,0.01213497787958371,0.027898582861799824,-0.08507024661705272, ,0.0015098951392499705, ,0.0070759284330210144,0.02437988191628209,-0.020094955556823845,-0.16774475801501285,-0.03231834342971705,0.0010306035144913932, ,0.03237676086750834, ,0.17082966922308065, ,0.0008994901420210538, ,0.15145823712929107,-0.29739472025351166,0.09618082913,-4.522592701074221,0.13868604726192205,-1.3163803720026306, ,0.04085102951290176,-0.1924887252707318,0.027089815510204087,0.026838750875772872,-0.05198130939409926,0.35815934876517375, ,1.3495008945465088
0.01169302383988638,0.026480820685072664,-0.08479746397726828, ,0.0121582933902969,0.027992827711253956,-0.08511898644129381, ,0.0016143164797008832, ,0.0070759284330210144,0.02437988191628209,-0.020094955556823845,-0.16774475801501285,-0.03231834342971705,0.0010306035144913932, ,0.03237676086750834, ,0.17082966922308065, ,0.0009072599935175737, ,0.15145823712929107,-0.29739472025351166,0.09618082913,-4.522592701074221,0.13868604726192205,-1.3163803720026306, ,0.04085102951290176,-0.1924887252707318,0.027089815510204087,0.026838750875772872,-0.05198130939409926,0.35815934876517375, ,1.354123830795288
0.011764242803849814,0.026744272302568598,-0.08501743258081229, ,0.012181641680307734,0.02808687833781025,-0.08516775572528745, ,0.001414004892389183, ,0.007525217365539122,0.02686413542249122,-0.02305811721437395,-0.15288796997257906,-0.009249157354962841,-0.005311588712249383, ,0.0361937486020496, ,0.15316746311158977, ,0.0009127088633979136, ,0.15189071017024766,-0.29944896719805536,0.09647638325,-4.522173321187252,0.13868604726192205,-1.312949864916727, ,0.04266948811082319,-0.20719856235473968,0.030750601389961392,0.04297613550411377,-0.031363489704696566,0.36317434404076365, ,1.357245922088623
0.011764242803849814,0.026744272302568598,-0.08501743258081229, ,0.012205022809076517,0.028180735064599224,-0.08521655490299568, ,0.0015157051094787568, ,0.007525217365539122,0.02686413542249122,-0.02305811721437395,-0.15288796997257906,-0.009249157354962841,-0.005311588712249383, ,0.0361937486020496, ,0.15316746311158977, ,0.0009191237170796246, ,0.15189071017024766,-0.29944896719805536,0.09647638325,-4.522173321187252,0.13868604726192205,-1.312949864916727, ,0.04266948811082319,-0.20719856235473968,0.030750601389961392,0.04297613550411377,-0.031363489704696566,0.36317434404076365, ,1.360041856765747
0.011764242803849814,0.026744272302568598,-0.08501743258081229, ,0.012228436835925515,0.028274398213689766,-0.0852653844064167, ,0.0016180981154181116, ,0.007525217365539122,0.02686413542249122,-0.02305811721437395,-0.15288796997257906,-0.009249157354962841,-0.005311588712249383, ,0.0361937486020496, ,0.15316746311158977, ,0.000926481342325293, ,0.15189071017024766,-0.29944896719805536,0.09647638325,-4.522173321187252,0.13868604726192205,-1.312949864916727, ,0.04266948811082319,-0.20719856235473968,0.030750601389961392,0.04297613550411377,-0.031363489704696566,0.36317434404076365, ,1.3628158569335938
0.011764242803849814,0.026744272302568598,-0.08501743258081229, ,0.012251883820038913,0.028367868106091768,-0.08531424466558955, ,0.0017210329768943449, ,0.007525217365539122,0.02686413542249122,-0.02305811721437395,-0.15288796997257906,-0.009249157354962841,-0.005311588712249383, ,0.0361937486020496, ,0.15316746311158977, ,0.0009347579218520539, ,0.15189071017024766,-0.29944896719805536,0.09647638325,-4.522173321187252,0.13868604726192205,-1.312949864916727, ,0.04266948811082319,-0.20719856235473968,0.030750601389961392,0.04297613550411377,-0.031363489704696566,0.36317434404076365, ,1.365567922592163
0.011841003851993612,0.027024275738816085,-0.08525840062100556, ,0.012275363820462792,0.02846114506175834,-0.0853631361085945, ,0.0015047363741804006, ,0.007346758499239629,0.027765969516169876,-0.02263862903841139,-0.0556986178221325,0.02274330901327766,-0.010321976065865405, ,0.03657090986505296, ,0.06016301343697301, ,0.0009406339883709029, ,0.1523463514098269,-0.3015881642042155,0.09679786317000001,-4.5213345614133145,0.13868604726192205,-1.3096827153111046, ,0.04549230180175972,-0.21567486717834267,0.030691351676300584,0.06096740532599118,0.011752810308106867,0.2823249133660399, ,1.368297815322876
0.011841003851993612,0.027024275738816085,-0.08525840062100556, ,0.012298876896105152,0.028554229399587985,-0.08541205916155774, ,0.0016043742941464528, ,0.007346758499239629,0.027765969516169876,-0.02263862903841139,-0.0556986178221325,0.02274330901327766,-0.010321976065865405, ,0.03657090986505296, ,0.06016301343697301, ,0.0009474068486339187, ,0.1523463514098269,-0.3015881642042155,0.09679786317000001,-4.5213345614133145,0.13868604726192205,-1.3096827153111046, ,0.04549230180175972,-0.21567486717834267,0.030691351676300584,0.06096740532599118,0.011752810308106867,0.2823249133660399, ,1.371093988418579
0.011841003851993612,0.027024275738816085,-0.08525840062100556, ,0.012322423105735813,0.02864712143742726,-0.0854610142486535, ,0.0017048298863766857, ,0.007346758499239629,0.027765969516169876,-0.02263862903841139,-0.0556986178221325,0.02274330901327766,-0.010321976065865405, ,0.03657090986505296, ,0.06016301343697301, ,0.0009550575863888961, ,0.1523463514098269,-0.3015881642042155,0.09679786317000001,-4.5213345614133145,0.13868604726192205,-1.3096827153111046, ,0.04549230180175972,-0.21567486717834267,0.030691351676300584,0.06096740532599118,0.011752810308106867,0.2823249133660399, ,1.3739569187164307
0.011918971600084987,0.027316206526568836,-0.0854757167213099, ,0.012346002507986448,0.028739821492072853,-0.08551000179210609, ,0.0014866776491188835, ,0.007776264277422385,0.029992476560598825,-0.020789748470152886,0.007973559092921852,-0.0023208576703633594,0.020040692950061372, ,0.037312632951891904, ,0.008304224300314437, ,0.0009603737870161961, ,0.15285605177952571,-0.30392042953223136,0.09710119503,-4.520915181526345,0.13868604726192205,-1.3069873168864659, ,0.05319335289151949,-0.24395100657704571,0.02971793194029851,0.030850835850755653,0.008771551139053906,0.2413744447910535, ,1.3769268989562988
0.011918971600084987,0.027316206526568836,-0.0854757167213099, ,0.012369615161350617,0.028832329879273883,-0.08555902221219436, ,0.0015838716629636579, ,0.007776264277422385,0.029992476560598825,-0.020789748470152886,0.007973559092921852,-0.0023208576703633594,0.020040692950061372, ,0.037312632951891904, ,0.008304224300314437, ,0.0009665470333127056, ,0.15285605177952571,-0.30392042953223136,0.09710119503,-4.520915181526345,0.13868604726192205,-1.3069873168864659, ,0.05319335289151949,-0.24395100657704571,0.02971793194029851,0.030850835850755653,0.008771551139053906,0.2413744447910535, ,1.3797340393066406
0.011918971600084987,0.027316206526568836,-0.0854757167213099, ,0.012393261124183572,0.0289246469137345,-0.0856080759272527, ,0.001682126627556053, ,0.007776264277422385,0.029992476560598825,-0.020789748470152886,0.007973559092921852,-0.0023208576703633594,0.020040692950061372, ,0.037312632951891904, ,0.008304224300314437, ,0.0009735625195307776, ,0.15285605177952571,-0.30392042953223136,0.09710119503,-4.520915181526345,0.13868604726192205,-1.3069873168864659, ,0.05319335289151949,-0.24395100657704571,0.02971793194029851,0.030850835850755653,0.008771551139053906,0.2413744447910535, ,1.382504940032959
0.011918971600084987,0.027316206526568836,-0.0854757167213099, ,0.012416940454702477,0.029016772909115984,-0.08565716335367515, ,0.0017812416686163724, ,0.007776264277422385,0.029992476560598825,-0.020789748470152886,0.007973559092921852,-0.0023208576703633594,0.020040692950061372, ,0.037312632951891904, ,0.008304224300314437, ,0.000981404064667531, ,0.15285605177952571,-0.30392042953223136,0.09710119503,-4.520915181526345,0.13868604726192205,-1.3069873168864659, ,0.05319335289151949,-0.24395100657704571,0.02971793194029851,0.030850835850755653,0.008771551139053906,0.2413744447910535, ,1.3854010105133057
0.011918971600084987,0.027316206526568836,-0.0854757167213099, ,0.012440653210986157,0.02910870817803896,-0.08570628490591692, ,0.001881057033007914, ,0.007776264277422385,0.029992476560598825,-0.020789748470152886,0.007973559092921852,-0.0023208576703633594,0.020040692950061372, ,0.037312632951891904, ,0.008304224300314437, ,0.000990054573978496, ,0.15285605177952571,-0.30392042953223136,0.09710119503,-4.520915181526345,0.13868604726192205,-1.3069873168864659, ,0.05319335289151949,-0.24395100657704571,0.02971793194029851,0.030850835850755653,0.008771551139053906,0.2413744447910535, ,1.388232946395874
0.011995196657947795,0.027606588268473627,-0.0856671303379483, ,0.012464399450975274,0.029200453032086283,-0.08575544099649879, ,0.0016638374073461733, ,0.007776264277422385,0.029992476560598825,-0.020789748470152886,0.007973559092921852,-0.0023208576703633594,0.020040692950061372, ,0.037312632951891904, ,0.008304224300314437, ,0.0009964715533439025, ,0.1533889203478472,-0.3063067539903667,0.09737989738000001,-4.520495801639376,0.13868604726192205,-1.304536954682249, ,0.060443911820682025,-0.25647822042829943,0.02819258676106195,0.054203247887535354,0.007049843601133537,0.24297349233284932, ,1.3911268711090088
0.011995196657947795,0.027606588268473627,-0.0856671303379483, ,0.012488179232472127,0.02929200778180462,-0.08580463203600817, ,0.001761413486853915, ,0.00814958230410847,0.030757806226755564,-0.01881791798966982,0.021915250869753128,-0.0038711186812969748,-0.00038554824917626143, ,0.03696717967440876, ,0.022254469681911433, ,0.0010036879866789027, ,0.1533889203478472,-0.3063067539903667,0.09737989738000001,-4.520495801639376,0.13868604726192205,-1.304536954682249, ,0.060443911820682025,-0.25647822042829943,0.02819258676106195,0.054203247887535354,0.007049843601133537,0.24297349233284932, ,1.3939809799194336
0.012012633813786807,0.027673892439846724,-0.08570876430686886, ,0.012511992613140809,0.029383372736707436,-0.08585385843310318, ,0.0017868224313890182, ,0.008265768102782775,0.031034571895931024,-0.01870619116949731,0.021262365023147083,-0.006170259231934557,-0.015477286029211775, ,0.03716704404660764, ,0.02213951162255032, ,0.0010110070001808664, ,0.15352792953958325,-0.3068627907573109,0.0974421193,-4.520286111695891,0.1388226837616875,-1.3041583001451023, ,0.06114493657117962,-0.25928126108871796,0.02819258676106195,0.06853794778806119,0.0,0.2475265793310037, ,1.3968160152435303
0.012012633813786807,0.027673892439846724,-0.08570876430686886, ,0.012535839650507061,0.029474548205276778,-0.08590312059451466, ,0.001885173705445229, ,0.008265768102782775,0.031034571895931024,-0.01870619116949731,0.021262365023147083,-0.006170259231934557,-0.015477286029211775, ,0.03716704404660764, ,0.02213951162255032, ,0.0010191011363407216, ,0.15352792953958325,-0.3068627907573109,0.0974421193,-4.520286111695891,0.1388226837616875,-1.3041583001451023, ,0.06114493657117962,-0.25928126108871796,0.02819258676106195,0.06853794778806119,0.0,0.2475265793310037, ,1.3996260166168213
0.012012633813786807,0.027673892439846724,-0.08570876430686886, ,0.012559720401958322,0.029565534494966204,-0.08595241892504929, ,0.001984182696380163, ,0.008265768102782775,0.031034571895931024,-0.01870619116949731,0.021262365023147083,-0.006170259231934557,-0.015477286029211775, ,0.03716704404660764, ,0.02213951162255032, ,0.0010279550956071386, ,0.15352792953958325,-0.3068627907573109,0.0974421193,-4.520286111695891,0.1388226837616875,-1.3041583001451023, ,0.06114493657117962,-0.25928126108871796,0.02819258676106195,0.06853794778806119,0.0,0.2475265793310037, ,1.402500867843628
0.012012633813786807,0.027673892439846724,-0.08570876430686886, ,0.012583634924743575,0.029656331912202447,-0.08600175382759237, ,0.002083734961438641, ,0.008265768102782775,0.031034571895931024,-0.01870619116949731,0.021262365023147083,-0.006170259231934557,-0.015477286029211775, ,0.03716704404660764, ,0.02213951162255032, ,0.0010375530943874248, ,0.15352792953958325,-0.3068627907573109,0.0974421193,-4.520286111695891,0.1388226837616875,-1.3041583001451023, ,0.06114493657117962,-0.25928126108871796,0.02819258676106195,0.06853794778806119,0.0,0.2475265793310037, ,1.4055099487304688
0.01217058224391314,0.02829249622021207,-0.08600344117444626, ,0.01260758327597361,0.029746940762388163,-0.08605112570311026, ,0.0015194251026495657, ,0.008097078623405933,0.03258230370830158,-0.012905434655258773,0.04393075104899365,-0.01869025231893774,-0.015477286029211775, ,0.03596831162029675, ,0.04774134540930506, ,0.0010418942836510478, ,0.1548021804638303,-0.3122609810363938,0.09793082063000001,-4.5188182820915,0.1388226837616875,-1.2991758969965277, ,0.0690661874515799,-0.29199058941067935,0.023321832386530017,0.04904069336398855,0.0,0.2544124986719601, ,1.4087128639221191
0.01217058224391314,0.02829249622021207,-0.08600344117444626, ,0.012631565512620666,0.029837361349904484,-0.08610053495065369, ,0.0016150978435828728, ,0.008097078623405933,0.03258230370830158,-0.012905434655258773,0.04393075104899365,-0.01869025231893774,0.00859925209243447, ,0.03596831162029675, ,0.04774134540930506, ,0.0010470121725790105, ,0.1548021804638303,-0.3122609810363938,0.09793082063000001,-4.5188182820915,0.1388226837616875,-1.2991758969965277, ,0.0690661874515799,-0.29199058941067935,0.023321832386530017,0.04904069336398855,0.0,0.2544124986719601, ,1.4115610122680664
0.01217058224391314,0.02829249622021207,-0.08600344117444626, ,0.01265558169151869,0.029927593978112656,-0.08614998196736011, ,0.001711795357528763, ,0.008097078623405933,0.03258230370830158,-0.012905434655258773,0.04393075104899365,-0.01869025231893774,0.00859925209243447, ,0.03596831162029675, ,0.04774134540930506, ,0.0010528952096139639, ,0.1548021804638303,-0.3122609810363938,0.09793082063000001,-4.5188182820915,0.1388226837616875,-1.2991758969965277, ,0.0690661874515799,-0.29199058941067935,0.023321832386530017,0.04904069336398855,0.0,0.2544124986719601, ,1.4142489433288574
0.01217058224391314,0.02829249622021207,-0.08600344117444626, ,0.012679631869363148,0.030017638949356936,-0.08619946714845643, ,0.0018093300250586735, ,0.008097078623405933,0.03258230370830158,-0.012905434655258773,0.04393075104899365,-0.01869025231893774,0.00859925209243447, ,0.03596831162029675, ,0.04774134540930506, ,0.0010595306027319, ,0.1548021804638303,-0.3122609810363938,0.09793082063000001,-4.5188182820915,0.1388226837616875,-1.2991758969965277, ,0.0690661874515799,-0.29199058941067935,0.023321832386530017,0.04904069336398855,0.0,0.2544124986719601, ,1.417011022567749
0.012250924555774811,0.028622777408130223,-0.08614319348248735, ,0.012703716102711048,0.030107496564966665,-0.08624899088726236, ,0.0015558291199586002, ,0.008484230678232844,0.034469449494455164,-0.015566364199107022,0.017366923380116788,-0.021033787663806,0.03384867244254622, ,0.038761279816738554, ,0.027276901165611104, ,0.0010638462420121321, ,0.1554663354910136,-0.3151878967957249,0.09817581944,-4.5186085921480155,0.1388226837616875,-1.2963988198317486, ,0.06856715430525345,-0.30126013193165324,0.026548019200000002,0.025203936416339688,0.0,0.28694066258764367, ,1.4198229312896729
0.012250924555774811,0.028622777408130223,-0.08614319348248735, ,0.012727834447980974,0.030197167125258845,-0.0862985535751927, ,0.0016523567366310016, ,0.008484230678232844,0.034469449494455164,-0.015566364199107022,0.017366923380116788,-0.021033787663806,0.03384867244254622, ,0.038761279816738554, ,0.027276901165611104, ,0.0010689196083450536, ,0.1554663354910136,-0.3151878967957249,0.09817581944,-4.5186085921480155,0.1388226837616875,-1.2963988198317486, ,0.06856715430525345,-0.30126013193165324,0.026548019200000002,0.025203936416339688,0.0,0.28694066258764367, ,1.4226889610290527
0.012250924555774811,0.028622777408130223,-0.08614319348248735, ,0.012751986961452931,0.030286650929540082,-0.08634815560175965, ,0.0017497280074255498, ,0.008484230678232844,0.034469449494455164,-0.015566364199107022,0.017366923380116788,-0.021033787663806,0.03384867244254622, ,0.038761279816738554, ,0.027276901165611104, ,0.0010747384835508697, ,0.1554663354910136,-0.3151878967957249,0.09817581944,-4.5186085921480155,0.1388226837616875,-1.2963988198317486, ,0.06856715430525345,-0.30126013193165324,0.026548019200000002,0.025203936416339688,0.0,0.28694066258764367, ,1.4255340099334717
0.012342400064983942,0.02899309027686429,-0.08630843717699496, ,0.012776173699268523,0.030375948276109274,-0.08639779735457716, ,0.0014520471938658927, ,0.008484834016220758,0.0347237666188128,-0.014558390980845829,0.009862645814440449,-0.014019988577011587,0.016014593794399734, ,0.038596361543956036, ,0.017141505423298783, ,0.0010779360149942173, ,0.15620771784693915,-0.31841599913715074,0.09845970695,-4.517979522317562,0.1388226837616875,-1.2932133489662667, ,0.0700346432165836,-0.30513486031662634,0.0257747759223301,0.045678320150102744,0.0,0.30142409768234657, ,1.4286420345306396
0.012342400064983942,0.02899309027686429,-0.08630843717699496, ,0.012800394717430793,0.030465059462259834,-0.08644747921936193, ,0.0015478323791578682, ,0.008484834016220758,0.0347237666188128,-0.014558390980845829,0.009862645814440449,-0.014019988577011587,0.016014593794399734, ,0.038596361543956036, ,0.017141505423298783, ,0.0010818847239367688, ,0.15620771784693915,-0.31841599913715074,0.09845970695,-4.517979522317562,0.1388226837616875,-1.2932133489662667, ,0.0700346432165836,-0.30513486031662634,0.0257747759223301,0.045678320150102744,0.0,0.30142409768234657, ,1.4314229488372803
0.012342400064983942,0.02899309027686429,-0.08630843717699496, ,0.012824650071804231,0.030553984784281903,-0.08649720157993707, ,0.0016445633864897778, ,0.008484834016220758,0.0347237666188128,-0.014558390980845829,0.009862645814440449,-0.014019988577011587,0.016014593794399734, ,0.038596361543956036, ,0.017141505423298783, ,0.0010865737127913773, ,0.15620771784693915,-0.31841599913715074,0.09845970695,-4.517979522317562,0.1388226837616875,-1.2932133489662667, ,0.0700346432165836,-0.30513486031662634,0.0257747759223301,0.045678320150102744,0.0,0.30142409768234657, ,1.4341950416564941
0.012342400064983942,0.02899309027686429,-0.08630843717699496, ,0.012848939818114781,0.030642724537464774,-0.08654696481823493, ,0.0017420594567592275, ,0.008484834016220758,0.0347237666188128,-0.014558390980845829,0.009862645814440449,-0.014019988577011587,0.016014593794399734, ,0.038596361543956036, ,0.017141505423298783, ,0.0010919909503448305, ,0.15620771784693915,-0.31841599913715074,0.09845970695,-4.517979522317562,0.1388226837616875,-1.2932133489662667, ,0.0700346432165836,-0.30513486031662634,0.0257747759223301,0.045678320150102744,0.0,0.30142409768234657, ,1.4370129108428955
0.012426423424121598,0.029344168228318687,-0.08645137085669807, ,0.012873264011949718,0.030731279016099376,-0.08659676931429984, ,0.0014645420990811817, ,0.008556585466231982,0.03602938566676559,-0.01487941297906237,0.04037731694595335,-0.0051741718647209875,-0.014524188164128413, ,0.039909005462012655, ,0.04070748148561139, ,0.0010950446482852925, ,0.1568873183398709,-0.32150509228684054,0.09871637237000001,-4.517140762543623,0.13868604726192205,-1.29016149641751, ,0.06993142340344198,-0.31527223109126506,0.026592339766277135,0.07956550179656202,0.0,0.28578185608223006, ,1.4398260116577148
0.012426423424121598,0.029344168228318687,-0.08645137085669807, ,0.01289762270875786,0.03081964851348014,-0.0866466154462901, ,0.0015611506293458047, ,0.008556585466231982,0.03602938566676559,-0.01487941297906237,0.04037731694595335,-0.0051741718647209875,-0.014524188164128413, ,0.039909005462012655, ,0.04070748148561139, ,0.0010988341278061096, ,0.1568873183398709,-0.32150509228684054,0.09871637237000001,-4.517140762543623,0.13868604726192205,-1.29016149641751, ,0.06993142340344198,-0.31527223109126506,0.026592339766277135,0.07956550179656202,0.0,0.28578185608223006, ,1.4426679611206055
0.012426423424121598,0.029344168228318687,-0.08645137085669807, ,0.01292201596384927,0.03090783332190805,-0.08669650359048225, ,0.0016585386783298317, ,0.008556585466231982,0.03602938566676559,-0.01487941297906237,0.04037731694595335,-0.0051741718647209875,-0.014524188164128413, ,0.039909005462012655, ,0.04070748148561139, ,0.0011033478741813009, ,0.1568873183398709,-0.32150509228684054,0.09871637237000001,-4.517140762543623,0.13868604726192205,-1.29016149641751, ,0.06993142340344198,-0.31527223109126506,0.026592339766277135,0.07956550179656202,0.0,0.28578185608223006, ,1.4455418586730957
0.012426423424121598,0.029344168228318687,-0.08645137085669807, ,0.01294644383239546,0.03099583373269223,-0.08674643412127248, ,0.0017565541532956301, ,0.008556585466231982,0.03602938566676559,-0.01487941297906237,0.04037731694595335,-0.0051741718647209875,-0.014524188164128413, ,0.039909005462012655, ,0.04070748148561139, ,0.0011085735244142155, ,0.15762097796292224,-0.3246945809638953,0.09900544504000001,-4.516721382656655,0.13868604726192205,-1.2875477767330121, ,0.07567539199240093,-0.32277871278391423,0.030632329846153848,0.027759340856542702,0.0,0.26022599873246466, ,1.4485299587249756
0.01251816546654103,0.029715271523337295,-0.08661975190287713, ,0.01297090636942916,0.031083650036152703,-0.08679640741117996, ,0.0014521161276208588, ,0.009611561763625386,0.03805154243361628,-0.018240065527818563,0.06537039651981492,-0.030806312001284884,0.03445872880526536, ,0.043278193025730646, ,0.07226559057600342, ,0.0011113000530110935, ,0.15762097796292224,-0.3246945809638953,0.09900544504000001,-4.516721382656655,0.13868604726192205,-1.2875477767330121, ,0.07567539199240093,-0.32277871278391423,0.030632329846153848,0.027759340856542702,0.0,0.26022599873246466, ,1.451413869857788
0.01251816546654103,0.029715271523337295,-0.08661975190287713, ,0.012995403629844582,0.031171282521622705,-0.08684642383084971, ,0.0015489042754709644, ,0.009611561763625386,0.03805154243361628,-0.018240065527818563,0.06537039651981492,-0.030806312001284884,0.03445872880526536, ,0.043278193025730646, ,0.07226559057600342, ,0.0011147457555501477, ,0.15762097796292224,-0.3246945809638953,0.09900544504000001,-4.516721382656655,0.13868604726192205,-1.2875477767330121, ,0.07567539199240093,-0.32277871278391423,0.030632329846153848,0.027759340856542702,0.0,0.26022599873246466, ,1.457124948501587
0.012616402756289882,0.030098404829087884,-0.08680135677744351, ,0.013019935668397105,0.03125873147745088,-0.08689648374905526, ,0.0012321712067659542, ,0.009646861061777031,0.03764988656828807,-0.017648219088730665,0.1038672296507796,-0.03555589040710604,0.026144187589156435, ,0.042685308057386975, ,0.10978442979752309, ,0.001115663141887771, ,0.15840097398321892,-0.3279381287710696,0.09931266577000002,-4.516302002769685,0.13868604726192205,-1.285179093268936, ,0.07677746080782426,-0.3184461126123181,0.03005436135849057,0.03448133559981966,0.0,0.21798535590396478, ,1.459972858428955
0.012616402756289882,0.030098404829087884,-0.08680135677744351, ,0.013044502539703401,0.03134599719100361,-0.08694658753270146, ,0.0013269695167342597, ,0.009646861061777031,0.03764988656828807,-0.017648219088730665,0.1038672296507796,-0.03555589040710604,0.026144187589156435, ,0.042685308057386975, ,0.10978442979752309, ,0.0011173011758013097, ,0.15840097398321892,-0.3279381287710696,0.09931266577000002,-4.516302002769685,0.13868604726192205,-1.285179093268936, ,0.07677746080782426,-0.3184461126123181,0.03005436135849057,0.03448133559981966,0.0,0.21798535590396478, ,1.4627728462219238
0.012616402756289882,0.030098404829087884,-0.08680135677744351, ,0.013069104298241476,0.031433079948667585,-0.08699673554682681, ,0.001422838439330402, ,0.009646861061777031,0.03764988656828807,-0.017648219088730665,0.1038672296507796,-0.03555589040710604,0.026144187589156435, ,0.042685308057386975, ,0.10978442979752309, ,0.0011196514624438412, ,0.15840097398321892,-0.3279381287710696,0.09931266577000002,-4.516302002769685,0.13868604726192205,-1.285179093268936, ,0.07677746080782426,-0.3184461126123181,0.03005436135849057,0.03448133559981966,0.0,0.21798535590396478, ,1.465487003326416
0.01269710251501345,0.030416738350047802,-0.08693902482888338, ,0.013093740998350492,0.03151998003585164,-0.08704692815460717, ,0.0015195503173968865, ,0.009294956095730358,0.03589044058677452,-0.014518756358675868,0.13872895583239783,-0.02360170054403037,-0.020558442725026337, ,0.042685308057386975, ,0.14072228966936154, ,0.0011227041254587501, ,0.15907285174327646,-0.3306565307427966,0.09955636829000002,-4.515672932939232,0.1388226837616875,-1.2835752576296804, ,0.0783624620631468,-0.3091105588223804,0.026592339766277135,0.08283541531914065,0.0030550298591627114,0.18119080929716835, ,1.4692180156707764
0.01269710251501345,0.030416738350047802,-0.08693902482888338, ,0.013118412694230887,0.03160669773698983,-0.0870971657173579, ,0.001272208375342339, ,0.009294956095730358,0.03589044058677452,-0.014518756358675868,0.13872895583239783,-0.02360170054403037,-0.020558442725026337, ,0.039816004577769196, ,0.14072228966936154, ,0.0011238367334124137, ,0.15907285174327646,-0.3306565307427966,0.09955636829000002,-4.515672932939232,0.1388226837616875,-1.2835752576296804, ,0.0783624620631468,-0.3091105588223804,0.026592339766277135,0.08283541531914065,0.0030550298591627114,0.18119080929716835, ,1.4720070362091064
0.01269710251501345,0.030416738350047802,-0.08693902482888338, ,0.013143119439944225,0.031693233335542983,-0.08714744859453621, ,0.0013681414442256892, ,0.009294956095730358,0.03589044058677452,-0.014518756358675868,0.13872895583239783,-0.02360170054403037,-0.020558442725026337, ,0.039816004577769196, ,0.14072228966936154, ,0.0011256736109373255, ,0.15907285174327646,-0.3306565307427966,0.09955636829000002,-4.515672932939232,0.1388226837616875,-1.2835752576296804, ,0.0783624620631468,-0.3091105588223804,0.026592339766277135,0.08283541531914065,0.0030550298591627114,0.18119080929716835, ,1.4747519493103027
0.01269710251501345,0.030416738350047802,-0.08693902482888338, ,0.013167861289413364,0.03177958711400142,-0.08719777714374527, ,0.0014648970399078537, ,0.009294956095730358,0.03589044058677452,-0.014518756358675868,0.13872895583239783,-0.02360170054403037,-0.020558442725026337, ,0.039816004577769196, ,0.14072228966936154, ,0.0011282051290639713, ,0.15907285174327646,-0.3306565307427966,0.09955636829000002,-4.515672932939232,0.1388226837616875,-1.2835752576296804, ,0.0783624620631468,-0.3091105588223804,0.026592339766277135,0.08283541531914065,0.0030550298591627114,0.18119080929716835, ,1.4775159358978271
0.012798981254562454,0.030819608976295126,-0.0870915050822565, ,0.013192638296422214,0.03186575935388745,-0.08724815172073558, ,0.0011286871349001576, ,0.009058206436347593,0.035315495930935886,-0.013381045566593534,0.11257011886221775,-0.041423333697394246,0.01802348283895159, ,0.03883668030543665, ,0.11994967197231707, ,0.0011282086994775728, ,0.15995324329093805,-0.33415492873482033,0.09984544096,-4.515043863108779,0.13895932026145294,-1.2814813495495816, ,0.07677746080782426,-0.3061191663176477,0.02540480306220096,0.03898577086974621,-0.004960934021320356,0.19682327302111502, ,1.4803030490875244
0.012798981254562454,0.030819608976295126,-0.0870915050822565, ,0.013217450514615859,0.0319517503357573,-0.08729857267940842, ,0.0012246377297816552, ,0.009058206436347593,0.035315495930935886,-0.013381045566593534,0.11257011886221775,-0.041423333697394246,0.01802348283895159, ,0.03883668030543665, ,0.11994967197231707, ,0.0011289177364651026, ,0.15995324329093805,-0.33415492873482033,0.09984544096,-4.515043863108779,0.13895932026145294,-1.2814813495495816, ,0.07677746080782426,-0.3061191663176477,0.02540480306220096,0.03898577086974621,-0.004960934021320356,0.19682327302111502, ,1.4830670356750488
0.012798981254562454,0.030819608976295126,-0.0870915050822565, ,0.013242297997500527,0.03203756033920371,-0.08734904037181902, ,0.0013214611921468428, ,0.009058206436347593,0.035315495930935886,-0.013381045566593534,0.11257011886221775,-0.041423333697394246,0.01802348283895159, ,0.03883668030543665, ,0.11994967197231707, ,0.001130323163148911, ,0.15995324329093805,-0.33415492873482033,0.09984544096,-4.515043863108779,0.13895932026145294,-1.2814813495495816, ,0.07677746080782426,-0.3061191663176477,0.02540480306220096,0.03898577086974621,-0.004960934021320356,0.19682327302111502, ,1.485827922821045
0.012859986228327803,0.031064459139509424,-0.08718304467935048, ,0.01326718079844353,0.032123189642858235,-0.08739955514817822, ,0.0011548136125648018, ,0.009014529321104723,0.03503796041213131,-0.012864787293628234,0.0899446128948275,-0.04354583251135724,0.03110699406894945, ,0.03839821819867995, ,0.0999313392561417, ,0.001130500630173664, ,0.1604706663935111,-0.33627868027523206,0.10002044011000001,-4.514834173165294,0.13895932026145294,-1.2800111322270515, ,0.07708931077048803,-0.3041568639694576,0.024888768000000002,0.025518628421090803,-0.004960934021320356,0.21565661023128185, ,1.4904189109802246
0.012859986228327803,0.031064459139509424,-0.08718304467935048, ,0.013292098970673263,0.03220863852439344,-0.08745011735685616, ,0.0012518768717253868, ,0.009014529321104723,0.03503796041213131,-0.012864787293628234,0.0899446128948275,-0.04354583251135724,0.03110699406894945, ,0.03839821819867995, ,0.0999313392561417, ,0.0011313738405445398, ,0.1604706663935111,-0.33627868027523206,0.10002044011000001,-4.514834173165294,0.13895932026145294,-1.2800111322270515, ,0.07708931077048803,-0.3041568639694576,0.024888768000000002,0.025518628421090803,-0.004960934021320356,0.21565661023128185, ,1.4931879043579102
0.012859986228327803,0.031064459139509424,-0.08718304467935048, ,0.013317052567279173,0.032293907260525424,-0.08750072734438515, ,0.0013495831193875054, ,0.009014529321104723,0.03503796041213131,-0.012864787293628234,0.0899446128948275,-0.04354583251135724,0.03110699406894945, ,0.03839821819867995, ,0.0999313392561417, ,0.001132932478250561, ,0.1604706663935111,-0.33627868027523206,0.10002044011000001,-4.514834173165294,0.13895932026145294,-1.2800111322270515, ,0.07708931077048803,-0.3041568639694576,0.024888768000000002,0.025518628421090803,-0.004960934021320356,0.21565661023128185, ,1.496021032333374
0.012859986228327803,0.031064459139509424,-0.08718304467935048, ,0.013342041641211753,0.03237899612701602,-0.0875513854554614, ,0.0014477775519601188, ,0.009014529321104723,0.03503796041213131,-0.012864787293628234,0.0899446128948275,-0.04354583251135724,0.03110699406894945, ,0.03839821819867995, ,0.0999313392561417, ,0.0011351654220357352, ,0.1604706663935111,-0.33627868027523206,0.10002044011000001,-4.514834173165294,0.13895932026145294,-1.2800111322270515, ,0.07708931077048803,-0.3041568639694576,0.024888768000000002,0.025518628421090803,-0.004960934021320356,0.21565661023128185, ,1.4988889694213867
0.012866167751054348,0.031089076871528582,-0.08719141856452355, ,0.013367066245282498,0.03246390539867503,-0.0876020920329491, ,0.0015197715217243589, ,0.0075951033532024245,0.03016369206699949,-0.009192690422473528,0.0763990177327603,-0.017801582233936845,-0.025375194708854847, ,0.032435157950317296, ,0.07844556185607633, ,0.0011378739156955142, ,0.16052472552363065,-0.33649491679571036,0.10003729188,-4.514834173165294,0.13895932026145294,-1.279929453486911, ,0.07753018101182253,-0.3031851168002261,0.02473417937888199,0.025518628421090803,-0.004960934021320356,0.21602814465532072, ,1.5017669200897217
0.012866167751054348,0.031089076871528582,-0.08719141856452355, ,0.013392126432163972,0.032548635349362955,-0.08765284741788226, ,0.0016185981808851464, ,0.0075951033532024245,0.03016369206699949,-0.009192690422473528,0.0763990177327603,-0.017801582233936845,-0.025375194708854847, ,0.032435157950317296, ,0.07844556185607633, ,0.0011412356238436935, ,0.16052472552363065,-0.33649491679571036,0.10003729188,-4.514834173165294,0.13895932026145294,-1.279929453486911, ,0.07753018101182253,-0.3031851168002261,0.02473417937888199,0.025518628421090803,-0.004960934021320356,0.21602814465532072, ,1.5047059059143066
0.012866167751054348,0.031089076871528582,-0.08719141856452355, ,0.013417222254389669,0.032633186251992824,-0.08770365194946765, ,0.0017176489411795113, ,0.0075951033532024245,0.03016369206699949,-0.009192690422473528,0.0763990177327603,-0.017801582233936845,-0.025375194708854847, ,0.032435157950317296, ,0.07844556185607633, ,0.00114523849410297, ,0.16052472552363065,-0.33649491679571036,0.10003729188,-4.514834173165294,0.13895932026145294,-1.279929453486911, ,0.07753018101182253,-0.3031851168002261,0.02473417937888199,0.025518628421090803,-0.004960934021320356,0.21602814465532072, ,1.5076940059661865
0.013059520487855745,0.03185861028602106,-0.08743640075017553, ,0.013442353764354022,0.032717558378532956,-0.08775450596508816, ,0.000992745723223649, ,0.007454255558026169,0.03195271795927371,-0.008268581576758492,0.12108315695255728,-0.03656750522428531,0.03928045708319864, ,0.03383654167022343, ,0.12648443895307937, ,0.0011441868198210435, ,0.16222372675596006,-0.343260030793531,0.10055062272000001,-4.513576033504387,0.1388226837616875,-1.274917311174781, ,0.06846821180264846,-0.28669770863586336,0.019568564520884523,0.01568897252901416,0.004014419994291839,0.16650280349914146, ,1.510511875152588
0.013059520487855745,0.03185861028602106,-0.08743640075017553, ,0.013467521014312438,0.0328017520000088,-0.08780540980030485, ,0.001091855485552014, ,0.007454255558026169,0.03195271795927371,-0.008268581576758492,0.12108315695255728,-0.03656750522428531,0.03928045708319864, ,0.03383654167022343, ,0.12648443895307937, ,0.0011438283860246803, ,0.16222372675596006,-0.343260030793531,0.10055062272000001,-4.513576033504387,0.1388226837616875,-1.274917311174781, ,0.06846821180264846,-0.28669770863586336,0.019568564520884523,0.01568897252901416,0.004014419994291839,0.16650280349914146, ,1.513267993927002
0.013059520487855745,0.03185861028602106,-0.08743640075017553, ,0.013492724056381276,0.0328857673865059,-0.08785636378886023, ,0.001191253958952907, ,0.007454255558026169,0.03195271795927371,-0.008268581576758492,0.12108315695255728,-0.03656750522428531,0.03928045708319864, ,0.03383654167022343, ,0.12648443895307937, ,0.0011441510089697704, ,0.16222372675596006,-0.343260030793531,0.10055062272000001,-4.513576033504387,0.1388226837616875,-1.274917311174781, ,0.06846821180264846,-0.28669770863586336,0.019568564520884523,0.01568897252901416,0.004014419994291839,0.16650280349914146, ,1.5160658359527588
0.013059520487855745,0.03185861028602106,-0.08743640075017553, ,0.013517962942537747,0.03296960480717168,-0.08790736826268036, ,0.0012908480577188625, ,0.007454255558026169,0.03195271795927371,-0.008268581576758492,0.12108315695255728,-0.03656750522428531,0.03928045708319864, ,0.03383654167022343, ,0.12648443895307937, ,0.0011451422052451022, ,0.16222372675596006,-0.343260030793531,0.10055062272000001,-4.513576033504387,0.1388226837616875,-1.274917311174781, ,0.06846821180264846,-0.28669770863586336,0.019568564520884523,0.01568897252901416,0.004014419994291839,0.16650280349914146, ,1.5188539028167725
0.01314006860062021,0.03218805339211457,-0.08756285620961897, ,0.013543237724619971,0.03305326453021795,-0.0879584235518786, ,0.0010332517497237714, ,0.009022272390066286,0.032854081556150404,-0.017683229711065424,0.02540323367077222,-0.03137962779612493,0.012685149831047477, ,0.038386048077303316, ,0.04037330296747636, ,0.0011443912625905966, ,0.1629033272488918,-0.3460556600940003,0.10079173266000001,-4.5131566536174175,0.13895932026145294,-1.2730684393151037, ,0.06701761409496525,-0.25999162070813914,0.02890891382940109,0.03711956888559144,-0.01043440357028841,0.23775153105721208, ,1.5216388702392578
0.01314006860062021,0.03218805339211457,-0.08756285620961897, ,0.013568548454326972,0.0331367468229235,-0.08800952998475767, ,0.0011327540209989297, ,0.009022272390066286,0.032854081556150404,-0.017683229711065424,0.02540323367077222,-0.03137962779612493,0.012685149831047477, ,0.038386048077303316, ,0.04037330296747636, ,0.0011443136809799854, ,0.1629033272488918,-0.3460556600940003,0.10079173266000001,-4.5131566536174175,0.13895932026145294,-1.2730684393151037, ,0.06701761409496525,-0.25999162070813914,0.02890891382940109,0.03711956888559144,-0.01043440357028841,0.23775153105721208, ,1.5243639945983887
0.01314006860062021,0.03218805339211457,-0.08756285620961897, ,0.013593895183218479,0.033220051951635854,-0.08806068788781274, ,0.0012324025209890033, ,0.009022272390066286,0.032854081556150404,-0.017683229711065424,0.02540323367077222,-0.03137962779612493,0.012685149831047477, ,0.038386048077303316, ,0.04037330296747636, ,0.0011448970507813697, ,0.1629033272488918,-0.3460556600940003,0.10079173266000001,-4.5131566536174175,0.13895932026145294,-1.2730684393151037, ,0.06701761409496525,-0.25999162070813914,0.02890891382940109,0.03711956888559144,-0.01043440357028841,0.23775153105721208, ,1.5271108150482178
0.01314006860062021,0.03218805339211457,-0.08756285620961897, ,0.013619277962715216,0.033303180181774285,-0.0881118975857338, ,0.0013321395581628649, ,0.009242357937676686,0.03313552748848149,-0.019846752721492344,-0.017474209221089613,0.001691932482809932,-0.05286721745218001, ,0.03971495884142537, ,0.017555840742105918, ,0.0011461289093825638, ,0.1635597595432009,-0.34856554827812325,0.10109636081000001,-4.512108203899995,0.13895932026145294,-1.2704547196306057, ,0.06499790517703478,-0.25238548286827334,0.031110960000000003,0.1085391613580853,-0.01043440357028841,0.284534625979705, ,1.530160903930664
0.01323115203707798,0.03251542802554847,-0.08775623464082932, ,0.013644696844098626,0.03338613177783157,-0.08816315940140924, ,0.0010462944578017385, ,0.009242357937676686,0.03313552748848149,-0.019846752721492344,-0.017474209221089613,0.001691932482809932,-0.05286721745218001, ,0.03971495884142537, ,0.017555840742105918, ,0.0011454763966271336, ,0.1635597595432009,-0.34856554827812325,0.10109636081000001,-4.512108203899995,0.13895932026145294,-1.2704547196306057, ,0.06499790517703478,-0.25238548286827334,0.031110960000000003,0.1085391613580853,-0.01043440357028841,0.284534625979705, ,1.5333259105682373
0.01323115203707798,0.03251542802554847,-0.08775623464082932, ,0.01367015187851094,0.03346890700337662,-0.08821447365592755, ,0.0011453497356251328, ,0.009242357937676686,0.03313552748848149,-0.019846752721492344,-0.017474209221089613,0.001691932482809932,-0.05286721745218001, ,0.03971495884142537, ,0.017555840742105918, ,0.0011454755741530946, ,0.1635597595432009,-0.34856554827812325,0.10109636081000001,-4.512108203899995,0.13895932026145294,-1.2704547196306057, ,0.06499790517703478,-0.25238548286827334,0.031110960000000003,0.1085391613580853,-0.01043440357028841,0.284534625979705, ,1.5361418724060059
0.01323115203707798,0.03251542802554847,-0.08775623464082932, ,0.013695643116955161,0.03355150612105682,-0.08826584066858106, ,0.0012445513596467527, ,0.009242357937676686,0.03313552748848149,-0.019846752721492344,-0.017474209221089613,0.001691932482809932,-0.05286721745218001, ,0.03971495884142537, ,0.017555840742105918, ,0.0011461147727691826, ,0.1635597595432009,-0.34856554827812325,0.10109636081000001,-4.512108203899995,0.13895932026145294,-1.2704547196306057, ,0.06499790517703478,-0.25238548286827334,0.031110960000000003,0.1085391613580853,-0.01043440357028841,0.284534625979705, ,1.5398600101470947
0.013302342999192297,0.032770617886437786,-0.08791320047874668, ,0.013721170610295059,0.03363392939260021,-0.08831726075686823, ,0.001041147459704985, ,0.008963907396463662,0.03160117051687557,-0.020539503674032553,-0.05783520056522061,-0.011887812959456814,-0.0010512897367910543, ,0.038740893446390964, ,0.05904427885793516, ,0.0011454419053777455, ,0.16406173718002548,-0.35049623149667936,0.10134006333000001,-4.511898513956511,0.13895932026145294,-1.26816771490667, ,0.06055963086054293,-0.2343134359468414,0.031232963764705888,0.05012580009519162,-0.01043440357028841,0.2982573359450035, ,1.542618989944458
0.013302342999192297,0.032770617886437786,-0.08791320047874668, ,0.013746734409255045,0.0337161770788179,-0.0883687342364964, ,0.0011397705541387104, ,0.008963907396463662,0.03160117051687557,-0.020539503674032553,-0.05783520056522061,-0.011887812959456814,-0.0010512897367910543, ,0.038740893446390964, ,0.05904427885793516, ,0.001145405782121446, ,0.16406173718002548,-0.35049623149667936,0.10134006333000001,-4.511898513956511,0.13895932026145294,-1.26816771490667, ,0.06055963086054293,-0.2343134359468414,0.031232963764705888,0.05012580009519162,-0.01043440357028841,0.2982573359450035, ,1.5454318523406982
0.013302342999192297,0.032770617886437786,-0.08791320047874668, ,0.013772334564420355,0.033798249439606465,-0.08842026142138475, ,0.0012385594374120271, ,0.008963907396463662,0.03160117051687557,-0.020539503674032553,-0.05783520056522061,-0.011887812959456814,-0.0010512897367910543, ,0.038740893446390964, ,0.05904427885793516, ,0.0011459953622182217, ,0.16406173718002548,-0.35049623149667936,0.10134006333000001,-4.511898513956511,0.13895932026145294,-1.26816771490667, ,0.06055963086054293,-0.2343134359468414,0.031232963764705888,0.05012580009519162,-0.01043440357028841,0.2982573359450035, ,1.5482690334320068
0.013411679922652762,0.033136924843481505,-0.08817764873977464, ,0.01379797112623685,0.03388014673395007,-0.08847184262366724, ,0.0008877779642218638, ,0.008910820878375155,0.03007614820684589,-0.022195435477691802,-0.04649345421979078,-0.01568901612011405,0.04355809210753252, ,0.038426745578191056, ,0.04906914636979144, ,0.0011443713534257918, ,0.16477222860445415,-0.35310651520816727,0.10172765404,-4.511479134069542,0.1388226837616875,-1.26462578991707, ,0.05836220268048633,-0.21182353026444373,0.03230996251521299,0.003189581410916284,0.006380995106897605,0.2594810708818216, ,1.551163911819458
0.013411679922652762,0.033136924843481505,-0.08817764873977464, ,0.013823644145011088,0.03396186921992306,-0.08852347815369485, ,0.000984807457454622, ,0.008910820878375155,0.03007614820684589,-0.022195435477691802,-0.04649345421979078,-0.01568901612011405,0.04355809210753252, ,0.038426745578191056, ,0.04906914636979144, ,0.001143374079075972, ,0.16477222860445415,-0.35310651520816727,0.10172765404,-4.511479134069542,0.1388226837616875,-1.26462578991707, ,0.05836220268048633,-0.21182353026444373,0.03230996251521299,0.003189581410916284,0.006380995106897605,0.2594810708818216, ,1.5540008544921875
0.013411679922652762,0.033136924843481505,-0.08817764873977464, ,0.01384935367091018,0.03404341715469201,-0.08857516832003863, ,0.0010822700388030315, ,0.008910820878375155,0.03007614820684589,-0.022195435477691802,-0.04649345421979078,-0.01568901612011405,0.04355809210753252, ,0.038426745578191056, ,0.04906914636979144, ,0.001142994550875519, ,0.16477222860445415,-0.35310651520816727,0.10172765404,-4.511479134069542,0.1388226837616875,-1.26462578991707, ,0.05836220268048633,-0.21182353026444373,0.03230996251521299,0.003189581410916284,0.006380995106897605,0.2594810708818216, ,1.556838035583496
0.013411679922652762,0.033136924843481505,-0.08817764873977464, ,0.013875099753961975,0.03412479079451848,-0.08862691342949258, ,0.0011800321346032085, ,0.008910820878375155,0.03007614820684589,-0.022195435477691802,-0.04649345421979078,-0.01568901612011405,0.04355809210753252, ,0.038426745578191056, ,0.04906914636979144, ,0.0011432231779355665, ,0.16477222860445415,-0.35310651520816727,0.10172765404,-4.511479134069542,0.1388226837616875,-1.26462578991707, ,0.05836220268048633,-0.21182353026444373,0.03230996251521299,0.003189581410916284,0.006380995106897605,0.2594810708818216, ,1.5596709251403809
0.013500299397559496,0.03344604544259022,-0.08839566281508751, ,0.013900882444054904,0.03420599039476095,-0.08867871378707677, ,0.0009044893367051816, ,0.008666780636833852,0.029174628674163032,-0.020015702110951678,0.010744487332179895,0.017007756289305984,-0.04326643180241825, ,0.03642664376355101, ,0.02011727042733116, ,0.0011417585531427422, ,0.16537460176864366,-0.355299771344447,0.10205043025,-4.510640374295604,0.13909595676121836,-1.2623982635202458, ,0.05990968532731741,-0.20810732797910259,0.02999776180790961,0.09808253580396953,0.014498179207082478,0.2138996477992095, ,1.5624499320983887
