NicholasDascanio/dvrk_moveit_final/test/execution/second_exp_sharpbends/firstexp_400vel5.csv
Current Position (x),Current Position (y),Current Position (z), ,Planned Position (x),Planned Position (y),Planned Position (z), ,Position Error,,Cartesian linear Velocity(x),Cartesian linear Velocity(y),Cartesian linear Velocity(z),Cartesian Angular Velocity(x),Cartesian Angular Velocity(y),Cartesian Angular Velocity(z), ,Total Linear Velocity, ,Total Angular Velocity, ,MSE, ,Joint 1 Position,Joint 2 Position,Joint 3 Position,Joint 4 Position,Joint 5 Position,Joint 6 Position, ,Joint 1 Velocity,Joint 2 Velocity,Joint 3 Velocity,Joint 4 Velocity,Joint 5 Velocity,Joint 6 Velocity, ,Time Stamp
0.01098036736065711,0.01973296362474223,-0.08056913822128245, ,0.011047189640246284,0.019714984012018807,-0.08067569340479717, ,0.0001270531017214252, ,-0.0002347896489075007,-0.00022046149456477078,0.0012923921780232121,-0.49890658644724056,0.06543672217927174,0.03183301101374466, ,0.0013319185379126691, ,0.5031796365215992, ,1.0587758476785433e-05, ,0.15551267188825896,-0.2345857337874437,0.09030993172000001,-4.533286888191932,0.18322954618545564,-1.1253906747964793, ,-0.0003961810790872533,-0.0010552571564057783,-0.0013274986330406027,0.001460340949693012,0.0,0.5054197991306539, ,0.027962923049926758
0.010940756211868711,0.019742105675252614,-0.08057221517258435, ,0.011037863924280076,0.019755092586976133,-0.08070192090870935, ,0.00016254890239436107, ,-0.003981111609095587,0.0007114560714823366,-0.0002499212725908327,-0.16388760475135788,0.4580797313857845,0.13091842108740637, ,0.0040518983240227235, ,0.4865143238360098, ,1.3163727459808467e-05, ,0.15549722642251051,-0.23460890198606638,0.09031641317000001,-4.532867508304963,0.18760191417794975,-1.116214164252837, ,-0.00037875383094515953,-0.0007720693123704785,0.0005669675617764357,-0.001175303506201635,0.4479693994444323,0.23006399604895167, ,0.05552482604980469
0.0108848989484245,0.01976104040096955,-0.08058527080687855, ,0.011030276553126807,0.019794722071892836,-0.08072987419474736, ,0.0002077961565773138, ,0.00024455682361809364,0.0003771500650751431,-0.0002158652840243234,0.40642460364725885,-0.0666963911798534,-0.03275700894430925, ,0.0004986461996358318, ,0.4118608588422156, ,1.554369252165938e-05, ,0.15547405822388782,-0.2347015747805571,0.09033585752,-4.5330771982484475,0.19388719316716,-1.1147234098714869, ,0.0009769312531719434,-0.004000398716140966,0.00030578386187497775,-0.0014350843410479816,-0.014705251763797528,-0.4091761075320812, ,0.08345985412597656
0.010955861186916552,0.019769452603453818,-0.08061157841985567, ,0.011024414784506532,0.019833875134957928,-0.08075953674352804, ,0.00017533260920851197, ,0.0020240928265171966,0.00033899904234478044,-0.0007223755791505575,-0.03834305185550021,-0.22778051340250172,-0.04572731236558317, ,0.0021757064596176928, ,0.23098517682202174, ,1.601739928337172e-05, ,0.15544316729239094,-0.23484058397229313,0.09036048703,-4.532867508304963,0.1860989126805299,-1.1207060791220158, ,-0.0025355148577855652,-0.005895222531785827,0.0006820913724592924,-0.013846353029160294,-0.2384589275838279,0.008559567130044243, ,0.11452698707580566
0.010954271567747897,0.019795508557008498,-0.0806413172947633, ,0.011020265920986969,0.019872554438873116,-0.08079089210382763, ,0.00018073169638547183, ,-0.0005242804067530858,0.0011520367887856745,-0.001214689455658076,-0.03648346973893873,0.06599368452118048,0.03450719121427251, ,0.0017542887964379476, ,0.07540696228380049, ,1.6412739736290077e-05, ,0.15539683089514558,-0.2350568204927714,0.09039548686000001,-4.532867508304963,0.18637218568006078,-1.1194586976068785, ,-0.0017676712230105527,-0.009324231339988097,0.001469034918113921,-0.013846353029160294,0.06341517933355728,0.05310889443978737, ,0.1425168514251709
0.010942631451661982,0.01983297285066614,-0.0806775319369414, ,0.011017817309916519,0.019910762640856082,-0.08082392389247013, ,0.00018202958381206575, ,3.887539401771415e-05,0.0010265929927782387,-0.0008006579470176825,-0.02988553821927412,-0.002530288551180807,0.011382266204776278, ,0.0013024813308466204, ,0.029992461633010413, ,1.6701484679018543e-05, ,0.15531960356640334,-0.23536572980774037,0.09043956072,-4.532867508304963,0.18760191417794975,-1.1189095626774757, ,-0.0017978451884952057,-0.009893504319127876,0.0010081247618200326,-0.009469189543335154,-0.007254456155986115,0.026014175328546905, ,0.17070698738098145
0.010941456257243255,0.019857445987060324,-0.08069477197996498, ,0.01101705634335747,0.01994850239264383,-0.08085861579421284, ,0.0002021173854114292, ,-4.5975187876844934e-05,0.0012187409837693046,-0.0010358033408593183,0.008558485411609487,0.0008965126440263076,0.009310724423960446, ,0.0016001037042500115, ,0.00860531274623062, ,1.7431118810008154e-05, ,0.15526554443628376,-0.23560513452684134,0.09046159765,-4.532867508304963,0.1874652776781843,-1.1187981447737791, ,-0.002451939000149034,-0.011479205465833461,0.001280181196467423,-0.007782706942632643,0.0,0.0016886012644802815, ,0.19718289375305176
0.010942157930805036,0.019897445549521504,-0.08073216017902828, ,0.011017970458019223,0.019985776340495705,-0.08089495156163484, ,0.00020012721496010324, ,9.29686278965706e-05,0.0013919153724797231,-0.0014493947526577416,0.01287394991089866,-6.893208806743336e-05,0.0077114454172088455, ,0.002011670131743804, ,0.012874134453806849, ,1.797170813088353e-05, ,0.1551805943746673,-0.23597582570480413,0.0905069678,-4.532867508304963,0.18732864117841885,-1.1186050481299423, ,-0.0015996606347649996,-0.012223166909172242,0.0017379782920654353,-0.006188236520817795,0.0,-0.0017460915846779037, ,0.22183990478515625
0.01094440447260527,0.019924810309848568,-0.08076280583649716, ,0.01102054713519153,0.020022587125196875,-0.08093291501502178, ,0.00021046411405202888, ,0.00012990929504227814,0.0014119336955267145,-0.0016178345886762335,0.012369814883626925,2.3330697626035833e-05,0.0069718407989545275, ,0.0021512373048595324, ,0.012369836885164113, ,1.851910971373833e-05, ,0.1551497034431704,-0.23620750769103085,0.09054326392,-4.532867508304963,0.18732864117841885,-1.1186050481299423, ,-0.0014728361834356783,-0.011950558341086291,0.0019099592547338732,-0.005437279716098071,0.0,-0.0013944507734366324, ,0.24668502807617188
0.010951692787456842,0.019970959275851803,-0.08082200044342937, ,0.011024773900677486,0.020058937382061447,-0.08097249004225485, ,0.00018901882349770777, ,0.00022326268183417593,0.0012901235239109092,-0.0019366190138602407,0.008786799061463936,-0.00012239525312274718,0.005864020371933183, ,0.0023376822146932426, ,0.00878765146767267, ,1.8747138653269583e-05, ,0.15511108977879928,-0.23657819886899362,0.09061196729000001,-4.532867508304963,0.18719200467865343,-1.1184936302262458, ,-0.0009471376968213401,-0.009587256003239406,0.0022004160132615006,-0.004563222077475189,0.0,0.0, ,0.2743089199066162
0.010956289003761834,0.019996454465413007,-0.0808554713279597, ,0.011030638324726939,0.020094829740935672,-0.08101366059869611, ,0.00020057258471249047, ,0.00016190721911421137,0.00119694128157069,-0.0013349905983996713,0.009433962390034157,-0.00042145980915918866,0.00555760959797521, ,0.00180030060738336, ,0.009443372000671964, ,1.904478666105523e-05, ,0.15510336704592506,-0.23677898992372345,0.09065085599000001,-4.532867508304963,0.18719200467865343,-1.1184936302262458, ,-0.000551855893236739,-0.01017927974647883,0.0015912223903627668,-0.004149250308132965,0.0,0.0, ,0.299224853515625
0.010964802307276941,0.020032298912424203,-0.08089435490022878, ,0.011038128021969504,0.020130266826201344,-0.08105641070707673, ,0.00020306761705933982, ,0.0002261568344564751,0.0011507779511784014,-0.0013915511361881482,0.005105997005939212,-0.003922260812427326,0.004192125350816731, ,0.001819849271592639, ,0.006438581777079901, ,1.9317756808553873e-05, ,0.15510336704592506,-0.23708789923869245,0.09069752243000001,-4.532867508304963,0.1869187316791225,-1.1181891156787125, ,-0.0003090390512451038,-0.009516206992690698,0.001637321572406513,-0.003653764210139826,-0.003954736648766796,0.003224822560834185, ,0.32573580741882324
0.010968835100837983,0.020056283428141742,-0.080924227666953, ,0.011047230651347894,0.02016525125677906,-0.08110072445738273, ,0.00022174527514623812, ,0.00027596977681255226,0.001197666130116088,-0.0015463968656024,0.003982023410078283,-0.00400789409889771,0.004028671888995803, ,0.0019753244652173335, ,0.005649754467014248, ,1.9859718265632963e-05, ,0.15509564431305084,-0.23728096756054806,0.09073252226,-4.532867508304963,0.1869187316791225,-1.1180257581984314, ,0.0,-0.009597313491045364,0.001804199591760468,-0.0033798366612283227,-0.003954736648766796,0.004483485073434114, ,0.34873080253601074
0.010973571151561785,0.020081791852746608,-0.08095901114900052, ,0.011057933916051005,0.020199785646131157,-0.08114658600674246, ,0.00023711587582118856, ,0.0003203958323292058,0.0012252580704197311,-0.0018191371279963036,0.002814500680159098,-0.0026319251753964676,0.0009163385952599011, ,0.002216567327864698, ,0.003853367901924239, ,2.0452431369391484e-05, ,0.1550879215801766,-0.2374817586152779,0.09077270725000001,-4.5330771982484475,0.1869187316791225,-1.1178624007181501, ,6.458777408545446e-05,-0.009057980091503388,0.002080022397492818,0.0,-0.003440656830907658,0.005711525965371198, ,0.3711409568786621
0.010983242827528952,0.02011042500845727,-0.08100489721308578, ,0.01107022556344712,0.02023387260226526,-0.08119397957931346, ,0.0002419864582637843, ,0.00046436623095776714,0.0014738775301548494,-0.0025462592876779287,-0.0026467960626543503,-0.0048593711552510814,-0.00034174660052931354, ,0.002978487423246134, ,0.0055334453385514635, ,2.101219570731043e-05, ,0.1550879215801766,-0.23768254967000774,0.09082455885000001,-4.532867508304963,0.18664545867959165,-1.117476207430476, ,6.419197167322784e-05,-0.009891023034905256,0.0028530918001074693,0.0009786640152184905,-0.006811463185503528,0.011731598858121375, ,0.393359899520874
0.010996289010628784,0.02015586575126082,-0.0810834313332336, ,0.011084093385017068,0.02026751472773752,-0.0812428894661697, ,0.00021354624386646996, ,0.00043919044572963826,0.001424393416288135,-0.0024235117555695494,0.00406638313652786,-0.00625316895452564,0.0012814490916411687, ,0.0028452054550364165, ,0.007459061181092276, ,2.1319281370877905e-05, ,0.15509564431305084,-0.23797601351922826,0.09091270657000002,-4.532448128417994,0.18664545867959165,-1.117149492469914, ,0.0,-0.009694608511668515,0.0027200839344262294,-0.001276377876163686,-0.006811463185503528,0.004406461757789314, ,0.41605687141418457
0.011004463126575038,0.020185137101967884,-0.0811316182571411, ,0.011099525216287551,0.020300714619655637,-0.0812933000251873, ,0.00022030877788666435, ,0.00043899991155457144,0.0013769979986195087,-0.002378530215836627,-0.008228142697559369,-0.004113321240186329,0.002262390688439836, ,0.0027832086515737343, ,0.009199007761722987, ,2.163822064600381e-05, ,0.15510336704592506,-0.2381768045739581,0.09096715075,-4.532448128417994,0.18664545867959165,-1.1172311712100544, ,0.00016913159862826414,-0.009245466488667326,0.002666802531391261,-0.001276377876163686,-0.006004086105469722,0.016499066825439244, ,0.43897294998168945
0.011010762969838042,0.02020947061606733,-0.0811678142253223, ,0.011116508936764089,0.020333474869682244,-0.08134519568093268, ,0.00024088056216759436, ,0.00038170485595334544,0.0013326269987967237,-0.0019115797130979757,-0.005116190699053284,-0.004075086465910047,0.0023807662044523165, ,0.002361298438255543, ,0.006540774950126153, ,2.2051481603318223e-05, ,0.15511108977879928,-0.23835442743006527,0.09100863203000001,-4.532448128417994,0.18664545867959165,-1.1172311712100544, ,0.0004239964380199565,-0.010029882908473073,0.0022004160132615006,-0.001276377876163686,-0.0053944605806876475,0.01422408091950894, ,0.46318984031677246
0.011018731645457898,0.020238375250459358,-0.08120689781018728, ,0.011135032469864395,0.020365798064038283,-0.08139856092454936, ,0.0002578705190303338, ,0.0003278774218007347,0.00130648250395687,-0.0018556231159637601,0.004619376742201746,-0.0011593066511936183,0.002769659471798333, ,0.0022929756399428154, ,0.00476262883037245, ,2.2656804105114164e-05, ,0.1551188125116735,-0.23857838668341777,0.09105400218000001,-4.532448128417994,0.1865088221798262,-1.1170380745662176, ,0.00033216854499211663,-0.009815401502663215,0.002139818850080602,-0.001276377876163686,-0.0011837163676915977,0.004770128391571018, ,0.48262500762939453
0.011029004844916892,0.020266585995811198,-0.08125661545909392, ,0.01115508378285147,0.0203976867835059,-0.08145338031364428, ,0.0002679547034689046, ,0.0005476088014067326,0.0015525179506710152,-0.0029755827133959196,-0.0002538770242195177,-0.003400482312820532,0.002332866706405215, ,0.0034006293345194903, ,0.0034099462268430514, ,2.32711696935024e-05, ,0.15513425797742195,-0.23876373227239917,0.09110974265,-4.532448128417994,0.18637218568006078,-1.1166816204420993, ,0.0005853456901863054,-0.009492251976898503,0.003301308087046633,-0.001276377876163686,-0.0038248927260570807,0.008996597482417563, ,0.5017309188842773
0.011043096977925439,0.020301248428467887,-0.08133114782892215, ,0.011176650886766736,0.020429143603432,-0.08150963847217449, ,0.0002570072607428159, ,0.0006349818987750695,0.0017837269683906938,-0.003927420675267973,0.008150183684547159,0.006325383228862242,-0.003504923280158828, ,0.004359990489675245, ,0.010316780803594754, ,2.3779867384790506e-05, ,0.1551497034431704,-0.23895680059425478,0.09119140892000001,-4.5326578183614785,0.18623554918029533,-1.1164068450581217, ,0.0008062847808898186,-0.009130077617298747,0.004298114279546681,0.006772055001713308,0.005428183636187982,0.002678500422949351, ,0.5214588642120361
0.011055573369106324,0.020334922166018343,-0.08140188727471138, ,0.01119972183636332,0.02046017109373135,-0.0815673200903351, ,0.000252654093556761, ,0.0005107981062331179,0.0015049810537045205,-0.0030313768723103218,0.00792230511122247,0.00544918814031887,-0.0035353185137366985, ,0.0034227369778174334, ,0.009615433916777612, ,2.422879979032815e-05, ,0.15516514890891886,-0.23913442345036195,0.09126918632000001,-4.53223843847451,0.18623554918029533,-1.1164068450581217, ,0.0009291976862923147,-0.008462184648684973,0.003352022626262627,0.006484271052972771,0.004785638926648485,0.002108919221747986, ,0.5412218570709229
0.01106188967299152,0.020350243124279122,-0.0814295394461676, ,0.01122428473003911,0.020490771818889773,-0.08162640992444518, ,0.0002913390701222702, ,0.0005137398042182065,0.00144546394010124,-0.002557647013029023,0.009399611669056916,0.004756287641598463,-0.005744612873486022, ,0.00298242398592612, ,0.010534465888180872, ,2.4840545878719972e-05, ,0.15518831710754152,-0.23922709624485264,0.09130029728000001,-4.532028748531025,0.18623554918029533,-1.1163251663179814, ,0.0018160031805662966,-0.009046028197367826,0.0028819995512936497,0.008761499623076374,0.004503693552550694,0.0015052375504098297, ,0.5603840351104736
0.011081568984886114,0.020395870636957494,-0.08151382288382174, ,0.011250327709769994,0.020520948337967568,-0.0816868927968354, ,0.0002721711470838806, ,0.0006966114289929181,0.0014746668965891024,-0.0027771341904428777,-0.00011106772580961842,-0.0039530532803707975,0.022519296600586682, ,0.003220618613034786, ,0.003954613269584856, ,2.5317668820141527e-05, ,0.15526554443628376,-0.23950511462832472,0.09139492645000001,-4.531819058587541,0.18623554918029533,-1.115998451357419, ,0.0036309613917294443,-0.009267450888786463,0.0031232963764705884,-0.020445666679180886,0.003829647899608199,0.006808952292881726, ,0.5818519592285156
0.011096070735557552,0.020424327399479636,-0.08156536949763495, ,0.011277838961042962,0.02055070320460247,-0.08174875359573443, ,0.00028747218883279813, ,0.0008166403801826624,0.0014068448180573287,-0.002689003279420542,0.00029346405492967085,-0.004961884754034102,0.01848524088935752, ,0.0031427460109550802, ,0.004970555434079888, ,2.5835267444985692e-05, ,0.155342771765026,-0.2396827374844319,0.09145325950000001,-4.531819058587541,0.18623554918029533,-1.1158350938771378, ,0.0051809743947091895,-0.008605520165633115,0.0030375308009153324,-0.01647971025452605,0.00348403171548454,0.006290482374012939, ,0.6010148525238037
0.0111144747751401,0.02045540560585087,-0.08162898743713906, ,0.011306806712789342,0.020580038967013176,-0.08181197727515534, ,0.00029327517755812344, ,0.0010926215316270217,0.0015658886036316868,-0.0034911358169297576,-0.002009641789096759,-0.008710564036026896,0.014537715916575218, ,0.003979178083801777, ,0.00893938395123555, ,2.646660796045697e-05, ,0.15545861275813938,-0.23985263760766481,0.09152455545,-4.531819058587541,0.18637218568006078,-1.1157831543005532, ,0.006591390403106827,-0.00808437733631087,0.0038784542293645,-0.013258268657202013,0.0,0.008088088847517976, ,0.6191318035125732
0.011137986866762784,0.02048753089699032,-0.08170129165460742, ,0.011337219237317881,0.020608958168002362,-0.08187654885478422, ,0.00029181022229566965, ,0.0011903894251320394,0.0015370807268657999,-0.003552718331954189,-0.004476244516611495,-0.005903670733459177,0.0012670367854737893, ,0.004049870577015003, ,0.007408784821791846, ,2.7057766069492203e-05, ,0.15560534468274964,-0.24001481499802355,0.09160492543000001,-4.532028748531025,0.18637218568006078,-1.1157014755604127, ,0.007583483335542271,-0.007258882563452757,0.0039437513047784105,0.0007108488711070178,0.0,0.01187975199235962, ,0.6373629570007324
0.011150103307809056,0.020503453294270824,-0.08173742816061105, ,0.011369064850247832,0.020637463344959986,-0.08194245341986511, ,0.00032853950703846, ,0.001316213845071103,0.0016320789775811971,-0.003912856530040037,0.0015446287643664917,-0.007383955966803793,0.00043869725712050733, ,0.004439205660892081, ,0.007543784383331347, ,2.7777215899022535e-05, ,0.15568257201149188,-0.2400920423267658,0.09164511042000001,-4.532028748531025,0.18637218568006078,-1.1156197968202721, ,0.008399586127822736,-0.007305130987711551,0.004280787831228165,0.0011211964577591321,0.0,0.00592849693853625, ,0.6546239852905273
0.011178721757806492,0.020540318302326235,-0.08182805739377141, ,0.01140233191044237,0.020665557029866725,-0.08200967612108816, ,0.00031412036124701525, ,0.001484996683717224,0.0018050769903256922,-0.0045706796655186,0.003349493675406659,-0.006275436291323971,-0.0073910537768981256, ,0.005133676138639799, ,0.007113382214757913, ,2.8399397611481944e-05, ,0.15585247213472483,-0.24023877425137605,0.09174492475000001,-4.531399678700571,0.18637218568006078,-1.1153747605998503, ,0.009140006572068492,-0.007196224020506692,0.005026447308299148,0.009243430597895267,0.0,0.005208403937615307, ,0.6720438003540039
0.011205227160328835,0.020571384858036154,-0.08190538433599623, ,0.011437008819941405,0.020693241749296785,-0.08207820217447531, ,0.00031374805971837513, ,0.0013918393060901226,0.0013174960725531645,-0.0034501387408070665,-0.004082977071080237,-0.012561880349889802,0.0246562944663982, ,0.003946703673445502, ,0.013208767512491709, ,2.898932219604772e-05, ,0.15603781772370623,-0.24036233797736364,0.09183047989000001,-4.531189988757087,0.1865088221798262,-1.115241142283125, ,0.010546179338288542,-0.005346451018573454,0.0038235265290446473,-0.023587139936660353,0.0029264693037457873,0.006285507793472192, ,0.6885409355163574
0.011220220458809273,0.020584804056619332,-0.0819390540205893, ,0.011473084023894898,0.02072052002442139,-0.08214801686126877, ,0.00035499897922260614, ,0.0014041609819518586,0.0013142508682050735,-0.0033634363037256497,-0.01029465701605535,-0.012074944938708808,0.024797771548724635, ,0.0038744841175353214, ,0.01586771117460309, ,2.9716483023542982e-05, ,0.15615365871681958,-0.24041639710748322,0.0918680723,-4.531189988757087,0.1865088221798262,-1.115077784802844, ,0.010831048139093578,-0.005536200031372969,0.0037409139314232035,-0.023273182264277038,0.002788632351025607,0.012778680201761214, ,0.70477294921875
0.011251594428799342,0.020614900982586528,-0.08201864597978263, ,0.011510546010496022,0.020747394371012286,-0.08221910552781657, ,0.00035326257944724634, ,0.001731885009015491,0.0015420609802589346,-0.004532097218677233,-0.010422929063079296,-0.013666193881200873,0.018244330048934707, ,0.005090901978120542, ,0.017187271556024217, ,3.0522310442163184e-05, ,0.15639306343592055,-0.24052451536772235,0.09195622002,-4.531189988757087,0.18664545867959165,-1.1150258452262591, ,0.012323261567107288,-0.004669559312794881,0.004960701189660542,-0.017032706582944025,0.0011354708240806505,0.012754868959259688, ,0.7184009552001953
0.011270501194083373,0.020630781571827086,-0.08206463653917152, ,0.011549383310914166,0.020773867299444353,-0.08229145358545978, ,0.00038690403593490065, ,0.001970783241588419,0.0016511308999445288,-0.004972272573330239,-0.008869071068378727,-0.015391238328165045,0.01630795136488158, ,0.005597652577426497, ,0.017763744983843407, ,3.142691462642606e-05, ,0.1565320726276566,-0.2405708517649677,0.09200677533000001,-4.531189988757087,0.18664545867959165,-1.1149441664861186, ,0.014321904853376212,-0.004559411297497658,0.005442026484455074,-0.015133865189198733,0.0011354708240806505,0.011362423271294445, ,0.73248291015625
0.01128931909405553,0.020648340474595333,-0.08211808957313893, ,0.011589584499228199,0.0207999413146993,-0.08236504651041986, ,0.00041728869758826556, ,0.0021598744697786175,0.0017938132247399326,-0.00548122148510328,0.0006984024005516141,-0.012256200893380961,-0.0011132598974105345, ,0.006158458620402605, ,0.012276083304722955, ,3.241234691603263e-05, ,0.15667108181939263,-0.24061718816221306,0.09206510838000001,-4.531399678700571,0.1867820951793571,-1.1149739056496746, ,0.015654394846333023,-0.00432641009432782,0.005992780857787812,0.002794365025880268,0.0022772153439008834,0.004366189390098008, ,0.74593186378479
0.011324661369628172,0.02067963525043475,-0.08221256926772189, ,0.011631138192359437,0.020825618916368815,-0.08243986984368432, ,0.00040853987005413814, ,0.0023395085986189414,0.002014247501106914,-0.006253374004468002,0.001459215692671047,0.0008177172052747322,0.002199446477962992, ,0.006973892737810325, ,0.0016727110638204013, ,3.332862251259016e-05, ,0.15695682293573893,-0.24068669275808108,0.09216881158000001,-4.531189988757087,0.18719200467865343,-1.114899765660061, ,0.01795590190321112,-0.004312654603488921,0.006836399793991417,0.0036959040548771634,0.01793434125766289,0.005959463255631988, ,0.7618248462677002
0.011353547767521711,0.0207072208483782,-0.08229360096269561, ,0.01167403305000492,0.02085090259865769,-0.08251590919089498, ,0.0004156635778810336, ,0.001989699656914534,0.0019092485660385742,-0.005483920337915553,-0.007760517399742698,0.04109013202180528,0.008995092902134922, ,0.006138201453540768, ,0.041816558621213605, ,3.423745632761966e-05, ,0.15721939585346256,-0.24074847462107488,0.09225825559,-4.530980298813603,0.1878751871774806,-1.1149667827376997, ,0.01945805650163436,-0.004528741702571416,0.00608666852120749,0.008744925130317268,0.05825968670705156,0.02203915148956464, ,0.7760109901428223
0.011402732197459964,0.020741072916325397,-0.08239224875061979, ,0.011718257774570418,0.020875794850387163,-0.08259315022223418, ,0.000397577402055317, ,0.0028257436189342306,0.0016244244057270216,-0.005267293519448172,-0.06543727032725902,-0.02092911975405288,0.027762333967557073, ,0.006194187813578938, ,0.06870272481865444, ,3.504889045097886e-05, ,0.15765959162729337,-0.24082570194981712,0.09236844024000002,-4.530560918926633,0.18828509667677693,-1.1140758553466805, ,0.023700534854762933,-0.0032678122194804904,0.005832593013548151,-0.02363491074481219,0.0,0.06576158422804353, ,0.7906208038330078
0.011430559724455357,0.02075881044657386,-0.08244643837537173, ,0.011763801111103566,0.02090029815499801,-0.0826715786723111, ,0.00042632938758228737, ,0.0024018791404536136,0.0016308684062919427,-0.0050080829954856215,0.06218527409822203,0.021346204031019046,0.03558993592891066, ,0.005788752063585005, ,0.06574700554439386, ,3.605996404030173e-05, ,0.15794533274363967,-0.240856592881314,0.09242936587000002,-4.530560918926633,0.1888316426758387,-1.114031454520623, ,0.025724299690558627,-0.0030660239307841375,0.005624580338983051,-0.02363491074481219,0.0624717846856066,-0.0544977209797136, ,0.8013498783111572
0.01145293883667082,0.020773474739760194,-0.08248775267743963, ,0.01181065184722699,0.020924414990554075,-0.08275118034004952, ,0.0004691862004140682, ,0.0031042029938330978,0.001948456740072146,-0.00593658217497693,-0.0005235578601531724,0.0042437030253112,0.03097190006603152, ,0.006976787786303147, ,0.004275876614954565, ,3.719218126766362e-05, ,0.15816156926411795,-0.24089520654568514,0.09247603231000001,-4.530560918926633,0.18910491567536958,-1.1139275753674536, ,0.030049696503632293,-0.004971467259456879,0.006143004828384112,-0.021130206219485855,0.050030911181373025,-0.0032549778683763145, ,0.8143348693847656
0.011496019565140155,0.020798157424928923,-0.08256973034252518, ,0.011858798813071385,0.020948147829744992,-0.0828319410885742, ,0.00047208090367014104, ,0.003699883216134492,0.002121331473918167,-0.007243193831975693,-0.016780967826501503,-0.01727757153467967,-0.005618754305753518, ,0.008405536266225984, ,0.02408558364236743, ,3.8303219682094844e-05, ,0.15853226044208074,-0.24093382021005624,0.09256677261000001,-4.530770608870118,0.18924155217513502,-1.1137939570507283, ,0.03101207240472901,-0.0022689606859976406,0.00798436667669173,0.010246084939525607,0.00887499680044196,0.02208041268449383, ,0.8265810012817383
0.011534994957115277,0.020821200452994792,-0.0826421103676314, ,0.011908230881208598,0.020971499139890073,-0.08291384684509756, ,0.00048552596583700493, ,0.003754393999799404,0.0022947248281140397,-0.0074075324976989555,-0.01428527807119366,-0.019668839988272804,-0.004672438822530038, ,0.008615844360650842, ,0.02430910145917312, ,3.9429704723141033e-05, ,0.15918869273638983,-0.24100332480592426,0.09272751257,-4.5303512289831485,0.18965146167443137,-1.1138014958012552, ,0.03645675818612016,-0.0019150800075272273,0.00829193728266528,0.01594099777432208,0.016598887319194004,-0.020783515814224017, ,0.8372349739074707
0.011605048877995487,0.020864311982525367,-0.0827844689762982, ,0.01195893696658477,0.0209944713829408,-0.08299688360080691, ,0.0004327796453936589, ,0.004140051683556835,0.0021844389305736363,-0.007471582975063803,0.0272568677887993,-0.019452269692472213,-0.012102819796079092, ,0.008816822190403454, ,0.033486230223189674, ,4.034964059772663e-05, ,0.15918869273638983,-0.24100332480592426,0.09272751257,-4.5303512289831485,0.18965146167443137,-1.1138014958012552, ,0.03645675818612016,-0.0019150800075272273,0.00829193728266528,0.01594099777432208,0.016598887319194004,-0.020783515814224017, ,0.8479208946228027
0.011642387917826886,0.020885310492474617,-0.082853300715685, ,0.012010906026453407,0.02101706701548478,-0.08308103741075082, ,0.00045280170054991703, ,0.004295719710531218,0.0024754330009528628,-0.008170815312228012,0.016594215223834047,-0.01095033724328537,-0.007320821683692497, ,0.009557363613475877, ,0.0198815952131034, ,4.131136712630422e-05, ,0.15983740229782467,-0.24104966120316962,0.09288177108000001,-4.530141539039664,0.19033464417325854,-1.1141952278394562, ,0.03777744488792627,-0.003065676686817552,0.009071077175398635,0.014512619555551052,0.025505527597329578,-0.007796773972132789, ,0.85947585105896
0.011706245412136405,0.02091543970600305,-0.08295677259961831, ,0.012064127060308346,0.021039288488748423,-0.08316629439372623, ,0.00043280154492790154, ,0.0047386182770071845,0.002264500848664519,-0.007314067575456914,-0.0040298814360377536,-0.02521363032173349,-0.00904233886389278, ,0.009004335165193432, ,0.025533645988348896, ,4.21828852905475e-05, ,0.1603471026675235,-0.24108055213466653,0.09298936315,-4.530141539039664,0.19033464417325854,-1.1139501916190344, ,0.04426163318958525,-0.003070328643814613,0.0083615808503937,0.014512619555551052,0.014320443764824166,0.01199805383334264, ,0.8711240291595459
0.011752897214610964,0.02093639164074103,-0.08302966936578075, ,0.012118589109817066,0.021061138248600494,-0.08325264073216539, ,0.00044610369715942074, ,0.005062257817956738,0.002146708391070398,-0.007574375182242049,-0.029644597442269518,-0.03746799024578891,-0.011011765700644188, ,0.009359806116214184, ,0.04777711194329423, ,4.3213708004379036e-05, ,0.1608181893728512,-0.24109599760041497,0.09307880716000001,-4.530141539039664,0.19047128067302396,-1.113816573302309, ,0.045081682450579946,-0.0011601964971503314,0.00848631407565264,0.014073561277443924,0.0,0.033330327210740675, ,0.8796689510345459
0.011789074767628608,0.02095389829205946,-0.08309188233298008, ,0.012174281258753548,0.021082618735555128,-0.08334006267202221, ,0.00047596898435252707, ,0.005062257817956738,0.002146708391070398,-0.007574375182242049,-0.029644597442269518,-0.03746799024578891,-0.011011765700644188, ,0.009359806116214184, ,0.04777711194329423, ,4.432018679140584e-05, ,0.16119660328368818,-0.24109599760041497,0.09314880682000001,-4.530141539039664,0.1911544631718512,-1.1142919840806509, ,0.0451245561381221,-0.0007879370031248752,0.008189620318766069,0.0125364726492274,0.09934733179923069,-0.046081922795151414, ,0.8879399299621582
0.011789074767628608,0.02095389829205946,-0.08309188233298008, ,0.012231192632931454,0.021103732384775368,-0.08342854652265928, ,0.0005755529851997115, ,0.004131820436803467,0.002157456224919129,-0.0072332707826281255,0.06235498614846799,0.0468727169347234,0.01084356783023776, ,0.008605042922568765, ,0.0780076654606325, ,4.572079573072703e-05, ,0.16119660328368818,-0.24109599760041497,0.09314880682000001,-4.530141539039664,0.1911544631718512,-1.1142919840806509, ,0.0451245561381221,-0.0007879370031248752,0.008189620318766069,0.0125364726492274,0.09934733179923069,-0.046081922795151414, ,0.8961508274078369
0.011840156802466426,0.02097815924202362,-0.0831716252355268, ,0.01228931240013716,0.021124481626075914,-0.08351807865673518, ,0.0005858164935034568, ,0.004749910408703893,0.00218759244678657,-0.007557059067650465,0.0414119398620784,0.014039821376258619,0.00942387493853737, ,0.009190013675501759, ,0.043727169160267455, ,4.712723493546457e-05, ,0.16172947185200967,-0.24111144306616342,0.09323954712000002,-4.5299318490961795,0.19197428217044385,-1.1147154552824077, ,0.04839211706194329,-0.0006857160750208982,0.008545499742489271,0.006540794540458042,0.06780464046351845,-0.03045612317194813, ,0.905803918838501
0.01189454263075677,0.021001729744633064,-0.0832573318193375, ,0.012348629770062841,0.02114486888392684,-0.08360864551009023, ,0.0005916969262986202, ,0.005985091766559931,0.002598487684097752,-0.009429369582524888,-0.029773183523651207,-0.03358263626723646,-0.01008498664843252, ,0.011466755095596868, ,0.044880238872430464, ,4.852572941214849e-05, ,0.16223144948883428,-0.24111144306616342,0.09333547258000001,-4.529722159152695,0.19224755516997472,-1.114448218648957, ,0.05331288851599482,-0.0005180160564012948,0.010527965313945805,0.01637498040099972,0.011905623487471623,0.03490494247804616, ,0.9141018390655518
0.01195839936490015,0.021031364185968487,-0.08336464181256914, ,0.012409133994239568,0.021164896577456533,-0.08370023358163403, ,0.000577593664375193, ,0.006450280113763715,0.0028370550951994293,-0.010678980889142046,-0.06788421924915064,-0.044516051501313124,-0.0016247227558538295, ,0.012794359225450634, ,0.08117848191147288, ,4.9855010877190786e-05, ,0.16278748625577844,-0.24111916579903764,0.09345473126,-4.529512469209211,0.19238419166974016,-1.1140695641118101, ,0.05501271974404103,0.0,0.011834183893016346,0.006701223728862305,0.0,0.06967585383497225, ,0.9221940040588379
0.01202276051977671,0.021062151179291996,-0.08348011771991022, ,0.012470814365970204,0.021184567120455033,-0.08379282943323256, ,0.0005599343956113145, ,0.006450280113763715,0.003191880958662408,-0.01163728621266039,0.09348109483206152,0.029737571322717832,0.014958716806800838, ,0.012794359225450634, ,0.08117848191147288, ,5.126242486452086e-05, ,0.16335124575559684,-0.24111144306616342,0.09357398994,-4.529512469209211,0.19306737416856737,-1.1143816174098706, ,0.057270332865703544,0.00030568394263785444,0.012845815741935485,0.006280961979115491,0.10122331238631375,-0.0790340838855111, ,0.9284839630126953
0.01202276051977671,0.021062151179291996,-0.08348011771991022, ,0.012533660220262685,0.02120388292137712,-0.08388641968959389, ,0.0006679728147462059, ,0.006001259769296559,0.003191880958662408,-0.01163728621266039,0.09348109483206152,0.029737571322717832,0.014958716806800838, ,0.013477004610380774, ,0.09809708469543361, ,5.298111168828124e-05, ,0.16335124575559684,-0.24111144306616342,0.09357398994,-4.529512469209211,0.19306737416856737,-1.1143816174098706, ,0.057270332865703544,0.00030568394263785444,0.012845815741935485,0.006280961979115491,0.10122331238631375,-0.0790340838855111, ,0.9341568946838379
0.012091225529532955,0.021094943476970326,-0.08360413492900363, ,0.012597660933762833,0.021222846383345848,-0.08398099103815561, ,0.000644093548424412, ,0.007408373849644017,0.0036019488032931575,-0.013762199745241416,0.03780354067639642,-0.027205448005798414,0.003138648225138907, ,0.016039207589702092, ,0.0465751392396766, ,5.4606886084196195e-05, ,0.1640076780499059,-0.2411037203332892,0.09372047071,-4.529512469209211,0.1936139201676291,-1.1145822528042346, ,0.06424979117025781,0.0009656442876350253,0.015184758360343184,0.005613231529563972,0.04170218689439537,-0.03232328770366896, ,0.9395308494567871
0.012091225529532955,0.021094943476970326,-0.08360413492900363, ,0.01266280592468765,0.021241459904155477,-0.08407653022897213, ,0.000755862772593428, ,0.007408373849644017,0.0036019488032931575,-0.013762199745241416,0.03780354067639642,-0.027205448005798414,0.003138648225138907, ,0.016039207589702092, ,0.0465751392396766, ,5.6548774974361466e-05, ,0.1640076780499059,-0.2411037203332892,0.09372047071,-4.529512469209211,0.1936139201676291,-1.1145822528042346, ,0.06424979117025781,0.0009656442876350253,0.015184758360343184,0.005613231529563972,0.04170218689439537,-0.03232328770366896, ,0.9450268745422363
0.01217314904909532,0.021134734769437884,-0.0837574664699189, ,0.012729084652758163,0.02125972587627472,-0.08417302407460026, ,0.0007052483924240988, ,0.009043926780392068,0.004270622254052224,-0.01660803174570773,-0.03303376276582729,-0.06299743647695434,-0.02031173611104681, ,0.019387045791258006, ,0.07113301077271728, ,5.831638942951184e-05, ,0.16462549667984389,-0.24108827486754075,0.09387602551,-4.529093089322242,0.19375055666739455,-1.1145303132276498, ,0.07156632093399003,0.0014792672655089235,0.018059877006802724,0.02349851727206542,0.0,0.035691985130092745, ,0.9547288417816162
0.01217314904909532,0.021134734769437884,-0.0837574664699189, ,0.01279648661913255,0.021277646686850123,-0.08427045944998693, ,0.0008198386060423362, ,0.009043926780392068,0.004270622254052224,-0.01660803174570773,-0.03303376276582729,-0.06299743647695434,-0.02031173611104681, ,0.019387045791258006, ,0.07113301077271728, ,6.040305360512998e-05, ,0.16462549667984389,-0.24108827486754075,0.09387602551,-4.529093089322242,0.19375055666739455,-1.1145303132276498, ,0.07156632093399003,0.0014792672655089235,0.018059877006802724,0.02349851727206542,0.0,0.035691985130092745, ,0.9603629112243652
0.012199382627173707,0.02114723890842776,-0.08380696662808523, ,0.012865001366339206,0.021295224717709352,-0.08436882329235573, ,0.0008835332573605645, ,0.00916259856311875,0.004250611150375381,-0.016557714806175804,-0.012259516504123893,-0.05921412983864578,-0.01935595766685667, ,0.019395330035429013, ,0.06046989063114447, ,6.265298620144357e-05, ,0.16490351506331596,-0.24108055213466653,0.09394343259000001,-4.529093089322242,0.19388719316716,-1.1145600523912058, ,0.07549478246497278,0.0017790664183475393,0.018225184805491994,0.02349851727206542,0.00907600526758833,0.015698087884945346, ,0.9663858413696289
0.0123434278752025,0.02122744952458433,-0.08410902698626274, ,0.012934618478209634,0.021312462345364002,-0.08446810260109341, ,0.0006968994231213576, ,0.009039139707886928,0.004978322182409744,-0.018821441318152644,0.038660891619457495,0.007486500156150989,-0.0025034882612421272, ,0.02146477094457881, ,0.03937905361335902, ,6.432921332965022e-05, ,0.16613142959031765,-0.24106510666891806,0.09427528283000002,-4.528673709435273,0.19525355816481438,-1.1152658377274671, ,0.07702673827797953,0.0011848343729828877,0.02068676820779221,0.024107924368578726,0.08571437982864605,-0.024096446076558413, ,0.9719018936157227
0.012441008323808463,0.021271451272580937,-0.0842827126256854, ,0.013005327579811682,0.021329361941013415,-0.08456828443763681, ,0.0006351071783530188, ,0.010000678592650298,0.003981861108152152,-0.0163083826689631,-0.023663335300243924,-0.05091162279183059,-0.019237689344233363, ,0.019540525465694226, ,0.05614219107971728, ,6.580574030251822e-05, ,0.1669654847407339,-0.24103421573742118,0.09446713375000002,-4.528464019491787,0.19566346766411072,-1.1152733764779943, ,0.08658480069203538,0.004849778127778678,0.018080376299659483,0.02846859162458512,0.026563196627551303,0.027520215356394127, ,0.9791419506072998
0.012441008323808463,0.021271451272580937,-0.0842827126256854, ,0.013077118337382418,0.021345925870547375,-0.08466935592536001, ,0.000748114601043577, ,0.010000678592650298,0.003981861108152152,-0.0163083826689631,-0.023663335300243924,-0.05091162279183059,-0.019237689344233363, ,0.019540525465694226, ,0.05614219107971728, ,6.778919629304455e-05, ,0.1669654847407339,-0.24103421573742118,0.09446713375000002,-4.528464019491787,0.19566346766411072,-1.1152733764779943, ,0.08658480069203538,0.004849778127778678,0.018080376299659483,0.02846859162458512,0.026563196627551303,0.027520215356394127, ,0.9820218086242676
0.012441008323808463,0.021271451272580937,-0.0842827126256854, ,0.013149980458261197,0.021362156494549707,-0.08477130424946025, ,0.0008657890618076737, ,0.010000678592650298,0.003981861108152152,-0.0163083826689631,-0.023663335300243924,-0.05091162279183059,-0.019237689344233363, ,0.019540525465694226, ,0.05614219107971728, ,7.010223938149275e-05, ,0.1669654847407339,-0.24103421573742118,0.09446713375000002,-4.528464019491787,0.19566346766411072,-1.1152733764779943, ,0.08658480069203538,0.004849778127778678,0.018080376299659483,0.02846859162458512,0.026563196627551303,0.027520215356394127, ,0.9849720001220703
0.012441008323808463,0.021271451272580937,-0.0842827126256854, ,0.0132239036908228,0.021378056168301362,-0.08487411665684592, ,0.000986938948241984, ,0.010000678592650298,0.003981861108152152,-0.0163083826689631,-0.023663335300243924,-0.05091162279183059,-0.019237689344233363, ,0.019540525465694226, ,0.05614219107971728, ,7.275205645912422e-05, ,0.1669654847407339,-0.24103421573742118,0.09446713375000002,-4.528464019491787,0.19566346766411072,-1.1152733764779943, ,0.08658480069203538,0.004849778127778678,0.018080376299659483,0.02846859162458512,0.026563196627551303,0.027520215356394127, ,0.9878168106079102
0.012535282515660684,0.02130889969900247,-0.08443147244344364, ,0.013298877824410242,0.021393627241783536,-0.08497778045602182, ,0.0009427136344920313, ,0.01075736728908727,0.004229746037413077,-0.016535193801196106,-0.017940666054736626,-0.056746892075094514,-0.014369687406932074, ,0.02017484415246994, ,0.059515342749499316, ,0.0004080457057710783, ,0.16780726262402437,-0.24100332480592426,0.09463305887000001,-4.528464019491787,0.19607337716340703,-1.1153625939686618, ,0.09499193349196275,0.0030248635432277068,0.018478899675174017,0.02456114111511705,0.030771059921442318,0.02353175296566435, ,0.99062180519104
0.012535282515660684,0.02130889969900247,-0.08443147244344364, ,0.013374892689267903,0.02140887205968105,-0.08508228301697687, ,0.001067002398847843, ,0.01075736728908727,0.004229746037413077,-0.016535193801196106,-0.017940666054736626,-0.056746892075094514,-0.014369687406932074, ,0.02017484415246994, ,0.059515342749499316, ,0.0004181835010491824, ,0.16780726262402437,-0.24100332480592426,0.09463305887000001,-4.528464019491787,0.19607337716340703,-1.1153625939686618, ,0.09499193349196275,0.0030248635432277068,0.018478899675174017,0.02456114111511705,0.030771059921442318,0.02353175296566435, ,0.9934659004211426
0.012535282515660684,0.02130889969900247,-0.08443147244344364, ,0.013451938156474618,0.02142379296138557,-0.08518761177107113, ,0.0011938193784496879, ,0.01075736728908727,0.004229746037413077,-0.016535193801196106,-0.017940666054736626,-0.056746892075094514,-0.014369687406932074, ,0.02017484415246994, ,0.059515342749499316, ,0.0004299355597976749, ,0.16780726262402437,-0.24100332480592426,0.09463305887000001,-4.528464019491787,0.19607337716340703,-1.1153625939686618, ,0.09499193349196275,0.0030248635432277068,0.018478899675174017,0.02456114111511705,0.030771059921442318,0.02353175296566435, ,0.9963769912719727
0.012660372352480175,0.021358317074037975,-0.08463195541299169, ,0.013530004137876696,0.021438392280998794,-0.08529375421092159, ,0.0010957413608526476, ,0.012357391969074184,0.00506230437050905,-0.020814510894361055,0.11583877899688803,0.022095131447712333,0.0030766992185310956, ,0.024730061172356394, ,0.11792715398199326, ,0.00043987295981342075, ,0.16898111802090648,-0.24092609747718202,0.09485731704000001,-4.527834949661335,0.197303105661296,-1.1160386401413673, ,0.1168681546286586,0.008241006733155684,0.023219841865889216,0.029778032119109597,0.15136148296211643,-0.09873067845358723, ,0.9991350173950195
0.012660372352480175,0.021358317074037975,-0.08463195541299169, ,0.013609080586020679,0.02145267234733571,-0.08540069789028999, ,0.0012247102622209725, ,0.012357391969074184,0.00506230437050905,-0.020814510894361055,0.11583877899688803,0.022095131447712333,0.0030766992185310956, ,0.024730061172356394, ,0.11792715398199326, ,0.0004514146848488259, ,0.16898111802090648,-0.24092609747718202,0.09485731704000001,-4.527834949661335,0.197303105661296,-1.1160386401413673, ,0.1168681546286586,0.008241006733155684,0.023219841865889216,0.029778032119109597,0.15136148296211643,-0.09873067845358723, ,1.0018830299377441
0.012660372352480175,0.021358317074037975,-0.08463195541299169, ,0.013689157494086675,0.021466635483927653,-0.0855084304239685, ,0.0013558540446442322, ,0.012357391969074184,0.00506230437050905,-0.020814510894361055,0.11583877899688803,0.022095131447712333,0.0030766992185310956, ,0.024730061172356394, ,0.11792715398199326, ,0.0004645225016574549, ,0.16898111802090648,-0.24092609747718202,0.09485731704000001,-4.527834949661335,0.197303105661296,-1.1160386401413673, ,0.1168681546286586,0.008241006733155684,0.023219841865889216,0.029778032119109597,0.15136148296211643,-0.09873067845358723, ,1.004621982574463
0.012660372352480175,0.021358317074037975,-0.08463195541299169, ,0.013770224895821189,0.02148028400902574,-0.08561693948766716, ,0.00148890638676685, ,0.012357391969074184,0.00506230437050905,-0.020814510894361055,0.11583877899688803,0.022095131447712333,0.0030766992185310956, ,0.024730061172356394, ,0.11792715398199326, ,0.00047915655715901777, ,0.16898111802090648,-0.24092609747718202,0.09485731704000001,-4.527834949661335,0.197303105661296,-1.1160386401413673, ,0.1168681546286586,0.008241006733155684,0.023219841865889216,0.029778032119109597,0.15136148296211643,-0.09873067845358723, ,1.0074069499969482
0.012801853340709922,0.02142149715703815,-0.08488647432819854, ,0.013852272865470283,0.021493620235604194,-0.08572621281790083, ,0.0013467530016848302, ,0.01537030585539733,0.007201510041104621,-0.029110390889602725,0.11683993888088698,0.03802727637382572,-0.05121921975458924, ,0.03369752077981491, ,0.1228723897447324, ,0.0004913762253917757, ,0.170270814410902,-0.24083342468269134,0.09513990826,-4.526786499943912,0.1989427436584813,-1.1168039038047404, ,0.13615056177685905,0.009702333322428503,0.03217941721212122,0.09244372432785126,0.17120981786212702,-0.08778794378342103, ,1.0102980136871338
0.012801853340709922,0.02142149715703815,-0.08488647432819854, ,0.013935291517712344,0.021506646471363085,-0.08583623821187505, ,0.0014812102961945929, ,0.01537030585539733,0.007201510041104621,-0.029110390889602725,0.11683993888088698,0.03802727637382572,-0.05121921975458924, ,0.03369752077981491, ,0.1228723897447324, ,0.0005051239208195926, ,0.170270814410902,-0.24083342468269134,0.09513990826,-4.526786499943912,0.1989427436584813,-1.1168039038047404, ,0.13615056177685905,0.009702333322428503,0.03217941721212122,0.09244372432785126,0.17120981786212702,-0.08778794378342103, ,1.013288974761963
0.012801853340709922,0.02142149715703815,-0.08488647432819854, ,0.014019271007591367,0.021519365018732157,-0.08594700352737378, ,0.0016175308579099456, ,0.01537030585539733,0.007201510041104621,-0.029110390889602725,0.11683993888088698,0.03802727637382572,-0.05121921975458924, ,0.03369752077981491, ,0.1228723897447324, ,0.0005203623720126112, ,0.170270814410902,-0.24083342468269134,0.09513990826,-4.526786499943912,0.1989427436584813,-1.1168039038047404, ,0.13615056177685905,0.009702333322428503,0.03217941721212122,0.09244372432785126,0.17120981786212702,-0.08778794378342103, ,1.01607084274292
0.012977124792223876,0.021506870029205302,-0.08524178274763465, ,0.01410420153044977,0.021531778174873558,-0.08605849668264554, ,0.0017555367012788271, ,0.018669419828600885,0.009466869688739955,-0.03977567546558815,0.08785072585607251,0.04681945217849942,0.0024315399468921306, ,0.044947449506995724, ,0.09954753424903096, ,0.0005370539170026951, ,0.1716609063282624,-0.24071758368957796,0.09549898059,-4.526367120056943,0.20071901815543203,-1.1172721916711073, ,0.1543039700137736,0.014088025765806231,0.04305084194594595,0.05014478398566386,0.20563970729827458,-0.06137311041826635, ,1.0190069675445557
0.012977124792223876,0.021506870029205302,-0.08524178274763465, ,0.014190073321861504,0.02154388823168545,-0.08617070565629016, ,0.0015282382841330594, ,0.018669419828600885,0.009466869688739955,-0.03977567546558815,0.08785072585607251,0.04681945217849942,0.0024315399468921306, ,0.044947449506995724, ,0.09954753424903096, ,0.0005502697085644333, ,0.1716609063282624,-0.24071758368957796,0.09549898059,-4.526367120056943,0.20071901815543203,-1.1172721916711073, ,0.1543039700137736,0.014088025765806231,0.04305084194594595,0.05014478398566386,0.20563970729827458,-0.06137311041826635, ,1.0220839977264404
0.012977124792223876,0.021506870029205302,-0.08524178274763465, ,0.014276876657564969,0.021555697475804828,-0.08628361848714598, ,0.0016664815447889612, ,0.018669419828600885,0.009466869688739955,-0.03977567546558815,0.08785072585607251,0.04681945217849942,0.0024315399468921306, ,0.044947449506995724, ,0.09954753424903096, ,0.0005649567064094929, ,0.1716609063282624,-0.24071758368957796,0.09549898059,-4.526367120056943,0.20071901815543203,-1.1172721916711073, ,0.1543039700137736,0.014088025765806231,0.04305084194594595,0.05014478398566386,0.20563970729827458,-0.06137311041826635, ,1.0249269008636475
0.012977124792223876,0.021506870029205302,-0.08524178274763465, ,0.01436460185339618,0.021567208188611325,-0.0863972232741762, ,0.0018065923998330285, ,0.018669419828600885,0.009466869688739955,-0.03977567546558815,0.08785072585607251,0.04681945217849942,0.0024315399468921306, ,0.044947449506995724, ,0.09954753424903096, ,0.0005810818452851233, ,0.1716609063282624,-0.24071758368957796,0.09549898059,-4.526367120056943,0.20071901815543203,-1.1172721916711073, ,0.1543039700137736,0.014088025765806231,0.04305084194594595,0.05014478398566386,0.20563970729827458,-0.06137311041826635, ,1.0277478694915771
0.01317161318872635,0.021606223785521524,-0.08566673108669473, ,0.014453239265221568,0.0215784226462297,-0.08651150817635567, ,0.001535248069373303, ,0.020853056657031067,0.010588186973326441,-0.04576042421883147,0.06436787844629668,0.06163526068307763,0.032982252719532354, ,0.05139042809717472, ,0.08911749816980363, ,0.000593314745593946, ,0.17337535302634025,-0.24053996083347082,0.09599416337000001,-4.525947740169974,0.20317847515120993,-1.1178074966151126, ,0.17037152883028864,0.018873695616243195,0.049933578432601884,0.025494020936774695,0.2427337442703097,-0.04464873443831592, ,1.0305378437042236
0.01317161318872635,0.021606223785521524,-0.08566673108669473, ,0.014542779288871118,0.021589343119533783,-0.08662646141255759, ,0.001673757368751884, ,0.020853056657031067,0.010588186973326441,-0.04576042421883147,0.06436787844629668,0.06163526068307763,0.032982252719532354, ,0.05139042809717472, ,0.08911749816980363, ,0.0006069912344946794, ,0.17337535302634025,-0.24053996083347082,0.09599416337000001,-4.525947740169974,0.20317847515120993,-1.1178074966151126, ,0.17037152883028864,0.018873695616243195,0.049933578432601884,0.025494020936774695,0.2427337442703097,-0.04464873443831592, ,1.0332839488983154
0.01317161318872635,0.021606223785521524,-0.08566673108669473, ,0.01463321236007141,0.021599971874149144,-0.0867420712614407, ,0.0018145709452912226, ,0.020853056657031067,0.010588186973326441,-0.04576042421883147,0.06436787844629668,0.06163526068307763,0.032982252719532354, ,0.05139042809717472, ,0.08911749816980363, ,0.0006220859808796362, ,0.17337535302634025,-0.24053996083347082,0.09599416337000001,-4.525947740169974,0.20317847515120993,-1.1178074966151126, ,0.17037152883028864,0.018873695616243195,0.049933578432601884,0.025494020936774695,0.2427337442703097,-0.04464873443831592, ,1.0359950065612793
0.013368194142083043,0.021700530138561668,-0.08608697954997693, ,0.014724528954378433,0.02161031117045663,-0.08685832606133564, ,0.0015629328283184667, ,0.023063787439383237,0.01050341563747096,-0.04775626824384226,0.08540861957507144,0.07095216259153027,0.0035859540879630333, ,0.05406404708935818, ,0.11103419866847052, ,0.0006337013740578934, ,0.1749971269299274,-0.2403237243129925,0.09645305003000001,-4.52531867033952,0.20550129564722242,-1.1182313836554219, ,0.19209907198071008,0.026967019482373053,0.05222561154098361,0.060549051806302615,0.26915506718783777,-0.06408047739732642, ,1.0394458770751953
0.013368194142083043,0.021700530138561668,-0.08608697954997693, ,0.014816719587110847,0.021620363263595534,-0.08697521421013153, ,0.001701062463354826, ,0.023063787439383237,0.01050341563747096,-0.04775626824384226,0.08540861957507144,0.07095216259153027,0.0035859540879630333, ,0.05406404708935818, ,0.11103419866847052, ,0.0006467179727078559, ,0.1749971269299274,-0.2403237243129925,0.09645305003000001,-4.52531867033952,0.20550129564722242,-1.1182313836554219, ,0.19209907198071008,0.026967019482373053,0.05222561154098361,0.060549051806302615,0.26915506718783777,-0.06408047739732642, ,1.0421948432922363
0.013368194142083043,0.021700530138561668,-0.08608697954997693, ,0.014909774813282749,0.021630130403466633,-0.0870927241651629, ,0.0018419960150590834, ,0.023063787439383237,0.01050341563747096,-0.04775626824384226,0.08540861957507144,0.07095216259153027,0.0035859540879630333, ,0.05406404708935818, ,0.11103419866847052, ,0.0006611189129771478, ,0.1749971269299274,-0.2403237243129925,0.09645305003000001,-4.52531867033952,0.20550129564722242,-1.1182313836554219, ,0.19209907198071008,0.026967019482373053,0.05222561154098361,0.060549051806302615,0.26915506718783777,-0.06408047739732642, ,1.0449278354644775
0.013368194142083043,0.021700530138561668,-0.08608697954997693, ,0.015003685227536853,0.02163961483473579,-0.08721084444309715, ,0.0019853498590493316, ,0.023063787439383237,0.01050341563747096,-0.04775626824384226,0.08540861957507144,0.07095216259153027,0.0035859540879630333, ,0.05406404708935818, ,0.11103419866847052, ,0.0006768835670970547, ,0.1749971269299274,-0.2403237243129925,0.09645305003000001,-4.52531867033952,0.20550129564722242,-1.1182313836554219, ,0.19209907198071008,0.026967019482373053,0.05222561154098361,0.060549051806302615,0.26915506718783777,-0.06408047739732642, ,1.047684907913208
0.013633952350867302,0.021816193573031877,-0.08662336458611426, ,0.015098441464077366,0.02164881879683676,-0.08732956361981983, ,0.0016344600801560883, ,0.025973777931152638,0.010333004250557653,-0.04918532478938892,0.05167394645986265,0.031768577777226345,-0.012599970892717284, ,0.05657388347547435, ,0.060656008928322895, ,0.0006881491731330434, ,0.17721355126482982,-0.23999164679940085,0.0970402694,-4.524479910565582,0.20850729864206213,-1.1189673239937912, ,0.21715547267384616,0.03332055532249676,0.0539959712542373,0.07238233588151431,0.24782130023877968,-0.03711256038461791, ,1.0504188537597656
0.013633952350867302,0.021816193573031877,-0.08662336458611426, ,0.015194034196603095,0.021657744523974776,-0.08744887033032253, ,0.0017721233592113016, ,0.025973777931152638,0.010333004250557653,-0.04918532478938892,0.05167394645986265,0.031768577777226345,-0.012599970892717284, ,0.05657388347547435, ,0.060656008928322895, ,0.0007007535241339533, ,0.17721355126482982,-0.23999164679940085,0.0970402694,-4.524479910565582,0.20850729864206213,-1.1189673239937912, ,0.21715547267384616,0.03332055532249676,0.0539959712542373,0.07238233588151431,0.24782130023877968,-0.03711256038461791, ,1.0531938076019287
0.013633952350867302,0.021816193573031877,-0.08662336458611426, ,0.015290454138240378,0.02166639424512939,-0.08756875326858937, ,0.0019131643345939352, ,0.025973777931152638,0.010333004250557653,-0.04918532478938892,0.05167394645986265,0.031768577777226345,-0.012599970892717284, ,0.05657388347547435, ,0.060656008928322895, ,0.0007146892805760221, ,0.17721355126482982,-0.23999164679940085,0.0970402694,-4.524479910565582,0.20850729864206213,-1.1189673239937912, ,0.21715547267384616,0.03332055532249676,0.0539959712542373,0.07238233588151431,0.24782130023877968,-0.03711256038461791, ,1.0560829639434814
0.013913113801445132,0.021912248931661996,-0.08710651325380685, ,0.015387692041476168,0.0216747701840582,-0.08768920118748366, ,0.0016032162578981824, ,0.025973777931152638,0.010333004250557653,-0.04918532478938892,0.05167394645986265,0.031768577777226345,-0.012599970892717284, ,0.05657388347547435, ,0.060656008928322895, ,0.0007247861780455921, ,0.179592152990091,-0.23960551015568965,0.09757304459,-4.524060530678613,0.21083011913807462,-1.119227853553819, ,0.24972879357492314,0.042251532305641486,0.04962246579439253,0.045380160859974705,0.22772132227285127,-0.016019956334192884, ,1.0594749450683594
0.013913113801445132,0.021912248931661996,-0.08710651325380685, ,0.015485738698090924,0.02168287455929947,-0.08781020289863462, ,0.001738085378939919, ,0.02849175061675824,0.008398438600028549,-0.044695677882964045,0.014614057588033635,-0.0237083408309078,0.007787330660761042, ,0.05366579213562094, ,0.02784740080773096, ,0.0007361715623253037, ,0.179592152990091,-0.23960551015568965,0.09757304459,-4.524060530678613,0.21083011913807462,-1.119227853553819, ,0.24972879357492314,0.042251532305641486,0.04962246579439253,0.045380160859974705,0.22772132227285127,-0.016019956334192884, ,1.0623009204864502
0.013913113801445132,0.021912248931661996,-0.08710651325380685, ,0.015584584939091718,0.02169070958417595,-0.08793174727232402, ,0.0018772071360902368, ,0.02849175061675824,0.008398438600028549,-0.044695677882964045,0.014614057588033635,-0.0237083408309078,0.007787330660761042, ,0.05366579213562094, ,0.02784740080773096, ,0.0007488497353671363, ,0.179592152990091,-0.23960551015568965,0.09757304459,-4.524060530678613,0.21083011913807462,-1.119227853553819, ,0.24972879357492314,0.042251532305641486,0.04962246579439253,0.045380160859974705,0.22772132227285127,-0.016019956334192884, ,1.0651118755340576
0.013913113801445132,0.021912248931661996,-0.08710651325380685, ,0.01568422163464519,0.021698277466797596,-0.08805382323737335, ,0.0020199017177980664, ,0.02849175061675824,0.008398438600028549,-0.044695677882964045,0.014614057588033635,-0.0237083408309078,0.007787330660761042, ,0.05366579213562094, ,0.02784740080773096, ,0.000762817339569674, ,0.179592152990091,-0.23960551015568965,0.09757304459,-4.524060530678613,0.21083011913807462,-1.119227853553819, ,0.24972879357492314,0.042251532305641486,0.04962246579439253,0.045380160859974705,0.22772132227285127,-0.016019956334192884, ,1.0679419040679932
0.014191961779567112,0.021987452540268026,-0.08751978749554742, ,0.015784639694010564,0.02170558041006517,-0.08817641978103033, ,0.001745634782902639, ,0.029834418504633482,0.007213681126800136,-0.041584738724436514,0.0702029270726054,0.0015969793656257503,-0.0021373285370895516, ,0.05168578351624767, ,0.07022020333035361, ,0.0007735001378667715, ,0.18209431844133972,-0.23917303711473306,0.09803452383000001,-4.523431460848159,0.21328957613385255,-1.119681479757684, ,0.27347821774775444,0.04851581879267422,0.04671205724340176,0.06536351794319835,0.28104943239332647,-0.06706638238260443, ,1.0712649822235107
0.014191961779567112,0.021987452540268026,-0.08751978749554742, ,0.01588583006547268,0.021712620611673287,-0.08829952594885535, ,0.0018848645613249772, ,0.029834418504633482,0.007213681126800136,-0.041584738724436514,0.0702029270726054,0.0015969793656257503,-0.0021373285370895516, ,0.05168578351624767, ,0.07022020333035361, ,0.0007854502929577199, ,0.18209431844133972,-0.23917303711473306,0.09803452383000001,-4.523431460848159,0.21328957613385255,-1.119681479757684, ,0.27347821774775444,0.04851581879267422,0.04671205724340176,0.06536351794319835,0.28104943239332647,-0.06706638238260443, ,1.074234962463379
0.014191961779567112,0.021987452540268026,-0.08751978749554742, ,0.015987783736274942,0.021719400264113592,-0.08842313084460862, ,0.0020280181777387043, ,0.029834418504633482,0.007213681126800136,-0.041584738724436514,0.0702029270726054,0.0015969793656257503,-0.0021373285370895516, ,0.05168578351624767, ,0.07022020333035361, ,0.000798669100242624, ,0.18209431844133972,-0.23917303711473306,0.09803452383000001,-4.523431460848159,0.21328957613385255,-1.119681479757684, ,0.27347821774775444,0.04851581879267422,0.04671205724340176,0.06536351794319835,0.28104943239332647,-0.06706638238260443, ,1.0770819187164307
0.014508449840605288,0.02205230875991724,-0.08793304153291609, ,0.016090491732552396,0.021725921554678167,-0.08854722363013731, ,0.001728179621499575, ,0.03160228005523076,0.005452381328815512,-0.03828205733013703,0.06392865479949342,0.0029434274187095377,-0.006064796975700802, ,0.049939448137438905, ,0.0639957377460027, ,0.0008084534215190128, ,0.1850521251321677,-0.23860155488204046,0.09850118823000001,-4.522592701074221,0.21643221562845769,-1.1204471592596092, ,0.2993594370929678,0.05983413717431954,0.04352134295081967,0.07443463909728526,0.3072820843919715,-0.06629311241659194, ,1.0799038410186768
0.014508449840605288,0.02205230875991724,-0.08793304153291609, ,0.01619394511926477,0.021732186665462484,-0.08867179352526096, ,0.001867920500432236, ,0.03160228005523076,0.005452381328815512,-0.03828205733013703,0.06392865479949342,0.0029434274187095377,-0.006064796975700802, ,0.049939448137438905, ,0.0639957377460027, ,0.0008194895369243589, ,0.1850521251321677,-0.23860155488204046,0.09850118823000001,-4.522592701074221,0.21643221562845769,-1.1204471592596092, ,0.2993594370929678,0.05983413717431954,0.04352134295081967,0.07443463909728526,0.3072820843919715,-0.06629311241659194, ,1.0827019214630127
0.014508449840605288,0.02205230875991724,-0.08793304153291609, ,0.01629813500012918,0.021738197773368943,-0.08879682980765966, ,0.0020119067736043008, ,0.03160228005523076,0.005452381328815512,-0.03828205733013703,0.06392865479949342,0.0029434274187095377,-0.006064796975700802, ,0.049939448137438905, ,0.0639957377460027, ,0.000831782498127245, ,0.1850521251321677,-0.23860155488204046,0.09850118823000001,-4.522592701074221,0.21643221562845769,-1.1204471592596092, ,0.2993594370929678,0.05983413717431954,0.04352134295081967,0.07443463909728526,0.3072820843919715,-0.06629311241659194, ,1.085453987121582
0.014508449840605288,0.02205230875991724,-0.08793304153291609, ,0.01640305251755362,0.02174395705010987,-0.08892232181276025, ,0.0021594618664216893, ,0.03160228005523076,0.005452381328815512,-0.03828205733013703,0.06392865479949342,0.0029434274187095377,-0.006064796975700802, ,0.049939448137438905, ,0.0639957377460027, ,0.0008453302467833106, ,0.1850521251321677,-0.23860155488204046,0.09850118823000001,-4.522592701074221,0.21643221562845769,-1.1204471592596092, ,0.2993594370929678,0.05983413717431954,0.04352134295081967,0.07443463909728526,0.3072820843919715,-0.06629311241659194, ,1.0885899066925049
0.01483890797484836,0.022099711609279257,-0.08830962139989519, ,0.01650868885256972,0.02174946666221082,-0.0890482589336229, ,0.0023100604520156914, ,0.03370304370118547,0.004064073487520175,-0.036283983835190034,0.022151703781369297,-0.024708805565730945,0.026432501538299104, ,0.049688422504526285, ,0.03318373342291511, ,0.0008601255013816175, ,0.18821072287772553,-0.23794512258773137,0.09893155651,-4.522173321187252,0.2195748551230628,-1.120967802541113, ,0.3238803466159412,0.06926784055362831,0.0416984594764398,0.040764156529688435,0.30869448595656046,-0.03924188071641711, ,1.0917589664459229
0.01483890797484836,0.022099711609279257,-0.08830962139989519, ,0.01661503522476556,0.02175472877101381,-0.08917463062082803, ,0.0020054630684445333, ,0.03370304370118547,0.004064073487520175,-0.036283983835190034,0.022151703781369297,-0.024708805565730945,0.026432501538299104, ,0.049688422504526285, ,0.03318373342291511, ,0.0008715788770522466, ,0.18821072287772553,-0.23794512258773137,0.09893155651,-4.522173321187252,0.2195748551230628,-1.120967802541113, ,0.3238803466159412,0.06926784055362831,0.0416984594764398,0.040764156529688435,0.30869448595656046,-0.03924188071641711, ,1.0945348739624023
0.01483890797484836,0.022099711609279257,-0.08830962139989519, ,0.016722082892219076,0.02175974553268046,-0.08930142638236296, ,0.0021553658218270233, ,0.03370304370118547,0.004064073487520175,-0.036283983835190034,0.022151703781369297,-0.024708805565730945,0.026432501538299104, ,0.049688422504526285, ,0.03318373342291511, ,0.0008842896388816998, ,0.18821072287772553,-0.23794512258773137,0.09893155651,-4.522173321187252,0.2195748551230628,-1.120967802541113, ,0.3238803466159412,0.06926784055362831,0.0416984594764398,0.040764156529688435,0.30869448595656046,-0.03924188071641711, ,1.0972578525543213
0.015180607475723784,0.022136509713607262,-0.08867789098283839, ,0.016829823151430823,0.02176451909819539,-0.08942863578350929, ,0.0018498397548670868, ,0.035066498217154185,0.003648719835622257,-0.03768340651653718,0.01077096175552912,-0.01047981880273428,-0.0022387764766430467, ,0.05160437559299732, ,0.015025452747550858, ,0.0008937558164893998, ,0.19124575689729575,-0.23724235389617693,0.09932433238,-4.521544251356799,0.22244422161813707,-1.121183931275083, ,0.33065136431522923,0.07765707165177642,0.04305084194594595,0.05954129473779016,0.32344236353645395,-0.02878091897651759, ,1.1000359058380127
0.015180607475723784,0.022136509713607262,-0.08867789098283839, ,0.016938247337257066,0.02176905161336924,-0.08955624844672849, ,0.0019989585219940724, ,0.035066498217154185,0.003648719835622257,-0.03768340651653718,0.01077096175552912,-0.01047981880273428,-0.0022387764766430467, ,0.05160437559299732, ,0.015025452747550858, ,0.0009044859398438141, ,0.19124575689729575,-0.23724235389617693,0.09932433238,-4.521544251356799,0.22244422161813707,-1.121183931275083, ,0.33065136431522923,0.07765707165177642,0.04305084194594595,0.05954129473779016,0.32344236353645395,-0.02878091897651759, ,1.1028919219970703
0.015180607475723784,0.022136509713607262,-0.08867789098283839, ,0.0170473468228427,0.021773345218842107,-0.0896842540515497, ,0.002151597282580093, ,0.035066498217154185,0.003648719835622257,-0.03768340651653718,0.01077096175552912,-0.01047981880273428,-0.0022387764766430467, ,0.05160437559299732, ,0.015025452747550858, ,0.0009164773950624321, ,0.19124575689729575,-0.23724235389617693,0.09932433238,-4.521544251356799,0.22244422161813707,-1.121183931275083, ,0.33065136431522923,0.07765707165177642,0.04305084194594595,0.05954129473779016,0.32344236353645395,-0.02878091897651759, ,1.1060969829559326
0.015180607475723784,0.022136509713607262,-0.08867789098283839, ,0.01715711301955444,0.021777402050086454,-0.0898126423344561, ,0.002307204609216727, ,0.035066498217154185,0.003648719835622257,-0.03768340651653718,0.01077096175552912,-0.01047981880273428,-0.0022387764766430467, ,0.05160437559299732, ,0.015025452747550858, ,0.0009297224161496159, ,0.19496811414267198,-0.23633107141701845,0.09979747823000001,-4.52070549158286,0.22613340711180394,-1.1215784949903884, ,0.347607844536523,0.08811229485466182,0.04305084194594595,0.07486179808636004,0.33024966741104095,-0.01872799128073377, ,1.109010934829712
0.015546661208814767,0.022168399653622925,-0.08906329361788598, ,0.017267537376913694,0.021781224237410725,-0.08994140308877151, ,0.001970379616142229, ,0.036495180244132217,0.002646145201713298,-0.037319410679537555,-0.0067983628661106195,-0.01728771707900886,-0.0031451803782124124, ,0.05226508087574562, ,0.01857445854513994, ,0.0009395399369042631, ,0.19496811414267198,-0.23633107141701845,0.09979747823000001,-4.52070549158286,0.22613340711180394,-1.1215784949903884, ,0.347607844536523,0.08811229485466182,0.04305084194594595,0.07486179808636004,0.33024966741104095,-0.01872799128073377, ,1.1126508712768555
0.015546661208814767,0.022168399653622925,-0.08906329361788598, ,0.01737861138252957,0.021784813905962177,-0.09007052616454762, ,0.002125487442408599, ,0.036495180244132217,0.002646145201713298,-0.037319410679537555,-0.0067983628661106195,-0.01728771707900886,-0.0031451803782124124, ,0.05226508087574562, ,0.01857445854513994, ,0.0009506235584510326, ,0.19496811414267198,-0.23633107141701845,0.09979747823000001,-4.52070549158286,0.22613340711180394,-1.1215784949903884, ,0.347607844536523,0.08811229485466182,0.04305084194594595,0.07486179808636004,0.33024966741104095,-0.01872799128073377, ,1.1156949996948242
0.015546661208814767,0.022168399653622925,-0.08906329361788598, ,0.017490326562032005,0.021788173175730546,-0.09020000146845016, ,0.0022835305816480233, ,0.036495180244132217,0.002646145201713298,-0.037319410679537555,-0.0067983628661106195,-0.01728771707900886,-0.0031451803782124124, ,0.05226508087574562, ,0.01857445854513994, ,0.0009629652901473011, ,0.19496811414267198,-0.23633107141701845,0.09979747823000001,-4.52070549158286,0.22613340711180394,-1.1215784949903884, ,0.347607844536523,0.08811229485466182,0.04305084194594595,0.07486179808636004,0.33024966741104095,-0.01872799128073377, ,1.118562936782837
0.015939992567097536,0.022193251381271917,-0.08946206284307531, ,0.017602674479004727,0.021791304161550864,-0.09032981896364596, ,0.00191809108032248, ,0.03998882323229833,0.002412856059814032,-0.040567539040438076,0.0004436703012639445,-0.040701423409581675,0.03404086543611494, ,0.05701449887236449, ,0.0407024917825986, ,0.0009717279120755138, ,0.19869047138804818,-0.23536572980774037,0.10025766118000001,-4.520286111695891,0.22954931960593997,-1.1217502228983012, ,0.37657516491456666,0.09895405793375472,0.046849445647058834,0.036540147484538654,0.34848262953875725,-0.041402392328617824, ,1.1222198009490967
0.015939992567097536,0.022193251381271917,-0.08946206284307531, ,0.01771564673491819,0.02179420897310692,-0.09045996866968996, ,0.0020755718744491698, ,0.03998882323229833,0.002412856059814032,-0.040567539040438076,0.0004436703012639445,-0.040701423409581675,0.03404086543611494, ,0.05701449887236449, ,0.0407024917825986, ,0.0009817628571880015, ,0.19869047138804818,-0.23536572980774037,0.10025766118000001,-4.520286111695891,0.22954931960593997,-1.1217502228983012, ,0.37657516491456666,0.09895405793375472,0.046849445647058834,0.036540147484538654,0.34848262953875725,-0.041402392328617824, ,1.1250708103179932
0.015939992567097536,0.022193251381271917,-0.08946206284307531, ,0.01782923496906278,0.021796889714934223,-0.09059044066241172, ,0.0022359731499049314, ,0.03998882323229833,0.002412856059814032,-0.040567539040438076,0.0004436703012639445,-0.040701423409581675,0.03404086543611494, ,0.05701449887236449, ,0.0407024917825986, ,0.0009930620490142803, ,0.19869047138804818,-0.23536572980774037,0.10025766118000001,-4.520286111695891,0.22954931960593997,-1.1217502228983012, ,0.37657516491456666,0.09895405793375472,0.046849445647058834,0.036540147484538654,0.34848262953875725,-0.041402392328617824, ,1.1278679370880127
0.016347608116510565,0.022218686345056828,-0.08989229728855157, ,0.01794343085848161,0.02179934848642375,-0.0907212250738019, ,0.0018465144831912293, ,0.04250357564792098,0.0027472785711378025,-0.04591203849427446,-0.003990383693105864,-0.058503656014584016,-0.01256911382426113, ,0.06262600706659904, ,0.05863784552502859, ,0.0010006821600337173, ,0.2024437195649213,-0.23432316086972008,0.10075154767000001,-4.519447351921953,0.23282859560031052,-1.1221372478630793, ,0.38575992503443407,0.10945437319316122,0.05257033504950496,0.07755717275188885,0.3295366651850309,-0.04170908316216369, ,1.1306509971618652
0.016347608116510565,0.022218686345056828,-0.08989229728855157, ,0.0180582261179037,0.021801587381824493,-0.09085231209189967, ,0.0020054460637143143, ,0.04250357564792098,0.0027472785711378025,-0.04591203849427446,-0.003990383693105864,-0.058503656014584016,-0.01256911382426113, ,0.06262600706659904, ,0.05863784552502859, ,0.0010095738759954927, ,0.2024437195649213,-0.23432316086972008,0.10075154767000001,-4.519447351921953,0.23282859560031052,-1.1221372478630793, ,0.38575992503443407,0.10945437319316122,0.05257033504950496,0.07755717275188885,0.3295366651850309,-0.04170908316216369, ,1.133471965789795
0.016347608116510565,0.022218686345056828,-0.08989229728855157, ,0.01817361249967699,0.021803608490247196,-0.09098369196067903, ,0.002167423346567202, ,0.04250357564792098,0.0027472785711378025,-0.04591203849427446,-0.003990383693105864,-0.058503656014584016,-0.01256911382426113, ,0.06262600706659904, ,0.05863784552502859, ,0.0010197304502987533, ,0.2024437195649213,-0.23432316086972008,0.10075154767000001,-4.519447351921953,0.23282859560031052,-1.1221372478630793, ,0.38575992503443407,0.10945437319316122,0.05257033504950496,0.07755717275188885,0.3295366651850309,-0.04170908316216369, ,1.1362488269805908
0.016347608116510565,0.022218686345056828,-0.08989229728855157, ,0.01828958179370127,0.02180541389566746,-0.09111535497993556, ,0.002331936104780622, ,0.04250357564792098,0.0027472785711378025,-0.04591203849427446,-0.003990383693105864,-0.058503656014584016,-0.01256911382426113, ,0.06262600706659904, ,0.05863784552502859, ,0.0010311409342507695, ,0.2024437195649213,-0.23432316086972008,0.10075154767000001,-4.519447351921953,0.23282859560031052,-1.1221372478630793, ,0.38575992503443407,0.10945437319316122,0.05257033504950496,0.07755717275188885,0.3295366651850309,-0.04170908316216369, ,1.1391370296478271
0.016757261878792416,0.02224207718963547,-0.09032807727930678, ,0.01840612582736127,0.021807005676928722,-0.09124729150517327, ,0.0019372646528273676, ,0.04372208790725938,0.0022023044224137815,-0.04546467705153494,0.015361570181049585,-0.05897057491861164,-0.0020254505968606493, ,0.06311503763081718, ,0.06093695340594644, ,0.0010389523456178092, ,0.2061660768102975,-0.2332574237330771,0.10125191561,-4.5188182820915,0.23610787159468108,-1.1227693090482793, ,0.3970583328806309,0.11378530162886184,0.05239740631578948,0.06798975867084142,0.3463261776232946,-0.06475870877378453, ,1.1419320106506348
0.016757261878792416,0.02224207718963547,-0.09032807727930678, ,0.018523236465459645,0.02180838590774579,-0.09137949194749168, ,0.0021005302124025636, ,0.04372208790725938,0.0022023044224137815,-0.04546467705153494,0.015361570181049585,-0.05897057491861164,-0.0020254505968606493, ,0.06311503763081718, ,0.06093695340594644, ,0.0010480256607185334, ,0.2061660768102975,-0.2332574237330771,0.10125191561,-4.5188182820915,0.23610787159468108,-1.1227693090482793, ,0.3970583328806309,0.11378530162886184,0.05239740631578948,0.06798975867084142,0.3463261776232946,-0.06475870877378453, ,1.1447129249572754
0.016757261878792416,0.02224207718963547,-0.09032807727930678, ,0.018640905610150096,0.021809556656708008,-0.09151194677347237, ,0.0022664365637058595, ,0.04372208790725938,0.0022023044224137815,-0.04546467705153494,0.015361570181049585,-0.05897057491861164,-0.0020254505968606493, ,0.06311503763081718, ,0.06093695340594644, ,0.0010583511768455446, ,0.2061660768102975,-0.2332574237330771,0.10125191561,-4.5188182820915,0.23610787159468108,-1.1227693090482793, ,0.3970583328806309,0.11378530162886184,0.05239740631578948,0.06798975867084142,0.3463261776232946,-0.06475870877378453, ,1.1474828720092773
0.017227416796992377,0.02226003392822726,-0.0908115106879804, ,0.018759125200870263,0.02181051998728228,-0.09164464650506526, ,0.0018006411933874221, ,0.04479789146941161,0.0014328523911194165,-0.04584327723911246,-0.006230836289826305,-0.07225149603294476,0.007488488733938657, ,0.06411326082880237, ,0.0725182702611087, ,0.001064588908076989, ,0.21040585715824678,-0.2319986182745785,0.10180932031,-4.5181892122610465,0.23966042058858256,-1.1232974910803102, ,0.4021056845697914,0.12166274558778303,0.052919639601328915,0.05459600464947189,0.3395327217629388,-0.05414612337989187, ,1.150312900543213
0.017227416796992377,0.02226003392822726,-0.0908115106879804, ,0.01887788721427475,0.021811277957816476,-0.09177758171947595, ,0.0019643644664874274, ,0.04479789146941161,0.0014328523911194165,-0.04584327723911246,-0.006230836289826305,-0.07225149603294476,0.007488488733938657, ,0.06411326082880237, ,0.0725182702611087, ,0.0010720870377304093, ,0.21040585715824678,-0.2319986182745785,0.10180932031,-4.5181892122610465,0.23966042058858256,-1.1232974910803102, ,0.4021056845697914,0.12166274558778303,0.052919639601328915,0.05459600464947189,0.3395327217629388,-0.05414612337989187, ,1.153106927871704
0.017227416796992377,0.02226003392822726,-0.0908115106879804, ,0.01899718366416841,0.021811832621542685,-0.09191074304905292, ,0.0021310257997257734, ,0.04479789146941161,0.0014328523911194165,-0.04584327723911246,-0.006230836289826305,-0.07225149603294476,0.007488488733938657, ,0.06411326082880237, ,0.0725182702611087, ,0.0010808385977469, ,0.21040585715824678,-0.2319986182745785,0.10180932031,-4.5181892122610465,0.23966042058858256,-1.1232974910803102, ,0.4021056845697914,0.12166274558778303,0.052919639601328915,0.05459600464947189,0.3395327217629388,-0.05414612337989187, ,1.155900001525879
0.017227416796992377,0.02226003392822726,-0.0908115106879804, ,0.019117006601438963,0.02181218602658029,-0.09204412118117304, ,0.0023000969544796743, ,0.04479789146941161,0.0014328523911194165,-0.04584327723911246,-0.006230836289826305,-0.07225149603294476,0.007488488733938657, ,0.06411326082880237, ,0.0725182702611087, ,0.001090832518703726, ,0.21040585715824678,-0.2319986182745785,0.10180932031,-4.5181892122610465,0.23966042058858256,-1.1232974910803102, ,0.4021056845697914,0.12166274558778303,0.052919639601328915,0.05459600464947189,0.3395327217629388,-0.05414612337989187, ,1.1587629318237305
0.01768992504122693,0.02227420303257798,-0.09129664253082254, ,0.019237348113990353,0.02181234021593927,-0.09217770685812943, ,0.0018395950033544834, ,0.04493776113296127,0.0013198168585843266,-0.04737790940911234,0.016674778724366235,-0.05969667585016519,-0.01683639945977894, ,0.0653131731901103, ,0.06197985671329089, ,0.0010969200185789352, ,0.21452207378020843,-0.230708921884583,0.10236802130000001,-4.517560142430592,0.24334960608224945,-1.124182127236459, ,0.3954039231602949,0.12602515479212587,0.054550724383561656,0.07793383082066901,0.34300088031005765,-0.07596185157124685, ,1.161557912826538
0.01768992504122693,0.02227420303257798,-0.09129664253082254, ,0.019358200326675574,0.02181229722752351,-0.09231149087701776, ,0.002006593273824309, ,0.04493776113296127,0.0013198168585843266,-0.04737790940911234,0.016674778724366235,-0.05969667585016519,-0.01683639945977894, ,0.0653131731901103, ,0.06197985671329089, ,0.0011042560932180106, ,0.21452207378020843,-0.230708921884583,0.10236802130000001,-4.517560142430592,0.24334960608224945,-1.124182127236459, ,0.3954039231602949,0.12602515479212587,0.054550724383561656,0.07793383082066901,0.34300088031005765,-0.07596185157124685, ,1.1643598079681396
0.01768992504122693,0.02227420303257798,-0.09129664253082254, ,0.01947955540122986,0.02181205909413385,-0.09244546408962326, ,0.002176268554027786, ,0.04493776113296127,0.0013198168585843266,-0.04737790940911234,0.016674778724366235,-0.05969667585016519,-0.01683639945977894, ,0.0653131731901103, ,0.06197985671329089, ,0.0011128321929044888, ,0.21452207378020843,-0.230708921884583,0.10236802130000001,-4.517560142430592,0.24334960608224945,-1.124182127236459, ,0.3954039231602949,0.12602515479212587,0.054550724383561656,0.07793383082066901,0.34300088031005765,-0.07596185157124685, ,1.1674389839172363
0.01768992504122693,0.02227420303257798,-0.09129664253082254, ,0.019601405536203622,0.021811627843471428,-0.09257961740230684, ,0.002348139265272287, ,0.04493776113296127,0.0013198168585843266,-0.04737790940911234,0.016674778724366235,-0.05969667585016519,-0.01683639945977894, ,0.0653131731901103, ,0.06197985671329089, ,0.0011226362172883603, ,0.21452207378020843,-0.230708921884583,0.10236802130000001,-4.517560142430592,0.24334960608224945,-1.124182127236459, ,0.3954039231602949,0.12602515479212587,0.054550724383561656,0.07793383082066901,0.34300088031005765,-0.07596185157124685, ,1.1706228256225586
0.01816409827584547,0.022283828510673034,-0.09179001492795189, ,0.01972374296689546,0.021811005498140905,-0.09271394177589332, ,0.0018734177280701051, ,0.04665895417557694,0.0007081981633998528,-0.04800697779695174,0.0013469212490527845,-0.07109234340197063,-0.005034001440457224, ,0.066949454565323, ,0.07110330862911914, ,0.0011285478827275865, ,0.21867690406654122,-0.22935744363159372,0.10293709261000002,-4.516721382656655,0.2469021550761509,-1.1248736667487707, ,0.4072830109805613,0.13309528970332507,0.05550108543554008,0.06452897144785105,0.3458980859327837,-0.06945963122045769, ,1.1735458374023438
0.01816409827584547,0.022283828510673034,-0.09179001492795189, ,0.019846559965285223,0.021810194075653613,-0.09284842822555633, ,0.002043341778316724, ,0.04665895417557694,0.0007081981633998528,-0.04800697779695174,0.0013469212490527845,-0.07109234340197063,-0.005034001440457224, ,0.066949454565323, ,0.07110330862911914, ,0.0011356947100368765, ,0.21867690406654122,-0.22935744363159372,0.10293709261000002,-4.516721382656655,0.2469021550761509,-1.1248736667487707, ,0.4072830109805613,0.13309528970332507,0.05550108543554008,0.06452897144785105,0.3458980859327837,-0.06945963122045769, ,1.1763758659362793
0.01816409827584547,0.022283828510673034,-0.09179001492795189, ,0.0199698488399671,0.0218091955884309,-0.09298306782070669, ,0.0022157135906096456, ,0.04665895417557694,0.0007081981633998528,-0.04800697779695174,0.0013469212490527845,-0.07109234340197063,-0.005034001440457224, ,0.066949454565323, ,0.07110330862911914, ,0.0011440669494211617, ,0.21867690406654122,-0.22935744363159372,0.10293709261000002,-4.516721382656655,0.2469021550761509,-1.1248736667487707, ,0.4072830109805613,0.13309528970332507,0.05550108543554008,0.06452897144785105,0.3458980859327837,-0.06945963122045769, ,1.1791229248046875
0.01867928031802311,0.02228942830261213,-0.09233213721712985, ,0.020093601936082527,0.02180801204380716,-0.09311785168487793, ,0.0016880208761684882, ,0.04650040183110702,0.00032012267242740103,-0.04919594525834236,-0.023002418360459503,-0.06614538282934476,0.0069143102602556, ,0.0676951318695934, ,0.07002881372365438, ,0.001148251210396141, ,0.2231174754692203,-0.22785151072111992,0.10356190439000001,-4.516302002769685,0.2507279770695832,-1.125624684588194, ,0.3970583328806309,0.13793160110242844,0.05668616199288257,0.05004305875175362,0.3416051493627126,-0.053120518474123676, ,1.1819159984588623
0.01867928031802311,0.02228942830261213,-0.09233213721712985, ,0.02021781163525334,0.02180664544403335,-0.09325277099561413, ,0.0018568049054011923, ,0.04650040183110702,0.00032012267242740103,-0.04919594525834236,-0.023002418360459503,-0.06614538282934476,0.0069143102602556, ,0.0676951318695934, ,0.07002881372365438, ,0.0011536600172282407, ,0.2231174754692203,-0.22785151072111992,0.10356190439000001,-4.516302002769685,0.2507279770695832,-1.125624684588194, ,0.3970583328806309,0.13793160110242844,0.05668616199288257,0.05004305875175362,0.3416051493627126,-0.053120518474123676, ,1.1846089363098145
0.01867928031802311,0.02228942830261213,-0.09233213721712985, ,0.020342470355514747,0.02180509778627993,-0.09338781698435612, ,0.0020286046733636806, ,0.04650040183110702,0.00032012267242740103,-0.04919594525834236,-0.023002418360459503,-0.06614538282934476,0.0069143102602556, ,0.0676951318695934, ,0.07002881372365438, ,0.0011602883858353274, ,0.2231174754692203,-0.22785151072111992,0.10356190439000001,-4.516302002769685,0.2507279770695832,-1.125624684588194, ,0.3970583328806309,0.13793160110242844,0.05668616199288257,0.05004305875175362,0.3416051493627126,-0.053120518474123676, ,1.187457799911499
0.01867928031802311,0.02228942830261213,-0.09233213721712985, ,0.020467570551248402,0.02180337106264026,-0.09352298093632838, ,0.002202803296332341, ,0.04650040183110702,0.00032012267242740103,-0.04919594525834236,-0.023002418360459503,-0.06614538282934476,0.0069143102602556, ,0.0676951318695934, ,0.07002881372365438, ,0.0011681268438089893, ,0.2231174754692203,-0.22785151072111992,0.10356190439000001,-4.516302002769685,0.2507279770695832,-1.125624684588194, ,0.3970583328806309,0.13793160110242844,0.05668616199288257,0.05004305875175362,0.3416051493627126,-0.053120518474123676, ,1.190532922744751
0.019142649979689657,0.022289305906832674,-0.09282068174757488, ,0.020593104713115283,0.02180146726013373,-0.09365825419042567, ,0.001744515140648801, ,0.0463078399634243,-6.275993471912752e-05,-0.04844978225082215,0.0003307870345885689,-0.028908707757295562,0.007524322278693321, ,0.06702090256807651, ,0.0289059827076689, ,0.0011724282490092862, ,0.22707923743369748,-0.2264459733380111,0.10412579054000001,-4.515672932939232,0.2544171625632501,-1.1263459632640618, ,0.3954039231602949,0.13955432582128055,0.05608736450704226,0.05734349166869215,0.3795183790953283,-0.07100474165831046, ,1.1933259963989258
0.019142649979689657,0.022289305906832674,-0.09282068174757488, ,0.020719065367989058,0.021799388360709052,-0.09379362813909978, ,0.0019161757119972743, ,0.0463078399634243,-6.275993471912752e-05,-0.04844978225082215,0.0003307870345885689,-0.028908707757295562,0.007524322278693321, ,0.06702090256807651, ,0.0289059827076689, ,0.0011779374894758641, ,0.22707923743369748,-0.2264459733380111,0.10412579054000001,-4.515672932939232,0.2544171625632501,-1.1263459632640618, ,0.3954039231602949,0.13955432582128055,0.05608736450704226,0.05734349166869215,0.3795183790953283,-0.07100474165831046, ,1.1961297988891602
0.019142649979689657,0.022289305906832674,-0.09282068174757488, ,0.020845445078888667,0.021797136341247445,-0.09392909422824683, ,0.002090531094830657, ,0.0463078399634243,-6.275993471912752e-05,-0.04844978225082215,0.0003307870345885689,-0.028908707757295562,0.007524322278693321, ,0.06702090256807651, ,0.0289059827076689, ,0.001184647736574061, ,0.22707923743369748,-0.2264459733380111,0.10412579054000001,-4.515672932939232,0.2544171625632501,-1.1263459632640618, ,0.3954039231602949,0.13955432582128055,0.05608736450704226,0.05734349166869215,0.3795183790953283,-0.07100474165831046, ,1.1989288330078125
0.019142649979689657,0.022289305906832674,-0.09282068174757488, ,0.02097223644491191,0.021794713173565978,-0.09406464395709364, ,0.002267035638060304, ,0.0463078399634243,-6.275993471912752e-05,-0.04844978225082215,0.0003307870345885689,-0.028908707757295562,-0.011369299250857674, ,0.06702090256807651, ,0.0289059827076689, ,0.0011925483781907488, ,0.23107189032967154,-0.22498637682478265,0.10469226927000001,-4.514834173165294,0.25837962105644785,-1.12696336278676, ,0.38419814396142016,0.14488082680682562,0.054179631020408174,0.07278484594588336,0.363260343816039,-0.04216936050601447, ,1.2022018432617188
0.019611579323200814,0.022283838331203187,-0.09330978092331414, ,0.02109943210116789,0.02179212082442049,-0.09420026887808446, ,0.0018023486879546807, ,0.04543733480001067,-0.0011381279275966757,-0.04675467881359517,-0.03184895585234429,-0.02613923833473859,-0.011369299250857674, ,0.06520618620859743, ,0.04119942169358121, ,0.0011969672210151252, ,0.23107189032967154,-0.22498637682478265,0.10469226927000001,-4.514834173165294,0.25837962105644785,-1.12696336278676, ,0.38419814396142016,0.14488082680682562,0.054179631020408174,0.07278484594588336,0.363260343816039,-0.04216936050601447, ,1.2051608562469482
0.019611579323200814,0.022283838331203187,-0.09330978092331414, ,0.021227024718710512,0.02178936125550923,-0.09433596059676766, ,0.0019766679353066616, ,0.04543733480001067,-0.0011381279275966757,-0.04675467881359517,-0.03184895585234429,-0.02613923833473859,-0.011369299250857674, ,0.06520618620859743, ,0.04119942169358121, ,0.0012025765786718987, ,0.23107189032967154,-0.22498637682478265,0.10469226927000001,-4.514834173165294,0.25837962105644785,-1.12696336278676, ,0.38419814396142016,0.14488082680682562,0.054179631020408174,0.07278484594588336,0.363260343816039,-0.04216936050601447, ,1.2080378532409668
0.019611579323200814,0.022283838331203187,-0.09330978092331414, ,0.02135500700447128,0.021786436423475688,-0.09447171077168308, ,0.0021533763512590473, ,0.04543733480001067,-0.0011381279275966757,-0.04675467881359517,-0.03184895585234429,-0.02613923833473859,-0.011369299250857674, ,0.06520618620859743, ,0.04119942169358121, ,0.0012093680056189497, ,0.23107189032967154,-0.22498637682478265,0.10469226927000001,-4.514834173165294,0.25837962105644785,-1.12696336278676, ,0.38419814396142016,0.14488082680682562,0.054179631020408174,0.07278484594588336,0.363260343816039,-0.04216936050601447, ,1.2109639644622803
0.020052485585179275,0.02226654310500583,-0.09375005890231655, ,0.02148337170119243,0.02178334827991217,-0.09460751111424809, ,0.001736702798910278, ,0.04474879488453999,-0.002183416408035767,-0.043928243984774205,-0.05697574803854815,-0.038541488502419834,-0.0061564700789007, ,0.06274482106449394, ,0.06878603509923753, ,0.0012131079686919378, ,0.234801970307922,-0.22355767124305112,0.10520430382000001,-4.51420510333484,0.2617955335505839,-1.1272984481749537, ,0.37807546437637757,0.14689929033819007,0.051218043472668826,0.062082950767266734,0.34391423783648756,-0.023591564623238692, ,1.2138450145721436
0.020052485585179275,0.02226654310500583,-0.09375005890231655, ,0.02161211158736,0.02178009877136282,-0.0947433533886452, ,0.001911987262766811, ,0.04474879488453999,-0.002183416408035767,-0.043928243984774205,-0.05697574803854815,-0.038541488502419834,-0.0061564700789007, ,0.06274482106449394, ,0.06878603509923753, ,0.0012180296538614793, ,0.234801970307922,-0.22355767124305112,0.10520430382000001,-4.51420510333484,0.2617955335505839,-1.1272984481749537, ,0.37807546437637757,0.14689929033819007,0.051218043472668826,0.062082950767266734,0.34391423783648756,-0.023591564623238692, ,1.216648817062378
0.020052485585179275,0.02226654310500583,-0.09375005890231655, ,0.021741219477136694,0.021776689839326797,-0.09487922941170757, ,0.002089690029411163, ,0.04474879488453999,-0.002183416408035767,-0.043928243984774205,-0.05697574803854815,-0.038541488502419834,-0.0061564700789007, ,0.06274482106449394, ,0.06878603509923753, ,0.0012241251809632253, ,0.234801970307922,-0.22355767124305112,0.10520430382000001,-4.51420510333484,0.2617955335505839,-1.1272984481749537, ,0.37807546437637757,0.14689929033819007,0.051218043472668826,0.062082950767266734,0.34391423783648756,-0.023591564623238692, ,1.219376802444458
0.020052485585179275,0.02226654310500583,-0.09375005890231655, ,0.02187068822029508,0.021773123420261657,-0.09501513105280714, ,0.002269301952932216, ,0.04474879488453999,-0.002183416408035767,-0.043928243984774205,-0.05697574803854815,-0.038541488502419834,-0.0061564700789007, ,0.06274482106449394, ,0.06878603509923753, ,0.0012313833529907876, ,0.234801970307922,-0.22355767124305112,0.10520430382000001,-4.51420510333484,0.2617955335505839,-1.1272984481749537, ,0.37807546437637757,0.14689929033819007,0.051218043472668826,0.062082950767266734,0.34391423783648756,-0.023591564623238692, ,1.2221879959106445
0.020579807242383095,0.02223804210309632,-0.09426875103609611, ,0.022000510702150592,0.02176940144558648,-0.09515105023374075, ,0.0017368000059393611, ,0.044333569779375345,-0.0021763032418571724,-0.04445543138736683,-0.00206412602690167,-0.00854753219491577,0.008021230491247387, ,0.06282107198241797, ,0.008783353182366912, ,0.0012348689850800883, ,0.23876373227239917,-0.22198995646958353,0.10574356046000001,-4.513785723447872,0.26548471904425075,-1.127693011890259, ,0.3721448688567482,0.14735549931439562,0.05105388307692308,0.048469383961396224,0.3709653798315803,-0.06704398322201302, ,1.224963903427124
0.020579807242383095,0.02223804210309632,-0.09426875103609611, ,0.022130679843494597,0.021765525841685267,-0.0952869789286171, ,0.0019144883084740842, ,0.044333569779375345,-0.0021763032418571724,-0.04445543138736683,-0.00206412602690167,-0.00854753219491577,0.008021230491247387, ,0.06282107198241797, ,0.008783353182366912, ,0.0012395239119526499, ,0.23876373227239917,-0.22198995646958353,0.10574356046000001,-4.513785723447872,0.26548471904425075,-1.127693011890259, ,0.3721448688567482,0.14735549931439562,0.05105388307692308,0.048469383961396224,0.3709653798315803,-0.06704398322201302, ,1.2277660369873047
0.020579807242383095,0.02223804210309632,-0.09426875103609611, ,0.022261188600527365,0.021761498529909846,-0.09542290916374296, ,0.0020943299721566545, ,0.044333569779375345,-0.0021763032418571724,-0.04445543138736683,-0.00206412602690167,-0.00854753219491577,0.008021230491247387, ,0.06282107198241797, ,0.008783353182366912, ,0.001245338919164922, ,0.23876373227239917,-0.22198995646958353,0.10574356046000001,-4.513785723447872,0.26548471904425075,-1.127693011890259, ,0.3721448688567482,0.14735549931439562,0.05105388307692308,0.048469383961396224,0.3709653798315803,-0.06704398322201302, ,1.2305388450622559
0.020963009452599133,0.02221922560483484,-0.09465483196000074, ,0.022392029964791133,0.021757321426583286,-0.09555883301751128, ,0.0017529041634190686, ,0.04420448169899189,-0.0022068333701499507,-0.04540183850077926,0.034726999454933016,0.01555078558461438,-0.012045389280079491, ,0.06340530936010767, ,0.038047319326180926, ,0.001248768414058531, ,0.24243975312053004,-0.2205303599563551,0.10626078017000001,-4.512946963673933,0.26944717753744857,-1.1286371263735195, ,0.3649882367633491,0.14874128770920184,0.052919639601328915,0.07426043755417579,0.3952423044062458,-0.1071689762884383, ,1.2332758903503418
0.020963009452599133,0.02221922560483484,-0.09465483196000074, ,0.022523196963103204,0.02175299644300326,-0.09569474262028622, ,0.0019320892527651147, ,0.04420448169899189,-0.0022068333701499507,-0.04540183850077926,0.034726999454933016,0.01555078558461438,-0.012045389280079491, ,0.06340530936010767, ,0.038047319326180926, ,0.0012533544599558906, ,0.24243975312053004,-0.2205303599563551,0.10626078017000001,-4.512946963673933,0.26944717753744857,-1.1286371263735195, ,0.3649882367633491,0.14874128770920184,0.052919639601328915,0.07426043755417579,0.3952423044062458,-0.1071689762884383, ,1.2361018657684326
0.020963009452599133,0.02221922560483484,-0.09465483196000074, ,0.02265468265748889,0.02174852548544502,-0.09583063015429154, ,0.0021132482646942052, ,0.04420448169899189,-0.0022068333701499507,-0.04540183850077926,0.034726999454933016,0.01555078558461438,-0.012045389280079491, ,0.06340530936010767, ,0.038047319326180926, ,0.0012590870853208126, ,0.24243975312053004,-0.2205303599563551,0.10626078017000001,-4.512946963673933,0.26944717753744857,-1.1286371263735195, ,0.3649882367633491,0.14874128770920184,0.052919639601328915,0.07426043755417579,0.3952423044062458,-0.1071689762884383, ,1.2388989925384521
0.020963009452599133,0.02221922560483484,-0.09465483196000074, ,0.022786480145114665,0.021743910455164835,-0.09596648785349608, ,0.0022959553656179727, ,0.04420448169899189,-0.0022068333701499507,-0.04540183850077926,0.034726999454933016,0.01555078558461438,-0.012045389280079491, ,0.06340530936010767, ,0.038047319326180926, ,0.001265953762673774, ,0.24243975312053004,-0.2205303599563551,0.10626078017000001,-4.512946963673933,0.26944717753744857,-1.1286371263735195, ,0.3649882367633491,0.14874128770920184,0.052919639601328915,0.07426043755417579,0.3952423044062458,-0.1071689762884383, ,1.2416768074035645
0.021422395487132418,0.022197423124151728,-0.09513238343261084, ,0.022918582558221105,0.021739153248403018,-0.09610230800350186, ,0.0018410162150100204, ,0.045382053893534585,-0.001843128282972662,-0.04746832320721115,0.006419262831002668,-0.009879249410967569,-0.0055638293251078, ,0.06569756194538297, ,0.011771384917651524, ,0.0012697370682812493, ,0.24618527856452893,-0.21900125884725866,0.10681688858,-4.512527583786964,0.27340963603064633,-1.1297445983370613, ,0.3649882367633491,0.1480451506372399,0.055308373333333334,0.061130644035427444,0.3686035804868787,-0.08449249497286444, ,1.2444698810577393
0.021422395487132418,0.022197423124151728,-0.09513238343261084, ,0.023050983064055966,0.02173425575638727,-0.09623808294142966, ,0.0020222247427211827, ,0.045382053893534585,-0.001843128282972662,-0.04746832320721115,0.006419262831002668,-0.009879249410967569,-0.0055638293251078, ,0.06569756194538297, ,0.011771384917651524, ,0.0012746552883756278, ,0.24618527856452893,-0.21900125884725866,0.10681688858,-4.512527583786964,0.27340963603064633,-1.1297445983370613, ,0.3649882367633491,0.1480451506372399,0.055308373333333334,0.061130644035427444,0.3686035804868787,-0.08449249497286444, ,1.2472388744354248
0.021422395487132418,0.022197423124151728,-0.09513238343261084, ,0.023183674864807272,0.021729219865335866,-0.09637380505580631, ,0.00220509568597959, ,0.045382053893534585,-0.001843128282972662,-0.04746832320721115,0.006419262831002668,-0.009879249410967569,-0.0055638293251078, ,0.06569756194538297, ,0.011771384917651524, ,0.00128069710913929, ,0.24618527856452893,-0.21900125884725866,0.10681688858,-4.512527583786964,0.27340963603064633,-1.1297445983370613, ,0.3649882367633491,0.1480451506372399,0.055308373333333334,0.061130644035427444,0.3686035804868787,-0.08449249497286444, ,1.2499399185180664
0.02186793094627807,0.02218112805595437,-0.09561152480279135, ,0.02331665119753625,0.02172404745646095,-0.09650946678645152, ,0.0017646565804309857, ,0.04679759981640612,-0.001460183478754139,-0.05129454057594892,-0.031228187910361492,-0.03314844156999572,0.02688746089295785, ,0.06944981913054771, ,0.04553749877359844, ,0.0012838194283089138, ,0.24969912202230107,-0.21755710779977866,0.10737299699000001,-4.51231789384348,0.27682554852478236,-1.1303247199456765, ,0.3635898144002712,0.15039134953798858,0.05943586388059702,0.021680289684246967,0.3485549738670817,-0.06099718260925677, ,1.253006935119629
0.02186793094627807,0.02218112805595437,-0.09561152480279135, ,0.023449905334110517,0.021718740405971805,-0.09664506062436469, ,0.00194541553327034, ,0.04679759981640612,-0.001460183478754139,-0.05129454057594892,-0.031228187910361492,-0.03314844156999572,0.02688746089295785, ,0.06944981913054771, ,0.04553749877359844, ,0.0012880604289817435, ,0.24969912202230107,-0.21755710779977866,0.10737299699000001,-4.51231789384348,0.27682554852478236,-1.1303247199456765, ,0.3635898144002712,0.15039134953798858,0.05943586388059702,0.021680289684246967,0.3485549738670817,-0.06099718260925677, ,1.2557668685913086
0.02186793094627807,0.02218112805595437,-0.09561152480279135, ,0.023583430581137016,0.021713300585077772,-0.0967805791116117, ,0.002128024792308442, ,0.04679759981640612,-0.001460183478754139,-0.05129454057594892,-0.031228187910361492,-0.03314844156999572,0.02688746089295785, ,0.06944981913054771, ,0.04553749877359844, ,0.0012934105204679008, ,0.24969912202230107,-0.21755710779977866,0.10737299699000001,-4.51231789384348,0.27682554852478236,-1.1303247199456765, ,0.3635898144002712,0.15039134953798858,0.05943586388059702,0.021680289684246967,0.3485549738670817,-0.06099718260925677, ,1.258692979812622
0.02186793094627807,0.02218112805595437,-0.09561152480279135, ,0.023717220279895056,0.02170772985999188,-0.0969160148412112, ,0.00231207074971912, ,0.04679759981640612,-0.001460183478754139,-0.05129454057594892,-0.031228187910361492,-0.03314844156999572,0.02688746089295785, ,0.06944981913054771, ,0.04553749877359844, ,0.0012998577371087314, ,0.24969912202230107,-0.21755710779977866,0.10737299699000001,-4.51231789384348,0.27682554852478236,-1.1303247199456765, ,0.3635898144002712,0.15039134953798858,0.05943586388059702,0.021680289684246967,0.3485549738670817,-0.06099718260925677, ,1.261711835861206
0.02186793094627807,0.02218112805595437,-0.09561152480279135, ,0.023851267806269453,0.021702030091933805,-0.09705136045702212, ,0.00249725582800867, ,0.04679759981640612,-0.001460183478754139,-0.05129454057594892,-0.031228187910361492,-0.03314844156999572,0.02688746089295785, ,0.06944981913054771, ,0.04553749877359844, ,0.0013073885427118757, ,0.24969912202230107,-0.21755710779977866,0.10737299699000001,-4.51231789384348,0.27682554852478236,-1.1303247199456765, ,0.3635898144002712,0.15039134953798858,0.05943586388059702,0.021680289684246967,0.3485549738670817,-0.06099718260925677, ,1.264880895614624
0.02186793094627807,0.02218112805595437,-0.09561152480279135, ,0.023985566570683403,0.021696203137133222,-0.09718660865363006, ,0.0026833601979266894, ,0.04679759981640612,-0.001460183478754139,-0.05129454057594892,-0.031228187910361492,-0.03314844156999572,0.02688746089295785, ,0.06944981913054771, ,0.04553749877359844, ,0.0013159883655569683, ,0.24969912202230107,-0.21755710779977866,0.10737299699000001,-4.51231789384348,0.27682554852478236,-1.1303247199456765, ,0.3635898144002712,0.15039134953798858,0.05943586388059702,0.021680289684246967,0.3485549738670817,-0.06099718260925677, ,1.26761794090271
0.02186793094627807,0.02218112805595437,-0.09561152480279135, ,0.02412011001803177,0.021690250846832956,-0.09732175217623394, ,0.002870217530876803, ,0.04679759981640612,-0.001460183478754139,-0.05129454057594892,-0.031228187910361492,-0.03314844156999572,0.02688746089295785, ,0.06944981913054771, ,0.04553749877359844, ,0.0013256419628570914, ,0.24969912202230107,-0.21755710779977866,0.10737299699000001,-4.51231789384348,0.27682554852478236,-1.1303247199456765, ,0.3635898144002712,0.15039134953798858,0.05943586388059702,0.021680289684246967,0.3485549738670817,-0.06099718260925677, ,1.2705509662628174
0.02186793094627807,0.02218112805595437,-0.09561152480279135, ,0.02425489162761387,0.02168417506729224,-0.09745678382053355, ,0.0030576992019723252, ,0.04679759981640612,-0.001460183478754139,-0.05129454057594892,-0.031228187910361492,-0.03314844156999572,0.02688746089295785, ,0.06944981913054771, ,0.04553749877359844, ,0.0013363336742096546, ,0.24969912202230107,-0.21755710779977866,0.10737299699000001,-4.51231789384348,0.27682554852478236,-1.1303247199456765, ,0.3635898144002712,0.15039134953798858,0.05943586388059702,0.021680289684246967,0.3485549738670817,-0.06099718260925677, ,1.273568868637085
0.02285673969358495,0.02216067542710083,-0.09672250231324309, ,0.02438990491306669,0.021677977639790003,-0.0975916964326151, ,0.0018273180241146173, ,0.04571931273165665,-0.0016187337488563058,-0.05011637103893097,0.006369411289049586,-0.0026884567718630887,-0.039711636528872614, ,0.06785666143951165, ,0.006890649201712775, ,0.0013393458481354519, ,0.2572056183760473,-0.2144216782528435,0.10866021296000002,-4.510430684352119,0.28420391951211615,-1.1316855985572714, ,0.3463392027681415,0.14758466805360929,0.05834729494505495,0.09030215875780465,0.34942545455103696,-0.07821539792508723, ,1.2779209613800049
