NicholasDascanio/dvrk_moveit_final/test/execution/second_exp_sharpbends/firstexp_500vel5.csv
Current Position (x),Current Position (y),Current Position (z), ,Planned Position (x),Planned Position (y),Planned Position (z), ,Position Error,,Cartesian linear Velocity(x),Cartesian linear Velocity(y),Cartesian linear Velocity(z),Cartesian Angular Velocity(x),Cartesian Angular Velocity(y),Cartesian Angular Velocity(z), ,Total Linear Velocity, ,Total Angular Velocity, ,MSE, ,Joint 1 Position,Joint 2 Position,Joint 3 Position,Joint 4 Position,Joint 5 Position,Joint 6 Position, ,Joint 1 Velocity,Joint 2 Velocity,Joint 3 Velocity,Joint 4 Velocity,Joint 5 Velocity,Joint 6 Velocity, ,Time Stamp
0.01183383412360396,0.018796754790643567,-0.08157457591426986, ,0.011984506274990677,0.018721494633764053,-0.08168816117292879, ,0.00020314477448766925, ,-4.977369446802215e-05,5.3906056369864074e-05,5.142830844871057e-06,-0.18379002454120846,0.02673396078770447,0.0022519981335958686, ,7.355088227510218e-05, ,0.1857241981548353, ,1.6928731207305772e-05, ,0.1619302629067395,-0.22111728765479616,0.09115511280000001,-4.5353837876267775,0.1651935282164175,-1.3916583775920857, ,-0.0006032529233468117,-0.0005596940161362122,5.584958083464165e-08,0.005404050512663937,0.0,0.18701008436766475, ,0.0221560001373291
0.011819936213920967,0.018804062501189607,-0.08156954742144809, ,0.011930145366789185,0.01881105099392765,-0.08167906527264884, ,0.0001555283129796953, ,-0.001419145758474511,0.0007446471763726516,9.859963169128345e-05,0.07720828649746149,0.11468357110369601,0.023161070160794103, ,0.0016056761779529565, ,0.13825136883579342, ,1.630332215760748e-05, ,0.16187620377661996,-0.22120223771641262,0.09115122393000001,-4.5353837876267775,0.16614998371477557,-1.388844438351776, ,-0.0037858637894352806,-0.007058913914816274,3.5612646740346394e-05,0.005404050512663937,0.12158591676328252,-0.05301062669344425, ,0.044751882553100586
0.011807309044471758,0.01883049802936943,-0.08157678501973342, ,0.011877357424990758,0.018899542448502473,-0.08167117891078117, ,0.0001363235639714856, ,-8.168026979321684e-06,0.0011403166094900033,-0.0002205503042264344,0.35246806348334714,-0.11958863990513369,-0.03815088177226707, ,0.001161477990853845, ,0.3722031415370652, ,1.5468645357464064e-05, ,0.16165224452326743,-0.2215034242985074,0.09116159425,-4.5353837876267775,0.1656034377157138,-1.3926460612242995, ,-0.009878286861340594,-0.014092209913642822,0.00034897092846968215,0.005404050512663937,-0.08705089438521131,-0.353244333928481, ,0.06781196594238281
0.011820835295575715,0.01885577840467749,-0.08157155473819734, ,0.011826133327196666,0.018986975108373758,-0.08166449395098917, ,0.00016086746555530508, ,0.0005213495296328048,0.0011847422671385087,0.0008896186702830931,0.11066708673281234,-0.20734315789715732,-0.048521044127014135, ,0.0015706180153395347, ,0.23502848596009351, ,1.5615812309384645e-05, ,0.16141283980416649,-0.22186639274359593,0.09115900167,-4.534964407739808,0.1617776157222815,-1.397857591415137, ,-0.014874128770920186,-0.019757847503325165,-0.000800504725315096,-0.0046132736038224315,-0.2131779214217537,-0.12280346627528993, ,0.09138202667236328
0.011809234710581247,0.01889456888896662,-0.08156971133664534, ,0.011776463977633385,0.019073355067344065,-0.08165900228262618, ,0.00020251244789124727, ,-0.0012956009962044413,0.0024102714651515968,-0.00011173052707133001,-0.10901064887142078,0.015486389404660905,0.008801918531216153, ,0.0027386993606034237, ,0.11010517619149876, ,1.6507241632411586e-05, ,0.16105759409195214,-0.22236064764754632,0.09116159425,-4.534964407739808,0.15972806822579988,-1.3974931827019397, ,-0.017911842498767608,-0.028454855040021224,0.00043908232257403474,-0.0046132736038224315,-0.020411714029081585,0.13484694813882891, ,0.11463403701782227
0.011749972400523287,0.018979809503393546,-0.08156043272289207, ,0.011728340307122224,0.01915868840214685,-0.08165469582069443, ,0.00020334979589713094, ,-0.002327107495816117,0.003223560950942089,0.0004016974076960935,-0.05908706790565892,0.07018858752208348,0.022756550140432555, ,0.00399601492850965, ,0.09174813029175653, ,1.7124618722298928e-05, ,0.16042432999626574,-0.22338004838694395,0.09116418683000001,-4.534964407739808,0.16027461422486164,-1.3919763062864643, ,-0.023276169133792195,-0.03851336913898976,5.88539980142807e-05,-0.004379850664857236,0.03553467185996211,0.10237686903314906, ,0.13921093940734863
0.011736427992623207,0.019000911949832826,-0.08155997306773562, ,0.01168175327304588,0.019242981172467682,-0.08165156650581133, ,0.0002645301332673324, ,-0.002112416490194288,0.0036762884350420725,0.0002585184827320578,0.07292190588944492,0.013853779747186244,3.3318334388577004e-05, ,0.004101380588607917, ,0.07422621889758772, ,1.8420229084025912e-05, ,0.1598451250306989,-0.22436083546197044,0.09117066828,-4.5353837876267775,0.16054788722439253,-1.3921991420938573, ,-0.025801234790231317,-0.04395411836890726,0.0002753915427360022,0.003749860887126545,-0.009062881683214065,-0.03050194183987176, ,0.16240906715393066
0.011654768124953965,0.019139649993888674,-0.08154614546852643, ,0.011636693859312583,0.019326239420970105,-0.08164960630418255, ,0.00021411781311165065, ,-0.002166660676036487,0.003878792878503826,0.0004897092396560549,0.025149077398128657,0.02299062325306836,0.002979901463451934, ,0.004469817425669576, ,0.0340741082281198, ,1.901696675508045e-05, ,0.1593122564623774,-0.22530300887262586,0.09117326086000001,-4.5353837876267775,0.16027461422486164,-1.392057985026605, ,-0.025759213235198364,-0.046862687189368285,9.838904725362611e-05,0.003749860887126545,-0.006683046362922022,0.02097492712615895, ,0.1823890209197998
0.011617093999721866,0.019217518788489634,-0.08154219029184724, ,0.011593153076326143,0.019408469173309448,-0.08164880720755913, ,0.00022000541809644145, ,-0.0018570407300759699,0.003892558610788863,0.00032528497619407665,-0.02057850983185253,-0.007475514801285627,-0.004854069481678516, ,0.004325092268070728, ,0.021894254690303924, ,1.955977472508842e-05, ,0.15879483335980438,-0.226237459550407,0.09118103860000001,-4.5353837876267775,0.15959143172603446,-1.3914192167679822, ,-0.026477941283055466,-0.04716547791176481,0.00025775114612804024,0.003749860887126545,-0.04492910150621581,0.06208816537387516, ,0.20458507537841797
0.011575826536588061,0.019296876231799858,-0.0815354265397327, ,0.011551121960949899,0.019489676438158694,-0.0816491612332122, ,0.00022520616361535798, ,-0.0020335302750657093,0.0039251744017974955,0.0003619466566068902,0.02605994577747358,0.007910855143245861,-0.0009923903733819097, ,0.004435453172604131, ,0.027234213831544483, ,2.0056423119932482e-05, ,0.15825424205860866,-0.22719507842681086,0.09118622376,-4.5353837876267775,0.15904488572697267,-1.3908101876729155, ,-0.026113632789892892,-0.04728298034801733,0.00023945910676993664,0.003749860887126545,-0.022407707380570487,0.018271982868939572, ,0.22494101524353027
0.011537032759156164,0.019375502249175218,-0.08153278375088988, ,0.011510591576474083,0.01956986720722814,-0.08165066042389535, ,0.0002288488214944097, ,-0.0020351455230385052,0.0038800719940944623,1.1461490895517043e-05,0.002277714981073148,0.0012639776720163838,-0.00339370820453959, ,0.004381427546482242, ,0.002604923240781004, ,2.050402509599746e-05, ,0.1577059280245387,-0.22813725183746625,0.09119529779,-4.5353837876267775,0.15822506672838005,-1.389733286550034, ,-0.028092641077107988,-0.04604412496771994,0.0005561544143561944,0.003749860887126545,-0.03435630992881745,0.03937757601628018, ,0.24488306045532227
0.011492716785765153,0.01945457150228376,-0.08153384434601887, ,0.01147155301258365,0.01964904745528334,-0.08165329684780985, ,0.00022921104199950015, ,-0.002251298981538169,0.003919186276870778,3.5314384062742595e-06,0.01574185021874187,0.03191588948456163,0.004819881752663183, ,0.004519776614849924, ,0.0355869336962326, ,2.088586113134381e-05, ,0.15715761399046876,-0.2290639797823732,0.09120826069000001,-4.5353837876267775,0.1580884302286146,-1.3890501174653536, ,-0.027013077585673433,-0.045910470033125685,0.0005920532078029276,0.0036715445297445344,0.0,0.030457996398173325, ,0.2665269374847412
0.011453255421616742,0.019530431908646402,-0.08153427220482246, ,0.011433997385322671,0.019727223140170606,-0.08165706259857584, ,0.00023275554035259605, ,-0.0018677397307149692,0.003764538918321124,-0.00014625721305954197,-0.04236341183046515,-0.011391565557698068,-0.007075867516793868, ,0.004204949005828435, ,0.04386828498782381, ,2.1241280100950964e-05, ,0.15660929995639883,-0.22995981679578323,0.0912199273,-4.535174097683293,0.1574052477297874,-1.3878395980257472, ,-0.028471929660507284,-0.04455255472228675,0.0006886153608319655,0.003866843679928685,-0.053717300099741336,0.08026515937408683, ,0.28668689727783203
0.011408213444675339,0.01960721564115808,-0.08153848211869151, ,0.011397915837063437,0.01980440020283232,-0.08166194979519287, ,0.0002328777774409468, ,-0.002046053526053227,0.00370656587411132,-0.000178592459460771,0.007465621012197071,0.012615160485839579,0.0072365888036162295, ,0.004237553642985266, ,0.014658709737942371, ,2.155021533452421e-05, ,0.15604554045658045,-0.23084793107631904,0.09123548278000002,-4.534964407739808,0.15726861123002195,-1.3871564289410667, ,-0.02686015894663764,-0.04333193678468985,0.0007315617711644043,-0.004001816968317491,-0.018448483148014335,0.03248071541964397, ,0.30884599685668945
0.011371715114491426,0.01967941627900824,-0.08154206779145069, ,0.011363299536470962,0.019880584567332354,-0.08166795058201097, ,0.00023745732067029644, ,-0.0013159718041651756,0.0035205777498161475,-0.00014717334551440927,-0.06984231336670618,-0.042344875119410805,-0.006628601085581243, ,0.003761370691049764, ,0.08167641755911972, ,2.2005149586231223e-05, ,0.15551267188825896,-0.23169743169248375,0.09124974197,-4.534964407739808,0.1564487922314293,-1.385997849078045, ,-0.025018966928149425,-0.04217641847043145,0.0006778977818623018,-0.004001816968317491,-0.08337266661061545,0.10026702485992353, ,0.327347993850708
0.011336854731356809,0.01975097902430313,-0.08155186769031196, ,0.0113301396784707,0.019955782140874255,-0.08167505712869536, ,0.00023909212915051168, ,-0.0020959553577141595,0.0037524428576253986,-0.0007013627067343293,0.02415187702722901,0.036233939134072225,0.0034239547566457234, ,0.0043549702533625025, ,0.0435455107802156, ,2.2422705430341565e-05, ,0.15501841698430857,-0.23252376411002576,0.09127048261000001,-4.5353837876267775,0.15590224623236756,-1.3850621050224157, ,-0.025745236451023,-0.041804820069810913,0.001279094286521375,0.005728384719111232,0.0069021377552861175,0.01915727438768701, ,0.34549808502197266
0.011314182616681002,0.019790374477883284,-0.0815587440752984, ,0.011298427484214286,0.02002999881382355,-0.08168326163019345, ,0.00027050446955808195, ,-0.00198838047255792,0.0035960571018685914,-0.0007270513670855362,0.015166557686786566,0.02928181110988908,0.0014592310845419625, ,0.004172995000467906, ,0.032976490625014135, ,2.299580496565823e-05, ,0.1545241620803582,-0.2333269283289451,0.09129381583000001,-4.5353837876267775,0.15576560973260212,-1.3847056508982978, ,-0.02423313114363401,-0.04131342688657849,0.0011568541977448241,0.005728384719111232,-0.017219754344810465,0.05441321870685792, ,0.3632700443267822
0.011281668596464733,0.01986325765120096,-0.08157065176526394, ,0.011268154201048722,0.02010324045972433,-0.08169255630669792, ,0.0002695090063290127, ,-0.0012688541113312737,0.003580699554734774,-0.0006114573894356891,-0.049986531379276625,-0.0226630847308567,-0.016617871102688277, ,0.003847763011961053, ,0.054884139137362, ,2.3508035903405218e-05, ,0.15426158916263458,-0.23379029230139858,0.09130677873000001,-4.535174097683293,0.15535570023330578,-1.3840446822266461, ,-0.023083663721350227,-0.04090385412003051,0.0011813823276089605,0.010933289340048617,-0.06216671519265626,0.084207937724019, ,0.38194704055786133
0.011246732568531263,0.019937262458072945,-0.08158569030460934, ,0.011239311102478541,0.020175512935326875,-0.08170293340361937, ,0.0002656394404744363, ,-0.0013938958932664973,0.003805308297882429,-0.0011187578001021908,-0.00541448506844126,0.0004291731367806431,0.010442166266469991, ,0.004204156992607147, ,0.005431467401720727, ,2.3951322493389186e-05, ,0.15381367065592955,-0.23460890198606638,0.09133400082000001,-4.534964407739808,0.15535570023330578,-1.3834729310456622, ,-0.02154300602916476,-0.04178641195881584,0.0017553954620172574,-0.009227480785038012,-0.02569916228212439,0.04216302130647488, ,0.4010579586029053
0.011220089752836691,0.020011894872474286,-0.0816031209188208, ,0.011211889488135483,0.020246822080603726,-0.08171438519154899, ,0.00026007263571240164, ,-0.0011688888884614672,0.003587590735699263,-0.0005949309831520119,-0.04368058659405324,-0.02699487550931076,0.0031966493028339005, ,0.0038198234769630498, ,0.05134897222889368, ,2.4325432087735022e-05, ,0.15337347488209876,-0.23544295713648264,0.09136381549000001,-4.534964407739808,0.15453588123471315,-1.3819876362220782, ,-0.02143110694635745,-0.04120579312135075,0.0011913988119035598,-0.009227480785038012,-0.05889832903417349,0.07556247100733059, ,0.4199841022491455
0.011187231130449277,0.020083997094676256,-0.08161164010592917, ,0.011185880683747007,0.020317173718767182,-0.08172690396622097, ,0.0002601132815103922, ,-0.001728823941110388,0.003665699241421229,-0.0005379960940055093,0.037052336478505685,0.02012793756474371,0.01435462802300475, ,0.004088474403133498, ,0.04216645004178771, ,2.466841546369582e-05, ,0.15295644730689065,-0.236246121355402,0.09138455613,-4.534964407739808,0.1543992447349477,-1.3817945395782412, ,-0.021800354137025222,-0.04136745490779023,0.0011581995628059854,-0.008301582359194952,0.0,0.0023588360187412147, ,0.4379279613494873
0.011163918815977983,0.020157474074986637,-0.08162237377738987, ,0.011161276041096827,0.02038657365629964,-0.08174048204848892, ,0.0002577657194408783, ,-0.0011974886748078858,0.003548923767693131,-0.0002988644073153971,-0.03094784937376519,-0.02633134094073651,0.0010449552837945206, ,0.0037574138671632035, ,0.04063383930418787, ,2.4972025492496383e-05, ,0.15253169699880828,-0.2371033447044409,0.09140788935000001,-4.534964407739808,0.15330615273682416,-1.3809848750888105, ,-0.02098561290545572,-0.04145781632086971,0.0009032524365252757,-0.006973297536533795,-0.05663288661051402,0.06362542222784516, ,0.45728087425231934
0.011149366414222902,0.020194541094806076,-0.08162902133071885, ,0.011138066937997314,0.02045502768296503,-0.08175511178428327, ,0.00028961999802110534, ,-0.0014648910533812832,0.0036837168459730395,-0.000832473806383011,0.019590253831599052,0.007351266927585299,0.009142068740052656, ,0.0040507639079432785, ,0.003968068630995524, ,2.552938383994119e-05, ,0.15212239215647438,-0.23792195438910868,0.09143511144000001,-4.534964407739808,0.1530328797372933,-1.380680360541277, ,-0.020246840528796838,-0.0418232444065539,0.001595719608426979,-0.006039087846942512,-0.014647337962777349,0.019005638314058715, ,0.47405099868774414
0.011122180708120917,0.02026787231920861,-0.08164606480258475, ,0.011116244778253433,0.020522541571833884,-0.0817707855445815, ,0.00028363167485372163, ,-0.0014226190975177176,0.003661874537370196,-0.0008484025781939138,0.020990413027626557,0.004966513234229892,0.007837487602965482, ,0.004019074166863357, ,0.021569972016108316, ,2.6021994112120223e-05, ,0.15191387836887033,-0.2383312592314426,0.09145066692,-4.534964407739808,0.15262297023799698,-1.3801827493499066, ,-0.020438712375289853,-0.04053692505701443,0.0014836310959783277,-0.005656694141485539,-0.01701988487574008,0.016033402655366034, ,0.4903888702392578
0.01109497194460536,0.02034944153309262,-0.0816680770260177, ,0.011095800991630602,0.02058912107930184,-0.08178749572537283, ,0.000267783117364969, ,-0.0012378073683601935,0.003699781009027202,-0.0009738254993438516,0.005991338120256444,-0.0035968973926456035,0.005122814630702457, ,0.0040210549236608835, ,0.00698811872563589, ,2.641121756021171e-05, ,0.15147368259503954,-0.23922709624485264,0.09148696304000001,-4.534964407739808,0.15193978773916977,-1.3792989448708621, ,-0.019534158410553885,-0.04069337116572503,0.0016287035512831415,-0.004979415133392533,-0.027149652793006726,0.03001743365786541, ,0.5074820518493652
0.01108084947823114,0.02038605906216246,-0.08167720557804525, ,0.011076727033818184,0.020654771945115124,-0.0818052347476294, ,0.0002976828451172054, ,-0.0015352813582886309,0.003757404299102122,-0.0009641029354825229,0.027090846683382082,0.020761826689524768,0.011214157101456249, ,0.004171890505061909, ,0.03413161908710959, ,2.6908152900280975e-05, ,0.1512728915403097,-0.2396286783543123,0.09150251852,-4.534964407739808,0.15180315123940433,-1.379105848227025, ,-0.020165095953776194,-0.04097449980935698,0.0016293891942705543,-0.004718556766241479,0.0,0.0128502481618235, ,0.5233988761901855
0.011055460832947069,0.020467530788798795,-0.08169904915473367, ,0.011059014386400522,0.02071949989238462,-0.0818239950572656, ,0.00028126950681421495, ,-0.0008923068173177426,0.0037651821896702306,-0.000952278381389075,-0.03773824155728067,-0.02781145896013045,-0.0016925748377819875, ,0.003984926911914775, ,0.046879122488863875, ,2.7305214594777763e-05, ,0.15084041849935312,-0.24052451536772235,0.09153881464000001,-4.534964407739808,0.15098333224081167,-1.3780289471041438, ,-0.01859630444022551,-0.04186014184317194,0.0016368775812675071,-0.00422861838767477,-0.05744485948323804,0.07120044404259787, ,0.5392329692840576
0.01104678854100055,0.020493700642422397,-0.08170596493205712, ,0.011042654556821196,0.020783310627610012,-0.08184376912510884, ,0.00032075072715147696, ,-0.0011573317618629943,0.0036871487756054222,-0.0011096316702821545,-0.02544275044329384,-0.004555746570125108,0.0039436559252762175, ,0.00402066727598276, ,0.025847405613122054, ,2.7843032955723956e-05, ,0.1507091320404913,-0.24081025648406867,0.09155048125000001,-4.534964407739808,0.15084669574104626,-1.3777541717201662, ,-0.01937858720818272,-0.04015951822195124,0.0017666002100941629,-0.004095489382274264,-0.03248984436223352,0.06061654415966687, ,0.5547699928283691
0.01101682473263769,0.02058174846809894,-0.08173388181908758, ,0.011027639078349178,0.020846209840700774,-0.08186454944686541, ,0.00029517926184049597, ,-0.001329154725696979,0.003957926791729054,-0.0015131052977841548,0.015105686008065156,0.021215107254272933,0.010796300947530672, ,0.004440869781440538, ,0.026043473761705217, ,2.8247379855524072e-05, ,0.15028438173240896,-0.24175242989472406,0.09159455511,-4.534964407739808,0.1507100592412808,-1.3773160388559076, ,-0.01867314867344958,-0.04154857336185235,0.0022412848628113134,-0.003703229569075683,0.0,0.025686523699753973, ,0.5717849731445312
0.011006628863287392,0.020621559502513112,-0.0817486578077167, ,0.011013959510046776,0.020908203204995358,-0.08188632854308613, ,0.00031807480555963425, ,-0.0011026626095077873,0.0038826544062320716,-0.0014542191696555018,-0.0006776802051021921,0.0036187867292267802,0.006022792379883797, ,0.004290177556003175, ,0.003681693611031705, ,2.8832381928069308e-05, ,0.15009131341055335,-0.2421771802028064,0.09161659204000001,-4.534964407739808,0.1503001497419845,-1.3767367489243965, ,-0.017935539890090866,-0.041098718734721,0.0021736915283842796,-0.0035539345057934114,-0.019464144696542573,0.038463472441241965, ,0.58524489402771
0.010991135825278149,0.020690600614015054,-0.08177191189177112, ,0.011001607436734707,0.02096929637728375,-0.08190909895913394, ,0.0003108074557696934, ,-0.0007799087333135859,0.0038940725467029435,-0.0012532205193933332,-0.0578557307685443,-0.020469480578792967,-0.00015041097839130733, ,0.004164447178379484, ,0.06137006776861807, ,2.9362432559612682e-05, ,0.1497901268284586,-0.24291856255873195,0.09165288816000002,-4.534964407739808,0.1496169672431573,-1.3757712657052117, ,-0.015818793391977126,-0.04259288220757216,0.0020136168614002994,-0.003321428441529618,-0.010049599581184534,0.03410699310647403, ,0.5984408855438232
0.010977220408738173,0.02074079478764969,-0.08179073002797833, ,0.010990574468960762,0.021029494997825093,-0.08193285326514772, ,0.000322063901769909, ,-0.0011285822621418264,0.003955506907975721,-0.001574858328344226,0.028294512743058962,0.012271317071833505,0.008157021113016203, ,0.004404533071259652, ,0.030840957735370524, ,2.9910888598756415e-05, ,0.14958933577372877,-0.24344370839417923,0.09168140654000001,-4.534964407739808,0.1496169672431573,-1.3754445507446493, ,-0.016973160715162007,-0.0412774865413096,0.002325713464739378,-0.003172792540267246,-0.005710962668448882,0.011379084509044768, ,0.612605094909668
0.010968851093939863,0.02078176880172598,-0.08180876731387544, ,0.010980852242964374,0.021088804690371634,-0.08195758405601186, ,0.00034141102389119215, ,-0.0008052309018719325,0.0040999576891080575,-0.0018317376273764372,-0.008813733613819971,-0.002533926888222019,0.0046366443808615754, ,0.004562160956537201, ,0.00917075164147483, ,3.050627717338382e-05, ,0.14942715838337003,-0.24386845870226156,0.09170733234,-4.534964407739808,0.1493436942436264,-1.375140036197116, ,-0.015608049598432696,-0.0424025654863587,0.0026280830754000996,-0.0030646576321480953,-0.024827471279217327,0.0473067962370478, ,0.626147985458374
0.010953231615569999,0.02086598784118626,-0.08184810695167649, ,0.010972432420644645,0.02114723106218675,-0.08198328395132036, ,0.0003126327582115555, ,-0.0007367664457315711,0.004159170004356969,-0.0018539640767799418,-0.011575125118641746,-0.007924077165208269,0.0030594728877528523, ,0.004612884425030523, ,0.014027634170111618, ,3.097244658047466e-05, ,0.14911052633552682,-0.2447334047841747,0.09176307281000001,-4.534964407739808,0.14879714824456466,-1.3742859708816275, ,-0.015447980068121564,-0.04303716170452189,0.002669036782841823,-0.0028644081007883695,-0.030723829279134883,0.049933664973556564, ,0.6402990818023682
0.01094702525898279,0.02089271550847277,-0.08185830531773652, ,0.010965306689526007,0.021204779704067183,-0.08200994559534441, ,0.00034743783137086893, ,-0.0007217702422317922,0.004006206968378407,-0.0015517507851490362,-0.0025609409304583994,-0.0027055964333664484,0.004690767791167883, ,0.004356440870167492, ,0.003725408769590946, ,3.154147176317896e-05, ,0.14901785354103614,-0.2450114231676468,0.09177862829000001,-4.534964407739808,0.14879714824456466,-1.374204292141487, ,-0.013819272106956573,-0.04197122581091144,0.0023542434998522024,-0.0028057946072083543,-0.022313095407611467,0.04095761192316387, ,0.6543638706207275
0.010932143081819496,0.020987447866907673,-0.0818949289757403, ,0.010959466762725318,0.02126145619036331,-0.08203756165699815, ,0.0003101148603727561, ,-0.0004689942845600844,0.003969167807426497,-0.0017827846561676971,-0.016182155717447213,-0.018496859250245728,-0.002509054416916302, ,0.004376364913113149, ,0.024576329379488327, ,3.195825117626062e-05, ,0.14870122149319293,-0.24600765570842176,0.09183436876,-4.535174097683293,0.14811396574573746,-1.3733204876624425, ,-0.013138161644534234,-0.04102764442648974,0.0025816550275526745,0.0,-0.040341600630879944,0.0516568968413756, ,0.668159008026123
0.010928305142762973,0.021028679084620586,-0.08191371090368829, ,0.010954904378917107,0.021317266079000925,-0.08206612482980685, ,0.00032744461755285475, ,-0.00036362597307857433,0.0041421852495293465,-0.0019323317332316172,-0.011946963227898247,-0.014104111282902343,-0.0006601827680300157, ,0.004585174851297357, ,0.018483935874761777, ,3.241668060360957e-05, ,0.14857765776720533,-0.2464324060165041,0.09186159085000001,-4.535174097683293,0.14770405624644115,-1.3727411977309316, ,-0.01142483171316875,-0.042383627315082974,0.0027911006693534263,0.0,-0.03367391392576593,0.04967061230239238, ,0.6816520690917969
0.010921137530338777,0.021071059413300244,-0.08193481236795605, ,0.010951611302303241,0.02137221491149827,-0.08209562783186962, ,0.0003427607012281008, ,-0.0004992706255632666,0.004200112442369218,-0.0021484738374794804,-0.009806022405263364,-0.0011515777710922465,0.0027174636260273847, ,0.004744065294283887, ,0.009873409073345617, ,3.301693740829413e-05, ,0.14845409404121776,-0.24685715632458646,0.09189140552000001,-4.535174097683293,0.14770405624644115,-1.3725778402506505, ,-0.012035513134313253,-0.04221394197440871,0.003012826086627577,0.0,-0.020672374706464585,0.04916270269063689, ,0.6930530071258545
0.010914795325963851,0.02111468423891569,-0.08195681570298044, ,0.010949579322578012,0.02142630821298849,-0.08212606340582734, ,0.0003563203790920915, ,-0.00048394377268216567,0.004336600152004091,-0.0023274030189759003,0.031112527599178742,-0.0007523116581174979,0.0024754331041839093, ,0.004945412749833717, ,0.03112162184675324, ,3.364189065028963e-05, ,0.14833825304810438,-0.24728962936554302,0.09192251648000001,-4.534964407739808,0.14770405624644115,-1.372332804030229, ,-0.01148543989913767,-0.043095795439814163,0.0032296860340632607,0.0005151487279968611,-0.014307963209624255,0.0096897693562344, ,0.705409049987793
0.010912608423155105,0.021159797076686727,-0.08198242376486167, ,0.010948800254892624,0.02147955149224316,-0.08215742431883191, ,0.00036630305600996913, ,-0.0004030985667754078,0.004282572376393096,-0.002431397454581689,0.0024650606926060873,0.002189992656894801,0.003417016497781148, ,0.004941114064229636, ,0.0032973613648661533, ,3.427884757234275e-05, ,0.148222412054991,-0.24773754787224805,0.09195751631000001,-4.534964407739808,0.1472941467471448,-1.3718351928388586, ,-0.010697406988288579,-0.042120258126263105,0.003328209678228166,0.0005151487279968611,-0.014305015223785914,0.03764500113128954, ,0.7173628807067871
0.010910971416328574,0.021202967845612288,-0.08200709211608463, ,0.010949265939823052,0.021531950241690846,-0.08218970336251036, ,0.00037820993479867137, ,-6.671556467065123e-05,0.004435060989518028,-0.002695810907376175,-0.030806726198888967,-0.00958701462101195,0.003172628916785086, ,0.005190531128472529, ,0.032263992751896495, ,3.493332762594072e-05, ,0.14802162100026117,-0.2485716030226643,0.09202621968000001,-4.534545027852839,0.14674760074808305,-1.37098112752337, ,-0.008647765785495016,-0.04319387417317742,0.0036492122611683857,-0.0016961251123423675,-0.028484447735824963,0.07000124354492271, ,0.7288379669189453
0.01090538580873354,0.02129122102245891,-0.08206074351268319, ,0.010950968243339835,0.021583509937434197,-0.08222289335292887, ,0.0003373472081606242, ,-8.615101895743786e-05,0.0043649610478831025,-0.0026887183553442945,0.03907770665024511,-0.009751678258387776,0.0030881572473288026, ,0.0051273300402811485, ,0.04027607708997002, ,3.5440120678996547e-05, ,0.1479366709386447,-0.2490117987964951,0.09206381209,-4.534545027852839,0.14674760074808305,-1.3707360913029483, ,-0.007726070613761948,-0.04219517188015597,0.00363671495890411,-0.0016961251123423675,-0.017874277615327908,-7.49552587452039e-05, ,0.7416958808898926
0.01090316973211083,0.0213292613500746,-0.08208491423548889, ,0.01095389905677001,0.02163423603927593,-0.08225698713056306, ,0.0003538249661245425, ,-5.2162744796592476e-05,0.004340131713542626,-0.0028237946555000875,0.02902619752483359,-0.00491228588603042,0.004512154467960345, ,0.005178154159473627, ,0.02943893162458868, ,3.5981913202706854e-05, ,0.1478671663427767,-0.24937476724158364,0.09209621934000001,-4.534545027852839,0.14674760074808305,-1.3704910550825267, ,-0.007091246950908169,-0.041403552163381666,0.0037710254545454554,-0.0016961251123423675,-0.013531548825227861,0.009896264566576595, ,0.7531020641326904
0.010904687295467959,0.021370829790231635,-0.08211339888287074, ,0.010958050296766065,0.021684133990737042,-0.08229197756026263, ,0.000364551060869272, ,-1.9278034711729436e-05,0.004385816867538606,-0.003043949954421236,0.007480220662575635,0.002220921846627095,0.006652630417237607, ,0.005338669549918738, ,0.007802960639931488, ,3.653974249230123e-05, ,0.1478053844797829,-0.2497686266181691,0.09213381175,-4.534545027852839,0.14647432774855218,-1.3702682192751339, ,-0.006558121858652859,-0.04115218627860832,0.0040052329695750575,-0.0016961251123423675,-0.008601441391945765,0.03209662972396301, ,0.764441967010498
0.010909583274294966,0.021422980132081906,-0.08215250409858403, ,0.010963413905270992,0.021733209219078675,-0.08232785753121905, ,0.00036040067922661964, ,0.00048694288248014644,0.004490497914744866,-0.003629475955307584,-0.047678141609192565,-0.029440249769946653,-0.001943844787825021, ,0.005794374910487064, ,0.056035109468914567, ,3.717926998262187e-05, ,0.14773587988391487,-0.25025515878924526,0.09218436706000001,-4.534545027852839,0.1459277817494904,-1.3694958326997857, ,-0.005763074901384604,-0.04113434831316461,0.004613035482189401,-0.0016961251123423675,-0.04799703838998211,0.0822457357623251, ,0.7733900547027588
0.010911797283116973,0.02147182708609494,-0.08218960012417062, ,0.01096998184948858,0.021781467135318797,-0.0823646199569277, ,0.00036040858162025293, ,0.0003599616047168467,0.004469292857192127,-0.0033889420072445125,-0.006318320073090634,-0.014136291563303175,0.002660334378121832, ,0.005620416259378424, ,0.015484053321456984, ,3.7803728689671324e-05, ,0.1476818207537953,-0.2506721863644534,0.09222973721000001,-4.534545027852839,0.14579114524972495,-1.3692210573158086, ,-0.0044014808971317085,-0.04154857336185235,0.004423441133018607,-0.0016961251123423675,-0.026148443272871445,0.045491150924451496, ,0.7829480171203613
0.010912469885338602,0.021514461359948098,-0.0822202357228236, ,0.010977746121845624,0.021828913134257697,-0.08240225777515951, ,0.00036915163951356804, ,0.00030936597629702334,0.004332761450115507,-0.0032123263740023444,0.017248914732136567,-0.009702915231032425,0.0038658149093652324, ,0.0054025521583792495, ,0.019790695366132594, ,3.8439112726857575e-05, ,0.14763548435654994,-0.2510969366725357,0.09227251478000001,-4.534545027852839,0.14579114524972495,-1.3689760210953867, ,-0.0037637098585186473,-0.0399566069719877,0.0041906896921862676,-0.0016961251123423675,-0.016473740578330124,0.019934893638619125, ,0.7919631004333496
0.010914374180453094,0.02154755799561726,-0.0822464387872515, ,0.010986698739960625,0.021875552594496493,-0.08244076394792486, ,0.0003880380997693831, ,0.0004493765241516877,0.004671281344390212,-0.003851261108202569,-0.0027089751398597915,-0.0019161270641905959,-0.0028710659540384913, ,0.006070833615119126, ,0.0033181453234066953, ,3.9114275980062044e-05, ,0.14761231615792728,-0.25139812325463046,0.09230621832000001,-4.534754717796323,0.14579114524972495,-1.368894342355246, ,-0.002889342445143263,-0.04165800770784494,0.004911751933395005,0.0075013549273070974,-0.013088066537070942,0.0435881140466615, ,0.8018829822540283
0.010924610750536851,0.02160672489160338,-0.08229896694576522, ,0.010996831746609599,0.021921390878457975,-0.08248013146144041, ,0.00037020418325127685, ,0.0006368988712615773,0.0046330427333749254,-0.004189740393884919,-0.012390623449249662,-0.0009306638493968397,-0.005443734280314845, ,0.006278905136219485, ,0.012425525476640496, ,3.972324201804219e-05, ,0.14759687069217883,-0.2519155463572035,0.09237232911000001,-4.534545027852839,0.14538123575042863,-1.368151694943454, ,-0.0011737214924962532,-0.04005780563886483,0.005253565804749341,0.01050337430831493,-0.012276105556422504,0.05231073044647577, ,0.8115499019622803
0.010932834594097595,0.02165674030015263,-0.08234586975960746, ,0.011008137209693682,0.02196643333240684,-0.08252035332609514, ,0.0003633521337720192, ,0.0011318861172345093,0.00476951325630282,-0.004624072831584702,-0.030650432342947266,-0.029909082770195335,-0.01688222722923996, ,0.006738803486987605, ,0.0428252522800496, ,4.029918332987275e-05, ,0.1475814252264304,-0.25231712846666315,0.09242677329000001,-4.534125647965871,0.14510796275089774,-1.3675204654353585, ,0.0005600722711445255,-0.04081588884235302,0.005666599615795092,0.01422190913836159,-0.043984343473614386,0.06738900501263329, ,0.8210639953613281
0.010940239603760421,0.021702369492647863,-0.0823909821015662, ,0.01102060722220577,0.022010685286469645,-0.08256142257641576, ,0.0003613413044221146, ,0.0010461022847707971,0.004744338503005177,-0.004931216886179776,-0.012673724946451869,-0.012340837826724429,-0.03752760370426202, ,0.006922425716455515, ,0.01768953304550301, ,4.085668909896084e-05, ,0.1475891479593046,-0.25271871057612283,0.09248640263,-4.533915958022385,0.14510796275089774,-1.3672754292149367, ,0.0004012436568494362,-0.03881265503413938,0.006026792099886493,0.038800062959022386,-0.030147569365961985,0.05290274300246561, ,0.831002950668335
0.010940239603760421,0.021702369492647863,-0.0823909821015662, ,0.011034233902195344,0.022054152054657567,-0.08260333227103546, ,0.00042151926829743806, ,0.0010461022847707971,0.004744338503005177,-0.004931216886179776,-0.012673724946451869,-0.012340837826724429,-0.03752760370426202, ,0.006922425716455515, ,0.01768953304550301, ,4.168251562106182e-05, ,0.1475891479593046,-0.25271871057612283,0.09248640263,-4.533915958022385,0.14510796275089774,-1.3672754292149367, ,0.0004012436568494362,-0.03881265503413938,0.006026792099886493,0.038800062959022386,-0.030147569365961985,0.05290274300246561, ,0.8378829956054688
0.010948650614259045,0.021752552759159872,-0.08244285538737282, ,0.011049009392735799,0.022096838934886388,-0.08264607549265929, ,0.0004121932391565599, ,0.0010001670537272578,0.004971115077597758,-0.005083104410412119,-0.012773015013956439,-0.022564344996861156,0.02825477658019205, ,0.0071798516486924965, ,0.025928740314381856, ,4.246921614789298e-05, ,0.14759687069217883,-0.25312801541845675,0.09254992084000001,-4.533706268078901,0.14510796275089774,-1.367030392994515, ,0.000585149113976036,-0.041749644328407734,0.006234368500978474,-0.027515524490723423,-0.02251665843068474,0.047473319262270997, ,0.844865083694458
0.010955419725521219,0.021788973021747194,-0.0824796454636396, ,0.011064925861893041,0.022138751208994556,-0.082689645348029, ,0.0004224172411499027, ,0.0010678931558223467,0.004945844290444658,-0.005277509791974735,-0.00482354090743588,-0.020214390023389223,0.024841423933228957, ,0.0073112161192215785, ,0.020781917784685553, ,4.3270872649812075e-05, ,0.14761231615792728,-0.2534292020005515,0.09259529099000001,-4.533706268078901,0.14510796275089774,-1.3668670355142338, ,0.0013954366271557888,-0.040710828639412604,0.00642809181598063,-0.0234850654813264,-0.019124368577433118,0.039465677721066385, ,0.8519818782806396
0.010955419725521219,0.021788973021747194,-0.0824796454636396, ,0.011081975502689552,0.02217989414276656,-0.08273403496789095, ,0.0004832698081475435, ,0.0010678931558223467,0.004945844290444658,-0.005277509791974735,-0.00482354090743588,-0.020214390023389223,0.024841423933228957, ,0.0073112161192215785, ,0.020781917784685553, ,4.422358744818972e-05, ,0.14763548435654994,-0.25396979330174724,0.09268214242000002,-4.533915958022385,0.1449713262511323,-1.3664289026499752, ,0.0021618656105905805,-0.04329240034601769,0.007004754406332454,0.011194953707768126,0.0,0.04526258583116552, ,0.8593790531158447
0.010969155262324667,0.021855336284800374,-0.0825510025678877, ,0.011100150533071956,0.02222027298595285,-0.08277923750696262, ,0.00044992193125112373, ,0.0010386971702049956,0.005378784925584897,-0.00574272041896876,-0.0004063504394310585,0.006704030950337697,-0.0025972498818402395, ,0.00793656455259654, ,0.006716334224627848, ,4.5071852605693874e-05, ,0.14763548435654994,-0.25396979330174724,0.09268214242000002,-4.533915958022385,0.1449713262511323,-1.3664289026499752, ,0.0021618656105905805,-0.04329240034601769,0.007004754406332454,0.011194953707768126,0.0,0.04526258583116552, ,0.8665928840637207
0.010981817380718156,0.021911236357086455,-0.08261426865226966, ,0.01111944319587739,0.02225989297229013,-0.08282524614389777, ,0.000430132307897487, ,0.0013910058920640902,0.005613268682426093,-0.006691417320609542,0.025460788661796786,0.00014317234401174184,-0.001819854636356393, ,0.008844136388105736, ,0.02546119094201551, ,4.585412515232626e-05, ,0.14767409802092107,-0.25440998907557805,0.09275862353000001,-4.533915958022385,0.1449713262511323,-1.3659388302091318, ,0.004669553890006935,-0.04299816110488028,0.008020549607250755,0.00926158453750079,0.0,0.018568911532333546, ,0.873845100402832
0.010996243257263677,0.021964726791437884,-0.08268079495307082, ,0.011139845758800278,0.022298759319522285,-0.08287205408125442, ,0.0004108277770302016, ,0.001487046628990144,0.005721891623119565,-0.007196138103789186,0.014208056991071702,-0.00138992124838867,0.007314285179882174, ,0.009313203263771462, ,0.01427587984121903, ,4.657324463015053e-05, ,0.1477127116852922,-0.2548115711850377,0.09283769722000002,-4.533706268078901,0.14483468975136687,-1.3654190186047326, ,0.004905909040133794,-0.04278491503988764,0.008545499742489271,0.0,-0.0002910852146846548,0.028346710235146514, ,0.8804590702056885
0.010996243257263677,0.021964726791437884,-0.08268079495307082, ,0.011161350514357867,0.022336877229421532,-0.08291965454546053, ,0.0004720278166730946, ,0.001487046628990144,0.005721891623119565,-0.007196138103789186,0.014208056991071702,-0.00138992124838867,0.007314285179882174, ,0.009313203263771462, ,0.01427587984121903, ,4.7440889754909385e-05, ,0.1477127116852922,-0.2548115711850377,0.09283769722000002,-4.533706268078901,0.14483468975136687,-1.3654190186047326, ,0.004905909040133794,-0.04278491503988764,0.008545499742489271,0.0,-0.0002910852146846548,0.028346710235146514, ,0.8871738910675049
0.011013283735950851,0.022024665072567912,-0.08275589338038848, ,0.011183949779859079,0.02237425188780694,-0.08296804078677884, ,0.00044310761894872516, ,0.0017556880947346457,0.005802963584023758,-0.007378084983569311,-0.027538123714599728,0.0011766738450068577,0.00890478793558271, ,0.009549500775866233, ,0.027563250845912473, ,4.8345372454750695e-05, ,0.147774493548286,-0.25522859876024584,0.09292195607,-4.533706268078901,0.14483468975136687,-1.3650106249040297, ,0.0076603541743690065,-0.04303716170452189,0.008795588912203204,0.0,-0.0005589062155041082,0.07113896009686844, ,0.8920068740844727
0.011013283735950851,0.022024665072567912,-0.08275589338038848, ,0.011207635897371348,0.022410888464564585,-0.08301720607927324, ,0.0005051985726154313, ,0.0017556880947346457,0.005802963584023758,-0.007378084983569311,-0.027538123714599728,0.0011766738450068577,0.00890478793558271, ,0.009549500775866233, ,0.027563250845912473, ,4.9400948236936563e-05, ,0.147774493548286,-0.25522859876024584,0.09292195607,-4.533706268078901,0.14483468975136687,-1.3650106249040297, ,0.0076603541743690065,-0.04303716170452189,0.008795588912203204,0.0,-0.0005589062155041082,0.07113896009686844, ,0.8965189456939697
0.011020474335061932,0.02204892510756282,-0.08278634287999986, ,0.011232401233680283,0.022446792113676034,-0.08306714372078187, ,0.0005310934730302843, ,0.0017233830810648365,0.005830224912751695,-0.007274694756316694,-0.0011041835476319243,-0.0012351739851408838,0.004735293426732566, ,0.009480651642949057, ,0.0016567606062867495, ,5.051223763682451e-05, ,0.1478131072126571,-0.2554371125478499,0.09296343735000001,-4.533496578135416,0.14483468975136687,-1.3646839099434676, ,0.007505232127773825,-0.04351074807816175,0.008680551237057221,0.0033859860082834582,-0.0006377612882098938,0.04497304513276884, ,0.9018700122833252
0.011020474335061932,0.02204892510756282,-0.08278634287999986, ,0.011258238180266411,0.02248196797322712,-0.08311784703287244, ,0.0005949393019131693, ,0.0017233830810648365,0.005830224912751695,-0.007274694756316694,-0.0011041835476319243,-0.0012351739851408838,0.004735293426732566, ,0.009480651642949057, ,0.0016567606062867495, ,5.177544691211741e-05, ,0.1478131072126571,-0.2554371125478499,0.09296343735000001,-4.533496578135416,0.14483468975136687,-1.3646839099434676, ,0.007505232127773825,-0.04351074807816175,0.008680551237057221,0.0033859860082834582,-0.0006377612882098938,0.04497304513276884, ,0.906404972076416
0.011050833900231042,0.0221471232994058,-0.08291029383979796, ,0.011285139153265707,0.02251642116543581,-0.08316930936081594, ,0.0005083000153277321, ,0.0022382428545205035,0.006431275557951912,-0.008605461879549425,-0.017113970455241982,0.006805961533210926,-0.02674710425273359, ,0.010973832992099893, ,0.018417628781745115, ,5.280534289558687e-05, ,0.14795211640439315,-0.2561553267051528,0.09311121441,-4.532867508304963,0.14483468975136687,-1.3639488012822025, ,0.01111588199123596,-0.04551412065154474,0.010178154325878597,0.03751216457825146,-0.000761145128039036,0.06804260151757008, ,0.9110329151153564
0.011050833900231042,0.0221471232994058,-0.08291029383979796, ,0.01131309659343607,0.02255015679667253,-0.08322152407355206, ,0.0005727844084547282, ,0.0022382428545205035,0.006431275557951912,-0.008605461879549425,-0.017113970455241982,0.006805961533210926,-0.02674710425273359, ,0.010973832992099893, ,0.018417628781745115, ,5.3988061180811054e-05, ,0.14795211640439315,-0.2561553267051528,0.09311121441,-4.532867508304963,0.14483468975136687,-1.3639488012822025, ,0.01111588199123596,-0.04551412065154474,0.010178154325878597,0.03751216457825146,-0.000761145128039036,0.06804260151757008, ,0.9157788753509521
0.011076259799413105,0.022211381559402287,-0.08299811070412134, ,0.011342102966126852,0.022583179957477804,-0.0832744845636532, ,0.0005341246561734901, ,0.0025870520011719743,0.006646477105565375,-0.009184832063816263,0.02159785406929848,-0.0007845846301889549,-0.0279623273099995, ,0.01162882780043113, ,0.021612098650385873, ,5.506148318033717e-05, ,0.14808340286325497,-0.256610967944732,0.09321491761,-4.532867508304963,0.14469805325160143,-1.3634289896778033, ,0.014270216775709891,-0.045977200367476156,0.010835926204081634,0.03751216457825146,0.0,0.0295193914850894, ,0.920543909072876
0.011076259799413105,0.022211381559402287,-0.08299811070412134, ,0.011372150761241567,0.02261549572258681,-0.08332818424729457, ,0.0005998401971200566, ,0.0025870520011719743,0.006646477105565375,-0.009184832063816263,0.02159785406929848,-0.0007845846301889549,-0.0279623273099995, ,0.01162882780043113, ,0.021612098650385873, ,5.628884466093713e-05, ,0.14808340286325497,-0.256610967944732,0.09321491761,-4.532867508304963,0.14469805325160143,-1.3634289896778033, ,0.014270216775709891,-0.045977200367476156,0.010835926204081634,0.03751216457825146,0.0,0.0295193914850894, ,0.9251449108123779
0.011105506363845562,0.022279836862435943,-0.08309763405148311, ,0.01140323249320923,0.022647109150944762,-0.08338261656421539, ,0.0005520369684863312, ,0.0031903102801357597,0.00713310845246139,-0.01091977185432643,-0.012910433945256759,-0.0016182248439258898,-0.021368232468019905, ,0.01342761085333708, ,0.013011448844667161, ,5.7384753087781166e-05, ,0.14825330298648792,-0.2570743319171855,0.09333158371000001,-4.532867508304963,0.14469805325160143,-1.36293891723696, ,0.018309269063953457,-0.04608884971271043,0.01270240153110048,0.032022537004562174,0.0,0.06369252955725371, ,0.9300389289855957
0.011105506363845562,0.022279836862435943,-0.08309763405148311, ,0.011435340700946098,0.022678025285732935,-0.08343777497769017, ,0.0006189027064565883, ,0.0031903102801357597,0.00713310845246139,-0.01091977185432643,-0.012910433945256759,-0.0016182248439258898,-0.021368232468019905, ,0.01342761085333708, ,0.013011448844667161, ,5.8635703956964854e-05, ,0.14825330298648792,-0.2570743319171855,0.09333158371000001,-4.532867508304963,0.14469805325160143,-1.36293891723696, ,0.018309269063953457,-0.04608884971271043,0.01270240153110048,0.032022537004562174,0.0,0.06369252955725371, ,0.9353570938110352
0.011140444589142708,0.022355810462714683,-0.08322125123811025, ,0.011468467947826647,0.022708249154384456,-0.08349365297449132, ,0.0005531862807514454, ,0.0037264818640247643,0.0074315905095985535,-0.012443993326754997,0.02579632847773049,-0.011356293546870773,-0.01683510388490929, ,0.014965566294049272, ,0.02818538038866334, ,5.971203697631675e-05, ,0.14846181677409198,-0.2575454186225132,0.09347417561000002,-4.532867508304963,0.14483468975136687,-1.3624785839596725, ,0.022022961605586165,-0.04469945433748034,0.01431160064690027,0.02575134340842285,0.0011493624407637316,0.02247511190169056, ,0.9398529529571533
0.011140444589142708,0.022355810462714683,-0.08322125123811025, ,0.011502606821644168,0.022737785768611466,-0.08355024406486071, ,0.0006207277156842932, ,0.0037264818640247643,0.0074315905095985535,-0.012443993326754997,0.02579632847773049,-0.011356293546870773,-0.01683510388490929, ,0.014965566294049272, ,0.02818538038866334, ,6.109384899283886e-05, ,0.14846181677409198,-0.2575454186225132,0.09347417561000002,-4.532867508304963,0.14483468975136687,-1.3624785839596725, ,0.022022961605586165,-0.04469945433748034,0.01431160064690027,0.02575134340842285,0.0011493624407637316,0.02247511190169056, ,0.9426229000091553
0.011140444589142708,0.022355810462714683,-0.08322125123811025, ,0.011537749934585995,0.022766640124415708,-0.08360754178246721, ,0.0006898209427893482, ,0.0037264818640247643,0.0074315905095985535,-0.012443993326754997,0.02579632847773049,-0.011356293546870773,-0.01683510388490929, ,0.014965566294049272, ,0.02818538038866334, ,6.26386330070809e-05, ,0.14846181677409198,-0.2575454186225132,0.09347417561000002,-4.532867508304963,0.14483468975136687,-1.3624785839596725, ,0.022022961605586165,-0.04469945433748034,0.01431160064690027,0.02575134340842285,0.0011493624407637316,0.02247511190169056, ,0.9449388980865479
0.011140444589142708,0.022355810462714683,-0.08322125123811025, ,0.011573889923191905,0.022794817202118744,-0.08366553968438178, ,0.0007602591652466807, ,0.0037264818640247643,0.0074315905095985535,-0.012443993326754997,0.02579632847773049,-0.011356293546870773,-0.01683510388490929, ,0.014965566294049272, ,0.02818538038866334, ,6.434848725276619e-05, ,0.14846181677409198,-0.2575454186225132,0.09347417561000002,-4.532867508304963,0.14483468975136687,-1.3624785839596725, ,0.022022961605586165,-0.04469945433748034,0.01431160064690027,0.02575134340842285,0.0011493624407637316,0.02247511190169056, ,0.9474239349365234
0.011177105488438824,0.022425641420670887,-0.08333814565133663, ,0.011611019448324364,0.022822321966378182,-0.08372423135104015, ,0.0007033483826964761, ,0.004399447303298512,0.007835683847952316,-0.013345506147003609,0.009819299562157607,-0.015810585286861842,0.006999149922333372, ,0.01608899040522035, ,0.01861163151575442, ,0.0003594337490910011, ,0.14870122149319293,-0.2579624461977213,0.09360898977000001,-4.5326578183614785,0.1449713262511323,-1.3621816081626659, ,0.029020471424608806,-0.046381691866310255,0.015375300694980696,0.0035720202285213134,0.00756923020240294,0.037990948150807086, ,0.9501099586486816
0.011177105488438824,0.022425641420670887,-0.08333814565133663, ,0.01164913119513549,0.022849159366207825,-0.08378361038620818, ,0.0007749932567374405, ,0.004399447303298512,0.007835683847952316,-0.013345506147003609,0.009819299562157607,-0.015810585286861842,0.006999149922333372, ,0.01608899040522035, ,0.01861163151575442, ,0.0003649016373495069, ,0.14870122149319293,-0.2579624461977213,0.09360898977000001,-4.5326578183614785,0.1449713262511323,-1.3621816081626659, ,0.029020471424608806,-0.046381691866310255,0.015375300694980696,0.0035720202285213134,0.00756923020240294,0.037990948150807086, ,0.9524428844451904
0.011177105488438824,0.022425641420670887,-0.08333814565133663, ,0.011688217873031858,0.022875334335000237,-0.08384367041695016, ,0.000847947448566846, ,0.004399447303298512,0.007835683847952316,-0.013345506147003609,0.009819299562157607,-0.015810585286861842,0.006999149922333372, ,0.01608899040522035, ,0.01861163151575442, ,0.00037117495957310863, ,0.14870122149319293,-0.2579624461977213,0.09360898977000001,-4.5326578183614785,0.1449713262511323,-1.3621816081626659, ,0.029020471424608806,-0.046381691866310255,0.015375300694980696,0.0035720202285213134,0.00756923020240294,0.037990948150807086, ,0.9548768997192383
0.011177105488438824,0.022425641420670887,-0.08333814565133663, ,0.011728272216388558,0.022900851789675127,-0.08390440509281158, ,0.0009220951208348782, ,0.004399447303298512,0.007835683847952316,-0.013345506147003609,0.009819299562157607,-0.015810585286861842,0.006999149922333372, ,0.01608899040522035, ,0.01861163151575442, ,0.0003782380385636442, ,0.14870122149319293,-0.2579624461977213,0.09360898977000001,-4.5326578183614785,0.1449713262511323,-1.3621816081626659, ,0.029020471424608806,-0.046381691866310255,0.015375300694980696,0.0035720202285213134,0.00756923020240294,0.037990948150807086, ,0.9571700096130371
0.011230221103401746,0.022509774571754623,-0.08348972964593179, ,0.011769286981519026,0.022925716634192808,-0.08396580808892304, ,0.0008308131583795811, ,0.006078128473943727,0.00885677539475289,-0.0175780383958546,-0.0015892096042085006,-0.021198022753008444,-0.011597426368783898, ,0.02060032888050587, ,0.021257471100086068, ,0.000383966837548656, ,0.14905646720540727,-0.25842581017017474,0.09378269263000001,-4.532028748531025,0.1449713262511323,-1.3616915357218224, ,0.041098718734721,-0.044282287241470264,0.019911014400000003,0.023207423610888362,0.00756923020240294,0.05026811488479325, ,0.9598650932312012
0.011230221103401746,0.022509774571754623,-0.08348972964593179, ,0.011811254951154088,0.022949933754321236,-0.08402787310124875, ,0.0009060567403491206, ,0.006078128473943727,0.00885677539475289,-0.0175780383958546,-0.0015892096042085006,-0.021198022753008444,-0.011597426368783898, ,0.02060032888050587, ,0.021257471100086068, ,0.0003904929613336618, ,0.14905646720540727,-0.25842581017017474,0.09378269263000001,-4.532028748531025,0.1449713262511323,-1.3616915357218224, ,0.041098718734721,-0.044282287241470264,0.019911014400000003,0.023207423610888362,0.00756923020240294,0.05026811488479325, ,0.9626080989837646
0.011230221103401746,0.022509774571754623,-0.08348972964593179, ,0.01185416893138792,0.022973508021169247,-0.08409059384970637, ,0.0009825463833999402, ,0.006078128473943727,0.00885677539475289,-0.0175780383958546,-0.0015892096042085006,-0.021198022753008444,-0.011597426368783898, ,0.02060032888050587, ,0.021257471100086068, ,0.0003978022628406529, ,0.14905646720540727,-0.25842581017017474,0.09378269263000001,-4.532028748531025,0.1449713262511323,-1.3616915357218224, ,0.041098718734721,-0.044282287241470264,0.019911014400000003,0.023207423610888362,0.00756923020240294,0.05026811488479325, ,0.9650850296020508
0.011230221103401746,0.022509774571754623,-0.08348972964593179, ,0.011898021752402775,0.02299644429032664,-0.08415396407734277, ,0.0010601945583962524, ,0.006078128473943727,0.00885677539475289,-0.0175780383958546,-0.0015892096042085006,-0.021198022753008444,-0.011597426368783898, ,0.02060032888050587, ,0.021257471100086068, ,0.00040588021766450167, ,0.14905646720540727,-0.25842581017017474,0.09378269263000001,-4.532028748531025,0.1449713262511323,-1.3616915357218224, ,0.041098718734721,-0.044282287241470264,0.019911014400000003,0.023207423610888362,0.00756923020240294,0.05026811488479325, ,0.9675838947296143
0.011230221103401746,0.022509774571754623,-0.08348972964593179, ,0.011942806268435682,0.023018747401884206,-0.08421797755030083, ,0.0011389363324850327, ,0.007746105296538162,0.010663363422433108,-0.02352574380940989,0.030938668952494554,0.010361891522502028,-0.06550289908850701, ,0.026966091458161465, ,0.03262763899061398, ,0.00041471221904788153, ,0.14958933577372877,-0.2589046196083767,0.09403806176000001,-4.530980298813603,0.14551787225019408,-1.361402098675343, ,0.05295588256611093,-0.0445734812393005,0.02632861408264463,0.08785179712390878,0.038447341818247126,0.031524090732236734, ,0.9698610305786133
0.011305160917526338,0.022617468484841242,-0.08371659559353482, ,0.01198851535774486,0.023040422180454885,-0.08428262805778472, ,0.000982983148474285, ,0.007746105296538162,0.010663363422433108,-0.02352574380940989,0.030938668952494554,0.010361891522502028,-0.06550289908850701, ,0.026966091458161465, ,0.03262763899061398, ,0.0004214773491601007, ,0.14958933577372877,-0.2589046196083767,0.09403806176000001,-4.530980298813603,0.14551787225019408,-1.361402098675343, ,0.05295588256611093,-0.0445734812393005,0.02632861408264463,0.08785179712390878,0.038447341818247126,0.031524090732236734, ,0.9724359512329102
0.011305160917526338,0.022617468484841242,-0.08371659559353482, ,0.012035141922576383,0.02306147343519387,-0.08434790941202729, ,0.0010623416593031863, ,0.007746105296538162,0.010663363422433108,-0.02352574380940989,0.030938668952494554,0.010361891522502028,-0.06550289908850701, ,0.026966091458161465, ,0.03262763899061398, ,0.0004290169292794311, ,0.14958933577372877,-0.2589046196083767,0.09403806176000001,-4.530980298813603,0.14551787225019408,-1.361402098675343, ,0.05295588256611093,-0.0445734812393005,0.02632861408264463,0.08785179712390878,0.038447341818247126,0.031524090732236734, ,0.9746809005737305
0.011305160917526338,0.022617468484841242,-0.08371659559353482, ,0.012082678889130628,0.02308190595981976,-0.08441381544825564, ,0.001142957518960786, ,0.007746105296538162,0.010663363422433108,-0.02352574380940989,0.030938668952494554,0.010361891522502028,-0.06550289908850701, ,0.026966091458161465, ,0.03262763899061398, ,0.0004373185640431677, ,0.14958933577372877,-0.2589046196083767,0.09403806176000001,-4.530980298813603,0.14551787225019408,-1.361402098675343, ,0.05295588256611093,-0.0445734812393005,0.02632861408264463,0.08785179712390878,0.038447341818247126,0.031524090732236734, ,0.9769470691680908
0.011305160917526338,0.022617468484841242,-0.08371659559353482, ,0.012131119207528976,0.02310172453263444,-0.08448034002465823, ,0.0012247516371576706, ,0.007746105296538162,0.010663363422433108,-0.02352574380940989,0.030938668952494554,0.010361891522502028,-0.06550289908850701, ,0.026966091458161465, ,0.03262763899061398, ,0.0004463695189065528, ,0.14958933577372877,-0.2589046196083767,0.09403806176000001,-4.530980298813603,0.14551787225019408,-1.361402098675343, ,0.05295588256611093,-0.0445734812393005,0.02632861408264463,0.08785179712390878,0.038447341818247126,0.031524090732236734, ,0.9792120456695557
0.011386892638160987,0.022724545967067036,-0.0839638174037026, ,0.012180455851780188,0.02312093391654433,-0.08454747702235034, ,0.001061849580185667, ,0.009534119134909907,0.011446693780993965,-0.027672323326620212,0.03320588724712461,0.020350192347549617,0.04910843924192861, ,0.03142743553787853, ,0.03894541115239524, ,0.00045336361051199727, ,0.15020715440366672,-0.2593139244507106,0.09431417153,-4.530560918926633,0.14647432774855218,-1.361283557859672, ,0.07282957909322392,-0.04064108846187185,0.03081008030947776,-0.015468181040003252,0.09948857410845605,0.018962810322240127, ,0.9815170764923096
0.011386892638160987,0.022724545967067036,-0.0839638174037026, ,0.012230681819747041,0.02313953885908056,-0.08461522034534094, ,0.0011439078091168464, ,0.009534119134909907,0.011446693780993965,-0.027672323326620212,0.03320588724712461,0.020350192347549617,0.04910843924192861, ,0.03142743553787853, ,0.03894541115239524, ,0.0004611225340918271, ,0.15020715440366672,-0.2593139244507106,0.09431417153,-4.530560918926633,0.14647432774855218,-1.361283557859672, ,0.07282957909322392,-0.04064108846187185,0.03081008030947776,-0.015468181040003252,0.09948857410845605,0.018962810322240127, ,0.9838089942932129
0.011386892638160987,0.022724545967067036,-0.0839638174037026, ,0.012281790133112877,0.023157544092419748,-0.08468356392049894, ,0.001227340193862569, ,0.009534119134909907,0.011446693780993965,-0.027672323326620212,0.03320588724712461,0.020350192347549617,0.04910843924192861, ,0.03142743553787853, ,0.03894541115239524, ,0.0004696360636448354, ,0.15020715440366672,-0.2593139244507106,0.09431417153,-4.530560918926633,0.14647432774855218,-1.361283557859672, ,0.07282957909322392,-0.04064108846187185,0.03081008030947776,-0.015468181040003252,0.09948857410845605,0.018962810322240127, ,0.9861280918121338
0.011386892638160987,0.022724545967067036,-0.0839638174037026, ,0.012333773837348135,0.02317495433340456,-0.0847525016975194, ,0.0013120497769346384, ,0.009534119134909907,0.011446693780993965,-0.027672323326620212,0.03320588724712461,0.020350192347549617,0.04910843924192861, ,0.03142743553787853, ,0.03894541115239524, ,0.00047889335719747053, ,0.15020715440366672,-0.2593139244507106,0.09431417153,-4.530560918926633,0.14647432774855218,-1.361283557859672, ,0.07282957909322392,-0.04064108846187185,0.03081008030947776,-0.015468181040003252,0.09948857410845605,0.018962810322240127, ,0.9884068965911865
0.011495681025959803,0.02284538419243541,-0.0842699391939613, ,0.01238662600167695,0.023191774283564243,-0.08482202764888971, ,0.0011038889015897928, ,0.011727714102279177,0.012125696655721758,-0.0315631610057541,-0.005390681159579434,0.01516131621949265,0.03634198165134145, ,0.03578833511252704, ,0.016090171753319192, ,0.00048568678702782186, ,0.15103348682120873,-0.2597000610944218,0.09465379951000001,-4.530770608870118,0.14743078324691022,-1.3606749446031574, ,0.09133488119198342,-0.035369713588695784,0.03500837696703297,0.0,0.10414794824854268,0.05554853456183963, ,0.9906609058380127
0.011495681025959803,0.02284538419243541,-0.0842699391939613, ,0.01244033971904354,0.023208008629135326,-0.08489213576985656, ,0.0011878573599411674, ,0.011727714102279177,0.012125696655721758,-0.0315631610057541,-0.005390681159579434,0.01516131621949265,0.03634198165134145, ,0.03578833511252704, ,0.016090171753319192, ,0.0004932370082419439, ,0.15103348682120873,-0.2597000610944218,0.09465379951000001,-4.530770608870118,0.14743078324691022,-1.3606749446031574, ,0.09133488119198342,-0.035369713588695784,0.03500837696703297,0.0,0.10414794824854268,0.05554853456183963, ,0.9929111003875732
0.011495681025959803,0.02284538419243541,-0.0842699391939613, ,0.012494908106078978,0.023223662041082043,-0.08496282007839126, ,0.0012734334723214517, ,0.011727714102279177,0.012125696655721758,-0.0315631610057541,-0.005390681159579434,0.01516131621949265,0.03634198165134145, ,0.03578833511252704, ,0.016090171753319192, ,0.0005015369706257684, ,0.15103348682120873,-0.2597000610944218,0.09465379951000001,-4.530770608870118,0.14743078324691022,-1.3606749446031574, ,0.09133488119198342,-0.035369713588695784,0.03500837696703297,0.0,0.10414794824854268,0.05554853456183963, ,0.9952430725097656
0.011495681025959803,0.02284538419243541,-0.0842699391939613, ,0.012550324303067515,0.023238739175117148,-0.08503407461515687, ,0.0013604791531937517, ,0.011727714102279177,0.012125696655721758,-0.0315631610057541,-0.005390681159579434,0.01516131621949265,0.03634198165134145, ,0.03578833511252704, ,0.016090171753319192, ,0.0005105784672843788, ,0.15103348682120873,-0.2597000610944218,0.09465379951000001,-4.530770608870118,0.14743078324691022,-1.3606749446031574, ,0.09133488119198342,-0.035369713588695784,0.03500837696703297,0.0,0.10414794824854268,0.05554853456183963, ,0.9999608993530273
0.011635063067189796,0.02298111106145879,-0.08462801688839196, ,0.012606581473913345,0.023253244671722326,-0.08510589344347426, ,0.001116364957500483, ,0.013601980416285414,0.012304983933371061,-0.03304708560918856,0.042536200611026295,0.0673952245340327,-0.08255164729184111, ,0.037795983491722626, ,0.07969570400607684, ,0.0005168887432241299, ,0.15216872855371974,-0.26005530680663613,0.09505176054000002,-4.529722159152695,0.14893378474433008,-1.3602669667410068, ,0.11392189862961677,-0.029109491275604533,0.036787093579676675,0.135804908917805,0.15011852785380417,0.027607761795631777, ,1.0023598670959473
0.011635063067189796,0.02298111106145879,-0.08462801688839196, ,0.012663672806106892,0.023267183156168707,-0.0851782706492885, ,0.001201105507333807, ,0.013601980416285414,0.012304983933371061,-0.03304708560918856,0.042536200611026295,0.0673952245340327,-0.08255164729184111, ,0.037795983491722626, ,0.07969570400607684, ,0.0005239425242974256, ,0.15216872855371974,-0.26005530680663613,0.09505176054000002,-4.529722159152695,0.14893378474433008,-1.3602669667410068, ,0.11392189862961677,-0.029109491275604533,0.036787093579676675,0.135804908917805,0.15011852785380417,0.027607761795631777, ,1.0046720504760742
0.011635063067189796,0.02298111106145879,-0.08462801688839196, ,0.012721591510691613,0.02328055923853787,-0.08525120034113473, ,0.0012878551491013527, ,0.013601980416285414,0.012304983933371061,-0.03304708560918856,0.042536200611026295,0.0673952245340327,-0.08255164729184111, ,0.037795983491722626, ,0.07969570400607684, ,0.0005317375510811391, ,0.15216872855371974,-0.26005530680663613,0.09505176054000002,-4.529722159152695,0.14893378474433008,-1.3602669667410068, ,0.11392189862961677,-0.029109491275604533,0.036787093579676675,0.135804908917805,0.15011852785380417,0.027607761795631777, ,1.0070500373840332
0.011635063067189796,0.02298111106145879,-0.08462801688839196, ,0.01278033082223038,0.02329337751374195,-0.0853246766501051, ,0.001376402336363687, ,0.013601980416285414,0.012304983933371061,-0.03304708560918856,0.042536200611026295,0.0673952245340327,-0.08255164729184111, ,0.037795983491722626, ,0.07969570400607684, ,0.0005402695186092456, ,0.15216872855371974,-0.26005530680663613,0.09505176054000002,-4.529722159152695,0.14893378474433008,-1.3602669667410068, ,0.11392189862961677,-0.029109491275604533,0.036787093579676675,0.135804908917805,0.15011852785380417,0.027607761795631777, ,1.009450912475586
0.011777181375975092,0.02309778796609884,-0.08494757703230796, ,0.012839883998772091,0.02330564256154446,-0.08539869372981493, ,0.0011730501575453103, ,0.01499865756989642,0.011345530120675204,-0.03125653741423796,0.014663699898282298,0.025147308344348182,-0.027492018846083748, ,0.036478101838580045, ,0.029109815838722766, ,0.0005465973249986063, ,0.15338119761497299,-0.26031787972435977,0.09540824029000002,-4.529093089322242,0.1503001497419845,-1.359910928455441, ,0.13125441432706886,-0.024103871363594303,0.03500837696703297,0.07469464449466336,0.13863976967719432,0.04020177805860435, ,1.0120608806610107
0.011777181375975092,0.02309778796609884,-0.08494757703230796, ,0.01290024432181811,0.023317358946580886,-0.0854732457563686, ,0.0012592892452693235, ,0.01499865756989642,0.011345530120675204,-0.03125653741423796,0.014663699898282298,0.025147308344348182,-0.027492018846083748, ,0.036478101838580045, ,0.029109815838722766, ,0.000553653680644851, ,0.15338119761497299,-0.26031787972435977,0.09540824029000002,-4.529093089322242,0.1503001497419845,-1.359910928455441, ,0.13125441432706886,-0.024103871363594303,0.03500837696703297,0.07469464449466336,0.13863976967719432,0.04020177805860435, ,1.016577959060669
0.011777181375975092,0.02309778796609884,-0.08494757703230796, ,0.012961405096288934,0.023328531218379307,-0.08554832692832649, ,0.0013477865950487868, ,0.01499865756989642,0.011345530120675204,-0.03125653741423796,0.014663699898282298,0.025147308344348182,-0.027492018846083748, ,0.036478101838580045, ,0.029109815838722766, ,0.0005614392974527326, ,0.15338119761497299,-0.26031787972435977,0.09540824029000002,-4.529093089322242,0.1503001497419845,-1.359910928455441, ,0.13125441432706886,-0.024103871363594303,0.03500837696703297,0.07469464449466336,0.13863976967719432,0.04020177805860435, ,1.0189340114593506
0.01194276557696127,0.023207013986865872,-0.08526150361070789, ,0.013023359650490703,0.023339163911380755,-0.08562393146667073, ,0.0011473888203543056, ,0.016731514154919587,0.009859694404316725,-0.028378069161719543,0.016032976059563976,-0.012483393904911584,0.004786499786040125, ,0.03438708985956978, ,0.02031927756165133, ,0.0005671281277721654, ,0.15487940779257253,-0.2605109480462154,0.09576083117,-4.529093089322242,0.15180315123940433,-1.3595846293334306, ,0.15506036202364507,-0.015916964367405365,0.03211453935483872,0.03830281628910112,0.1361503367512736,0.024851097517732693, ,1.0213708877563477
0.01194276557696127,0.023207013986865872,-0.08526150361070789, ,0.013086101336081696,0.023349261544960184,-0.08570005361477188, ,0.001232792412343541, ,0.016731514154919587,0.009859694404316725,-0.028378069161719543,0.016032976059563976,-0.012483393904911584,0.004786499786040125, ,0.03438708985956978, ,0.02031927756165133, ,0.000573528745893044, ,0.15487940779257253,-0.2605109480462154,0.09576083117,-4.529093089322242,0.15180315123940433,-1.3595846293334306, ,0.15506036202364507,-0.015916964367405365,0.03211453935483872,0.03830281628910112,0.1361503367512736,0.024851097517732693, ,1.0238139629364014
0.01194276557696127,0.023207013986865872,-0.08526150361070789, ,0.013149623528038893,0.023358828623446664,-0.08577668763835525, ,0.0013209725130760258, ,0.016731514154919587,0.009859694404316725,-0.028378069161719543,0.016032976059563976,-0.012483393904911584,0.004786499786040125, ,0.03438708985956978, ,0.02031927756165133, ,0.0005806472579614533, ,0.15487940779257253,-0.2605109480462154,0.09576083117,-4.529093089322242,0.15180315123940433,-1.3595846293334306, ,0.15506036202364507,-0.015916964367405365,0.03211453935483872,0.03830281628910112,0.1361503367512736,0.024851097517732693, ,1.0260748863220215
0.01194276557696127,0.023207013986865872,-0.08526150361070789, ,0.01321391962462454,0.02336786963614426,-0.08585382782546681, ,0.0014115789486193343, ,0.016731514154919587,0.009859694404316725,-0.028378069161719543,0.016032976059563976,-0.012483393904911584,0.004786499786040125, ,0.03438708985956978, ,0.02031927756165133, ,0.0005884862361752069, ,0.15487940779257253,-0.2605109480462154,0.09576083117,-4.529093089322242,0.15180315123940433,-1.3595846293334306, ,0.15506036202364507,-0.015916964367405365,0.03211453935483872,0.03830281628910112,0.1361503367512736,0.024851097517732693, ,1.0283679962158203
0.01194276557696127,0.023207013986865872,-0.08526150361070789, ,0.013278983047352654,0.023376389057352513,-0.08593146848644015, ,0.0015043330673080503, ,0.016731514154919587,0.009859694404316725,-0.028378069161719543,0.016032976059563976,-0.012483393904911584,0.004786499786040125, ,0.03438708985956978, ,0.02031927756165133, ,0.0005970455523540186, ,0.15487940779257253,-0.2605109480462154,0.09576083117,-4.529093089322242,0.15180315123940433,-1.3595846293334306, ,0.15506036202364507,-0.015916964367405365,0.03211453935483872,0.03830281628910112,0.1361503367512736,0.024851097517732693, ,1.0313539505004883
0.012116613993609594,0.023297440684647674,-0.0855319107911545, ,0.013344807240955565,0.02338439134638706,-0.08600960395386205, ,0.0013206853630220534, ,0.018105358104938962,0.008212375037656115,-0.02540702302314066,0.05060986514009821,-0.03861439614912689,0.04138288816481004, ,0.03226087281468987, ,0.06365861648322499, ,0.0006037459209713152, ,0.15652434989478237,-0.26061906630645454,0.0960680519,-4.528883399378757,0.15316951623705874,-1.3596369847485679, ,0.17638836720905351,-0.006252395941763821,0.029067174306569344,0.0,0.14840227710956216,-0.023782901871710872, ,1.0339078903198242
0.012116613993609594,0.023297440684647674,-0.0855319107911545, ,0.013411385673350526,0.02339188094760012,-0.08608822858253959, ,0.0014123888101147143, ,0.018105358104938962,0.008212375037656115,-0.02540702302314066,0.05060986514009821,-0.03861439614912689,0.04138288816481004, ,0.03226087281468987, ,0.06365861648322499, ,0.0006111646630735482, ,0.15652434989478237,-0.26061906630645454,0.0960680519,-4.528883399378757,0.15316951623705874,-1.3596369847485679, ,0.17638836720905351,-0.006252395941763821,0.029067174306569344,0.0,0.14840227710956216,-0.023782901871710872, ,1.0362050533294678
0.012116613993609594,0.023297440684647674,-0.0855319107911545, ,0.013478711835606063,0.02339886229040121,-0.08616733674946539, ,0.0015064405138538884, ,0.018105358104938962,0.008212375037656115,-0.02540702302314066,0.05060986514009821,-0.03861439614912689,0.04138288816481004, ,0.03226087281468987, ,0.06365861648322499, ,0.0006193035344442785, ,0.15652434989478237,-0.26061906630645454,0.0960680519,-4.528883399378757,0.15316951623705874,-1.3596369847485679, ,0.17638836720905351,-0.006252395941763821,0.029067174306569344,0.0,0.14840227710956216,-0.023782901871710872, ,1.0384368896484375
0.012116613993609594,0.023297440684647674,-0.0855319107911545, ,0.013546779241908771,0.02340533978927767,-0.08624692285378556, ,0.0016025782676457696, ,0.018105358104938962,0.008212375037656115,-0.02540702302314066,0.05060986514009821,-0.03861439614912689,0.04138288816481004, ,0.03226087281468987, ,0.06365861648322499, ,0.0006281618653740218, ,0.15652434989478237,-0.26061906630645454,0.0960680519,-4.528883399378757,0.15316951623705874,-1.3596369847485679, ,0.17638836720905351,-0.006252395941763821,0.029067174306569344,0.0,0.14840227710956216,-0.023782901871710872, ,1.0406970977783203
0.012294568055768292,0.023369433429403903,-0.08576177041560809, ,0.013615581429529724,0.023411317843815328,-0.0863269813167641, ,0.0014374609562046324, ,0.01982486784923272,0.00758671003311588,-0.02430143700412973,0.04872609848468366,-0.06373744728771334,0.017448133501435675, ,0.03226675370767577, ,0.08022896225741348, ,0.0006353877501135808, ,0.15827741025723133,-0.260634511772203,0.09633249506000001,-4.528254329548303,0.15453588123471315,-1.3598526976439858, ,0.1956637970277748,-0.001744965212148426,0.028093142010582012,0.020953061809061486,0.1367291741592829,-0.024797382627400527, ,1.042983055114746
0.012294568055768292,0.023369433429403903,-0.08576177041560809, ,0.013685111958790921,0.023416800838718988,-0.08640750658175048, ,0.0015338941338837236, ,0.01982486784923272,0.00758671003311588,-0.02430143700412973,0.04872609848468366,-0.06373744728771334,0.017448133501435675, ,0.03226675370767577, ,0.08022896225741348, ,0.0006433391340407501, ,0.15827741025723133,-0.260634511772203,0.09633249506000001,-4.528254329548303,0.15453588123471315,-1.3598526976439858, ,0.1956637970277748,-0.001744965212148426,0.028093142010582012,0.020953061809061486,0.1367291741592829,-0.024797382627400527, ,1.0452539920806885
0.012294568055768292,0.023369433429403903,-0.08576177041560809, ,0.013755364413032021,0.023421793143833126,-0.08648849311414586, ,0.0016324194980641793, ,0.01982486784923272,0.00758671003311588,-0.02430143700412973,0.04872609848468366,-0.06373744728771334,0.017448133501435675, ,0.03226675370767577, ,0.08022896225741348, ,0.0006520152775848153, ,0.15827741025723133,-0.260634511772203,0.09633249506000001,-4.528254329548303,0.15453588123471315,-1.3598526976439858, ,0.1956637970277748,-0.001744965212148426,0.028093142010582012,0.020953061809061486,0.1367291741592829,-0.024797382627400527, ,1.047623872756958
0.012294568055768292,0.023369433429403903,-0.08576177041560809, ,0.013826332398576714,0.023426299114162295,-0.08656993540136851, ,0.001732820346201964, ,0.01982486784923272,0.00758671003311588,-0.02430143700412973,0.04872609848468366,-0.06373744728771334,0.017448133501435675, ,0.03226675370767577, ,0.08022896225741348, ,0.0006614135825293122, ,0.16023126167441012,-0.26056500717633496,0.09659304935000002,-4.5272058798308805,0.15590224623236756,-1.360231768019685, ,0.22757060325772369,0.011336392492948367,0.02875236736462094,0.1262572531307336,0.16208359551441412,-0.06189770998970069, ,1.0513899326324463
0.012490435330456328,0.023433624119972553,-0.08598682962062655, ,0.013898009544699289,0.023430323089891975,-0.0866518279528218, ,0.0015567590845162059, ,0.022608118819122936,0.006792242617612656,-0.024737679872517283,0.09246234132401565,-0.04951108931049179,-0.07940329962463505, ,0.034193777237843156, ,0.10488385606903305, ,0.0006691320782360959, ,0.16023126167441012,-0.26056500717633496,0.09659304935000002,-4.5272058798308805,0.15590224623236756,-1.360231768019685, ,0.22757060325772369,0.011336392492948367,0.02875236736462094,0.1262572531307336,0.16208359551441412,-0.06189770998970069, ,1.053955078125
0.012490435330456328,0.023433624119972553,-0.08598682962062655, ,0.01397038950359133,0.02343386939640895,-0.08673416529985835, ,0.0016579430123478578, ,0.022608118819122936,0.006792242617612656,-0.024737679872517283,0.09246234132401565,-0.04951108931049179,-0.07940329962463505, ,0.034193777237843156, ,0.10488385606903305, ,0.0006775834537413245, ,0.16023126167441012,-0.26056500717633496,0.09659304935000002,-4.5272058798308805,0.15590224623236756,-1.360231768019685, ,0.22757060325772369,0.011336392492948367,0.02875236736462094,0.1262572531307336,0.16208359551441412,-0.06189770998970069, ,1.0562958717346191
0.012490435330456328,0.023433624119972553,-0.08598682962062655, ,0.014043465950328026,0.023436942344321962,-0.086816941995748, ,0.0017609661189817614, ,0.022608118819122936,0.006792242617612656,-0.024737679872517283,0.09246234132401565,-0.04951108931049179,-0.07940329962463505, ,0.034193777237843156, ,0.10488385606903305, ,0.0006867646627687859, ,0.16023126167441012,-0.26056500717633496,0.09659304935000002,-4.5272058798308805,0.15590224623236756,-1.360231768019685, ,0.22757060325772369,0.011336392492948367,0.02875236736462094,0.1262572531307336,0.16208359551441412,-0.06189770998970069, ,1.0588719844818115
0.012490435330456328,0.023433624119972553,-0.08598682962062655, ,0.014117232582834847,0.02343954622948242,-0.08690015261564357, ,0.0018656535758157797, ,0.022608118819122936,0.006792242617612656,-0.024737679872517283,0.09246234132401565,-0.04951108931049179,-0.07940329962463505, ,0.034193777237843156, ,0.10488385606903305, ,0.0006966712922901892, ,0.16023126167441012,-0.26056500717633496,0.09659304935000002,-4.5272058798308805,0.15590224623236756,-1.360231768019685, ,0.22757060325772369,0.011336392492948367,0.02875236736462094,0.1262572531307336,0.16208359551441412,-0.06189770998970069, ,1.0613369941711426
0.012765093731344306,0.023509488823481542,-0.08629236912415648, ,0.014191683121854072,0.02344168533300477,-0.08698379175654715, ,0.001586763958192237, ,0.025282227724080696,0.006152830930279634,-0.02728986258469992,0.08912106428887119,-0.07993926530954099,0.004741040703905066, ,0.03770656397818137, ,0.11971981917110787, ,0.0007040887311727062, ,0.16297283184475983,-0.2603564933887309,0.09694564023,-4.526576810000427,0.1578151572290837,-1.360974831270029, ,0.25373513785687374,0.02561320959742801,0.031479864664031625,0.041176261002739974,0.18369330700012104,-0.08282334361294179, ,1.065582036972046
0.012765093731344306,0.023509488823481542,-0.08629236912415648, ,0.014266811310911235,0.0234433639212872,-0.08706785403727639, ,0.001691421012624342, ,0.025282227724080696,0.006152830930279634,-0.02728986258469992,0.08912106428887119,-0.07993926530954099,0.004741040703905066, ,0.03770656397818137, ,0.11971981917110787, ,0.0007122485020937941, ,0.16297283184475983,-0.2603564933887309,0.09694564023,-4.526576810000427,0.1578151572290837,-1.360974831270029, ,0.25373513785687374,0.02561320959742801,0.031479864664031625,0.041176261002739974,0.18369330700012104,-0.08282334361294179, ,1.06809401512146
0.012765093731344306,0.023509488823481542,-0.08629236912415648, ,0.014342610916281808,0.023444586246032368,-0.08715233409843091, ,0.0017978633347147123, ,0.025282227724080696,0.006152830930279634,-0.02728986258469992,0.08912106428887119,-0.07993926530954099,0.004741040703905066, ,0.03770656397818137, ,0.11971981917110787, ,0.0007211469843283918, ,0.16297283184475983,-0.2603564933887309,0.09694564023,-4.526576810000427,0.1578151572290837,-1.360974831270029, ,0.25373513785687374,0.02561320959742801,0.031479864664031625,0.041176261002739974,0.18369330700012104,-0.08282334361294179, ,1.0704410076141357
0.013036773431823802,0.02357328404411642,-0.08659675142481119, ,0.014419075726957602,0.023445356544267538,-0.08723722660235851, ,0.001528834043774547, ,0.02732060180059283,0.0062656801456853215,-0.03124558768208215,0.050383645191823985,-0.09751997393185723,0.029134539330509385, ,0.04197571655175496, ,0.1097662390591796, ,0.0007277135457873036, ,0.1656757883507384,-0.26002441587513925,0.09729434224000001,-4.526157430113458,0.15986470472556533,-1.36182931242407, ,0.26731532833372046,0.03589143024147911,0.03563492510067114,0.014649432588999579,0.18314733734215374,-0.05821513368430764, ,1.0727300643920898
0.013036773431823802,0.02357328404411642,-0.08659675142481119, ,0.014496199554613452,0.023445679038365957,-0.08732252623312155, ,0.0016349179544403283, ,0.02732060180059283,0.0062656801456853215,-0.03124558768208215,0.050383645191823985,-0.09751997393185723,0.029134539330509385, ,0.04197571655175496, ,0.1097662390591796, ,0.0007350297103732152, ,0.1656757883507384,-0.26002441587513925,0.09729434224000001,-4.526157430113458,0.15986470472556533,-1.36182931242407, ,0.26731532833372046,0.03589143024147911,0.03563492510067114,0.014649432588999579,0.18314733734215374,-0.05821513368430764, ,1.075026035308838
0.013036773431823802,0.02357328404411642,-0.08659675142481119, ,0.014573976233573508,0.023445557936066487,-0.087408227696463, ,0.0017429286135234178, ,0.02732060180059283,0.0062656801456853215,-0.03124558768208215,0.050383645191823985,-0.09751997393185723,0.029134539330509385, ,0.04197571655175496, ,0.1097662390591796, ,0.0007430929015984168, ,0.1656757883507384,-0.26002441587513925,0.09729434224000001,-4.526157430113458,0.15986470472556533,-1.36182931242407, ,0.26731532833372046,0.03589143024147911,0.03563492510067114,0.014649432588999579,0.18314733734215374,-0.05821513368430764, ,1.077359914779663
0.013036773431823802,0.02357328404411642,-0.08659675142481119, ,0.01465239962077807,0.023444997430495003,-0.0874943257197737, ,0.0018526589142761247, ,0.02732060180059283,0.0062656801456853215,-0.03124558768208215,0.050383645191823985,-0.09751997393185723,0.029134539330509385, ,0.04197571655175496, ,0.1097662390591796, ,0.0007518989810641128, ,0.1656757883507384,-0.26002441587513925,0.09729434224000001,-4.526157430113458,0.15986470472556533,-1.36182931242407, ,0.26731532833372046,0.03589143024147911,0.03563492510067114,0.014649432588999579,0.18314733734215374,-0.05821513368430764, ,1.0797209739685059
0.013036773431823802,0.02357328404411642,-0.08659675142481119, ,0.014731463595749915,0.023444001700184486,-0.08758081505205695, ,0.001963942437707515, ,0.02732060180059283,0.0062656801456853215,-0.03124558768208215,0.050383645191823985,-0.09751997393185723,0.029134539330509385, ,0.04197571655175496, ,0.1097662390591796, ,0.0007614426303290216, ,0.1656757883507384,-0.26002441587513925,0.09729434224000001,-4.526157430113458,0.15986470472556533,-1.36182931242407, ,0.26731532833372046,0.03589143024147911,0.03563492510067114,0.014649432588999579,0.18314733734215374,-0.05821513368430764, ,1.0823259353637695
0.013298874354845032,0.0236285433829259,-0.08689498391545757, ,0.014811162060560996,0.02344257490909583,-0.08766769046389682, ,0.001708412651591892, ,0.029285675242953956,0.005725876764318049,-0.033624376793469225,0.08584046990072705,-0.04409726834402579,-0.014811595642481816, ,0.04495592456957275, ,0.09650446812301945, ,0.0007688408336201378, ,0.16824745839785518,-0.2596228337656796,0.09763397022,-4.525528360283005,0.1617776157222815,-1.362409018194133, ,0.28931994377582554,0.05115738089405433,0.038198588776978425,0.0765428126970019,0.250333876415347,-0.08950600600266786, ,1.0849900245666504
0.013298874354845032,0.0236285433829259,-0.08689498391545757, ,0.014891488939798745,0.023440721206638374,-0.0877549467474227, ,0.0018196797681114534, ,0.029285675242953956,0.005725876764318049,-0.033624376793469225,0.08584046990072705,-0.04409726834402579,-0.014811595642481816, ,0.04495592456957275, ,0.09650446812301945, ,0.0007769868718720084, ,0.16824745839785518,-0.2596228337656796,0.09763397022,-4.525528360283005,0.1617776157222815,-1.362409018194133, ,0.28931994377582554,0.05115738089405433,0.038198588776978425,0.0765428126970019,0.250333876415347,-0.08950600600266786, ,1.087251901626587
0.013298874354845032,0.0236285433829259,-0.08689498391545757, ,0.014972438180532836,0.02343844472769056,-0.0878425787162768, ,0.0019325861646800485, ,0.029285675242953956,0.005725876764318049,-0.033624376793469225,0.08584046990072705,-0.04409726834402579,-0.014811595642481816, ,0.04495592456957275, ,0.09650446812301945, ,0.0007858760972013011, ,0.16824745839785518,-0.2596228337656796,0.09763397022,-4.525528360283005,0.1617776157222815,-1.362409018194133, ,0.28931994377582554,0.05115738089405433,0.038198588776978425,0.0765428126970019,0.250333876415347,-0.08950600600266786, ,1.0895659923553467
0.013619054501595278,0.023687339483520805,-0.08726491741455232, ,0.015054003752281619,0.0234357495926203,-0.08793058120557974, ,0.0016017131790472406, ,0.031195341547513317,0.005501270138948272,-0.036331627531291925,0.09084296147410459,-0.01265977737146248,-8.326636174987689e-05, ,0.04820166456130145, ,0.0917205010315822, ,0.0007921038611848579, ,0.1714446698077841,-0.2590050151357416,0.09805396818,-4.524479910565582,0.16505689171665208,-1.3636945093004575, ,0.3081069531119181,0.06255566351909743,0.041159719689922485,0.07461261987837084,0.3050489297088903,-0.09810456846268825, ,1.0920569896697998
0.013619054501595278,0.023687339483520805,-0.08726491741455232, ,0.015136179646978772,0.023432639907305926,-0.08801894907189736, ,0.001713214616198869, ,0.031195341547513317,0.005501270138948272,-0.036331627531291925,0.09084296147410459,-0.01265977737146248,-8.326636174987689e-05, ,0.04820166456130145, ,0.0917205010315822, ,0.000799081972965267, ,0.1714446698077841,-0.2590050151357416,0.09805396818,-4.524479910565582,0.16505689171665208,-1.3636945093004575, ,0.3081069531119181,0.06255566351909743,0.041159719689922485,0.07461261987837084,0.3050489297088903,-0.09810456846268825, ,1.0943129062652588
0.013619054501595278,0.023687339483520805,-0.08726491741455232, ,0.015218959878939625,0.023429119763156387,-0.08810767719320682, ,0.001826641367362028, ,0.031195341547513317,0.005501270138948272,-0.036331627531291925,0.09084296147410459,-0.01265977737146248,-8.326636174987689e-05, ,0.04820166456130145, ,0.0917205010315822, ,0.0008068079834494533, ,0.1714446698077841,-0.2590050151357416,0.09805396818,-4.524479910565582,0.16505689171665208,-1.3636945093004575, ,0.3081069531119181,0.06255566351909743,0.041159719689922485,0.07461261987837084,0.3050489297088903,-0.09810456846268825, ,1.0966050624847412
0.013619054501595278,0.023687339483520805,-0.08726491741455232, ,0.015302338484827822,0.023425193237132207,-0.0881967604688629, ,0.0019417767895846664, ,0.031195341547513317,0.005501270138948272,-0.036331627531291925,0.09084296147410459,-0.01265977737146248,-8.326636174987689e-05, ,0.04820166456130145, ,0.0917205010315822, ,0.0008152778999131489, ,0.1714446698077841,-0.2590050151357416,0.09805396818,-4.524479910565582,0.16505689171665208,-1.3636945093004575, ,0.3081069531119181,0.06255566351909743,0.041159719689922485,0.07461261987837084,0.3050489297088903,-0.09810456846268825, ,1.0990469455718994
0.013946843599379477,0.02373669295264015,-0.08763685812143417, ,0.01538630952362191,0.02342086439176577,-0.08828619381956412, ,0.0016104181679877515, ,0.03332263047216716,0.004393667469931263,-0.03662114264855046,0.039362087381592865,-0.01983763610785489,0.048941455782708476, ,0.049707243982204614, ,0.04407765719343651, ,0.0008211678278248126, ,0.17468049488208418,-0.25829452371131295,0.09847526243000002,-4.524060530678613,0.1681995312112572,-1.364378510062242, ,0.33065136431522923,0.07525530654914415,0.04158958621409923,0.028861063929139806,0.32850504971976763,-0.06301002142499532, ,1.1022260189056396
0.013946843599379477,0.02373669295264015,-0.08763685812143417, ,0.015470867076581837,0.023416137275182044,-0.08837597218731989, ,0.0017238599432102162, ,0.03332263047216716,0.004393667469931263,-0.03662114264855046,0.039362087381592865,-0.01983763610785489,0.048941455782708476, ,0.049707243982204614, ,0.04407765719343651, ,0.0008278052698497052, ,0.17468049488208418,-0.25829452371131295,0.09847526243000002,-4.524060530678613,0.1681995312112572,-1.364378510062242, ,0.33065136431522923,0.07525530654914415,0.04158958621409923,0.028861063929139806,0.32850504971976763,-0.06301002142499532, ,1.104628086090088
0.013946843599379477,0.02373669295264015,-0.08763685812143417, ,0.015556005247215397,0.02341101592111917,-0.08846609053541507, ,0.0018393186602986792, ,0.03332263047216716,0.004393667469931263,-0.03662114264855046,0.039362087381592865,-0.01983763610785489,0.048941455782708476, ,0.049707243982204614, ,0.04407765719343651, ,0.0008351885792690409, ,0.17468049488208418,-0.25829452371131295,0.09847526243000002,-4.524060530678613,0.1681995312112572,-1.364378510062242, ,0.33065136431522923,0.07525530654914415,0.04158958621409923,0.028861063929139806,0.32850504971976763,-0.06301002142499532, ,1.1071929931640625
0.013946843599379477,0.02373669295264015,-0.08763685812143417, ,0.015641718161244916,0.023405504348949047,-0.08855654384837863, ,0.0019565550102204634, ,0.03332263047216716,0.004393667469931263,-0.03662114264855046,0.039362087381592865,-0.01983763610785489,0.048941455782708476, ,0.049707243982204614, ,0.04407765719343651, ,0.0008433144229715874, ,0.17468049488208418,-0.25829452371131295,0.09847526243000002,-4.524060530678613,0.1681995312112572,-1.364378510062242, ,0.33065136431522923,0.07525530654914415,0.04158958621409923,0.028861063929139806,0.32850504971976763,-0.06301002142499532, ,1.1096739768981934
0.014272460848777228,0.023772978442470675,-0.08798280982777805, ,0.015727999966573678,0.023399606563697967,-0.08864732713194765, ,0.0016430410618224842, ,0.034069716196648225,0.0033474706846251135,-0.03552580765866781,0.026815437785148905,0.010549073146075214,0.0317804733455607, ,0.049335931444589545, ,0.02881482362331111, ,0.0008490678520280688, ,0.17793948815500693,-0.2575145276910163,0.09886933459000001,-4.523431460848159,0.1716154437053932,-1.3649586316708575, ,0.3413559048865855,0.08420314246536893,0.040531327022900764,0.05548042265017591,0.3627110194680778,-0.04969206501349477, ,1.1132659912109375
0.014272460848777228,0.023772978442470675,-0.08798280982777805, ,0.015814844833252562,0.023393326556067087,-0.0887384354130356, ,0.001758992306836963, ,0.034069716196648225,0.0033474706846251135,-0.03552580765866781,0.026815437785148905,0.010549073146075214,0.0317804733455607, ,0.049335931444589545, ,0.02881482362331111, ,0.0008555673124195608, ,0.17793948815500693,-0.2575145276910163,0.09886933459000001,-4.523431460848159,0.1716154437053932,-1.3649586316708575, ,0.3413559048865855,0.08420314246536893,0.040531327022900764,0.05548042265017591,0.3627110194680778,-0.04969206501349477, ,1.1169190406799316
0.014272460848777228,0.023772978442470675,-0.08798280982777805, ,0.01590224695344644,0.023386668302453076,-0.08882986373969716, ,0.0018769492803351756, ,0.034069716196648225,0.0033474706846251135,-0.03552580765866781,0.026815437785148905,0.010549073146075214,0.0317804733455607, ,0.049335931444589545, ,0.02881482362331111, ,0.0008628111561636431, ,0.17793948815500693,-0.2575145276910163,0.09886933459000001,-4.523431460848159,0.1716154437053932,-1.3649586316708575, ,0.3413559048865855,0.08420314246536893,0.040531327022900764,0.05548042265017591,0.3627110194680778,-0.04969206501349477, ,1.119307041168213
0.014650717832041651,0.023801789992100572,-0.08836880742711119, ,0.015990200541400833,0.02337963576496864,-0.08892160718109533, ,0.0015093096727187916, ,0.034069716196648225,0.0033474706846251135,-0.03552580765866781,0.026815437785148905,0.010549073146075214,-0.0086278402972048, ,0.049335931444589545, ,0.02881482362331111, ,0.0008673639626182569, ,0.18174679546199962,-0.2565105724173671,0.09931007319000001,-4.522592701074221,0.17585117519812185,-1.3657988670009487, ,0.34888581455320145,0.09895405793375472,0.04022427151515152,0.10001236956636005,0.3825448414485606,-0.06268674140852584, ,1.122528076171875
0.014650717832041651,0.023801789992100572,-0.08836880742711119, ,0.016078699833408455,0.02337223289146331,-0.08901366082746773, ,0.0016246500567466296, ,0.034864807176063134,0.0019650492293730123,-0.0352955641087701,0.035980239612550556,0.031391013025258006,-0.0086278402972048, ,0.04965071040432576, ,0.04774849279324512, ,0.0008726596695702036, ,0.18174679546199962,-0.2565105724173671,0.09931007319000001,-4.522592701074221,0.17585117519812185,-1.3657988670009487, ,0.34888581455320145,0.09895405793375472,0.04022427151515152,0.10001236956636005,0.3825448414485606,-0.06268674140852584, ,1.1248199939727783
0.014650717832041651,0.023801789992100572,-0.08836880742711119, ,0.016167739087775673,0.02336446361554384,-0.08910601979009229, ,0.0017424379237474287, ,0.034864807176063134,0.0019650492293730123,-0.0352955641087701,0.035980239612550556,0.031391013025258006,-0.0086278402972048, ,0.04965071040432576, ,0.04774849279324512, ,0.0008786997963353232, ,0.18174679546199962,-0.2565105724173671,0.09931007319000001,-4.522592701074221,0.17585117519812185,-1.3657988670009487, ,0.34888581455320145,0.09895405793375472,0.04022427151515152,0.10001236956636005,0.3825448414485606,-0.06268674140852584, ,1.1272690296173096
0.014650717832041651,0.023801789992100572,-0.08836880742711119, ,0.016257312584789116,0.02335633185659486,-0.08919867920125436, ,0.001862328330763256, ,0.034864807176063134,0.0019650492293730123,-0.0352955641087701,0.035980239612550556,0.031391013025258006,-0.0086278402972048, ,0.04965071040432576, ,0.04774849279324512, ,0.0008854834414003434, ,0.18174679546199962,-0.2565105724173671,0.09931007319000001,-4.522592701074221,0.17585117519812185,-1.3657988670009487, ,0.34888581455320145,0.09895405793375472,0.04022427151515152,0.10001236956636005,0.3825448414485606,-0.06268674140852584, ,1.1296160221099854
0.014989037812107111,0.023812774002758753,-0.08869557238893758, ,0.016347414626682107,0.023347841519799347,-0.08929163421421243, ,0.0015545544325097482, ,0.03558726203657413,0.00011330489409786242,-0.03245355400799242,-0.024356304983068768,-0.0181513880164518,0.04556646156024135, ,0.04816325596352989, ,0.030375425571029627, ,0.0008900661194216407, ,0.18512162972803572,-0.25552206260946636,0.09968340471,-4.521963631243768,0.17926708769225788,-1.3661339523891423, ,0.35675541939274735,0.1087021094598749,0.037216849345794396,0.03300155216251912,0.3515471752759071,-0.027540928759817868, ,1.1324009895324707
0.014989037812107111,0.023812774002758753,-0.08869557238893758, ,0.016438039537601357,0.023338996496159486,-0.08938488000316483, ,0.0016730858057124234, ,0.03558726203657413,0.00011330489409786242,-0.03245355400799242,-0.024356304983068768,-0.0181513880164518,0.04556646156024135, ,0.04816325596352989, ,0.030375425571029627, ,0.000895392783954231, ,0.18512162972803572,-0.25552206260946636,0.09968340471,-4.521963631243768,0.17926708769225788,-1.3661339523891423, ,0.35675541939274735,0.1087021094598749,0.037216849345794396,0.03300155216251912,0.3515471752759071,-0.027540928759817868, ,1.134666919708252
0.014989037812107111,0.023812774002758753,-0.08869557238893758, ,0.01652918166357342,0.023329800662517046,-0.08947841176321593, ,0.0017939185646272315, ,0.03558726203657413,0.00011330489409786242,-0.03245355400799242,-0.024356304983068768,-0.0181513880164518,0.04556646156024135, ,0.04816325596352989, ,0.030375425571029627, ,0.0009014639040939136, ,0.18512162972803572,-0.25552206260946636,0.09968340471,-4.521963631243768,0.17926708769225788,-1.3661339523891423, ,0.35675541939274735,0.1087021094598749,0.037216849345794396,0.03300155216251912,0.3515471752759071,-0.027540928759817868, ,1.1369750499725342
0.014989037812107111,0.023812774002758753,-0.08869557238893758, ,0.016620835372471214,0.023320257881573964,-0.08957222471034207, ,0.001916730210608951, ,0.03558726203657413,0.00011330489409786242,-0.03245355400799242,-0.024356304983068768,-0.0181513880164518,0.04556646156024135, ,0.04816325596352989, ,0.030375425571029627, ,0.0009082777719228735, ,0.18512162972803572,-0.25552206260946636,0.09968340471,-4.521963631243768,0.17926708769225788,-1.3661339523891423, ,0.35675541939274735,0.1087021094598749,0.037216849345794396,0.03300155216251912,0.3515471752759071,-0.027540928759817868, ,1.1391949653625488
0.014989037812107111,0.023812774002758753,-0.08869557238893758, ,0.016712995053980544,0.02331037200191299,-0.0896663140813585, ,0.002041268178281805, ,0.03558726203657413,0.00011330489409786242,-0.03245355400799242,-0.024356304983068768,-0.0181513880164518,0.04556646156024135, ,0.04816325596352989, ,0.030375425571029627, ,0.0009158310412985996, ,0.18512162972803572,-0.25552206260946636,0.09968340471,-4.521963631243768,0.17926708769225788,-1.3661339523891423, ,0.35675541939274735,0.1087021094598749,0.037216849345794396,0.03300155216251912,0.3515471752759071,-0.027540928759817868, ,1.1414361000061035
0.015303452508644682,0.023807758508311336,-0.08897590450959152, ,0.016805655119566772,0.023300146858018227,-0.0897606751338852, ,0.0017692222032658156, ,0.036435585519976936,-0.0014588595534596772,-0.03193996100146403,-0.041881724224650904,-0.04263111411695738,0.029355150969036452, ,0.0484751613938037, ,0.059761672282902606, ,0.0009214826383977203, ,0.1882647820078451,-0.25451810733581715,0.10000488463000001,-4.521544251356799,0.18227309068709754,-1.3663798202866686, ,0.36220206701706403,0.12324278124476726,0.036533971376146786,0.04025287727609827,0.3293427440403555,-0.026018239639214, ,1.1438450813293457
0.015303452508644682,0.023807758508311336,-0.08897590450959152, ,0.016898810002441207,0.023289586270295964,-0.08985530314631386, ,0.0018939403273418377, ,0.036435585519976936,-0.0014588595534596772,-0.03193996100146403,-0.041881724224650904,-0.04263111411695738,0.029355150969036452, ,0.0484751613938037, ,0.059761672282902606, ,0.0009278803863512999, ,0.1882647820078451,-0.25451810733581715,0.10000488463000001,-4.521544251356799,0.18227309068709754,-1.3663798202866686, ,0.36220206701706403,0.12324278124476726,0.036533971376146786,0.04025287727609827,0.3293427440403555,-0.026018239639214, ,1.1461610794067383
0.015303452508644682,0.023807758508311336,-0.08897590450959152, ,0.016992454157527696,0.02327869404509475,-0.08995019341777298, ,0.002020364980089891, ,0.036435585519976936,-0.0014588595534596772,-0.03193996100146403,-0.041881724224650904,-0.04263111411695738,0.029355150969036452, ,0.0484751613938037, ,0.059761672282902606, ,0.0009350208085325979, ,0.1882647820078451,-0.25451810733581715,0.10000488463000001,-4.521544251356799,0.18227309068709754,-1.3663798202866686, ,0.36220206701706403,0.12324278124476726,0.036533971376146786,0.04025287727609827,0.3293427440403555,-0.026018239639214, ,1.148637056350708
0.015303452508644682,0.023807758508311336,-0.08897590450959152, ,0.017086582061429198,0.02326747397472658,-0.09004534126809556, ,0.002148290799608852, ,0.036435585519976936,-0.0014588595534596772,-0.03193996100146403,-0.041881724224650904,-0.04263111411695738,0.029355150969036452, ,0.0484751613938037, ,0.059761672282902606, ,0.0009428991850980281, ,0.1882647820078451,-0.25451810733581715,0.10000488463000001,-4.521544251356799,0.18227309068709754,-1.3663798202866686, ,0.36220206701706403,0.12324278124476726,0.036533971376146786,0.04025287727609827,0.3293427440403555,-0.026018239639214, ,1.1510260105133057
0.01570499888595671,0.023786797259173625,-0.08933660518055471, ,0.017181188212394314,0.023255929837487033,-0.09014074203778438, ,0.001762836133068442, ,0.036961838139752096,-0.0022717894224042624,-0.033553590461201294,0.07752237588051142,0.026673456078585248,-0.03696980344442494, ,0.04997181144092136, ,0.08198261700734655, ,0.0009481891008913855, ,0.19224971217094494,-0.2530739562883372,0.10041580856000001,-4.520495801639376,0.18623554918029533,-1.3672422560297885, ,0.36781760293980925,0.1381323749031598,0.038198588776978425,0.12319599443034059,0.4018643631205678,-0.1352999758414226, ,1.153385877609253
0.01570499888595671,0.023786797259173625,-0.08933660518055471, ,0.01727626713028378,0.023244065397676,-0.09023639108797878, ,0.0018902530117194127, ,0.036961838139752096,-0.0022717894224042624,-0.033553590461201294,0.07752237588051142,0.026673456078585248,-0.03696980344442494, ,0.04997181144092136, ,0.08198261700734655, ,0.0009542279721146421, ,0.19224971217094494,-0.2530739562883372,0.10041580856000001,-4.520495801639376,0.18623554918029533,-1.3672422560297885, ,0.36781760293980925,0.1381323749031598,0.038198588776978425,0.12319599443034059,0.4018643631205678,-0.1352999758414226, ,1.155768871307373
0.01570499888595671,0.023786797259173625,-0.08933660518055471, ,0.017371813356537036,0.023231884405618394,-0.09033228380042106, ,0.00201930053940362, ,0.036961838139752096,-0.0022717894224042624,-0.033553590461201294,0.07752237588051142,0.026673456078585248,-0.03696980344442494, ,0.04997181144092136, ,0.08198261700734655, ,0.0009610118738171196, ,0.19224971217094494,-0.2530739562883372,0.10041580856000001,-4.520495801639376,0.18623554918029533,-1.3672422560297885, ,0.36781760293980925,0.1381323749031598,0.038198588776978425,0.12319599443034059,0.4018643631205678,-0.1352999758414226, ,1.1581130027770996
0.01570499888595671,0.023786797259173625,-0.08933660518055471, ,0.017467821454138794,0.02321939059768463,-0.09042841557742264, ,0.0021497775859616428, ,0.036961838139752096,-0.0022717894224042624,-0.033553590461201294,0.07752237588051142,0.026673456078585248,-0.03696980344442494, ,0.04997181144092136, ,0.08198261700734655, ,0.0009685357074382874, ,0.19224971217094494,-0.2530739562883372,0.10041580856000001,-4.520495801639376,0.18623554918029533,-1.3672422560297885, ,0.36781760293980925,0.1381323749031598,0.038198588776978425,0.12319599443034059,0.4018643631205678,-0.1352999758414226, ,1.1605079174041748
0.016107873057600367,0.023763735558205618,-0.08970830701503366, ,0.01756428600758555,0.023206587696311117,-0.09052478184183015, ,0.0017601657773319284, ,0.03929738423763096,-0.0022188421900665055,-0.03634039120454514,-0.02346247865122489,-0.06595134511956695,-0.017027239183547753, ,0.05357081016266048, ,0.07000003177255536, ,0.0009735145129093167, ,0.19618830593679945,-0.2515911915764861,0.1008383991,-4.519657041865438,0.1901980076734931,-1.3685130854736112, ,0.3750867255275525,0.1427021677570989,0.04126635108808291,0.07764439776455989,0.3131858438943727,-0.058501219422683756, ,1.1632108688354492
0.016107873057600367,0.023763735558205618,-0.08970830701503366, ,0.017661201622852063,0.02319347941002103,-0.09062137803699216, ,0.0018898995733396958, ,0.03929738423763096,-0.0022188421900665055,-0.03634039120454514,-0.02346247865122489,-0.06595134511956695,-0.017027239183547753, ,0.05357081016266048, ,0.07000003177255536, ,0.0009792419195370065, ,0.19618830593679945,-0.2515911915764861,0.1008383991,-4.519657041865438,0.1901980076734931,-1.3685130854736112, ,0.3750867255275525,0.1427021677570989,0.04126635108808291,0.07764439776455989,0.3131858438943727,-0.058501219422683756, ,1.1656110286712646
0.016107873057600367,0.023763735558205618,-0.08970830701503366, ,0.017758562927358112,0.02318006943344479,-0.09071819962672524, ,0.0020212190080402996, ,0.03929738423763096,-0.0022188421900665055,-0.03634039120454514,-0.02346247865122489,-0.06595134511956695,-0.017027239183547753, ,0.05357081016266048, ,0.07000003177255536, ,0.0009857138269190146, ,0.19618830593679945,-0.2515911915764861,0.1008383991,-4.519657041865438,0.1901980076734931,-1.3685130854736112, ,0.3750867255275525,0.1427021677570989,0.04126635108808291,0.07764439776455989,0.3131858438943727,-0.058501219422683756, ,1.167954921722412
0.016107873057600367,0.023763735558205618,-0.08970830701503366, ,0.017856364569934727,0.0231663614473407,-0.09081524209528005, ,0.0021539228558416492, ,0.03929738423763096,-0.0022188421900665055,-0.03634039120454514,-0.02346247865122489,-0.06595134511956695,-0.017027239183547753, ,0.05357081016266048, ,0.07000003177255536, ,0.0009929249937642162, ,0.19618830593679945,-0.2515911915764861,0.1008383991,-4.519657041865438,0.1901980076734931,-1.3685130854736112, ,0.3750867255275525,0.1427021677570989,0.04126635108808291,0.07764439776455989,0.3131858438943727,-0.058501219422683756, ,1.170332908630371
