NicholasDascanio/dvrk_moveit_final/test/execution/second_exp_sharpbends/firstexp_600vel3.csv
Current Position (x),Current Position (y),Current Position (z), ,Planned Position (x),Planned Position (y),Planned Position (z), ,Position Error,,Cartesian linear Velocity(x),Cartesian linear Velocity(y),Cartesian linear Velocity(z),Cartesian Angular Velocity(x),Cartesian Angular Velocity(y),Cartesian Angular Velocity(z), ,Total Linear Velocity, ,Total Angular Velocity, ,MSE, ,Joint 1 Position,Joint 2 Position,Joint 3 Position,Joint 4 Position,Joint 5 Position,Joint 6 Position, ,Joint 1 Velocity,Joint 2 Velocity,Joint 3 Velocity,Joint 4 Velocity,Joint 5 Velocity,Joint 6 Velocity, ,Time Stamp
0.011463766978057432,0.01898192355102249,-0.08136416426180688, ,0.011673150248392277,0.01886492045037862,-0.08150116732304309, ,0.0002762262084677814, ,1.3211021894594564e-05,-1.2789244885995919e-05,-4.885391442222195e-06,-0.033795617595062694,0.004372108577074452,0.0013726306077238954, ,1.9025323487319934e-05, ,0.034077251973148294, ,2.301885070564845e-05, ,0.15759008703142535,-0.2239978670168819,0.09093863237000001,-4.5358031675137465,0.16232416172134326,-1.3904621039764287, ,-0.0009574206955195312,-0.0004313744440361737,7.5893179541044875e-06,0.0,0.0,0.15710066866398664, ,0.019423961639404297
0.01145857214611934,0.018983400903597163,-0.08136264910114535, ,0.01165401753883218,0.018905792235599805,-0.0815085335871236, ,0.00025593805916693214, ,-0.0001945432617146722,7.665478751419276e-06,0.0004407636034124236,-0.20977429586015447,0.02985118004890246,0.009071327293940324, ,0.0004818489331068153, ,0.2118875837653911, ,2.418928489248698e-05, ,0.1575746415656769,-0.22401331248263034,0.09093733608000001,-4.5358031675137465,0.1627340712206396,-1.3892444616248474, ,-0.001496787609610905,-0.0013102314746419362,-0.00045003160667961625,0.0,0.0,0.2131487676840913, ,0.03877091407775879
0.011447747064583397,0.018988470954282938,-0.08136417932775815, ,0.011635208233604718,0.018946426586532138,-0.08151608682960967, ,0.0002449189822557166, ,0.00020053587777261832,0.000382569091988731,-0.0006065428391684715,0.08186243212027425,-0.03080354826764664,-0.008340107238105009, ,0.0007446260565986574, ,0.08746608701961957, ,2.4283851559075944e-05, ,0.15755919609992844,-0.22405192614700148,0.09093992866,-4.5358031675137465,0.16382716321876312,-1.3899724473741377, ,-0.0010943776607389975,-0.0031661698376836277,0.0006697504262143277,0.0,-0.021811745339898547,-0.08257779839278367, ,0.05752897262573242
0.011452408723980267,0.01899883895491694,-0.08137969093223954, ,0.011616721475884974,0.018986824158460383,-0.08152382649367904, ,0.00021890202338916114, ,0.0004169799115247551,6.102702199905363e-05,0.0011277242403282596,0.33016497767770264,-0.13900263055005727,-0.03820557218251849, ,0.0012038930626319, ,0.35823266711001583, ,2.3713935078085507e-05, ,0.15749741423693464,-0.22414459894149216,0.09095678043000001,-4.5358031675137465,0.16300734422017046,-1.3940413068801116, ,-0.00373332388630248,-0.005348958000709196,-0.0011514888944570089,0.0,-0.10130001635735089,-0.3423226529111971, ,0.07749485969543457
0.01148147994105113,0.019005379498253743,-0.08138308610274124, ,0.011598556409920543,0.019026985605816237,-0.08153175202323033, ,0.00019046070293318309, ,0.0013170601987083455,0.00013117214472244256,0.0006107438410514863,0.052426470499416636,-0.19068390462466162,-0.04873543452853864, ,0.0014576905494497366, ,0.19775966801128417, ,2.2816268773322585e-05, ,0.1574433551068151,-0.22426816266747976,0.0909606693,-4.5358031675137465,0.15931815872650357,-1.399609291195067, ,-0.0036961915877648474,-0.0061454777626609,-0.0006284003206080518,0.0,-0.19222899106326982,-0.07382819526575324, ,0.09831786155700684
0.011490425843072886,0.01901781589666665,-0.08138817796806616, ,0.011580712181036377,0.019066911582172046,-0.08153986286287727, ,0.00018322204144687604, ,-0.00013472482418573877,0.0007191682555057514,-0.00013659450120003948,-0.1485643891336104,0.0014919824177338711,0.000949738833583448, ,0.0007443196999523469, ,0.14857188068466268, ,2.2091419639671782e-05, ,0.15733523684657594,-0.2244303400578385,0.09096715075,-4.5358031675137465,0.1574052477297874,-1.399274621645426, ,-0.004557194901165385,-0.008460115402595622,0.00024387764573433792,0.0,-0.024872056239996047,0.15496710938544014, ,0.11776089668273926
0.011479588944690197,0.019035056694574663,-0.08139606400525737, ,0.011563187935628843,0.019106602740248238,-0.08154815845795399, ,0.00018772413398007718, ,-0.0006262292510518424,0.0010197724370059084,-0.0004807303704392774,-0.1534414763942373,0.04419603481119512,0.01166296901593783, ,0.001289651343275618, ,0.15967960474361034, ,2.1630446550551776e-05, ,0.15721939585346256,-0.22460796291394564,0.09097752107000001,-4.5358031675137465,0.15767852072931826,-1.3956585566662123, ,-0.006764486773270416,-0.010472800621908777,0.0006285782375045569,0.0,0.015575958033222722,0.1675844110765064, ,0.13719391822814941
0.011460323394149638,0.019062720449300147,-0.081405996797198, ,0.01154598282116765,0.019146059731909974,-0.08155663825451151, ,0.0001922909829516547, ,-0.0008159522063938315,0.001197992512597004,-0.00017874493355708065,0.06211655554872853,0.026267889035877613,0.006699744241176472, ,0.001460449867208652, ,0.06744233438753033, ,2.1337599202333932e-05, ,0.15705721846310386,-0.22489370403029194,0.09099178026000002,-4.5358031675137465,0.15849833972791091,-1.394611810545439, ,-0.007332028034481257,-0.013194791651622744,0.00036581764746797924,0.0,0.026135496158614692,-0.04589390136446632, ,0.15606093406677246
0.011446522338378477,0.019090426595142575,-0.08141219522908655, ,0.011529095986193245,0.019185283208170756,-0.08156530169932086, ,0.00019813575037389147, ,-0.0006534552201844907,0.0014590032290496629,-0.0005068657739155906,0.02950073062369899,0.005630000065564459,0.0015542581317791, ,0.0016770829019254697, ,0.03003314848746754, ,2.1171944401796455e-05, ,0.15687959560699669,-0.22520261334526093,0.09100215058000001,-4.5358031675137465,0.15849833972791091,-1.3948568467658606, ,-0.008976720947843147,-0.015792468224075682,0.0007284890409471157,0.0,-0.0015001221787387354,-0.014249753053189405, ,0.17592191696166992
0.011433493193318869,0.019124499252782826,-0.08142367963442898, ,0.01151252658031996,0.01922427381918833,-0.08157414823986728, ,0.00019708384404820323, ,-0.0006862496980513421,0.0017472304334836544,-0.0005681913651594293,0.015611382249378542,0.0097418567621212,0.003075353148005692, ,0.001961273632925496, ,0.018401603976551575, ,2.1028458127583107e-05, ,0.1566942500180153,-0.22555785905747525,0.09101770606000001,-4.5358031675137465,0.1583617032281455,-1.3947454288621643, ,-0.009331029039860099,-0.01895664034328222,0.0009262409748577514,0.0,0.0,0.00319333218676935, ,0.1947648525238037
0.011420623753934314,0.019159905603220853,-0.08143212562689511, ,0.011496273754232041,0.01926303221426896,-0.08158317732435412, ,0.00019792583397970257, ,-0.0007271196007758891,0.0018673765517344728,-0.00039485118011545845,0.021320252018175292,0.009378157669709572,0.003209538413478034, ,0.0020424753497261085, ,0.023291693527874493, ,2.0918112169581957e-05, ,0.1565011816961597,-0.22596716389980914,0.09103326154000001,-4.5358031675137465,0.15822506672838005,-1.3945523322183273, ,-0.009484380466172771,-0.020787939005141462,0.0007063309238081113,0.0,0.0,-0.0007941131927021336, ,0.21457195281982422
0.01140971379875413,0.019197984719675,-0.08144117643185654, ,0.0114803366596834,0.01930155904186782,-0.08159238840170244, ,0.00019641865626312914, ,-0.0005692387622630337,0.0019427571271267332,-0.0004852827688707931,0.011986204828062057,0.0004733452005817277,0.0012514020627511252, ,0.0020817870662551857, ,0.011995547584797662, ,2.0813501797182855e-05, ,0.15632355884005253,-0.2263919142078915,0.09104881702,-4.5358031675137465,0.15795179372884915,-1.3944111751510748, ,-0.008812739907707517,-0.021533229307572222,0.0008203294523231349,0.0,-0.009808000695762428,0.007997766913312656, ,0.2371668815612793
0.011397786506753145,0.019235896197800997,-0.08145155450681062, ,0.011464714449499102,0.01933985494958688,-0.08160178092154795, ,0.0001945629648158096, ,-0.0004863721526284651,0.0018637217557049709,-0.0005284258728740286,0.006121524298619376,-0.002374626689789327,0.0005292590342434193, ,0.0019973108312586565, ,0.006565966163056741, ,2.071068321266756e-05, ,0.15614593598394536,-0.22680894178309963,0.09106566879000001,-4.5358031675137465,0.1578151572290837,-1.394218078507238, ,-0.008217274129927062,-0.02052269497371773,0.0008521730505556969,0.0,-0.012783608103818957,0.012494805815016849, ,0.2567720413208008
0.011387567426104256,0.01927289103388598,-0.08146054922703484, ,0.011449406277573198,0.0193779205841774,-0.08161135433424241, ,0.00019390056819231145, ,-0.000422239638624066,0.0018790423287815602,-0.000505403116770093,-0.00043052301387254123,-0.0025200170706828205,0.0007489060031508623, ,0.001991109915654868, ,0.0025565281343990225, ,2.0617681353974857e-05, ,0.15599148132646087,-0.22721824662543352,0.09108122427000001,-4.5358031675137465,0.15767852072931826,-1.3936982669028388, ,-0.00743192772663197,-0.0207334370894627,0.0008425381800074195,0.0,-0.013062960946875295,0.019282965952717068, ,0.275601863861084
0.011378583644087269,0.019310137594009805,-0.08147332834911647, ,0.011434411298868519,0.019415756591539747,-0.08162110809085356, ,0.0001900288181973595, ,-0.00042492309813815365,0.0017670685124563498,-0.0005758513059680918,-0.02797571640650302,0.005724269682420257,0.0028393665781725405, ,0.001906487737603151, ,0.028555349268641325, ,2.051144454251177e-05, ,0.1558447494018506,-0.2276198287348932,0.09110066862,-4.5358031675137465,0.15754188422955284,-1.3930150978181586, ,-0.007029876346992095,-0.01915175409858139,0.0008919896085128581,0.0,-0.007806226687405618,0.046259696626706245, ,0.29590702056884766
0.011369728266536355,0.01934397622078009,-0.08148285015115678, ,0.0114197286694166,0.019453363616723656,-0.0816310416431631, ,0.00019085691232585578, ,-0.0004947836408007355,0.0017423760138923553,-0.00047211248985717843,0.013994484297561276,0.007478641604711487,0.003137062195916685, ,0.0018717839693913902, ,0.015867440594071473, ,2.042343507893608e-05, ,0.15570574021011457,-0.227990519912856,0.0911162241,-4.5358031675137465,0.1574052477297874,-1.3924136074736184, ,-0.00683213447448824,-0.019017423158010176,0.0007875154919667017,0.0,0.0,0.004839914304495569, ,0.31589198112487793
0.011362248895090962,0.01937922164944354,-0.08149335720825945, ,0.011405357546315824,0.01949074230392979,-0.08164115444366837, ,0.00019010322191374886, ,-0.00037050766019345075,0.001746831874805198,-0.0006651331648194906,0.007551013232816674,-0.0024997720460309195,0.0005141216370092359, ,0.001905544450292425, ,0.007954034267223138, ,2.0341277352915076e-05, ,0.15556673101837853,-0.2283766565565672,0.09113307587000001,-4.5358031675137465,0.15713197473025653,-1.3918640567056637, ,-0.006897887440179467,-0.018706276672278886,0.0009778670304168265,0.0,-0.011120523724531884,0.009475526213232518, ,0.33614087104797363
0.011354016927684694,0.019412689295663855,-0.08150688726193996, ,0.01139129708773217,0.01952789329650907,-0.08165144594558127, ,0.0001885709022092715, ,-0.0004438056565276232,0.0016735187595645856,-0.0006389412156745068,0.013529676183460015,-0.0015812763394961204,0.000414614542329806, ,0.0018455011179807292, ,0.013621768332012878, ,2.025972860939926e-05, ,0.1554277218266425,-0.22873190226878154,0.09115252022,-4.5358031675137465,0.15699533823049108,-1.3915076025815454, ,-0.007603204064721758,-0.017928762810971242,0.0009280115828991817,0.0,-0.009972411818008693,0.002824267463452909, ,0.3554508686065674
0.011343867437875204,0.01944680360988343,-0.0815205176658266, ,0.011377546452898193,0.019564817236963416,-0.08166191560282678, ,0.00018722945499412638, ,-0.0004911677733851681,0.001715092416415589,-0.0007156444505328088,0.0007992613366303543,0.0012993338841323112,0.0010828836646304717, ,0.0019222213082880997, ,0.0015254793431898018, ,2.0179687822420786e-05, ,0.15527326716915799,-0.22908714798099586,0.09117196457000001,-4.5358031675137465,0.15685870173072564,-1.3912328271975678, ,-0.008179720602375542,-0.0181725280655823,0.0010063964623630703,0.0,-0.009493737233913863,0.016021818047160838, ,0.3739919662475586
0.011337010865430128,0.019479039775896587,-0.08153215475530007, ,0.011364104802112397,0.019601514766946448,-0.08167256287004375, ,0.00018827810155055516, ,-0.0003552068423435268,0.0016620435585403114,-0.0005612519509966985,-0.028837194502019818,-0.02478580677428658,-0.005944017350809955, ,0.0017898503970529497, ,0.03802525482096782, ,2.0212826683857442e-05, ,0.1550879215801766,-0.2294501164260844,0.09118881634,-4.5358031675137465,0.15617551923189843,-1.3905940589389452, ,-0.009824530227808494,-0.01853817963634905,0.0008231829262899753,0.0,-0.04191955759155835,0.041732400151967435, ,0.39172887802124023
0.01133001531844174,0.01949653423451886,-0.08153719342062447, ,0.011350971296738045,0.019637986527264513,-0.08168338720258504, ,0.00020450067489691018, ,-0.0009549318415642933,0.0017510054077600318,-0.0005329757590606499,0.026811627973664705,0.026461994183902708,0.006989384967215577, ,0.00206445584108368, ,0.03767095075501888, ,2.0320375420725027e-05, ,0.15497980331993746,-0.22964318474794002,0.09119659408000001,-4.5358031675137465,0.15603888273213298,-1.3904009622951081, ,-0.010594044271942089,-0.018772886559539223,0.0008114120405974931,0.0,0.01737636208257739,-0.005906275998438685, ,0.40964388847351074
0.011313751572439648,0.0195321576053259,-0.0815484088304877, ,0.011338145099206545,0.019674233157873,-0.08169438805651272, ,0.0002051595506198914, ,-0.0008699329987602897,0.0018384340410883024,-0.0006009489909749699,0.028549909111703936,0.018293078365930047,0.005007829967173496, ,0.002120792973281025, ,0.03390772812189775, ,2.042209310032944e-05, ,0.15476356679945918,-0.23002932139165125,0.09121344585,-4.5358031675137465,0.15603888273213298,-1.3903192835549674, ,-0.010584367634990476,-0.019708606761883858,0.0008989079004131219,0.0,0.009140528147793914,-0.007883174896033615, ,0.42833685874938965
0.011297536075968189,0.019569544249520815,-0.08156070166488578, ,0.011325625373007873,0.01971025529788643,-0.08170556488860778, ,0.00020389693800413667, ,-0.0007812465372310523,0.0018273122397027938,-0.0005494692812770545,0.0026676692099635,0.005461042204483576,0.0016263349799282417, ,0.0020618760060610516, ,0.006077782570386015, ,2.0510242662176684e-05, ,0.15453188481323243,-0.23043862623398514,0.09123159391,-4.536012857457231,0.15590224623236756,-1.3899628294308495, ,-0.011298987116368174,-0.01999514149988849,0.0008373620590744269,0.0,-0.008328417032062408,0.016089312256784675, ,0.4475889205932617
0.01127993064000842,0.0196103243458233,-0.08157100771099975, ,0.011313411282701611,0.01974605358556659,-0.08171691715635673, ,0.0002020716363095643, ,-0.0008433115923652598,0.0019126741339088413,-0.000611501016670899,-0.026580998767724257,0.01000447031198202,0.002825198186249094, ,0.002177941752602927, ,0.028401389432790126, ,2.0583995625678682e-05, ,0.15428475736125724,-0.23087882200781595,0.09124844568000001,-4.5353837876267775,0.15576560973260212,-1.3893613390863098, ,-0.012205394412665051,-0.020833576631936506,0.0009090344047162187,0.0,-0.008776853719313945,0.046397064250126185, ,0.4652390480041504
0.011262674755305253,0.01965067179190642,-0.08158385907353921, ,0.011301501993907222,0.019781628658332634,-0.08172844431796161, ,0.00019890235852375668, ,-0.0007999777567279271,0.0019679597910432587,-0.0006853486369289617,-0.013875697392384721,0.003353752247583987,0.023265987899002433, ,0.00223215879913658, ,0.014275245436175716, ,2.063946878784392e-05, ,0.15405307537503052,-0.23131129504877251,0.09126789003,-4.535174097683293,0.15576560973260212,-1.389116302865888, ,-0.011658800041101418,-0.021582201855462994,0.0010008935400710511,-0.021515319930509903,-0.007881052911928666,0.031194390730209548, ,0.4831368923187256
0.011255116273222072,0.019670109826615784,-0.08158981297192622, ,0.011289896673307738,0.019816981152757113,-0.0817401458323346, ,0.00021302777187775078, ,-0.0008140749933330531,0.0020358976326073724,-0.0006662518839332983,0.0023222168832180605,0.004154673399079009,0.017646579099122952, ,0.002291612715550161, ,0.004759622075920151, ,2.074641997524453e-05, ,0.15393723438191714,-0.2315275315692508,0.09127696406000001,-4.5353837876267775,0.15562897323283667,-1.3889232062220511, ,-0.011645325164752559,-0.02229197593574601,0.0009987834511901985,-0.015767482573976522,-0.006363078467317216,0.016628615834926377, ,0.5012328624725342
0.011241080623701499,0.019710041194732762,-0.0816038143480903, ,0.011278594488648649,0.01985211170456714,-0.08175202115909838, ,0.00020870212901898496, ,-0.00074939507470924,0.0020722447771339358,-0.0007447847533037309,-0.006986642074604403,0.008704494769017492,-0.0054558119620742385, ,0.002326047231487581, ,0.011161603677888595, ,2.0829694025402804e-05, ,0.1537364433271873,-0.2319445591444589,0.09129640841000002,-4.535593477570262,0.15549233673307122,-1.388403394617652, ,-0.0111216382448637,-0.022125656693511492,0.0010163919264471303,0.008150037026174851,-0.008853167509076465,0.02919496568742405, ,0.5185248851776123
0.01122760386400732,0.019751635755336994,-0.0816215317968978, ,0.01126759460873541,0.019887020948646774,-0.0817640697585883, ,0.00020061276318897813, ,-0.0007535423931610441,0.001996576305682002,-0.000847622263225929,-0.02232775329043631,0.013212532963234474,-0.00238696904657962, ,0.002296215709339589, ,0.025944163010255494, ,2.0877846102180655e-05, ,0.15350476134096058,-0.23240020038403816,0.09132233421000001,-4.535593477570262,0.15521906373354036,-1.3877721651095563, ,-0.011220155317273772,-0.02093007092158597,0.0011754501077428875,0.006171130455552652,-0.005478200049158302,0.04359214884989992, ,0.5372910499572754
0.011213801719975755,0.019791167605956145,-0.08164094116013122, ,0.011256896203436909,0.01992170951903312,-0.081776291091847, ,0.00019291948991754837, ,-0.0005132887486014965,0.0019855059635530588,-0.0009194821401364849,-0.02364884510139265,0.0028436960778664257,-0.0034461155417424938, ,0.0022474756231771727, ,0.02381920405916786, ,2.08956435312513e-05, ,0.1532885248204823,-0.23280950522637206,0.09134826001000002,-4.535593477570262,0.1550824272337749,-1.3873340322452976, ,-0.00938569816935879,-0.020683727453895115,0.0012639973908326332,0.00497813764643552,-0.014060461783497248,0.04329489259654919, ,0.5550739765167236
0.011200365135312945,0.019828112021492237,-0.08165400481284124, ,0.011246498443680416,0.019956178048921896,-0.08178868462062928, ,0.00020266339935108278, ,-0.0005878984242523337,0.0017989276567362184,-0.0006167990445672443,0.016087960690807507,0.0004036855641432644,-0.0036590945021912663, ,0.0019905291589896153, ,0.016093024613899526, ,2.094582431327818e-05, ,0.15318812929311737,-0.2330102962811019,0.09135863033000001,-4.535593477570262,0.1550824272337749,-1.3871706747650165, ,-0.009123602328851592,-0.019869543877401755,0.0009368174759531857,0.004539311192944333,-0.01210659081235274,0.00774255105377626, ,0.5731949806213379
0.011196484153643455,0.01984485262829322,-0.08165890003078102, ,0.011236400501455185,0.019990427170663003,-0.08180124980739685, ,0.0002074818573065481, ,-0.0006085944700294854,0.0017623109387058448,-0.00046473980245775144,0.009816672150081198,-0.0015093678496166402,-0.0039047974474414283, ,0.0019214864448184941, ,0.009932031182372238, ,2.100905577490166e-05, ,0.15301822916988445,-0.2333887101919389,0.0913754821,-4.535593477570262,0.15480915423424405,-1.3867844814773425, ,-0.009641789589391955,-0.019382545252955633,0.0007627002608646146,0.0038780742602580807,-0.013706278243593486,0.008086408844628025, ,0.5907769203186035
0.011187170267600745,0.01988101626738908,-0.08167075303862782, ,0.011226601549807678,0.020024457515765995,-0.08181398611532331, ,0.00020650891509101086, ,-0.0003894587471384794,0.001723109738765204,-0.0005719796380718954,-0.01587188230401036,-0.01339598465211951,-0.006256673489182577, ,0.0018568645599286503, ,0.020769425910990354, ,2.106545517010197e-05, ,0.15284060631377727,-0.23378256956852436,0.09139363016,-4.535593477570262,0.1543992447349477,-1.3864502277662534, ,-0.008779447919717177,-0.018828758245728328,0.0008681806167130553,0.003347193041687876,-0.028333042235485786,0.03134060673627719, ,0.6088428497314453
0.011175852263560855,0.01991199426982142,-0.08168090532871064, ,0.011217100762844007,0.020058269714897006,-0.08182689300828944, ,0.00021073762624167054, ,-0.000473169337716423,0.0016638717437449434,-0.0005899614098270011,-0.008832959061801433,-0.004409619137993487,-0.0036715257478282565, ,0.0018276796401100767, ,0.009872482298264557, ,2.1131959980513144e-05, ,0.1526861516562928,-0.23411464708211602,0.09140918564000002,-4.535593477570262,0.1543992447349477,-1.3862868702859723, ,-0.008687974781045313,-0.01793893035131773,0.0008742542845663479,0.002992786421072892,-0.017852263559401487,0.024763758583280605, ,0.6276190280914307
0.011166007684346087,0.019950019926732464,-0.08169773100111133, ,0.011207897315727992,0.020091864397880684,-0.0818399699508852, ,0.00020519871843021955, ,-0.0004800948331707221,0.0017440168396741175,-0.0008616880891955235,-0.002051798528370938,0.0008460227038107855,-0.0019280420772172094, ,0.0020036447162522482, ,0.0022193764024863822, ,2.1177865419674004e-05, ,0.1525008060673114,-0.23450850645870147,0.09143122257000001,-4.535593477570262,0.1539893352356514,-1.3856259016143206, ,-0.008280794964165599,-0.01802411045744934,0.0010929725992522038,0.0026506456206680435,-0.011331966848013025,0.01884117828447949, ,0.6456458568572998
0.011156403418514534,0.01998329786770759,-0.08171531484654794, ,0.011198990384682006,0.02012524219369943,-0.08185321640840765, ,0.00020243191974580877, ,-0.00037795852527072336,0.0017116575354239995,-0.0009296135429299124,-0.004385054442837202,-0.0024255345837404267,-0.0025307241399213955, ,0.0019841384791887094, ,0.0050111795500533485, ,2.1213077118985736e-05, ,0.15233090594407844,-0.23485602943804157,0.09145585208000001,-4.535593477570262,0.15385269873588595,-1.385351126230343, ,-0.008255316767072318,-0.017285417405914532,0.001170103516387236,0.0024031152182256753,-0.01407248935782751,0.021818438121595476, ,0.663567066192627
0.011152066361955319,0.02000079766367973,-0.08172526261443384, ,0.011190379146985072,0.020158403730495027,-0.08186663184686173, ,0.0002151576205273088, ,-0.00047986112281595076,0.001703205776596458,-0.0009139075839494084,-0.00780144482174482,-0.0008632476867698,-0.0021934507401948286, ,0.001991583211071527, ,0.007849059680930253, ,2.1283337775381205e-05, ,0.15224595588246198,-0.23503365229414871,0.09146881498000001,-4.535593477570262,0.1537160622361205,-1.3850763508463655, ,-0.008952546670809145,-0.017431473467757305,0.0012009276332338131,0.0022910362812952932,-0.014103402048372377,0.02363770126593002, ,0.6816458702087402
0.011138682423259615,0.020035265854068333,-0.0817388368468896, ,0.011182062780973088,0.020191349635568262,-0.08188021573295902, ,0.00021501625917334108, ,-0.0005306537431280175,0.0017261781006765212,-0.0005973726029370719,-0.0029901435337001906,0.001971054145356322,-0.0009968515240528265, ,0.001902140440948247, ,0.003581342317620494, ,2.1349626530169086e-05, ,0.15206061029348059,-0.23539662073923728,0.09148825933000002,-4.535593477570262,0.1537160622361205,-1.384994672106225, ,-0.008560491320057395,-0.018498429153698006,0.0009003261492916359,0.002098057413163278,-0.010229876530952248,0.020359546015108795, ,0.6996159553527832
0.011130895143276141,0.020067807967293287,-0.08175281353305126, ,0.011174040466037208,0.02022408053538096,-0.08189396753411911, ,0.00021495833649880672, ,-0.0005071686820894463,0.0016389507279561863,-0.0007481743555271805,-0.013943805053661605,-0.004598015418520051,-0.003000832605860506, ,0.0018716688881928265, ,0.014682351486162992, ,2.1412468672668496e-05, ,0.15188298743737344,-0.23574414371857738,0.09150770368000001,-4.535593477570262,0.15316951623705874,-1.384222285530877, ,-0.009520512226754142,-0.017238318175925665,0.0010174405521063252,0.0019403301348043867,-0.019246770552794137,0.028873405812558733, ,0.7163639068603516
0.011120261020002575,0.020101327332557883,-0.08176756653818945, ,0.011166311382623927,0.020256597055554996,-0.08190788671846795, ,0.0002142873672677625, ,-0.0002834391734840918,0.0016117039896850795,-0.00077943810969152,-0.008676854350686734,-0.008032191614419565,-0.0031784806164149473, ,0.001812581386385626, ,0.011823870075127502, ,2.1470466385608674e-05, ,0.15172853277988893,-0.23609166669791748,0.09152844432000001,-4.535593477570262,0.15316951623705874,-1.3839772493104552, ,-0.006894197150139733,-0.016751445994434382,0.001070975700972895,0.0018047850885448513,-0.019246770552794137,0.023048900601787978, ,0.734468936920166
0.011114321802348866,0.020117772738167887,-0.08177510022320282, ,0.011158874712235462,0.020288899820872605,-0.0819219727548367, ,0.00022987166150471074, ,-0.0004253236751183509,0.0016837920322155526,-0.0007289834227470557,-0.0099699008221734,-0.004108208634146059,-0.0022769846270390913, ,0.0018834735641916436, ,0.010783148917892223, ,2.1623381991976675e-05, ,0.15164358271827247,-0.23626156682115043,0.09153881464000001,-4.535593477570262,0.15316951623705874,-1.3838955705703149, ,-0.008249276902796162,-0.01772118423127372,0.0010240736908656233,0.0017436193518271955,-0.016909082753065748,0.02564195039653471, ,0.7498660087585449
0.011106073049421817,0.020153442536595893,-0.08179337209678042, ,0.011151729637428673,0.02032098945527667,-0.08193622511276176, ,0.0002248632432453469, ,-0.0004303501364836482,0.0017639506315031096,-0.0010742265644181027,0.0022476753580582235,0.005045576156727157,0.002016289458450888, ,0.0021096648506464797, ,0.005523575225080697, ,2.1757083505661037e-05, ,0.15148140532791377,-0.23662453526623897,0.09156344415,-4.5353837876267775,0.15289624323752785,-1.3835093772826408, ,-0.007625312869756475,-0.017492523789579866,0.0013905532614304692,0.0,-0.0047222850296998915,0.014528643549624399, ,0.7665200233459473
0.011102388564856352,0.02017125487697888,-0.08180312209251497, ,0.01114487534181216,0.02035286658187424,-0.08195064326248702, ,0.00023780334976827692, ,-0.0003850451976266724,0.0018016848343920886,-0.001049211414594141,0.000715714896190586,0.0024444149423901566,0.005032227047890055, ,0.002120182218397383, ,0.002547039894060923, ,2.1918059974658482e-05, ,0.15140417799917152,-0.23680215812234615,0.09157640705,-4.535174097683293,0.15275960673776243,-1.3833162806388037, ,-0.007199746762593368,-0.018054973660287438,0.0013796324126168458,-0.0034270759465936046,-0.006350736765305564,0.015900142219055332, ,0.7820570468902588
0.011096552635033419,0.02020758173078362,-0.0818249241993989, ,0.011138311010048873,0.020384531822933233,-0.08196522667496049, ,0.0002296516528231418, ,-0.00022415816314698598,0.0018501038350169806,-0.001181797631558729,-0.01122970335869959,-0.010482756725416367,0.0016960357748957153, ,0.002206757060577306, ,0.015362110079228884, ,2.205248367026708e-05, ,0.15126516880743548,-0.2371651265674347,0.09160492543000001,-4.535174097683293,0.15248633373823153,-1.3828484086109891, ,-0.007105650112707356,-0.018444497873366526,0.001522020383376655,-0.003418010992611236,-0.021212739210934632,0.026262067148820352, ,0.7985930442810059
0.011092388600347093,0.020226236805806496,-0.08183569249780993, ,0.011132035827855696,0.020415985799883025,-0.08197997482183274, ,0.00024164844801404195, ,-0.00029444234293116666,0.0018435858562778906,-0.0011495097499758656,-0.006381249730286531,-0.007965333495020648,0.002101214177037005, ,0.002192459296787116, ,0.010206217997141385, ,2.221080546311151e-05, ,0.15119566421156744,-0.23735047215641608,0.09161918462000002,-4.535174097683293,0.15248633373823153,-1.3827667298708486, ,-0.007594601278252488,-0.01842659059387782,0.001483891991948134,-0.003308461551583149,-0.018488306089993734,0.02174826693122363, ,0.8134880065917969
0.011084187296641073,0.020264337297873015,-0.0818585281996028, ,0.011126048981998996,0.020447229133318794,-0.08199488717546176, ,0.00023193877310840916, ,-0.0004466043671766663,0.0020286923895935375,-0.0010650822939752937,0.007636847400381472,0.0059878538613206385,0.005907357035687175, ,0.002334405398664868, ,0.009704423325467367, ,2.233997767597703e-05, ,0.15104120955408296,-0.2377288860672531,0.09164899929,-4.535174097683293,0.15234969723846611,-1.3824102757467305, ,-0.007548691673603297,-0.02052269497371773,0.0014472527913534153,-0.0031115158327644455,-0.002536018106272874,0.011960518722987064, ,0.8293819427490234
0.011079723426241923,0.020284448206899678,-0.08186779456180851, ,0.011120349660298356,0.020478262442997597,-0.08200996320890754, ,0.00024377525146289004, ,-0.00046823140877481694,0.001972859076252367,-0.000810772169050307,-0.0021476316250687607,0.0007580324601936085,0.004224991636639338, ,0.001966026921764669, ,0.0022774843155008375, ,2.2491976344330008e-05, ,0.15087903216372425,-0.23813046817671277,0.09167233251000001,-4.535174097683293,0.15193978773916977,-1.3818309858152196, ,-0.008133899990096252,-0.020710812212673676,0.0011780002945711943,-0.002931745405833682,-0.009924059138511859,0.021016964875114924, ,0.844404935836792
0.011072953737148115,0.02032262896429884,-0.08188401024513589, ,0.011114937051623459,0.020509086347841706,-0.08202520239593411, ,0.00023762192242933708, ,-0.0003071298848214323,0.0019455170702452344,-0.001060115108055079,-0.013785104355983615,-0.009320499179577255,0.0014095343111873155, ,0.002236785523713138, ,0.016640336747209168, ,2.2624283939914172e-05, ,0.150801804834982,-0.23833898196431683,0.09168529541,-4.535174097683293,0.15180315123940433,-1.3817195679115233, ,-0.007902583584827559,-0.019857070842952664,0.0014185245416763101,-0.002851709918068251,-0.02153476720568642,0.030295006167451753, ,0.860198974609375
0.011063111572698783,0.02036327382723107,-0.08190487693430282, ,0.011109810345895602,0.020539701465936408,-0.0820406042110079, ,0.00022744093905672756, ,-0.0002766409885396007,0.0019722948785635135,-0.0008958177404899831,-0.003443707798808386,-0.005675082815842013,-0.003823760897544223, ,0.0021837964073430955, ,0.006638199181228453, ,2.2728893551484923e-05, ,0.15065507291037172,-0.2387405640737765,0.09171251750000001,-4.535593477570262,0.15180315123940433,-1.3816378891713827, ,-0.0069932757749453815,-0.02037726896252325,0.0012870534606246103,0.0035553357416610583,-0.017305440768755915,0.022328276550050694, ,0.8768980503082275
0.01105901295397315,0.02038195861994481,-0.08191155929252056, ,0.011104968734085128,0.02057010841453307,-0.08205616812929817, ,0.00024171055956138726, ,-0.00032239089912762607,0.00201618734167702,-0.0008418110125806747,0.0031277295072345717,-0.0014687594143598065,-0.008309837082355324, ,0.0022085273531204158, ,0.003455422707466286, ,2.2861370124824544e-05, ,0.1505855683145037,-0.23894907786138056,0.09172418411000001,-4.5353837876267775,0.15180315123940433,-1.3814745316911017, ,-0.006839415417172297,-0.02091162220327695,0.0012345763642781027,0.00907008303066142,-0.013326659052479735,0.01718231380825051, ,0.8925740718841553
0.011055327602390539,0.020421210762262373,-0.0819312686233521, ,0.0111004114082103,0.020600307810050015,-0.08207189362667879, ,0.00023212861442328619, ,-0.00023540145482334597,0.0019536453904084794,-0.0011653686326388813,-0.005799601940795599,-0.005404796958056369,0.004170764992530259, ,0.002286969218493302, ,0.007927623403476358, ,2.296840850183474e-05, ,0.15044655912276766,-0.23935065997084023,0.09175140620000001,-4.535174097683293,0.1512566052403426,-1.3807838238558943, ,-0.00647270771953903,-0.019494030722775425,0.0015415166563311875,-0.00425348972836533,-0.01453024747362062,0.02265076861340633, ,0.9087979793548584
0.011048732631570706,0.02046181566363375,-0.081951667793393, ,0.011096137561341035,0.0206303002680682,-0.08208778017972157, ,0.00022172250902879046, ,-0.00017526613198708547,0.0019770007990998774,-0.0008689273864049538,-0.006507678716947282,-0.005253139489229684,0.00474738070165968, ,0.0021666299129080194, ,0.008363334070561666, ,2.304955217921532e-05, ,0.15033071812965432,-0.23975996481317413,0.09177992458,-4.535174097683293,0.1512566052403426,-1.380620466375613, ,-0.005067852187158574,-0.020518257634263952,0.0012720827330494886,-0.00425348972836533,-0.013169789238917864,0.024581062977906663, ,0.9253978729248047
0.011045407319271908,0.02048055126856569,-0.0819595620485485, ,0.011092146387592098,0.020660086403338794,-0.08210382726570437, ,0.0002350103359566671, ,-0.00024557051277289096,0.0018515271781669362,-0.0007468830053624643,-0.004593161531713706,-0.0027999552861532506,0.005136670987994493, ,0.002011539706775291, ,0.005379301298555391, ,2.315588394081815e-05, ,0.15027665899953474,-0.23995303313502975,0.09179159119000001,-4.535174097683293,0.1512566052403426,-1.380620466375613, ,-0.005409756116267275,-0.01939839361375118,0.0011188964876784765,-0.00425348972836533,-0.010585346190708137,0.02189360022849936, ,0.9411189556121826
0.011040664122242626,0.020516590012402157,-0.08197561576651625, ,0.011088437082129112,0.020689666829776302,-0.08212003436260205, ,0.00023042259286813047, ,-0.0002630096776111957,0.0018745173214213084,-0.0010272296380178022,0.0025400376047253486,0.003575278427094183,0.006757588083600998, ,0.002153645748039321, ,0.0043857048308704235, ,2.324922179482969e-05, ,0.1501762634721698,-0.2403237243129925,0.09181492441000001,-4.535174097683293,0.15111996874057715,-1.3803456909916354, ,-0.0052954196996364685,-0.018739522424658525,0.001401987256542228,-0.00425348972836533,-0.002850735045573901,0.01512091977454438, ,0.9572319984436035
0.011039564267781734,0.020534983337010707,-0.08198632875968534, ,0.011085008841161953,0.020719042160465728,-0.082136400949094, ,0.00024179437912255958, ,-0.00015990446329478163,0.001860759489267407,-0.0011935043822769993,0.003252245868578182,-0.0015752370712589594,0.0053856727233873155, ,0.002216404300842853, ,0.0036136512031366085, ,2.3362637658170994e-05, ,0.150114481609176,-0.2405090699019739,0.0918291836,-4.535174097683293,0.15084669574104626,-1.3800411764441018, ,-0.004861211863613155,-0.018162094078176226,0.001566583472749688,-0.00425348972836533,-0.007511640013916797,0.013170227746128775, ,0.973106861114502
0.01103700824000127,0.020571785560683512,-0.08200878919459058, ,0.011081860861948827,0.020748213007657706,-0.0821529265045574, ,0.0002321938109982115, ,-8.51513665274478e-05,0.0018081222305322713,-0.00099416772755092,-0.01964289457181874,-0.014643453800322311,0.0017960821217135672, ,0.00206516978146356, ,0.02450049073714216, ,2.345322307763668e-05, ,0.1500140860818111,-0.24087203834706244,0.09185899827,-4.535174097683293,0.15057342274151536,-1.3795733044162874, ,-0.005446717066058071,-0.01838731671351885,0.0013513898488864064,-0.00425348972836533,-0.024716305824897325,0.034097717745759495, ,0.9894740581512451
0.011029730191424857,0.020607679619663203,-0.08202905854617062, ,0.011078992342792325,0.020777179982772905,-0.08216961050907162, ,0.00022563684744960315, ,-0.00020617459560227764,0.0016808117516666603,-0.0010154788144932164,-0.0037026645296205233,-0.0020126369221540596,0.004347696461936777, ,0.001974546360837612, ,0.004214312755153313, ,2.3528048004464457e-05, ,0.1498905223558235,-0.2412272840592768,0.09188622036,-4.535174097683293,0.15057342274151536,-1.3794099469360064, ,-0.0052793304895277105,-0.0166223404376372,0.0013448704693573325,-0.0036795968912715507,-0.009290272509217502,0.018492018062690185, ,1.0057849884033203
0.01102726168661809,0.02062547776475934,-0.0820383948212436, ,0.011076402483042046,0.020805943696399137,-0.08218645244341416, ,0.00023854523646176754, ,-0.00014600566178312425,0.0016466785434785347,-0.0009842883876904698,-0.002661742910738272,-0.0013071174132539929,0.004496371333683821, ,0.0019239780427457122, ,0.002965372026234379, ,2.362556903629789e-05, ,0.14984418595857815,-0.24140490691538394,0.09189918326,-4.535174097683293,0.15057342274151536,-1.379328268195866, ,-0.004305392593342271,-0.016255043089837405,0.0013169221637729124,-0.0034391119698124755,-0.007435864180962382,0.017370345527209445, ,1.0208890438079834
0.011026273541224587,0.020658980401591715,-0.08205892274136328, ,0.011074090483090668,0.020834504758295087,-0.08220345178906324, ,0.000232344368028609, ,-0.0001534593266859141,0.001568325043709036,-0.0008879242843059948,-0.009500435347057992,-0.00777716372469285,0.002059853335139866, ,0.0018087572369812808, ,0.012277725660062426, ,2.3708278608317404e-05, ,0.14975151316408747,-0.2417369844289756,0.09192640535,-4.535174097683293,0.15016351324221905,-1.3788306570044955, ,-0.005125283381967435,-0.015771471091652115,0.0011944821375970919,-0.003052499606045246,-0.015899346880107378,0.02266129564614531, ,1.0371079444885254
0.011025127379756609,0.020674066652154988,-0.08206892933868362, ,0.011072055544377186,0.02086286377738704,-0.082220608028194, ,0.00024668407322348495, ,-0.00019993901737779622,0.0016978009273522108,-0.0010506945400492382,-0.007227937398076308,-0.00408755996251289,0.0029139037469588574, ,0.0020066047483441544, ,0.008303687462589616, ,2.3860305205238803e-05, ,0.1497051767668421,-0.24188371635358588,0.09193936825000001,-4.535174097683293,0.15002687674245363,-1.3786375603606587, ,-0.005605543171947495,-0.016739626311249037,0.0013807739314945094,-0.0029019647296303214,-0.012464313920573185,0.02183826223559872, ,1.0508790016174316
0.011022677155896691,0.02069124050702226,-0.08207840998145581, ,0.011070296869380944,0.02089102136177496,-0.0822379206436843, ,0.0002600455314028964, ,-5.7647467818770564e-05,0.0017015747653460695,-0.0011760199768636604,-0.006858128473684021,-0.005623443522055539,0.00268981318161799, ,0.0020692276091795344, ,0.0088688806060886, ,2.4033211143837733e-05, ,0.14965884036959679,-0.2420536164768188,0.09195233115000001,-4.535174097683293,0.15002687674245363,-1.3786375603606587, ,-0.004131260839814196,-0.016372833257155068,0.0015208384403881925,-0.0027565295315618477,-0.012464313920573185,0.021120205508913886, ,1.0641238689422607
0.011019344250030816,0.020727154997962398,-0.08210349751274729, ,0.011068813661629052,0.020918978118724677,-0.08225538911910456, ,0.0002496285088379289, ,-0.00012474596434878466,0.0017668808064446836,-0.0013372677151716494,-0.008911966663568983,-0.0023539542420168546,0.0031251023701503312, ,0.0022193950260925447, ,0.009217605458132687, ,2.418256165912409e-05, ,0.1495738903079803,-0.24239341672328468,0.09198473840000002,-4.535174097683293,0.15002687674245363,-1.3784742028803774, ,-0.004998540105960785,-0.016636911212915634,0.0016860958980607764,-0.0024985077044163313,-0.010386191336178073,0.023788269485404703, ,1.0784459114074707
0.011020102105314736,0.02074525481573495,-0.08211804360098454, ,0.011067605125686062,0.020946734654678337,-0.08227301293872902, ,0.0002585849146528343, ,-5.153323594482871e-06,0.0018186709747936354,-0.001525523401675634,-0.002829344305192031,-0.003741449156263899,0.002919831987980697, ,0.002373775962545939, ,0.004690802807406025, ,2.4344349671875838e-05, ,0.14952755391073497,-0.24256331684651763,0.09200288646,-4.535174097683293,0.1497536037429227,-1.3781696883328438, ,-0.0038476836409055107,-0.016636911212915634,0.0018960720445091968,-0.0023878005390362703,-0.009818715027306042,0.017742093196482494, ,1.0925710201263428
0.011022244608831507,0.020781365203987757,-0.08214689312200328, ,0.011066670467163541,0.020974291575244348,-0.08229079158752374, ,0.00024474682836334504, ,0.00017883138061170918,0.0017763342007424594,-0.0014047000644156172,-0.023409105555860704,-0.020571789055741807,-0.004822635390190958, ,0.0022716791424820717, ,0.031163836860596896, ,2.4477330674845812e-05, ,0.14945804931486695,-0.2429031170929835,0.09203918258,-4.5353837876267775,0.1493436942436264,-1.377590398401333, ,-0.003664312532316029,-0.01673667399620296,0.001768647455931379,0.0007983063635048298,-0.03061029594356726,0.036174547556627176, ,1.1071269512176514
0.011021640161100734,0.02079886087755867,-0.08216007390090861, ,0.011066008892710368,0.021001649485207628,-0.08230872455115638, ,0.00025532101275832394, ,0.00013200278276881628,0.0018423888457429086,-0.0013336596643386016,-0.01509251469387929,-0.014691014062622222,-0.0030662426768073387, ,0.0022782601901144544, ,0.02106204866504935, ,2.4625704699641576e-05, ,0.14942715838337003,-0.24306529448334221,0.09205603435000001,-4.5353837876267775,0.1493436942436264,-1.377590398401333, ,-0.003299863275992108,-0.017560499918295853,0.001719611600671042,0.0008432806189973266,-0.023175586778460894,0.029648593363214636, ,1.1207408905029297
0.011019804630163197,0.020816632551325445,-0.08217334747738674, ,0.01106561961001834,0.021028808988523447,-0.08232681131598962, ,0.00026583642083036305, ,-2.6943962595651303e-05,0.0016028348308756385,-0.0012497215919390116,-0.011474636758587373,-0.009495144110377624,-0.002564981782076951, ,0.002032636103572666, ,0.014893792344977657, ,2.4788805027622157e-05, ,0.14938082198612468,-0.24322747187370095,0.09207288612,-4.535174097683293,0.1493436942436264,-1.3775087196611924, ,-0.004524309785158311,-0.015036751950320199,0.0015662142852800147,0.0010256574062894363,-0.0183085615004413,0.024181398647426522, ,1.134263038635254
0.011017286716578454,0.020853840072130512,-0.08219931018541503, ,0.011065501827818795,0.021055770688320832,-0.08234505136908285, ,0.0002536555998274407, ,5.553183504705672e-06,0.0017788044290773602,-0.001322198968865424,-0.00583209520852496,-0.004904892538504125,-0.0034177491334253015, ,0.0022163903419797383, ,0.007620453092272945, ,2.492696703561196e-05, ,0.14930359465738244,-0.24357499485304104,0.09210658966000002,-4.534964407739808,0.1493436942436264,-1.3774270409210518, ,-0.0036888923558206785,-0.01666905701009499,0.0016900508916281173,0.0035258997202172815,-0.012855171133480628,0.021241981365912613, ,1.149137020111084
0.011018480197543368,0.020871663565599285,-0.08221250082766861, ,0.01106565475588359,0.02108253518690132,-0.0823634441981907, ,0.00026358334683684355, ,3.7644355246124056e-05,0.0018738655777038823,-0.0013847523657097296,0.0010971073252522478,-0.0011874381322567549,-0.0019940327639883177, ,0.002330306506690503, ,0.001616679868114859, ,2.5078746554500476e-05, ,0.14926498099301133,-0.24374489497627397,0.09212344143000001,-4.534964407739808,0.14907042124409553,-1.3769591688932374, ,-0.002821377202093258,-0.017453916049010625,0.0017845211835965668,0.0034511883318577284,-0.007277812401657784,0.01580160058849988, ,1.1629359722137451
0.01101927833942263,0.020890882164920313,-0.08222656387369702, ,0.011066077605024205,0.02110910308574005,-0.08238198929176337, ,0.00027196985517766425, ,-2.443265219675652e-05,0.0018073565417707387,-0.0013588910601357198,-0.0007536873195144162,-0.002261931077403978,0.0032578607759446627, ,0.002261353474557136, ,0.0023841931066692352, ,2.5241067479241488e-05, ,0.1491954763971433,-0.24409241795561407,0.09216103384,-4.534754717796323,0.14879714824456466,-1.3764096181252823, ,-0.0038662068219016054,-0.016813774195335005,0.0021014263218997365,-0.002235338648060176,-0.008345256484479967,0.029526876093927113, ,1.1768529415130615
0.011019346656259088,0.020928306498188276,-0.08225766923422645, ,0.011066769587089135,0.021135474985488234,-0.08240068613894765, ,0.00025616703834548284, ,2.2344400248578978e-05,0.0018436647193678232,-0.0015107831769924102,-0.015934933552981586,-0.0009858910461215853,0.0037026620653191063, ,0.0023837081779335707, ,0.015965402860087508, ,2.5373313013335984e-05, ,0.1491645854656464,-0.24426231807884702,0.09218047819000001,-4.534754717796323,0.14879714824456466,-1.376246260645001, ,-0.003323834114794309,-0.016849598998308023,0.0018957991942289243,-0.002235338648060176,-0.008345256484479967,0.031418766850593416, ,1.190087080001831
0.011018730655848559,0.02094584215658196,-0.08227082145630032, ,0.01106772991496493,0.021161651485971846,-0.08241953422958558, ,0.00026662723601285885, ,4.3603396935248934e-05,0.001836060438829334,-0.0013902689956262568,-0.012082083489429398,-0.0019455091471250736,0.00359353140750293, ,0.0023034467806871727, ,0.01223771822203371, ,2.551971769247991e-05, ,0.1491336945341495,-0.24442449546920572,0.09219732996,-4.534754717796323,0.14879714824456466,-1.376246260645001, ,-0.0028536969023651064,-0.017086233625940004,0.0017810777933480488,-0.002235338648060176,-0.008345256484479967,0.027764476655919475, ,1.2036349773406982
0.011019889609195876,0.020983793588690396,-0.08230011071314278, ,0.011068957802578114,0.021187633186189533,-0.08243853305421078, ,0.00025123497689843007, ,0.00015124347092883314,0.0017733786330323606,-0.001268163050958268,0.0016339190465401692,-0.005068086502348138,0.0030537501868210704, ,0.0021854024543342373, ,0.005324959365352012, ,2.5637761518579215e-05, ,0.14909508086977838,-0.24477201844854585,0.09223492237000001,-4.534754717796323,0.14879714824456466,-1.3761645819048605, ,-0.0013158584165009768,-0.016657353266363133,0.0016631243072013438,-0.002235338648060176,-0.008011478993526382,0.01353240672059508, ,1.2180109024047852
0.01102263007411086,0.021000383438349566,-0.08231069265193616, ,0.011070452464888924,0.021213420684319296,-0.08245768210405469, ,0.0002632066645512623, ,4.796878621288273e-05,0.0017328459797403368,-0.0009637628317830956,0.0016397086376288778,-0.003492028119234844,0.0033843364599730644, ,0.0019834048981182727, ,0.003857836803314795, ,2.5772395495944503e-05, ,0.14907963540402994,-0.24493419583890455,0.09224918156,-4.534754717796323,0.14852387524503374,-1.3758600673573271, ,-0.0018980260988572541,-0.017067795244329276,0.0013487587245222268,-0.002235338648060176,-0.007046762613254725,0.014072338083314904, ,1.2319209575653076
0.01102427702333,0.021018740653621294,-0.08232214479425297, ,0.011072213117897262,0.021239014577711754,-0.08247698087103916, ,0.00027348250670035834, ,7.781902048346843e-05,0.0017734593191510509,-0.001232140518473559,0.005554964184653969,-0.0045234242794000255,0.002989047435328805, ,0.0021608757516102138, ,0.007163727681969359, ,2.5920369642572077e-05, ,0.1490641899382815,-0.24511181869501172,0.09226473704,-4.534754717796323,0.14838723874526832,-1.3755852919733496, ,-0.0020943422079286824,-0.016769206848996427,0.0016199147494979926,-0.002235338648060176,-0.007723989423894566,0.009725303127560495, ,1.245229959487915
0.011026074325534731,0.021056265495560562,-0.0823475607731659, ,0.011074238978635968,0.021264415462897382,-0.08249642884778219, ,0.00026039958976665134, ,0.0001411059808155107,0.0018246345900249832,-0.0012979154230766863,0.002586183951487655,-0.0048583468062546355,0.003124916855243862, ,0.0022436102001902824, ,0.005503806057365545, ,2.6044515872554225e-05, ,0.14902557627391036,-0.24546706440722604,0.09229844058000002,-4.534754717796323,0.14825060224550288,-1.3752288378492314, ,-0.0014753156630975194,-0.017129411833658986,0.0017041385703605463,-0.002235338648060176,-0.007892698375490826,0.013059753275860895, ,1.260016918182373
0.01102735810124736,0.02107383545654155,-0.08236043261483554, ,0.01107652926517488,0.02128962393558189,-0.08251602552759318, ,0.0002705395082958087, ,0.000148064694284482,0.0018848118021368428,-0.00145319570978411,0.003201272926014037,-0.004716076950394192,0.0031436528360964605, ,0.0023845788840176443, ,0.005699958784271091, ,2.6181728776423478e-05, ,0.14901785354103614,-0.24562924179758475,0.09231529235000001,-4.534754717796323,0.14825060224550288,-1.3752288378492314, ,-0.0016696208043746389,-0.017364490678585687,0.001869265132542045,-0.002235338648060176,-0.007892698375490826,0.012673553010847292, ,1.273655891418457
0.01103255115799536,0.02111391624658461,-0.08239551645464781, ,0.011079083196618012,0.02131464059064922,-0.08253577040447471, ,0.000249252208336447, ,0.00035114859783228446,0.0019110537929397536,-0.0018536215208087084,0.001886777555366365,-0.007861145435719252,0.002558955803347046, ,0.0026853946971859065, ,0.008084400848738326, ,2.6283236633194988e-05, ,0.1490024080752877,-0.2459613193111764,0.09235547734,-4.534754717796323,0.14811396574573746,-1.3749540624652539, ,-0.00015219976741623676,-0.016149921980679167,0.0022706787626514614,-0.002235338648060176,-0.009808170145822637,0.01301700413983216, ,1.2886109352111816
0.011035772953067714,0.021129410391275874,-0.08240882453117078, ,0.011081899993104117,0.021339466022160764,-0.08255566297312131, ,0.0002604085250590459, ,0.000303369595890791,0.002062351943815767,-0.001798578899170326,0.0075165869293164255,-0.0043274582608083595,0.0037833486690327578, ,0.0027532189721147056, ,0.008673290842937751, ,2.6399562156218856e-05, ,0.1490024080752877,-0.24612349670153513,0.09237621798000001,-4.534754717796323,0.147977329245972,-1.3747609658214168, ,-0.00018184328585437115,-0.018274011468991103,0.0022684151979493025,-0.002235338648060176,-0.005491265773975655,0.009562056726288183, ,1.302907943725586
0.011037841435969274,0.0211524343632417,-0.08242692913560538, ,0.011084978875804183,0.02136410082335799,-0.0825757027289204, ,0.0002629794871091892, ,0.00019491094919885937,0.0018497280954660722,-0.0013397081674214279,0.0013387644942283406,-0.002628097433118902,0.003989453586620207, ,0.0022922264894922194, ,0.002949438333760672, ,2.6517306963471352e-05, ,0.14899468534241347,-0.2463320104891392,0.09239955120000001,-4.534754717796323,0.147977329245972,-1.3746792870812763, ,-0.00012429463645782638,-0.017222675418960214,0.00177273824892775,-0.002235338648060176,-0.004909989501818424,0.014875822906175182, ,1.3159029483795166
0.011037760402891098,0.021171047462253026,-0.0824397035152351, ,0.01108831906692354,0.021388545586659976,-0.08259588916794997, ,0.00027249875365450196, ,7.946636456861424e-05,0.0018716478357215867,-0.0011202030717925816,0.006991806452372802,-7.837363331746105e-05,-0.0023418122165870334, ,0.002182712863872064, ,0.006992245697347697, ,2.668655310059624e-05, ,0.14897151714379078,-0.24650963334524634,0.09241640297,-4.534964407739808,0.147977329245972,-1.3745976083411358, ,-0.0015309166592899312,-0.017972905598195223,0.0015428451648721458,0.004470495458527801,-0.004354786162388577,0.010926590447832063, ,1.327888011932373
0.011042257090074056,0.02120816903273809,-0.08246633816273984, ,0.011091919789699579,0.02141280090366556,-0.08261622178697915, ,0.00025846796155130214, ,0.00020192969653894062,0.0019503647820037877,-0.0015935179406629033,0.0011373353735260679,0.00036505863569853296,-0.0020503331667152645, ,0.002526657438680505, ,0.001194487148987667, ,2.6832039258802935e-05, ,0.14894834894516812,-0.24685715632458646,0.09245140280000001,-4.534964407739808,0.14770405624644115,-1.3740480575731806, ,-0.0008756673838157025,-0.017460338833205295,0.0020337041767192854,0.004414837194279021,-0.003952505451999738,0.01637482047391484, ,1.3404760360717773
0.011044932235235182,0.021227959650255923,-0.08248383075024092, ,0.01109578026840199,0.02143686736515331,-0.08263670008346809, ,0.00026381241225897423, ,0.0002497287150300961,0.001966115771357719,-0.0017729357477895714,-0.0025521517275873032,0.00036744999127667755,-0.001237825749098229, ,0.0026591872486311126, ,0.0025784681342221148, ,2.698280198124598e-05, ,0.14894834894516812,-0.2470270564478194,0.09247343973000001,-4.534754717796323,0.14770405624644115,-1.3739663788330403, ,-0.0006252046112258978,-0.017117052950662116,0.002216336652288855,0.003647852929159213,-0.003952505451999738,0.019645901848108695, ,1.3522748947143555
0.011047768968240815,0.02124871682394311,-0.0825023997438526, ,0.011099899728331104,0.021460745561082822,-0.08265732355556754, ,0.0002677222235021611, ,0.00027329895490656116,0.00194844069200062,-0.0018465826004521652,-0.001602323564223617,0.00032402338643300853,-0.002387278485772782, ,0.0026983292514609026, ,0.0016347574553893965, ,2.7136617986499887e-05, ,0.14894834894516812,-0.24720467930392656,0.09249677295000001,-4.534545027852839,0.14770405624644115,-1.3739663788330403, ,-0.00047938977781261937,-0.016674915051567523,0.002285994764638347,0.004728605756832156,-0.003952505451999738,0.018401988978552625, ,1.3640530109405518
0.011052008119347754,0.02126872171553499,-0.08252249210284605, ,0.011104277395818322,0.021484436080594478,-0.08267809170211828, ,0.0002710645676761364, ,0.0003253774047623239,0.0019738535213275734,-0.0019400729470873683,0.004978525299414555,-0.003979236409246198,-0.0035635211992982737, ,0.002786727690178463, ,0.00637338501348355, ,2.7292590406899218e-05, ,0.14894834894516812,-0.24737457942715949,0.09252140246000001,-4.534545027852839,0.1475674197466757,-1.3736916034490627, ,-0.00039215025470742737,-0.016730772489152113,0.0023849096451564605,0.004728605756832156,-0.0073811940012880935,0.011330316770513715, ,1.375882863998413
0.011058104926028392,0.021306680362564525,-0.08255929758571472, ,0.011108912498225453,0.02150793951200962,-0.08269900402265043, ,0.0002502089989372776, ,0.0003270312157027307,0.001960486798523794,-0.0018259567193459098,0.004544685246346445,-0.002862083401225767,-0.002728663474447003, ,0.0026989953397800743, ,0.005370817941769497, ,2.741609534475048e-05, ,0.1489406262122939,-0.24769893420787692,0.09256677261000001,-4.534545027852839,0.14743078324691022,-1.3734168280650851, ,0.0,-0.01686157454841343,0.0022745696872768814,0.004340374773666028,-0.005804358338591507,0.012064380805988945, ,1.3888020515441895
0.011060797056244012,0.021328795854139215,-0.08258157402144346, ,0.011113804263942997,0.021531256442832332,-0.08272006001738468, ,0.0002509550260780528, ,0.0003425733852734705,0.001900866999090774,-0.0019299621793652613,0.0020545142648051747,-0.0027105426662200854,-0.0026190602326317098, ,0.0027304589149647353, ,0.003401186613949835, ,2.7538557744197435e-05, ,0.14893290347941968,-0.24788427979685831,0.09259399470000002,-4.534545027852839,0.14743078324691022,-1.3733351493249444, ,0.0,-0.015882333315225233,0.0023619234163701074,0.0041349267201157445,-0.005804358338591507,0.013571310352117562, ,1.4005510807037354
0.0110636399819637,0.021348034986376194,-0.08260052083719506, ,0.01111895192239315,0.021554387459746666,-0.08274125918722783, ,0.00025582813994970926, ,0.0003476335836709043,0.0019691039565066268,-0.001963944244217198,0.004421674744928821,-0.0029836001390091344,-0.0024335794018346246, ,0.002802730185804511, ,0.005334142603101177, ,2.76658004316757e-05, ,0.14893290347941968,-0.24804645718721702,0.09261732792,-4.534545027852839,0.14743078324691022,-1.373253470584804, ,0.0,-0.01654698196311609,0.002412359763743753,0.003972955291588624,-0.005804358338591507,0.011821192220918241, ,1.411573886871338
0.0110674386343889,0.021363903303186913,-0.08261767927396214, ,0.01112435470402423,0.021577333148621605,-0.08276260103377758, ,0.0002641856437678138, ,0.00035174709947522636,0.0018556311231840508,-0.001954721413075936,0.0031222671771265536,-0.0036080432739911423,-0.002663870994109548, ,0.0027180928405880693, ,0.0047714283567728945, ,2.7802556477884276e-05, ,0.14893290347941968,-0.24817774364607884,0.09263806856000001,-4.534545027852839,0.1472941467471448,-1.3731420526811076, ,0.0,-0.015298555788887759,0.0023753074142558906,0.003845525649874071,-0.006421374452106691,0.011781523733339795, ,1.4236409664154053
0.011073008735679998,0.02138651362594735,-0.0826423044606294, ,0.011130011840312884,0.02160009409450899,-0.0827840850593197, ,0.0002626170380112041, ,0.0003592793454441604,0.001942386711020853,-0.0020353297477245695,0.0015873505521576035,-0.0028365001147067632,-0.0021627057690317853, ,0.0028362854167353737, ,0.003250448375415077, ,2.7934879266757067e-05, ,0.1489406262122939,-0.24836308923506023,0.09266788323000001,-4.534545027852839,0.14715751024737936,-1.3727855985569892, ,2.3484958063406185e-06,-0.016027181482599354,0.002476109361106793,0.003673395817485977,-0.005892712478124689,0.014108471983468176, ,1.4355380535125732
0.011076036462797543,0.021406092478578505,-0.0826624818323397, ,0.011135922563764939,0.0216226708816427,-0.0828057107668261, ,0.0002664715321324656, ,0.00035491743031299287,0.0018999189340531044,-0.002005264562593158,-0.0031414909968184197,-0.0022884535338993407,-0.0019282405693676515, ,0.002785093230810307, ,0.003886641895966772, ,2.807030701543093e-05, ,0.1489406262122939,-0.24852526662541893,0.09269251274000001,-4.534545027852839,0.14715751024737936,-1.3725405623365676, ,4.492333884504012e-06,-0.01562861356364802,0.002436343150810646,0.0035422904609426643,-0.005892712478124689,0.01846669550270757, ,1.4476609230041504
0.011078715237781415,0.021424396241020154,-0.08268033371808743, ,0.011142086107910176,0.021645064093443692,-0.0828274776599586, ,0.00027269306537475104, ,0.00034275737925399384,0.0019059414469522204,-0.001921058876765951,-0.005516813465923559,-0.001964603591032305,-0.0016667190938680037, ,0.0027277394722085625, ,0.005856184599338428, ,2.8211979873151265e-05, ,0.1489406262122939,-0.24884189867326215,0.09273917918,-4.534335337909355,0.14715751024737936,-1.3723772048562866, ,1.4740556505102837e-05,-0.015089353086098073,0.0023025168430182135,0.00027162050190389,-0.005451655663988477,0.01956191975017, ,1.4596788883209229
0.011084507517216386,0.021461283339049505,-0.08271860087459904, ,0.011148501707307572,0.021667274312514466,-0.08284938524306382, ,0.00025225401592284067, ,0.0003237989163203762,0.0017846275788792351,-0.0018519061259411743,-0.0052897469132788194,-0.0020766589241044864,0.0013689992932109083, ,0.002592160803809258, ,0.00568277526142146, ,2.8323815636876242e-05, ,0.1489406262122939,-0.24898090786499819,0.09276121611,-4.534335337909355,0.14715751024737936,-1.372295526116146, ,1.7251924950841408e-05,-0.01478606132104562,0.0022581246838673094,0.00027162050190389,-0.004954992845417859,0.019450897144690317, ,1.4721159934997559
0.011089265956581254,0.021479114441587413,-0.0827378107775525, ,0.011155168597540658,0.021689302120643843,-0.0828714330211756, ,0.0002576371916153065, ,0.00029879105276125415,0.0017384706284588318,-0.0018052853436974707,-0.00035438302590727415,-0.0007764854864863021,0.0016616690279260664, ,0.0025240070109635434, ,0.0008535320852787749, ,2.8441054002911065e-05, ,0.14894834894516812,-0.24912763978960845,0.09278454933000001,-4.534335337909355,0.1470208737476139,-1.372102429472309, ,2.5253044531812398e-05,-0.014363090897301466,0.0022013282918739636,0.00027162050190389,-0.0028673099830934046,0.014338020684891168, ,1.4835519790649414
0.011091457339873621,0.02149454932151106,-0.08275241382029137, ,0.011162086015216984,0.02171114809880748,-0.08289362050001578, ,0.0002680350098510518, ,0.00027844328713239324,0.0016869641916713652,-0.0016696884362073976,0.0016829832991921696,-0.0010774411010630027,0.0015459564638262394, ,0.0023898197258653674, ,0.001998327325200386, ,2.8570216716218206e-05, ,0.14894834894516812,-0.24925892624847026,0.09280269739000001,-4.534335337909355,0.1470208737476139,-1.3720207507321684, ,2.5253044531812398e-05,-0.014170067426977868,0.0020558610635002584,0.00027162050190389,-0.0028673099830934046,0.01208789892097969, ,1.4952259063720703
0.011095096387390155,0.021514812525001814,-0.0827723184706821, ,0.011169253197971142,0.021732812827164355,-0.08291594718598942, ,0.00027139007380398917, ,0.0003184929270022143,0.0017685343807080348,-0.0017917771191331457,0.0015840167569667434,-0.0011536416348870231,0.001681425425696218, ,0.0025376400148456567, ,0.0019595913067852284, ,2.8701754576095416e-05, ,0.14895607167804234,-0.24942882637170322,0.0928273269,-4.534335337909355,0.1470208737476139,-1.3718573932518874, ,0.00029405961894870403,-0.014714985510694802,0.002198897228050801,0.00027162050190389,-0.00275753647205095,0.012747444950734085, ,1.5065269470214844
0.011100040432915409,0.021532982013676014,-0.08279276003408752, ,0.0111766693844602,0.021754296885061745,-0.08293841258618892, ,0.0002758023466995675, ,0.00028890369480540827,0.001733743255529157,-0.00199215949857126,0.0026598064634045463,-0.001031449496571953,0.0013619870791396372, ,0.002656695407590556, ,0.0028527983551890727, ,2.8836991938031442e-05, ,0.14896379441091656,-0.24957555829631348,0.09285195641,-4.534335337909355,0.1468842372478485,-1.3715826178679098, ,-0.0004508955835196568,-0.013765149631341858,0.0023784995550246383,0.00027162050190389,-0.0031185804042454567,0.010661861831867856, ,1.517683982849121
0.011102537431985133,0.021550945341915817,-0.08281341157226557, ,0.011184333814365552,0.021775600851032778,-0.08296101620839072, ,0.0002809766441410427, ,0.00041691416793649425,0.001820151265965927,-0.002286443932520836,-0.0013516580847424964,-9.873599823226337e-05,-0.0033697502848439205, ,0.00295204910375571, ,0.001355259500209384, ,2.8976829622633583e-05, ,0.14895607167804234,-0.24984585394691133,0.09290380801,-4.534125647965871,0.1468842372478485,-1.3712559029073477, ,0.000527274189578804,-0.013757167520798896,0.0026993410472801226,0.005401632729331872,-0.0031185804042454567,0.015449515500276593, ,1.5307538509368896
0.011109768423174309,0.021586353864927993,-0.0828572455902564, ,0.0111922457283904,0.021796725302799375,-0.08298375756105802, ,0.00025896703748526275, ,0.0003635209488959349,0.001719526163047627,-0.0018957214069079502,-0.0044412935115860685,0.0003140263860474747,-0.003162590697289694, ,0.0025850874952891927, ,0.004452381452965042, ,2.9086220444933662e-05, ,0.14896379441091656,-0.24998486313864737,0.09292843752,-4.534125647965871,0.1468842372478485,-1.3710925454270666, ,0.0005984752608248363,-0.013749194662195131,0.0022925750604490505,0.005334335650551204,-0.003030920766269863,0.018564144595026005, ,1.542262077331543
0.011113131849535595,0.021603427968861694,-0.0828753061943094, ,0.011200404368261085,0.021817670817270384,-0.08300663615333678, ,0.000266015128812432, ,0.00035611895691774805,0.0016569815143329277,-0.001679844401582103,-0.003233810563840482,-3.3866831168868124e-05,-0.0029374322159262693, ,0.0023862702411596138, ,0.0032339878960322547, ,2.924022303316835e-05, ,0.14897151714379078,-0.2501238723303834,0.09295047445000001,-4.534125647965871,0.1468842372478485,-1.3710925454270666, ,0.000917517899168008,-0.013656201116487377,0.0020692142790335157,0.0050923760580375566,-0.0028140439396381355,0.017247276237330043, ,1.5524060726165771
0.011116333456416869,0.021619540743540097,-0.08289228677511379, ,0.01120880897672669,0.02183843797054209,-0.08302965149505671, ,0.00027447547090902764, ,0.00034718128588790087,0.0016944474095709756,-0.0019188579117647739,0.0016013700783117013,-9.499933571480284e-05,-0.0029328519385515284, ,0.002583351032015362, ,0.0016041854554520376, ,2.9403007748578485e-05, ,0.148979239876665,-0.25025515878924526,0.09297121509,-4.534125647965871,0.1468842372478485,-1.3710108666869258, ,0.00040630234679179747,-0.01339406373443483,0.0023071859096176132,0.004887925018385914,-0.002639440893576084,0.012097643305638167, ,1.562492847442627
0.011120442211667948,0.02163791039556369,-0.08291530906743419, ,0.011217458797556272,0.02185902733790083,-0.0830528030967322, ,0.0002778660256644458, ,0.00044038123210537756,0.0018408317326728551,-0.0024339732042706593,0.003454886974468935,-0.0004244498571526882,-0.0027387106015098394, ,0.0030833135839083213, ,0.0034808621923552554, ,2.9568015298290404e-05, ,0.14898696260953925,-0.2503941679809813,0.09299843718,-4.534125647965871,0.1468842372478485,-1.3708475092066448, ,0.0006121010321671803,-0.013527717969846155,0.0028505389262705803,0.004682468543230301,-0.0024716110020611692,0.010353149527389329, ,1.5719058513641357
0.011124776112985535,0.02165687459957501,-0.08293949501408057, ,0.011226353075540554,0.021879439493821245,-0.08307609046956012, ,0.00028019873292077144, ,0.00048179669543188763,0.0018973065984031858,-0.002465799719372264,0.003743360668374158,-0.0015745135709942112,0.00048725352177132216, ,0.003148343793191857, ,0.0040610148962566955, ,2.973387827627201e-05, ,0.14899468534241347,-0.25053317717271734,0.09302695556000001,-4.533915958022385,0.1468842372478485,-1.370765830466504, ,0.0010686696540153993,-0.014092209913642822,0.0029008944673101444,0.001435029265024308,-0.0023320056399671126,0.010173396776114988, ,1.5828299522399902
0.0111304886587017,0.02167573493957937,-0.08296504203495615, ,0.011235491056488696,0.02189967501196942,-0.08309951312542226, ,0.00028152643523161625, ,0.0004351873397986204,0.001850465598948114,-0.0024474723661517947,-0.0019130011829099458,0.0005333248586332849,0.0008979472923379496, ,0.003098988857141643, ,0.0019859528803151307, ,2.9899329140344556e-05, ,0.1490024080752877,-0.2506721863644534,0.09305677023000002,-4.533915958022385,0.14674760074808305,-1.3704093763423861, ,0.0006585303616333329,-0.013609198559941315,0.0028669567170626358,0.0014335773128048592,-0.0013058129688925725,0.015547275477463707, ,1.5926458835601807
0.011135051388725547,0.021693804147632913,-0.08298672582359827, ,0.011244871987231534,0.02191973446519939,-0.08312307057688038, ,0.00028582330905554655, ,0.0004075713272994558,0.0017365152992347664,-0.002067846933030951,-0.011559580636724293,0.0014691135446900229,0.0012817202146422713, ,0.00273085896921803, ,0.011652561909997054, ,3.0068050258356712e-05, ,0.14901785354103614,-0.2508111955561894,0.09308269603000001,-4.533915958022385,0.14674760074808305,-1.3701643401219643, ,0.0010069421900485032,-0.01341489137100237,0.0024707323592368545,0.0013929352258927183,-0.0012878457793566562,0.025091371419011466, ,1.6032750606536865
0.011138389012364037,0.021711560892848623,-0.08300460103660165, ,0.011254495115618997,0.021939618425555946,-0.08314676233717876, ,0.00029274682034033687, ,0.0003610856434469642,0.001767214825483438,-0.0017248572428330924,-0.007722282106820386,0.0010905999843221319,0.0014281318414113185, ,0.0024957090354177395, ,0.007798913337629436, ,3.024321208990475e-05, ,0.14902557627391036,-0.25095792748079965,0.09310473296,-4.533915958022385,0.14674760074808305,-1.3701643401219643, ,0.0010697367564815,-0.014744708135250277,0.002143562309245055,0.0013540634189010286,-0.0012508666275942118,0.022543815579779795, ,1.6128358840942383
0.01114098254857621,0.02172409819627128,-0.08301718497071328, ,0.01126435969051698,0.02195932746427746,-0.08317058792024591, ,0.0003067363568367905, ,0.00035171081555678983,0.0016929395606475322,-0.0016024264332152017,-0.0013018850070115942,4.283683150543533e-05,0.0012240066225920262, ,0.0023574382977401285, ,0.0013025895574007543, ,3.0433334701625127e-05, ,0.14903329900678458,-0.2510583230081646,0.09312028844,-4.533706268078901,0.14674760074808305,-1.3700826613818238, ,0.001179069017885285,-0.014261638346629212,0.0020064002418440615,0.0012193036104096772,-0.0012233518143254325,0.015562279273735012, ,1.6227760314941406
0.011147051278631095,0.02174671075556403,-0.08304017419111231, ,0.01127446496181224,0.021978862151790717,-0.08319454684068879, ,0.0003065280286842408, ,0.000519282348240109,0.0018267589115068422,-0.0020205880518891616,-0.0011673608048882022,-0.0011399020457333313,0.0012753148037730868, ,0.002772990867889879, ,0.0016315967298860831, ,3.062089406392903e-05, ,0.1490641899382815,-0.251243668597146,0.09314880682000001,-4.533706268078901,0.14674760074808305,-1.3698376251614022, ,0.002419821638206975,-0.014494721484415883,0.0024630913128189276,0.0012193036104096772,-0.0011767479376494335,0.015665689838258827, ,1.633255958557129
0.011152231003700894,0.02176545211345467,-0.08306159177801968, ,0.011284810180408073,0.02199822305771552,-0.08321863861379648, ,0.0003105209481113108, ,0.0005630742761198013,0.0019267133492056859,-0.002232141951104391,0.002007087044646725,-0.0016135779283866789,0.0012528823810176839, ,0.0030019551396240664, ,0.00257527320499257, ,3.081101058300109e-05, ,0.14908735813690416,-0.25139040052175626,0.09317473262,-4.533706268078901,0.14674760074808305,-1.369674267681121, ,0.002564188373663893,-0.014984516273246611,0.0026970557941076874,0.0012193036104096772,-0.0011410183368151677,0.012954049209887252, ,1.642956018447876
0.011157970735717402,0.021785168298267096,-0.08308673020479933, ,0.011295394598222454,0.022017410750866193,-0.08324286275554038, ,0.00031176793962169904, ,0.000575470566068705,0.0019865660579205494,-0.0025652164668291174,-0.0024187354054271007,-0.0005792082564663423,0.0013803436389410915, ,0.0032951398447690636, ,0.002487119429128689, ,3.100034177952773e-05, ,0.14911052633552682,-0.2515371324463665,0.09320454729000001,-4.533706268078901,0.14674760074808305,-1.36951091020084, ,0.002122348610441339,-0.014689929033819004,0.0030334815311369267,0.0012193036104096772,-0.0011064276946264268,0.017134124304523587, ,1.6531410217285156
0.011163736067188,0.02180424495145695,-0.08311203099361053, ,0.011306217468192183,0.022036425799247444,-0.08326721878257012, ,0.0003135157819871202, ,0.0006301276065550276,0.001920130494324877,-0.0026783027139025313,-0.010689005791812768,-2.2324271551880156e-05,0.0015073923024306148, ,0.0033551851428910338, ,0.010689029097756804, ,3.1189499384646444e-05, ,0.1491336945341495,-0.25167614163810254,0.09323436196000001,-4.533706268078901,0.14674760074808305,-1.3694292314606993, ,0.002568668057886802,-0.013593602858970173,0.003132509640117995,0.0012193036104096772,-0.001073544564046418,0.02439560555037818, ,1.663182020187378
0.011170492174385416,0.021824622949271708,-0.08313955791287428, ,0.011317278044268837,0.022055268770058235,-0.08329170621221585, ,0.0003128780772701329, ,0.0006589852352695618,0.002050402969779021,-0.0027385748005508193,-0.00898226657460877,-0.00028872478099343287,0.0016857983128891496, ,0.0034839927980685995, ,0.008986905733480094, ,3.1375656656706824e-05, ,0.1491645854656464,-0.2518228735627128,0.09326676921,-4.533706268078901,0.14674760074808305,-1.3692658739804182, ,0.0028036021592552905,-0.014855501183229614,0.003227068784440843,0.0012193036104096772,-0.0010416278340737999,0.023936619450524405, ,1.6725668907165527
0.01117956327365503,0.0218465699409371,-0.08316906229016371, ,0.011328575581419618,0.022073940229691003,-0.0833163245624871, ,0.000309173240955953, ,0.0009413271244247139,0.0019489885719860256,-0.0027134189283382674,-0.008195776262300558,-0.0029788615535651704,-0.0017830578446452995, ,0.0034709214179485855, ,0.00872034199730192, ,3.1555249767169585e-05, ,0.14921864459576598,-0.2519773282201973,0.09330176904000001,-4.533496578135416,0.14674760074808305,-1.3691025165001371, ,0.006166804043080817,-0.013622874182955895,0.003214045907990315,0.004598810840690489,-0.0010090274169009632,0.022407691329914173, ,1.6820039749145508
0.011188539476437795,0.02186717288988671,-0.08319757873093703, ,0.011340109335625025,0.022092440743733746,-0.08334107335207354, ,0.0003070989001706086, ,0.0009027578335957403,0.0020084235589971204,-0.0027500463340140763,-0.008308648125099552,-0.00043456712524964514,-0.008370662241921751, ,0.003522994711559669, ,0.008320004933639068, ,3.173030563039908e-05, ,0.14927270372588555,-0.25211633741193334,0.09333547258000001,-4.5330771982484475,0.14674760074808305,-1.368939159019856, ,0.005626742609389084,-0.014079664919654417,0.0032594253161448744,0.011624425873282966,-0.0009796364538375926,0.024004833094225575, ,1.6917510032653809
0.01119710580705561,0.021886871491901598,-0.0832236829428627, ,0.011351878563881188,0.02211077087696751,-0.08336595210034231, ,0.0003071254695694287, ,0.0009027578335957403,0.0020084235589971204,-0.0027500463340140763,-0.008308648125099552,-0.00043456712524964514,-0.008370662241921751, ,0.003522994711559669, ,0.008320004933639068, ,3.190335218216765e-05, ,0.14932676285600513,-0.2522553466036694,0.09336658354,-4.532867508304963,0.14674760074808305,-1.3686941227994343, ,0.005938774180544383,-0.01355283369872476,0.0030444976146788995,-0.014748380879720014,-0.0009519960875084151,0.023657118158861387, ,1.7011959552764893
0.011205929834379,0.021905016141319816,-0.08324745613252027, ,0.011363882524196048,0.02212893119337036,-0.08339096032734021, ,0.0003093225770715053, ,0.0008665343548482043,0.0018541781879849368,-0.0024107801483048124,-0.024960655340612085,-0.00551176483659695,0.01733372145291969, ,0.0031623914154310295, ,0.02556196132078567, ,3.207693945465973e-05, ,0.14938854471899893,-0.2523866330625312,0.09339510192000001,-4.532867508304963,0.14674760074808305,-1.3686124440592937, ,0.005874272337617152,-0.013717395426202771,0.002890891382940109,-0.014748380879720014,-0.0009262378721044166,0.0366307923109975, ,1.7112579345703125
0.011205929834379,0.021905016141319816,-0.08324745613252027, ,0.011376120475591753,0.02214692225611476,-0.08341609755379129, ,0.0003404751851455567, ,0.0008665343548482043,0.0018541781879849368,-0.0024107801483048124,-0.024960655340612085,-0.00551176483659695,0.01733372145291969, ,0.0031623914154310295, ,0.02556196132078567, ,3.228441697524989e-05, ,0.1494503265819927,-0.25253336498714146,0.09342491659,-4.532867508304963,0.14674760074808305,-1.3685307653191532, ,0.00597995783405733,-0.013437686428557175,0.0027930583061546556,-0.014748380879720014,-0.0008993010037945966,0.016691349209194906, ,1.721601963043213
0.011223534863981175,0.021942624056200816,-0.08329465522727916, ,0.01138859167810224,0.022164744627569816,-0.08344136330109743, ,0.0003132164731245029, ,0.0008518985267231902,0.0018226742657198754,-0.0022987874990578554,-0.0068207098436713146,-0.007963225249462445,0.016627516143476594, ,0.0030548807741997554, ,0.010484991134046658, ,3.24582937086385e-05, ,0.1495121084449865,-0.2526646514460033,0.09345213868,-4.532867508304963,0.14674760074808305,-1.3683674078388721, ,0.00589873982063353,-0.013671940867089867,0.002774087690700105,-0.014748380879720014,-0.000875942259865423,0.018270142462943922, ,1.731839895248413
0.011231722838706288,0.021960789705995642,-0.08331850272002264, ,0.011401295392774121,0.022182398869300388,-0.08346675709133719, ,0.000315982326986162, ,0.0009306079780296,0.0018256061554140497,-0.002543883018126632,-0.005194080816510873,-0.008750075004932863,0.016437074208196678, ,0.003266528716140587, ,0.01017557310493437, ,3.263334024445054e-05, ,0.14956616757510607,-0.2527959379048651,0.09348065706000001,-4.532867508304963,0.14674760074808305,-1.3682857290987316, ,0.006389220721851739,-0.01296583434328061,0.0030202524687144485,-0.014748380879720014,-0.0008535785497037105,0.015924494309880657, ,1.7419140338897705
0.011231722838706288,0.021960789705995642,-0.08331850272002264, ,0.011414230881662336,0.02219988554207138,-0.08349227844726895, ,0.00034738164596360787, ,0.0009306079780296,0.0018256061554140497,-0.002543883018126632,-0.005194080816510873,-0.008750075004932863,0.016437074208196678, ,0.003266528716140587, ,0.01017557310493437, ,3.287919997799453e-05, ,0.14956616757510607,-0.2527959379048651,0.09348065706000001,-4.532867508304963,0.14674760074808305,-1.3682857290987316, ,0.006389220721851739,-0.01296583434328061,0.0030202524687144485,-0.014748380879720014,-0.0008535785497037105,0.015924494309880657, ,1.7495660781860352
0.011241948606142731,0.02198025977573402,-0.083347136754021, ,0.011427397407836555,0.02221720520584116,-0.08351792689232343, ,0.0003459821761878716, ,0.0010092527797710795,0.001865527247590638,-0.002895189253682433,0.004255644116831628,-0.010393982138940525,0.01596203026659845, ,0.003588997617666665, ,0.011231445648282436, ,3.312126022209825e-05, ,0.1496356721709741,-0.25292722436372694,0.09351436060000001,-4.532867508304963,0.14674760074808305,-1.368204050358591, ,0.006689068376907847,-0.012367645192033205,0.0033776105852417306,-0.014748380879720014,-0.0008313868135627971,0.005785624690415089, ,1.7575938701629639
0.011252552229897838,0.022000387138378392,-0.08337824807740626, ,0.01144079423537328,0.022234358419769337,-0.08354370195061057, ,0.0003428594424825505, ,0.0011138519195551882,0.002076600724598932,-0.003327878955391479,0.0036889474278963925,-0.010412355689335927,0.015472762295717719, ,0.004077709529851172, ,0.011046514550701634, ,3.3357635954226515e-05, ,0.1497051767668421,-0.25305851082258873,0.09355065672000001,-4.532867508304963,0.14674760074808305,-1.3681223716184503, ,0.007146418011010589,-0.013420582881978614,0.0038596587157741706,-0.013997736575876784,-0.0008105898409668268,0.007520789838993704, ,1.7657880783081055
0.011264416220638214,0.02201970631912942,-0.08340957045175175, ,0.011454420629360168,0.022251345742212485,-0.08356960314691492, ,0.0003396600670982997, ,0.0012018885221949216,0.0021089476120864955,-0.0034887461816855824,0.003256711086655104,-0.010080601272701632,0.014493152663673719, ,0.00425012305357562, ,0.010593615464245766, ,3.358831774760615e-05, ,0.14977468136271013,-0.25318207454857633,0.09358695284000002,-4.532867508304963,0.1466109642483176,-1.3679292749746135, ,0.007971712989251511,-0.013242665581701198,0.004034653373860182,-0.01275221295084511,0.0,0.008074760994036211, ,1.7747678756713867
0.011277389626020647,0.022043100837267623,-0.08344760646396855, ,0.01146827585589381,0.022268167730725978,-0.08359563000669629, ,0.000330156975525059, ,0.0010790671988436785,0.0019589914171635517,-0.003070855081760853,0.004244334194670018,-0.009231728987951996,0.0131902787414167, ,0.0037989714825617284, ,0.01016066890465161, ,3.380636196200998e-05, ,0.14985963142432662,-0.2533288064731866,0.09363102670000001,-4.532867508304963,0.1466109642483176,-1.3679292749746135, ,0.007259460211086589,-0.012782454412509532,0.003580312771409306,-0.011514029031756965,0.0,0.006797330517919892, ,1.782938003540039
0.011277389626020647,0.022043100837267623,-0.08344760646396855, ,0.011482359182078107,0.022284824942066097,-0.08362178205609096, ,0.0003616354499246532, ,0.0010790671988436785,0.0019589914171635517,-0.003070855081760853,0.004244334194670018,-0.009231728987951996,0.0131902787414167, ,0.0037989714825617284, ,0.01016066890465161, ,3.405737083349181e-05, ,0.14985963142432662,-0.2533288064731866,0.09363102670000001,-4.532867508304963,0.1466109642483176,-1.3679292749746135, ,0.007259460211086589,-0.012782454412509532,0.003580312771409306,-0.011514029031756965,0.0,0.006797330517919892, ,1.7905199527740479
0.011287429805893322,0.022061364882660153,-0.08347522399275605, ,0.011496669876025874,0.022301317932187547,-0.0836480588219083, ,0.000362257851667374, ,0.0010706130284935864,0.0018461220354497167,-0.00281206579392643,0.00841579587116229,-0.005656441963479404,-0.0031489648197580837, ,0.0035301689557193003, ,0.0101400668466948, ,3.430685026873839e-05, ,0.14992913602019464,-0.25344464746629997,0.09366343395000001,-4.5330771982484475,0.1466109642483176,-1.3677659174943322, ,0.007566592460086976,-0.011945678362263519,0.003302677072361601,0.005333633308652727,0.0,0.004268677806935161, ,1.7981359958648682
0.011298370185714158,0.022079576391499146,-0.08350408396238142, ,0.011511207206856928,0.022317647256245958,-0.08367445983163269, ,0.00036194650299919794, ,0.001159260732314948,0.00203283507391041,-0.00317581420116666,0.009246655468277831,-0.006089943141990111,-0.002765760358965581, ,0.003944882726208672, ,0.011071948541185083, ,3.455379433678702e-05, ,0.15000636334893688,-0.25356821119228756,0.09369713749000001,-4.5330771982484475,0.1466109642483176,-1.3676842387541917, ,0.00795698798122397,-0.013003143540486543,0.0037104149825297,0.00509469121710416,0.0,0.004390405671124102, ,1.8060450553894043
0.011311261008626257,0.02210163997058797,-0.08354112416712293, ,0.011525970444698136,0.02233381346859724,-0.08370098461342212, ,0.0003543445179583563, ,0.0013675523253173342,0.002190873337494046,-0.003804924419557416,0.004779451935636308,-0.0071806752745740094,-0.001351458924853853, ,0.004598649277991037, ,0.008625848213737426, ,3.4790259698506065e-05, ,0.15009131341055335,-0.25369949765114935,0.09373991506000001,-4.532867508304963,0.1466109642483176,-1.3675208812739106, ,0.009280981886903808,-0.012890103444508392,0.004380861254125413,0.0037680797183664125,0.0,0.008595332898917882, ,1.8142108917236328
0.011311261008626257,0.02210163997058797,-0.08354112416712293, ,0.011540958860681379,0.022349817122799855,-0.08372763269610897, ,0.00038618445528435365, ,0.0013675523253173342,0.002190873337494046,-0.003804924419557416,0.004779451935636308,-0.0071806752745740094,-0.001351458924853853, ,0.004598649277991037, ,0.008625848213737426, ,3.505934838749335e-05, ,0.15009131341055335,-0.25369949765114935,0.09373991506000001,-4.532867508304963,0.1466109642483176,-1.3675208812739106, ,0.009280981886903808,-0.012890103444508392,0.004380861254125413,0.0037680797183664125,0.0,0.008595332898917882, ,1.8221008777618408
0.011340372668965107,0.022148245742591707,-0.08362338564667511, ,0.011556171726945723,0.022365658771612416,-0.08375440360919743, ,0.000333171675141783, ,0.0014833990755996514,0.002286237847047497,-0.004174712828815958,0.005591669129670949,-0.006996117278605144,-0.004876748441396605, ,0.00498553743480508, ,0.00895613864138292, ,3.52686046582003e-05, ,0.15018398620504403,-0.25382306137713695,0.09378398892,-4.532448128417994,0.1466109642483176,-1.3674392025337698, ,0.009964054839426669,-0.012780732869827713,0.004774823597122303,0.00742044134050742,0.0,0.008200644378570734, ,1.832031011581421
0.011340372668965107,0.022148245742591707,-0.08362338564667511, ,0.011571608316634134,0.022381338966996914,-0.08378129688286598, ,0.00036433272503559025, ,0.0014356499757607207,0.0021654558553663135,-0.004021383402758743,0.007657575159449475,-0.005753819279347649,-0.004697944838624312, ,0.004787673170385119, ,0.009578355420965823, ,3.550970434114068e-05, ,0.15029210446528318,-0.2539543478359988,0.09383195165000001,-4.532448128417994,0.14674760074808305,-1.3674689416973258, ,0.009953832943544131,-0.011835487847152753,0.004500935721955355,0.00742044134050742,0.0015565757574429677,0.005461030673793923, ,1.8401050567626953
0.011352796003156019,0.022167408816200884,-0.08365719357767055, ,0.011587267903893557,0.022396858260118516,-0.08380831204796559, ,0.00036119373141555827, ,0.0014395015636529097,0.002078249396036121,-0.0037591487004914876,7.957968317360447e-05,-0.013378114537350508,0.024064357699813178, ,0.004530174859350411, ,0.013378351196981475, ,3.5745354786356805e-05, ,0.15038477725977387,-0.25407018882911214,0.09387343293000001,-4.53223843847451,0.14674760074808305,-1.3673055842170447, ,0.01041523935470694,-0.01207033090288359,0.004320263498779496,-0.022460251075512264,0.0015565757574429677,0.008903405552586181, ,1.848602056503296
0.011368095777693923,0.02218827038082143,-0.08369286358037464, ,0.011603149763877385,0.02241221720134289,-0.08383544863601682, ,0.00035458856853385305, ,0.0013850559402475652,0.0017713564543980005,-0.0027318754618479786,-0.003994511091337511,-0.014073033362908846,0.024131444776931563, ,0.003538251995717607, ,0.014628957130985191, ,3.5971914903475034e-05, ,0.15050061825288724,-0.25419375255509974,0.09391491421,-4.53223843847451,0.14674760074808305,-1.3671422267367637, ,0.011590724862834021,-0.011609608705464984,0.00325077786122449,-0.022460251075512264,0.001547603223180693,0.012553975699912512, ,1.8562190532684326
0.01138273215999549,0.022206858608663393,-0.08371975670550595, ,0.011619253172739541,0.022427416340242368,-0.08386270617921504, ,0.0003535851445726188, ,0.0014202207172164618,0.001822641456128779,-0.002624320133073567,-0.0042439023736469145,-0.013805042001537286,0.021635869121105593, ,0.0034965847514489535, ,0.014442641444582738, ,3.619547298978497e-05, ,0.15062418197887484,-0.25431731628108734,0.09394732146000001,-4.53223843847451,0.14674760074808305,-1.3669788692564824, ,0.012172516875124523,-0.0124210656490145,0.0031655030842607317,-0.019680757101932747,0.001502134691438866,0.014014390630571305, ,1.8642909526824951
0.01138273215999549,0.022206858608663393,-0.08371975670550595, ,0.011635577407638743,0.02244245622559119,-0.08389008421042482, ,0.0003852900404756427, ,0.0014202207172164618,0.001822641456128779,-0.002624320133073567,-0.0042439023736469145,-0.013805042001537286,0.021635869121105593, ,0.0034965847514489535, ,0.014442641444582738, ,3.645078949564113e-05, ,0.15075546843773666,-0.25444088000707493,0.09398232129,-4.532448128417994,0.14674760074808305,-1.3668155117762013, ,0.013238970641527733,-0.012119660480009039,0.0038793988114953727,0.008382025975707807,0.0014619903621549853,0.01732663524890365, ,1.8723540306091309
0.011398359438013086,0.02222584115971117,-0.08374911266375724, ,0.01165212174673471,0.02245733740536938,-0.08391758226318262, ,0.00038258048435867913, ,0.0016205635311111039,0.002013130460107387,-0.003291158880818521,-0.0037517523700853865,-0.007405891375703388,-0.005147916932687746, ,0.004184572521365843, ,0.00830198003665509, ,3.670108265248691e-05, ,0.15075546843773666,-0.25444088000707493,0.09398232129,-4.532448128417994,0.14674760074808305,-1.3668155117762013, ,0.013238970641527733,-0.012119660480009039,0.0038793988114953727,0.008382025975707807,0.0014619903621549853,0.01732663524890365, ,1.8805720806121826
0.011412583694718625,0.02224461170206389,-0.08378124816201947, ,0.01166888546918894,0.02247206042676188,-0.08394519987169588, ,0.00037987324868854927, ,0.001711177503349506,0.0020664803351445557,-0.003561283172621345,-0.005382472103031791,-0.008383711497334287,-0.004735226851205052, ,0.004458834742295856, ,0.009962812044679536, ,3.694641835572755e-05, ,0.15087903216372425,-0.2545489982673141,0.09401991370000001,-4.532448128417994,0.1468842372478485,-1.366845250939757, ,0.013755173439407273,-0.011911212513495424,0.00416330672242551,0.007823949245191582,0.0009435554061853478,0.018610801059430103, ,1.888355016708374
0.011432715630835562,0.02226779481097319,-0.08382239543624015, ,0.011685867855164806,0.022486625836158448,-0.08397293657084132, ,0.00036692737629329635, ,0.001856837897851821,0.0020030040801571644,-0.003789985802809966,-0.004521191020304677,-0.010235983071360071,-0.0041142346930983, ,0.00467160194253814, ,0.011190018628102793, ,3.717612663965877e-05, ,0.15104120955408296,-0.2546802847261759,0.09406787643,-4.532448128417994,0.1468842372478485,-1.3666002147193355, ,0.015039134953798858,-0.010500575075553964,0.0043856859911894286,0.006857556589817218,0.0009435554061853478,0.016191175820173626, ,1.8964869976043701
0.011449643823087805,0.022286414950576212,-0.0838597778605467, ,0.01170306818582625,0.022501034179154483,-0.08400079189616527, ,0.0003607911849620982, ,0.0018438869116561916,0.002134406404962767,-0.004067416907227826,-0.0038140254332963454,-0.009757809841510312,-0.00341421660760529, ,0.004949695944371317, ,0.010476719037735763, ,3.743658934085326e-05, ,0.15117249601294477,-0.2547729575206666,0.09411065400000002,-4.532448128417994,0.1468842372478485,-1.366518535979195, ,0.014382682867303848,-0.011166124272318676,0.004683567044986769,0.006224865951968598,0.0009435554061853478,0.016048840156296672, ,1.902345895767212
0.011449643823087805,0.022286414950576212,-0.0838597778605467, ,0.011720485743336444,0.022515286000552834,-0.0840287653838844, ,0.00039280285936482397, ,0.0018438869116561916,0.002134406404962767,-0.004067416907227826,-0.0038140254332963454,-0.009757809841510312,-0.00341421660760529, ,0.004949695944371317, ,0.010476719037735763, ,3.772876964433479e-05, ,0.15117249601294477,-0.2547729575206666,0.09411065400000002,-4.532448128417994,0.1468842372478485,-1.366518535979195, ,0.014382682867303848,-0.011166124272318676,0.004683567044986769,0.006224865951968598,0.0009435554061853478,0.016048840156296672, ,1.9084439277648926
0.011470092696739617,0.02231037942940459,-0.08390184931944081, ,0.011738119810857584,0.02252938184436357,-0.08405685657088503, ,0.000379246410214473, ,0.002089402624106366,0.0022218060963262337,-0.004060899095250628,-0.0008988132804799762,-0.013454569456243012,0.0029420481779090383, ,0.005078673755726229, ,0.01348455796315451, ,3.8005052200182625e-05, ,0.15135011886905195,-0.2549042439795284,0.09415991302000001,-4.53223843847451,0.1470208737476139,-1.366548275142751, ,0.017399512570310006,-0.012110380494955433,0.004733673557206539,0.0,0.002261180662844818,0.01331733442230065, ,1.9142558574676514
0.011470092696739617,0.02231037942940459,-0.08390184931944081, ,0.011755969672553523,0.022543322253801082,-0.08408506499471904, ,0.000411771767373602, ,0.002089402624106366,0.0022218060963262337,-0.004060899095250628,-0.0008988132804799762,-0.013454569456243012,0.0029420481779090383, ,0.005078673755726229, ,0.01348455796315451, ,3.831328885729759e-05, ,0.15135011886905195,-0.2549042439795284,0.09415991302000001,-4.53223843847451,0.1470208737476139,-1.366548275142751, ,0.017399512570310006,-0.012110380494955433,0.004733673557206539,0.0,0.002261180662844818,0.01331733442230065, ,1.9200408458709717
0.011491839517881417,0.022332880375701594,-0.08394429875012535, ,0.01177403461358254,0.02255710777129169,-0.08411339019361111, ,0.0003981254993478573, ,0.002108782668286486,0.002180604126966183,-0.0042310482836945915,0.003011274144560176,-0.0119032875845976,-0.004777933803136937, ,0.0052061279545898955, ,0.012278274550578911, ,3.86055340923605e-05, ,0.1515277417251591,-0.2550200849726418,0.09420917204000001,-4.532028748531025,0.1470208737476139,-1.3664665964026104, ,0.01728226945155177,-0.011032273153655636,0.004889137974217312,0.007749423946900137,0.002261180662844818,0.0094355525638512, ,1.9272739887237549
0.011514112438674232,0.022353755707482697,-0.08398575153523136, ,0.01179231392010335,0.022570738938467064,-0.08414183170645038, ,0.000385796327931633, ,0.0024024932184485907,0.0021949381834186887,-0.004400347064483088,0.0006530422221041098,-0.014662266075829834,-0.005061068438120346, ,0.005472913445471774, ,0.014676801728321752, ,3.888329101175819e-05, ,0.1517130873141405,-0.2551204805000067,0.09425713477000001,-4.531819058587541,0.1470208737476139,-1.3662215601821885, ,0.020386023965299847,-0.010575644524398098,0.005093959552286537,0.008052062051934586,0.002261180662844818,0.011407627128258805, ,1.9332809448242188
0.011514112438674232,0.022353755707482697,-0.08398575153523136, ,0.011810806879271194,0.02258421629616851,-0.08417038907279503, ,0.00041860565487835153, ,0.0024024932184485907,0.0021949381834186887,-0.004400347064483088,0.0006530422221041098,-0.014662266075829834,-0.005061068438120346, ,0.005472913445471774, ,0.014676801728321752, ,3.9192989249545954e-05, ,0.1517130873141405,-0.2551204805000067,0.09425713477000001,-4.531819058587541,0.1470208737476139,-1.3662215601821885, ,0.020386023965299847,-0.010575644524398098,0.005093959552286537,0.008052062051934586,0.002261180662844818,0.011407627128258805, ,1.9390919208526611
0.011535699767036143,0.022375523564235104,-0.08403094510297651, ,0.011829512779238245,0.02259754038444594,-0.08419906183286961, ,0.00040482192315356746, ,0.002497765096236476,0.0023565304932058086,-0.005000536088374188,-0.009659874379174246,-0.011439277989647185,-0.0040838385267063645, ,0.0060660883287765146, ,0.014972316147449531, ,3.948669370292523e-05, ,0.15189843290312188,-0.2552208760273716,0.09430898637000001,-4.531819058587541,0.14715751024737936,-1.3660879418654635, ,0.020625286146157527,-0.010557937906701838,0.005725669130122214,0.008052062051934586,0.004382458763854456,0.022106026504837034, ,1.944946050643921
0.011535699767036143,0.022375523564235104,-0.08403094510297651, ,0.01184843090915129,0.022610711742560585,-0.08422784952756746, ,0.00043804748475044714, ,0.002497765096236476,0.0023565304932058086,-0.005000536088374188,-0.009659874379174246,-0.011439277989647185,-0.0040838385267063645, ,0.0060660883287765146, ,0.014972316147449531, ,3.9812470872794414e-05, ,0.15189843290312188,-0.2552208760273716,0.09430898637000001,-4.531819058587541,0.14715751024737936,-1.3660879418654635, ,0.020625286146157527,-0.010557937906701838,0.005725669130122214,0.008052062051934586,0.004382458763854456,0.022106026504837034, ,1.9514200687408447
0.011563153192880907,0.022400248303572567,-0.08408401246482364, ,0.011867560559155717,0.0226237309089805,-0.08425675169844464, ,0.0004152675792717939, ,0.0026846412836014984,0.00239187784658077,-0.005278437888645886,-0.01410515223381915,-0.007097819126906965,-0.0022713055712858528, ,0.0063867272525820135, ,0.015790324626172927, ,4.011311128606007e-05, ,0.15213783762222285,-0.25532899428761074,0.09436991200000001,-4.531819058587541,0.1472941467471448,-1.3659543235487381, ,0.023156891546722982,-0.009940749853205349,0.005981528922268119,0.008052062051934586,0.006716347318753549,0.03043884026242761, ,1.956960916519165
0.01158961751246625,0.022424824671522528,-0.08413843163467186, ,0.011886901020387503,0.02263659842138878,-0.08428576788772829, ,0.00039361602695912754, ,0.0026846412836014984,0.00239187784658077,-0.005278437888645886,-0.01410515223381915,-0.007097819126906965,-0.0022713055712858528, ,0.0063867272525820135, ,0.015790324626172927, ,4.0389987368229226e-05, ,0.1523772423413238,-0.25542938981497565,0.09443213392000001,-4.531819058587541,0.1475674197466757,-1.365932123135709, ,0.02523183769169656,-0.010180028203284492,0.005756708174918685,0.008052062051934586,0.01576783532283163,0.005137718055837851, ,1.9627540111541748
0.01158961751246625,0.022424824671522528,-0.08413843163467186, ,0.01190645158498194,0.022649314816674655,-0.08431489763830569, ,0.0004265206972888834, ,0.002793212345878648,0.0023486165848962282,-0.00497902830818899,0.00836140770631729,-0.007496996065985995,-0.001660171178954276, ,0.006173229136016728, ,0.011230230887415484, ,4.069842245427387e-05, ,0.1523772423413238,-0.25542938981497565,0.09443213392000001,-4.531819058587541,0.1475674197466757,-1.365932123135709, ,0.02523183769169656,-0.010180028203284492,0.005756708174918685,0.008052062051934586,0.01576783532283163,0.005137718055837851, ,1.9687750339508057
0.01161749536687383,0.02244727928365016,-0.08418526743186408, ,0.011926211546063588,0.022661880630943352,-0.0843441404937347, ,0.0004081667151320925, ,0.002710963706179167,0.0021703779410987894,-0.004551494936179345,0.0038978490667001806,-0.002704669876172044,0.00019078481766034825, ,0.005725030198828223, ,0.004744308646424873, ,4.098651051849267e-05, ,0.1526320925261732,-0.25552978534234055,0.09448657810000001,-4.531819058587541,0.14770405624644115,-1.3657985048189838, ,0.02551678987858854,-0.0093740596648533,0.00529724360492185,0.0075479168408516435,0.02062565321215661,0.009451590056983867, ,1.9756388664245605
0.01161749536687383,0.02244727928365016,-0.08418526743186408, ,0.011946180197752804,0.022674296399509533,-0.08437349599823518, ,0.000441588589233427, ,0.002710963706179167,0.0021703779410987894,-0.004551494936179345,0.0038978490667001806,-0.002704669876172044,0.00019078481766034825, ,0.005725030198828223, ,0.004744308646424873, ,4.130641921094041e-05, ,0.1526320925261732,-0.25552978534234055,0.09448657810000001,-4.531819058587541,0.14770405624644115,-1.3657985048189838, ,0.02551678987858854,-0.0093740596648533,0.00529724360492185,0.0075479168408516435,0.02062565321215661,0.009451590056983867, ,1.9816479682922363
0.011648072570678446,0.022468204101874844,-0.08422824302763839, ,0.01196635683516347,0.02268656265689945,-0.08440296369669073, ,0.0004236893245826535, ,0.0028574473255550156,0.002061988306081534,-0.004343502920940969,-0.000757521875281119,-0.005368239544445351,0.0007096275398175926, ,0.005593104559809448, ,0.005421423581690323, ,4.1606489348027324e-05, ,0.1529101109096453,-0.25562245813683127,0.09453713341000002,-4.531609368644055,0.14770405624644115,-1.3654717898584217, ,0.027450662874883073,-0.008734969837906347,0.005089077162939298,0.006742628550101443,0.019534145657900303,0.013245449821709575, ,1.9874510765075684
0.011679384633781192,0.022489899808816532,-0.0842747920083459, ,0.011986740754399159,0.02269867993685485,-0.08443254313465205, ,0.00040366117548741804, ,0.003465494894926781,0.0021686132739689532,-0.004768383922345289,0.01953569033336021,-0.02272886106235714,-0.00855978270050197, ,0.0062809253800438485, ,0.029970724374423382, ,4.188477448519632e-05, ,0.1531958520259916,-0.2557074081984477,0.09458898501000002,-4.531189988757087,0.14784069274620656,-1.3651748140614153, ,0.03255469693258002,-0.008565440208743868,0.0055250820395421445,0.012340123130140901,0.008172752037218907,-0.0085290161705187, ,1.9930789470672607
0.011679384633781192,0.022489899808816532,-0.0842747920083459, ,0.012007331252557143,0.022710648772328423,-0.08446223385833093, ,0.00043750832767384766, ,0.003465494894926781,0.0021686132739689532,-0.004768383922345289,0.01953569033336021,-0.02272886106235714,-0.00855978270050197, ,0.0062809253800438485, ,0.029970724374423382, ,4.219507697695579e-05, ,0.1531958520259916,-0.2557074081984477,0.09458898501000002,-4.531189988757087,0.14784069274620656,-1.3651748140614153, ,0.03255469693258002,-0.008565440208743868,0.0055250820395421445,0.012340123130140901,0.008172752037218907,-0.0085290161705187, ,1.9988610744476318
0.011712206888454956,0.022512717601031025,-0.0843258937497437, ,0.012028127627724008,0.022722469695488665,-0.08449203541460479, ,0.00041401075762893634, ,0.0031809909918172593,0.002320894074240384,-0.005057592362027485,0.011698666446733496,-0.0011735057528406768,-0.002829205516659127, ,0.0064097186751296215, ,0.01175737679394124, ,4.248022134868006e-05, ,0.1535124840738348,-0.2557923582600642,0.09464731806000001,-4.531189988757087,0.14825060224550288,-1.365427389032364, ,0.030921127910873505,-0.009169899317321524,0.005890832662721894,0.012340123130140901,0.027254321364862576,0.004353128057603441, ,2.0053789615631104
0.011712206888454956,0.022512717601031025,-0.0843258937497437, ,0.012049129178977727,0.022734143237717264,-0.08452194735101293, ,0.00044831122783580953, ,0.0031809909918172593,0.002320894074240384,-0.005057592362027485,0.011698666446733496,-0.0011735057528406768,-0.002829205516659127, ,0.0064097186751296215, ,0.01175737679394124, ,4.27976007391744e-05, ,0.1535124840738348,-0.2557923582600642,0.09464731806000001,-4.531189988757087,0.14825060224550288,-1.365427389032364, ,0.030921127910873505,-0.009169899317321524,0.005890832662721894,0.012340123130140901,0.027254321364862576,0.004353128057603441, ,2.0109379291534424
0.011745066810861148,0.022534392429156717,-0.08437339720961627, ,0.012070335206387402,0.022745669929609597,-0.0845519692157565, ,0.0004269961038496562, ,0.003297789185983368,0.002073507994963969,-0.0046742562502447025,0.018082476894741163,0.005229086788867611,0.0005094278702081229, ,0.006084695589207402, ,0.018823371564707373, ,4.3092081312776106e-05, ,0.1538600070531749,-0.25587730832168065,0.0947069474,-4.531189988757087,0.14852387524503374,-1.3654051886193352, ,0.033819294924615384,-0.00729382643861146,0.005492693627586208,0.011512352133308134,0.03851371325688823,-0.0038163900815706506, ,2.018070936203003
0.011745066810861148,0.022534392429156717,-0.08437339720961627, ,0.012091745011008943,0.02275705030097859,-0.08458210055770138, ,0.00046186512083496166, ,0.003297789185983368,0.002073507994963969,-0.0046742562502447025,0.018082476894741163,0.005229086788867611,0.0005094278702081229, ,0.006084695589207402, ,0.018823371564707373, ,4.346184603542316e-05, ,0.1538600070531749,-0.25587730832168065,0.0947069474,-4.531189988757087,0.14852387524503374,-1.3654051886193352, ,0.033819294924615384,-0.00729382643861146,0.005492693627586208,0.011512352133308134,0.03851371325688823,-0.0038163900815706506, ,2.021862030029297
0.011779345332742492,0.022551796886879333,-0.08441405722087489, ,0.01211335789488928,0.022768284880850698,-0.08461234092637271, ,0.00044468851016363654, ,0.0034669851049622964,0.001809464310892777,-0.00402981108046885,-0.005868395278320202,-0.007770440800417711,-0.0017124234170922121, ,0.005615471855035391, ,0.00973744382847346, ,4.381328495299958e-05, ,0.15418436183389234,-0.2559390901846745,0.09475491013000001,-4.531189988757087,0.14852387524503374,-1.365078473658773, ,0.03538290140136867,-0.006434349889863137,0.004813784079782412,0.010309347862256778,0.023826804126276007,0.017259382554320763, ,2.0256829261779785
0.011779345332742492,0.022551796886879333,-0.08441405722087489, ,0.012135173161061783,0.022779374197470302,-0.08464268987195983, ,0.0004802892512271854, ,0.0034669851049622964,0.001809464310892777,-0.00402981108046885,-0.005868395278320202,-0.007770440800417711,-0.0017124234170922121, ,0.005615471855035391, ,0.00973744382847346, ,4.4198248366059563e-05, ,0.15418436183389234,-0.2559390901846745,0.09475491013000001,-4.531189988757087,0.14852387524503374,-1.365078473658773, ,0.03538290140136867,-0.006434349889863137,0.004813784079782412,0.010309347862256778,0.023826804126276007,0.017259382554320763, ,2.029680013656616
