NicholasDascanio/dvrk_moveit_final/test/execution/second_exp_sharpbends/firstexp_200vel4.csv
Current Position (x),Current Position (y),Current Position (z), ,Planned Position (x),Planned Position (y),Planned Position (z), ,Position Error,,Cartesian linear Velocity(x),Cartesian linear Velocity(y),Cartesian linear Velocity(z),Cartesian Angular Velocity(x),Cartesian Angular Velocity(y),Cartesian Angular Velocity(z), ,Total Linear Velocity, ,Total Angular Velocity, ,MSE, ,Joint 1 Position,Joint 2 Position,Joint 3 Position,Joint 4 Position,Joint 5 Position,Joint 6 Position, ,Joint 1 Velocity,Joint 2 Velocity,Joint 3 Velocity,Joint 4 Velocity,Joint 5 Velocity,Joint 6 Velocity, ,Time Stamp
0.00979399213712626,0.019995928345730517,-0.07860982720084102, ,0.010001885980259072,0.020009841605442977,-0.07868979100944137, ,0.00022317625208393286, ,-0.003552840490006103,0.0005855681909701456,0.0004907714057930874,-0.036246544180192665,0.4416270690614862,0.17810715565132784, ,0.0036340641472663877, ,0.44311204011270716, ,1.8598021006994406e-05, ,0.1759084094090859,-0.23525761154750124,0.08913808556000001,-4.472896184468389,0.4841031186689555,-0.7974298216893928, ,0.0024766998266575104,6.512679414693413e-06,0.0009986497546424535,-0.0117217921381802,0.45961930170208926,0.13204555691463138, ,0.055190086364746094
0.009853990445569323,0.020013899370719547,-0.07870624733022633, ,0.010088775057635738,0.020037302833501913,-0.07886813831178817, ,0.0002861472104432258, ,0.0040257966099867416,0.00038488307614972534,-0.004069709179313006,-0.13196143344584146,-0.33451259781190695,-0.06068957805238129, ,0.005737395413554112, ,0.35960046998138845, ,2.315106647850721e-05, ,0.17611692319668995,-0.23524988881462702,0.08923012215000001,-4.472896184468389,0.48082384267458494,-0.8031687022351567, ,0.006370848100121774,4.0753216599142926e-05,0.00316676173359841,-0.010201577256318801,-0.3516207977209911,0.06630003339726857, ,0.10850000381469727
0.00990428865624503,0.020054462506710023,-0.07886560921855346, ,0.010177740260272742,0.020064518547510787,-0.0790481420458237, ,0.00032893029160170373, ,0.0006529224247269394,0.0007294617810275517,-0.0025265648825506196,0.0036229093694495236,0.07441830339637279,0.024746995544375195, ,0.002709603714278016, ,0.07450643832979052, ,2.619542981652695e-05, ,0.17663434629926297,-0.2352189978831301,0.08940901017000001,-4.473105874411874,0.4832832996703629,-0.8020704323763508, ,0.011169602349160873,0.0008448215497884686,0.0030282911634981,0.0034488078252877057,0.08830764195259092,0.0141465644882523, ,0.16179704666137695
0.010004831003734909,0.02009907381292548,-0.079043970773646, ,0.01026875804094943,0.020091488332325415,-0.07922976580074713, ,0.00032285416612501535, ,0.0019107990764161834,0.0008539074119306351,-0.003726008658552346,0.005811719280977762,-0.013608398678711045,0.004486449808114959, ,0.004273575961907085, ,0.014797452310498465, ,2.7645426672711374e-05, ,0.17753018331267303,-0.23516493875301053,0.08960604625000002,-4.47247680458142,0.4838298456694246,-0.8020260315502932, ,0.015906292584390008,0.0008678399389612868,0.0040490115709201835,-0.006150469866231269,0.004691555939269967,-0.007286859739028832, ,0.21465206146240234
0.010088818700694637,0.02012861534325605,-0.07918163136587186, ,0.01036180496747334,0.020118211792295206,-0.0794129734052828, ,0.00035797887496496475, ,0.002027867131851589,0.0007851679003477684,-0.0038745425721099834,0.003385504231996088,-0.015548315590597432,0.00431007104591622, ,0.004443063569123579, ,0.015912628812880095, ,2.978601559252632e-05, ,0.17830245660009547,-0.2350877114242683,0.08975641589000001,-4.47247680458142,0.484239755168721,-0.8023602852613825, ,0.01683764044685429,0.002112672887183837,0.004136279283303039,-0.006150469866231269,0.003517177413194027,-0.006271736461520414, ,0.26191210746765137
0.010191117401873338,0.02017044267209863,-0.07937622277454345, ,0.01045685772244446,0.02014468855119748,-0.07959772892709407, ,0.00034690945265070664, ,0.002082763130329147,0.0008898266111230734,-0.003530458102823565,0.011091387439992946,-0.006126981634217323,-0.0035135974433105704, ,0.004194499740220972, ,0.012671179058856227, ,3.109993746449248e-05, ,0.1791596799491344,-0.23500276136265183,0.08996900745000001,-4.472686494524905,0.4845130281682518,-0.8026647998089158, ,0.019047960971190443,0.0006620384967312171,0.00392722177514793,0.004106673780222768,0.013577056549877065,-0.008988293234720324, ,0.3092532157897949
0.010297303787113877,0.02022037908201373,-0.07959587669893682, ,0.010553893103024794,0.020170918252166176,-0.07978399667219428, ,0.0003219838118092723, ,0.002151245849552277,0.0007415330667709292,-0.004174445332871582,-0.016764180243974053,-0.03004796988500147,0.021059599862340777, ,0.004754337370387584, ,0.03440811288337056, ,3.1709855937374225e-05, ,0.1800709624282929,-0.23487147490379,0.09021011739000001,-4.471847734750966,0.48560612016637533,-0.8034744642983467, ,0.01637848490826213,0.0024056748704092247,0.004430823788595272,-0.02194146018698237,-0.010007300103391492,0.009234233732822752, ,0.3566141128540039
0.010372296922755861,0.020248592328144487,-0.07973485537059342, ,0.010652888020704996,0.020196900557623593,-0.07997174118435738, ,0.0003708345886652096, ,0.001839033895681655,0.000817292999780153,-0.004009651513606027,0.022784383612233332,0.00421688726497486,0.011662271460169, ,0.004486348044625917, ,0.023171324385077782, ,3.280531600441065e-05, ,0.18071967198972774,-0.23477880210929933,0.09036178332000001,-4.471847734750966,0.4860160296656717,-0.8036453605291548, ,0.016398296450401032,0.002191847847723736,0.00439658060171129,-0.013339280605074838,0.027500103756348888,-0.023464516359964802, ,0.4036540985107422
0.01047417393577147,0.020282918813893,-0.07992552301812998, ,0.010753819501072289,0.02022263514921089,-0.08016092724452971, ,0.00037047390222088954, ,0.0019106069654124733,0.0005824723581543839,-0.003496502883718469,0.0204243639640471,0.0004888098323534073,-0.0024711861013322605, ,0.0040268133108139195, ,0.020430212379353063, ,3.366998333982667e-05, ,0.1815923408045151,-0.23460890198606638,0.09056530085,-4.472057424694451,0.4866992121644989,-0.803630698866653, ,0.017460338833205295,0.00406065975600435,0.0038235265290446473,0.0,0.021316600445308673,-0.021860859615188574, ,0.45176005363464355
0.010557259924944079,0.020317157187066025,-0.0801005616381225, ,0.01085666468357789,0.02024812172771872,-0.08035151987024176, ,0.00039672299959580203, ,0.0024768046609633856,0.0009657006257266056,-0.005212105012266755,-0.01901071783313578,-0.02140938727246807,-0.0020519338829330207, ,0.0058509125515593665, ,0.028631612809395215, ,3.501064789642866e-05, ,0.18230283222894378,-0.2344544473285819,0.09075974435,-4.471638044807482,0.48751903116309153,-0.8042175275486909, ,0.01776763556608702,0.004168048864700939,0.005542383966597078,0.005030508791424155,-0.006670174235262639,0.015511615778348675, ,0.493725061416626
0.010652209803516183,0.02034768620136601,-0.08028568782649341, ,0.010961400821304848,0.020273360013017456,-0.08054348431501775, ,0.00040936841262009197, ,0.0023824964302144223,0.0007349827872110376,-0.00465154167226711,0.01482026023029529,0.003280626680154701,-0.0032984222612512564, ,0.005277625305600851, ,0.01517901915574859, ,3.626582488136713e-05, ,0.18312144191361157,-0.23424593354097784,0.0909606693,-4.471638044807482,0.48833885016168416,-0.8047226774905883, ,0.020980973150225686,0.0059245969241109855,0.005063195015893199,0.003960610307128483,0.026322851700200156,-0.015880911255208522, ,0.5358099937438965
0.010780171004208085,0.020384872336237304,-0.08051875793372833, ,0.01106800528073375,0.020298349743990116,-0.08073678606778968, ,0.0003713098395605771, ,0.002540298207984433,0.0007912755332126886,-0.004840346496817738,0.03496208056768771,0.023175598471521022,-0.007078038123939328, ,0.005523421599353583, ,0.04194586319862438, ,3.6997205426499025e-05, ,0.18424896091324836,-0.23394474695888307,0.09121474214000001,-4.471218664920513,0.4894319421598077,-0.8050422695391758, ,0.024706311262293876,0.006628419924632606,0.005379537831813577,0.009095691674755615,0.05170360934855384,-0.03191506941909426, ,0.5785911083221436
0.010887883272780171,0.020413597597220664,-0.08070649355633921, ,0.011176455541512458,0.020323090678460005,-0.0809313908523056, ,0.0003768875831834245, ,0.002165466217573344,0.0006622238084422077,-0.0040816896667897635,0.06191964089503979,0.04297203164501194,-0.008090853245365848, ,0.004667759082032559, ,0.07537000352353494, ,3.7677120886763157e-05, ,0.1852065797896522,-0.23370534223978212,0.09141955596000001,-4.471218664920513,0.4902517611584003,-0.8046489533395269, ,0.023747983372990687,0.006558968246534268,0.00468908198999117,0.008093217359677772,0.07069016977049603,-0.03558793391018694, ,0.6208891868591309
0.010970228524724106,0.020435325815767916,-0.08084792422370896, ,0.011286729196221802,0.02034758259312383,-0.08112726462654254, ,0.0004311642480931055, ,0.0028253678865619476,0.0007552465728832619,-0.004672724552308548,-0.004313183180139511,-0.017044949847147134,-0.005763123459693158, ,0.005512481820560914, ,0.017582202996482815, ,3.900588598109461e-05, ,0.1861873668646787,-0.23346593752068115,0.09162696236000001,-4.471008974977028,0.4909349436572275,-0.8044709341967441, ,0.02527215487575786,0.006025372636774952,0.00547193800068705,0.0013846746272001915,0.0007807822138871909,0.005876478109918528, ,0.6576611995697021
0.011081149548463853,0.020472415825485125,-0.08106147298883641, ,0.011398803950143031,0.02037182528348158,-0.08132437358211732, ,0.0004244284368349703, ,0.003062047569406126,0.000950238806950569,-0.005734105095402088,0.0005139252769131968,-0.005115407386419032,-0.0001022226018745128, ,0.00656955480627546, ,0.005141158013539985, ,4.014413586806685e-05, ,0.1868824128233589,-0.23328831466457398,0.09180714667,-4.470799285033544,0.4918913991555856,-0.8050875020423379, ,0.025745236451023,0.0064302933955273835,0.006234368500978474,0.0039287644399001965,0.021098810721073193,-0.0021831777740044956, ,0.6944241523742676
0.011201078454840177,0.020505290111972725,-0.08127498891280341, ,0.011512657621025553,0.0203958185637673,-0.08152268414369777, ,0.0004128177855605056, ,0.00262026967045532,0.0006419602768168047,-0.0045528820789371115,0.022271896450691126,0.01826703155349361,-0.0011653280322850637, ,0.005292132024772762, ,0.028804892142314204, ,4.108562754295284e-05, ,0.18796359542575033,-0.23300257354822768,0.09204177516,-4.470589595090059,0.49325776415324,-0.8057116086384587, ,0.025427905026385523,0.007220609327766217,0.005068027846007001,0.005492488198009756,0.047003602578945536,-0.020612713355371903, ,0.7313730716705322
0.011321556299490174,0.020533759690953807,-0.08148299962753126, ,0.011628268138853565,0.020419562266880024,-0.08172216296841346, ,0.00040535454566674873, ,0.0025973427341541865,0.0008527153065287791,-0.005498318870184074,0.05849376948410985,0.05403009676905007,0.00010897109375975628, ,0.0061404253167736105, ,0.07962896721864438, ,4.1886683004626846e-05, ,0.1890216098295191,-0.23270138696613293,0.09226862591000001,-4.470589595090059,0.49421421965159806,-0.8055113890826469, ,0.02691348314193726,0.00819839083428361,0.006195570408401401,0.004740360163633515,0.0897584571799237,-0.0516863910023138, ,0.768909215927124
0.01141690729276482,0.020556493007833444,-0.08164307605939211, ,0.011745613545614457,0.02044305624431334,-0.08192277694526666, ,0.00044626033381802165, ,0.003055566017866815,0.0006371210240842333,-0.00505975376620339,-0.01995876995851948,-0.015670821176182174,0.005011358370754745, ,0.005945041216297999, ,0.025375719325306467, ,4.2880537243494595e-05, ,0.18985566497993533,-0.23246970497990618,0.09244362506,-4.470379905146574,0.49489740215042527,-0.8050066549793017, ,0.025661693228358783,0.007710217477616659,0.0054681810916580855,0.0010981810108683938,0.008759230755787698,0.015266548710734601, ,0.8062310218811035
0.011514077313107818,0.020585212577885856,-0.0818300785462924, ,0.011864671995064155,0.020466300366088288,-0.08212449319454458, ,0.00047300817142636076, ,0.003279579881173993,0.0010813280811614607,-0.006734054439197237,0.014192729954920469,0.00016014577892286934,-0.006465315490752127, ,0.007567853315583063, ,0.014193632952698517, ,4.42288181682783e-05, ,0.19069744286322582,-0.23222257752793102,0.09264843888,-4.47017021520309,0.49612713064831426,-0.8058460586322883, ,0.02607058834023922,0.007878719451508972,0.007293411868131869,0.007057689376679045,0.027700387535971805,-0.01633304551265575, ,0.8381791114807129
0.011654977904873028,0.020623311923197406,-0.08208748318996728, ,0.011985421752495676,0.02048929452068222,-0.0823272790672295, ,0.0004297160264180708, ,0.0034347429436388513,0.0009616371259307892,-0.0063148331894571025,0.03707191179143469,0.015044892869508365,-0.0007597964906670487, ,0.007252539090657441, ,0.0400084420502117, ,4.5218836947846985e-05, ,0.19184040732861105,-0.23189050001433936,0.09292714123000001,-4.469960525259606,0.49681031314714147,-0.8062397906704893, ,0.031103553444270987,0.008339857732265737,0.006983258009644893,0.00035643770608077396,0.052559977724533274,-0.03746089060938171, ,0.8717482089996338
0.01176404343653023,0.02064883520438304,-0.08227778099806156, ,0.012107841194506103,0.020512038614959635,-0.0825311021444095, ,0.0004484214629722176, ,0.003950184907129887,0.0007250883112446174,-0.005930729418956158,-0.021152217093431135,-0.03184664802720287,-0.006475931342614712, ,0.007162629775472998, ,0.03823120807924872, ,4.6248537187876845e-05, ,0.192767135273518,-0.23160475889799303,0.09313454763000001,-4.4697508353161215,0.4976301321457341,-0.8064999043919651, ,0.03264428674182002,0.009417949170946583,0.00641256502415459,0.009092780415547057,-0.002782975055884953,0.013968086104171721, ,0.9031641483306885
0.01187458403646969,0.020665850123236344,-0.0824423934840322, ,0.01223190880876307,0.020534532574103984,-0.08273593023669062, ,0.00048071729401582273, ,0.0034189684892071436,0.0008097367534802,-0.005862258155517375,0.04559113168023236,0.02477199846897112,-0.00479841251905796, ,0.006834551179269785, ,0.05188644513847051, ,4.7390256687250785e-05, ,0.1937788132800414,-0.23128812685014985,0.09331602823000001,-4.469541145372637,0.4985865876440922,-0.8070347934974184, ,0.03266676129379373,0.009271547790506787,0.006560466029654037,0.005156202602622607,0.0640327629281849,-0.04420869092769544, ,0.9354519844055176
0.01199772410335679,0.020687813885089078,-0.08263707607877002, ,0.012357603193772292,0.020556776341547546,-0.08294173138360789, ,0.0004893859952037244, ,0.0043567420472291766,0.0008265980786487498,-0.006591475654844056,-0.022740437323752544,-0.03123244457000833,-0.0016296342618931422, ,0.007944307204415144, ,0.038634092082660616, ,4.850462872573024e-05, ,0.19481365948518747,-0.2309560493365582,0.09352732350000001,-4.469331455429152,0.4989964971433885,-0.8067972960275236, ,0.036082487284589654,0.010036253347930043,0.007155800323450135,0.005744191316884619,0.002175439532374906,0.015386282081936625, ,0.9667680263519287
0.012124094825768792,0.02071677841768502,-0.08285513503144747, ,0.012484903058644857,0.020578769878901917,-0.08314847385303542, ,0.00048505319495783725, ,0.004296127036804254,0.0008771547206515317,-0.006948329919038319,-0.005457699378096726,-0.0148434109867157,-0.0019670536160272317, ,0.008216166781664355, ,0.015814971262270414, ,4.978785651054075e-05, ,0.1959180102862016,-0.23063169455584076,0.09376713715000001,-4.469331455429152,0.500362862141043,-0.8075030813637851, ,0.03609621208005735,0.010738472562548953,0.0075815380866254166,0.005744191316884619,0.02109344620316841,8.728139806843567e-05, ,0.9930050373077393
0.012250051028498344,0.02074730888643453,-0.08307342102891065, ,0.012613787222863916,0.02060051316588928,-0.08335612614059794, ,0.0004835030329130035, ,0.00449976616015521,0.0010872468817632974,-0.007643931182701369,-0.018399439400847196,-0.019473455076922025,0.0013390735977989263, ,0.008936424632024619, ,0.026790946172200666, ,5.099694800724333e-05, ,0.196929688292725,-0.23032278524087177,0.09400435822000001,-4.468912075542183,0.5009094081401047,-0.8073770017975868, ,0.03609621208005735,0.010076371522699313,0.008309239186228482,0.005389572628337896,0.014937435977879067,0.013281828455384958, ,1.0231201648712158
0.012390285141457564,0.020773370245534543,-0.0832954131523405, ,0.012744234616052282,0.020622006200272238,-0.08356465696908211, ,0.00046976966442889307, ,0.00471858837054577,0.000758990881823561,-0.006898423424396118,-0.0077545475212367305,-0.02331087514306798,-0.0029550858690255335, ,0.008392221941273845, ,0.02456684537282656, ,5.207626923534723e-05, ,0.19811126642248134,-0.22996753952865745,0.09424676445,-4.468912075542183,0.5015925906389319,-0.8076890550956473, ,0.04033019190755239,0.01189421661310426,0.00755636220113852,0.005389572628337896,0.016673519824276454,0.000364174399040624, ,1.0497331619262695
0.01248449050287379,0.020791893293703862,-0.08344861359290988, ,0.012876224277738883,0.02064324899778542,-0.08377403528784791, ,0.0005305183848044142, ,0.004534553169264863,0.0010790943108737695,-0.007892610261531537,0.04103096334412785,0.016521533904278796,-0.006730324450117435, ,0.009166237707864828, ,0.04423235246819322, ,5.3400470405090745e-05, ,0.1989221533742749,-0.22971268934380804,0.09441528215000002,-4.468702385598698,0.5024124096375245,-0.8081942050375447, ,0.03987266452036587,0.011819582949012234,0.008747288039538717,0.00695714331005837,0.06227648197303001,-0.04195633937831802, ,1.0762979984283447
0.012590326556034322,0.020814746989840056,-0.08362466667071729, ,0.013009735357126361,0.020664241592065404,-0.08398423027223836, ,0.0005725745372714155, ,0.00519894181548325,0.001096502064091535,-0.008895178218908908,0.00031661650344662806,-0.020757799953831996,-0.008697389622211626, ,0.010361250326263173, ,0.020760213130988532, ,5.51263004803362e-05, ,0.19974848579181695,-0.22945783915895862,0.09460583678000001,-4.468492695655214,0.50254904613729,-0.8080605867208195, ,0.04118790866253071,0.013646382162564103,0.009647977904300425,0.00886702194913938,0.020364013373965414,-0.00859960064186322, ,1.097210168838501
0.012754082271884872,0.020847749847172498,-0.08389245483066862, ,0.01314474711285781,0.020684984034582014,-0.08419521132299299, ,0.0005203587429506716, ,0.005155713860280039,0.001187753980128622,-0.008879414402271022,0.027489219426679125,0.003405577000878018,-0.008115819011325905, ,0.01033615717051812, ,0.027699369743718727, ,5.654070397575755e-05, ,0.20109996404480623,-0.2290408115837505,0.09489879832,-4.46828300571173,0.503505501635648,-0.8085954758262726, ,0.04866509823511321,0.01506061602261082,0.008752094241758242,0.008408112627128,0.028566587460248725,-0.015260252511807269, ,1.120793104171753
0.01285296798916275,0.020864410542996446,-0.08404627632221, ,0.013281238912783844,0.02070547639456861,-0.08440694806565693, ,0.0005820310593746684, ,0.005926404075016719,0.0010283020028232013,-0.009563976002292252,-0.0010936872543747564,-0.025488082556813958,-0.004636390045712306, ,0.011298199292002556, ,0.025511535120695508, ,5.81882421399781e-05, ,0.20192629646234825,-0.22877051593315265,0.09506731602000001,-4.468073315768245,0.5040520476347098,-0.8087961112206367, ,0.04787938524645347,0.016141680823009145,0.010404187798824299,0.004499236510664421,0.023629477326222715,-0.009915540583596005, ,1.1420960426330566
0.012993200340498588,0.02089151656101784,-0.08427837207508904, ,0.013419190233730465,0.02072571875895168,-0.08461941034999176, ,0.0005703186874496606, ,0.006967246240186086,0.0014399415933116569,-0.012112990831095205,-0.024134563161511642,-0.036790850302576235,-0.008627855693670606, ,0.01404779337966403, ,0.04400049481783108, ,5.972263177129513e-05, ,0.2030769836606077,-0.22839210202231566,0.09532138886000001,-4.46786362582476,0.5050085031330679,-0.8090859641056682, ,0.05240029903836045,0.018574464975234056,0.013067113634126335,0.01259998001060465,0.012317422259132514,0.011524935651359995, ,1.1632821559906006
0.013150156459540785,0.020925879500872772,-0.08455121445003502, ,0.013558580661264958,0.02074571123228361,-0.08483256824938894, ,0.0005276655133428065, ,0.006863499241884242,0.0013821378793369447,-0.011949662278765105,0.014087156934330967,0.004200424993647702,0.002175169465570209, ,0.013849633769070762, ,0.014700044794596443, ,6.10118058170881e-05, ,0.20432806638623208,-0.22798279717998174,0.09561953556000001,-4.467653935881276,0.5061015951311915,-0.8095689136345368, ,0.0560856628596163,0.019343037415097998,0.01309935157894737,0.004143563962979525,0.06495243731129868,-0.021024043349396657, ,1.1843461990356445
0.013222134307756497,0.020937568900006958,-0.08466680426148437, ,0.013699389889463596,0.02076545393667179,-0.08504639206027871, ,0.0006336271363096579, ,0.007019188397332346,0.0009298989361963316,-0.0106369936988684,-0.012991733751407119,-0.027251691743591284,-0.010415172866782792, ,0.012778080948974698, ,0.030190059830697148, ,6.299679136271978e-05, ,0.2048995486189247,-0.22777428339237768,0.09574527569,-4.467444245937791,0.5063748681307223,-0.809546713221508, ,0.05737420892289647,0.020774286680926176,0.011609920932944608,0.014684611609390908,0.028253002061381743,0.0010800228421189995, ,1.2002100944519043
0.013387731129843577,0.02096122069570836,-0.08491716507648582, ,0.013841597720679222,0.020784947011708806,-0.08526085230154161, ,0.0005959766795891383, ,0.007313826250636838,0.0012252730903093033,-0.011442126034360055,0.036958867421872994,0.01982326705639524,-0.007115466732837358, ,0.013635086972825687, ,0.04193947545894492, ,6.4766297038811e-05, ,0.20630508600203354,-0.2273109194199242,0.09602138546000001,-4.467444245937791,0.5076045966286112,-0.8098143656935106, ,0.06394672611756791,0.020787939005141462,0.012753251817453966,0.013655501581329733,0.08946111365582804,-0.03987944792941488, ,1.216243028640747
0.013461827037738605,0.020973067102448322,-0.08503245632590477, ,0.013985184065306787,0.02080419061440565,-0.08547591971392192, ,0.000706457092136727, ,0.007760537814043083,0.0012465594773258502,-0.012099207332032154,-0.008264766013924014,-0.015176714988366953,-0.003815945211791222, ,0.01442812100577217, ,0.017281168242157013, ,6.69644009058509e-05, ,0.20692290463197152,-0.22711012836519437,0.09614842188000002,-4.467444245937791,0.508151142627673,-0.8099333223477341, ,0.06360384822953806,0.021421431503040808,0.013296169883138568,0.012418632415933795,0.04837343980359979,-0.0009654548805675782, ,1.2322561740875244
0.013632425840259034,0.02100436329015171,-0.0853079595233932, ,0.014130128941552625,0.020823184919118345,-0.08569156525943442, ,0.0006539780882348269, ,0.00868640667509574,0.0017304907555017787,-0.014842713266908017,0.028894171850902622,-0.004402697716141563,-0.007460396802023499, ,0.01728451319255686, ,0.029227661448381053, ,6.888425211566984e-05, ,0.20828210561783503,-0.22665448712561514,0.09645045745000001,-4.4670248660508225,0.5091075981260311,-0.8103048539729061, ,0.0691164905742686,0.023495157602988554,0.016287128343558284,0.008429117997098827,0.07047574732917072,-0.03908121619896987, ,1.248047113418579
0.013704071478061033,0.021017875899465025,-0.08542849560749505, ,0.01427641247519948,0.02084193011748254,-0.08590776012078025, ,0.00076695867483024, ,0.009182136183930193,0.0016578968234137676,-0.015088903033875998,0.015222171064701124,-0.014259303934475569,-0.005753308997078734, ,0.017740779056823797, ,0.020857647481723744, ,7.152790829465681e-05, ,0.20885358785052763,-0.22646141880375953,0.09658267903000001,-4.4670248660508225,0.5096541441250929,-0.8105054893672703, ,0.0732794915509427,0.024894265886272502,0.016558016133056134,0.008429117997098827,0.06325179962101468,-0.027431601179258983, ,1.2588181495666504
0.013828728052451694,0.021041202464009513,-0.08563249596790724, ,0.014424014899374957,0.02086042641834162,-0.08612447570075533, ,0.0007931522340260032, ,0.010477122724176577,0.0020714858217386056,-0.017110622211298172,-0.019052346884233042,-0.04725260792202338,-0.010018106640379026, ,0.020170139973358925, ,0.05094898831744435, ,7.423664336730968e-05, ,0.2098189294598057,-0.2261370640230421,0.09680564091,-4.466815176107338,0.5102006901241547,-0.8104610885412126, ,0.07967837242524835,0.025434720331940705,0.01867387048065651,0.01451474601303045,0.03053005541426264,0.0031999536130315476, ,1.2695879936218262
0.013936048153879842,0.021065050001394556,-0.08581902936652282, ,0.014572916554318126,0.02087867404767803,-0.08634168362166222, ,0.000844692148664761, ,0.010888759289770494,0.0027175267025028567,-0.020024502085762216,0.04319476344982783,0.014320678383773891,-0.006967629459641599, ,0.0229549714448107, ,0.04550677091607704, ,7.7113580813302e-05, ,0.21065298461022194,-0.22587449110531846,0.09701045473000001,-4.466815176107338,0.5110205091227473,-0.8107212022626883, ,0.08360964013962183,0.027152200732037418,0.022001120883977904,0.01295408255414276,0.10565274460269472,-0.049935789050850464, ,1.2801470756530762
0.014044332330677544,0.021092313386518576,-0.08601875669766175, ,0.014723097887147209,0.02089667324854306,-0.08655935572471997, ,0.000889519562625211, ,0.012011828161580026,0.0029602111053328465,-0.022125678090525607,0.0749601199698897,0.005680579690600009,-0.009091886779605474, ,0.025349408208812842, ,0.0751750175855902, ,8.012707426001761e-05, ,0.21147159429488974,-0.2256041954547206,0.09722952774000002,-4.4666054861638536,0.5119769646211053,-0.8113377701082821, ,0.09133488119198342,0.029655294237022116,0.024281724878048784,0.002806057784727704,0.11095643005409879,-0.08756068327810129, ,1.2913551330566406
0.014176706473484912,0.021125070359381822,-0.0862549467515892, ,0.014874539451625377,0.020914424280990305,-0.08677746406947978, ,0.0008968650864080263, ,0.01256289565465062,0.003076839766944556,-0.02221560303302774,0.001200288002520739,-0.01741991996310695,-0.0071019014337772406, ,0.02570654213040257, ,0.017461067883955253, ,8.312142766606636e-05, ,0.2124678268356647,-0.2252952861397516,0.09748878574000001,-4.466395796220369,0.5129334201194634,-0.8117093017334541, ,0.09358672737521774,0.028756648957112357,0.024355980917431196,0.018459662339658983,0.07737169442794187,-0.011348962864701655, ,1.3020751476287842
0.01430181622963833,0.021152248379060146,-0.08647256884318905, ,0.015027221907929796,0.020931927422001766,-0.08699598093323004, ,0.000921257259519674, ,0.01312742441019414,0.0023989958399027638,-0.021518570337854624,0.0022924787827277387,-0.03139311007313238,-0.014331485548530464, ,0.025320610618040564, ,0.03147662950737937, ,8.616584058617742e-05, ,0.2134100002463201,-0.22497865409190843,0.09772730310000001,-4.466186106276885,0.513753239118056,-0.81196941545493, ,0.10042004397721775,0.0344078830886406,0.023598239288888892,0.019939722647559072,0.07031502878121768,-0.019505916597932455, ,1.3127679824829102
0.014436521576553823,0.021176936305173723,-0.0866917976652451, ,0.015181126022416995,0.020949182965422905,-0.08721487881041264, ,0.000938041176599747, ,0.013273077172757832,0.0025222967051346905,-0.02119818907700275,0.021398219389968737,-0.012743127360942958,-0.011041812895882967, ,0.025137616801261753, ,0.024905156243342164, ,8.922867856788697e-05, ,0.2144525691843404,-0.22463885384544255,0.09796841304000001,-4.466186106276885,0.5145730581166488,-0.8123112079165463, ,0.10451205017452729,0.032689266813114286,0.023459221678939622,0.01915587838925597,0.09594086865023407,-0.03300476059417823, ,1.3236560821533203
0.014569771225635903,0.021198682473580387,-0.08689566007892602, ,0.015336232667391496,0.0209661912218897,-0.08743413041203107, ,0.0009651246673073049, ,0.014084162753020399,0.002102208803453896,-0.020605724298155527,0.014340316488410205,-0.04028816243006805,-0.014340747764929265, ,0.02504753073974525, ,0.0427642022507753, ,9.271830402103207e-05, ,0.21551058358810918,-0.2243067763318509,0.0981939675,-4.466186106276885,0.5153928771152414,-0.8125713216380219, ,0.11270420612644985,0.03543575114207273,0.0228533881205165,0.016499858060163103,0.07609245395235655,-0.03298174387060327, ,1.3290691375732422
0.014569771225635903,0.021198682473580387,-0.08689566007892602, ,0.015492522820871869,0.020982952518762032,-0.08765370866506422, ,0.0012135269172385834, ,0.014084162753020399,0.002102208803453896,-0.020605724298155527,0.014340316488410205,-0.04028816243006805,-0.014340747764929265, ,0.02504753073974525, ,0.0427642022507753, ,9.716595724808585e-05, ,0.21551058358810918,-0.2243067763318509,0.0981939675,-4.466186106276885,0.5153928771152414,-0.8125713216380219, ,0.11270420612644985,0.03543575114207273,0.0228533881205165,0.016499858060163103,0.07609245395235655,-0.03298174387060327, ,1.3344240188598633
0.014700468485360708,0.021217123557738485,-0.0870850110891792, ,0.01564997756635859,0.02099946720005236,-0.08787358671187548, ,0.0012533129288607315, ,0.015490701006815584,0.0021709091702327944,-0.022806254329151787,0.016606157791438658,-0.035365442350696344,-0.021275331662277512, ,0.0276550158349966, ,0.0390701013496591, ,0.0005476411522420928, ,0.21655315252612947,-0.22395925335251077,0.09840396648000001,-4.465766726389915,0.5160760596140685,-0.8126383387156606, ,0.12356372598759216,0.04118790866253071,0.02528382780952381,0.025419855206109065,0.09104843236572505,-0.036288186631953025, ,1.3397891521453857
0.014700468485360708,0.021217123557738485,-0.0870850110891792, ,0.015808578092601253,0.02101573562635657,-0.08809373790962442, ,0.001511950329491885, ,0.015490701006815584,0.0021709091702327944,-0.022806254329151787,0.016606157791438658,-0.035365442350696344,-0.021275331662277512, ,0.0276550158349966, ,0.0390701013496591, ,0.0005677309267681302, ,0.21655315252612947,-0.22395925335251077,0.09840396648000001,-4.465766726389915,0.5160760596140685,-0.8126383387156606, ,0.12356372598759216,0.04118790866253071,0.02528382780952381,0.025419855206109065,0.09104843236572505,-0.036288186631953025, ,1.3450801372528076
0.014892251091140785,0.021253661330393785,-0.08739058233521427, ,0.01596830569336527,0.021031758174785958,-0.0883141358296799, ,0.0014352998204475891, ,0.018094149879397333,0.004293562857580811,-0.030965965113817405,0.0917323167581763,0.05719663342060801,-0.08035723742011874, ,0.03612096257438675, ,0.10810293400337362, ,0.0005854364143942416, ,0.21808225363522593,-0.2234572757156862,0.09874489075000001,-4.464927966615977,0.5179889706107847,-0.813544759446286, ,0.13934940023270306,0.044489892901299004,0.034477947012987016,0.09866589942732702,0.19327608024838636,-0.08229521149118187, ,1.3504111766815186
0.015079063140284295,0.021299158830294016,-0.08772175470231901, ,0.016129141767199713,0.02104753523889575,-0.08853475425702861, ,0.001697502841466283, ,0.020844114658636878,0.005510444726685965,-0.038407182234937574,0.14927670632785042,0.07508415957539556,-0.05328407321039125, ,0.04404490622326226, ,0.16709602777731933, ,0.0006076777429356824, ,0.21951095921695746,-0.22300935720898116,0.09911303711000001,-4.464508586729008,0.5201751546070318,-0.8146740159843043, ,0.15506036202364507,0.049322734697749886,0.04259040513368984,0.06038793029558267,0.244465537145855,-0.14673460719971665, ,1.3566770553588867
0.015079063140284295,0.021299158830294016,-0.08772175470231901, ,0.01629106781720395,0.021063067228618514,-0.08875556718968977, ,0.0016104231867122836, ,0.020844114658636878,0.005510444726685965,-0.038407182234937574,0.14927670632785042,0.07508415957539556,-0.05328407321039125, ,0.04404490622326226, ,0.16709602777731933, ,0.0006273394183038511, ,0.21951095921695746,-0.22300935720898116,0.09911303711000001,-4.464508586729008,0.5201751546070318,-0.8146740159843043, ,0.15506036202364507,0.049322734697749886,0.04259040513368984,0.06038793029558267,0.244465537145855,-0.14673460719971665, ,1.3619441986083984
0.015311639221696666,0.021359962602919363,-0.08815797737734983, ,0.01645406545079551,0.021078354570191,-0.08897654883812255, ,0.0014333527163338821, ,0.023716299359427775,0.006696779910366277,-0.045088785909907954,0.023537685995158868,0.03332052565661485,0.00017080493876947545, ,0.051383930671985316, ,0.0407933050429688, ,0.0006428396740351977, ,0.22118679225066418,-0.22247648864065966,0.09959396070000001,-4.464508586729008,0.5224979751030443,-0.8151795817647539, ,0.16532568215761462,0.05126793169015169,0.04962246579439253,0.03446178599762456,0.2049812525047744,-0.028541653487210092, ,1.367314100265503
0.015311639221696666,0.021359962602919363,-0.08815797737734983, ,0.016618116379476966,0.02109339770608774,-0.08919767362464, ,0.0016908304748418158, ,0.023716299359427775,0.006696779910366277,-0.045088785909907954,0.023537685995158868,0.03332052565661485,0.00017080493876947545, ,0.051383930671985316, ,0.0407933050429688, ,0.0006626130853711717, ,0.22118679225066418,-0.22247648864065966,0.09959396070000001,-4.464508586729008,0.5224979751030443,-0.8151795817647539, ,0.16532568215761462,0.05126793169015169,0.04962246579439253,0.03446178599762456,0.2049812525047744,-0.028541653487210092, ,1.3725850582122803
0.015565238613123207,0.02143192519288455,-0.08864405736117358, ,0.016783202418603076,0.02110819709495143,-0.08941891618282104, ,0.001479405930208235, ,0.026533177241436594,0.006949097166979459,-0.049983303641462536,-0.015544050423137758,0.020067654298740262,0.04297891834382917, ,0.05701429723215268, ,0.025377475722058288, ,0.0006777388787940803, ,0.2229244071473647,-0.22193589733946395,0.10012803218,-4.4642988967855235,0.5245475225995259,-0.8151355967772485, ,0.18319872887735672,0.05931058847404423,0.05492693627586208,0.0,0.2150620352398786,-0.001006029696521804, ,1.3779010772705078
0.015565238613123207,0.02143192519288455,-0.08864405736117358, ,0.016949305487148635,0.02112275321152096,-0.08964025135691842, ,0.0017330986420261477, ,0.026533177241436594,0.006949097166979459,-0.049983303641462536,-0.015544050423137758,0.020067654298740262,0.04297891834382917, ,0.05701429723215268, ,0.025377475722058288, ,0.0006969272381255724, ,0.2229244071473647,-0.22193589733946395,0.10012803218,-4.4642988967855235,0.5245475225995259,-0.8151355967772485, ,0.18319872887735672,0.05931058847404423,0.05492693627586208,0.0,0.2150620352398786,-0.001006029696521804, ,1.3834412097930908
0.015791845954618574,0.021491033016546913,-0.08906737370356689, ,0.017116407607475067,0.02113706654656565,-0.08986165420127432, ,0.0015844990827158202, ,0.02732077544571767,0.006594957600390618,-0.050297649907037625,0.04102712231351233,0.05268526173759448,0.013877997756408637, ,0.057617461093640715, ,0.06677304588470998, ,0.0007127767353503983, ,0.2244998446537065,-0.22140302877114246,0.10059469658,-4.46366982695507,0.5265970700960074,-0.8154183267503052, ,0.1924887252707318,0.06553656184977263,0.05550108543554008,0.022714427157755054,0.2595037572052136,-0.05339819703652471, ,1.389070987701416
0.015791845954618574,0.021491033016546913,-0.08906737370356689, ,0.01728449090509823,0.02115113760681267,-0.09008309997972788, ,0.0018371765581551203, ,0.02732077544571767,0.006594957600390618,-0.050297649907037625,0.04102712231351233,0.05268526173759448,0.013877997756408637, ,0.057617461093640715, ,0.06677304588470998, ,0.0007325030480311829, ,0.2244998446537065,-0.22140302877114246,0.10059469658,-4.46366982695507,0.5265970700960074,-0.8154183267503052, ,0.1924887252707318,0.06553656184977263,0.05550108543554008,0.022714427157755054,0.2595037572052136,-0.05339819703652471, ,1.3943541049957275
0.016108083186051537,0.02156141447771045,-0.08961188288456945, ,0.017453537608455465,0.021164966914880207,-0.09030456416503019, ,0.001564361092951705, ,0.028356514511846308,0.005115381103115563,-0.044431253079940176,-0.031097508840228362,-0.015008964848554756,-0.01950996251527831, ,0.05295654151608048, ,0.034527538629253604, ,0.0007468454281160194, ,0.2267780508516027,-0.2206616464152169,0.10119876772000001,-4.463040757124617,0.5293298000913162,-0.8156863950608602, ,0.20902410034905458,0.06763858984923077,0.04946835875776398,0.06246241623979168,0.18903804389154702,0.01637713990178208, ,1.3996400833129883
0.016108083186051537,0.02156141447771045,-0.08961188288456945, ,0.017623530048673102,0.021178555009205867,-0.09052602243825236, ,0.00181074893059771, ,0.028356514511846308,0.005115381103115563,-0.044431253079940176,-0.031097508840228362,-0.015008964848554756,-0.01950996251527831, ,0.05295654151608048, ,0.034527538629253604, ,0.0007648776908699464, ,0.2267780508516027,-0.2206616464152169,0.10119876772000001,-4.463040757124617,0.5293298000913162,-0.8156863950608602, ,0.20902410034905458,0.06763858984923077,0.04946835875776398,0.06246241623979168,0.18903804389154702,0.01637713990178208, ,1.4049241542816162
0.0163800639250899,0.021596492848889592,-0.0900109404843769, ,0.017794450659333536,0.02119190244397898,-0.09074745068819944, ,0.0016451840353239584, ,0.029365589739952378,0.0030894742200282335,-0.04059633510201335,-0.011636587396474404,-0.02371874018040929,-0.00481245203329372, ,0.050199055125035745, ,0.02641739082271117, ,0.0007795494632775133, ,0.2288554659947691,-0.2199588777236625,0.10164469148000001,-4.463040757124617,0.5312427110880324,-0.8157760283900799, ,0.22921966560017099,0.07901493884968425,0.04564129375358167,0.03793427559371158,0.21034694426431122,-0.017572573247406284, ,1.4102749824523926
0.0163800639250899,0.021596492848889592,-0.0900109404843769, ,0.017966281976242855,0.021205009789069723,-0.09096882501081963, ,0.0018939085136108905, ,0.029365589739952378,0.0030894742200282335,-0.04059633510201335,-0.011636587396474404,-0.02371874018040929,-0.00481245203329372, ,0.050199055125035745, ,0.02641739082271117, ,0.0007978176444305195, ,0.2288554659947691,-0.2199588777236625,0.10164469148000001,-4.463040757124617,0.5312427110880324,-0.8157760283900799, ,0.22921966560017099,0.07901493884968425,0.04564129375358167,0.03793427559371158,0.21034694426431122,-0.017572573247406284, ,1.4156770706176758
0.016714327437193467,0.021626732553516485,-0.09044346980294131, ,0.018139006637198078,0.02121787762996169,-0.09119012170861863, ,0.001659627138755076, ,0.029629844758843903,0.0017112098008069815,-0.03542012475025736,0.037933552585871465,-0.01940579687560747,0.02170381207765313, ,0.04621083397580444, ,0.04260849226913114, ,0.0008117177975647865, ,0.23154297703499924,-0.21908620890887512,0.10213598539000002,-4.462831067181131,0.5338388045835759,-0.8162593937575008, ,0.24584699885614195,0.07987958043642322,0.04063472326530613,0.0,0.2468738875338527,-0.0728962667739793, ,1.4212791919708252
0.016714327437193467,0.021626732553516485,-0.09044346980294131, ,0.018312607381754345,0.021230506567680135,-0.09141131729006782, ,0.0019100320864777688, ,0.029629844758843903,0.0017112098008069815,-0.03542012475025736,0.037933552585871465,-0.01940579687560747,0.02170381207765313, ,0.04621083397580444, ,0.04260849226913114, ,0.0008291513577062624, ,0.23154297703499924,-0.21908620890887512,0.10213598539000002,-4.462831067181131,0.5338388045835759,-0.8162593937575008, ,0.24584699885614195,0.07987958043642322,0.04063472326530613,0.0,0.2468738875338527,-0.0728962667739793, ,1.426659107208252
0.01703455380142594,0.021640884936064565,-0.09080391584604287, ,0.018487067050992477,0.02124289721872417,-0.0916323884690175, ,0.00171888215138171, ,0.03046653231903241,0.001053243772215053,-0.032705279114722347,0.021552082953524513,-0.03034859881481563,-0.048607661883547267, ,0.04470966557649755, ,0.03722220185462139, ,0.0008430534013574413, ,0.23423821080810361,-0.21819037189546509,0.10255339077000002,-4.461992307407194,0.5365715345788846,-0.8170992132490396, ,0.25647822042829943,0.08360964013962183,0.03801625661097852,0.07710427328436201,0.22603517893345887,-0.04477450920237529, ,1.4319231510162354
0.01703455380142594,0.021640884936064565,-0.09080391584604287, ,0.018662368587286298,0.02125505021499744,-0.09185331216410852, ,0.00197481190026197, ,0.03046653231903241,0.001053243772215053,-0.032705279114722347,0.021552082953524513,-0.03034859881481563,-0.048607661883547267, ,0.04470966557649755, ,0.03722220185462139, ,0.0008604650705713571, ,0.23423821080810361,-0.21819037189546509,0.10255339077000002,-4.461992307407194,0.5365715345788846,-0.8170992132490396, ,0.25647822042829943,0.08360964013962183,0.03801625661097852,0.07710427328436201,0.22603517893345887,-0.04477450920237529, ,1.4380772113800049
0.01737897175569062,0.02164764119928181,-0.09117680804568488, ,0.018838495034069962,0.021266966203737442,-0.09207406549818258, ,0.0017550477453410003, ,0.03318190097405157,0.0010214421837646034,-0.03828014147535517,-0.007868747768166338,-0.033810773533326316,-0.006103752309151682, ,0.050670021983020154, ,0.03471315887593283, ,0.0008740193535224123, ,0.2371110674373151,-0.21720186208756434,0.10298505534,-4.46136323757674,0.5390309915746625,-0.8174711607127638, ,0.2703616568617401,0.0954697601191859,0.04400224176795581,0.03910363817620261,0.24435879917300715,-0.030902118562716102, ,1.4433681964874268
0.017711561698802152,0.02166321894635587,-0.0915767850877661, ,0.01901542953560553,0.021278645847448013,-0.09229462579769532, ,0.0015372908277504298, ,0.034996495469763286,0.002098786852355757,-0.04303054953056418,-0.003920648775903963,-0.020484014777435198,0.012968174350225082, ,0.05550484478240724, ,0.02085230962811571, ,0.0008839189277646215, ,0.2397831330117968,-0.21628285687553161,0.10344394200000001,-4.46136323757674,0.541627085070206,-0.8177911685999035, ,0.2766674681004979,0.09480213941905173,0.04931520594427245,0.02476793791614352,0.2685523527059712,-0.03297013194697526, ,1.4491150379180908
0.017711561698802152,0.02166321894635587,-0.0915767850877661, ,0.019193155336750072,0.021290089823827983,-0.09251497059212559, ,0.001792913018156893, ,0.034996495469763286,0.002098786852355757,-0.04303054953056418,-0.003920648775903963,-0.020484014777435198,0.012968174350225082, ,0.05550484478240724, ,0.02085230962811571, ,0.000897286487917449, ,0.2397831330117968,-0.21628285687553161,0.10344394200000001,-4.46136323757674,0.541627085070206,-0.8177911685999035, ,0.2766674681004979,0.09480213941905173,0.04931520594427245,0.02476793791614352,0.2685523527059712,-0.03297013194697526, ,1.4543910026550293
0.01807851717130117,0.021682627515203733,-0.0920231926722059, ,0.019371655782723207,0.021301298825702978,-0.09273507761338838, ,0.001524598047771692, ,0.03662053167827288,0.00159995232632657,-0.04425099001513348,-0.03195305041031113,-0.03871806881432402,0.023417145544236132, ,0.05746105903275146, ,0.05019877099459479, ,0.0009063779597993947, ,0.24267143510675676,-0.2152711788690082,0.10395597655000001,-4.460943857689771,0.5443598150655148,-0.8180592369104585, ,0.28669770863586336,0.10182075274514032,0.05072869910828026,0.015917501744240937,0.25994570508093084,-0.01418800261724773, ,1.4596571922302246
0.01807851717130117,0.021682627515203733,-0.0920231926722059, ,0.019550914318874537,0.021312273560955622,-0.09295492479524614, ,0.0017813590768608288, ,0.03662053167827288,0.00159995232632657,-0.04425099001513348,-0.03195305041031113,-0.03871806881432402,0.023417145544236132, ,0.05746105903275146, ,0.05019877099459479, ,0.0009188776900431294, ,0.24267143510675676,-0.2152711788690082,0.10395597655000001,-4.460943857689771,0.5443598150655148,-0.8180592369104585, ,0.28669770863586336,0.10182075274514032,0.05072869910828026,0.015917501744240937,0.25994570508093084,-0.01418800261724773, ,1.464951992034912
0.018437510825935814,0.021701608939270062,-0.09246009367962588, ,0.019730914490451088,0.021323014752456876,-0.09317449027272029, ,0.0015253160622950193, ,0.03662053167827288,0.00159995232632657,-0.04425099001513348,-0.03195305041031113,-0.03871806881432402,0.023417145544236132, ,0.05746105903275146, ,0.05019877099459479, ,0.0009274190755678039, ,0.24545934167435182,-0.21429039179398168,0.10445764078000001,-4.460524477802802,0.5469559085610581,-0.8182975660574576, ,0.29199058941067935,0.1027023177039727,0.05239740631578948,0.03318527874820903,0.26511752867799343,-0.023688187819511, ,1.4705359935760498
0.018437510825935814,0.021701608939270062,-0.09246009367962588, ,0.019911639942364646,0.02133352313799537,-0.09339375238150198, ,0.0017833290163602044, ,0.03775056196469532,0.001854907626728651,-0.04559146072108565,-0.01873015478762348,-0.03636019628308437,0.004651813032957442, ,0.05922100051194924, ,0.04089847911840262, ,0.000939306713634365, ,0.24545934167435182,-0.21429039179398168,0.10445764078000001,-4.460524477802802,0.5469559085610581,-0.8182975660574576, ,0.29199058941067935,0.1027023177039727,0.05239740631578948,0.03318527874820903,0.26511752867799343,-0.023688187819511, ,1.4759070873260498
0.018849371356595097,0.021720242739853745,-0.09295123029108832, ,0.02009307441895927,0.021343799470209496,-0.09361268965736481, ,0.0014580930477268513, ,0.038327939606343814,0.001490359055686636,-0.04466727906592742,-0.03417896176579828,-0.05561728494597805,-0.013212916321022675, ,0.05887629356316381, ,0.06527867956468429, ,0.0009464133757452211, ,0.24862566215278387,-0.21316287279434493,0.10502282322,-4.459895407972349,0.549688638556367,-0.8184839556278719, ,0.29471099862879124,0.10405366398955129,0.0515495518446602,0.050355083851758645,0.24227839958408834,-0.008658002041840626, ,1.481220006942749
0.018849371356595097,0.021720242739853745,-0.09295123029108832, ,0.020275201763778585,0.021353844516516562,-0.09383128083557425, ,0.0017151469234335775, ,0.038327939606343814,0.001490359055686636,-0.04466727906592742,-0.03417896176579828,-0.05561728494597805,-0.013212916321022675, ,0.05887629356316381, ,0.06527867956468429, ,0.000956801666930199, ,0.24862566215278387,-0.21316287279434493,0.10502282322,-4.459895407972349,0.549688638556367,-0.8184839556278719, ,0.29471099862879124,0.10405366398955129,0.0515495518446602,0.050355083851758645,0.24227839958408834,-0.008658002041840626, ,1.486617088317871
0.01922532706812464,0.021730124991157125,-0.0933752075211815, ,0.02045800591933314,0.021363659059044072,-0.09404950485030092, ,0.0014520576151357658, ,0.037547096391098114,0.0005883541031806404,-0.04108391378774188,-0.02643187723590671,-0.07115761063561175,0.017086351667425347, ,0.05565984710787256, ,0.07590739515302705, ,0.0009634050795729399, ,0.2515371324463665,-0.21214347205494727,0.10551411713000002,-4.459685718028864,0.5520114590523794,-0.8186628064477592, ,0.2928917949335518,0.10225963530007626,0.04783426882882884,0.00995771186605465,0.23482367959688563,-0.026929070461817764, ,1.4920191764831543
0.01922532706812464,0.021730124991157125,-0.0933752075211815, ,0.020641470926868393,0.021373243894561227,-0.09426734083403217, ,0.0017113530885422318, ,0.037547096391098114,0.0005883541031806404,-0.04108391378774188,-0.02643187723590671,-0.07115761063561175,0.017086351667425347, ,0.05565984710787256, ,0.07590739515302705, ,0.0009732465007435884, ,0.2515371324463665,-0.21214347205494727,0.10551411713000002,-4.459685718028864,0.5520114590523794,-0.8186628064477592, ,0.2928917949335518,0.10225963530007626,0.04783426882882884,0.00995771186605465,0.23482367959688563,-0.026929070461817764, ,1.4972991943359375
0.01957729484127516,0.021728665567105995,-0.09373935812019414, ,0.020825580926131612,0.02138259983440833,-0.0944847681169829, ,0.001494528589323888, ,0.037087451745331956,-0.0007185088712545005,-0.036918154065756506,-0.03119194091802424,-0.08256071630286183,0.011202372738549744, ,0.052334935096771944, ,0.08825610729176092, ,0.000980016397997878, ,0.2543327617468358,-0.21115496224704655,0.10594189283000001,-4.459476028085379,0.554334279548392,-0.8190866934880683, ,0.2956291014282579,0.10555833321298196,0.04352134295081967,0.012397815241629416,0.22506559103454854,-0.026568456042299682, ,1.5026040077209473
0.01957729484127516,0.021728665567105995,-0.09373935812019414, ,0.02101032015513933,0.02139172770442761,-0.09470176622650614, ,0.0017587831124322392, ,0.037087451745331956,-0.0007185088712545005,-0.036918154065756506,-0.03119194091802424,-0.08256071630286183,0.011202372738549744, ,0.052334935096771944, ,0.08825610729176092, ,0.0009900005866444724, ,0.2543327617468358,-0.21115496224704655,0.10594189283000001,-4.459476028085379,0.554334279548392,-0.8190866934880683, ,0.2956291014282579,0.10555833321298196,0.04352134295081967,0.012397815241629416,0.22506559103454854,-0.026568456042299682, ,1.5080220699310303
0.019870636700876652,0.021724708957496754,-0.09403054198352324, ,0.021195672949945007,0.021400628344893945,-0.09491831488650568, ,0.0016275410999664508, ,0.037526533541485434,-0.0004278291466630092,-0.03789575933923532,-0.034585403004067525,-0.08927102734248764,-0.013787965813142379, ,0.05333396978770853, ,0.09573603433087559, ,0.0009980707197244974, ,0.2566495816091031,-0.2103286298295045,0.10628540968000001,-4.459056648198411,0.5559739175455772,-0.819198527230317, ,0.29379858067638015,0.10520725228211839,0.044618519663865555,0.03710332936505651,0.20982166715130052,-0.01905292518815506, ,1.5136079788208008
0.019870636700876652,0.021724708957496754,-0.09403054198352324, ,0.021381623744406518,0.021409302610446254,-0.0951343940168481, ,0.0018976438867580742, ,0.037526533541485434,-0.0004278291466630092,-0.03789575933923532,-0.034585403004067525,-0.08927102734248764,-0.013787965813142379, ,0.05333396978770853, ,0.09573603433087559, ,0.0010093153843124172, ,0.26019431599837217,-0.2090929925696286,0.10680651826000001,-4.458427578367957,0.5585700110411206,-0.8191918201568943, ,0.2703616568617401,0.09276338373262051,0.03774599886255925,0.05262459972029179,0.18782965139086613,-0.0050733547055182154, ,1.519024133682251
0.02032026747816896,0.02171944269751067,-0.09446937402480099, ,0.02156815706995354,0.02141775137001705,-0.09534998373277263, ,0.001556829967640351, ,0.034004030487846296,-0.0007095904000216629,-0.03150000879662275,-0.03574556938852503,-0.08209223923568193,-0.026689218308139282, ,0.046357611695831503, ,0.0895368664850017, ,0.001016074823612762, ,0.26019431599837217,-0.2090929925696286,0.10680651826000001,-4.458427578367957,0.5585700110411206,-0.8191918201568943, ,0.2703616568617401,0.09276338373262051,0.03774599886255925,0.05262459972029179,0.18782965139086613,-0.0050733547055182154, ,1.5243000984191895
0.020672969863113632,0.021703907105530544,-0.0947977995580093, ,0.021755257555354908,0.02142597550676355,-0.0955650643443043, ,0.0013554659253033413, ,0.03686240747041128,-0.0007422182389196126,-0.03827288443070114,0.07222722799580711,-0.035232876962639326,-0.029387332397043518, ,0.05314321833568818, ,0.08036196837866535, ,0.0010202137394870374, ,0.2630285589632126,-0.20806586909735675,0.10720059042,-4.458427578367957,0.5610294680368985,-0.8200538400614621, ,0.2849758004758882,0.10808307694586651,0.04525230545454546,0.03125803661859811,0.26984720493695474,-0.12493256090054439, ,1.5295841693878174
0.020672969863113632,0.021703907105530544,-0.0947977995580093, ,0.021942909926486183,0.021433975917998463,-0.09577961635566384, ,0.001627751465893302, ,0.03686240747041128,-0.0007422182389196126,-0.03827288443070114,0.07222722799580711,-0.035232876962639326,-0.029387332397043518, ,0.05314321833568818, ,0.08036196837866535, ,0.0010275334711304866, ,0.2630285589632126,-0.20806586909735675,0.10720059042,-4.458427578367957,0.5610294680368985,-0.8200538400614621, ,0.2849758004758882,0.10808307694586651,0.04525230545454546,0.03125803661859811,0.26984720493695474,-0.12493256090054439, ,1.5348601341247559
0.021051779032796303,0.0217114446426271,-0.09523257175264814, ,0.022131099006097207,0.021441753515120187,-0.09599362046468043, ,0.001347909511468863, ,0.03701635465880036,0.0017801432573682375,-0.044032141823823055,0.06389518679479073,0.006452748164285336,-0.0008660781007056668, ,0.057551793506685024, ,0.06421890169533424, ,0.0010313474716107053, ,0.2658473564623045,-0.2070155774264622,0.10771003239000002,-4.458008198480988,0.5640354710317381,-0.8211981741005343, ,0.2703616568617401,0.09423728059431061,0.0515495518446602,0.02139278765052167,0.29785157160151365,-0.0986746511430535, ,1.5401310920715332
0.021051779032796303,0.0217114446426271,-0.09523257175264814, ,0.022319809713579244,0.021449309223543732,-0.09620705756220246, ,0.001620567609934126, ,0.03701635465880036,0.0017801432573682375,-0.044032141823823055,0.06389518679479073,0.006452748164285336,-0.0008660781007056668, ,0.057551793506685024, ,0.06421890169533424, ,0.0010382794732380395, ,0.2658473564623045,-0.2070155774264622,0.10771003239000002,-4.458008198480988,0.5640354710317381,-0.8211981741005343, ,0.2703616568617401,0.09423728059431061,0.0515495518446602,0.02139278765052167,0.29785157160151365,-0.0986746511430535, ,1.5453929901123047
0.02141055493972415,0.021735007252106982,-0.09565555290280686, ,0.022509027064733306,0.021456643982632105,-0.09641990873151043, ,0.0013668822012477876, ,0.03712476884397028,0.0024014648148576144,-0.0435074098038339,-0.01114409109533792,-0.011345588531754637,-0.05853488128084686, ,0.057244302797867734, ,0.015898341304427358, ,0.0010421004351916412, ,0.26843447197516973,-0.20615063134454906,0.10820651146000002,-4.45716943870705,0.5666315645272816,-0.8216815394679551, ,0.26507525574991836,0.08935681879328698,0.05105388307692308,0.10358345732872509,0.24564583893456216,-0.0013126831793987964, ,1.5506930351257324
0.02141055493972415,0.021735007252106982,-0.09565555290280686, ,0.02269873617153603,0.021463758745624704,-0.09663215524772488, ,0.0016391274442094505, ,0.03712476884397028,0.0024014648148576144,-0.0435074098038339,-0.01114409109533792,-0.011345588531754637,-0.05853488128084686, ,0.057244302797867734, ,0.015898341304427358, ,0.001048962814605639, ,0.26843447197516973,-0.20615063134454906,0.10820651146000002,-4.45716943870705,0.5666315645272816,-0.8216815394679551, ,0.26507525574991836,0.08935681879328698,0.05105388307692308,0.10358345732872509,0.24564583893456216,-0.0013126831793987964, ,1.5561580657958984
0.021791298192658702,0.021756004103610158,-0.0961147496489449, ,0.02288892224190918,0.021470654479570937,-0.09684377857722283, ,0.0013482159098966344, ,0.036826803401878876,0.0021498507537338375,-0.046092075398759084,-0.05373978732930811,-0.013506177137064245,-0.003754797620549247, ,0.059036554113776486, ,0.05540914663207444, ,0.0010523634179612185, ,0.2711065375496514,-0.20520845793389367,0.10874187923,-4.456750058820081,0.5690910215230595,-0.8214817357506955, ,0.25238548286827334,0.09340250153392793,0.053452387651006725,0.05117387961870864,0.23866230406790795,0.024206795186895266, ,1.5614781379699707
0.021791298192658702,0.021756004103610158,-0.0961147496489449, ,0.023079570579485155,0.021477332165258066,-0.09705476037704491, ,0.0016189267929179378, ,0.036826803401878876,0.0021498507537338375,-0.046092075398759084,-0.05373978732930811,-0.013506177137064245,-0.003754797620549247, ,0.059036554113776486, ,0.05540914663207444, ,0.0010587292985787097, ,0.2711065375496514,-0.20520845793389367,0.10874187923,-4.456750058820081,0.5690910215230595,-0.8214817357506955, ,0.25238548286827334,0.09340250153392793,0.053452387651006725,0.05117387961870864,0.23866230406790795,0.024206795186895266, ,1.5667431354522705
0.02211233021311173,0.021775469920030436,-0.09652582601423373, ,0.023270666583376287,0.021483792797144397,-0.09726508249431012, ,0.0014047486729047588, ,0.036844401440388405,0.0028399898058284467,-0.04766067965425466,-0.01795608086858313,0.012396678284893466,0.013572148375592459, ,0.06030850557511096, ,0.02181404475381011, ,0.0010625739582934435, ,0.2732843482201827,-0.20440529371497432,0.10921761766000002,-4.456750058820081,0.5712772055193065,-0.8214674899267458, ,0.24842131298029,0.08868873042847737,0.055308373333333334,0.030821584912207236,0.2695872365314278,-0.008469759109639596, ,1.57204008102417
0.02211233021311173,0.021775469920030436,-0.09652582601423373, ,0.02346219574794102,0.021490037383287877,-0.0974747269656253, ,0.001674521337786735, ,0.036844401440388405,0.0028399898058284467,-0.04766067965425466,-0.01795608086858313,0.012396678284893466,0.013572148375592459, ,0.06030850557511096, ,0.02181404475381011, ,0.0010692986547713918, ,0.2732843482201827,-0.20440529371497432,0.10921761766000002,-4.456750058820081,0.5712772055193065,-0.8214674899267458, ,0.24842131298029,0.08868873042847737,0.055308373333333334,0.030821584912207236,0.2695872365314278,-0.008469759109639596, ,1.5773730278015137
0.022521986708420483,0.021802159937986544,-0.09702659182571324, ,0.02365414366255167,0.021496066945277666,-0.09768367601649658, ,0.0013443332632760647, ,0.03537436727081129,0.0017734859674467286,-0.04121730590075305,0.023342050363428565,0.031564949372649406,0.03879340324112745, ,0.054344801204928773, ,0.03925657123176105, ,0.001072288161385573, ,0.27614175938364577,-0.20343222937282204,0.10980613332000001,-4.456540368876596,0.5746931180134426,-0.82188425405508, ,0.2517160253540339,0.08412849428942444,0.04886138503067485,0.0,0.30410963758698284,-0.049508984848332716, ,1.582646131515503
0.022521986708420483,0.021802159937986544,-0.09702659182571324, ,0.023846496011362267,0.0215018825181647,-0.0978919120607426, ,0.0016103634780960051, ,0.03537436727081129,0.0017734859674467286,-0.04121730590075305,0.023342050363428565,0.031564949372649406,0.03879340324112745, ,0.054344801204928773, ,0.03925657123176105, ,0.0010780739174792338, ,0.27614175938364577,-0.20343222937282204,0.10980613332000001,-4.456540368876596,0.5746931180134426,-0.82188425405508, ,0.2517160253540339,0.08412849428942444,0.04886138503067485,0.0,0.30410963758698284,-0.049508984848332716, ,1.5880341529846191
0.022861528778934378,0.021820098202449116,-0.09741807222557902, ,0.02403923857307592,0.02150748515039243,-0.09809941769990414, ,0.0013960511935156373, ,0.03517833132526128,0.0016579272934834667,-0.04037015000190013,-0.01621068012867339,0.012125746139955257,-0.028198729910325397, ,0.05357249974489014, ,0.020241359718717787, ,0.0010814566544583445, ,0.2785435293075296,-0.20260589695528,0.11027150143000002,-4.4557016091026584,0.5775624845085168,-0.8222637402693315, ,0.2452117352932061,0.08556983007977528,0.04783426882882884,0.07569919662087538,0.2552043333512285,0.003159444735906722, ,1.5933589935302734
0.022861528778934378,0.021820098202449116,-0.09741807222557902, ,0.024232357220712358,0.021512875903727354,-0.09830617572265757, ,0.001662012027375997, ,0.03517833132526128,0.0016579272934834667,-0.04037015000190013,-0.01621068012867339,0.012125746139955257,-0.028198729910325397, ,0.05357249974489014, ,0.020241359718717787, ,0.0010875677636469512, ,0.2785435293075296,-0.20260589695528,0.11027150143000002,-4.4557016091026584,0.5775624845085168,-0.8222637402693315, ,0.2452117352932061,0.08556983007977528,0.04783426882882884,0.07569919662087538,0.2552043333512285,0.003159444735906722, ,1.5987470149993896
0.023216527351179794,0.021834075736670094,-0.09781546203155195, ,0.024425837921374843,0.02151805585318942,-0.09851216910422352, ,0.0014309791637376133, ,0.03568095542231561,0.0018560203668971965,-0.03916630144763262,-0.027612183688155115,-0.032501785712334544,-0.032208661956127274, ,0.05301485226366702, ,0.04264629641834714, ,0.0010911449657312292, ,0.280999358361533,-0.20176411907198954,0.11074205470000001,-4.455282229215689,0.5796120320049984,-0.8218930403212636, ,0.2477726933641535,0.08001428461928396,0.04671205724340176,0.07207944658455669,0.21078697549804803,0.011180049300897277, ,1.605147123336792
0.02357145162630493,0.02185340865532252,-0.0982075525362534, ,0.02461966673601868,0.02152302608698325,-0.09871738100578165, ,0.0012115414256376742, ,0.034348339935330055,0.001831906082891058,-0.03780404560271146,0.048494553161028166,-0.0003941332596330201,-0.005565865929682945, ,0.051110764034021344, ,0.04849535868660554, ,0.0010923861663488213, ,0.28347835561415907,-0.20099184578456708,0.11121131168000001,-4.455072539272204,0.5820714890007763,-0.8222649877849881, ,0.24024542166701462,0.07525530654914415,0.045381229401709404,0.02860343664149293,0.2542382357840297,-0.068773997491706, ,1.610701084136963
0.02357145162630493,0.02185340865532252,-0.0982075525362534, ,0.02481382981921772,0.021527787706428034,-0.09892179477387933, ,0.0014695831213623425, ,0.034348339935330055,0.001831906082891058,-0.03780404560271146,0.048494553161028166,-0.0003941332596330201,-0.005565865929682945, ,0.051110764034021344, ,0.04849535868660554, ,0.0010962351148693676, ,0.28347835561415907,-0.20099184578456708,0.11121131168000001,-4.455072539272204,0.5820714890007763,-0.8222649877849881, ,0.24024542166701462,0.07525530654914415,0.045381229401709404,0.02860343664149293,0.2542382357840297,-0.068773997491706, ,1.6161041259765625
0.023923661368378712,0.02186594217800682,-0.09859764632331684, ,0.025008313418932736,0.021532341825889225,-0.0991253939398453, ,0.001251509813167882, ,0.03341522487173313,0.0007639640199280564,-0.036192705608674346,0.0303051174603253,-0.009311050540093804,-0.00015360974474392004, ,0.049265330949141144, ,0.03170226655134089, ,0.001097803546165312, ,0.28592646193528826,-0.2001732360998993,0.11167797608,-4.455072539272204,0.5846675824963197,-0.823075068112971, ,0.23259054303546764,0.08062611857134305,0.0434027561852861,0.019296406502311608,0.23785087251986578,-0.060919063088696906, ,1.6216480731964111
0.023923661368378712,0.02186594217800682,-0.09859764632331684, ,0.025203103876278006,0.021536689572707827,-0.0993281622191997, ,0.001509646939934414, ,0.03341522487173313,0.0007639640199280564,-0.036192705608674346,0.0303051174603253,-0.009311050540093804,-0.00015360974474392004, ,0.049265330949141144, ,0.03170226655134089, ,0.0011019219801030032, ,0.28592646193528826,-0.2001732360998993,0.11167797608,-4.455072539272204,0.5846675824963197,-0.823075068112971, ,0.23259054303546764,0.08062611857134305,0.0434027561852861,0.019296406502311608,0.23785087251986578,-0.060919063088696906, ,1.6269350051879883
0.024251172194326206,0.0218723628235355,-0.0989438924202763, ,0.02539818762528952,0.02154083208713227,-0.09953008351106624, ,0.0013301041398963902, ,0.03208820457421251,0.0003125723157868694,-0.03300565073253271,-0.004906003095615456,-0.04091299593973573,0.0023809810135171448, ,0.04603393915935335, ,0.04120561775083504, ,0.001104181209407888, ,0.28819694540031027,-0.19938551734672838,0.11209408517000001,-4.454653159385235,0.5867171299928012,-0.8234394768261684, ,0.22381354141148768,0.07690189753522753,0.039822028800000006,0.01627794113865882,0.192634804852108,-0.029523376466351933, ,1.6321961879730225
0.024251172194326206,0.0218723628235355,-0.0989438924202763, ,0.02559355119269207,0.02154477052224824,-0.09973114189758317, ,0.0015903018048899886, ,0.03208820457421251,0.0003125723157868694,-0.03300565073253271,-0.004906003095615456,-0.04091299593973573,0.0023809810135171448, ,0.04603393915935335, ,0.04120561775083504, ,0.0011089470975988891, ,0.28819694540031027,-0.19938551734672838,0.11209408517000001,-4.454653159385235,0.5867171299928012,-0.8234394768261684, ,0.22381354141148768,0.07690189753522753,0.039822028800000006,0.01627794113865882,0.192634804852108,-0.029523376466351933, ,1.6375141143798828
0.02457789969423437,0.02188041438187646,-0.09927634471304901, ,0.025789181197667488,0.021548506043910357,-0.09993132164331614, ,0.0014164606611384452, ,0.03259366502345611,0.0011630004547992772,-0.03374329271946492,0.02766961737750279,-0.016658612583067195,-0.05691510465028772, ,0.04692876914293218, ,0.032296646158944335, ,0.001111932666176943, ,0.2903824788037158,-0.1986595804565513,0.11248297217000001,-4.454024089554782,0.5886300409895174,-0.8237741463758098, ,0.2248742690959023,0.0736205908133986,0.04094810159383034,0.08110800113603546,0.20677660265720582,-0.038197416281572694, ,1.6427910327911377
0.02457789969423437,0.02188041438187646,-0.09927634471304901, ,0.025985064351620943,0.021552039830671495,-0.10013060719466792, ,0.0016786025754712218, ,0.03259366502345611,0.0011630004547992772,-0.03374329271946492,0.02766961737750279,-0.016658612583067195,-0.05691510465028772, ,0.04692876914293218, ,0.032296646158944335, ,0.0011173814153047725, ,0.2903824788037158,-0.1986595804565513,0.11248297217000001,-4.454024089554782,0.5886300409895174,-0.8237741463758098, ,0.2248742690959023,0.0736205908133986,0.04094810159383034,0.08110800113603546,0.20677660265720582,-0.038197416281572694, ,1.648041009902954
0.024888795649070452,0.02189109844786663,-0.09960061507356222, ,0.02618118745794912,0.021555373073714103,-0.1003289831792909, ,0.0015210220944974213, ,0.03446610620236709,0.0013253420063384699,-0.03589375031139983,0.036826235492551054,-0.01347429251875028,-0.02754956897176498, ,0.049779818396652756, ,0.03921311770695604, ,0.0011212256122494645, ,0.2926143486043667,-0.1979336435663742,0.11289130352000001,-4.453395019724328,0.5908162249857646,-0.8242499729927036, ,0.23665072707848075,0.07513613741763323,0.043640579506849325,0.05007999842573089,0.23072547878490207,-0.054010799090206944, ,1.653395175933838
0.024888795649070452,0.02189109844786663,-0.09960061507356222, ,0.026377537411808108,0.02155850697678129,-0.10052643440549841, ,0.0017844076210733683, ,0.03446610620236709,0.0013253420063384699,-0.03589375031139983,0.036826235492551054,-0.01347429251875028,-0.02754956897176498, ,0.049779818396652756, ,0.03921311770695604, ,0.001127482046294973, ,0.2926143486043667,-0.1979336435663742,0.11289130352000001,-4.453395019724328,0.5908162249857646,-0.8242499729927036, ,0.23665072707848075,0.07513613741763323,0.043640579506849325,0.05007999842573089,0.23072547878490207,-0.054010799090206944, ,1.6589410305023193
0.025258089583657092,0.021904447586764745,-0.09998679475554706, ,0.026574101199880216,0.02156144275610692,-0.10072294586167659, ,0.0015464337486438033, ,0.03524160777193677,0.0016187597367981702,-0.03719869908550695,0.01750141667296734,-0.00732438351121666,0.0003212651085394043, ,0.05126728503724972, ,0.018970370406153274, ,0.0011313974827655228, ,0.2951396822542381,-0.19714592481320328,0.11336056050000001,-4.453395019724328,0.5932756819815425,-0.8247035991965685, ,0.23903511727574503,0.07384975996768155,0.04525230545454546,0.030043627054980263,0.24196416041471863,-0.03583304354694998, ,1.6643061637878418
0.025258089583657092,0.021904447586764745,-0.09998679475554706, ,0.026770865900141397,0.021564181640345882,-0.10091850271569441, ,0.0018089645715187704, ,0.03524160777193677,0.0016187597367981702,-0.03719869908550695,0.01750141667296734,-0.00732438351121666,0.0003212651085394043, ,0.05126728503724972, ,0.018970370406153274, ,0.0011376712521058308, ,0.2951396822542381,-0.19714592481320328,0.11336056050000001,-4.453395019724328,0.5932756819815425,-0.8247035991965685, ,0.23903511727574503,0.07384975996768155,0.04525230545454546,0.030043627054980263,0.24196416041471863,-0.03583304354694998, ,1.6702311038970947
0.025546112913789637,0.02191793910269907,-0.10029383113661616, ,0.026967818681629733,0.021566724870506003,-0.1011130903143178, ,0.0016780298946839768, ,0.0357544634041958,0.0019207280383936598,-0.03869118135157753,0.00431836715295542,0.007706244881826098,0.016909862930129357, ,0.05271696466888159, ,0.008828804952556557, ,0.0011426286708450797, ,0.29708581093854264,-0.196551274381888,0.11373389202,-4.453395019724328,0.595325229478024,-0.8249863291696253, ,0.23903511727574503,0.07344964516909504,0.04698764460176992,0.02201722689060706,0.2578696527595964,-0.0205989756972374, ,1.6757080554962158
0.02597977525541113,0.021947378503571487,-0.10078213212508272, ,0.02716494680421155,0.021569073699877397,-0.10130669418261794, ,0.0013501523902099326, ,0.035489409344921514,0.0025077762216281947,-0.04041423462243125,0.00030101076969379545,0.03951056839005361,0.017310846258784193, ,0.053843267706799584, ,0.03951035065428352, ,0.0011445152501120331, ,0.2999277766362573,-0.19565543736847796,0.11432500026000002,-4.4525562599503905,0.5987411419721601,-0.8252397358176784, ,0.23033238242347276,0.0711905037948018,0.04886138503067485,0.032781228052150675,0.2785779507412863,-0.006289095048614662, ,1.6810011863708496
0.02597977525541113,0.021947378503571487,-0.10078213212508272, ,0.02736223761834993,0.021571229393963824,-0.10149930002338554, ,0.0016021922893201877, ,0.035489409344921514,0.0025077762216281947,-0.04041423462243125,0.00030101076969379545,0.03951056839005361,0.017310846258784193, ,0.053843267706799584, ,0.03951035065428352, ,0.0011486384666814758, ,0.2999277766362573,-0.19565543736847796,0.11432500026000002,-4.4525562599503905,0.5987411419721601,-0.8252397358176784, ,0.23033238242347276,0.0711905037948018,0.04886138503067485,0.032781228052150675,0.2785779507412863,-0.006289095048614662, ,1.6863770484924316
0.026326227059842274,0.021970422702757154,-0.10116363700823634, ,0.027559678564872663,0.021573193230413765,-0.10169089371654152, ,0.0013989973214458828, ,0.03543426620712203,0.0022647404860810967,-0.03837106284495554,-0.01943246430456947,0.03189020271537927,-0.007768875196099824, ,0.05227862598575074, ,0.03734330620248494, ,0.0011508738135990152, ,0.30219053736840507,-0.19496039140979773,0.11478907208000001,-4.451927190119936,0.6013372354677035,-0.8251513500041152, ,0.23202186200115102,0.0705553468836214,0.046849445647058834,0.06547820358478704,0.2626704175716102,0.022532683775802836, ,1.6918420791625977
0.026326227059842274,0.021970422702757154,-0.10116363700823634, ,0.027757257174737537,0.021574966498949556,-0.10188146131854668, ,0.0016490920348299486, ,0.03543426620712203,0.0022647404860810967,-0.03837106284495554,-0.01943246430456947,0.03189020271537927,-0.007768875196099824, ,0.05227862598575074, ,0.03734330620248494, ,0.0011552828244063686, ,0.30219053736840507,-0.19496039140979773,0.11478907208000001,-4.451927190119936,0.6013372354677035,-0.8251513500041152, ,0.23202186200115102,0.0705553468836214,0.046849445647058834,0.06547820358478704,0.2626704175716102,0.022532683775802836, ,1.6971440315246582
0.0266768251578249,0.021988268618025445,-0.10154381416800597, ,0.02795496106880252,0.021576550501299707,-0.10207098906181639, ,0.001442586768009053, ,0.03565570490795672,0.0016121361090050412,-0.037984736071513966,-0.01293025760397696,0.04299831541466785,0.016281015107362504, ,0.05212262896036444, ,0.04489952799357146, ,0.001157803034437971, ,0.30449191176492396,-0.1942498999853691,0.11525314390000001,-4.451927190119936,0.6040699654630122,-0.8250110246139674, ,0.2348934196991851,0.07460451380382924,0.04657547228070176,0.038945339878746606,0.2843816580483964,0.00765219497572471, ,1.7024540901184082
0.0266768251578249,0.021988268618025445,-0.10154381416800597, ,0.028152777957591517,0.02157794655112879,-0.10225946335412925, ,0.0016908443521862603, ,0.03565570490795672,0.0016121361090050412,-0.037984736071513966,-0.01293025760397696,0.04299831541466785,0.016281015107362504, ,0.05212262896036444, ,0.04489952799357146, ,0.0011624381763314343, ,0.30449191176492396,-0.1942498999853691,0.11525314390000001,-4.451927190119936,0.6040699654630122,-0.8250110246139674, ,0.2348934196991851,0.07460451380382924,0.04657547228070176,0.038945339878746606,0.2843816580483964,0.00765219497572471, ,1.7079691886901855
0.027059846242026543,0.02200376631337961,-0.10194664779341069, ,0.02835069564106207,0.021579155973967708,-0.10244687077804004, ,0.0014480363067538662, ,0.03662884337394472,0.0012255852909377873,-0.037455155890949665,0.026038270973143894,0.019883947361246723,0.03358890526239392, ,0.05240289046449326, ,0.03276109281703716, ,0.0011649002291799033, ,0.30701724541479536,-0.19345445849932397,0.11574832668000001,-4.451717500176452,0.6070759684578518,-0.8252568925114935, ,0.24332549117556607,0.07525530654914415,0.046304684651162796,0.0,0.2824679187613951,-0.04716243873517527, ,1.7133450508117676
0.027059846242026543,0.02200376631337961,-0.10194664779341069, ,0.028548702008374047,0.021580180107145568,-0.10263319809029132, ,0.0016933599963518849, ,0.03662884337394472,0.0012255852909377873,-0.037455155890949665,0.026038270973143894,0.019883947361246723,0.03358890526239392, ,0.05240289046449326, ,0.03276109281703716, ,0.0011694169793266724, ,0.30701724541479536,-0.19345445849932397,0.11574832668000001,-4.451717500176452,0.6070759684578518,-0.8252568925114935, ,0.24332549117556607,0.07525530654914415,0.046304684651162796,0.0,0.2824679187613951,-0.04716243873517527, ,1.7187252044677734
0.02738066316307049,0.02201446068910117,-0.10226989463900857, ,0.028746785037655685,0.021581020299719013,-0.10281843222122419, ,0.0015346182021828377, ,0.035856549874633555,0.0007460860662050917,-0.03422298444796569,-0.008324840984517135,-0.009812323741822688,0.022250027629198935, ,0.04957278969208784, ,0.012866146650250713, ,0.0011725119049440977, ,0.30914099695520714,-0.19279802620501488,0.11614888029,-4.451507810232967,0.6093987889538645,-0.8255991008116619, ,0.2408551816204842,0.07322294873338794,0.042819385806451615,0.014027963637302214,0.24206881619344467,-0.012148836790026221, ,1.724100112915039
0.02738066316307049,0.02201446068910117,-0.10226989463900857, ,0.02894493279577142,0.02158167791240364,-0.10300256027418973, ,0.0017807412357138664, ,0.035856549874633555,0.0007460860662050917,-0.03422298444796569,-0.008324840984517135,-0.009812323741822688,0.022250027629198935, ,0.04957278969208784, ,0.012866146650250713, ,0.0011776230757909025, ,0.30914099695520714,-0.19279802620501488,0.11614888029,-4.451507810232967,0.6093987889538645,-0.8255991008116619, ,0.2408551816204842,0.07322294873338794,0.042819385806451615,0.014027963637302214,0.24206881619344467,-0.012148836790026221, ,1.7293660640716553
0.027832247257841485,0.02201820044505602,-0.10267298702092205, ,0.029143133438090336,0.02158215431750462,-0.10318556952496166, ,0.001473533042170252, ,0.035646900842677284,-0.00018298166685900598,-0.030597240533229556,0.00986594867423717,-0.017652774637228683,-0.062053155206321854, ,0.04697793258782658, ,0.02022203200884758, ,0.001180088992177397, ,0.31220692190627425,-0.19184040732861105,0.11665961855000001,-4.450459360515545,0.6121315189491732,-0.8255404541616546, ,0.24457974628471849,0.07829780656639503,0.039137129041769046,0.09602128656946012,0.22150254737700953,-0.014255846639032496, ,1.7346742153167725
0.027832247257841485,0.02201820044505602,-0.10267298702092205, ,0.029341375208252914,0.021582450898847364,-0.10336744742114694, ,0.0017174458027007912, ,0.035646900842677284,-0.00018298166685900598,-0.030597240533229556,0.00986594867423717,-0.017652774637228683,-0.062053155206321854, ,0.04697793258782658, ,0.02022203200884758, ,0.0011845299575536231, ,0.31220692190627425,-0.19184040732861105,0.11665961855000001,-4.450459360515545,0.6121315189491732,-0.8255404541616546, ,0.24457974628471849,0.07829780656639503,0.039137129041769046,0.09602128656946012,0.22150254737700953,-0.014255846639032496, ,1.740009069442749
0.02819547406281355,0.022012442491928512,-0.1029935646840475, ,0.029539646437937724,0.02158256905170741,-0.10354818158159666, ,0.0015163081651503264, ,0.03534426385248355,-0.0004707934583351881,-0.03093026542943604,0.016831725709076227,-0.018962284722142494,-0.016624652168027474, ,0.04696935121214421, ,0.025354426115363437, ,0.0011872494510585144, ,0.31467819642602607,-0.19102952037681747,0.11706665361000002,-4.4502496705720604,0.6144543394451857,-0.8258009837216824, ,0.24024542166701462,0.07842722442848825,0.03942775128712872,0.04080071880430822,0.2291197201306949,-0.03790164227172986, ,1.7453529834747314
0.02819547406281355,0.022012442491928512,-0.1029935646840475, ,0.029737935546630158,0.021582510182742126,-0.10372775979581858, ,0.0017615537691732894, ,0.03534426385248355,-0.0004707934583351881,-0.03093026542943604,0.016831725709076227,-0.018962284722142494,-0.016624652168027474, ,0.04696935121214421, ,0.025354426115363437, ,0.0011919185918561953, ,0.31467819642602607,-0.19102952037681747,0.11706665361000002,-4.4502496705720604,0.6144543394451857,-0.8258009837216824, ,0.24024542166701462,0.07842722442848825,0.03942775128712872,0.04080071880430822,0.2291197201306949,-0.03790164227172986, ,1.7506370544433594
0.02855051800033477,0.02200535406407696,-0.1032994273438982, ,0.029936231041390687,0.021582275709921446,-0.10390617002338907, ,0.0015707745239286058, ,0.03567119645745051,-0.000519808451560945,-0.03039406599219978,0.004040345326611103,-0.028667665217176855,-0.0009399015882420592, ,0.0468668721494249, ,0.028950535071272855, ,0.0011949738816309727, ,0.3171031345485326,-0.1902495243565208,0.11745813319000001,-4.4502496705720604,0.6167771599411982,-0.8261431920218509, ,0.2427031753413575,0.07690189753522753,0.03904120470588236,0.026041252246106587,0.22344813802471816,-0.028610560326138665, ,1.7559611797332764
0.02855051800033477,0.02200535406407696,-0.1032994273438982, ,0.030134521516619175,0.021581867062457034,-0.1040834003933624, ,0.001817421833925354, ,0.03567119645745051,-0.000519808451560945,-0.03039406599219978,0.004040345326611103,-0.028667665217176855,-0.0009399015882420592, ,0.0468668721494249, ,0.028950535071272855, ,0.0011999534652493277, ,0.3171031345485326,-0.1902495243565208,0.11745813319000001,-4.4502496705720604,0.6167771599411982,-0.8261431920218509, ,0.2427031753413575,0.07690189753522753,0.03904120470588236,0.026041252246106587,0.22344813802471816,-0.028610560326138665, ,1.7612621784210205
0.02891491343284651,0.022001370006645607,-0.103614969564611, ,0.03033279565382628,0.021581285680734887,-0.10425943920368491, ,0.0016131342005966068, ,0.03653245096124463,-0.0002944809527212211,-0.03325849211849726,-0.0021437471512988165,-0.019953223037091874,0.012086113948608148, ,0.04940479723937143, ,0.020067039369727663, ,0.0012032326774346236, ,0.31947401354091953,-0.1894926965348468,0.11784831648,-4.4498302906850915,0.6189633439374452,-0.826373982418323, ,0.24146804467804267,0.07914674024893309,0.04202852643799473,0.014498690190055988,0.23117022017316982,-0.024868778743113745, ,1.766923189163208
0.02891491343284651,0.022001370006645607,-0.103614969564611, ,0.030531042221397804,0.021580533016244453,-0.10443427492060428, ,0.0018601713093243475, ,0.03653245096124463,-0.0002944809527212211,-0.03325849211849726,-0.0021437471512988165,-0.019953223037091874,0.012086113948608148, ,0.04940479723937143, ,0.020067039369727663, ,0.0012084054225676136, ,0.31947401354091953,-0.1894926965348468,0.11784831648,-4.4498302906850915,0.6189633439374452,-0.826373982418323, ,0.24146804467804267,0.07914674024893309,0.04202852643799473,0.014498690190055988,0.23117022017316982,-0.024868778743113745, ,1.7723510265350342
0.029321456120881172,0.022004973902782193,-0.10398409991274257, ,0.030729250074364323,0.02157961053151032,-0.10460789617808282, ,0.0015974791371833096, ,0.03806364016101155,0.0008318477020793115,-0.03524926939064112,0.039414315125659884,0.014040703380624867,-0.05846695373148136, ,0.051884907877728904, ,0.04183987534926731, ,0.0012114450609630486, ,0.3222310291770177,-0.1886123049871852,0.11833312894000002,-4.448991530911154,0.6218327104325195,-0.826835147372715, ,0.24712745197518432,0.07683962879228404,0.0448698916056338,0.09496818546284858,0.26030842001825305,-0.03559598744670528, ,1.7776210308074951
0.029700550919494705,0.022009716796172106,-0.10433590986113654, ,0.030927408154167058,0.021578519700022086,-0.1047802917772074, ,0.0013742579442473318, ,0.03913215441211855,0.0005117908065459947,-0.03586410621059748,-0.005372616175544146,-0.01680883111391181,-0.014808181007557252, ,0.0530831569619646, ,0.017644899389712754, ,0.0012127071763373455, ,0.3222310291770177,-0.1886123049871852,0.11833312894000002,-4.448991530911154,0.6218327104325195,-0.826835147372715, ,0.24712745197518432,0.07683962879228404,0.0448698916056338,0.09496818546284858,0.26030842001825305,-0.03559598744670528, ,1.7841970920562744
0.029700550919494705,0.022009716796172106,-0.10433590986113654, ,0.031125505488426835,0.02157726200616575,-0.10495145068560215, ,0.0016113358357287876, ,0.03913215441211855,0.0005117908065459947,-0.03586410621059748,-0.005372616175544146,-0.01680883111391181,-0.014808181007557252, ,0.0530831569619646, ,0.017644899389712754, ,0.0012157735506403565, ,0.3246714127652726,-0.1878554771655112,0.11877905270000001,-4.448781840967668,0.6241555309285319,-0.8268506407123213, ,0.2517160253540339,0.07829780656639503,0.04564129375358167,0.05123223476384867,0.23842506519706508,-0.008114194393940885, ,1.7896840572357178
0.030095127534174045,0.022010226157312334,-0.10469638297233198, ,0.03132353119071045,0.021575838945153854,-0.10512136203683906, ,0.0013705017324863661, ,0.03799611216415254,-7.427589609255471e-05,-0.03389539962305929,-0.009228080094313557,-0.021762068686301712,-0.00016177760465471182, ,0.050917660709291115, ,0.02363684316759519, ,0.0012169546817994864, ,0.32721219188089246,-0.18705231294659186,0.11923793936000002,-4.448781840967668,0.6266149879243099,-0.8270592306957644, ,0.2452117352932061,0.0782332576739248,0.0434027561852861,0.03176818857487838,0.23056705700600552,-0.011975323774509522, ,1.7950069904327393
0.030095127534174045,0.022010226157312334,-0.10469638297233198, ,0.031521474460299057,0.02157425202295651,-0.10529001512985055, ,0.0016052844414413683, ,0.03799611216415254,-7.427589609255471e-05,-0.03389539962305929,-0.009228080094313557,-0.021762068686301712,-0.00016177760465471182, ,0.050917660709291115, ,0.02363684316759519, ,0.0012198965739179854, ,0.32721219188089246,-0.18705231294659186,0.11923793936000002,-4.448781840967668,0.6266149879243099,-0.8270592306957644, ,0.2452117352932061,0.0782332576739248,0.0434027561852861,0.03176818857487838,0.23056705700600552,-0.011975323774509522, ,1.8003180027008057
0.030410184977097368,0.02200715354704167,-0.1049678996383119, ,0.03171932458195442,0.021572502756231404,-0.10545739942833923, ,0.0014636863937995972, ,0.03665576956811678,-0.0006001691799932766,-0.030704699720658098,-0.04447996663364135,-0.051468150240388796,0.029721981396437877, ,0.04782033281577274, ,0.06802507353611602, ,0.001221729580082509, ,0.32925871609256196,-0.186403603385157,0.11958793766000002,-4.448572151024184,0.6283912624212606,-0.8270374461212878, ,0.23963874130926963,0.07472200122714234,0.039822028800000006,0.0,0.1971338862413681,0.011734055909745203, ,1.805690050125122
0.030410184977097368,0.02200715354704167,-0.1049678996383119, ,0.03191707092568777,0.021570592672255393,-0.10562350456019134, ,0.0017003259902283131, ,0.03665576956811678,-0.0006001691799932766,-0.030704699720658098,-0.04447996663364135,-0.051468150240388796,0.029721981396437877, ,0.04782033281577274, ,0.06802507353611602, ,0.001225301195083597, ,0.32925871609256196,-0.186403603385157,0.11958793766000002,-4.448572151024184,0.6283912624212606,-0.8270374461212878, ,0.23963874130926963,0.07472200122714234,0.039822028800000006,0.0,0.1971338862413681,0.011734055909745203, ,1.8110411167144775
0.03082659114384005,0.021999190826315893,-0.10529676705669745, ,0.032114702946526935,0.021568523308854608,-0.10578832031688681, ,0.0014444137684265924, ,0.03651862555378103,-0.000917748899432835,-0.028626876651891668,0.022744003570880456,-0.030989291218178457,-0.05031290971725949, ,0.04641067056423877, ,0.03843964936732669, ,0.0012269242511824341, ,0.33202345446153436,-0.18553865730324384,0.12002219481000001,-4.447733391250246,0.630714082917273,-0.8271346182010345, ,0.2427031753413575,0.07734062066705036,0.03792574171428572,0.07279509405209109,0.21261103065945702,-0.034417759809170154, ,1.8167130947113037
0.03082659114384005,0.021999190826315893,-0.10529676705669745, ,0.03231221018428284,0.021566296214334923,-0.10595183665291145, ,0.001680350515306935, ,0.03651862555378103,-0.000917748899432835,-0.028626876651891668,0.022744003570880456,-0.030989291218178457,-0.05031290971725949, ,0.04641067056423877, ,0.03843964936732669, ,0.0012302582678304084, ,0.33202345446153436,-0.18553865730324384,0.12002219481000001,-4.447733391250246,0.630714082917273,-0.8271346182010345, ,0.2427031753413575,0.07734062066705036,0.03792574171428572,0.07279509405209109,0.21261103065945702,-0.034417759809170154, ,1.8222830295562744
0.031204329694862483,0.021987783071903615,-0.10559407894358808, ,0.032509582263318806,0.021563912947413437,-0.10611404368516884, ,0.0014675535705330493, ,0.036671436191324014,-0.0007186404335782475,-0.029092488922831027,0.05378939535387988,-0.00874925672477594,-0.0465781588843647, ,0.046815420409648874, ,0.05449612560037451, ,0.0012319903503318875, ,0.3345333426456573,-0.1847354930843245,0.12041626697000002,-4.447314011363277,0.6330369034132856,-0.8276401839814842, ,0.2427031753413575,0.07616126930856403,0.03866216388349515,0.06653195789328223,0.24026750273579459,-0.06262867507650803, ,1.827578067779541
0.031204329694862483,0.021987783071903615,-0.10559407894358808, ,0.03270680889231525,0.0215613750771477,-0.1062749316923897, ,0.0017037687584648378, ,0.036671436191324014,-0.0007186404335782475,-0.029092488922831027,0.05378939535387988,-0.00874925672477594,-0.0465781588843647, ,0.046815420409648874, ,0.05449612560037451, ,0.001235409034448793, ,0.3345333426456573,-0.1847354930843245,0.12041626697000002,-4.447314011363277,0.6330369034132856,-0.8276401839814842, ,0.2427031753413575,0.07616126930856403,0.03866216388349515,0.06653195789328223,0.24026750273579459,-0.06262867507650803, ,1.8329482078552246
0.031576950293304124,0.02197884759744162,-0.10589082158460092, ,0.0329038798640417,0.021558684182868493,-0.10643449111454642, ,0.0014942743852568473, ,0.036715479196298695,-0.0006600477500798597,-0.029142578615132413,0.014280989807051076,-0.018841062106152197,-0.011366339460994027, ,0.04688018732882155, ,0.023641304338167565, ,0.0012372713751020884, ,0.33699689443253494,-0.1839786652626505,0.12081033913000001,-4.447314011363277,0.6354963604090635,-0.8280938101853491, ,0.2408551816204842,0.07384975996768155,0.03875623240875913,0.03794958779181437,0.22980965085104463,-0.030081191015906714, ,1.8386321067810059
0.031944272594256876,0.021970297590184252,-0.10618559824261962, ,0.03310078505511844,0.021555841854108086,-0.10659271255226223, ,0.0012942320852189833, ,0.03606077746434025,-0.0010412699650267539,-0.029081583496312485,-0.02057077287886941,-0.040063682828706725,0.023131931905672413, ,0.04633791550259605, ,0.04503592540787946, ,0.001237678237317209, ,0.3393832188906703,-0.18322956017385073,0.12120052242000001,-4.4471043214197925,0.6376825444053106,-0.8283246005818211, ,0.23259054303546764,0.07419620137487942,0.038382678361445786,0.0,0.20410762328200002,-0.011589124397904979, ,1.8441600799560547
0.031944272594256876,0.021970297590184252,-0.10618559824261962, ,0.0332975144257894,0.0215528496905328,-0.1067495867662238, ,0.0015243389578076523, ,0.03606077746434025,-0.0010412699650267539,-0.029081583496312485,-0.02057077287886941,-0.040063682828706725,0.023131931905672413, ,0.04633791550259605, ,0.04503592540787946, ,0.0012397112920724603, ,0.3393832188906703,-0.18322956017385073,0.12120052242000001,-4.4471043214197925,0.6376825444053106,-0.8283246005818211, ,0.23259054303546764,0.07419620137487942,0.038382678361445786,0.0,0.20410762328200002,-0.011589124397904979, ,1.8494350910186768
0.03231094443190171,0.02196476308366206,-0.10648267207915968, ,0.03349405801968658,0.021549709301872895,-0.10690510467659266, ,0.001323055819968548, ,0.036354653106177,-0.0006161349726913467,-0.02956001779395317,0.011747067312549183,-0.01650790700722301,-0.034237274353380996, ,0.04685973833424453, ,0.02026035573788882, ,0.0012402982253675032, ,0.3415610295612016,-0.18252679148229628,0.12156477991000002,-4.446475251589339,0.6395954554020268,-0.8284142339110407, ,0.2343134359468414,0.0743124052924595,0.03894574943765281,0.026494128404048505,0.21547604069786092,-0.019705985897759, ,1.8546931743621826
0.03231094443190171,0.02196476308366206,-0.10648267207915968, ,0.0336904059635975,0.02154642230785281,-0.10705925736241563, ,0.0015525378291689155, ,0.036354653106177,-0.0006161349726913467,-0.02956001779395317,0.011747067312549183,-0.01650790700722301,-0.034237274353380996, ,0.04685973833424453, ,0.02026035573788882, ,0.0012424817191003803, ,0.3415610295612016,-0.18252679148229628,0.12156477991000002,-4.446475251589339,0.6395954554020268,-0.8284142339110407, ,0.2343134359468414,0.0743124052924595,0.03894574943765281,0.026494128404048505,0.21547604069786092,-0.019705985897759, ,1.8600242137908936
0.032659868849348475,0.02195980636975471,-0.10677040029380291, ,0.03388654846723511,0.02154299033812302,-0.10721203606103813, ,0.001368766101298948, ,0.036192344986573616,-0.00026398008768764233,-0.029116051124169276,0.016032129046580187,0.010411017306993184,-0.028479073516339777, ,0.04645104901053468, ,0.01911537387241191, ,0.001243358693976759, ,0.343947354019337,-0.1817776863934965,0.12197440755000001,-4.445846181758886,0.6420549123978047,-0.8287045026346247, ,0.23202186200115102,0.0705553468836214,0.03894574943765281,0.06647398715119873,0.24442994746218258,-0.015095655186038615, ,1.8653101921081543
0.032659868849348475,0.02195980636975471,-0.10677040029380291, ,0.03408247582300164,0.021539415032189205,-0.10736343216751362, ,0.00159756886594086, ,0.036192344986573616,-0.00026398008768764233,-0.029116051124169276,0.016032129046580187,0.010411017306993184,-0.028479073516339777, ,0.04645104901053468, ,0.01911537387241191, ,0.0012458015227489255, ,0.343947354019337,-0.1817776863934965,0.12197440755000001,-4.445846181758886,0.6420549123978047,-0.8287045026346247, ,0.23202186200115102,0.0705553468836214,0.03894574943765281,0.06647398715119873,0.24442994746218258,-0.015095655186038615, ,1.8705999851226807
0.03302341946875252,0.021953403705785923,-0.10706278727545712, ,0.03427817840576002,0.021535698039344357,-0.10751343723401685, ,0.0013971339946216583, ,0.03597710871141421,-0.0006632104061276289,-0.029116143179503125,0.04154050983414423,0.016518258588108355,-0.01072308270416416, ,0.04628760085514304, ,0.04470398079458736, ,0.0012468380465288757, ,0.346287342080227,-0.18106719496906784,0.12236588713000002,-4.445846181758886,0.6446510058933481,-0.8290245105217643, ,0.2297746768970237,0.07238515755794873,0.03894574943765281,0.03705886241360752,0.2579092640733843,-0.051728930901703676, ,1.8759231567382812
0.03302341946875252,0.021953403705785923,-0.10706278727545712, ,0.03447364667259817,0.02153184101859831,-0.1076620429692546, ,0.0016248019659489306, ,0.03597710871141421,-0.0006632104061276289,-0.029116143179503125,0.04154050983414423,0.016518258588108355,-0.01072308270416416, ,0.04628760085514304, ,0.04470398079458736, ,0.0012494092296541821, ,0.346287342080227,-0.18106719496906784,0.12236588713000002,-4.445846181758886,0.6446510058933481,-0.8290245105217643, ,0.2297746768970237,0.07238515755794873,0.03894574943765281,0.03705886241360752,0.2579092640733843,-0.051728930901703676, ,1.8812282085418701
0.03339539381959183,0.02194673549382746,-0.10736918322211518, ,0.03466887116259831,0.0215278456386091,-0.10780924123787682, ,0.0014109799116896627, ,0.03702533563895538,-0.00032682266129267085,-0.03129853366585879,-0.031084471171325217,-0.014151318447827584,0.03532421118417952, ,0.0484827856239937, ,0.034153683949815265, ,0.0012505009234517193, ,0.348627330141117,-0.1803258126131423,0.12277292219000001,-4.4456364918154,0.647110462889126,-0.8292331005052076, ,0.2286673290565561,0.07060784342148123,0.04126635108808291,0.0,0.22524675464418195,0.0076850936613991755, ,1.886476993560791
0.03339539381959183,0.02194673549382746,-0.10736918322211518, ,0.03486384249660376,0.021523713577613336,-0.10795502405988854, ,0.0016366119105696813, ,0.03702533563895538,-0.00032682266129267085,-0.03129853366585879,-0.031084471171325217,-0.014151318447827584,0.03532421118417952, ,0.0484827856239937, ,0.034153683949815265, ,0.0012530922723585512, ,0.348627330141117,-0.1803258126131423,0.12277292219000001,-4.4456364918154,0.647110462889126,-0.8292331005052076, ,0.2286673290565561,0.07060784342148123,0.04126635108808291,0.0,0.22524675464418195,0.0076850936613991755, ,1.8917601108551025
0.033774449076968936,0.021949132546745204,-0.10768192596505244, ,0.03505855137698659,0.02151944652335681,-0.10809938361006163, ,0.0014169755400085698, ,0.03711805868046258,0.00016348509462625962,-0.030611040906890832,-0.019149343288343036,-0.0038624121058816996,0.011058393059788885, ,0.04811250183669284, ,0.01953429543265713, ,0.0012541848274762182, ,0.35096731820200705,-0.17963848938733631,0.12318903128000001,-4.445007421984948,0.649296646885373,-0.8289738184608362, ,0.2297746768970237,0.06654764485166254,0.040843106461538464,0.030518462704985556,0.23113839607898298,0.011326001629127141, ,1.897017002105713
0.033774449076968936,0.021949132546745204,-0.10768192596505244, ,0.03525298858741527,0.021515046173025538,-0.10824231221734579, ,0.0016396776559919801, ,0.03711805868046258,0.00016348509462625962,-0.030611040906890832,-0.019149343288343036,-0.0038624121058816996,0.011058393059788885, ,0.04811250183669284, ,0.01953429543265713, ,0.0012567377601153955, ,0.35096731820200705,-0.17963848938733631,0.12318903128000001,-4.445007421984948,0.649296646885373,-0.8289738184608362, ,0.2297746768970237,0.06654764485166254,0.040843106461538464,0.030518462704985556,0.23113839607898298,0.011326001629127141, ,1.9023971557617188
0.03394257694954344,0.021950320211167797,-0.1078191701287536, ,0.03544714499262167,0.021510514233175786,-0.10838380236427969, ,0.0016661224012433687, ,0.037220253248949925,0.0001765994583101168,-0.029915535014545414,0.017724957151502598,0.016567694908047097,-0.049253189282501796, ,0.0477526719094454, ,0.024261876694746214, ,0.0012594310801228162, ,0.3520098871400274,-0.17932958007236735,0.12337310446000001,-4.444588042097978,0.6503897388834965,-0.8289666955488615, ,0.23202186200115102,0.06841884755477344,0.04032610511392406,0.09326422353663565,0.2448934231501943,-0.00426509854801066, ,1.907905101776123
0.03394257694954344,0.021950320211167797,-0.1078191701287536, ,0.03564101153816929,0.021505852419665454,-0.1085238466864038, ,0.0018917718468212193, ,0.037220253248949925,0.0001765994583101168,-0.029915535014545414,0.017724957151502598,0.016567694908047097,-0.049253189282501796, ,0.0477526719094454, ,0.024261876694746214, ,0.0012635640263103875, ,0.3520098871400274,-0.17932958007236735,0.12337310446000001,-4.444588042097978,0.6503897388834965,-0.8289666955488615, ,0.23202186200115102,0.06841884755477344,0.04032610511392406,0.09326422353663565,0.2448934231501943,-0.00426509854801066, ,1.9132640361785889
0.034476279888874216,0.02193397889127971,-0.10822028242990277, ,0.03583457925021978,0.021501062457584014,-0.10866243797167058, ,0.0014926135858659318, ,0.031187715072249187,-0.0017701676636814462,-0.01987173890851985,-0.10371833090306168,-0.06790416738265324,0.00428078640648407, ,0.03702287228503111, ,0.12396961327095281, ,0.0012650513611126963, ,0.35543878053618305,-0.1782792884014728,0.12392402771000001,-4.4443783521544935,0.6542155608769288,-0.829145962207301, ,0.20407944421176513,0.06251445425459208,0.028242573617021278,0.0379117566534222,0.12729115986554665,0.0874797948454503, ,1.9186220169067383
0.034476279888874216,0.02193397889127971,-0.10822028242990277, ,0.03602783923530089,0.021496146081183703,-0.10879956915985607, ,0.0017130694937977629, ,0.031187715072249187,-0.0017701676636814462,-0.01987173890851985,-0.10371833090306168,-0.06790416738265324,0.00428078640648407, ,0.03702287228503111, ,0.12396961327095281, ,0.0012679418006784065, ,0.35543878053618305,-0.1782792884014728,0.12392402771000001,-4.4443783521544935,0.6542155608769288,-0.829145962207301, ,0.20407944421176513,0.06251445425459208,0.028242573617021278,0.0379117566534222,0.12729115986554665,0.0874797948454503, ,1.9241001605987549
0.034796800119810734,0.021910592440342953,-0.10841875436927503, ,0.0362207826800744,0.021491105033809948,-0.10893523334197217, ,0.0015717654231510302, ,0.035086719730540276,-0.0020881906663837366,-0.024358966696992425,-0.022254899826681683,-0.041713453213957814,0.02064451321550375, ,0.042764444346370764, ,0.047278791959401587, ,0.0012698893880019487, ,0.3575625320765948,-0.17760741064141528,0.12420921151000001,-4.444168662211009,0.6557185623743488,-0.8285746268648692, ,0.22594509894873996,0.07266228296973261,0.033963350788912584,0.0,0.195117874389045,-0.00959231902539584, ,1.92970609664917
0.034796800119810734,0.021910592440342953,-0.10841875436927503, ,0.03641340085110379,0.021485941067832377,-0.10906942375967797, ,0.0017936268754118548, ,0.035086719730540276,-0.0020881906663837366,-0.024358966696992425,-0.022254899826681683,-0.041713453213957814,0.02064451321550375, ,0.042764444346370764, ,0.047278791959401587, ,0.0012732252955650692, ,0.3575625320765948,-0.17760741064141528,0.12420921151000001,-4.444168662211009,0.6557185623743488,-0.8285746268648692, ,0.22594509894873996,0.07266228296973261,0.033963350788912584,0.0,0.195117874389045,-0.00959231902539584, ,1.9351310729980469
0.03527986105893471,0.021905025796510453,-0.1087857614401638, ,0.036605685094620005,0.02148065594457484,-0.10920213380468996, ,0.0014530193015833647, ,0.03617257999855309,0.00041753389131651483,-0.02684363422530687,0.09782412446447707,0.047462455633485494,-0.0438657800968316, ,0.04504675989151925, ,0.10873007902050952, ,0.0012743632323120205, ,0.3606207342947877,-0.176703850895131,0.12471735719000002,-4.443329902437071,0.6595443843677811,-0.8298157171451361, ,0.2297746768970237,0.060023365944636795,0.03765676482269504,0.07492163678600945,0.2864680616136721,-0.07866010123286721, ,1.9405150413513184
0.03527986105893471,0.021905025796510453,-0.1087857614401638, ,0.03679762683629082,0.02147525143424658,-0.1093333570181957, ,0.0016697843796289438, ,0.03617257999855309,0.00041753389131651483,-0.02684363422530687,0.09782412446447707,0.047462455633485494,-0.0438657800968316, ,0.04504675989151925, ,0.10873007902050952, ,0.0012768501577668438, ,0.3606207342947877,-0.176703850895131,0.12471735719000002,-4.443329902437071,0.6595443843677811,-0.8298157171451361, ,0.2297746768970237,0.060023365944636795,0.03765676482269504,0.07492163678600945,0.2864680616136721,-0.07866010123286721, ,1.945777177810669
0.035639737856204064,0.021901465135183016,-0.10904309140219223, ,0.03698921758098746,0.021469729315872724,-0.10946308709026287, ,0.0014777982688022474, ,0.03571312213059938,-0.0010031918525742886,-0.025431534977880654,-0.04319046512334908,-0.023163324648923782,0.007343654878757261, ,0.043854263846738385, ,0.049009644441600005, ,0.0012781060834608153, ,0.36289894049268395,-0.1760705867994446,0.12507902210000002,-4.442700832606618,0.6618672048637936,-0.8299128892248829, ,0.2243426514384652,0.06626881393747959,0.03555538285714287,0.03390638561932198,0.2022500042429591,0.03338976986882522, ,1.9511191844940186
0.035639737856204064,0.021901465135183016,-0.10904309140219223, ,0.037180448912290484,0.02146409137715079,-0.10959131785920391, ,0.0016928197218634184, ,0.03571312213059938,-0.0010031918525742886,-0.025431534977880654,-0.04319046512334908,-0.023163324648923782,0.007343654878757261, ,0.043854263846738385, ,0.049009644441600005, ,0.0012806819445689058, ,0.36289894049268395,-0.1760705867994446,0.12507902210000002,-4.442700832606618,0.6618672048637936,-0.8299128892248829, ,0.2243426514384652,0.06626881393747959,0.03555538285714287,0.03390638561932198,0.2022500042429591,0.03338976986882522, ,1.9565410614013672
0.035960590618673745,0.021892424662939874,-0.10928758678876399, ,0.03737131249330716,0.02145833941467987,-0.10971804331118487, ,0.0015374846431821204, ,0.03632001937523208,-0.0005348973807699463,-0.029188629149344565,-0.054610773674458976,-0.02776508616119526,0.01414945209378203, ,0.04659834754841802, ,0.061263491770458554, ,0.0012822671464121974, ,0.36486051464273694,-0.17546821363525508,0.12541346492000002,-4.442700832606618,0.6636434793607443,-0.8295643896898439, ,0.21567486717834267,0.06701761409496525,0.039330398814814815,0.02447294659122369,0.1894478592566248,0.03875266558596685, ,1.9618639945983887
0.035960590618673745,0.021892424662939874,-0.10928758678876399, ,0.03756180006485963,0.021452475233440647,-0.10984325757933477, ,0.001751056029533369, ,0.03632001937523208,-0.0005348973807699463,-0.029188629149344565,-0.054610773674458976,-0.02776508616119526,0.01414945209378203, ,0.04659834754841802, ,0.061263491770458554, ,0.0012851431518301187, ,0.36486051464273694,-0.17546821363525508,0.12541346492000002,-4.442700832606618,0.6636434793607443,-0.8295643896898439, ,0.21567486717834267,0.06701761409496525,0.039330398814814815,0.02447294659122369,0.1894478592566248,0.03875266558596685, ,1.9672281742095947
