NicholasDascanio/dvrk_moveit_final/test/execution/second_exp_sharpbends/firstexp_200vel5.csv
Current Position (x),Current Position (y),Current Position (z), ,Planned Position (x),Planned Position (y),Planned Position (z), ,Position Error,,Cartesian linear Velocity(x),Cartesian linear Velocity(y),Cartesian linear Velocity(z),Cartesian Angular Velocity(x),Cartesian Angular Velocity(y),Cartesian Angular Velocity(z), ,Total Linear Velocity, ,Total Angular Velocity, ,MSE, ,Joint 1 Position,Joint 2 Position,Joint 3 Position,Joint 4 Position,Joint 5 Position,Joint 6 Position, ,Joint 1 Velocity,Joint 2 Velocity,Joint 3 Velocity,Joint 4 Velocity,Joint 5 Velocity,Joint 6 Velocity, ,Time Stamp
0.011653279903987117,0.01926852213262992,-0.08175216061735073, ,0.011684244736670636,0.019329835313985456,-0.08179800226851947, ,8.258077290102722e-05, ,-0.002722699632279006,0.0009735171534276618,6.592625852224143e-05,-0.18429276397377334,0.27396103981716574,0.0849277611868201, ,0.002892261261918237, ,0.3301794575542149, ,6.881731075085602e-06, ,0.1629342181803887,-0.22553469085885258,0.09145585208000001,-4.534125647965871,0.19812292465988865,-1.118912473547341, ,-0.005677992666952638,-0.007936997706355888,0.00018594666586539346,-0.005834054061838394,0.2511577126578508,0.22856989262972804, ,0.05364108085632324
0.011661382375333791,0.019336694901363218,-0.08174065998867146, ,0.011579158869365154,0.01948077949933631,-0.08175217943574462, ,0.00016629423912966132, ,-0.0006609909346220185,0.0018283560691102912,5.555850869913933e-05,-0.05110801738856113,-0.0451042069489572,-0.005556505859250011, ,0.0019449631562047129, ,0.06816464571817142, ,1.1312500546849479e-05, ,0.1622391722217085,-0.2264845870023822,0.09144937063000001,-4.534125647965871,0.19047128067302396,-1.126721814244518, ,-0.015281311040011398,-0.022773444098505104,0.00016394952996842357,-0.004189783205355717,-0.07043908432216378,0.06376279657272377, ,0.10900712013244629
0.011545161179036657,0.019462849250590226,-0.08172192817634828, ,0.011482898429599547,0.019627385793880327,-0.0817146451099457, ,0.00017607375472099155, ,-0.0024362227458386274,0.0029572653362249413,0.000401454424757687,0.020608063143012226,0.051461699665422474,0.01650668606325026, ,0.0038525011604588315, ,0.055434635373208085, ,1.3279648960990002e-05, ,0.1612352169480593,-0.2279673517142333,0.09144937063000001,-4.534125647965871,0.19375055666739455,-1.1220447573205816, ,-0.02564089207199967,-0.03555524224746001,0.0,-0.003409268220128046,0.025414142878307133,0.017676544523344193, ,0.16288113594055176
0.011449423623401246,0.019617596188624416,-0.08169590944016233, ,0.011395172619870539,0.019769584656052816,-0.0816850893936277, ,0.00016174281752935512, ,-0.0015027435467490579,0.0032473691152765227,0.0004623674592827866,-0.012654118481172882,-0.034326412020126866,-0.004282188384322435, ,0.0036079672955213137, ,0.03658454969944406, ,1.430955083612281e-05, ,0.1600381933525545,-0.22986714400129254,0.09144548176,-4.534125647965871,0.19279410116903647,-1.1211014745144254, ,-0.024116122378264496,-0.04034733909798928,0.0,-0.0028679746524256913,-0.06598984411374466,0.043296321343653986, ,0.21279406547546387
0.011355917400646698,0.01978513428854014,-0.08167028989696236, ,0.011315906517347311,0.019907476874904934,-0.08166341947088532, ,0.00012890221865935602, ,-0.0013289333878651107,0.0029650576124456104,0.00045942630803558616,-0.03289083286661618,-0.03860296653137536,-0.005540197502548043, ,0.0032815702227774303, ,0.05071484902552886, ,1.4311876058807824e-05, ,0.15876394242830746,-0.23192911367871047,0.09144418547000001,-4.534125647965871,0.1908811901723203,-1.1197049813429567, ,-0.022621440180803525,-0.03711260913510785,-3.85866611398847e-05,-0.0024532150845442027,-0.07119702108373414,0.059859496152374396, ,0.26029014587402344
0.011283838316661314,0.01990147712443069,-0.0816531043480836, ,0.011245013765510712,0.020041141228590527,-0.08164953667681096, ,0.00014500391733027564, ,-0.0017676166613333252,0.002725246887438107,0.0004284251280938584,0.02056283971930452,0.010316325924287946,0.004869399424727518, ,0.0032764290545190355, ,0.023005585363079933, ,1.4586402038485879e-05, ,0.15788355088064587,-0.23330376013032245,0.09144418547000001,-4.534125647965871,0.19033464417325854,-1.1191776309880304, ,-0.022074189708878988,-0.03343796390361902,-2.8004335786063846e-05,-0.002213158080946111,-0.008153591634252614,0.00664870725644043, ,0.3079710006713867
0.011209267979178358,0.020023698535607308,-0.08163432213892766, ,0.011182332612619745,0.020170615366319422,-0.08164328270865945, ,0.00014963409012673946, ,-0.0015858947789459965,0.002445445207127635,0.00037061440234063337,0.020110746038597454,0.012728872362543261,0.00527709318818832, ,0.002938131982429312, ,0.02380055246944675, ,1.5078086722349346e-05, ,0.15685642740837402,-0.23485602943804157,0.09144288918000001,-4.534125647965871,0.1888316426758387,-1.1178703553072293, ,-0.019074762122305685,-0.02982304888701156,0.0,-0.001965299849174068,-0.0072194511842406115,0.00812558558914598, ,0.35123300552368164
0.011155909257671636,0.02011879882269754,-0.08162310180521341, ,0.011127781911046875,0.020295983592171333,-0.08164455181339594, ,0.00018068119164058453, ,-0.0014272223046278465,0.0024205911382857758,0.00036543041989036215,0.024392520812730738,0.016545689926207214,0.006593360582495211, ,0.0028336838845143078, ,0.029474648882280238, ,1.587884002717321e-05, ,0.15609187685382578,-0.23602216210204946,0.09144548176,-4.534125647965871,0.1874652776781843,-1.116592818789984, ,-0.01642099698191223,-0.029325383670726447,3.479179790208138e-05,-0.001806104782559757,0.0,0.0043482916843417055, ,0.3935232162475586
0.011108236956062799,0.020216281928718847,-0.0816101410343148, ,0.011081213194524134,0.020417286547797633,-0.08165319831778266, ,0.00020733323476552918, ,-0.0014931133442612837,0.002677218968584085,0.00038388348737006814,0.04077061328255236,0.018381050007874093,0.0020409117975615345, ,0.003089377833226773, ,0.04472254360864788, ,1.6846340202452046e-05, ,0.15541227636089402,-0.23721146296468004,0.09144807434,-4.533915958022385,0.18623554918029533,-1.1151816639560135, ,-0.017009668678700626,-0.032212132233017915,7.594794036819752e-05,0.0029530515504844978,0.0018068239449215776,-0.008336512615348055, ,0.4367191791534424
0.011064938419034304,0.020324981986773787,-0.08159611683139337, ,0.011042526237266252,0.02053459106923822,-0.08166911537397553, ,0.00022308532126140928, ,-0.0008679169737827153,0.0027074326791673327,0.00034200886196041915,0.0056458363067555875,-0.016078275286792836,-0.004931577891990205, ,0.002863641326574054, ,0.01704072779550737, ,1.7816830308405815e-05, ,0.1548021804638303,-0.23853205028617244,0.09145325950000001,-4.533915958022385,0.18514245718217182,-1.1139636057658797, ,-0.013483509741186527,-0.03287043351523061,0.00015476861938737443,0.0027658139037880364,-0.0345839869852378,0.02265373159086652, ,0.4804990291595459
0.011028285794815728,0.020418670992049137,-0.08158889077309113, ,0.011011610101667868,0.020647963311008426,-0.08169216434167575, ,0.0002520287210694306, ,-0.0009606488564868688,0.0027096633903239977,6.876818767319055e-05,0.00941521670221124,0.010364350820061718,0.0025267252560073027, ,0.0028757348587739318, ,0.014002359567976802, ,1.911592121565673e-05, ,0.15434653922425104,-0.23964412382006076,0.09146362982,-4.533915958022385,0.18486918418264095,-1.1134140549979246, ,-0.011966827434863906,-0.03163231385282359,0.0004535522624889058,0.002594730879193418,-0.005181914626297,0.021730188658254507, ,0.5176241397857666
0.01099669192228798,0.020544484475539415,-0.08159944403163119, ,0.010986601388286645,0.0207566294316969,-0.08172174601230348, ,0.0002450817736508711, ,-0.0007713906465951863,0.00282112999150857,-0.0006611412675448511,0.0125542756579787,0.0082045973908683,0.004545322575449964, ,0.002998487240975772, ,0.014997508314471211, ,2.017563859795458e-05, ,0.15384456158742646,-0.24108055213466653,0.09149862965000001,-4.533706268078901,0.18391272868428285,-1.112225735971347, ,-0.011054300022087302,-0.030830715256163342,0.0012111347710589393,0.0,-0.00527080650547391,0.01735573689064044, ,0.5546071529388428
0.010982794710432104,0.020629287161622035,-0.08162411485194704, ,0.010972434771530561,0.020863309291650426,-0.08175782504798336, ,0.0002697259761334463, ,-0.00031961347434298384,0.002887559284615958,-0.0009403237062171889,-0.040785067858388487,-0.015248504677410395,0.00036701445445351966, ,0.0030535815148162405, ,0.043542377692423105, ,2.1322928829631047e-05, ,0.15355882047108016,-0.24199955734669923,0.09154011093000002,-4.533706268078901,0.18322954618545564,-1.1109335377915999, ,-0.009278706819358275,-0.031144385152107244,0.0015132791108797255,0.0,-0.03456557740566604,0.06743436914634775, ,0.591386079788208
0.010969387316690551,0.02069919610076033,-0.08165022764729898, ,0.01096427157498518,0.02096502641517179,-0.08180289210317522, ,0.0003065915246077086, ,-0.0005182223378642679,0.0029388974460039068,-0.0013484728991650318,0.027441734086322268,0.008999183525748267,0.004735062208531857, ,0.003274759800255942, ,0.028879648089789142, ,2.2836945368867678e-05, ,0.15333486121772763,-0.24273321696975056,0.09158029592000001,-4.533706268078901,0.1830929096856902,-1.1104137261872005, ,-0.008718294431917411,-0.03000219461222598,0.0019457772123898265,0.0,0.0,0.0022314484528022857, ,0.6230340003967285
0.010963201299086428,0.020817824116842173,-0.0817210335922942, ,0.010963232397587865,0.02106317269267135,-0.08185325969530045, ,0.0002787107226942342, ,-0.00041246057963197465,0.0028939711531448032,-0.0017801934459874985,0.03403843982289638,0.011057500815502285,0.007940983683983955, ,0.003422613251613663, ,0.03578943572961012, ,2.3979599001779193e-05, ,0.15301050643701022,-0.24389934963375848,0.09167492509000001,-4.5330771982484475,0.18199981768756668,-1.1089506317766453, ,-0.007686685110625529,-0.028184419827285645,0.0024054381636967686,-0.0028551614128151277,0.00489970197928582,0.016526063476761624, ,0.6547391414642334
0.010953044258086714,0.020903884239703192,-0.08176382715370445, ,0.010969433707423147,0.021157781205428206,-0.08191014028616059, ,0.0002934958534341633, ,-0.00020798333968279162,0.002866001768168063,-0.0012386688797944953,0.0044248210570861195,-0.00387687397716852,0.006996727630902344, ,0.00312914106401412, ,0.008383733870289374, ,2.5130508689652177e-05, ,0.15277110171790925,-0.24505775956489215,0.09175659136000001,-4.5330771982484475,0.1817265446880358,-1.1079926873079873, ,-0.004277224570093392,-0.0283867608610442,0.00212157851891316,-0.0028551614128151277,-0.015758732899704083,0.06001354048361514, ,0.6869730949401855
0.010957364029037442,0.021014818503316508,-0.08183144894597787, ,0.010982702110879719,0.021248743322036117,-0.08197343510976579, ,0.0002748143189712999, ,-6.711100343956636e-05,0.0029910793088193085,-0.0020593478190214587,0.015372397304152494,0.02258170895632266,0.013227003601716008, ,0.003632075544112222, ,0.027317470201827617, ,2.6042503298721197e-05, ,0.15267842892341857,-0.24584547831806305,0.09182788731000001,-4.5330771982484475,0.18145327168850492,-1.1071981003196103, ,-0.002469887342278535,-0.02794374015267102,0.002736909195876289,-0.0028551614128151277,0.019849911286304287,0.014753639948156835, ,0.7193231582641602
0.01096152035684395,0.021079563934629612,-0.08187475871422208, ,0.011002938855631847,0.02133617150797821,-0.08204301572479991, ,0.0003096342363988326, ,0.0002779053394046199,0.003031583806620983,-0.002133490960915062,0.0050234665401161175,0.0061695737942209575,-0.0036349961356290155, ,0.0037174608854085396, ,0.00795605787044067, ,2.7314997766134152e-05, ,0.1526629834576701,-0.2464555742151268,0.09188622036,-4.5330771982484475,0.18158990818827037,-1.1069011245226041, ,-0.0006381915087801726,-0.028142627982939143,0.0028348125146823284,0.01000261357669126,0.0,0.0245202049099394, ,0.7457230091094971
0.0109779452644482,0.021172446359522475,-0.08194775637300461, ,0.011030041674432438,0.021420123529074298,-0.08211876367732134, ,0.00030545296590493427, ,0.0005533045661105855,0.002974337813819419,-0.002634877921793479,-0.012324982425779167,-0.014581511524808608,0.03456636357238889, ,0.00401190890180094, ,0.01909255535586821, ,2.8471696239245546e-05, ,0.15267842892341857,-0.24728962936554302,0.09198084953,-4.53223843847451,0.18117999868897403,-1.1059951196305309, ,0.0007569881342109027,-0.026898226065326186,0.003324042470784642,-0.03238123719266357,-0.010568484087198094,0.03299426017785938, ,0.7728312015533447
0.01099351052082273,0.021266212356117434,-0.08203210116526523, ,0.011063892202056311,0.021500649306402213,-0.08220056823785439, ,0.0002971454513514476, ,0.000669716805818715,0.003080943086072369,-0.0031362768356836164,-0.006254553342478479,-0.010576593152135766,0.018556905575441263, ,0.004447129781067648, ,0.012287544910041, ,2.9496775511796673e-05, ,0.15270931985491545,-0.24810823905021082,0.09208714531000001,-4.53223843847451,0.18117999868897403,-1.1052600109692658, ,0.0012776316989934076,-0.02623636758597478,0.0038503291080493117,-0.015791887259702004,-0.009510097516544235,0.02882179452372615, ,0.7990210056304932
0.011009302570882262,0.021332944554604327,-0.08210988073480766, ,0.011104403987169503,0.021577821200506428,-0.08228831056666532, ,0.00031756268040318385, ,0.0010373434450394788,0.0035457176210542257,-0.004556526101570723,-0.005063362647963391,-0.006313222249925851,0.004251829902695217, ,0.005866014403793781, ,0.008092861948508934, ,3.078435988828698e-05, ,0.1527556562521608,-0.2486411076185323,0.09218047819000001,-4.532448128417994,0.18117999868897403,-1.104688259788282, ,0.003227178143577061,-0.026921118172615822,0.005381355243243244,0.0,-0.007336808552446581,0.030964015191002742, ,0.8204941749572754
0.011028280004746207,0.02140234699251932,-0.08219866740839529, ,0.011151437188097985,0.02165165786754749,-0.08238187810696325, ,0.0003330011475779241, ,0.0010098968594466112,0.0032153119029435413,-0.004040999797587371,-0.03016777743470759,-0.0009192706767965752,-0.0009681284184967882, ,0.005261919959865574, ,0.03018178014713022, ,3.2104257423033996e-05, ,0.1528174381151546,-0.24915853072110536,0.09228547768,-4.532028748531025,0.18117999868897403,-1.1041981873474385, ,0.003958261553938393,-0.024439078433806535,0.004803622291917975,0.00715649049288043,-0.00597964530465799,0.05511135166221856, ,0.8449850082397461
0.011050672506926002,0.02146592313785805,-0.08228059572554577, ,0.011204897853380878,0.021722238870671054,-0.08248115896337259, ,0.00036015111376222286, ,0.0011303458465434099,0.003113697143772732,-0.0039852961310706805,-0.00260511218304078,-0.008089230380496516,0.025254362678800723, ,0.005182217371768898, ,0.008498367880343754, ,3.35259389203965e-05, ,0.1529178336425195,-0.24962961742643305,0.09238269943,-4.531609368644055,0.18104336218920858,-1.1035150182627582, ,0.006259021402397224,-0.023759875202421326,0.004750614828511781,-0.020825707007878707,0.00037441419173005197,0.023309601583818788, ,0.8663091659545898
0.011075786996456762,0.02152924315339967,-0.08236718907515875, ,0.011264736426487345,0.02178964833011438,-0.08258602549102392, ,0.0003891042534815267, ,0.0015940239482184141,0.0032821937134177174,-0.005031918031834196,0.015506796271256453,-0.01145411137659347,0.024576457589369098, ,0.006215617990110937, ,0.01927841785001133, ,3.5264049984976844e-05, ,0.153072288300004,-0.2500852586660123,0.09248510634000001,-4.531609368644055,0.18117999868897403,-1.1030546849854705, ,0.010172594746780244,-0.022381354141148765,0.005862646860507914,-0.020825707007878707,0.003521431221521396,0.004073607065923409, ,0.8823001384735107
0.011117476422364894,0.021605668340186342,-0.08249829655480921, ,0.011330769331069452,0.021853889451806444,-0.0826963845789353, ,0.0003825525460113265, ,0.002269472235814106,0.0037665878739565435,-0.007126308180124413,-0.01747492431382137,-0.004128218252387449,-0.000970256534448515, ,0.008373885401620665, ,0.01795592234707209, ,3.690168546460049e-05, ,0.1533271384848534,-0.25055634537134,0.09263547598,-4.531609368644055,0.18117999868897403,-1.1024829338044868, ,0.014167951860028482,-0.02098561290545572,0.008081588797564689,0.00808728332680437,0.003079975998356582,0.04026183991457938, ,0.8987441062927246
0.0111379253584126,0.021638948046087614,-0.08256227517793385, ,0.0114029206610116,0.02191503454919553,-0.08281211539370716, ,0.00045701903791367705, ,0.0026652351584537555,0.003747010163279318,-0.007395974063505247,-0.029807310030056912,-0.00690277979361149,-0.008226557182506996, ,0.00870884584555375, ,0.030596144822138176, ,3.891513884553e-05, ,0.15346614767658945,-0.25073396822744715,0.09270806822000001,-4.531399678700571,0.1813166351887395,-1.102267636747621, ,0.01806528489595865,-0.019708606761883858,0.008383585010526317,0.01565164863148606,0.0006883983593101113,0.05224278693936753, ,0.9149692058563232
0.01120356839239987,0.021728132857067664,-0.08274850030205033, ,0.011481088447425371,0.021973136735855974,-0.08293310992540426, ,0.00041367256930760195, ,0.0035035301884268,0.00432492092182912,-0.009221935123172445,-0.019266549547926132,-0.0012625293118915016,-0.026125816787262095, ,0.010771432224978011, ,0.019307870028785194, ,4.061186543279292e-05, ,0.15392951164904292,-0.2511664412684037,0.09291806720000001,-4.530980298813603,0.18158990818827037,-1.1018370426338893, ,0.025421093372212905,-0.020012007920386078,0.010404187798824299,0.03651251792425139,0.009659449756501372,0.046307993060131517, ,0.9310572147369385
0.011236842910119688,0.02177051942253539,-0.0828349391001202, ,0.011565170258084994,0.022028248586888448,-0.08305925900698856, ,0.00047385925146343317, ,0.003295510033271318,0.003977666722876869,-0.007815908952913467,0.03671603818106769,0.014101728920612322,-0.014965291587517091, ,0.009368599238835379, ,0.039330982559512444, ,4.283014521018189e-05, ,0.154207530032515,-0.25137495505600777,0.09301658524,-4.530980298813603,0.18199981768756668,-1.1017629026442757, ,0.028514705997136652,-0.019782560258176107,0.008984101252115061,0.029017250070715928,0.038163716810888475,-0.007560656544480208, ,0.9423131942749023
0.011274709069734353,0.02181052619464565,-0.0829175243400317, ,0.011655064426012971,0.02208042229536158,-0.08319045436378342, ,0.0005403747774430348, ,0.003932849409610334,0.004124503872677135,-0.00881981004925215,-0.002887903441726833,0.012379358241849157,-0.007600612643014788, ,0.01050085167875874, ,0.012711744309846094, ,4.537044960695659e-05, ,0.15453188481323243,-0.2515680233778634,0.09311121441,-4.530980298813603,0.18227309068709754,-1.1014956660108253, ,0.03419709605710659,-0.018358858881499473,0.010068780986093553,0.02393650410464032,0.03860206577273647,0.030338810649064678, ,0.9537680149078369
0.011316506517797576,0.02185169858568848,-0.0830071540539362, ,0.011750670049678722,0.022129709668660232,-0.08332658861948386, ,0.0006064870784586088, ,0.004328002945255609,0.004156074875913129,-0.009028748995960161,-0.017256090634595603,0.004624225232456968,0.011822628112671098, ,0.010840796848036087, ,0.017864939490289757, ,4.8219876011623416e-05, ,0.15490257599119522,-0.25174564623397055,0.09321362132000001,-4.530770608870118,0.18268300018639388,-1.1011764898007899, ,0.03845094876761376,-0.01828457448140092,0.010329968560311285,0.004438646141071011,0.03849277466646171,0.04183533240052199, ,0.9645881652832031
0.011360201501030898,0.02189402528823962,-0.08309827328738954, ,0.011851887001664955,0.022176162122649973,-0.0834675553017925, ,0.0006765537901943705, ,0.004491354448713362,0.004348649254003639,-0.009996484084913165,0.08517923817593012,0.04430566293214966,0.016105211354702772, ,0.011790365099446493, ,0.09601299018499926, ,5.1389898078132286e-05, ,0.15533504903215178,-0.25192326909007773,0.09331862081,-4.530560918926633,0.1835028191849865,-1.1015182822624063, ,0.04474160375222573,-0.01638414046244316,0.011418502881720433,0.009642615471110163,0.09818991792835767,-0.05429738070076387, ,0.9752211570739746
0.011416100771907724,0.0219418891501949,-0.08321598383034705, ,0.011958615915730776,0.02221983068872421,-0.0836132488219836, ,0.0007275944294023772, ,0.005973767165100772,0.004929814798078434,-0.013050716880931207,-0.002176181854896273,0.007253612683487162,0.007385827287584685, ,0.015175973747750489, ,0.007572997150089867, ,5.476727447405721e-05, ,0.15586019486759906,-0.2520777237475622,0.09345213868,-4.530141539039664,0.18432263818357916,-1.101778395983882, ,0.051912987723452285,-0.014268071201093186,0.014627007823691463,0.012164830712367224,0.05545254816037806,0.02619164739156759, ,0.9859240055084229
0.011483593439367765,0.02199528752208828,-0.08336213975541315, ,0.012070569224467599,0.02226091202422101,-0.08376317912553533, ,0.0007589002074151898, ,0.007008964618166299,0.005363417823022356,-0.014653799320160886,0.015932010403587687,0.0073243043208420944,-0.014996112993417254, ,0.01710630498613212, ,0.017534928388464124, ,5.855293540384824e-05, ,0.1564393998331659,-0.25221673293929825,0.09361547122000001,-4.5299318490961795,0.18486918418264095,-1.101407280197262, ,0.0614219686462594,-0.013518082843087005,0.016421455175257733,0.03603791140001271,0.061200437627956294,0.01160894209610764, ,0.9913430213928223
0.011483593439367765,0.02199528752208828,-0.08336213975541315, ,0.012188206644908602,0.02229901364737432,-0.08391839295275003, ,0.0009477061507404615, ,0.007008964618166299,0.005363417823022356,-0.014653799320160886,0.015932010403587687,0.0073243043208420944,-0.014996112993417254, ,0.01710630498613212, ,0.017534928388464124, ,0.00033824434673874955, ,0.1564393998331659,-0.25221673293929825,0.09361547122000001,-4.5299318490961795,0.18486918418264095,-1.101407280197262, ,0.0614219686462594,-0.013518082843087005,0.016421455175257733,0.03603791140001271,0.061200437627956294,0.01160894209610764, ,0.9967460632324219
0.011554552641211923,0.022049507619899128,-0.08351503796984289, ,0.012310883166206635,0.02233463298372288,-0.08407764262137823, ,0.0009848128401191846, ,0.00802488136335752,0.006035480538038465,-0.0176593801502782,0.1042020023236607,0.0478003429257492,0.0011644706462609448, ,0.020314513371307807, ,0.11464261142636449, ,0.00035620458266598387, ,0.15708810939460074,-0.25234029666528585,0.09378658150000001,-4.5299318490961795,0.185825639680999,-1.101778811822434, ,0.07466321129698723,-0.010828021473046127,0.01971387564356436,0.03210543735908526,0.12963907419518292,-0.07113559262018804, ,1.0020930767059326
0.011554552641211923,0.022049507619899128,-0.08351503796984289, ,0.012438681813173327,0.022367668705404242,-0.08424120571424183, ,0.0011875312467671756, ,0.00802488136335752,0.006035480538038465,-0.0176593801502782,0.1042020023236607,0.0478003429257492,0.0011644706462609448, ,0.020314513371307807, ,0.11464261142636449, ,0.00037867287088493495, ,0.15708810939460074,-0.25234029666528585,0.09378658150000001,-4.5299318490961795,0.185825639680999,-1.101778811822434, ,0.07466321129698723,-0.010828021473046127,0.01971387564356436,0.03210543735908526,0.12963907419518292,-0.07113559262018804, ,1.0074150562286377
0.01165069647659056,0.022116862812088186,-0.0837265516714263, ,0.012571507018910593,0.022398169926287567,-0.08440898108664004, ,0.0011801422177415133, ,0.01094826480066492,0.007513858708721001,-0.024847367965623434,0.09051207051459849,0.05261595942385903,0.01107024586474801, ,0.02817293505581537, ,0.10469414799213633, ,0.00039976416948642385, ,0.15796077820938811,-0.2524175239940281,0.09402120999000001,-4.529512469209211,0.18719200467865343,-1.102402918418555, ,0.09803403053561031,-0.005163092846160802,0.027416198829604135,0.029811635261041334,0.1582647940006444,-0.05918522615055445, ,1.012756109237671
0.01165069647659056,0.022116862812088186,-0.0837265516714263, ,0.01270926396859352,0.02242618538056322,-0.08458086847198518, ,0.0013950278786499513, ,0.01094826480066492,0.007513858708721001,-0.024847367965623434,0.09051207051459849,0.05261595942385903,0.01107024586474801, ,0.02817293505581537, ,0.10469414799213633, ,0.0004252837517726681, ,0.15796077820938811,-0.2524175239940281,0.09402120999000001,-4.529512469209211,0.18719200467865343,-1.102402918418555, ,0.09803403053561031,-0.005163092846160802,0.027416198829604135,0.029811635261041334,0.1582647940006444,-0.05918522615055445, ,1.0195422172546387
0.011756374519476035,0.02219123123091279,-0.08397246633493095, ,0.012851858597064999,0.022451763423948858,-0.08475676847883734, ,0.001372258080972847, ,0.013224254220056856,0.009134819332474307,-0.03037108224685985,0.13176607872673568,0.07895896369612376,-0.09066892023691939, ,0.0343617295949893, ,0.15361247218393664, ,0.0004489581100026726, ,0.15888750615429506,-0.25245613765839925,0.09429213460000001,-4.528464019491787,0.18869500617607327,-1.102975085438091, ,0.11530612583046268,-0.004037433249889152,0.03346388974789917,0.140032966999428,0.17826206912738712,-0.08193221942176573, ,1.0254580974578857
0.011927985472403781,0.022302005130393522,-0.08435656704057248, ,0.012999197586428032,0.022474952034900533,-0.08493658258794318, ,0.0012303755768880435, ,0.015679794748877637,0.009994507206981964,-0.03469908575838367,0.10843849138506863,0.051536010250125226,-0.003953173334487827, ,0.03936715242616628, ,0.12006171939382713, ,0.00046801707260963287, ,0.1603857163318946,-0.2524715831241477,0.09471472514000001,-4.52762525971785,0.1908811901723203,-1.1036959482754067, ,0.1363461804001017,-0.0016504879106085317,0.038198588776978425,0.05385171766430623,0.1928654934555149,-0.07183794573691349, ,1.0310630798339844
0.011927985472403781,0.022302005130393522,-0.08435656704057248, ,0.013151188363640326,0.022495798815818622,-0.08512021314927012, ,0.0014549696508756231, ,0.015679794748877637,0.009994507206981964,-0.03469908575838367,0.10843849138506863,0.051536010250125226,-0.003953173334487827, ,0.03936715242616628, ,0.12006171939382713, ,0.0004915159435207279, ,0.1603857163318946,-0.2524715831241477,0.09471472514000001,-4.52762525971785,0.1908811901723203,-1.1036959482754067, ,0.1363461804001017,-0.0016504879106085317,0.038198588776978425,0.05385171766430623,0.1928654934555149,-0.07183794573691349, ,1.0363471508026123
0.012102083777653686,0.02240180042862076,-0.0847215832808107, ,0.0133077390981059,0.022514350994258976,-0.085307563379044, ,0.0013452304847444245, ,0.01802754482027792,0.009689339305620045,-0.03621175633905025,0.1098945818627544,0.019555098731981718,0.047247964043338676, ,0.0415952757604191, ,0.11162060178855956, ,0.0005113697700608139, ,0.1619225401738653,-0.25243296945977656,0.09511657504000001,-4.527415569774365,0.1929307376688019,-1.104387071949166, ,0.1602988877676871,0.006001396055822005,0.03992183338345865,0.0,0.20073334389349676,-0.08827232159072473, ,1.0416581630706787
0.012102083777653686,0.02240180042862076,-0.0847215832808107, ,0.013468758699267912,0.02253065542414236,-0.08549853735678796, ,0.0015773590546916715, ,0.01802754482027792,0.009689339305620045,-0.03621175633905025,0.1098945818627544,0.019555098731981718,0.047247964043338676, ,0.0415952757604191, ,0.11162060178855956, ,0.0005355967992569697, ,0.1619225401738653,-0.25243296945977656,0.09511657504000001,-4.527415569774365,0.1929307376688019,-1.104387071949166, ,0.1602988877676871,0.006001396055822005,0.03992183338345865,0.0,0.20073334389349676,-0.08827232159072473, ,1.0469450950622559
0.012282569908268362,0.022491608379983777,-0.0850653238622654, ,0.013634156814203267,0.022544758586959236,-0.08569304002235324, ,0.0014911873411586, ,0.02044559388431046,0.009710596721529435,-0.03834379857298518,0.12399577151777652,0.02279273153836959,0.026378528467959374, ,0.044526002369132484, ,0.12607290383076042, ,0.0005568321446325615, ,0.16354431407745243,-0.25234029666528585,0.09549638801000002,-4.526996189887396,0.19484364866551807,-1.1051301351995106, ,0.18498429153698007,0.013620918840027384,0.04236386042553192,0.026391332426058567,0.22503542542792282,-0.10243601329109601, ,1.052232027053833
0.012282569908268362,0.022491608379983777,-0.0850653238622654, ,0.013803843825213467,0.022556706592983037,-0.08589097717296024, ,0.0017321130151276359, ,0.02044559388431046,0.009710596721529435,-0.03834379857298518,0.12399577151777652,0.02279273153836959,0.026378528467959374, ,0.044526002369132484, ,0.12607290383076042, ,0.0005823817287737588, ,0.16354431407745243,-0.25234029666528585,0.09549638801000002,-4.526996189887396,0.19484364866551807,-1.1051301351995106, ,0.18498429153698007,0.013620918840027384,0.04236386042553192,0.026391332426058567,0.22503542542792282,-0.10243601329109601, ,1.0575370788574219
0.012466708640581362,0.022573197859662428,-0.08539241612438872, ,0.01397773084741803,0.022566545182477256,-0.08609225546023373, ,0.0016652349574949696, ,0.021769444315289363,0.009139503637083452,-0.03696869968142135,0.14873270852736048,0.05506956333154821,-0.06472125928000201, ,0.04386483772526543, ,0.1586001460915737, ,0.0006054211591720824, ,0.16525103804265606,-0.25218584200780136,0.09585934921000001,-4.525947740169974,0.19702983266176513,-1.1060960342572475, ,0.20364150549028065,0.01902123502875742,0.041159719689922485,0.1281025877166342,0.2532794251195855,-0.11221005853516955, ,1.0630900859832764
0.012681709896044408,0.022648988021554732,-0.08571668563625545, ,0.014155729726347783,0.022574319726902707,-0.08629678238723648, ,0.0019158997427127832, ,0.024699197795366317,0.007544346668365164,-0.033741692778640524,-0.009926358401833868,-0.0851212481239952,-0.019567504012257517, ,0.04249081512462738, ,0.08569781641199752, ,0.0006327227963291803, ,0.16727439405570288,-0.2519773282201973,0.09622231041000001,-4.52531867033952,0.1989427436584813,-1.10659406128717, ,0.2297746768970237,0.024979452897728554,0.03792574171428572,0.05587357624073288,0.13553902109091534,0.013781534810872832, ,1.0693421363830566
0.012681709896044408,0.022648988021554732,-0.08571668563625545, ,0.014337753035536041,0.022580075230129965,-0.0865044663055095, ,0.0018351638170827163, ,0.024699197795366317,0.007544346668365164,-0.033741692778640524,-0.009926358401833868,-0.0851212481239952,-0.019567504012257517, ,0.04249081512462738, ,0.08569781641199752, ,0.0006572624089976198, ,0.16727439405570288,-0.2519773282201973,0.09622231041000001,-4.52531867033952,0.1989427436584813,-1.10659406128717, ,0.2297746768970237,0.024979452897728554,0.03792574171428572,0.05587357624073288,0.13553902109091534,0.013781534810872832, ,1.0748062133789062
0.01299413125837884,0.022725262465785087,-0.08609989808268867, ,0.014523714074112758,0.022583856329643954,-0.08671521641210383, ,0.0016547615937170935, ,0.027655230235689842,0.005792253287137611,-0.032383439784084735,0.023368841865041727,-0.11874727927490343,0.02236090622399637, ,0.042977309475824704, ,0.12102472264701211, ,0.0006772123926920093, ,0.17021675528078242,-0.2515911915764861,0.09665527127000001,-4.525108980396035,0.20030910865613571,-1.1064013804818853, ,0.26581776346910585,0.04072830109805613,0.03670233069124424,0.0111835109517891,0.1569480494946096,-0.0398035371966591, ,1.080353021621704
0.01299413125837884,0.022725262465785087,-0.08609989808268867, ,0.014713526864395754,0.022585707297756833,-0.08692894274662089, ,0.0019139257952460293, ,0.027655230235689842,0.005792253287137611,-0.032383439784084735,0.023368841865041727,-0.11874727927490343,0.02236090622399637, ,0.042977309475824704, ,0.12102472264701211, ,0.0007014616750950294, ,0.17021675528078242,-0.2515911915764861,0.09665527127000001,-4.525108980396035,0.20030910865613571,-1.1064013804818853, ,0.26581776346910585,0.04072830109805613,0.03670233069124424,0.0111835109517891,0.1569480494946096,-0.0398035371966591, ,1.0860121250152588
0.013303386942920785,0.022790255870619548,-0.08646718941451491, ,0.014907106149484076,0.022585672042813816,-0.08714555618824502, ,0.0017532687517322126, ,0.02945074710298608,0.006117999672724155,-0.03445705195143518,0.20791494313862546,-0.003598533879499162,-0.06502538757710437, ,0.04573909546660711, ,0.20794596522631803, ,0.0007216887342611291, ,0.17325951203322687,-0.2510892139396615,0.09707267665000001,-4.524060530678613,0.2030418386514445,-1.1079763086346892, ,0.2928917949335518,0.04829360893560853,0.039330398814814815,0.12956820213326037,0.29617027855313677,-0.193773372796402, ,1.0913290977478027
0.013303386942920785,0.022790255870619548,-0.08646718941451491, ,0.015104367390850616,0.022583794110402698,-0.08736496845278095, ,0.002022909843222697, ,0.02945074710298608,0.006117999672724155,-0.03445705195143518,0.20791494313862546,-0.003598533879499162,-0.06502538757710437, ,0.04573909546660711, ,0.20794596522631803, ,0.0007462400759396492, ,0.17325951203322687,-0.2510892139396615,0.09707267665000001,-4.524060530678613,0.2030418386514445,-1.1079763086346892, ,0.2928917949335518,0.04829360893560853,0.039330398814814815,0.12956820213326037,0.29617027855313677,-0.193773372796402, ,1.0966670513153076
0.013616723727135188,0.02284738574878567,-0.08682082834364571, ,0.015305226765934479,0.022580116684562824,-0.08758709208968925, ,0.0018734020906430282, ,0.03213059465095148,0.005017996085832902,-0.035443262934231,0.13423809096868064,-0.004997892043529897,-0.01111373178776881, ,0.04810177007934551, ,0.1343308901881731, ,0.0007671134465823044, ,0.1763872188472878,-0.25053317717271734,0.09747711913000001,-4.52301208096119,0.20618447814604965,-1.1095587755380203, ,0.32168454765583315,0.06330683226048751,0.040531327022900764,0.08392702689637692,0.3293427440403555,-0.13680562047669426, ,1.10209321975708
0.013616723727135188,0.02284738574878567,-0.08682082834364571, ,0.015509601166010887,0.02257468258836278,-0.08781184047840324, ,0.0021539398932063827, ,0.03213059465095148,0.005017996085832902,-0.035443262934231,0.13423809096868064,-0.004997892043529897,-0.01111373178776881, ,0.04810177007934551, ,0.1343308901881731, ,0.0007923284728845604, ,0.1763872188472878,-0.25053317717271734,0.09747711913000001,-4.52301208096119,0.20618447814604965,-1.1095587755380203, ,0.32168454765583315,0.06330683226048751,0.040531327022900764,0.08392702689637692,0.3293427440403555,-0.13680562047669426, ,1.1075382232666016
0.013932556903912388,0.022892036753005707,-0.0871685958775461, ,0.015717408192653024,0.02256753428766309,-0.08803912782827002, ,0.0020121684447788465, ,0.03537213158730133,0.004943459749855682,-0.03957931682981337,0.006205657443346704,-0.05814897322982485,0.04573975643441218, ,0.053311798019224144, ,0.05847833910648464, ,0.0008141113295255298, ,0.17951492566134872,-0.24987674487840825,0.09787378387000001,-4.522592701074221,0.2091904811408893,-1.1102947158763896, ,0.34382949840025645,0.07442897377134963,0.04499664271186441,0.021140612297192794,0.29923174284757303,-0.03357083777775226, ,1.112882137298584
0.013932556903912388,0.022892036753005707,-0.0871685958775461, ,0.015928566157051984,0.022558713888451643,-0.08826886917119305, ,0.002303423189812523, ,0.03537213158730133,0.004943459749855682,-0.03957931682981337,0.006205657443346704,-0.05814897322982485,0.04573975643441218, ,0.053311798019224144, ,0.05847833910648464, ,0.0008402396077761789, ,0.17951492566134872,-0.24987674487840825,0.09787378387000001,-4.522592701074221,0.2091904811408893,-1.1102947158763896, ,0.34382949840025645,0.07442897377134963,0.04499664271186441,0.021140612297192794,0.29923174284757303,-0.03357083777775226, ,1.1183102130889893
0.01431812400181552,0.022945323564143704,-0.08760986297036474, ,0.016142994076436885,0.022548263140662883,-0.08850098036162093, ,0.0020692747459297414, ,0.03786291656835769,0.004970375426283147,-0.04349157776331195,-0.0009174617283108895,-0.029831224254235175,0.027976728681501122, ,0.05787765042987513, ,0.02984272224038913, ,0.0008614298687788266, ,0.1832218374409765,-0.24902724426224354,0.09837415181,-4.521963631243768,0.2124697571352599,-1.1104367046207464, ,0.3635898144002712,0.08642708702957265,0.04931520594427245,0.04972791405499756,0.3414662007560977,-0.027078195583973813, ,1.1236701011657715
0.014706592376889874,0.02298985016357224,-0.08804092472988623, ,0.016360611671965924,0.02253622343872661,-0.0887353780728387, ,0.001850357392374756, ,0.03989989312023387,0.0039760990830845465,-0.0440729879480663,0.09401126781591064,0.035186354061322166,0.020754439904921235, ,0.05958388290129294, ,0.10037943863105096, ,0.000878191352229605, ,0.1870059765493465,-0.2481005163173366,0.09886544572000001,-4.52112487146983,0.21643221562845769,-1.1112174616237258, ,0.3905223932447357,0.10106170560007538,0.0502486167823344,0.07640581810515247,0.4433560362074815,-0.11785915452195377, ,1.1299450397491455
0.014706592376889874,0.02298985016357224,-0.08804092472988623, ,0.01658133936631914,0.022522635822777196,-0.0889719797940057, ,0.0021447212049684116, ,0.03989989312023387,0.0039760990830845465,-0.0440729879480663,0.09401126781591064,0.035186354061322166,0.020754439904921235, ,0.05958388290129294, ,0.10037943863105096, ,0.0008993001831085851, ,0.1870059765493465,-0.2481005163173366,0.09886544572000001,-4.52112487146983,0.21643221562845769,-1.1112174616237258, ,0.3905223932447357,0.10106170560007538,0.0502486167823344,0.07640581810515247,0.4433560362074815,-0.11785915452195377, ,1.1352770328521729
0.015113800678141012,0.023021666594807515,-0.08848332045653604, ,0.016805098281291078,0.022507540979861847,-0.08921070382719025, ,0.0019115175380489463, ,0.041526115107258385,0.0028118793779022197,-0.04480049615982247,0.03402172206971521,0.021516379737731794,0.0396393426125645, ,0.061150710197866165, ,0.04025235019008781, ,0.000915893910238755, ,0.19098318397957212,-0.24700388824919672,0.09936970253,-4.520495801639376,0.22094122012071718,-1.1122805327612098, ,0.4021056845697914,0.11460983280008549,0.05105388307692308,0.05574426387986783,0.44067960869231815,-0.07464339972036996, ,1.1405150890350342
0.015113800678141012,0.023021666594807515,-0.08848332045653604, ,0.017031810235383398,0.022490979245149846,-0.08945146928440696, ,0.0022130752083170746, ,0.041526115107258385,0.0028118793779022197,-0.04480049615982247,0.03402172206971521,0.021516379737731794,0.0396393426125645, ,0.061150710197866165, ,0.04025235019008781, ,0.0009368161892400182, ,0.19098318397957212,-0.24700388824919672,0.09936970253,-4.520495801639376,0.22094122012071718,-1.1122805327612098, ,0.4021056845697914,0.11460983280008549,0.05105388307692308,0.05574426387986783,0.44067960869231815,-0.07464339972036996, ,1.1458501815795898
0.015549638094806794,0.023040696650327,-0.08893909604099598, ,0.017261397741397892,0.0224729906031408,-0.08969419608465336, ,0.001955143810475546, ,0.043899513782026646,0.0010830509207128986,-0.04486602980179512,-0.022742229177272432,0.00043499808340091966,0.017984627225064654, ,0.06277978129757042, ,0.02274239243484192, ,0.0009529801197358202, ,0.19518435066315026,-0.2457373600578239,0.09988951482000001,-4.519866731808922,0.22531358811321128,-1.1126604348140132, ,0.4217641847043146,0.13309528970332507,0.051218043472668826,0.07380576756270284,0.42907981321690064,-0.0336306404580583, ,1.151271104812622
0.015549638094806794,0.023040696650327,-0.08893909604099598, ,0.017493784004029057,0.02245361468887391,-0.08993880495094458, ,0.0022635782404060822, ,0.043899513782026646,0.0010830509207128986,-0.04486602980179512,-0.022742229177272432,0.00043499808340091966,0.017984627225064654, ,0.06277978129757042, ,0.02274239243484192, ,0.000973458215371293, ,0.19518435066315026,-0.2457373600578239,0.09988951482000001,-4.519866731808922,0.22531358811321128,-1.1126604348140132, ,0.4217641847043146,0.13309528970332507,0.051218043472668826,0.07380576756270284,0.42907981321690064,-0.0336306404580583, ,1.1565680503845215
0.015990427248667338,0.023047301839375874,-0.08938001823985824, ,0.017728892917457027,0.022432890789136285,-0.09018521740735227, ,0.0020119914312814523, ,0.04433090457275359,5.68328154067696e-05,-0.04347234344116841,0.02470569260387928,0.018216171760630322,0.017460040190523198, ,0.0620892661776123, ,0.03069274993577486, ,0.0009894356494622185, ,0.19944729920972218,-0.2443781590719604,0.10039506792000001,-4.519027972034984,0.22995922910523628,-1.1134265301544908, ,0.42746370071383233,0.13996599049921946,0.049933578432601884,0.07705200317508495,0.45949351645258135,-0.08303840248048375, ,1.1618950366973877
0.015990427248667338,0.023047301839375874,-0.08938001823985824, ,0.01796664906294046,0.022410857843671816,-0.09043335577603909, ,0.0023280965581359034, ,0.04433090457275359,5.68328154067696e-05,-0.04347234344116841,0.02470569260387928,0.018216171760630322,0.017460040190523198, ,0.0620892661776123, ,0.03069274993577486, ,0.0010097183905027288, ,0.19944729920972218,-0.2443781590719604,0.10039506792000001,-4.519027972034984,0.22995922910523628,-1.1134265301544908, ,0.42746370071383233,0.13996599049921946,0.049933578432601884,0.07705200317508495,0.45949351645258135,-0.08303840248048375, ,1.1673011779785156
0.016436380481233394,0.023037993508421385,-0.08980438082500812, ,0.018206977706409447,0.022387554446389995,-0.09068314317429596, ,0.0020809393969415104, ,0.04654779834549637,-0.0018366581538134929,-0.043796372178786014,-0.009007465794567671,-0.04509185217955819,0.021161470281416628, ,0.06393897919117654, ,0.04598095733806211, ,0.0010257067637331585, ,0.2037025250234199,-0.24291856255873195,0.10088247296000001,-4.518398902204531,0.2340583240981995,-1.1140736688407449, ,0.44138112352777104,0.15895635101921404,0.0502486167823344,0.05524218760678351,0.4125280857783126,-0.07846164906380407, ,1.1726610660552979
0.016436380481233394,0.023037993508421385,-0.08980438082500812, ,0.01844980479605853,0.02236301884657449,-0.09093450351157908, ,0.0024055447516865627, ,0.04654779834549637,-0.0018366581538134929,-0.043796372178786014,-0.009007465794567671,-0.04509185217955819,0.021161470281416628, ,0.06393897919117654, ,0.04598095733806211, ,0.0010459984988501203, ,0.2037025250234199,-0.24291856255873195,0.10088247296000001,-4.518398902204531,0.2340583240981995,-1.1140736688407449, ,0.44138112352777104,0.15895635101921404,0.0502486167823344,0.05524218760678351,0.4125280857783126,-0.07846164906380407, ,1.1780531406402588
0.01693103990440011,0.02301263554887944,-0.09026241122181614, ,0.018695056959939418,0.022337288950091985,-0.09118736148654527, ,0.0021031838229098885, ,0.04783117313137822,-0.0031709410609677066,-0.043576673307727354,-0.01539134155194064,-0.07767184589556836,0.006074725921327396, ,0.0647827326291845, ,0.07918113352006313, ,0.001061320025285769, ,0.2083670556794515,-0.24119639312777988,0.10140876670000001,-4.517769832374077,0.23829405559092814,-1.115077261651117, ,0.44762708282297536,0.17098548028553293,0.05009060226415095,0.059025889041157284,0.38500098810312594,-0.08677098777358624, ,1.1834990978240967
0.01693103990440011,0.02301263554887944,-0.09026241122181614, ,0.018942661503554482,0.022310402320600973,-0.09144164258409047, ,0.002435228853897347, ,0.04783117313137822,-0.0031709410609677066,-0.043576673307727354,-0.01539134155194064,-0.07767184589556836,0.006074725921327396, ,0.0647827326291845, ,0.07918113352006313, ,0.0010809472942659346, ,0.2083670556794515,-0.24119639312777988,0.10140876670000001,-4.517769832374077,0.23829405559092814,-1.115077261651117, ,0.44762708282297536,0.17098548028553293,0.05009060226415095,0.059025889041157284,0.38500098810312594,-0.08677098777358624, ,1.1887340545654297
0.017405443929026296,0.022977244119501625,-0.09070374743484949, ,0.01919254640744933,0.022282396180760153,-0.09169727307238419, ,0.0021595467392019445, ,0.0486030164254633,-0.003891940164132761,-0.04526878454341096,0.010236447253113436,-0.06748227264692587,-0.0176767614647914, ,0.06653317411587101, ,0.06825285245822293, ,0.0010961388357439066, ,0.21276129068488525,-0.23944333276533092,0.10191431980000001,-4.517140762543623,0.2421198775843605,-1.1159916369708216, ,0.44762708282297536,0.18214384176289977,0.05188537954397395,0.08086814998203525,0.3943140697787065,-0.11751100146363372, ,1.1940340995788574
0.01790373808872802,0.02293267370678887,-0.09117274421849594, ,0.019444640324806348,0.022253307413437475,-0.09195417999990796, ,0.0018564913525691983, ,0.04946163089837281,-0.004877487712651292,-0.046732643111084715,0.020463506750393566,-0.05819698802401718,-0.0009361561945605088, ,0.06822157099966217, ,0.061688099564456, ,0.00110669928736648, ,0.21731770308067772,-0.23752809501252325,0.10245098386000001,-4.51651169271317,0.24621897257732367,-1.1173738843183407, ,0.4497485381918046,0.1944609458165385,0.053452387651006725,0.06305107121358472,0.41374798154700154,-0.14056057758303842, ,1.2002332210540771
0.01790373808872802,0.02293267370678887,-0.09117274421849594, ,0.019698872579037383,0.022223172562918725,-0.09221229119249129, ,0.0021923862849858784, ,0.04946163089837281,-0.004877487712651292,-0.046732643111084715,0.020463506750393566,-0.05819698802401718,-0.0009361561945605088, ,0.06822157099966217, ,0.061688099564456, ,0.0011215717119914034, ,0.21731770308067772,-0.23752809501252325,0.10245098386000001,-4.51651169271317,0.24621897257732367,-1.1173738843183407, ,0.4497485381918046,0.1944609458165385,0.053452387651006725,0.06305107121358472,0.41374798154700154,-0.14056057758303842, ,1.2054722309112549
0.01825504011138217,0.022896576329043343,-0.09150479192474377, ,0.019955173161377182,0.022192027836116294,-0.09247153525034836, ,0.00207880581685066, ,0.04957900432440986,-0.005497899571155689,-0.046745386680181834,-0.013147085501712749,-0.07166302697764984,0.009460694172745653, ,0.06836253173613516, ,0.07285747794837484, ,0.001134507308003015, ,0.22049174629198398,-0.23613800309516284,0.10283079683000002,-4.516092312826201,0.24908833907239794,-1.1182434429734356, ,0.4455255472228675,0.19894537014354458,0.053452387651006725,0.04691984527895706,0.3959880446032387,-0.11672776587399646, ,1.2107751369476318
0.01825504011138217,0.022896576329043343,-0.09150479192474377, ,0.020213472728476522,0.022159909103777735,-0.09273184154511523, ,0.0024256520128273333, ,0.04957900432440986,-0.005497899571155689,-0.046745386680181834,-0.013147085501712749,-0.07166302697764984,0.009460694172745653, ,0.06836253173613516, ,0.07285747794837484, ,0.0011517225707340058, ,0.22049174629198398,-0.23613800309516284,0.10283079683000002,-4.516092312826201,0.24908833907239794,-1.1182434429734356, ,0.4455255472228675,0.19894537014354458,0.053452387651006725,0.04691984527895706,0.3959880446032387,-0.11672776587399646, ,1.2160742282867432
0.018898975741186198,0.022816412662909468,-0.09210544876656825, ,0.02047370259999542,0.0221268519016947,-0.09299314021688597, ,0.0019347492949293036, ,0.04984112901817667,-0.006998597477414731,-0.045770961916435114,-0.09841164832672483,-0.09860720351284105,-0.011121314895309074, ,0.06803013643388614, ,0.13931271379440632, ,0.0011620255539471019, ,0.22621429135178434,-0.23349682845217806,0.10351783053000001,-4.515253553052263,0.25387061656418836,-1.11920263495775, ,0.43933769240032766,0.20902410034905458,0.05239740631578948,0.0567398397609271,0.34928007262694655,-0.04447427124393498, ,1.221365213394165
0.018898975741186198,0.022816412662909468,-0.09210544876656825, ,0.02073579475619637,0.022092891431911486,-0.09325536217125026, ,0.00228466363035681, ,0.04984112901817667,-0.006998597477414731,-0.045770961916435114,-0.09841164832672483,-0.09860720351284105,-0.011121314895309074, ,0.06803013643388614, ,0.13931271379440632, ,0.00117660526922515, ,0.22621429135178434,-0.23349682845217806,0.10351783053000001,-4.515253553052263,0.25387061656418836,-1.11920263495775, ,0.43933769240032766,0.20902410034905458,0.05239740631578948,0.0567398397609271,0.34928007262694655,-0.04447427124393498, ,1.226640224456787
0.019379412693420275,0.02274539736660414,-0.0925589856783695, ,0.020999681835537586,0.022058062563933813,-0.09351843907632976, ,0.002004557818252424, ,0.050266999880682624,-0.006896602970039629,-0.04927501575802405,0.01645801803283972,-0.006409402097221276,-0.012493574342200298, ,0.0707273750925653, ,0.017653789990409494, ,0.0011872200454947305, ,0.2304617944326078,-0.23141169057613745,0.10403634653,-4.51462448322181,0.2579697115571516,-1.1203398460848475, ,0.43933769240032766,0.21665968392344928,0.05589056673684212,0.07689363906892048,0.4523139302580097,-0.14732511436476786, ,1.2319982051849365
0.019379412693420275,0.02274539736660414,-0.0925589856783695, ,0.021265297132266242,0.02202239983593748,-0.09378230335981477, ,0.00236131143557306, ,0.050266999880682624,-0.006896602970039629,-0.04927501575802405,0.01645801803283972,-0.006409402097221276,-0.012493574342200298, ,0.0707273750925653, ,0.017653789990409494, ,0.001202081961824836, ,0.2304617944326078,-0.23141169057613745,0.10403634653,-4.51462448322181,0.2579697115571516,-1.1203398460848475, ,0.43933769240032766,0.21665968392344928,0.05589056673684212,0.07689363906892048,0.4523139302580097,-0.14732511436476786, ,1.2372801303863525
0.019916012111545874,0.022671024454645805,-0.09309515724733602, ,0.021532574594011904,0.021985937455977243,-0.09404688820600184, ,0.001997100466462411, ,0.050724260148905465,-0.0069195834982831855,-0.051091782782720224,0.013227977704761727,0.008397436371150589,-0.0013117279438746945, ,0.07232704522763403, ,0.015657208904353768, ,0.0012120196931328057, ,0.2351186023557652,-0.22907942524812164,0.10464819541,-4.513995413391356,0.2630252620484728,-1.1220119463173983, ,0.43530707136913194,0.2191615278486623,0.05834729494505495,0.0667125107239331,0.46833732471903267,-0.14726725996095627, ,1.2429420948028564
0.019916012111545874,0.022671024454645805,-0.09309515724733602, ,0.021801448819379857,0.02194870930319518,-0.09431212755282929, ,0.002357462084894551, ,0.050724260148905465,-0.0069195834982831855,-0.051091782782720224,0.013227977704761727,0.008397436371150589,-0.0013117279438746945, ,0.07232704522763403, ,0.015657208904353768, ,0.0012261609572286297, ,0.2351186023557652,-0.22907942524812164,0.10464819541,-4.513995413391356,0.2630252620484728,-1.1220119463173983, ,0.43530707136913194,0.2191615278486623,0.05834729494505495,0.0667125107239331,0.46833732471903267,-0.14726725996095627, ,1.2484691143035889
0.020419128473667197,0.02260126716727076,-0.09360486296522434, ,0.022071855055544303,0.021910748929029895,-0.09457795608891598, ,0.0020384383285158257, ,0.05135142025055312,-0.006955476637478579,-0.05261728886937463,-0.02610894371549463,0.003999316464420012,0.004090012643983798, ,0.0738507014520962, ,0.026405835737862843, ,0.001236066778829693, ,0.23938927363521134,-0.2269016145775903,0.10523022962,-4.513366343560902,0.2675342665407324,-1.1232383749351633, ,0.43134973435668533,0.22069056176388552,0.06010872271698114,0.05840302760996575,0.45686783921570956,-0.11208932277833866, ,1.253777027130127
0.020419128473667197,0.02260126716727076,-0.09360486296522434, ,0.022343729195841946,0.021872089558424707,-0.09484430925059682, ,0.002402501825048559, ,0.05135142025055312,-0.006955476637478579,-0.05261728886937463,-0.02610894371549463,0.003999316464420012,0.004090012643983798, ,0.0738507014520962, ,0.026405835737862843, ,0.0012501202131214866, ,0.23938927363521134,-0.2269016145775903,0.10523022962,-4.513366343560902,0.2675342665407324,-1.1232383749351633, ,0.43134973435668533,0.22069056176388552,0.06010872271698114,0.05840302760996575,0.45686783921570956,-0.11208932277833866, ,1.2589871883392334
0.02091995271881465,0.022533661409033626,-0.09412494656608686, ,0.022617007777365097,0.02183276409103669,-0.09511112321895993, ,0.002084177850568154, ,0.05102095042769076,-0.007054570892927107,-0.05422023932385401,-0.03943448290485199,0.014505998826908855,0.0008694487281489085, ,0.07478461543234823, ,0.04201230580066034, ,0.0012600494707101374, ,0.24354410392154413,-0.22474697210568167,0.10582393044,-4.5127372737304485,0.2719066345332265,-1.1241083494288102, ,0.41804820069810916,0.22276277361143376,0.06173957953488373,0.05927846201169631,0.4521921112625188,-0.10064257798264956, ,1.2642321586608887
0.02091995271881465,0.022533661409033626,-0.09412494656608686, ,0.02289162797855536,0.021792805102445485,-0.09537833491688377, ,0.0024509903620370333, ,0.05102095042769076,-0.007054570892927107,-0.05422023932385401,-0.03943448290485199,0.014505998826908855,0.0008694487281489085, ,0.07478461543234823, ,0.04201230580066034, ,0.0012740605400198657, ,0.24354410392154413,-0.22474697210568167,0.10582393044,-4.5127372737304485,0.2719066345332265,-1.1241083494288102, ,0.41804820069810916,0.22276277361143376,0.06173957953488373,0.05927846201169631,0.4521921112625188,-0.10064257798264956, ,1.2695660591125488
0.02143999847925421,0.022453959149540053,-0.09467350259852383, ,0.023167527616796836,0.021752244845361493,-0.09564588200607438, ,0.002102922156898803, ,0.05040947813991823,-0.00811676049403955,-0.05221271194042009,-0.047001707185255384,0.009793326695377788,0.01876754754587903, ,0.07302851891850047, ,0.04800710032732615, ,0.0012836984657975277, ,0.24779160700236763,-0.22243015224341434,0.10644874222000002,-4.512527583786964,0.27655227552525147,-1.12520115972985, ,0.4108092708158908,0.2254084122528997,0.05965847011235956,0.035974889816538284,0.44511911694531614,-0.10189738995086739, ,1.2753820419311523
0.02195676424294308,0.02236929526791675,-0.09519848867426547, ,0.023444645146009763,0.021711115250835175,-0.09591370288410157, ,0.0017772230818182359, ,0.05030388666830968,-0.008560841851068424,-0.05076168716367665,-0.028865777647589165,-0.0008481926305154378,0.0250924661200244, ,0.07197581476329479, ,0.028872400504174046, ,0.001289371162533398, ,0.2520082191516942,-0.22013650057976966,0.10705151707,-4.512108203899995,0.2811979165172765,-1.1263756487710301, ,0.4072830109805613,0.22381354141148768,0.05834729494505495,0.023987578796760306,0.43564849743584133,-0.12261714057373096, ,1.2810401916503906
0.02195676424294308,0.02236929526791675,-0.09519848867426547, ,0.023722919654243706,0.021669447929465502,-0.09618173668143645, ,0.002139127831058603, ,0.05030388666830968,-0.008560841851068424,-0.05076168716367665,-0.028865777647589165,-0.0008481926305154378,0.0250924661200244, ,0.07197581476329479, ,0.028872400504174046, ,0.0012990274883120936, ,0.2520082191516942,-0.22013650057976966,0.10705151707,-4.512108203899995,0.2811979165172765,-1.1263756487710301, ,0.4072830109805613,0.22381354141148768,0.05834729494505495,0.023987578796760306,0.43564849743584133,-0.12261714057373096, ,1.2863562107086182
0.022437162672138723,0.022285712744587915,-0.09567623367011154, ,0.0240022908612711,0.021627274172608603,-0.09644992325848785, ,0.0018659483327918955, ,0.049618067062916375,-0.008626606825368265,-0.04842753471882115,-0.016804055179927824,-0.0072343835816112865,-0.04020974956003509, ,0.06986842665555154, ,0.018287870863281677, ,0.0013053973854410801, ,0.2558850310545549,-0.21799730357360947,0.10760244032,-4.511479134069542,0.2852970115102396,-1.127676217378409, ,0.39872664520365875,0.21815388864016272,0.05608736450704226,0.08533245482096373,0.40545503721751563,-0.11784466535963631, ,1.2916312217712402
0.022437162672138723,0.022285712744587915,-0.09567623367011154, ,0.024282699116180882,0.02158462495358663,-0.09671820320264057, ,0.002232314799417327, ,0.049618067062916375,-0.008626606825368265,-0.04842753471882115,-0.016804055179927824,-0.0072343835816112865,-0.04020974956003509, ,0.06986842665555154, ,0.018287870863281677, ,0.0013156964678185939, ,0.2558850310545549,-0.21799730357360947,0.10760244032,-4.511479134069542,0.2852970115102396,-1.127676217378409, ,0.39872664520365875,0.21815388864016272,0.05608736450704226,0.08533245482096373,0.40545503721751563,-0.11784466535963631, ,1.2968981266021729
0.022933665053274883,0.022196834476964605,-0.09615487255514879, ,0.024564085394971544,0.021541530928896244,-0.09698651782529014, ,0.0019440491470324797, ,0.04987328257930934,-0.00903892463940408,-0.04782073803631393,0.0014247415463983543,-0.0012037896056560932,-0.04204918202827024, ,0.0696840689125587, ,0.0017969186125144357, ,0.0013226014423154497, ,0.25986996121765477,-0.21581177017020392,0.10815854873000001,-4.510640374295604,0.28939610650320285,-1.128895107245647, ,0.39872664520365875,0.2191615278486623,0.055695145174825184,0.08664130022205145,0.41384996527427464,-0.13504583095693157, ,1.302159070968628
0.022933665053274883,0.022196834476964605,-0.09615487255514879, ,0.024846391298145188,0.021498022439417785,-0.09725480915888196, ,0.002314459004577108, ,0.04987328257930934,-0.00903892463940408,-0.04782073803631393,0.0014247415463983543,-0.0012037896056560932,-0.04204918202827024, ,0.0696840689125587, ,0.0017969186125144357, ,0.0013333825027748156, ,0.25986996121765477,-0.21581177017020392,0.10815854873000001,-4.510640374295604,0.28939610650320285,-1.128895107245647, ,0.39872664520365875,0.2191615278486623,0.055695145174825184,0.08664130022205145,0.41384996527427464,-0.13504583095693157, ,1.3074731826782227
0.023252514842001342,0.022139091464685366,-0.09646208626287951, ,0.02512955904830035,0.021454129511623517,-0.09752301995394688, ,0.0022623103514736445, ,0.05018967497881532,-0.00896066823793831,-0.048389716257520865,0.011578372606074121,0.0018940036129060905,-0.002215519170250268, ,0.07029126324965924, ,0.011720948967881005, ,0.001343370974266201, ,0.2624030176004004,-0.2144216782528435,0.10851632477,-4.510430684352119,0.29199219999874626,-1.12970518757363, ,0.39872664520365875,0.21765353568456597,0.056485147234042556,0.046591103632059996,0.42820436345772317,-0.1517445027243394, ,1.312845230102539
0.023252514842001342,0.022139091464685366,-0.09646208626287951, ,0.025413531487726026,0.02140988185878649,-0.09779109367613881, ,0.0026396970085471026, ,0.05018967497881532,-0.00896066823793831,-0.048389716257520865,0.011578372606074121,0.0018940036129060905,-0.002215519170250268, ,0.07029126324965924, ,0.011720948967881005, ,0.0013571616767585508, ,0.2624030176004004,-0.2144216782528435,0.10851632477,-4.510430684352119,0.29199219999874626,-1.12970518757363, ,0.39872664520365875,0.21765353568456597,0.056485147234042556,0.046591103632059996,0.42820436345772317,-0.1517445027243394, ,1.318188190460205
0.02396137723837049,0.02201662019207554,-0.09715365952599961, ,0.025698252075994847,0.021365308882189345,-0.09805897450327156, ,0.0020641065457071782, ,0.04953367066513185,-0.009128810341893898,-0.04743623877119735,-0.08108555466276804,-0.04702394182567382,0.02949231070463557, ,0.06918899086255023, ,0.09373301495115735, ,0.0013646032016948523, ,0.26794021707121934,-0.21140208969902172,0.10932391344000002,-4.5100113044651495,0.29773093298889475,-1.13152598362396, ,0.3826489578970596,0.21182353026444373,0.05550108543554008,0.0,0.36014356694932054,-0.07373331878171735, ,1.323538064956665
0.02396137723837049,0.02201662019207554,-0.09715365952599961, ,0.02598366488755676,0.021320439672333092,-0.09832660732235543, ,0.002439287023926496, ,0.04953367066513185,-0.009128810341893898,-0.04743623877119735,-0.08108555466276804,-0.04702394182567382,0.02949231070463557, ,0.06918899086255023, ,0.09373301495115735, ,0.0013757978248430983, ,0.26794021707121934,-0.21140208969902172,0.10932391344000002,-4.5100113044651495,0.29773093298889475,-1.13152598362396, ,0.3826489578970596,0.21182353026444373,0.05550108543554008,0.0,0.36014356694932054,-0.07373331878171735, ,1.328829050064087
0.024447330833101435,0.021926226498935865,-0.09761781184121868, ,0.02626971460933229,0.021275303010145543,-0.09859393772663463, ,0.002167396078317823, ,0.05118685263831473,-0.009065908116694247,-0.049476042980974674,-0.014021936395631488,-0.009553614564544136,-0.013986734350981309, ,0.07176463893904954, ,0.016958472384074292, ,0.0013839586315799511, ,0.27168574251521826,-0.20930922909010688,0.10986835524,-4.509382234634696,0.3014201184825616,-1.1324106197801087, ,0.39213612214244126,0.21616615389173302,0.05813434861313869,0.051757653586920034,0.40467324876301086,-0.1254312509829893, ,1.3341851234436035
0.024447330833101435,0.021926226498935865,-0.09761781184121868, ,0.026556346538306297,0.021229927368190356,-0.0988609120126245, ,0.0025452068207567897, ,0.05118685263831473,-0.009065908116694247,-0.049476042980974674,-0.014021936395631488,-0.009553614564544136,-0.013986734350981309, ,0.07176463893904954, ,0.016958472384074292, ,0.001395808102898082, ,0.27168574251521826,-0.20930922909010688,0.10986835524,-4.509382234634696,0.3014201184825616,-1.1324106197801087, ,0.39213612214244126,0.21616615389173302,0.05813434861313869,0.051757653586920034,0.40467324876301086,-0.1254312509829893, ,1.3394651412963867
0.024983017381695612,0.021843611675397667,-0.09816402044322806, ,0.026843506579121268,0.021184340911875495,-0.0991274771771474, ,0.0021964304841053353, ,0.052199494658848086,-0.007136171454329687,-0.05429542901208295,0.0689131652839404,0.05228733076559111,-0.024857413763461803, ,0.07565517693635274, ,0.08650154590864263, ,0.0014038951976577513, ,0.2757324545413119,-0.2071082502209529,0.11050872250000002,-4.508753164804243,0.30620239597435206,-1.1342682779059694, ,0.388921891633077,0.20719856235473968,0.06371524608000001,0.07695481488934795,0.4682067231226247,-0.18425533301793967, ,1.3448522090911865
0.024983017381695612,0.021843611675397667,-0.09816402044322806, ,0.027131141241671028,0.021138571500662114,-0.09939358091437073, ,0.00257358441050287, ,0.052199494658848086,-0.007136171454329687,-0.05429542901208295,0.0689131652839404,0.05228733076559111,-0.024857413763461803, ,0.07565517693635274, ,0.08650154590864263, ,0.0014155920897862026, ,0.2757324545413119,-0.2071082502209529,0.11050872250000002,-4.508753164804243,0.30620239597435206,-1.1342682779059694, ,0.388921891633077,0.20719856235473968,0.06371524608000001,0.07695481488934795,0.4682067231226247,-0.18425533301793967, ,1.3501431941986084
0.025499871390344327,0.021771634614344733,-0.09868875112694056, ,0.027419197638694114,0.021092646689273294,-0.09965917161284345, ,0.0022553389477985974, ,0.05287290505639282,-0.007330353764760213,-0.05254313781055579,-0.0177388767884074,-0.007461921275144423,0.019114063921193872, ,0.07490033048256811, ,0.01923402036955147, ,0.0014239064151130578, ,0.2795629300469272,-0.20510033967365454,0.11112705283000002,-4.508543474860758,0.3104381274670807,-1.1355985856769037, ,0.3905223932447357,0.20147970606894008,0.06222192000000001,0.020303630637097937,0.4103101928440206,-0.11436313091116665, ,1.3562440872192383
0.025499871390344327,0.021771634614344733,-0.09868875112694056, ,0.027707623483367187,0.021046593728902604,-0.09992419835253326, ,0.002631764320191727, ,0.05287290505639282,-0.007330353764760213,-0.05254313781055579,-0.0177388767884074,-0.007461921275144423,0.019114063921193872, ,0.07490033048256811, ,0.01923402036955147, ,0.0014357481592804956, ,0.28189519537494306,-0.20388787061240127,0.11149649548000001,-4.508543474860758,0.3127609479630932,-1.136185830197494, ,0.388921891633077,0.20364150549028065,0.06346140047808765,0.016548638797087126,0.4028285290589569,-0.1022000059196028, ,1.361640214920044
0.025817015072036185,0.021725557696895412,-0.09900039691885723, ,0.02799636708689871,0.021000439568422975,-0.10018861090186296, ,0.0025859667388299984, ,0.05340072443289334,-0.007470046139052916,-0.05364314563719256,-0.03384191946398741,-0.012164936760425687,0.020277209058710735, ,0.0760593586163494, ,0.03595576458552224, ,0.0014469153299557335, ,0.28189519537494306,-0.20388787061240127,0.11149649548000001,-4.508543474860758,0.3127609479630932,-1.136185830197494, ,0.388921891633077,0.20364150549028065,0.06346140047808765,0.016548638797087126,0.4028285290589569,-0.1022000059196028, ,1.3682491779327393
0.0266016489791883,0.021608845204052565,-0.09977150169002583, ,0.028285377356122514,0.020954210855595328,-0.10045235971474867, ,0.001930558216501913, ,0.0510696273756142,-0.008307249183188616,-0.04688864017763376,-0.05075197147675115,-0.03664503604046666,0.014539680687016419, ,0.06982593935625415, ,0.06259708167586152, ,0.00145156574232637, ,0.28758684950324653,-0.20088372752432795,0.11241297251000001,-4.508124094973789,0.31849968095324166,-1.1375165538069805, ,0.3750867255275525,0.19406327517069688,0.056485147234042556,0.014048333609784368,0.36060766948404893,-0.08212305364892553, ,1.3735930919647217
0.0266016489791883,0.021608845204052565,-0.09977150169002583, ,0.028574603791090964,0.02090793393827732,-0.10071539592763501, ,0.0022966853559189073, ,0.0510696273756142,-0.008307249183188616,-0.04688864017763376,-0.05075197147675115,-0.03664503604046666,0.014539680687016419, ,0.06982593935625415, ,0.06259708167586152, ,0.0014596145005510608, ,0.28758684950324653,-0.20088372752432795,0.11241297251000001,-4.508124094973789,0.31849968095324166,-1.1375165538069805, ,0.3750867255275525,0.19406327517069688,0.056485147234042556,0.014048333609784368,0.36060766948404893,-0.08212305364892553, ,1.378904104232788
0.026954757612041677,0.02155061681509779,-0.10009062632448205, ,0.02886399648266898,0.020861634865632174,-0.10097767135653378, ,0.0022151158165412722, ,0.05139302834610115,-0.008454137460771815,-0.04580244319745306,0.006363661714581574,-0.011510268577991317,-0.043104254468274525, ,0.06935834200472712, ,0.013144614681017311, ,0.0014667418714566288, ,0.2901894104818602,-0.19953224927133867,0.11279926693000002,-4.507495025143336,0.32109577444878507,-1.1383266341349638, ,0.37958776623388313,0.1944609458165385,0.055695145174825184,0.07776714491245879,0.3831559354444848,-0.11868839693491184, ,1.3844170570373535
0.026954757612041677,0.02155061681509779,-0.10009062632448205, ,0.029153506110126962,0.02081533938933728,-0.1012391384940596, ,0.002587316767296388, ,0.05139302834610115,-0.008454137460771815,-0.04580244319745306,0.006363661714581574,-0.011510268577991317,-0.043104254468274525, ,0.06935834200472712, ,0.013144614681017311, ,0.0014772145340345706, ,0.2901894104818602,-0.19953224927133867,0.11279926693000002,-4.507495025143336,0.32109577444878507,-1.1383266341349638, ,0.37958776623388313,0.1944609458165385,0.055695145174825184,0.07776714491245879,0.3831559354444848,-0.11868839693491184, ,1.3897290229797363
0.02761008617445495,0.021441085443367223,-0.10067591036713566, ,0.0294430839387348,0.02076907296479283,-0.10149975050646803, ,0.002119007822163433, ,0.05064754634573757,-0.00859078916111693,-0.043954654229180296,0.04277104415272476,-0.003088171688113782,-0.01890353414182345, ,0.06760907659228306, ,0.042880472876559175, ,0.001483157064480208, ,0.29500839579537624,-0.19706097475158682,0.11351222643000002,-4.507075645256367,0.32615132494010635,-1.1401620918477955, ,0.3736100061357117,0.18941505301091974,0.0539959712542373,0.05266960730992443,0.39570806248355705,-0.15545547959201822, ,1.3950231075286865
0.02761008617445495,0.021441085443367223,-0.10067591036713566, ,0.02973268181735513,0.020722860752330843,-0.10175946123069146, ,0.0024890442832512334, ,0.05064754634573757,-0.00859078916111693,-0.043954654229180296,0.04277104415272476,-0.003088171688113782,-0.01890353414182345, ,0.06760907659228306, ,0.042880472876559175, ,0.001492385387588199, ,0.29500839579537624,-0.19706097475158682,0.11351222643000002,-4.507075645256367,0.32615132494010635,-1.1401620918477955, ,0.3736100061357117,0.18941505301091974,0.0539959712542373,0.05266960730992443,0.39570806248355705,-0.15545547959201822, ,1.400306224822998
0.028107341243741823,0.02135737604757743,-0.10110251757685336, ,0.030022252176036775,0.02067672761842353,-0.10201822517137647, ,0.0022290550826302383, ,0.05264479159042746,-0.008483224858123702,-0.045828798116274556,0.029016205704390317,-0.015603099788732085,-0.0013868720867562818, ,0.07031157744194963, ,0.03294229436213953, ,0.001499082384815854, ,0.2986689711777587,-0.19523840979326984,0.11403852017,-4.507075645256367,0.3299771469335387,-1.1417298970886245, ,0.3826489578970596,0.1905561075471301,0.056485147234042556,0.032837813295149385,0.39505630802770175,-0.14828409324712136, ,1.4056100845336914
0.028107341243741823,0.02135737604757743,-0.10110251757685336, ,0.030311748023608493,0.02063069813689234,-0.10227599749792118, ,0.002600870077906456, ,0.05264479159042746,-0.008483224858123702,-0.045828798116274556,0.029016205704390317,-0.015603099788732085,-0.0013868720867562818, ,0.07031157744194963, ,0.03294229436213953, ,0.0015090084000689225, ,0.2986689711777587,-0.19523840979326984,0.11403852017,-4.507075645256367,0.3299771469335387,-1.1417298970886245, ,0.3826489578970596,0.1905561075471301,0.056485147234042556,0.032837813295149385,0.39505630802770175,-0.14828409324712136, ,1.4110171794891357
0.028638642386434127,0.021282407759620984,-0.10158043863964221, ,0.03060112294527239,0.020584796590116472,-0.10253273404151181, ,0.002290165456917376, ,0.052312970227539723,-0.007117216257903192,-0.04726604618179924,-0.014797334637848051,-0.029028041667862572,0.02861936776687501, ,0.07086170152451321, ,0.032578403973222286, ,0.0015159830166479266, ,0.3024531102861287,-0.1934003993692044,0.11462573954000001,-4.506865955312882,0.33380296892697103,-1.142889308628751, ,0.3692487998384077,0.17737746085695474,0.05813434861313869,0.0,0.3678767110249194,-0.10455015850854625, ,1.4165620803833008
0.028638642386434127,0.021282407759620984,-0.10158043863964221, ,0.030890331100197232,0.020539046970241663,-0.10278839129215933, ,0.002661172098455481, ,0.052312970227539723,-0.007117216257903192,-0.04726604618179924,-0.014797334637848051,-0.029028041667862572,0.02861936776687501, ,0.07086170152451321, ,0.032578403973222286, ,0.0015261174333010908, ,0.3024531102861287,-0.1934003993692044,0.11462573954000001,-4.506865955312882,0.33380296892697103,-1.142889308628751, ,0.3692487998384077,0.17737746085695474,0.05813434861313869,0.0,0.3678767110249194,-0.10455015850854625, ,1.4218440055847168
0.02920609880140428,0.02120242251962538,-0.10207267102702126, ,0.031179327219112166,0.02049347298038893,-0.1030429263957369, ,0.002310332296046404, ,0.05357588032756503,-0.00843513499439941,-0.044920268938678204,-0.06358164219836476,-0.06606653484446466,-0.0020494725848023664, ,0.07042270242450575, ,0.09169094476459526, ,0.0015329965110444709, ,0.306453485914977,-0.19148516161639673,0.11523629213000001,-4.506236885482428,0.3373555179208725,-1.143662526881203, ,0.37958776623388313,0.1842659059387782,0.05608736450704226,0.022851697783876822,0.329666072868198,-0.06013871363539999, ,1.4273691177368164
0.029745109042732903,0.021121901055945382,-0.10255750752909654, ,0.03146806660190018,0.020448098035863276,-0.10329629715101697, ,0.001992085180412917, ,0.05440226603869901,-0.006935542594795643,-0.05170695614847421,0.07777070797208531,0.031481870947988676,-0.030461589698768138, ,0.07537451568912296, ,0.0838988772623663, ,0.0015369885864302832, ,0.3102067340918501,-0.18960853752796017,0.11583517811,-4.505817505595459,0.34131797641407025,-1.144933356325026, ,0.37069117796277645,0.18355307844965332,0.06346140047808765,0.06932522725040204,0.42776797684528206,-0.17410677600518387, ,1.4329051971435547
0.029745109042732903,0.021121901055945382,-0.10255750752909654, ,0.03175650511519161,0.020402945265362463,-0.10354846200670742, ,0.0023546979351526352, ,0.05440226603869901,-0.006935542594795643,-0.05170695614847421,0.07777070797208531,0.031481870947988676,-0.030461589698768138, ,0.07537451568912296, ,0.0838988772623663, ,0.001544037804953752, ,0.3102067340918501,-0.18960853752796017,0.11583517811,-4.505817505595459,0.34131797641407025,-1.144933356325026, ,0.37069117796277645,0.18355307844965332,0.06346140047808765,0.06932522725040204,0.42776797684528206,-0.17410677600518387, ,1.4381940364837646
0.030296370437874046,0.021058192238719475,-0.10308813359764499, ,0.0320445991899575,0.020358037512185585,-0.10379938005848927, ,0.0020130553739931083, ,0.05492805768672394,-0.006053378528555552,-0.051676994914535965,0.06704028520823307,0.03827826324309899,0.011428583252845848, ,0.07565875174917325, ,0.07719622229313979, ,0.0015480465021250284, ,0.31393681407010054,-0.18781686350114007,0.11648721198,-4.505607815651975,0.3458269809063298,-1.146731536123775, ,0.3721448688567482,0.17316960138407075,0.06397113060240965,0.031190525963477978,0.4421883879688523,-0.16255845552226522, ,1.4450700283050537
0.030296370437874046,0.021058192238719475,-0.10308813359764499, ,0.03233230581910338,0.02031339733544201,-0.10404901104605349, ,0.0023712945399822355, ,0.05492805768672394,-0.006053378528555552,-0.051676994914535965,0.06704028520823307,0.03827826324309899,0.011428583252845848, ,0.07565875174917325, ,0.07719622229313979, ,0.0015550231804119538, ,0.31393681407010054,-0.18781686350114007,0.11648721198,-4.505607815651975,0.3458269809063298,-1.146731536123775, ,0.3721448688567482,0.17316960138407075,0.06397113060240965,0.031190525963477978,0.4421883879688523,-0.16255845552226522, ,1.4505431652069092
0.03083140756756715,0.020994812953668816,-0.10357739708921884, ,0.03261958255506234,0.02026904701125997,-0.10429731535013714, ,0.0020597544250389754, ,0.05436051838660763,-0.006439898036394479,-0.048801257987449595,-0.030090558172072977,-0.00737239554497251,0.020707346054181668, ,0.07333553727312207, ,0.030976073253219816, ,0.001559264619442433, ,0.31756649852098606,-0.18613330773455913,0.11709646828000002,-4.505607815651975,0.34992607589929303,-1.147950425991013, ,0.36639745775471344,0.16855584646264793,0.06102992919540231,0.01241355741685028,0.3806368871271213,-0.07427462803746496, ,1.45589017868042
0.03083140756756715,0.020994812953668816,-0.10357739708921884, ,0.03290638750738903,0.020225008533995285,-0.10454425398956188, ,0.0024151506911480806, ,0.05436051838660763,-0.006439898036394479,-0.048801257987449595,-0.030090558172072977,-0.00737239554497251,0.020707346054181668, ,0.07333553727312207, ,0.030976073253219816, ,0.0015663970033733133, ,0.31756649852098606,-0.18613330773455913,0.11709646828000002,-4.505607815651975,0.34992607589929303,-1.147950425991013, ,0.36639745775471344,0.16855584646264793,0.06102992919540231,0.01241355741685028,0.3806368871271213,-0.07427462803746496, ,1.4612600803375244
0.031298988471224184,0.02093303274127014,-0.1039903731207269, ,0.033192679340352714,0.02018130361744016,-0.10478978861826932, ,0.002188658703668974, ,0.053798369984324204,-0.007649373360702919,-0.046776371863023476,-0.08645504453861477,-0.03237221480142545,0.013917078369782416, ,0.07169941764372652, ,0.09231582246186944, ,0.0015715396620534427, ,0.3207019280679212,-0.18465054302270803,0.11761368799000001,-4.505607815651975,0.3529320788941327,-1.148196293888539, ,0.3608248728458964,0.1738039222682615,0.058777902287822884,0.010851596751022841,0.34300088031005765,-0.02800857313948768, ,1.4668381214141846
0.031298988471224184,0.02093303274127014,-0.1039903731207269, ,0.03347841727053108,0.020137953696031843,-0.10503388152235876, ,0.0025438102059119165, ,0.05323493474091453,-0.007958165751372146,-0.044789455915354076,-0.04030390237858366,-0.027917675565077373,-0.019567054966463788, ,0.07002418182448965, ,0.049026736627884294, ,0.0015795090927408072, ,0.3207019280679212,-0.18465054302270803,0.11761368799000001,-4.505607815651975,0.3529320788941327,-1.148196293888539, ,0.3608248728458964,0.1738039222682615,0.058777902287822884,0.010851596751022841,0.34300088031005765,-0.02800857313948768, ,1.472398042678833
0.031926486420094255,0.02084163490813249,-0.104524408859745, ,0.0337635610644035,0.02009497992606145,-0.10527649561712418, ,0.0021208421444418226, ,0.05323493474091453,-0.007958165751372146,-0.044789455915354076,-0.04030390237858366,-0.027917675565077373,-0.019567054966463788, ,0.07002418182448965, ,0.049026736627884294, ,0.0015839101744619538, ,0.32491081748437356,-0.182619464276787,0.11828905508000001,-4.504978745821521,0.35689453738733046,-1.1487320146710966, ,0.35675541939274735,0.17222675418960212,0.05688861257142858,0.04342785828521361,0.3417442110966277,-0.06261402890949656, ,1.478344202041626
0.03244860916352013,0.020760417434047627,-0.1049461031334727, ,0.03404807103594474,0.0200524031868825,-0.10551759444409076, ,0.0018401534646981966, ,0.05092170340247904,-0.008430152367394231,-0.039224377074612564,0.005686846612351601,-0.02727162356458975,-0.03593901718231032, ,0.0648277649100979, ,0.027856576002624197, ,0.0015859766526090202, ,0.3284478291407684,-0.18093590851020605,0.11883090430000001,-4.504559365934552,0.3603104498814665,-1.1496388512402742, ,0.34888581455320145,0.16561420865352666,0.05105388307692308,0.05847107261278043,0.3361339958193658,-0.0983421581544533, ,1.4836790561676025
0.03244860916352013,0.020760417434047627,-0.1049461031334727, ,0.03433190804421818,0.02001024408211984,-0.10575714216805211, ,0.0021834282785547577, ,0.05092170340247904,-0.008430152367394231,-0.039224377074612564,0.005686846612351601,-0.02727162356458975,-0.03593901718231032, ,0.0648277649100979, ,0.027856576002624197, ,0.001590756265616586, ,0.3284478291407684,-0.18093590851020605,0.11883090430000001,-4.504559365934552,0.3603104498814665,-1.1496388512402742, ,0.34888581455320145,0.16561420865352666,0.05105388307692308,0.05847107261278043,0.3361339958193658,-0.0983421581544533, ,1.4889440536499023
0.032961525199579796,0.020670530919693703,-0.1053374668723782, ,0.03461503349096959,0.019968522940878326,-0.10599510357410707, ,0.001912953450420598, ,0.05127077004041642,-0.009231147177814697,-0.038241794603012066,0.018568894717685164,-0.03662817727828099,-0.02095273846867715, ,0.06462461445312229, ,0.04106513647169588, ,0.0015933133861309036, ,0.33196167259854054,-0.17925235274362508,0.11934164256000002,-4.504559365934552,0.36372636237560246,-1.1507907240298736, ,0.3514701539202621,0.16945882421155498,0.0502486167823344,0.0384389282955298,0.33579786182354654,-0.12127050313559697, ,1.4942471981048584
0.032961525199579796,0.020670530919693703,-0.1053374668723782, ,0.03489740931822029,0.019927259818951475,-0.1062314440646969, ,0.0022581617458430764, ,0.05127077004041642,-0.009231147177814697,-0.038241794603012066,0.018568894717685164,-0.03662817727828099,-0.02095273846867715, ,0.06462461445312229, ,0.04106513647169588, ,0.00159854841258533, ,0.33196167259854054,-0.17925235274362508,0.11934164256000002,-4.504559365934552,0.36372636237560246,-1.1507907240298736, ,0.3514701539202621,0.16945882421155498,0.0502486167823344,0.0384389282955298,0.33579786182354654,-0.12127050313559697, ,1.499479055404663
0.03348829473347981,0.02057936346459188,-0.10575014978179399, ,0.03517899800586118,0.01988647450003026,-0.10646612965664193, ,0.0019624474142355018, ,0.0524987158807286,-0.008221596244873442,-0.042584042921810755,0.05611714072126405,-0.013334457930754197,-0.007409156757421749, ,0.06809633268764041, ,0.05767842938852982, ,0.001601391373535722, ,0.3355064069878096,-0.17753018331267303,0.11987830662000001,-4.504559365934552,0.36727891136950397,-1.1522173722034506, ,0.347607844536523,0.16648586238328208,0.055116994878892746,0.028164462118792748,0.3623196610094373,-0.1557936735003015, ,1.504702091217041
0.03348829473347981,0.02057936346459188,-0.10575014978179399, ,0.03545976256924543,0.019846186496911805,-0.10669912697817821, ,0.002307550998927684, ,0.0524987158807286,-0.008221596244873442,-0.042584042921810755,0.05611714072126405,-0.013334457930754197,-0.007409156757421749, ,0.06809633268764041, ,0.05767842938852982, ,0.0016068654791589155, ,0.3355064069878096,-0.17753018331267303,0.11987830662000001,-4.504559365934552,0.36727891136950397,-1.1522173722034506, ,0.347607844536523,0.16648586238328208,0.055116994878892746,0.028164462118792748,0.3623196610094373,-0.1557936735003015, ,1.510322093963623
0.033659927703511054,0.020552785422638317,-0.10589044480014949, ,0.03573966655678265,0.01980641505270816,-0.10693040326599543, ,0.002442108932378278, ,0.053387851774916464,-0.007890730988639495,-0.0434274295120979,0.05490785927439978,-0.017510286718296842,-0.004967256183044168, ,0.06927097506678939, ,0.05763096988097518, ,0.0016132904287990645, ,0.3366416487203206,-0.17698959201147732,0.12005978722,-4.504559365934552,0.3685086398673929,-1.1527300608958748, ,0.3514701539202621,0.16475163465012285,0.05628555307420496,0.025931724858705815,0.3620852510497589,-0.15362212014884297, ,1.5163171291351318
0.033659927703511054,0.020552785422638317,-0.10589044480014949, ,0.036018674047532166,0.019767179142055,-0.10715992636227277, ,0.0027914951155421862, ,0.053387851774916464,-0.007890730988639495,-0.0434274295120979,0.05490785927439978,-0.017510286718296842,-0.004967256183044168, ,0.06927097506678939, ,0.05763096988097518, ,0.0016222843577055007, ,0.3366416487203206,-0.17698959201147732,0.12005978722,-4.504559365934552,0.3685086398673929,-1.1527300608958748, ,0.3514701539202621,0.16475163465012285,0.05628555307420496,0.025931724858705815,0.3620852510497589,-0.15362212014884297, ,1.5216751098632812
0.03445815866113943,0.020427347859831784,-0.10650447756075435, ,0.03629674964879621,0.019728497472320285,-0.10738766471171668, ,0.002156114149956504, ,0.048361724304468064,-0.009313892325246268,-0.03369705680653287,-0.1703000293079685,-0.16237370064159828,-0.027808738416194842, ,0.05967492442701844, ,0.23530251846365066, ,0.0016263285227983114, ,0.34186221614329637,-0.17454148569034814,0.12086478331000002,-4.503930296104099,0.3726077348603561,-1.15354055706241, ,0.31738107544639055,0.15506036202364507,0.04499664271186441,0.014901176858146709,0.1515523891609353,0.05056017270670832, ,1.5270881652832031
0.03500050996728165,0.020317141568958228,-0.10690277286374647, ,0.03657385849371403,0.019690388484813137,-0.10761358735859687, ,0.001836709628711559, ,0.05155196559401541,-0.008651828265229216,-0.04330907771181609,0.096769463045544,0.006358917031715174,-0.037435541557434227, ,0.06788324904706383, ,0.09697738105156287, ,0.0016279103356247266, ,0.3454378414640623,-0.1727034752662827,0.12139237334000001,-4.503510916217129,0.3756137378551958,-1.1545215336212014, ,0.3272308329602441,0.1676624409160261,0.05589056673684212,0.055311350792892344,0.3610729697027381,-0.18808163487145765, ,1.5332820415496826
0.03500050996728165,0.020317141568958228,-0.10690277286374647, ,0.03684996623885457,0.019652870355992478,-0.10783766394378398, ,0.0021761815357109137, ,0.05155196559401541,-0.008651828265229216,-0.04330907771181609,0.096769463045544,0.006358917031715174,-0.037435541557434227, ,0.06788324904706383, ,0.09697738105156287, ,0.0016320019117447729, ,0.3454378414640623,-0.1727034752662827,0.12139237334000001,-4.503510916217129,0.3756137378551958,-1.1545215336212014, ,0.3272308329602441,0.1676624409160261,0.05589056673684212,0.055311350792892344,0.3610729697027381,-0.18808163487145765, ,1.5385401248931885
0.0354752595810074,0.020253508313024797,-0.10732803380174244, ,0.037125039061810576,0.019615960998675738,-0.10805986470178654, ,0.0019141095526568638, ,0.05172124741996767,-0.005753790865168966,-0.046391371252695206,0.1434409649870122,0.06552503827644203,-0.007518839579734076, ,0.06971623104201065, ,0.15769789536469972, ,0.0016340915979737513, ,0.3483956481548903,-0.17126704695167694,0.12193681514000002,-4.503301226273645,0.3794395598486281,-1.1565794113028738, ,0.3205977755353742,0.1464458974667759,0.05965847011235956,0.04301237153301249,0.42069388852862244,-0.21062130250140493, ,1.5440630912780762
0.0354752595810074,0.020253508313024797,-0.10732803380174244, ,0.03739904365879184,0.019579678063247643,-0.10828016045778727, ,0.0022497861126344405, ,0.05172124741996767,-0.005753790865168966,-0.046391371252695206,0.1434409649870122,0.06552503827644203,-0.007518839579734076, ,0.06971623104201065, ,0.15769789536469972, ,0.001638618763522727, ,0.3483956481548903,-0.17126704695167694,0.12193681514000002,-4.503301226273645,0.3794395598486281,-1.1565794113028738, ,0.3205977755353742,0.1464458974667759,0.05965847011235956,0.04301237153301249,0.42069388852862244,-0.21062130250140493, ,1.5495800971984863
0.036021174164078296,0.020186675745854303,-0.1077935712888445, ,0.0376719472422187,0.01954403893886894,-0.10849852262468093, ,0.0019065650282912114, ,0.05286341480242192,-0.007055263671233153,-0.04383965606818461,-0.02410034924055278,-0.003629087199261418,-0.006313856818867686, ,0.069037908530171, ,0.024368733538971867, ,0.0016405745756743215, ,0.35180137335242334,-0.16973022310970629,0.12254218257000002,-4.503301226273645,0.38340201834182586,-1.157931919486837, ,0.32836311957948366,0.15159255840011304,0.057297883165467633,0.029312597765145172,0.3398075914020911,-0.06201444318728054, ,1.5548040866851807
0.036021174164078296,0.020186675745854303,-0.1077935712888445, ,0.03794371753831553,0.019509060754685125,-0.10871492320011013, ,0.0022370123930084834, ,0.05286341480242192,-0.007055263671233153,-0.04383965606818461,-0.02410034924055278,-0.003629087199261418,-0.006313856818867686, ,0.069037908530171, ,0.024368733538971867, ,0.0016448965888434097, ,0.35180137335242334,-0.16973022310970629,0.12254218257000002,-4.503301226273645,0.38340201834182586,-1.157931919486837, ,0.32836311957948366,0.15159255840011304,0.057297883165467633,0.029312597765145172,0.3398075914020911,-0.06201444318728054, ,1.5601301193237305
0.03657152663727621,0.020117578772838388,-0.10827811035825034, ,0.03821432278470407,0.019474760381035103,-0.10892933476350339, ,0.0018804488540881804, ,0.05374575747506144,-0.006160635596421488,-0.05040768884362017,-0.06745820920819443,0.004796991961140742,-0.0009722317601490373, ,0.07394251126432783, ,0.06762614636153463, ,0.0016465912094566811, ,0.3550989802897172,-0.1681702310691129,0.12316569806000001,-4.503301226273645,0.38668129433619647,-1.1581555869713342, ,0.31113751330646156,0.15159255840011304,0.06397113060240965,0.022247928132640628,0.32665161655987013,-0.022298873944203934, ,1.5654830932617188
0.03657152663727621,0.020117578772838388,-0.10827811035825034, ,0.038483731727997204,0.019441154430660038,-0.10914173047311113, ,0.0022045221483266726, ,0.05374575747506144,-0.006160635596421488,-0.05040768884362017,-0.06745820920819443,0.004796991961140742,-0.0009722317601490373, ,0.07394251126432783, ,0.06762614636153463, ,0.0016505764304486097, ,0.3550989802897172,-0.1681702310691129,0.12316569806000001,-4.503301226273645,0.38668129433619647,-1.1581555869713342, ,0.31113751330646156,0.15159255840011304,0.06397113060240965,0.022247928132640628,0.32665161655987013,-0.022298873944203934, ,1.5708529949188232
0.037107730471621296,0.020059054783385707,-0.10878844155966376, ,0.03875191362139208,0.019408259259911985,-0.10935208406304295, ,0.0018559541791162786, ,0.0522294597912215,-0.0056269554734654816,-0.04875678346867127,-0.06024452317629025,0.027026192670281238,0.01035637514300854, ,0.0716714938604888, ,0.06602682885740777, ,0.0016520330102263946, ,0.3581726279736585,-0.16667202089151337,0.12381254677000002,-4.502881846386677,0.3900972068303325,-1.1584906723595279, ,0.30126013193165324,0.1427021677570989,0.06222192000000001,0.01603350813296673,0.34035866797440345,-0.0211401614867657, ,1.5762550830841064
0.037107730471621296,0.020059054783385707,-0.10878844155966376, ,0.039018838222263784,0.019376090969962716,-0.10956036984030461, ,0.002171323484758593, ,0.0522294597912215,-0.0056269554734654816,-0.04875678346867127,-0.06024452317629025,0.027026192670281238,0.01035637514300854, ,0.0716714938604888, ,0.06602682885740777, ,0.0016556899853991565, ,0.3581726279736585,-0.16667202089151337,0.12381254677000002,-4.502881846386677,0.3900972068303325,-1.1584906723595279, ,0.30126013193165324,0.1427021677570989,0.06222192000000001,0.01603350813296673,0.34035866797440345,-0.0211401614867657, ,1.5816471576690674
0.037613229760193934,0.020000674952408933,-0.10922672709497924, ,0.03928447578975888,0.019344665408012315,-0.10976656268183546, ,0.0018747891280121243, ,0.049851599439970896,-0.006642876676938793,-0.040924730874851295,-0.0038988742215111576,0.03829704565253191,0.00812713162356373, ,0.06483936593187299, ,0.0384935076249431, ,0.0016572221472356107, ,0.3611922165274803,-0.16529737443990142,0.12438421066000001,-4.502462466499707,0.3936497558242339,-1.1589371756514182, ,0.3041568639694576,0.13894134928033788,0.054179631020408174,0.02073128641260866,0.36060766948404893,-0.06977066998263946, ,1.5869359970092773
0.037613229760193934,0.020000674952408933,-0.10922672709497924, ,0.03954879708238864,0.01931399816849813,-0.10997063803154403, ,0.002184341856452595, ,0.049851599439970896,-0.006642876676938793,-0.040924730874851295,-0.0038988742215111576,0.03829704565253191,0.00812713162356373, ,0.06483936593187299, ,0.0384935076249431, ,0.0016608827007718397, ,0.3611922165274803,-0.16529737443990142,0.12438421066000001,-4.502462466499707,0.3936497558242339,-1.1589371756514182, ,0.3041568639694576,0.13894134928033788,0.054179631020408174,0.02073128641260866,0.36060766948404893,-0.06977066998263946, ,1.5921850204467773
0.03810182735833826,0.019925089379872418,-0.10962302181730345, ,0.039811773355622804,0.019284104594303235,-0.11017257189734633, ,0.0019070348972779043, ,0.04823846172753083,-0.0078265290750038,-0.03832095918786151,-0.004518337017948382,0.02246830913846766,-0.02892109313257376, ,0.06210233216456596, ,0.022916318346496843, ,0.001662580302127054, ,0.36416546868405675,-0.16386094612529564,0.12490920811000002,-4.502252776556222,0.3970656683183699,-1.159598976000174, ,0.29379858067638015,0.14400142876854444,0.05105388307692308,0.0504982996614747,0.32811985716586517,-0.06767261612184867, ,1.5975661277770996
0.03810182735833826,0.019925089379872418,-0.10962302181730345, ,0.0400733763594827,0.019254999777965423,-0.11037234084820176, ,0.0022130306253108885, ,0.04823846172753083,-0.0078265290750038,-0.03832095918786151,-0.004518337017948382,0.02246830913846766,-0.02892109313257376, ,0.06210233216456596, ,0.022916318346496843, ,0.001666350509820094, ,0.36416546868405675,-0.16386094612529564,0.12490920811000002,-4.502252776556222,0.3970656683183699,-1.159598976000174, ,0.29379858067638015,0.14400142876854444,0.05105388307692308,0.0504982996614747,0.32811985716586517,-0.06767261612184867, ,1.602980136871338
0.038586208402195725,0.019845805035529546,-0.10998346681351254, ,0.04033357833613512,0.019226698562885662,-0.11056992201115096, ,0.0019443570169446866, ,0.04739804942537969,-0.007543868694840892,-0.032773240248017546,-0.03039153629131037,-0.024602823990725303,-0.020519548455025325, ,0.05811686778010333, ,0.039101235496019106, ,0.0016682417105488327, ,0.3671696117721301,-0.162463131475061,0.12539920573000002,-4.502252776556222,0.40020830781297506,-1.1602012980218182, ,0.29841805521531695,0.1319846196918926,0.04564129375358167,0.036327506059414615,0.28303933059975256,-0.04131427251906039, ,1.608849048614502
0.038586208402195725,0.019845805035529546,-0.10998346681351254, ,0.04059235201748523,0.01919921554453717,-0.11076529306835177, ,0.0022480975218581046, ,0.04739804942537969,-0.007543868694840892,-0.032773240248017546,-0.03039153629131037,-0.024602823990725303,-0.020519548455025325, ,0.05811686778010333, ,0.039101235496019106, ,0.0016721596552198412, ,0.3671696117721301,-0.162463131475061,0.12539920573000002,-4.502252776556222,0.40020830781297506,-1.1602012980218182, ,0.29841805521531695,0.1319846196918926,0.04564129375358167,0.036327506059414615,0.28303933059975256,-0.04131427251906039, ,1.6142520904541016
0.038738721199188364,0.01982068601238534,-0.11008752648314711, ,0.04084967062277076,0.019172565071673864,-0.11095843225411701, ,0.002373740736605469, ,0.04710650524040502,-0.007718415088162343,-0.032040729208143034,-0.023001948787840253,-0.02664171488562405,-0.018920961798837944, ,0.057490913157011415, ,0.03519711425061274, ,0.0016768682530814896, ,0.3681272306485339,-0.16203838116697866,0.12554439021000002,-4.502252776556222,0.4010281268115677,-1.1602980542630128, ,0.29748257541840367,0.1319846196918926,0.0448698916056338,0.0334473036897054,0.2815678868216891,-0.049956740750782866, ,1.6198480129241943
0.039642339180387696,0.01968127883129723,-0.11073418084288594, ,0.041105507856154924,0.019146761247539168,-0.1111493183519506, ,0.0016121137591762532, ,0.04710650524040502,-0.007718415088162343,-0.032040729208143034,-0.023001948787840253,-0.02664171488562405,-0.018920961798837944, ,0.057490913157011415, ,0.03519711425061274, ,0.0016764365564554547, ,0.3737262119823467,-0.1595593839143526,0.1264401266,-4.502043086612738,0.40690349630148165,-1.1621485894768986, ,0.28669770863586336,0.12999581035406957,0.047978347951807235,0.0,0.26612605945755785,-0.0656223006954198, ,1.6252360343933105
0.039642339180387696,0.01968127883129723,-0.11073418084288594, ,0.04135983790431996,0.019121817931074828,-0.11133793069158542, ,0.0019045504050539746, ,0.04757796160221993,-0.007353442572641868,-0.03496003835726745,-0.019429612083629918,-0.03804034318034507,0.007108742858315364, ,0.059497393470916586, ,0.04271446256570555, ,0.0016779472441945179, ,0.3737262119823467,-0.1595593839143526,0.1264401266,-4.502043086612738,0.40690349630148165,-1.1621485894768986, ,0.28669770863586336,0.12999581035406957,0.047978347951807235,0.0,0.26612605945755785,-0.0656223006954198, ,1.6314561367034912
0.04009457399203283,0.019615926739706777,-0.11105316094544632, ,0.04161263543406075,0.01909774873812954,-0.11152424914601927, ,0.001671808325080814, ,0.04595976922283447,-0.006542804481473462,-0.032435669116760574,-0.0780931368261794,-0.0751900871477714,-0.016852301300604763, ,0.05663198132284414, ,0.10840687857788467, ,0.0016779068565687697, ,0.37644461395407375,-0.158370083051722,0.12688345778000001,-4.5014140167822845,0.40895304379796327,-1.1622679619696743, ,0.2750635987202052,0.11832536353924038,0.04512411195467422,0.02000735882463183,0.20327917629859424,0.003415094975080357, ,1.6367921829223633
0.04009457399203283,0.019615926739706777,-0.11105316094544632, ,0.04186387558987825,0.01907456704266781,-0.11170825412855222, ,0.001962815718366933, ,0.04595976922283447,-0.006542804481473462,-0.032435669116760574,-0.0780931368261794,-0.0751900871477714,-0.016852301300604763, ,0.05663198132284414, ,0.10840687857788467, ,0.001679769005992287, ,0.37644461395407375,-0.158370083051722,0.12688345778000001,-4.5014140167822845,0.40895304379796327,-1.1622679619696743, ,0.2750635987202052,0.11832536353924038,0.04512411195467422,0.02000735882463183,0.20327917629859424,0.003415094975080357, ,1.642113208770752
0.04056395980236039,0.0195529690218096,-0.11140249252331562, ,0.04211353399157292,0.01905228597797853,-0.11188992658982425, ,0.001699839888767986, ,0.04688718698900014,-0.00594984779279893,-0.03590996573325299,0.00245151770912715,-0.028690851253264746,-0.06004137121372849, ,0.059357683845163156, ,0.028794360053342644, ,0.0016798993363999215, ,0.3792016295901719,-0.15716533672334299,0.12736308508000002,-4.5009946368953155,0.4112758642939757,-1.1626101702698428, ,0.2719110073308618,0.11951755863787251,0.049011727753846164,0.07276629845409315,0.24709187772152055,-0.05324988717553539, ,1.647538185119629
0.04056395980236039,0.0195529690218096,-0.11140249252331562, ,0.04236158673183809,0.019030918437883855,-0.1120692480148503, ,0.001987098959602235, ,0.04688718698900014,-0.00594984779279893,-0.03590996573325299,0.00245151770912715,-0.028690851253264746,-0.06004137121372849, ,0.059357683845163156, ,0.028794360053342644, ,0.0016818812694528397, ,0.3792016295901719,-0.15716533672334299,0.12736308508000002,-4.5009946368953155,0.4112758642939757,-1.1626101702698428, ,0.2719110073308618,0.11951755863787251,0.049011727753846164,0.07276629845409315,0.24709187772152055,-0.05324988717553539, ,1.6530821323394775
0.04102765261486435,0.019495258150003622,-0.111755426701012, ,0.04260801037385346,0.019010477077947823,-0.11224620042005934, ,0.0017243555832623936, ,0.04738929990745619,-0.005454721013099546,-0.03439856305526048,0.04085343166271222,-0.003081384041753123,-0.023733768652837845, ,0.05881123079239465, ,0.040968886298827896, ,0.0016821535406952087, ,0.3819200315618989,-0.15601464952508354,0.12784789754,-4.5009946368953155,0.41414523078904997,-1.1634797289249375, ,0.2815932983930884,0.11283821826215314,0.04812329764350454,0.04392936284343525,0.29311964195491136,-0.08982298186088236, ,1.6584022045135498
0.04102765261486435,0.019495258150003622,-0.111755426701012, ,0.042852781948878794,0.018990974316685158,-0.11242076635032962, ,0.0020070067561870474, ,0.04738929990745619,-0.005454721013099546,-0.03439856305526048,0.04085343166271222,-0.003081384041753123,-0.023733768652837845, ,0.05881123079239465, ,0.040968886298827896, ,0.001684222669456303, ,0.3819200315618989,-0.15601464952508354,0.12784789754,-4.5009946368953155,0.41414523078904997,-1.1634797289249375, ,0.2815932983930884,0.11283821826215314,0.04812329764350454,0.04392936284343525,0.29311964195491136,-0.08982298186088236, ,1.6655490398406982
0.04144901953183789,0.019446045722254956,-0.11205155960228552, ,0.04309587895384714,0.018972422336770045,-0.11259292887602672, ,0.0017970936975266179, ,0.04742459856299759,-0.005224607873320453,-0.032930358426745854,-0.0013507276880879878,-0.018571524224445704,-0.012980024556338817, ,0.05797238637839042, ,0.01861953955180714, ,0.001684937043051685, ,0.3844376424788961,-0.15503386245005704,0.12826659921000003,-4.5009946368953155,0.4166046877848279,-1.164015033868943, ,0.28327445241334565,0.10796011553864708,0.046849445647058834,0.03231815266187151,0.2753344226168796,-0.04928720748157761, ,1.6708850860595703
0.04198063447294535,0.01938955374336855,-0.11243232160117467, ,0.04333727934895835,0.018954833086244738,-0.11276267159003997, ,0.0014623947772355388, ,0.046670912852346744,-0.004715821664210199,-0.034113179620744526,-0.04530092236183075,-0.02063745974023333,0.0169880431958118, ,0.05800105261352727, ,0.04977983642657816, ,0.0016835374061597594, ,0.3875576265600828,-0.15383683885455224,0.12880326327000002,-4.500784946951831,0.4196106907796676,-1.1643425805066097, ,0.2703616568617401,0.10292509930419824,0.04783426882882884,0.0,0.2603487841708377,-0.014250149342221463, ,1.676164150238037
0.04198063447294535,0.01938955374336855,-0.11243232160117467, ,0.04357696155527238,0.018938218279728396,-0.11292997860481922, ,0.0017319429401069987, ,0.046670912852346744,-0.004715821664210199,-0.034113179620744526,-0.04530092236183075,-0.02063745974023333,0.0169880431958118, ,0.05800105261352727, ,0.04977983642657816, ,0.0016838399407469295, ,0.3875576265600828,-0.15383683885455224,0.12880326327000002,-4.500784946951831,0.4196106907796676,-1.1643425805066097, ,0.2703616568617401,0.10292509930419824,0.04783426882882884,0.0,0.2603487841708377,-0.014250149342221463, ,1.6817131042480469
0.04245142791785597,0.01934299481251337,-0.11275955081812268, ,0.04381490445230321,0.01892258939962581,-0.11309483454941208, ,0.0014656821455011151, ,0.04368928357647185,-0.004630009145838803,-0.028142388030583557,-0.03224493875941205,-0.016196637267836586,0.0013339614921627162, ,0.052174557862811416, ,0.03608392276270007, ,0.0016824849233851543, ,0.3902374148674387,-0.15284060631377727,0.12925696477,-4.500365567064861,0.42220678427521097,-1.164499230913468, ,0.26360261544019664,0.09405048717390563,0.04148128,0.0170758026131734,0.2536237627066061,-0.010817695137768868, ,1.6870110034942627
0.04245142791785597,0.01934299481251337,-0.11275955081812268, ,0.044051087375611676,0.01890795769733604,-0.11325722456650053, ,0.0017308514760641797, ,0.04368928357647185,-0.004630009145838803,-0.028142388030583557,-0.03224493875941205,-0.016196637267836586,0.0013339614921627162, ,0.052174557862811416, ,0.03608392276270007, ,0.0016827834823523087, ,0.3902374148674387,-0.15284060631377727,0.12925696477,-4.500365567064861,0.42220678427521097,-1.164499230913468, ,0.26360261544019664,0.09405048717390563,0.04148128,0.0170758026131734,0.2536237627066061,-0.010817695137768868, ,1.6923651695251465
0.04282273730241114,0.01930460700896721,-0.11299723541942529, ,0.044285490114399445,0.018894334194461244,-0.11341713430943819, ,0.0015761613651959663, ,0.04216691663238167,-0.004304891095206855,-0.027691156278950673,0.017000689763628698,0.0189743420828884,-0.032324229086192945, ,0.05062984378495638, ,0.02547612270349913, ,0.0016821293589341715, ,0.3925774029283287,-0.15201427389623526,0.12962251855,-4.499736497234409,0.4246662412709889,-1.1647894996370518, ,0.25305851082258873,0.09107192088144989,0.04063472326530613,0.060550916170053024,0.2773813495981715,-0.040274473759926016, ,1.6977100372314453
0.04282273730241114,0.01930460700896721,-0.11299723541942529, ,0.04451809290910222,0.01888172968401546,-0.11357454993928716, ,0.0018402032278910334, ,0.04216691663238167,-0.004304891095206855,-0.027691156278950673,0.017000689763628698,0.0189743420828884,-0.032324229086192945, ,0.05062984378495638, ,0.02547612270349913, ,0.0016830932239887866, ,0.3925774029283287,-0.15201427389623526,0.12962251855,-4.499736497234409,0.4246662412709889,-1.1647894996370518, ,0.25305851082258873,0.09107192088144989,0.04063472326530613,0.060550916170053024,0.2773813495981715,-0.040274473759926016, ,1.7030282020568848
