NicholasDascanio/dvrk_moveit_final/test/execution/second_exp_sharpbends/firstexp_300vel3.csv
Current Position (x),Current Position (y),Current Position (z), ,Planned Position (x),Planned Position (y),Planned Position (z), ,Position Error,,Cartesian linear Velocity(x),Cartesian linear Velocity(y),Cartesian linear Velocity(z),Cartesian Angular Velocity(x),Cartesian Angular Velocity(y),Cartesian Angular Velocity(z), ,Total Linear Velocity, ,Total Angular Velocity, ,MSE, ,Joint 1 Position,Joint 2 Position,Joint 3 Position,Joint 4 Position,Joint 5 Position,Joint 6 Position, ,Joint 1 Velocity,Joint 2 Velocity,Joint 3 Velocity,Joint 4 Velocity,Joint 5 Velocity,Joint 6 Velocity, ,Time Stamp
0.01153034018517197,0.01909093914881303,-0.0801047069550444, ,0.011672688538687187,0.019006103162284505,-0.08024886197131437, ,0.00021963803649312425, ,-7.038349515855669e-05,1.1156441778480151e-05,-7.472203747343348e-06,-0.16192902371173423,0.020981165652198985,0.013293771011280663, ,7.1652888376764e-05, ,0.16328263236596965, ,1.8303169707760354e-05, ,0.16101898042758103,-0.22852338848117745,0.08976030476,-4.534125647965871,0.16396379971852854,-1.390247222758115, ,-0.0008507470373535416,-0.00026020055367968964,0.0,-0.006951897932288568,0.0,0.16268853073042377, ,0.03721785545349121
0.011521215859342113,0.019103695156258885,-0.08014024171445538, ,0.011624121630563443,0.01906963057431334,-0.08032974987963921, ,0.00021831934903971106, ,0.001102896669636053,7.52828416267406e-05,-0.000509739775464452,0.21376860023705768,-0.20445659461919416,-0.0587986349011685, ,0.001217326254061845, ,0.29580316687045194, ,1.990715388785615e-05, ,0.16084908030434808,-0.22857744761129703,0.08977974911000002,-4.534545027852839,0.1645103457175903,-1.3933882927975394, ,-0.007131233899010995,-0.0025162292766312704,0.00158179204372405,0.002741556533612376,-0.04694955011557946,-0.20422779768264876, ,0.07406401634216309
0.011545412855811434,0.01912022377022986,-0.08019676297174831, ,0.011577153080205,0.019132496032377162,-0.0804105978546758, ,0.0002165257661789466, ,-0.00013099929387661195,0.0012024742566878318,-0.003548035358704503,-0.03368097891340763,-0.012421221693532793,-0.008158333389357477, ,0.003748554395978604, ,0.03589839952369792, ,2.0452598490993184e-05, ,0.16045522092776263,-0.22871645680303307,0.08985104506000001,-4.534545027852839,0.1587716127274418,-1.400960551863374, ,-0.011986914704646202,-0.005088035069466731,0.00363671495890411,0.002624911197328602,-0.03100646226199611,0.035143877158516024, ,0.11116886138916016
0.011514446229553065,0.019172861885085206,-0.08034130166728483, ,0.011531773120032372,0.019194702779756358,-0.08049140609831203, ,0.00015267149710314993, ,-0.0013933114142366354,0.0010199982803814494,-0.0018888001221934096,0.007512375739233349,0.04461947760040598,0.0104500782310306, ,0.002559155933236786, ,0.04524747032217948, ,1.9217967828926948e-05, ,0.1598528477635731,-0.2289404160563856,0.08999882212,-4.534335337909355,0.15931815872650357,-1.3957703904084608, ,-0.017557250982140758,-0.006871348781437672,0.0018985582165379905,-0.002281610527075899,0.02836787116183672,0.0028976290325700357, ,0.14833402633666992
0.011465847631021483,0.01920908956701689,-0.08039475867332013, ,0.011487972012301114,0.01925625405274041,-0.08057217480989282, ,0.0001849066317819553, ,-0.0012452789678811939,0.0010554316171924969,-0.001734884165853943,-0.0004161018982123063,0.014080409644868208,0.001128932474169818, ,0.0023821164277481387, ,0.014086556589219281, ,1.9078101549940138e-05, ,0.15915780180489292,-0.22924160263848034,0.09005197001000001,-4.534545027852839,0.15931815872650357,-1.3967505352901477, ,-0.019194365201956064,-0.008252250877556844,0.0017355848179734542,-0.0011040653679529977,-0.006138478167974369,0.007613193661514683, ,0.1880660057067871
0.011437523874671044,0.01923949091429054,-0.08044821114652398, ,0.011445740049068289,0.019317153080634118,-0.08065290418622466, ,0.0002190848194303, ,-0.0009862191763950437,0.0014274040356189984,-0.0024813578490760157,0.006980485219514268,0.015744016450888364,0.002459424258733905, ,0.003027746244314717, ,0.017222114498853837, ,1.953461451656753e-05, ,0.15869443783243944,-0.22946556189183287,0.09010641419000001,-4.534545027852839,0.15918152222673815,-1.3966391173864512, ,-0.01696405819779599,-0.010377922500131755,0.0025829108999513542,-0.0011040653679529977,-0.0014203998261925292,0.0029278143423819556, ,0.227370023727417
0.011386331701015894,0.019307857699678223,-0.08054727329442778, ,0.011405067552150585,0.019377403085763245,-0.08073359442158322, ,0.0001997577414468099, ,-0.0011526202704263521,0.0014512973966208167,-0.0019078652542567258,0.004756100624334062,0.01258891472647088,0.005766424810329294, ,0.002659839741344609, ,0.013457387083452288, ,1.9595886687138844e-05, ,0.15783721448340052,-0.23002932139165125,0.09021011739000001,-4.534964407739808,0.1587716127274418,-1.3963048636753619, ,-0.018266976238396685,-0.012380553367054244,0.0020094023250161676,-0.005167748117053059,-0.005527554499243085,0.005969190634341511, ,0.26552295684814453
0.011350182305302351,0.019363638447578102,-0.0806300371982407, ,0.011365944873093566,0.019437007283481415,-0.0808142457077197, ,0.0001989075654409648, ,-0.0009629833670889273,0.0014051023798266162,-0.0020878711759337227,-0.01114326478538476,0.00036556052581027034,-0.01236796218652373, ,0.002694597504337005, ,0.011149259371615301, ,1.987421490018471e-05, ,0.15716533672334299,-0.2304849626312305,0.09029696882,-4.535174097683293,0.1580884302286146,-1.3957477741568798, ,-0.017342277331591882,-0.012244766652705907,0.0022123349333333336,0.009346751692524405,-0.018015306547990523,0.01586709357756119, ,0.29941701889038086
0.011319908726084795,0.019415767153702062,-0.08071837004858837, ,0.011328362393115226,0.01949596888217384,-0.0808948582338673, ,0.0001940408752793425, ,-0.0004342002593836671,0.0016753921310776894,-0.0034030505718154495,-0.0459442636425854,-0.03177077425336743,-0.019430043974133546, ,0.003817881854177699, ,0.05585926474508444, ,2.0042803135492267e-05, ,0.1565397953605308,-0.23087882200781595,0.09038900541000001,-4.535174097683293,0.15726861123002195,-1.3949975879945606, ,-0.018462439991920387,-0.011425275904207015,0.0035303217021276597,0.008111163075323767,-0.06139268431811809,0.05041615232799037, ,0.33284497261047363
0.011285733103474931,0.01946148493440444,-0.0807890173403004, ,0.011292310523084383,0.019554291083265323,-0.08097543218674748, ,0.00020834283930817895, ,-0.0012295848886235373,0.0013760042858331136,-0.00160925347461477,-0.00293584817771427,0.007158588558332428,-0.008378085168539115, ,0.002448461463556689, ,0.007737221378459042, ,2.032520324749983e-05, ,0.15597603586071243,-0.23123406772003027,0.09046289394000001,-4.535174097683293,0.15713197473025653,-1.3948044913507238, ,-0.019799069801475232,-0.012276447808340333,0.001683030817727727,0.006891277372577746,-0.016780457632061534,0.013906395506366187, ,0.3657858371734619
0.011237437444868366,0.019521707666586844,-0.08087011422602802, ,0.011257779703475024,0.01961197708122526,-0.08105596775057707, ,0.00020761480508789298, ,-0.0009375519105532363,0.0014357961163291278,-0.0024636433403172767,-0.026364855918644105,-0.01423397575341139,0.0008410934548006672, ,0.0030016749625729794, ,0.02996183728126177, ,2.055379561657756e-05, ,0.1551188125116735,-0.23175149082260332,0.09054715279000002,-4.535174097683293,0.15603888273213298,-1.3938314693810119, ,-0.02014369381415215,-0.011161469056919724,0.0025336108668681406,-0.007824187663829713,-0.038362486104705426,0.03117806668293489, ,0.40102601051330566
0.011212987416388553,0.019559106494907705,-0.08093461604639163, ,0.011224760404325946,0.019669030063573446,-0.08113646510707428, ,0.00023014090790569357, ,-0.0011504251309791848,0.001689904063175137,-0.0028778706728697185,0.021091327443102364,0.02558417414011181,0.010749473281650851, ,0.003530069876714612, ,0.03315711174916061, ,2.093975072218863e-05, ,0.15468633947071692,-0.23202178647320118,0.09061455987000001,-4.535174097683293,0.15590224623236756,-1.3937200514773154, ,-0.0181725280655823,-0.012123269503387601,0.0030259900303951375,-0.006827574628113661,0.01059713080474304,-0.008745643295335451, ,0.4363260269165039
0.011165594644165645,0.019623213893574333,-0.08102557755451173, ,0.011193243125200663,0.019725453210885733,-0.08121692443546552, ,0.0002187028700282397, ,-0.0010789112853971062,0.0014098399045230216,-0.0018959813981591343,0.0037105850605017214,0.010976632608414055,-0.00506026544404289, ,0.002597391687887713, ,0.011586841885812419, ,2.1179791305748488e-05, ,0.15391406618329448,-0.23254693230864842,0.09071048533,-4.535593477570262,0.15562897323283667,-1.3934972156699224, ,-0.017596317737524715,-0.011653520710822346,0.002000855611104133,0.0050340310268074525,-0.009145715384394681,0.007356266920175422, ,0.47148895263671875
0.011135879074987415,0.019668853441386244,-0.0810941303160208, ,0.01116321839515608,0.019781249696800736,-0.08129734591249155, ,0.00023383099731953647, ,-0.0007279684920422525,0.0014188215611208514,-0.0025000699948266535,-0.006837123213567271,0.0007635166123249298,-0.007388216611324454, ,0.0029653570993626085, ,0.006879622908061652, ,2.1499886680324783e-05, ,0.15341208854646987,-0.23290217802086277,0.09078307757000001,-4.535593477570262,0.15549233673307122,-1.3933857977662258, ,-0.015495908157816913,-0.010140541113202289,0.0026203012863957897,0.0050340310268074525,-0.018703136273347534,0.015153117339790563, ,0.505889892578125
0.01111146433931602,0.019730294926405427,-0.08119934594585679, ,0.011134676772695801,0.019836422688025126,-0.08137772971241483, ,0.00020886044867627035, ,-0.0006592019574798225,0.0014288348355212704,-0.002265808180777797,-0.019041294343374957,-0.008854394083154048,-0.009727524906306994, ,0.002758623374080615, ,0.0209993139123905, ,2.175765839524557e-05, ,0.15283288358090305,-0.23335009652756777,0.09089455851000001,-4.535593477570262,0.1546725177344786,-1.392472254123626, ,-0.01545049520652406,-0.011052180894398059,0.0023924318894562938,0.0050340310268074525,-0.030320331299852923,0.02675118867352621, ,0.5435209274291992
0.0110845339958602,0.019771548113343328,-0.08126161910895933, ,0.01110760884573129,0.019890975344339083,-0.08145807600702491, ,0.0002310641144735282, ,-0.0008208918706532896,0.001361877843076031,-0.0020825977473075213,-0.0003017344415777391,0.0077464816628477285,-0.004757414141155195, ,0.0026202648911620445, ,0.0077523558862383065, ,2.213516069532215e-05, ,0.15239268780707224,-0.233666728575411,0.0909606693,-4.535593477570262,0.1546725177344786,-1.392472254123626, ,-0.014827647118511058,-0.010454081707486984,0.0022052902561262634,0.00443296900199966,-0.009860833393745853,0.010014018371524486, ,0.5768609046936035
0.011063704534843356,0.019812010641994032,-0.08132411768827028, ,0.0110820052315516,0.019944910818603556,-0.08153838496564597, ,0.00025279999722476896, ,-0.0005264677335294155,0.0012736735748279649,-0.0020599326894824065,-0.0236885242428005,-0.015044195585529843,-0.0011114917491229202, ,0.002478454222869744, ,0.028061967172319405, ,2.261137900766298e-05, ,0.15195249203324146,-0.2339833606232542,0.09102678009000001,-4.535593477570262,0.1539893352356514,-1.391915164605144, ,-0.013668002528945813,-0.009942659704645694,0.002173394940646746,-0.0047004911515116455,-0.03282325703533941,0.028530696294628483, ,0.6078460216522217
0.011038925886998776,0.01985869970571862,-0.08140643571313061, ,0.011057856576771947,0.01999823225676443,-0.08161865675514288, ,0.00025468701280083436, ,-0.0008750946706270087,0.0017420325935961793,-0.003188807921002031,0.011064716797251947,0.014486759707046302,0.00925649672151749, ,0.003737507752066411, ,0.01822893755223744, ,2.3053271107899687e-05, ,0.151489128060788,-0.23431543813684585,0.09111363152000002,-4.536012857457231,0.15385269873588595,-1.3918037467014472, ,-0.016367185505082923,-0.011817761282767542,0.0033669016106531394,-0.007794295407917273,0.0,-0.0005315937481463063, ,0.6383039951324463
0.011020849184905401,0.019909929085735134,-0.08150122769319981, ,0.011035153557303515,0.020050942797859548,-0.08169889153992783, ,0.0002432292712239418, ,-0.0010822893337965704,0.0016353467516274948,-0.0028221892003752773,0.015503666139801484,0.022965367071260526,0.011190723950220466, ,0.003436635139613059, ,0.027708694453422597, ,2.338928883567537e-05, ,0.1509948731568376,-0.23467068384906017,0.09121344585,-4.536012857457231,0.15289624323752785,-1.3908604638952915, ,-0.017241450137803555,-0.011481783612640142,0.0029729024860022397,-0.007794295407917273,0.008449512170311719,-0.004158537141171126, ,0.6683390140533447
0.010990815863825148,0.019961908117656923,-0.08158273574156039, ,0.011013886878313162,0.020103045574024387,-0.08177908948196677, ,0.0002429132451534131, ,-0.0009988305224748217,0.0016903773671056955,-0.0026391752160720592,0.005736350431362879,0.015237778797383252,0.00948660133193854, ,0.003289419990967938, ,0.016281757239970784, ,2.3694201045883077e-05, ,0.1504851727871388,-0.2350568204927714,0.09130029728000001,-4.536012857457231,0.15289624323752785,-1.390942142635432, ,-0.016843617600012562,-0.012719064677452187,0.0028103054904728302,-0.007794295407917273,-0.0005710868146074578,0.005678404570925097, ,0.6989319324493408
0.010956043563366071,0.020033105627572063,-0.08169430607825921, ,0.010994047274180923,0.02015454371049757,-0.08185925074078612, ,0.00020832242250040493, ,-0.0007015990783960178,0.0013493153125409955,-0.0020881607287315763,-0.009314613958952783,-0.0033803574693764696,0.004982115328660772, ,0.002583274725707766, ,0.009909028700401704, ,2.379246708846601e-05, ,0.1498210177599555,-0.2355896890610929,0.09141955596000001,-4.536012857457231,0.15248633373823153,-1.3904445314440617, ,-0.014184894104405198,-0.01049504476989286,0.002216336652288855,-0.007794295407917273,-0.018690563076890522,0.016116274753299752, ,0.7332029342651367
0.010936623095420327,0.02007145889012439,-0.08174185402687131, ,0.010975625508464457,0.02020544032562706,-0.0819393754734793, ,0.00024184072269312976, ,-0.0007066547240298367,0.0014238242087702196,-0.0019459581471813763,0.0018778561287487643,0.004343221002718506,0.006392031561550647, ,0.0025126458936856584, ,0.00473179799767809, ,2.4051266013015767e-05, ,0.14945804931486695,-0.23591404384181033,0.09147140756000001,-4.536012857457231,0.1520764242389352,-1.3901102777329721, ,-0.012858664167814468,-0.011516393844066011,0.002109776360264901,-0.006735042976338781,-0.00828886838405051,0.007453592610055803, ,0.7654898166656494
0.010918136972528136,0.020118322386332033,-0.08181256411254573, ,0.010958612373859289,0.02025573853087606,-0.0820194638347131, ,0.0002516524387467784, ,-0.0003802405687099832,0.0016833680283722856,-0.002544372695788798,-0.009923497093586616,-0.006520576455863077,0.0032406864326102675, ,0.0030744338054533625, ,0.011874077302112445, ,2.4455603763771436e-05, ,0.14907963540402994,-0.23626928955402465,0.09154788867000001,-4.536012857457231,0.15180315123940433,-1.3898874419255796, ,-0.01124667876278527,-0.012907636229389386,0.0027760215266643433,-0.00579256698383795,-0.019829694705890775,0.01927765072992751, ,0.7934598922729492
0.010907091468600211,0.020171647781268513,-0.08191332278860629, ,0.010942998692161802,0.020305441430828942,-0.08209951597673464, ,0.00023207320541587597, ,-0.00025297808001377024,0.0016822382993089552,-0.00333879614551079,-0.007812910858032809,-0.0021901005654161626,-0.0068574034326665985, ,0.003747196726341846, ,0.00811406902529781, ,2.474144404109292e-05, ,0.14870894422606715,-0.23662453526623897,0.09165548074,-4.5364322373442,0.1512566052403426,-1.3894417703107937, ,-0.01086810516551909,-0.01042931580935029,0.003561102508383636,0.004909362073198481,-0.01715246637829461,0.016612724474914735, ,0.8203239440917969
0.010900703676444091,0.020204695405818218,-0.08197502322063203, ,0.010928775314222199,0.020354552123196264,-0.0821795320493769, ,0.0002550860906154383, ,-0.0004078361539936728,0.0015295074252500936,-0.0028145297978431705,-0.012260910482737255,-0.004892065679596565,-0.007551851716732944, ,0.0032291332080523778, ,0.013200842105811555, ,2.511369850621923e-05, ,0.14849270770558887,-0.23684077178671725,0.09172159153000001,-4.5364322373442,0.15098333224081167,-1.389218934503401, ,-0.012266926261436243,-0.01024791815755063,0.0029947004173716866,0.004516585844267238,-0.02218534257446436,0.020491126266153615, ,0.8466858863830566
0.01088418352792137,0.02025394654493852,-0.08205946437042526, ,0.010915933119918658,0.020403073698822452,-0.08225951220006689, ,0.0002515274910657721, ,-0.0005521441766253652,0.0016574787445828869,-0.0027849238255165014,0.011541633655891127,0.012563096080599426,-0.0021528203565037143, ,0.003287537025564097, ,0.0170599147245715, ,2.5447317896185032e-05, ,0.14812973926050033,-0.23718057203318313,0.09181233183000001,-4.5364322373442,0.15084669574104626,-1.389025837859564, ,-0.01157572188416455,-0.011430318282257365,0.0030054361358490566,0.004008778456465945,0.0,0.00034192702621916465, ,0.8771049976348877
0.010871765837494411,0.020301814707903845,-0.08214285872619043, ,0.010904463018102762,0.020451009241689,-0.08233945657383067, ,0.00024895547438825565, ,-0.00046427935780706924,0.0016265157043215388,-0.0025829773611707693,-0.011211358098486486,-0.007635950504580963,-0.007260519560389446, ,0.003087536349067173, ,0.013564744391470629, ,2.574998562744555e-05, ,0.147774493548286,-0.23751264954677478,0.09190177584,-4.5364322373442,0.1503001497419845,-1.3884984875046378, ,-0.01282737788030154,-0.01203359644413781,0.002784757258741259,0.0036058066537831184,-0.02509771659751112,0.02033821343097017, ,0.9043068885803223
0.01085155185753119,0.020351209877532077,-0.08222502265353195, ,0.010894355946579719,0.02049836182892398,-0.08241936531330069, ,0.00024749738633712473, ,-0.0006879110657840018,0.0016401395170656025,-0.002733396160727044,0.011795552885133799,0.01381728784273188,-0.0014772089880883874, ,0.003261093963893959, ,0.018167347385964445, ,2.6029020842984993e-05, ,0.14737291143882633,-0.2378601725261149,0.09198992356,-4.5364322373442,0.15016351324221905,-1.3883053908608005, ,-0.01305502016212282,-0.011385395292800417,0.0029356453225211944,0.0032729510331883068,0.0,-6.715249114079997e-05, ,0.9327819347381592
0.010846542300132456,0.020372996780248804,-0.08226253816750587, ,0.01088560287204914,0.020545134530803984,-0.08249923855872207, ,0.000295269721858778, ,-0.0005004273731257562,0.0015907392603851942,-0.0027060714969153266,-0.002383132491746718,0.004207831484414271,-0.0035826591146126186, ,0.003178632079483553, ,0.004835821143232788, ,2.6484934455718394e-05, ,0.14720301131559338,-0.2380146271835994,0.09203010855,-4.5364322373442,0.1497536037429227,-1.3879711371497114, ,-0.011882912792195189,-0.011011458448250785,0.002908840672023375,0.0031418049506279967,-0.01051726272876168,0.012380844475044752, ,0.959406852722168
0.010830856577860166,0.020428349025773555,-0.0823627921587083, ,0.010878194790079164,0.020591330410762623,-0.08257907644795952, ,0.0002749231382876857, ,-0.00024137336992891201,0.0016477485181824215,-0.0029515343939255346,-0.009631863970836249,-0.0040249977830469855,-0.0049623829610194155, ,0.0033889366416928746, ,0.010439033024290665, ,2.6941680642936407e-05, ,0.14682459740475637,-0.23837759562868793,0.09213770062000001,-4.5364322373442,0.1496169672431573,-1.3875330042854528, ,-0.009996133645042236,-0.011005194707601147,0.003183215731414869,0.002863892467326713,-0.017949385152045624,0.018609398020992606, ,0.9844298362731934
0.010824366011739743,0.020463636106143882,-0.08242910494337885, ,0.010872122725063963,0.02063695252539559,-0.0826588791165033, ,0.00029174553207339716, ,-0.0002137530319801769,0.0018442510927093479,-0.0035526512168479285,0.01937846483893979,0.008382075255953556,-0.001305088646592618, ,0.004008526302796504, ,0.02111359951653352, ,2.744204775145863e-05, ,0.1466160836171523,-0.23860155488204046,0.09220899657,-4.5364322373442,0.14948033074339184,-1.3874215863817563, ,-0.008795439496538424,-0.011241091000388346,0.003834571863264324,0.002723959068679537,0.0,-0.007948787257276699, ,1.0076370239257812
0.010822730497108059,0.020494242016613512,-0.08248550996227821, ,0.010867377730183645,0.02068200392446636,-0.08273864669747596, ,0.00031831763408335216, ,-0.00028034954298633335,0.0017951251475010013,-0.0033953224956884374,0.005985115013707551,0.0030371646228683972,-0.002932195458290905, ,0.0038508810694659343, ,0.0067116294759524235, ,2.8019737028054873e-05, ,0.1464539062267936,-0.2388023459367703,0.0922699222,-4.5364322373442,0.14907042124409553,-1.3870056539305264, ,-0.01023322327818375,-0.011281150086043815,0.0036525593946342585,0.0026135029688878694,-0.00877606266556063,0.004366874552479702, ,1.030993938446045
0.0108176690712888,0.020555984744660083,-0.08260158930525302, ,0.01086395088737223,0.020726487650913405,-0.08281837932163941, ,0.0002796625801669207, ,0.00012843219419596366,0.0020348692813696614,-0.004286328931453747,0.00446224372243066,-0.007920257067828462,-0.0050065935153065545, ,0.004746557018448771, ,0.009090769473042165, ,2.8429825844226163e-05, ,0.14617588784332153,-0.2391884825804815,0.09239566233,-4.5364322373442,0.14893378474433008,-1.3867308785465489, ,-0.007868692890279883,-0.011540776940211557,0.004609031111111112,0.0024256364771238557,-0.017784664162592525,0.004870457005279717, ,1.0547518730163574
0.010816939394177646,0.020614195358400925,-0.082720657834366, ,0.01086183330726239,0.02077040674085295,-0.08289807711740056, ,0.0002406139260976654, ,-0.0002684581732811384,0.0018043447452512544,-0.003352658229766732,0.015112474516910626,0.008502546680942124,0.0014812984733875555, ,0.0038168110977804307, ,0.017340132227358657, ,2.8681750200457493e-05, ,0.14594420585709478,-0.23952056009407316,0.09252399504000001,-4.536222547400715,0.14879714824456466,-1.386701139382993, ,-0.009029410130298994,-0.01131611513933589,0.003626778579234973,0.0,0.0,-0.003955362513429034, ,1.0782740116119385
0.010816539897329584,0.020647729493924776,-0.0827736265994252, ,0.010861016129168732,0.020813764223589,-0.0829777402108188, ,0.000266848333345773, ,4.5748195050697514e-05,0.0016842160352339174,-0.002409302129906875,-0.016773261396870714,-0.01962024885336965,-0.004550395578602982, ,0.002939968248784884, ,0.025812719013593374, ,2.901540453898928e-05, ,0.1457897511996103,-0.23976768754604835,0.09258232809000001,-4.5364322373442,0.14825060224550288,-1.3860921102879264, ,-0.006961856277942011,-0.012980022097999012,0.0026920418320094644,-0.0005484778337108114,-0.031198747194292775,0.025442663804991387, ,1.1000628471374512
0.010812752470804784,0.02067752457197066,-0.08281920183056463, ,0.010861490521025474,0.02085656312161485,-0.08305736872561172, ,0.00030191666018022494, ,-6.112429446506121e-05,0.0017950196679984267,-0.0032174184275081553,-0.014626188696110454,-0.010798411025806653,0.001126511237014046, ,0.003684781285984839, ,0.018180513637180755, ,2.9456177756045452e-05, ,0.1456661874736227,-0.23998392406652663,0.0926328834,-4.536641927287684,0.14825060224550288,-1.3861737890280668, ,-0.008688352933073332,-0.011942731129935914,0.00349392663303356,-0.0043909054874732255,-0.02246875351850397,0.022922621234355067, ,1.122020959854126
0.0108094824607336,0.020728348953066977,-0.08291735447006504, ,0.010863247679369607,0.02089880645062336,-0.08313696278316227, ,0.00028315061078791804, ,9.089827975891144e-05,0.002023296441877105,-0.0043027689454432,-0.006581555903300979,-0.002431745868153812,-0.00354356006150403, ,0.004755608434979279, ,0.007016428193941369, ,2.9815682973111823e-05, ,0.14545767368601864,-0.24029283338149562,0.09273917918,-4.536851617231169,0.14825060224550288,-1.3860104315477857, ,-0.007831746036858999,-0.011196920833949981,0.0046237479013062415,0.0024399636058196126,-0.013595805945760972,0.016274116656493864, ,1.1477069854736328
0.0108180714107006,0.020791539336700554,-0.0830490769541929, ,0.01086627882928332,0.02094049721950872,-0.08321652250252468, ,0.000229238778816386, ,9.392981652994254e-05,0.001908171028345665,-0.0033164238087298008,0.007163666723563923,0.0033202184646296128,-0.0011201436446014032, ,0.003827349783199986, ,0.007895693204397855, ,3.0081996474609586e-05, ,0.1452877735627857,-0.24064807909370994,0.09288177108000001,-4.536851617231169,0.14784069274620656,-1.3855944990965559, ,-0.004949731342739404,-0.012375709645079652,0.0036601129411764715,0.0024399636058196126,-0.0030134475203982274,0.005055420759099251, ,1.1668000221252441
0.010821175394362932,0.020826352782280885,-0.08311167358628589, ,0.01087057522436908,0.020981638430375555,-0.08329604800043164, ,0.0002460648294665557, ,0.0001190981512991514,0.0017327296463148295,-0.003011663924805107,-0.009332997219490909,-0.0072255968562955014,-0.004187054852646812, ,0.003476586830906671, ,0.011803138852905685, ,3.0394594014130853e-05, ,0.14518737803542078,-0.24087203834706244,0.09295047445000001,-4.536851617231169,0.1475674197466757,-1.3852083058088818, ,-0.005555160501251389,-0.011451302227400841,0.003311603226611227,0.0024399636058196126,-0.01659536037290666,0.01888604140325535, ,1.188856840133667
0.010820994429024042,0.02083521328894182,-0.08312833221463349, ,0.010876128146701294,0.021022233078542927,-0.08337553939130073, ,0.00031484522661641705, ,0.00022650193077568167,0.0017148578908778925,-0.003128163443390621,-0.00989005591669229,-0.008294491332723012,-0.004268881417999329, ,0.0035745555302885913, ,0.012907819033608374, ,3.091829901910115e-05, ,0.1451564871039239,-0.24092609747718202,0.09296862251000002,-4.536851617231169,0.1475674197466757,-1.3852083058088818, ,-0.004486115035861843,-0.010888352241598427,0.00343293351724138,0.0024399636058196126,-0.01659536037290666,0.01888604140325535, ,1.208739995956421
0.010824249017542044,0.020886809212652967,-0.08322675925039755, ,0.010882928906794296,0.02106228415255111,-0.0834549967872405, ,0.0002938148348178684, ,0.00026241312160035806,0.0018548524697576817,-0.00401681457643805,-0.007435824313060674,-0.0030109363016167087,-0.0031488122165932286, ,0.004432170763005347, ,0.008022295156711276, ,3.1358879208095976e-05, ,0.14502520064506208,-0.241235006792151,0.09307621458000001,-4.536851617231169,0.1475674197466757,-1.3851266270687415, ,-0.005018303280773441,-0.009891662587731649,0.004333191381936888,0.0024399636058196126,-0.011248927873271556,0.016161303020473937, ,1.2311739921569824
0.010831140183670946,0.02092533674253976,-0.08330138772998377, ,0.010890968843555436,0.02110179463416641,-0.08353442029805737, ,0.0002983639285233244, ,0.00031409707561061255,0.0016982535763028963,-0.003298995867290707,-0.002637428587031365,-0.00480416542289463,0.008286321179610987, ,0.003723720708476118, ,0.005480514079123209, ,3.1799905789039414e-05, ,0.1449479733163198,-0.24145896604550351,0.09315788085000001,-4.5364322373442,0.1472941467471448,-1.3847404337810674, ,-0.0027074505507055156,-0.01015822918205949,0.0036160752599318957,-0.008573565467789816,-0.007186513114255934,0.010589479561307538, ,1.2503328323364258
0.010838040042802803,0.020960504532514152,-0.0833711269599273, ,0.010900239324251703,0.021140767498387898,-0.08361381003126177, ,0.00030863985580396435, ,0.00043803610198598676,0.0018973342951773384,-0.003977067270131857,-0.007984432049707713,-0.003656093463638345,0.008215996075310388, ,0.004428184405086719, ,0.008781695370273214, ,3.225892519658164e-05, ,0.1449093596519487,-0.24165975710023335,0.09323436196000001,-4.5364322373442,0.1472941467471448,-1.3844953975606455, ,-0.0023443521905066396,-0.010450740826553093,0.004333191381936888,-0.008035394566601295,-0.006553606915505534,0.016447116840409177, ,1.268707036972046
0.010847290114800597,0.021006829355785975,-0.08347563877140335, ,0.010910731744470974,0.02117920571345326,-0.0836931660920757, ,0.0002847043805366591, ,0.0003879232409940357,0.00217555932237964,-0.004986416988401392,0.006507551838926582,0.0017274076358122913,0.008159569882345358, ,0.005454163289480274, ,0.006732916529543216, ,3.2631764334206265e-05, ,0.14482440959033224,-0.2418914390864601,0.09334713919000001,-4.5364322373442,0.14715751024737936,-1.384057264696387, ,-0.004086724142822733,-0.010681286093617397,0.00537228044519393,-0.007060289931195184,-0.001108916980644322,0.0029470007866254193, ,1.287639856338501
0.010854753840691195,0.021047065835116015,-0.08356288097101483, ,0.010922437528085055,0.02121711224084531,-0.08377248858343816, ,0.00027826644214941246, ,0.00043868673648216397,0.001810489893260065,-0.003955258500085751,-0.009325840409238903,0.0014729252438901862,0.0079087497921478, ,0.004372000630016286, ,0.00944144094641726, ,3.307277742319906e-05, ,0.14476262772733844,-0.24209223014118994,0.09343917578000001,-4.5364322373442,0.14715751024737936,-1.3839755859562466, ,-0.0017418889005021121,-0.009382856869051801,0.004259040513368985,-0.006375690507375825,-0.00112832745698161,0.01786968078342448, ,1.3050248622894287
0.010858186954508348,0.021063860683266718,-0.08359996713670785, ,0.010935348127202947,0.02125449003529614,-0.08385177760601197, ,0.0003251182998201131, ,0.00044084471230186617,0.001988347772034988,-0.004272340804199738,-0.00925655529130371,0.0022017289839597652,0.0078569214607937, ,0.004732944841232684, ,0.00951480031090317, ,3.364158919348613e-05, ,0.14473945952871575,-0.24218490293568062,0.09348195335000001,-4.5364322373442,0.14715751024737936,-1.383893907216106, ,-0.00223641126394601,-0.010476397379547128,0.00464667780630105,-0.006096295505644594,-0.00112100797763011,0.01879690153172474, ,1.3193979263305664
0.010863621961343287,0.021085755261820147,-0.08364628509339922, ,0.010949455022136395,0.02129134204479375,-0.08393103325819043, ,0.00036154495849134857, ,0.0005209573467953356,0.002116267757615098,-0.004533543619130631,-0.00617659660430556,0.0014728167117281405,0.007587539872266506, ,0.005030209093632325, ,0.006349766355038233, ,3.4303334387997516e-05, ,0.1447240140629673,-0.242300743928794,0.09353250866000001,-4.5364322373442,0.14715751024737936,-1.3838122284759655, ,-0.0017396833116608314,-0.011144450381172365,0.004939166362790698,-0.005813476884011089,-0.0011001148523047631,0.016397259633349127, ,1.3345868587493896
0.010878571933464748,0.02113229096242385,-0.08375790435446333, ,0.010964749721360934,0.021327671210588327,-0.08401025563610416, ,0.00033057710423630956, ,0.000925155651090855,0.0025780207027138683,-0.006608497818064084,-0.0006938253562493511,-0.00037878376701871156,0.006784142132700628, ,0.007153624754886463, ,0.0007904797043415224, ,3.486057867239036e-05, ,0.14470856859721887,-0.24250925771639806,0.09365306363,-4.5364322373442,0.14715751024737936,-1.3836488709956842, ,-0.0005387763235667769,-0.010437431097799777,0.007098400855614974,-0.005334289497649256,-0.001042061868083029,0.010230078534338813, ,1.3495299816131592
0.010884380028172283,0.021144134046953533,-0.08378936183215692, ,0.010981223761481303,0.02136348046719845,-0.08408944483362674, ,0.0003841111408519971, ,0.0009211581210356134,0.0026868996496368846,-0.006570287027764924,-0.01215432248637941,0.0022741222536042296,0.007563136866085932, ,0.007157976923571682, ,0.012365240591403447, ,3.555764085518932e-05, ,0.14470084586434465,-0.24272549423687634,0.09378787779000002,-4.5364322373442,0.1470208737476139,-1.3832107381314256, ,0.0,-0.010460389547928692,0.00657129188118812,-0.004944699364416887,0.0,0.019707405024746882, ,1.364588975906372
0.010908185449682334,0.02121066640100126,-0.08395271369482035, ,0.010998868707182523,0.02139877274241557,-0.08416860094238232, ,0.0003003577076270984, ,0.001028236973811378,0.002683362257017232,-0.006839671326223022,-0.008034321254645527,0.000907753364864057,0.006885407256370193, ,0.007418814469135536, ,0.008085438715731133, ,3.600306943041845e-05, ,0.14470856859721887,-0.2428413352299897,0.09386306261,-4.5364322373442,0.1470208737476139,-1.3828023444307225, ,0.0003811546338508495,-0.010861312227335109,0.007360818632162663,-0.004748113667784382,0.0,0.018295534729937567, ,1.3793878555297852
0.010917545980614472,0.02123285503915171,-0.08400787298983198, ,0.011017676151197553,0.021433550957310615,-0.08424772405175135, ,0.00032838001542495333, ,0.0008682821751727904,0.0024313566569285896,-0.005561162270280287,-0.01671701451986512,0.001899792567253873,0.0072472940489011735, ,0.006131226217103945, ,0.016824618299890213, ,3.651662858836631e-05, ,0.1447240140629673,-0.2429340080244804,0.09392269195000001,-4.5364322373442,0.1470208737476139,-1.3827206656905822, ,0.0006874696788286731,-0.01159258997782443,0.006049681549563237,-0.004604244007515833,0.0,0.027814492876472002, ,1.3952250480651855
0.010933353738266628,0.021279351953740203,-0.08410725134847277, ,0.011037637714270535,0.021467818026240735,-0.08432681424887728, ,0.0003075751540176784, ,0.0008157637573553072,0.0020925058778210217,-0.0049891200683686585,-0.009804503855528186,0.0004015784814767602,0.006242995525848717, ,0.005471322546983395, ,0.00981272429240241, ,3.706365971613586e-05, ,0.14473945952871575,-0.24317341274358137,0.09403158031000002,-4.5364322373442,0.1470208737476139,-1.382230593249739, ,0.0010448885380320626,-0.00937637089198041,0.005410601739130436,-0.004286138547455244,0.0,0.018664289558519658, ,1.4062588214874268
0.010933353738266628,0.021279351953740203,-0.08410725134847277, ,0.011058745045112351,0.02150157685685383,-0.08440587161867345, ,0.00039278614177573287, ,0.0008157637573553072,0.0020925058778210217,-0.0049891200683686585,-0.009804503855528186,0.0004015784814767602,0.006242995525848717, ,0.005471322546983395, ,0.00981272429240241, ,3.783515331237511e-05, ,0.14473945952871575,-0.24317341274358137,0.09403158031000002,-4.5364322373442,0.1470208737476139,-1.382230593249739, ,0.0010448885380320626,-0.00937637089198041,0.005410601739130436,-0.004286138547455244,0.0,0.018664289558519658, ,1.417111873626709
0.010953801062167874,0.021333535002836426,-0.08422967988045252, ,0.011080989820361455,0.021534830350094573,-0.08448489624382888, ,0.0003490446807697503, ,0.0011363943573221074,0.002742820002681554,-0.006968804406155824,0.014597206586902904,-0.0019033960962807656,0.0014262418132564903, ,0.007574872180685321, ,0.014720779205063785, ,3.847520554289855e-05, ,0.14477035046021267,-0.243435985661305,0.09416509818,-4.536641927287684,0.1470208737476139,-1.3821489145095982, ,0.0014026431593776399,-0.01097068315468597,0.007513590339622642,0.0,0.0,-0.003777898050370846, ,1.4282238483428955
0.010964902423692337,0.02136241082633462,-0.0843058240182312, ,0.011104363744551867,0.021567581400211446,-0.0845638882048157, ,0.000357968642199775, ,0.0012729266496145251,0.0029833098422560366,-0.00801548028130392,0.009412638968246118,-0.0009937162889812542,0.0016134254399014006, ,0.008646872498780848, ,0.009464946451156845, ,3.912896032880442e-05, ,0.14477035046021267,-0.24354410392154413,0.09424676445,-4.536641927287684,0.1470208737476139,-1.3820672357694577, ,0.001221801139368662,-0.010708298528376303,0.008596228559093363,0.0,7.153762651809678e-05,0.0012052370454541323, ,1.4391319751739502
0.010976693497633439,0.02139157062371817,-0.08438180543465988, ,0.011128858550066015,0.021599832894761105,-0.08464284757989486, ,0.0003669746289740616, ,0.0012100385014933836,0.003103464142942041,-0.007930882056210745,0.009195382623937766,0.00032612099292438925,-4.503624381865539e-05, ,0.008602009826264377, ,0.009201162161701573, ,3.979630724855749e-05, ,0.1447780731930869,-0.24365222218178328,0.09432843072000001,-4.5364322373442,0.1470208737476139,-1.3820672357694574, ,0.0006220241902267194,-0.012240196314619076,0.008536340578778135,0.0020336635062138415,2.9250958167639127e-05,0.0032370002721768877, ,1.4499309062957764
0.010991449216616194,0.021426130156312714,-0.08447355151774234, ,0.011154465997101648,0.02163158771461536,-0.08472177444512312, ,0.0003611120333926992, ,0.0013210795872811033,0.0030946231804492032,-0.008517726062802931,0.019018724430878008,-0.0004866710014338497,-0.00470686235771985, ,0.009158253173278006, ,0.019024948956730264, ,4.0437482611016444e-05, ,0.14479351865883533,-0.24377578590777088,0.09442694876,-4.536222547400715,0.1470208737476139,-1.3819038782891764, ,0.0009004673008902645,-0.010417482427811361,0.009112592402745997,0.006120958279315331,-1.0085623628547805e-05,-0.007931824259059826, ,1.4620349407196045
0.011005950760919278,0.021455920310481963,-0.08455440911399476, ,0.011181177873624864,0.02166284873396552,-0.0848006688743592, ,0.0003662892068397357, ,0.0013971228366864586,0.002879630690367605,-0.007633410745608016,0.010771429155271248,-0.002585750861229927,-0.0014200977902008702, ,0.008277269159865574, ,0.011077444093556764, ,4.108215829261299e-05, ,0.14482440959033224,-0.24387618143513579,0.09451380019000001,-4.536012857457231,0.1470208737476139,-1.3817405208088953, ,0.003281479533408547,-0.010452103514218191,0.008219200990712074,0.0030389385971006286,-3.866221494333033e-05,-8.613767616891255e-06, ,1.473099946975708
0.011019313259347645,0.021483794337671374,-0.08462393952865979, ,0.011208985995350128,0.021693618820332,-0.08487953093927113, ,0.00038122044735921525, ,0.0011989567923536022,0.0027558175104832735,-0.006637898545606935,-0.01626373435787268,0.0023999738415958335,0.00013724793905272692, ,0.007286544080892377, ,0.01643985756680259, ,4.175571957846514e-05, ,0.1448475777889549,-0.24399202242824916,0.09458898501000002,-4.536012857457231,0.1468842372478485,-1.3815474241650585, ,0.0027281942364097284,-0.011836709654188652,0.007207607022624436,0.0030389385971006286,0.0005924811006837229,0.0287654637100015, ,1.4852850437164307
0.011033905567879095,0.021510877641147296,-0.0846919913985155, ,0.011237882205669056,0.0217239008345638,-0.08495836070934124, ,0.00039741409065008793, ,0.0013586807058168482,0.002487390701481588,-0.006435966750515685,0.0127122541045299,-0.004009663968948792,-0.0015361616910113888, ,0.007032410239449876, ,0.013329621094370388, ,4.257105114078503e-05, ,0.14490163691907448,-0.24410014068848832,0.09466287354000001,-4.536012857457231,0.1468842372478485,-1.3813023879446367, ,0.0049139088987467045,-0.009353149550668936,0.006967984041994751,0.0030389385971006286,0.0005924811006837229,-0.0029778618819557134, ,1.4927558898925781
0.011049049651828,0.021538916493456878,-0.08476377103198568, ,0.01126785837564791,0.021753697630851603,-0.08503715825187423, ,0.0004107904168778297, ,0.0014753419816715815,0.0025672349459839932,-0.006384525492987205,-0.010534485078627627,-0.0021811629178075382,-0.00038374351428833097, ,0.007037719446054068, ,0.01075791973095226, ,4.3412519653953654e-05, ,0.14493252785057137,-0.24416192255148209,0.09470824369000001,-4.536012857457231,0.1468842372478485,-1.3811390304643556, ,0.0050774108531943946,-0.009421253667343008,0.006977140394218134,0.0030389385971006286,0.0005966996552443991,0.00929612223180823, ,1.500438928604126
0.011063710637096836,0.02156362067633365,-0.08482685392535033, ,0.011298906403958829,0.02178301205672747,-0.0851159236320028, ,0.00043244759433374924, ,0.0018266855201854678,0.002675046396686321,-0.007001810964060004,0.02520397333286077,-0.009449202612420118,-0.0018040832545676878, ,0.007714791636234294, ,0.026917051936372456, ,4.430100951263191e-05, ,0.1450329233779363,-0.24430093174321815,0.09480935431000001,-4.536012857457231,0.1470208737476139,-1.3811687696279116, ,0.009429478880991752,-0.009668193794753725,0.007617796040172167,0.0030389385971006286,0.0013224058709538518,-0.015174963911815172, ,1.5083258152008057
0.011063710637096836,0.02156362067633365,-0.08482685392535033, ,0.011331018216858554,0.02181184695307481,-0.08519465691269408, ,0.0005180238065589563, ,0.0018266855201854678,0.002675046396686321,-0.007001810964060004,0.02520397333286077,-0.009449202612420118,-0.0018040832545676878, ,0.007714791636234294, ,0.026917051936372456, ,4.5399274953894556e-05, ,0.1450329233779363,-0.24430093174321815,0.09480935431000001,-4.536012857457231,0.1470208737476139,-1.3811687696279116, ,0.009429478880991752,-0.009668193794753725,0.007617796040172167,0.0030389385971006286,0.0013224058709538518,-0.015174963911815172, ,1.5163519382476807
0.011069507559631752,0.021571907506353422,-0.08484825532710018, ,0.011364185768142665,0.021840205154132195,-0.08527335815475673, ,0.0005826931340391945, ,0.0020000233706002285,0.002865473050115254,-0.007516622184735311,0.013118310465866345,-0.008872553768393158,-0.0011812201590862912, ,0.008289188039364227, ,0.015837053256754583, ,4.665091511707879e-05, ,0.1450638143094332,-0.24433182267471504,0.09483268753000001,-4.536012857457231,0.1470208737476139,-1.3810054121476303, ,0.010559331519759105,-0.010295728574336091,0.008181207765793529,0.0030389385971006286,0.0013224058709538518,-0.0023432381705442377, ,1.5236928462982178
0.01112144783284341,0.021642379957697466,-0.08504732831822126, ,0.011398401039108861,0.0218680894875004,-0.08535202741684732, ,0.0004695630000416421, ,0.003153535612791765,0.003964569771697398,-0.011766624234671397,0.005075056500409287,-0.011116501324859175,-0.010873369996483528, ,0.012810778517161201, ,0.012220170810153414, ,4.760347504064205e-05, ,0.14532638722715682,-0.2445403364623191,0.09504787167,-4.535593477570262,0.1470208737476139,-1.3810054121476303, ,0.016613610216819116,-0.010205083527227717,0.012682174777070065,0.013534299420435299,0.0013224058709538518,0.007178916054540943, ,1.5316038131713867
0.01112144783284341,0.021642379957697466,-0.08504732831822126, ,0.011433656038514673,0.021895502774146886,-0.08543066475547612, ,0.0005554205145860223, ,0.003153535612791765,0.003964569771697398,-0.011766624234671397,0.005075056500409287,-0.011116501324859175,-0.010873369996483528, ,0.012810778517161201, ,0.012220170810153414, ,4.876270316282023e-05, ,0.14532638722715682,-0.2445403364623191,0.09504787167,-4.535593477570262,0.1470208737476139,-1.3810054121476303, ,0.016613610216819116,-0.010205083527227717,0.012682174777070065,0.013534299420435299,0.0013224058709538518,0.007178916054540943, ,1.5389049053192139
0.011153404930850128,0.02168230518907632,-0.08516915060189294, ,0.011469942802540559,0.02192244782841252,-0.08550927022501427, ,0.0005230163185540781, ,0.0032812688915888817,0.004070564985133334,-0.01252463774183208,-0.004380875655034573,-0.010570209498094018,-0.008987835527873647, ,0.013572132308566222, ,0.01144207551728594, ,4.982909642655065e-05, ,0.14548856461751553,-0.24463300925680978,0.09517879696,-4.5353837876267775,0.1470208737476139,-1.3808420546673492, ,0.0167632823809346,-0.009262100102926319,0.01345338810810811,0.011788343208937938,0.0013224058709538518,0.015540431077712514, ,1.546205997467041
0.011187169617708421,0.0217230481378297,-0.08529305012372342, ,0.011507253394754393,0.021948927458018182,-0.08558784387770035, ,0.0004902840493026887, ,0.003900069542069283,0.00436358335253099,-0.013616051176816038,-0.008248106682139647,-0.015055434209515073,-0.006652449464738445, ,0.014820534799970463, ,0.017166738043850768, ,5.080322574438004e-05, ,0.14568163293937114,-0.2447256820513005,0.09531231483000001,-4.535174097683293,0.14715751024737936,-1.380708436350624, ,0.02207932563017003,-0.009277012439878432,0.01465392044158234,0.009755112365707579,0.002179324738790713,0.019295132992174238, ,1.5534899234771729
0.011187169617708421,0.0217230481378297,-0.08529305012372342, ,0.011545579906065667,0.021974944464068853,-0.08566638576364648, ,0.0005755772702338646, ,0.003900069542069283,0.00436358335253099,-0.013616051176816038,-0.008248106682139647,-0.015055434209515073,-0.006652449464738445, ,0.014820534799970463, ,0.017166738043850768, ,5.197933199436789e-05, ,0.14568163293937114,-0.2447256820513005,0.09531231483000001,-4.535174097683293,0.14715751024737936,-1.380708436350624, ,0.02207932563017003,-0.009277012439878432,0.01465392044158234,0.009755112365707579,0.002179324738790713,0.019295132992174238, ,1.5609619617462158
0.011246511398091835,0.021786976447948442,-0.0854899253869531, ,0.011584914454690901,0.02200050164106078,-0.0857448959308448, ,0.0004744677176180514, ,0.004203903721682692,0.00428626490106024,-0.012935672339954829,-0.01676424543232725,-0.027639124986239612,0.03255584614156931, ,0.014261013014155445, ,0.032325853317787714, ,5.289416916382299e-05, ,0.1459210376584721,-0.24481063211291695,0.09545749931000001,-4.534964407739808,0.14715751024737936,-1.3804634001302025, ,0.024992610365675735,-0.008661670916243296,0.014121286808510639,-0.03359953723847535,0.002179324738790713,0.026864857227970412, ,1.5682480335235596
0.011246511398091835,0.021786976447948442,-0.0854899253869531, ,0.011625249186114777,0.02202560177688715,-0.08582337442517435, ,0.000558186904878905, ,0.004203903721682692,0.00428626490106024,-0.012935672339954829,-0.01676424543232725,-0.027639124986239612,0.03255584614156931, ,0.014261013014155445, ,0.032325853317787714, ,5.413873255228379e-05, ,0.1459210376584721,-0.24481063211291695,0.09545749931000001,-4.534964407739808,0.14715751024737936,-1.3804634001302025, ,0.024992610365675735,-0.008661670916243296,0.014121286808510639,-0.03359953723847535,0.002179324738790713,0.026864857227970412, ,1.5719549655914307
0.011246511398091835,0.021786976447948442,-0.0854899253869531, ,0.01166657627304425,0.02205024765284254,-0.08590182129040706, ,0.0006445342983715701, ,0.004203903721682692,0.00428626490106024,-0.012935672339954829,-0.01676424543232725,-0.027639124986239612,0.03255584614156931, ,0.014261013014155445, ,0.032325853317787714, ,5.558933590810513e-05, ,0.1459210376584721,-0.24481063211291695,0.09545749931000001,-4.534964407739808,0.14715751024737936,-1.3804634001302025, ,0.024992610365675735,-0.008661670916243296,0.014121286808510639,-0.03359953723847535,0.002179324738790713,0.026864857227970412, ,1.5768108367919922
0.011246511398091835,0.021786976447948442,-0.0854899253869531, ,0.011708887915387595,0.022074442043632608,-0.08598023656821505, ,0.0007326892703725715, ,0.004203903721682692,0.00428626490106024,-0.012935672339954829,-0.01676424543232725,-0.027639124986239612,0.03255584614156931, ,0.014261013014155445, ,0.032325853317787714, ,5.724889457100824e-05, ,0.1459210376584721,-0.24481063211291695,0.09545749931000001,-4.534964407739808,0.14715751024737936,-1.3804634001302025, ,0.024992610365675735,-0.008661670916243296,0.014121286808510639,-0.03359953723847535,0.002179324738790713,0.026864857227970412, ,1.5814619064331055
0.011315867340164851,0.02185303684046577,-0.08568862391883061, ,0.011752176340188356,0.02209818771737425,-0.0860586202981758, ,0.0006223839784884072, ,0.00483445755161397,0.004065128913619615,-0.012378008360035605,0.004719687588854343,-0.014448094652972792,0.0012285370104208131, ,0.013896486745354555, ,0.015199427603221861, ,0.00031973243951279685, ,0.1465465790212843,-0.245019145900521,0.09574138682000001,-4.535174097683293,0.14770405624644115,-1.3803373205640042, ,0.036512867086752894,-0.008674393031008044,0.013533399762107054,0.005967098902659389,0.020521666653990772,0.007645312396884582, ,1.5852439403533936
0.011315867340164851,0.02185303684046577,-0.08568862391883061, ,0.011796433801610003,0.022121487435606376,-0.0861369725177802, ,0.0007099481052001732, ,0.00483445755161397,0.004065128913619615,-0.012378008360035605,0.004719687588854343,-0.014448094652972792,0.0012285370104208131, ,0.013896486745354555, ,0.015199427603221861, ,0.00032486685616657816, ,0.1465465790212843,-0.245019145900521,0.09574138682000001,-4.535174097683293,0.14770405624644115,-1.3803373205640042, ,0.036512867086752894,-0.008674393031008044,0.013533399762107054,0.005967098902659389,0.020521666653990772,0.007645312396884582, ,1.5889489650726318
0.011315867340164851,0.02185303684046577,-0.08568862391883061, ,0.01184165258088787,0.022144343953293972,-0.08621529326243785, ,0.0007991811752300852, ,0.00483445755161397,0.004065128913619615,-0.012378008360035605,0.004719687588854343,-0.014448094652972792,0.0012285370104208131, ,0.013896486745354555, ,0.015199427603221861, ,0.0003310267823881822, ,0.1465465790212843,-0.245019145900521,0.09574138682000001,-4.535174097683293,0.14770405624644115,-1.3803373205640042, ,0.036512867086752894,-0.008674393031008044,0.013533399762107054,0.005967098902659389,0.020521666653990772,0.007645312396884582, ,1.5926308631896973
0.01136536864490937,0.02189794191909368,-0.08582384762330736, ,0.01188782498628213,0.02216676001883215,-0.08629358256548356, ,0.0007522464458466305, ,0.005207666862029281,0.004702131403080871,-0.01455731254468184,0.006819263527811843,0.013100584755017118,-0.009734932032083053, ,0.016159987079242003, ,0.014769123949769898, ,0.00033642703448380333, ,0.1469249929321213,-0.24511181869501172,0.09588916388,-4.534754717796323,0.14811396574573746,-1.3802631805743903, ,0.039656055812148254,-0.008811060363755436,0.015865350119521913,0.024906980775296298,0.047219008207831537,0.012156429533605162, ,1.5966119766235352
0.01136536864490937,0.02189794191909368,-0.08582384762330736, ,0.011934943353058251,0.022188738374056046,-0.08637184045818519, ,0.0008421841090040847, ,0.005207666862029281,0.004702131403080871,-0.01455731254468184,0.006819263527811843,0.013100584755017118,-0.009734932032083053, ,0.016159987079242003, ,0.014769123949769898, ,0.0003428290227688702, ,0.1469249929321213,-0.24511181869501172,0.09588916388,-4.534754717796323,0.14811396574573746,-1.3802631805743903, ,0.039656055812148254,-0.008811060363755436,0.015865350119521913,0.024906980775296298,0.047219008207831537,0.012156429533605162, ,1.6004118919372559
0.011433245444534773,0.021955895267522,-0.08600301640699759, ,0.011983000043428392,0.022210281754242927,-0.08645006696974808, ,0.0007528590899274766, ,0.006599258050436164,0.005596208981621912,-0.0174196401915757,-0.0012208478183796825,0.012451271183918047,-0.062043438768095205, ,0.019450234604913942, ,0.012510916014519697, ,0.00034795439860835274, ,0.14745013876756857,-0.24521221422237663,0.09608490367000001,-4.533915958022385,0.14866051174479922,-1.3803004584884733, ,0.049736342535886144,-0.009569574311890061,0.01900812830548926,0.07859808233528422,0.04121847721952575,0.027957522174330666, ,1.6044559478759766
0.011433245444534773,0.021955895267522,-0.08600301640699759, ,0.012031987446522877,0.022231392888119744,-0.08652826212732354, ,0.0008427775451567638, ,0.006599258050436164,0.005596208981621912,-0.0174196401915757,-0.0012208478183796825,0.012451271183918047,-0.062043438768095205, ,0.019450234604913942, ,0.012510916014519697, ,0.00035406332634351835, ,0.14745013876756857,-0.24521221422237663,0.09608490367000001,-4.533915958022385,0.14866051174479922,-1.3803004584884733, ,0.049736342535886144,-0.009569574311890061,0.01900812830548926,0.07859808233528422,0.04121847721952575,0.027957522174330666, ,1.6081569194793701
0.011433245444534773,0.021955895267522,-0.08600301640699759, ,0.012081897978346405,0.022252074497868424,-0.08660642595601344, ,0.0009341174069421659, ,0.006599258050436164,0.005596208981621912,-0.0174196401915757,-0.0012208478183796825,0.012451271183918047,-0.062043438768095205, ,0.019450234604913942, ,0.012510916014519697, ,0.00036113715659472133, ,0.14745013876756857,-0.24521221422237663,0.09608490367000001,-4.533915958022385,0.14866051174479922,-1.3803004584884733, ,0.049736342535886144,-0.009569574311890061,0.01900812830548926,0.07859808233528422,0.04121847721952575,0.027957522174330666, ,1.6118519306182861
0.011433245444534773,0.021955895267522,-0.08600301640699759, ,0.012132724081749396,0.022272329299133295,-0.08668455847887871, ,0.0010265965400416137, ,0.006599258050436164,0.005596208981621912,-0.0174196401915757,-0.0012208478183796825,0.012451271183918047,-0.062043438768095205, ,0.019450234604913942, ,0.012510916014519697, ,0.00036915473952781644, ,0.14745013876756857,-0.24521221422237663,0.09608490367000001,-4.533915958022385,0.14866051174479922,-1.3803004584884733, ,0.049736342535886144,-0.009569574311890061,0.01900812830548926,0.07859808233528422,0.04121847721952575,0.027957522174330666, ,1.6155598163604736
0.011485573104223806,0.02199747284705897,-0.08613885290322991, ,0.012184458226369436,0.022292160001023843,-0.08676265971694372, ,0.0009820467776558328, ,0.007638717190931723,0.0061409389426535935,-0.020026360956811602,0.012246404647158947,0.0037604507428671582,-0.040949734937192325, ,0.02229610424699668, ,0.012810628221404899, ,0.0003764510733150547, ,0.14784399814415403,-0.24527399608537043,0.09623268073,-4.533915958022385,0.14893378474433008,-1.3801149005951634, ,0.05775833326748069,-0.008245418397571029,0.021790439835841315,0.05761470967510625,0.048235223990251985,0.011023140465600725, ,1.6192278861999512
0.011485573104223806,0.02199747284705897,-0.08613885290322991, ,0.012237092908613028,0.02231156930612379,-0.08684072968920444, ,0.0010752067822871116, ,0.007638717190931723,0.0061409389426535935,-0.020026360956811602,0.012246404647158947,0.0037604507428671582,-0.040949734937192325, ,0.02229610424699668, ,0.012810628221404899, ,0.000384671728714726, ,0.14784399814415403,-0.24527399608537043,0.09623268073,-4.533915958022385,0.14893378474433008,-1.3801149005951634, ,0.05775833326748069,-0.008245418397571029,0.021790439835841315,0.05761470967510625,0.048235223990251985,0.011023140465600725, ,1.6230218410491943
0.011609596251236354,0.022096436022784525,-0.08648021911082156, ,0.012290620651602524,0.022330559910494836,-0.08691876841263398, ,0.0008431688554559229, ,0.009341201830670672,0.007162687032631218,-0.02469506715496305,0.004403462385673443,0.0002394117619268066,-0.010830313359863522, ,0.027357055378035178, ,0.0044089244230458464, ,0.0003900030906535771, ,0.14877072608906095,-0.2453666688798611,0.09660212338000002,-4.533915958022385,0.14989024024268818,-1.380241395999914, ,0.07034613903518962,-0.00621191133103038,0.02677111179831933,0.030445651360041723,0.06405255559783393,0.015243822282400428, ,1.6267919540405273
0.011609596251236354,0.022096436022784525,-0.08648021911082156, ,0.012345034005142,0.022349134503683168,-0.08699677590218939, ,0.0009335717063121039, ,0.009341201830670672,0.007162687032631218,-0.02469506715496305,0.004403462385673443,0.0002394117619268066,-0.010830313359863522, ,0.027357055378035178, ,0.0044089244230458464, ,0.0003962510057760889, ,0.14877072608906095,-0.2453666688798611,0.09660212338000002,-4.533915958022385,0.14989024024268818,-1.380241395999914, ,0.07034613903518962,-0.00621191133103038,0.02677111179831933,0.030445651360041723,0.06405255559783393,0.015243822282400428, ,1.6305429935455322
0.011609596251236354,0.022096436022784525,-0.08648021911082156, ,0.01240032554568018,0.022367295768725624,-0.08707475217081799, ,0.001025713107302246, ,0.009341201830670672,0.007162687032631218,-0.02469506715496305,0.004403462385673443,0.0002394117619268066,-0.010830313359863522, ,0.027357055378035178, ,0.0044089244230458464, ,0.0004034039842025225, ,0.14877072608906095,-0.2453666688798611,0.09660212338000002,-4.533915958022385,0.14989024024268818,-1.380241395999914, ,0.07034613903518962,-0.00621191133103038,0.02677111179831933,0.030445651360041723,0.06405255559783393,0.015243822282400428, ,1.6344339847564697
0.011714650283658631,0.022170437158868312,-0.08673922702934507, ,0.012456487876269412,0.022385046382155462,-0.08715269722946413, ,0.0008759781612100652, ,0.010106386108762466,0.006639516697752764,-0.02349055827822917,0.01692272234780274,-0.03545435882419718,0.012567138764512875, ,0.026420229945668637, ,0.03928591272517926, ,0.00040871380641609043, ,0.1495738903079803,-0.2454207280099807,0.09688341831000001,-4.533706268078901,0.15043678624174994,-1.3801969951738562, ,0.07888357569282692,-0.004236408923199558,0.02556791576243981,0.0,0.04637942708358281,-0.00629718889842739, ,1.638150930404663
0.011714650283658631,0.022170437158868312,-0.08673922702934507, ,0.012513513626524156,0.022402389014007415,-0.08723061108707518, ,0.000966148330158501, ,0.010106386108762466,0.006639516697752764,-0.02349055827822917,0.01692272234780274,-0.03545435882419718,0.012567138764512875, ,0.026420229945668637, ,0.03928591272517926, ,0.0004149075233465616, ,0.1495738903079803,-0.2454207280099807,0.09688341831000001,-4.533706268078901,0.15043678624174994,-1.3801969951738562, ,0.07888357569282692,-0.004236408923199558,0.02556791576243981,0.0,0.04637942708358281,-0.00629718889842739, ,1.6419248580932617
0.011714650283658631,0.022170437158868312,-0.08673922702934507, ,0.012571395452584143,0.022419326327824236,-0.0873084937506084, ,0.001058311250454549, ,0.010106386108762466,0.006639516697752764,-0.02349055827822917,0.01692272234780274,-0.03545435882419718,0.012567138764512875, ,0.026420229945668637, ,0.03928591272517926, ,0.00042197789397412197, ,0.1495738903079803,-0.2454207280099807,0.09688341831000001,-4.533706268078901,0.15043678624174994,-1.3801969951738562, ,0.07888357569282692,-0.004236408923199558,0.02556791576243981,0.0,0.04637942708358281,-0.00629718889842739, ,1.6458728313446045
0.011805611426892399,0.022227654519563374,-0.08693843776110771, ,0.012630126037079092,0.022435860980663067,-0.08738634522503752, ,0.0009611427412715578, ,0.011210947361955773,0.00647106378668936,-0.022717450267279265,-0.0035263087348990666,-0.02786984029024557,-0.06715389000328312, ,0.026146559122191437, ,0.028091934794612677, ,0.0004278383814447462, ,0.1502998271981574,-0.2454516189414776,0.09710119503,-4.532867508304963,0.15084669574104626,-1.3801228551842426, ,0.09159936443867836,-0.002890547629881528,0.02492771755868545,0.08308157512614792,0.04214293057614321,0.024628561291273242, ,1.6495659351348877
0.011805611426892399,0.022227654519563374,-0.08693843776110771, ,0.012689698089081264,0.022451995623099623,-0.08746416551335849, ,0.0010527714977537944, ,0.011210947361955773,0.00647106378668936,-0.022717450267279265,-0.0035263087348990666,-0.02786984029024557,-0.06715389000328312, ,0.026146559122191437, ,0.028091934794612677, ,0.0004345580923728006, ,0.1502998271981574,-0.2454516189414776,0.09710119503,-4.532867508304963,0.15084669574104626,-1.3801228551842426, ,0.09159936443867836,-0.002890547629881528,0.02492771755868545,0.08308157512614792,0.04214293057614321,0.024628561291273242, ,1.6532049179077148
0.01195159516682579,0.02230553668894028,-0.08721720474841152, ,0.012750104344073573,0.022467732899235617,-0.08754195461659683, ,0.0008771470764184763, ,0.011210947361955773,0.00647106378668936,-0.022717450267279265,-0.0035263087348990666,-0.02786984029024557,-0.06715389000328312, ,0.026146559122191437, ,0.028091934794612677, ,0.000439266485820095, ,0.151558632656656,-0.24545934167435182,0.09740841576,-4.531819058587541,0.15180315123940433,-1.380412708069274, ,0.11073155374383986,-0.001037684175839896,0.02454362329738059,0.0628300258771706,0.09840034532219583,-0.04981629159347614, ,1.6569478511810303
0.01195159516682579,0.02230553668894028,-0.08721720474841152, ,0.012811337563911687,0.0224830754467048,-0.0876197125338135, ,0.0009657585190743991, ,0.01237457934666866,0.006259371926171525,-0.022129367243716946,0.07346049366588658,-0.008312585353540326,-0.03620372407930293, ,0.026115490528122103, ,0.07392927632505167, ,0.00044480850722277185, ,0.151558632656656,-0.24545934167435182,0.09740841576,-4.531819058587541,0.15180315123940433,-1.380412708069274, ,0.11073155374383986,-0.001037684175839896,0.02454362329738059,0.0628300258771706,0.09840034532219583,-0.04981629159347614, ,1.660836935043335
0.01195159516682579,0.02230553668894028,-0.08721720474841152, ,0.012873390536774401,0.022498025896676682,-0.08769743926211165, ,0.001057063852046076, ,0.01237457934666866,0.006259371926171525,-0.022129367243716946,0.07346049366588658,-0.008312585353540326,-0.03620372407930293, ,0.026115490528122103, ,0.07392927632505167, ,0.0004511861670646813, ,0.151558632656656,-0.24545934167435182,0.09740841576,-4.531819058587541,0.15180315123940433,-1.380412708069274, ,0.11073155374383986,-0.001037684175839896,0.02454362329738059,0.0628300258771706,0.09840034532219583,-0.04981629159347614, ,1.6645448207855225
0.012084223977707082,0.02236720927492216,-0.0874370337385133, ,0.012936256077136266,0.022512586873864517,-0.08777513479664316, ,0.0009281194267121425, ,0.01349922242213716,0.005504866570627634,-0.01985423026931361,0.04346317193135333,-0.05683483177324106,0.029269680962317024, ,0.02463174824387569, ,0.07154888071769687, ,0.00045610300479300564, ,0.15276337898503503,-0.24546706440722604,0.09765341457000001,-4.531609368644055,0.15275960673776243,-1.3807842396944463, ,0.12486439678746157,0.0,0.022309259831932778,-0.01031733350451462,0.07877362953627418,-0.03419683003658101, ,1.6682229042053223
0.012084223977707082,0.02236720927492216,-0.0874370337385133, ,0.012999927025722856,0.022526760996530275,-0.08785279913061438, ,0.0010182483416546527, ,0.01349922242213716,0.005504866570627634,-0.01985423026931361,0.04346317193135333,-0.05683483177324106,0.029269680962317024, ,0.02463174824387569, ,0.07154888071769687, ,0.00046183918169975715, ,0.15276337898503503,-0.24546706440722604,0.09765341457000001,-4.531609368644055,0.15275960673776243,-1.3807842396944463, ,0.12486439678746157,0.0,0.022309259831932778,-0.01031733350451462,0.07877362953627418,-0.03419683003658101, ,1.671893835067749
0.012084223977707082,0.02236720927492216,-0.0874370337385133, ,0.01306439624947266,0.0225405508764906,-0.0879304322552937, ,0.0011109577352597655, ,0.01349922242213716,0.005504866570627634,-0.01985423026931361,0.04346317193135333,-0.05683483177324106,0.029269680962317024, ,0.02463174824387569, ,0.07154888071769687, ,0.0004683959347660199, ,0.15276337898503503,-0.24546706440722604,0.09765341457000001,-4.531609368644055,0.15275960673776243,-1.3807842396944463, ,0.12486439678746157,0.0,0.022309259831932778,-0.01031733350451462,0.07877362953627418,-0.03419683003658101, ,1.6756999492645264
0.012226634169277424,0.022419185113902576,-0.08763391036291805, ,0.013129656641498224,0.02255395911912266,-0.08800803416001733, ,0.0009867027076960987, ,0.014672203663719054,0.005139058909098889,-0.019486365232472835,0.004918706256067469,-0.06877870486799023,0.028257132845646744, ,0.02492793446706256, ,0.06895434072550362, ,0.0004735790024953207, ,0.15408396630652743,-0.24543617347572913,0.09787508016000002,-4.531609368644055,0.15344278923658963,-1.3810146142523663, ,0.1375317993601026,0.003312870109904884,0.022031551203319507,-0.009512589022457087,0.07434869943722401,0.0008820414912943941, ,1.679379940032959
0.012226634169277424,0.022419185113902576,-0.08763391036291805, ,0.013195701121046984,0.02256698832336994,-0.08808560483219599, ,0.0010793351839521767, ,0.014672203663719054,0.005139058909098889,-0.019486365232472835,0.004918706256067469,-0.06877870486799023,0.028257132845646744, ,0.02492793446706256, ,0.06895434072550362, ,0.000479576588450339, ,0.15408396630652743,-0.24543617347572913,0.09787508016000002,-4.531609368644055,0.15344278923658963,-1.3810146142523663, ,0.1375317993601026,0.003312870109904884,0.022031551203319507,-0.009512589022457087,0.07434869943722401,0.0008820414912943941, ,1.6831848621368408
0.012226634169277424,0.022419185113902576,-0.08763391036291805, ,0.01326252263484338,0.022579641081980444,-0.08816314425733608, ,0.0011742655346152636, ,0.014672203663719054,0.005139058909098889,-0.019486365232472835,0.004918706256067469,-0.06877870486799023,0.028257132845646744, ,0.02492793446706256, ,0.06895434072550362, ,0.0004863872643931324, ,0.15552039462113318,-0.2453898370784838,0.09810063462000002,-4.531819058587541,0.1543992447349477,-1.381059430916976, ,0.14599529470533967,0.004541669367546013,0.02256205597733711,0.0,0.10166057378879205,-0.03499757507574655, ,1.6868939399719238
0.012377894971490137,0.022470777257924537,-0.08783317801898857, ,0.013330114151504837,0.022591919980577656,-0.08824065241898404, ,0.0010428002266452325, ,0.015313209268478565,0.005203064510458786,-0.01987924312470489,0.04443751691954127,-0.05370052565061206,0.024748108107104278, ,0.025627145092876422, ,0.06970248389098128, ,0.000491789331987813, ,0.15552039462113318,-0.2453898370784838,0.09810063462000002,-4.531819058587541,0.1543992447349477,-1.381059430916976, ,0.14599529470533967,0.004541669367546013,0.02256205597733711,0.0,0.10166057378879205,-0.03499757507574655, ,1.6907570362091064
0.012377894971490137,0.022470777257924537,-0.08783317801898857, ,0.013398468669850942,0.022603827599077395,-0.0883181292988302, ,0.0011377393422426693, ,0.015313209268478565,0.005203064510458786,-0.01987924312470489,0.04443751691954127,-0.05370052565061206,0.024748108107104278, ,0.025627145092876422, ,0.06970248389098128, ,0.0004980003897787251, ,0.15552039462113318,-0.2453898370784838,0.09810063462000002,-4.531819058587541,0.1543992447349477,-1.381059430916976, ,0.14599529470533967,0.004541669367546013,0.02256205597733711,0.0,0.10166057378879205,-0.03499757507574655, ,1.6943769454956055
0.012377894971490137,0.022470777257924537,-0.08783317801898857, ,0.013467579213278453,0.02261536651074703,-0.08839557487664737, ,0.0012347501870168041, ,0.015313209268478565,0.005203064510458786,-0.01987924312470489,0.04443751691954127,-0.05370052565061206,0.024748108107104278, ,0.025627145092876422, ,0.06970248389098128, ,0.0005050170545143259, ,0.15704949573022964,-0.24532033248261578,0.09832748537000001,-4.530980298813603,0.15535570023330578,-1.3811859263217263, ,0.16002856923856792,0.007871680636637955,0.022498321355932206,0.07701067254716741,0.08588342293881815,-0.006968971302033205, ,1.6980018615722656
0.012538397322912292,0.022522007201770094,-0.08803239525481313, ,0.013537438831123658,0.022626539282449468,-0.08847298913031539, ,0.0010968745845129691, ,0.016770512400583266,0.004973533750725192,-0.01966555002964768,0.022904238688744437,-0.06032317274088536,-0.0526012599114572, ,0.02631957412490361, ,0.06452508332576953, ,0.0005106006161180866, ,0.15704949573022964,-0.24532033248261578,0.09832748537000001,-4.530980298813603,0.15535570023330578,-1.3811859263217263, ,0.16002856923856792,0.007871680636637955,0.022498321355932206,0.07701067254716741,0.08588342293881815,-0.006968971302033205, ,1.7021369934082031
0.012538397322912292,0.022522007201770094,-0.08803239525481313, ,0.01360804059862352,0.022637348474649183,-0.08855037203582708, ,0.001194043672640658, ,0.016770512400583266,0.004973533750725192,-0.01966555002964768,0.022904238688744437,-0.06032317274088536,-0.0526012599114572, ,0.02631957412490361, ,0.06452508332576953, ,0.0005169879344033443, ,0.15704949573022964,-0.24532033248261578,0.09832748537000001,-4.530980298813603,0.15535570023330578,-1.3811859263217263, ,0.16002856923856792,0.007871680636637955,0.022498321355932206,0.07701067254716741,0.08588342293881815,-0.006968971302033205, ,1.7058119773864746
0.012710565237833716,0.022569095845970367,-0.08822286609589472, ,0.01367937761687659,0.022647796641417917,-0.08862772356729547, ,0.0010529486279680477, ,0.01769304453556834,0.004564110394254163,-0.01925768355696585,0.021413839784141214,-0.07677147758732512,-0.03706446990603423, ,0.026546813454890898, ,0.0797020053487898, ,0.0005219505334178323, ,0.15870216056531367,-0.24522765968812507,0.09854655838000001,-4.530141539039664,0.15617551923189843,-1.3812010038227804, ,0.17006620350980425,0.011211837903595494,0.022154118942976357,0.059639272362541046,0.08426095775924299,-0.0115571208488226, ,1.7094860076904297
0.012710565237833716,0.022569095845970367,-0.08822286609589472, ,0.013751443012803928,0.02265788633044042,-0.08870504369695875, ,0.0011505674823873789, ,0.01769304453556834,0.004564110394254163,-0.01925768355696585,0.021413839784141214,-0.07677147758732512,-0.03706446990603423, ,0.026546813454890898, ,0.0797020053487898, ,0.00052771766139003, ,0.15870216056531367,-0.24522765968812507,0.09854655838000001,-4.530141539039664,0.15617551923189843,-1.3812010038227804, ,0.17006620350980425,0.011211837903595494,0.022154118942976357,0.059639272362541046,0.08426095775924299,-0.0115571208488226, ,1.7135918140411377
0.012710565237833716,0.022569095845970367,-0.08822286609589472, ,0.013824229939110094,0.022667620083020503,-0.08878233239518869, ,0.0012501834394203948, ,0.01769304453556834,0.004564110394254163,-0.01925768355696585,0.021413839784141214,-0.07677147758732512,-0.03706446990603423, ,0.026546813454890898, ,0.0797020053487898, ,0.000534285532099397, ,0.15870216056531367,-0.24522765968812507,0.09854655838000001,-4.530141539039664,0.15617551923189843,-1.3812010038227804, ,0.17006620350980425,0.011211837903595494,0.022154118942976357,0.059639272362541046,0.08426095775924299,-0.0115571208488226, ,1.7175898551940918
0.01280737027005717,0.022593211872609525,-0.0883262615133214, ,0.013897731574243915,0.02267700043408677,-0.08885958963049556, ,0.001216695186671986, ,0.018654498116600624,0.004533938166419114,-0.01947389930523151,0.04044203244773107,-0.07492359943853527,-0.013493881670642551, ,0.027345559958235715, ,0.08514165220761373, ,0.0005404333668252762, ,0.15964433397596905,-0.24516587782513127,0.09866581706000001,-4.530141539039664,0.1567220652309602,-1.3814016392171444, ,0.18214384176289977,0.012560812913100038,0.02253014359264498,0.04020360517704443,0.10670093617587172,-0.031918208569162075, ,1.722627878189087
0.01280737027005717,0.022593211872609525,-0.0883262615133214, ,0.013971941122359773,0.022686029912198345,-0.08893681536953561, ,0.00131818681143606, ,0.018654498116600624,0.004533938166419114,-0.01947389930523151,0.04044203244773107,-0.07492359943853527,-0.013493881670642551, ,0.027345559958235715, ,0.08514165220761373, ,0.0005473775940093011, ,0.15964433397596905,-0.24516587782513127,0.09866581706000001,-4.530141539039664,0.1567220652309602,-1.3814016392171444, ,0.18214384176289977,0.012560812913100038,0.02253014359264498,0.04020360517704443,0.10670093617587172,-0.031918208569162075, ,1.7262389659881592
0.01296423601965332,0.02263174496357977,-0.0884920444373699, ,0.014046851813278215,0.02269471103955097,-0.0890140095771166, ,0.0012035236974983353, ,0.019450045564140966,0.004742988037475019,-0.020041062566562764,0.03905616095416187,-0.07407123113408609,0.030615784598311054, ,0.028327449528110966, ,0.0837372542970653, ,0.0005531841966950448, ,0.16118888055081396,-0.24505775956489215,0.09885766798000001,-4.5299318490961795,0.1578151572290837,-1.3816395525255913, ,0.1913244789485298,0.011904818530518026,0.02328773614035088,0.0,0.1276225776904128,-0.03316757277476894, ,1.7299699783325195
0.01296423601965332,0.02263174496357977,-0.0884920444373699, ,0.01412245690244707,0.022703046331982748,-0.08909117221620497, ,0.001305953136160528, ,0.019450045564140966,0.004742988037475019,-0.020041062566562764,0.03905616095416187,-0.07407123113408609,0.030615784598311054, ,0.028327449528110966, ,0.0837372542970653, ,0.0005597874330061455, ,0.16118888055081396,-0.24505775956489215,0.09885766798000001,-4.5299318490961795,0.1578151572290837,-1.3816395525255913, ,0.1913244789485298,0.011904818530518026,0.02328773614035088,0.0,0.1276225776904128,-0.03316757277476894, ,1.7338879108428955
0.01296423601965332,0.02263174496357977,-0.0884920444373699, ,0.014198749670902401,0.022711038298979812,-0.08916830324793207, ,0.0014098359362075318, ,0.019450045564140966,0.004742988037475019,-0.020041062566562764,0.03905616095416187,-0.07407123113408609,0.030615784598311054, ,0.028327449528110966, ,0.0837372542970653, ,0.0005671791591209401, ,0.16118888055081396,-0.24505775956489215,0.09885766798000001,-4.5299318490961795,0.1578151572290837,-1.3816395525255913, ,0.1913244789485298,0.011904818530518026,0.02328773614035088,0.0,0.1276225776904128,-0.03316757277476894, ,1.7375459671020508
0.013327153144284969,0.02271265020870986,-0.08884070384083177, ,0.01427572342522935,0.022718689443682376,-0.08924540263160081, ,0.0010313113795066364, ,0.02104393643001412,0.00410227602607941,-0.019049977263292876,-0.02262965750201036,-0.11906313918140976,-0.00499348827728268, ,0.02868061301291513, ,0.12119459559548784, ,0.0005711802989518514, ,0.164664110344215,-0.24483380031153962,0.0992569253,-4.529722159152695,0.15972806822579988,-1.381974222075233, ,0.20277124264630508,0.015906292584390008,0.022340549116409536,0.02527992674187132,0.07957019001468094,0.022544382372157848, ,1.7411928176879883
0.013327153144284969,0.02271265020870986,-0.08884070384083177, ,0.014353371497523174,0.02272600226289055,-0.08932247032469144, ,0.0011337554105027617, ,0.02104393643001412,0.00410227602607941,-0.019049977263292876,-0.02262965750201036,-0.11906313918140976,-0.00499348827728268, ,0.02868061301291513, ,0.12119459559548784, ,0.0005759886332386112, ,0.164664110344215,-0.24483380031153962,0.0992569253,-4.529722159152695,0.15972806822579988,-1.381974222075233, ,0.20277124264630508,0.015906292584390008,0.022340549116409536,0.02527992674187132,0.07957019001468094,0.022544382372157848, ,1.7448630332946777
0.013327153144284969,0.02271265020870986,-0.08884070384083177, ,0.014431687245350145,0.022732979247070163,-0.08939950628286926, ,0.00123801010474211, ,0.02104393643001412,0.00410227602607941,-0.019049977263292876,-0.02262965750201036,-0.11906313918140976,-0.00499348827728268, ,0.02868061301291513, ,0.12119459559548784, ,0.0005815989846920307, ,0.16619321145331145,-0.24469479111980358,0.09942155413,-4.528883399378757,0.16068452372415798,-1.3821823962201238, ,0.20994898574882914,0.01973319641473711,0.022001120883977904,0.1108749902537474,0.1528937841641289,-0.07738897835276498, ,1.7489089965820312
0.01347313780705493,0.022740885637426975,-0.08897241496310283, ,0.014510664051708538,0.022739622880358423,-0.08947651045998933, ,0.0011535053415054832, ,0.02093036052544254,0.0038977818920655502,-0.018573217803007715,0.09644556397610417,-0.04776444048291094,-0.07157407092461102, ,0.02825309036125217, ,0.10762521254377644, ,0.0005864049204635724, ,0.16619321145331145,-0.24469479111980358,0.09942155413,-4.528883399378757,0.16068452372415798,-1.3821823962201238, ,0.20994898574882914,0.01973319641473711,0.022001120883977904,0.1108749902537474,0.1528937841641289,-0.07738897835276498, ,1.7526848316192627
0.01347313780705493,0.022740885637426975,-0.08897241496310283, ,0.014590295324989552,0.0227459356405702,-0.08955348280810509, ,0.0012592482927942196, ,0.02093036052544254,0.0038977818920655502,-0.018573217803007715,0.09644556397610417,-0.04776444048291094,-0.07157407092461102, ,0.02825309036125217, ,0.10762521254377644, ,0.0005920119485663278, ,0.16619321145331145,-0.24469479111980358,0.09942155413,-4.528883399378757,0.16068452372415798,-1.3821823962201238, ,0.20994898574882914,0.01973319641473711,0.022001120883977904,0.1108749902537474,0.1528937841641289,-0.07738897835276498, ,1.7563698291778564
0.013759310529149206,0.022796493759388036,-0.08923699307848454, ,0.0146705744989382,0.02275191999920325,-0.08963042327747298, ,0.0009935673928872112, ,0.02161276795290816,0.00426095092185403,-0.020472350823212988,0.11338096606832622,-0.03489918608075171,0.050489379781211575, ,0.030072987706136086, ,0.11863048958648631, ,0.0005953305886020376, ,0.1690737908153972,-0.24443221820207994,0.09973396002000001,-4.528464019491787,0.1631439807199359,-1.3832077736049726, ,0.21815388864016272,0.02030315394918074,0.024134562909090912,-0.0025994524809684035,0.20781796410546377,-0.10571874349269814, ,1.760056972503662
0.013759310529149206,0.022796493759388036,-0.08923699307848454, ,0.014751495032614387,0.022757578421444727,-0.08970733181655968, ,0.0010987097073284684, ,0.02161276795290816,0.00426095092185403,-0.020472350823212988,0.11338096606832622,-0.03489918608075171,0.050489379781211575, ,0.030072987706136086, ,0.11863048958648631, ,0.0005994566469522542, ,0.1690737908153972,-0.24443221820207994,0.09973396002000001,-4.528464019491787,0.1631439807199359,-1.3832077736049726, ,0.21815388864016272,0.02030315394918074,0.024134562909090912,-0.0025994524809684035,0.20781796410546377,-0.10571874349269814, ,1.765254020690918
0.013759310529149206,0.022796493759388036,-0.08923699307848454, ,0.014833050410353741,0.02276291336617649,-0.08978420837204862, ,0.0012056075451023825, ,0.02161276795290816,0.00426095092185403,-0.020472350823212988,0.11338096606832622,-0.03489918608075171,0.050489379781211575, ,0.030072987706136086, ,0.11863048958648631, ,0.0006043847030347755, ,0.17133655154754499,-0.244192813482979,0.09997506996000001,-4.528673709435273,0.1649202552168866,-1.3835943827311987, ,0.22276277361143376,0.02495974265083398,0.0228533881205165,0.016302126773294706,0.15804054006538318,-0.0018405243771288798, ,1.768946886062622
0.01398596829393648,0.02283506747887036,-0.08944107441798783, ,0.014915234141728574,0.022767927285981256,-0.0898610528888461, ,0.0010219710061241444, ,0.022381583170034896,0.0034837860107483224,-0.019240583601780537,0.0019686377834591123,-0.06829893670949046,0.022033949009305092, ,0.029719893800331472, ,0.06832728337556206, ,0.0006077523345113027, ,0.17133655154754499,-0.244192813482979,0.09997506996000001,-4.528673709435273,0.1649202552168866,-1.3835943827311987, ,0.22276277361143376,0.02495974265083398,0.0228533881205165,0.016302126773294706,0.15804054006538318,-0.0018405243771288798, ,1.7725789546966553
0.01398596829393648,0.02283506747887036,-0.08944107441798783, ,0.014998039761508878,0.02277262262714827,-0.08993786531008846, ,0.0011291541991485822, ,0.022381583170034896,0.0034837860107483224,-0.019240583601780537,0.0019686377834591123,-0.06829893670949046,0.022033949009305092, ,0.029719893800331472, ,0.06832728337556206, ,0.0006119235494284009, ,0.17133655154754499,-0.244192813482979,0.09997506996000001,-4.528673709435273,0.1649202552168866,-1.3835943827311987, ,0.22276277361143376,0.02495974265083398,0.0228533881205165,0.016302126773294706,0.15804054006538318,-0.0018405243771288798, ,1.7763190269470215
0.014187048774491035,0.022865705700641354,-0.0896119289582675, ,0.01508146082962328,0.02277700182967923,-0.09001464557714742, ,0.0009848969368475176, ,0.02254463365929375,0.0031223525947962406,-0.018758255300818615,-0.012139516159630697,-0.060847799444981865,0.01103338290977705, ,0.029493757551195154, ,0.06204691956376213, ,0.0006148836556777589, ,0.17334446209484333,-0.24396113149675225,0.10017858749000001,-4.528254329548303,0.16642325671430647,-1.38343144108947, ,0.2248742690959023,0.02782085651083869,0.022371926292134834,0.029100631408369475,0.16280952948045388,0.012422140973861198, ,1.7815659046173096
0.014187048774491035,0.022865705700641354,-0.0896119289582675, ,0.015165490931119878,0.022781067327294215,-0.09009139362963776, ,0.001092885666116793, ,0.02254463365929375,0.0031223525947962406,-0.018758255300818615,-0.012139516159630697,-0.060847799444981865,0.01103338290977705, ,0.029493757551195154, ,0.06204691956376213, ,0.0006186474510355465, ,0.17334446209484333,-0.24396113149675225,0.10017858749000001,-4.528254329548303,0.16642325671430647,-1.38343144108947, ,0.2248742690959023,0.02782085651083869,0.022371926292134834,0.029100631408369475,0.16280952948045388,0.012422140973861198, ,1.7852439880371094
0.014187048774491035,0.022865705700641354,-0.0896119289582675, ,0.015250123676127292,0.022784821547437235,-0.09016810940542294, ,0.0012025003877448493, ,0.02254463365929375,0.0031223525947962406,-0.018758255300818615,-0.012139516159630697,-0.060847799444981865,0.01103338290977705, ,0.029493757551195154, ,0.06204691956376213, ,0.000623208802103588, ,0.17577712295022407,-0.24362905398316062,0.1004235863,-4.5272058798308805,0.16847280421078806,-1.3836324923223862, ,0.2222410809331868,0.0307109843231297,0.022919153266187053,0.0757481328005611,0.21638281666188422,-0.040377295186046644, ,1.7889518737792969
0.014429661108776413,0.022898724683711957,-0.0898176893580825, ,0.015335352699815598,0.02278826691128253,-0.09024479284062169, ,0.0010074202511197912, ,0.02204026288369895,0.0031128737755150276,-0.019287697055401353,0.05285373274551348,-0.003045767180037972,-0.021634421051604825, ,0.029452986755604003, ,0.05294139300699914, ,0.0006261871854292949, ,0.17577712295022407,-0.24362905398316062,0.1004235863,-4.5272058798308805,0.16847280421078806,-1.3836324923223862, ,0.2222410809331868,0.0307109843231297,0.022919153266187053,0.0757481328005611,0.21638281666188422,-0.040377295186046644, ,1.7925829887390137
0.014429661108776413,0.022898724683711957,-0.0898176893580825, ,0.015421171662357297,0.02279140583373988,-0.0903214438696149, ,0.001117308874622788, ,0.02204026288369895,0.0031128737755150276,-0.019287697055401353,0.05285373274551348,-0.003045767180037972,-0.021634421051604825, ,0.029452986755604003, ,0.05294139300699914, ,0.0006299650445769372, ,0.17577712295022407,-0.24362905398316062,0.1004235863,-4.5272058798308805,0.16847280421078806,-1.3836324923223862, ,0.2222410809331868,0.0307109843231297,0.022919153266187053,0.0757481328005611,0.21638281666188422,-0.040377295186046644, ,1.7962629795074463
0.014579817644643011,0.02291878836325604,-0.08994591773359657, ,0.01550757424888813,0.0227942407234609,-0.09039806242505168, ,0.0010395572390734457, ,0.02193762918763679,0.0026519470272909295,-0.01770540563353758,0.061128339551692085,-0.00192855850148728,0.012225518477644526, ,0.028315610289342433, ,0.06115874013025549, ,0.0006330917025501931, ,0.17729850132644628,-0.24342054019555653,0.10057654852,-4.526996189887396,0.16997580570820792,-1.3839596231215006, ,0.2248742690959023,0.031123955906353157,0.021323710200803217,0.04361156654085215,0.2301877308908325,-0.05266763913637845, ,1.7998650074005127
0.014579817644643011,0.02291878836325604,-0.08994591773359657, ,0.015594554169468174,0.022796773982844663,-0.09047464843785599, ,0.0011507101639718327, ,0.02193762918763679,0.0026519470272909295,-0.01770540563353758,0.061128339551692085,-0.00192855850148728,0.012225518477644526, ,0.028315610289342433, ,0.06115874013025549, ,0.00063701305453066, ,0.17729850132644628,-0.24342054019555653,0.10057654852,-4.526996189887396,0.16997580570820792,-1.3839596231215006, ,0.2248742690959023,0.031123955906353157,0.021323710200803217,0.04361156654085215,0.2301877308908325,-0.05266763913637845, ,1.8035190105438232
0.014579817644643011,0.02291878836325604,-0.08994591773359657, ,0.015682105159042798,0.022799008008043502,-0.09055120183723298, ,0.0012632315480589555, ,0.02193762918763679,0.0026519470272909295,-0.01770540563353758,0.061128339551692085,-0.00192855850148728,0.012225518477644526, ,0.028315610289342433, ,0.06115874013025549, ,0.0006417214642564366, ,0.17729850132644628,-0.24342054019555653,0.10057654852,-4.526996189887396,0.16997580570820792,-1.3839596231215006, ,0.2248742690959023,0.031123955906353157,0.021323710200803217,0.04361156654085215,0.2301877308908325,-0.05266763913637845, ,1.8071868419647217
0.014863926165857463,0.02294568075650211,-0.09017258773278854, ,0.015770220977403455,0.022800945188969045,-0.09062772255067561, ,0.001024434659896571, ,0.022295433691183406,0.001808143822948084,-0.018379062833999014,0.03469153286158144,-0.004483237167310004,0.03629963468866685, ,0.028950746073607588, ,0.034979991004798365, ,0.0006445775328806167, ,0.18020997162002894,-0.24294945349022884,0.10084876942000001,-4.526576810000427,0.1729818087030476,-1.3846138847197296, ,0.22648434739491832,0.04125953980803077,0.021880235604395604,0.017901124800048563,0.2338750952942934,-0.03996239431679771, ,1.8107969760894775
0.014863926165857463,0.02294568075650211,-0.09017258773278854, ,0.015858895409148734,0.022802587909297903,-0.09070421050397114, ,0.0011371288972040405, ,0.022295433691183406,0.001808143822948084,-0.018379062833999014,0.03469153286158144,-0.004483237167310004,0.03629963468866685, ,0.028950746073607588, ,0.034979991004798365, ,0.0006482260615052346, ,0.18020997162002894,-0.24294945349022884,0.10084876942000001,-4.526576810000427,0.1729818087030476,-1.3846138847197296, ,0.22648434739491832,0.04125953980803077,0.021880235604395604,0.017901124800048563,0.2338750952942934,-0.03996239431679771, ,1.8144948482513428
0.014863926165857463,0.02294568075650211,-0.09017258773278854, ,0.01594812226364534,0.022803938546477467,-0.09078066562120726, ,0.001251131788000332, ,0.022295433691183406,0.001808143822948084,-0.018379062833999014,0.03469153286158144,-0.004483237167310004,0.03629963468866685, ,0.028950746073607588, ,0.034979991004798365, ,0.0006526591918471103, ,0.18020997162002894,-0.24294945349022884,0.10084876942000001,-4.526576810000427,0.1729818087030476,-1.3846138847197296, ,0.22648434739491832,0.04125953980803077,0.021880235604395604,0.017901124800048563,0.2338750952942934,-0.03996239431679771, ,1.8183419704437256
0.015112607111981492,0.022967874455034454,-0.0903779997669767, ,0.016037895374989036,0.02280499947173194,-0.09085708782477916, ,0.001054614620121609, ,0.02293785714733033,0.002168152164236938,-0.01918076967644283,0.00847201613842292,-0.005347573550013087,-0.03908904373080697, ,0.029979127734131413, ,0.010018433219335484, ,0.0006555931730753914, ,0.18271213707127767,-0.24250153498352384,0.10109376823,-4.525738050226489,0.1754412656988255,-1.3848224747031725, ,0.22811764797709322,0.040588939930911366,0.0228533881205165,0.09181670169028426,0.2108223642789719,-0.002785715244521411, ,1.8219928741455078
0.015112607111981492,0.022967874455034454,-0.0903779997669767, ,0.016128208601965503,0.022805773050068086,-0.09093347703539532, ,0.0011688790560531166, ,0.02293785714733033,0.002168152164236938,-0.01918076967644283,0.00847201613842292,-0.005347573550013087,-0.03908904373080697, ,0.029979127734131413, ,0.010018433219335484, ,0.0006593126359955198, ,0.18271213707127767,-0.24250153498352384,0.10109376823,-4.525738050226489,0.1754412656988255,-1.3848224747031725, ,0.22811764797709322,0.040588939930911366,0.0228533881205165,0.09181670169028426,0.2108223642789719,-0.002785715244521411, ,1.8256950378417969
0.015112607111981492,0.022967874455034454,-0.0903779997669767, ,0.016219055828011378,0.02280626164028109,-0.09100983317208443, ,0.0012843523328536872, ,0.02293785714733033,0.002168152164236938,-0.01918076967644283,0.00847201613842292,-0.005347573550013087,-0.03908904373080697, ,0.029979127734131413, ,0.010018433219335484, ,0.0006638093244621254, ,0.18498262053629969,-0.24206906194256725,0.10132839672,-4.525108980396035,0.17762744969507258,-1.3848899076193635, ,0.2297746768970237,0.047401069709525866,0.024966789216300942,0.06368736831689628,0.22877630591602835,-0.020333691319176325, ,1.8294060230255127
0.015341933091842393,0.022988149191843908,-0.0905761908165639, ,0.016310430961175133,0.022806467594960134,-0.09108615615220178, ,0.0011095318693487585, ,0.02342372998241983,0.0020109003001600742,-0.021273347837029534,0.016872250920921972,0.0009579972389706687,-0.009386232184326562, ,0.03170599587620213, ,0.016899297409426084, ,0.0006669930569256013, ,0.18498262053629969,-0.24206906194256725,0.10132839672,-4.525108980396035,0.17762744969507258,-1.3848899076193635, ,0.2297746768970237,0.047401069709525866,0.024966789216300942,0.06368736831689628,0.22877630591602835,-0.020333691319176325, ,1.833061933517456
0.015341933091842393,0.022988149191843908,-0.0905761908165639, ,0.016402327934078115,0.022806393260494804,-0.09116244589143557, ,0.0012252213893143929, ,0.02342372998241983,0.0020109003001600742,-0.021273347837029534,0.016872250920921972,0.0009579972389706687,-0.009386232184326562, ,0.03170599587620213, ,0.016899297409426084, ,0.0006709521231127558, ,0.18498262053629969,-0.24206906194256725,0.10132839672,-4.525108980396035,0.17762744969507258,-1.3848899076193635, ,0.2297746768970237,0.047401069709525866,0.024966789216300942,0.06368736831689628,0.22877630591602835,-0.020333691319176325, ,1.8373889923095703
0.015576369649187231,0.023006316657201792,-0.09079504673479791, ,0.016494740703875414,0.022806040977080364,-0.0912387023038138, ,0.0010393969434513452, ,0.023643841439463967,0.0019674030054005827,-0.02292768005024583,0.021687093892860575,0.0005398847054239103,0.031214441389378497, ,0.03299364219189226, ,0.021693666846017035, ,0.0006735468049461262, ,0.18726854946707014,-0.24156708430574267,0.10158376585000001,-4.524899290452551,0.17995027019108506,-1.3851504371793917, ,0.2286673290565561,0.05140679391033087,0.026636808561872914,0.02270260211323582,0.23954762578366848,-0.035046298660871444, ,1.84104585647583
0.015576369649187231,0.023006316657201792,-0.09079504673479791, ,0.01658766325221693,0.022805413078724076,-0.09131492530170976, ,0.001154708068607933, ,0.023643841439463967,0.0019674030054005827,-0.02292768005024583,0.021687093892860575,0.0005398847054239103,0.031214441389378497, ,0.03299364219189226, ,0.021693666846017035, ,0.0006769115690276773, ,0.18726854946707014,-0.24156708430574267,0.10158376585000001,-4.524899290452551,0.17995027019108506,-1.3851504371793917, ,0.2286673290565561,0.05140679391033087,0.026636808561872914,0.02270260211323582,0.23954762578366848,-0.035046298660871444, ,1.8447139263153076
0.015576369649187231,0.023006316657201792,-0.09079504673479791, ,0.016681089585208156,0.022804511893250546,-0.09139111479584965, ,0.001271388388023688, ,0.023643841439463967,0.0019674030054005827,-0.02292768005024583,0.021687093892860575,0.0005398847054239103,0.031214441389378497, ,0.03299364219189226, ,0.021693666846017035, ,0.0006810398802707052, ,0.18726854946707014,-0.24156708430574267,0.10158376585000001,-4.524899290452551,0.17995027019108506,-1.3851504371793917, ,0.2286673290565561,0.05140679391033087,0.026636808561872914,0.02270260211323582,0.23954762578366848,-0.035046298660871444, ,1.8483569622039795
0.015775912753805254,0.023020548865291902,-0.09098293663009535, ,0.016775013733371213,0.02280333974230809,-0.09146727069531879, ,0.001131354081272932, ,0.023464043800649877,0.0016540358067955278,-0.022407300638353982,0.017770658018909192,0.0016068442434595109,0.027956591107630498, ,0.03248667892885569, ,0.017842998239035533, ,0.0006841454954500309, ,0.1892069554185005,-0.24111916579903764,0.10180283886000001,-4.524479910565582,0.18199981768756668,-1.3854331671524482, ,0.22648434739491832,0.053104052355048,0.026070067954173493,0.025154513755698365,0.23741364665126308,-0.03256732168860098, ,1.8520359992980957
0.015775912753805254,0.023020548865291902,-0.09098293663009535, ,0.016869429751605866,0.022801898941374143,-0.0915433929075673, ,0.001248077903284014, ,0.023464043800649877,0.0016540358067955278,-0.022407300638353982,0.017770658018909192,0.0016068442434595109,0.027956591107630498, ,0.03248667892885569, ,0.017842998239035533, ,0.0006880080461886198, ,0.1892069554185005,-0.24111916579903764,0.10180283886000001,-4.524479910565582,0.18199981768756668,-1.3854331671524482, ,0.22648434739491832,0.053104052355048,0.026070067954173493,0.025154513755698365,0.23741364665126308,-0.03256732168860098, ,1.8556668758392334
0.015775912753805254,0.023020548865291902,-0.09098293663009535, ,0.01696433171915041,0.022800191799761324,-0.09161948133841752, ,0.0013660475977118254, ,0.023464043800649877,0.0016540358067955278,-0.022407300638353982,0.017770658018909192,0.0016068442434595109,0.027956591107630498, ,0.03248667892885569, ,0.017842998239035533, ,0.00069262056014456, ,0.1915701116780132,-0.24056312903209348,0.10206598573000002,-4.523850840735128,0.18432263818357916,-1.3856936967124762, ,0.22381354141148768,0.05463266641247599,0.024619492302936634,0.0829920190459633,0.21941836240430376,-0.02982340885464517, ,1.8594398498535156
0.01602118451283311,0.02303575851406772,-0.09120787789716983, ,0.017059713739542584,0.02279822062062335,-0.09169553589206998, ,0.001171655890413991, ,0.02324795576607357,0.0012093985875639274,-0.021018246516233085,0.021840015676580497,0.0012486750116744818,-0.032301608017596906, ,0.03136394074191027, ,0.021875588498671265, ,0.0006958572853490832, ,0.1915701116780132,-0.24056312903209348,0.10206598573000002,-4.523850840735128,0.18432263818357916,-1.3856936967124762, ,0.22381354141148768,0.05463266641247599,0.024619492302936634,0.0829920190459633,0.21941836240430376,-0.02982340885464517, ,1.8630578517913818
0.01602118451283311,0.02303575851406772,-0.09120787789716983, ,0.01715556994058063,0.02279598770096059,-0.09177155647110978, ,0.001289206684834884, ,0.02324795576607357,0.0012093985875639274,-0.021018246516233085,0.021840015676580497,0.0012486750116744818,-0.032301608017596906, ,0.03136394074191027, ,0.021875588498671265, ,0.0006998394960838871, ,0.1915701116780132,-0.24056312903209348,0.10206598573000002,-4.523850840735128,0.18432263818357916,-1.3856936967124762, ,0.22381354141148768,0.05463266641247599,0.024619492302936634,0.0829920190459633,0.21941836240430376,-0.02982340885464517, ,1.867905855178833
0.01628141360705272,0.023044063307337492,-0.09143885404052783, ,0.01725189447428416,0.022793495331626185,-0.09184754297651387, ,0.001082425087713583, ,0.023826147328907796,0.0006500139373302079,-0.02126807205936891,0.055574192576667576,0.01788690066594337,-0.008742399102044822, ,0.03194430628108947, ,0.058381741533338576, ,0.0007023900666947518, ,0.19410316806075884,-0.2399066967377844,0.10233691034,-4.52301208096119,0.18705536817888796,-1.3862884799835935, ,0.23145595502066044,0.06130293382330153,0.02492771755868545,0.06524113021946529,0.25485569355156834,-0.068572007917702, ,1.8716809749603271
0.01628141360705272,0.023044063307337492,-0.09143885404052783, ,0.017348681516855126,0.022790745797331792,-0.09192349530765603, ,0.001199211286626805, ,0.023826147328907796,0.0006500139373302079,-0.02126807205936891,0.055574192576667576,0.01788690066594337,-0.008742399102044822, ,0.03194430628108947, ,0.058381741533338576, ,0.0007056802734492687, ,0.19410316806075884,-0.2399066967377844,0.10233691034,-4.52301208096119,0.18705536817888796,-1.3862884799835935, ,0.23145595502066044,0.06130293382330153,0.02492771755868545,0.06524113021946529,0.25485569355156834,-0.068572007917702, ,1.8756909370422363
0.01628141360705272,0.023044063307337492,-0.09143885404052783, ,0.01744592526863874,0.022787741376653407,-0.09199941336231521, ,0.0013175792558181004, ,0.023826147328907796,0.0006500139373302079,-0.02126807205936891,0.055574192576667576,0.01788690066594337,-0.008742399102044822, ,0.03194430628108947, ,0.058381741533338576, ,0.0007097059246490637, ,0.19410316806075884,-0.2399066967377844,0.10233691034,-4.52301208096119,0.18705536817888796,-1.3862884799835935, ,0.23145595502066044,0.06130293382330153,0.02492771755868545,0.06524113021946529,0.25485569355156834,-0.068572007917702, ,1.8796679973602295
0.01628141360705272,0.023044063307337492,-0.09143885404052783, ,0.01754361995408466,0.022784484342037305,-0.09207529703668, ,0.0014372215518371504, ,0.023826147328907796,0.0006500139373302079,-0.02126807205936891,0.055574192576667576,0.01788690066594337,-0.008742399102044822, ,0.03194430628108947, ,0.058381741533338576, ,0.0007144609287483322, ,0.19410316806075884,-0.2399066967377844,0.10233691034,-4.52301208096119,0.18705536817888796,-1.3862884799835935, ,0.23145595502066044,0.06130293382330153,0.02492771755868545,0.06524113021946529,0.25485569355156834,-0.068572007917702, ,1.8838539123535156
0.016506044782033765,0.023045825106674928,-0.09162841686842924, ,0.017641759821707556,0.022780976959805636,-0.092151146225357, ,0.0012779824618653628, ,0.024055843145178047,-0.00016407748597192296,-0.019203116755894808,-0.04431287694049422,-0.05197784936262158,0.005106237332863828, ,0.03078100394703429, ,0.06830318642490758, ,0.0007181201594828584, ,0.19625781053266747,-0.23932749177221754,0.10255987222000001,-4.522802391017706,0.18896827917560413,-1.3864597920529538, ,0.2297746768970237,0.06251445425459208,0.02272298362339515,0.03146343101869968,0.17658987901631573,0.013716419341316441, ,1.8875248432159424
0.016506044782033765,0.023045825106674928,-0.09162841686842924, ,0.017740339144048357,0.022777221490162564,-0.09222696082137613, ,0.0013978144864444015, ,0.024055843145178047,-0.00016407748597192296,-0.019203116755894808,-0.04431287694049422,-0.05197784936262158,0.005106237332863828, ,0.03078100394703429, ,0.06830318642490758, ,0.0007225052841729328, ,0.19625781053266747,-0.23932749177221754,0.10255987222000001,-4.522802391017706,0.18896827917560413,-1.3864597920529538, ,0.2297746768970237,0.06251445425459208,0.02272298362339515,0.03146343101869968,0.17658987901631573,0.013716419341316441, ,1.8911559581756592
0.01688169451686225,0.02303503976501824,-0.0919093144779256, ,0.01783935221763505,0.02277322018719996,-0.09230274071619686, ,0.001067914775690771, ,0.024055843145178047,-0.00016407748597192296,-0.019203116755894808,-0.04431287694049422,-0.05197784936262158,0.005106237332863828, ,0.03078100394703429, ,0.06830318642490758, ,0.0007247194475800984, ,0.19981799038768497,-0.23832353649856836,0.10289431504,-4.522173321187252,0.1911544631718512,-1.3858737950480204, ,0.22757060325772369,0.06706497636641044,0.02149637182186235,0.02973495686565794,0.14590829458322074,0.009452205954923264, ,1.8948910236358643
0.01688169451686225,0.02303503976501824,-0.0919093144779256, ,0.0179387933629439,0.022768975298903392,-0.09237848579971623, ,0.0011867476562887782, ,0.024061161722769658,-0.0009621637623046812,-0.01808863994799047,-0.049030968643241836,-0.08004301676610176,-0.0026968680049879725, ,0.03011750583502566, ,0.09386649286384993, ,0.0007276623024126378, ,0.19981799038768497,-0.23832353649856836,0.10289431504,-4.522173321187252,0.1911544631718512,-1.3858737950480204, ,0.22757060325772369,0.06706497636641044,0.02149637182186235,0.02973495686565794,0.14590829458322074,0.009452205954923264, ,1.9014439582824707
0.017109204712739565,0.02302495639344056,-0.09208111349716588, ,0.018038656924359936,0.022764489067157695,-0.09245419596027335, ,0.0010348503109267918, ,0.024061161722769658,-0.0009621637623046812,-0.01808863994799047,-0.049030968643241836,-0.08004301676610176,-0.04407784147106538, ,0.03011750583502566, ,0.09386649286384993, ,0.000729606530314626, ,0.20201124652396474,-0.23765938147138507,0.10309912886000001,-4.5213345614133145,0.19306737416856737,-1.3863718220779426, ,0.22328692131404887,0.06832033229551533,0.020633175544041454,0.0857921524519694,0.20080373292307294,-0.05589309447336619, ,1.9052929878234863
0.017109204712739565,0.02302495639344056,-0.09208111349716588, ,0.018138937270138412,0.022759763727752978,-0.09252987108465746, ,0.0011541488907558322, ,0.02311121837612567,-0.001148536811765975,-0.017267510204624633,0.03318650309474695,-0.01907941289571721,-0.04407784147106538, ,0.028872382310847964, ,0.038280105132571435, ,0.00073227660805325, ,0.20201124652396474,-0.23765938147138507,0.10309912886000001,-4.5213345614133145,0.19306737416856737,-1.3863718220779426, ,0.22328692131404887,0.06832033229551533,0.020633175544041454,0.0857921524519694,0.20080373292307294,-0.05589309447336619, ,1.9089288711547852
0.017109204712739565,0.02302495639344056,-0.09208111349716588, ,0.018239628792365407,0.022754801510390575,-0.09260551105811318, ,0.0012750823748139408, ,0.02311121837612567,-0.001148536811765975,-0.017267510204624633,0.03318650309474695,-0.01907941289571721,-0.04407784147106538, ,0.028872382310847964, ,0.038280105132571435, ,0.0007356691440955044, ,0.20201124652396474,-0.23765938147138507,0.10309912886000001,-4.5213345614133145,0.19306737416856737,-1.3863718220779426, ,0.22328692131404887,0.06832033229551533,0.020633175544041454,0.0857921524519694,0.20080373292307294,-0.05589309447336619, ,1.9126169681549072
0.017109204712739565,0.02302495639344056,-0.09208111349716588, ,0.01834072590691898,0.022749604638688716,-0.09268111576434843, ,0.0013973066095822359, ,0.02311121837612567,-0.001148536811765975,-0.017267510204624633,0.03318650309474695,-0.01907941289571721,-0.04407784147106538, ,0.028872382310847964, ,0.038280105132571435, ,0.0007397786935705772, ,0.20201124652396474,-0.23765938147138507,0.10309912886000001,-4.5213345614133145,0.19306737416856737,-1.3863718220779426, ,0.22328692131404887,0.06832033229551533,0.020633175544041454,0.0857921524519694,0.20080373292307294,-0.05589309447336619, ,1.9164090156555176
0.01731175993029485,0.02301471789840985,-0.09222616434146638, ,0.01844222305342995,0.022744175330188385,-0.09275668508553916, ,0.0012777293977520292, ,0.023741306701541114,-0.0013623677228925893,-0.016260999338154183,0.018299430640870522,-0.032239588732913424,0.008139018462882579, ,0.028808432605479797, ,0.037071000883589, ,0.000743099376929722, ,0.20398054340689198,-0.23708017650581822,0.10327412801000001,-4.520915181526345,0.19484364866551807,-1.3868401099443095, ,0.23202186200115102,0.0673983959932321,0.019787343503105594,0.03326053396284679,0.20817823569982524,-0.04916123749601826, ,1.9202439785003662
