NicholasDascanio/dvrk_moveit_final/test/execution/second_exp_sharpbends/firstexp_700vel5.csv
Current Position (x),Current Position (y),Current Position (z), ,Planned Position (x),Planned Position (y),Planned Position (z), ,Position Error,,Cartesian linear Velocity(x),Cartesian linear Velocity(y),Cartesian linear Velocity(z),Cartesian Angular Velocity(x),Cartesian Angular Velocity(y),Cartesian Angular Velocity(z), ,Total Linear Velocity, ,Total Angular Velocity, ,MSE, ,Joint 1 Position,Joint 2 Position,Joint 3 Position,Joint 4 Position,Joint 5 Position,Joint 6 Position, ,Joint 1 Velocity,Joint 2 Velocity,Joint 3 Velocity,Joint 4 Velocity,Joint 5 Velocity,Joint 6 Velocity, ,Time Stamp
0.011797609466498557,0.019293420711727224,-0.08173619591899062, ,0.011844193783364126,0.01926838375588931,-0.08180022827051056, ,8.304871929557419e-05, ,3.0502136904578776e-05,1.1068624016032084e-05,7.015299800634635e-06,-0.01722057057580038,0.0024290932161489366,-0.0011480808540557644, ,3.319803043324608e-05, ,0.017391047835276133, ,6.920726607964516e-06, ,0.16570667928223531,-0.2256350863862175,0.09148177788,-4.534125647965871,0.20768747964346948,-1.2115759378121347, ,0.000367701079310988,-7.62002715241089e-05,0.0,0.0026543369778359435,0.0,0.01791294641915231, ,0.016577959060668945
0.011797962800061788,0.01929251273691319,-0.08172718452205129, ,0.011811800002401621,0.019310504891033465,-0.08178630828802216, ,6.333092041854705e-05, ,-7.285680098016057e-05,0.000269768678290217,-2.1474382171782493e-05,-0.6250272526354689,0.07958272764586415,0.047449950604965103, ,0.0002802577426676613, ,0.6300733902305334, ,6.65361998700551e-06, ,0.16569123381648684,-0.22568142278346284,0.09147140756000001,-4.534125647965871,0.20796075264300035,-1.2042843295265957, ,-0.0009240978293757211,-0.003014871657367644,7.196806376551302e-05,0.0026543369778359435,0.0,0.6351896770208589, ,0.033432960510253906
0.011766420690120585,0.019303169659999425,-0.08172528972525457, ,0.011780130460384116,0.019352271764564312,-0.08177305089014279, ,6.98577364710577e-05, ,-0.0028471774114655394,0.0008098022956314752,0.0002933787533491728,-0.29433795646544286,0.3235137660560581,0.09761320600652337, ,0.002974604185986151, ,0.4373739697833272, ,6.757418005786841e-06, ,0.16566034288498996,-0.22573548191358242,0.09147400014000001,-4.534125647965871,0.21055684613854375,-1.1991318618243176, ,-0.002677956883480691,-0.005844312178410251,0.0,0.0026543369778359435,0.28998088240375347,0.3444187483021728, ,0.04959702491760254
0.011737944567591408,0.01931294542281168,-0.08172625265081053, ,0.011749182287465338,0.019393685806050255,-0.08176045306430886, ,8.840228569971367e-05, ,-0.002797344585523104,0.0007106508923052507,0.000689312718238157,-0.1488413041071825,0.26382610366676523,0.083047129613759, ,0.0029673748405643924, ,0.30291574205431065, ,7.2533252829736336e-06, ,0.1655522246247508,-0.22588221383819268,0.09147788901000001,-4.533706268078901,0.21479257763127238,-1.1953164089663968, ,-0.006036515752770371,-0.009746535646453131,0.0003753537158362934,-0.005620904795913343,0.10105947708787377,-0.028875075828319607, ,0.06614184379577637
0.011708404388586823,0.019339072083924918,-0.08171966264622654, ,0.011718952619349103,0.019434748442311165,-0.08174851180423225, ,0.00010048634058371288, ,0.0001420214935777106,0.0009855774005397343,-9.305606389293779e-05,0.715132058756591,-0.19163981998121157,-0.08300387515655532, ,0.0010000961694356947, ,0.740364560243041, ,7.790884662857798e-06, ,0.16538232450151788,-0.22610617309154518,0.09147529643,-4.533706268078901,0.21438266813197607,-1.202904993048942, ,-0.010948585804233827,-0.0132927499031336,0.0001301393329962375,-0.005620904795913343,-0.11774786895908065,-0.7273074354878225, ,0.0837860107421875
0.011728534993127081,0.019347003936642033,-0.08171719787651859, ,0.011689438597283545,0.01947546109742328,-0.081737224109897, ,0.0001357601574367854, ,0.002301858708085782,0.0010501581256229342,-0.0007652347515743785,-0.05402223547198018,-0.3412266188383821,-0.08207075582962561, ,0.002643287692594077, ,0.34547649316453405, ,8.723970321054692e-06, ,0.16525103804265606,-0.2262606277490297,0.09147140756000001,-4.533706268078901,0.21083011913807462,-1.205807318102815, ,-0.013316999938039682,-0.016046151768425904,0.0006641046664854917,-0.005620904795913343,-0.3706378165822809,0.017623203135107957, ,0.1014699935913086
0.011730929077859841,0.019374984512514962,-0.08171574059010875, ,0.011660637368058124,0.019515825192718377,-0.08172658698755182, ,0.0001577804360638617, ,-0.0009700339139384704,0.001629322779121653,-2.586207879005074e-05,-0.17325201596884426,0.007406632927447941,0.014326046322166917, ,0.0018963985234846702, ,0.1734102628121837, ,9.703702721795174e-06, ,0.1649498514605613,-0.22664676439274092,0.09147140756000001,-4.533915958022385,0.20768747964346948,-1.2050416386008895, ,-0.014944400245428468,-0.0196799961755435,0.00021063122420696056,-0.004068569398505363,-0.031227326972277963,0.18970940965484573, ,0.11994600296020508
0.011689757585882497,0.01941407857371406,-0.08170862881896797, ,0.011632546083998016,0.019555842146788075,-0.08171659744970564, ,0.00015308025893113363, ,-0.002752438959093822,0.0021489289064238583,0.00041643226207715425,0.027608041920304537,0.15530554721593218,0.03455583288473579, ,0.00351670747963208, ,0.1577403466926374, ,1.038715676707788e-05, ,0.16461777394696964,-0.22711012836519437,0.09147011127000002,-4.534125647965871,0.20905384464112386,-1.2021535593709665, ,-0.01717902635019384,-0.024159099174763436,-5.124181660844889e-05,0.005784948887521955,0.14054775001615558,0.016809920482587906, ,0.13791704177856445
0.011647096088968092,0.01945983602866977,-0.08170081003210107, ,0.011605161902959902,0.01959551337548555,-0.08170725251512359, ,0.00014215598468807021, ,-0.001732177171492821,0.0023489243480308295,0.00021813439676349644,-0.021856570445382854,0.028871211058885068,-0.0007755880728919193, ,0.0029266817321438113, ,0.036211275863198625, ,1.0803291734657134e-05, ,0.1642239145703842,-0.22765071966639008,0.09146881498000001,-4.533915958022385,0.21001030013948196,-1.2008098374531868, ,-0.020320544230935926,-0.02800145811698754,9.09896585382143e-05,0.009956599828948406,0.0,0.05162704982271242, ,0.1540389060974121
0.011628708409139958,0.0194859961726663,-0.08169853910050545, ,0.011578481988327359,0.019634840291927726,-0.08169854920881901, ,0.00015708999105140914, ,-0.0018044907510667083,0.0024348462991840626,0.00032093386567539673,0.01628180608807459,0.019314861022505507,0.012232220565073232, ,0.003047566556692892, ,0.025261850007637376, ,1.128424343764574e-05, ,0.1640076780499059,-0.22795962898135907,0.09147011127000002,-4.533706268078901,0.21001030013948196,-1.200564801232765, ,-0.021092896545559185,-0.029692409749208632,0.0,-0.0071132144142280335,-0.001679168307151716,0.01177549174798945, ,0.1732940673828125
0.011596574389218524,0.01953298895173836,-0.08169212521165721, ,0.011552503509006891,0.019673824306497053,-0.08169048456204987, ,0.00014757889877543205, ,-0.0016023631995368249,0.0024698052166864768,0.00036307972025038346,0.03473070840964029,0.016046922619186707,0.011225729233873546, ,0.002966366888107188, ,0.03825867002630425, ,1.1594390441208013e-05, ,0.1636215414061947,-0.2285311112140517,0.09147011127000002,-4.533706268078901,0.20987366363971652,-1.2006984195494903, ,-0.018419437414299453,-0.030097349051211794,0.0,-0.0071132144142280335,0.0,-0.0062318790805447576, ,0.19010496139526367
0.01156522160373056,0.019585899035032137,-0.08168303687989631, ,0.01152722363942213,0.019712466826845083,-0.08168305561231333, ,0.0001321485965377368, ,-0.001629359403114278,0.0026130403813723413,0.00039508152206927337,0.014340663259073102,0.01865412036561509,0.013225514419165803, ,0.0031046548130637653, ,0.023529361005454323, ,1.1727215786500283e-05, ,0.16323540476248347,-0.22917982077548654,0.09146881498000001,-4.533706268078901,0.20960039064018565,-1.2006389412223784, ,-0.018732124271312826,-0.03184461126123181,0.0,-0.0071132144142280335,-0.0004412399249509232,0.016068725465843363, ,0.20621800422668457
0.011545956259593048,0.01961890546440018,-0.08167721609434529, ,0.011502639559511016,0.019750769257892688,-0.08167625940333939, ,0.00013879953817614845, ,-0.0015281343288650593,0.0025183006204341396,0.00041839213220201503,-0.003869037132296669,-0.0008815180365161408,0.008422742289537948, ,0.0029752452870685114, ,0.003968188803447553, ,1.1981067665108265e-05, ,0.16297283184475983,-0.22958912561782044,0.09146751869000001,-4.533706268078901,0.2091904811408893,-1.2003046875112893, ,-0.01997830348599385,-0.031205834119852276,-6.897593487919181e-05,-0.007109940458286742,-0.02396907166675157,0.030538194839110765, ,0.22146987915039062
0.011530384589110116,0.019645501751894823,-0.08167326273199949, ,0.011478748454719467,0.019788733001834813,-0.08167009298508701, ,0.00015228765094277999, ,-0.001403124791060009,0.0025113075757715346,0.000413300237969699,-0.0021911324567385083,-0.009364317568561285,0.005594085022754507, ,0.0029062419042675206, ,0.009617250385003528, ,1.2298625107656877e-05, ,0.16277976352290421,-0.22991348039853787,0.09146751869000001,-4.533706268078901,0.20905384464112386,-1.200111590867452, ,-0.0193469809497392,-0.031195575791739243,-6.10776898108998e-05,-0.006492576915926157,-0.03196069598652004,0.027809219131750013, ,0.2366650104522705
0.01150240712792229,0.019696475092894856,-0.0816658880240875, ,0.01145554751599836,0.01982635945814046,-0.08166455341373725, ,0.00013808530968101556, ,-0.0013424431055676267,0.0024601362714432385,0.00039966864148211303,-0.0026965234145373304,-0.010152383760198199,0.004469211434334823, ,0.002830928997474301, ,0.010504386442791143, ,1.248250217955019e-05, ,0.1624013496120672,-0.23053902176135008,0.09146751869000001,-4.533706268078901,0.20850729864206213,-1.1996659192526664, ,-0.01869522095320543,-0.03053312147955945,-5.005569162352119e-05,-0.00556359349444157,-0.03231870363799094,0.027761089712477715, ,0.25197291374206543
0.011490785708948716,0.01972837056072494,-0.08166173292702818, ,0.011433033939797912,0.01986365002355647,-0.08165963775168929, ,0.00014710604903856047, ,-0.001054277473155648,0.0023542506439028104,0.0003346935666047998,-0.0392736998563264,-0.04678412270059774,-0.004621170137034663, ,0.0026011568326894277, ,0.06108336628959967, ,1.2702524517667965e-05, ,0.16215422216009204,-0.23094060387080972,0.09146751869000001,-4.533706268078901,0.20741420664393861,-1.1986112185428142, ,-0.020012007920386078,-0.029813679408881803,-4.4735057715442856e-05,-0.005084137800566744,-0.07590668068171147,0.05797280890144217, ,0.26802706718444824
0.011466316231775735,0.019771208353059982,-0.0816555248516631, ,0.011411204928063589,0.019900606092109162,-0.08165534306755413, ,0.00014064516953437878, ,-0.0016931273106480247,0.002422863114541657,0.00038975432627736333,0.03176780003235373,0.018035827033968554,0.00889623944829209, ,0.0029814181519405548, ,0.03653059232608819, ,1.2860143972011481e-05, ,0.1618298673793746,-0.231465749706257,0.09146751869000001,-4.533706268078901,0.2070042971446423,-1.198276964831725, ,-0.01949002701960788,-0.02959979462210567,-3.935906434496339e-05,-0.004577258914344737,0.0,-0.003308528354298561, ,0.28337907791137695
0.01143150949774842,0.019818806019978027,-0.08164728273254253, ,0.01139005768823207,0.01993722905510625,-0.08165166643614918, ,0.000154074369930742, ,-0.001720263728543507,0.002429326895794249,0.00034883153979149554,0.020021420942306564,0.020011378863251206,0.009393455701180876, ,0.002997101917774075, ,0.028307465103000907, ,1.3077945529867383e-05, ,0.16144373073566337,-0.23204495467182384,0.0914662224,-4.533706268078901,0.20714093364440772,-1.198470061475562, ,-0.01990288203826988,-0.029562910142825787,0.0,-0.004094987316659034,0.0,0.008610091179596874, ,0.29830002784729004
0.011418267329303632,0.019842088222072212,-0.08164308412912513, ,0.01136958943322556,0.01997352030114008,-0.08164860493849388, ,0.00014026549223089687, ,-0.0014598358418962442,0.0023096041827379383,0.00025134893391962315,-0.015964596923385525,-0.011659441439923271,0.0018633966590484601, ,0.0027438236920013697, ,0.01976893850506829, ,1.3199913002635437e-05, ,0.1612352169480593,-0.23233841852104437,0.09146492611000001,-4.533706268078901,0.20659438764534596,-1.198024389860776, ,-0.02103212357235611,-0.028514705997136652,3.8205981564278504e-05,-0.0038894665943978233,-0.03812461253122173,0.038620087576019035, ,0.314007043838501
0.011388679784990198,0.019886032617572137,-0.08163747149649805, ,0.011349797381448404,0.020009481216088722,-0.08164615566180333, ,0.00012971820422726094, ,-0.0014309418825845348,0.002124162881708363,0.00023182746707282683,0.0034048530368122895,-0.004686249977849501,0.0023105916994691765, ,0.002571654446820481, ,0.005792578273721037, ,1.3256196441828954e-05, ,0.16083363483859964,-0.23287900982224008,0.09146492611000001,-4.533706268078901,0.2060478416462842,-1.19749703950585, ,-0.019522102768662987,-0.02610644884689705,3.8205981564278504e-05,-0.0035334214132902125,-0.02676255591242039,0.018290855892817575, ,0.33023500442504883
0.011371353492745739,0.019910215429468723,-0.08163399239378702, ,0.01133067875678176,0.020045113183119218,-0.08164431569948337, ,0.00014127423235038, ,-0.0015575758239028121,0.0022000673996854492,0.00025127602426345955,0.012819485080213664,0.0041466120652932275,0.004112402484484827, ,0.0027073009900516914, ,0.013473440145035607, ,1.336441547815368e-05, ,0.1606328437838698,-0.23317247367146063,0.09146492611000001,-4.533706268078901,0.2060478416462842,-1.19749703950585, ,-0.01997830348599385,-0.026898226065326186,3.7298891143045764e-05,-0.0033734156585276944,-0.01711586174361197,0.010946080540120575, ,0.34616684913635254
0.011343735023188252,0.01995224289329103,-0.0816285179413798, ,0.01131223078857969,0.02008041758268903,-0.08164308215112488, ,0.00013279075271284272, ,-0.0015013136979634813,0.002073680218828576,0.000242516993266269,0.01493256414848317,0.007052921903957035,0.004482985404741288, ,0.002571557302818007, ,0.01651439309910851, ,1.3423429692349244e-05, ,0.1602544298730328,-0.23368989677403365,0.09146492611000001,-4.533706268078901,0.20550129564722242,-1.197051367891064, ,-0.01884371357396163,-0.02531260110922133,3.2751259582712576e-05,-0.003103334627724131,-0.01257390933139057,0.007910966785702203, ,0.36098599433898926
0.011332083611309177,0.01997263315510389,-0.08162609174380533, ,0.011294450711663911,0.020115395792549274,-0.08164245212249942, ,0.00014854315122914995, ,-0.001131244375396176,0.002011933951398065,0.000210363562739852,-0.024598735899732743,-0.028343708050733385,-0.003388741739027632, ,0.0023177240755064697, ,0.037529502980055696, ,1.3548915140304028e-05, ,0.16007680701692564,-0.23392930149313462,0.09146492611000001,-4.533706268078901,0.2050913861479261,-1.1967171141799748, ,-0.018636477132456947,-0.025238548286827336,3.094784654082753e-05,-0.0029889623993413104,-0.062323107900579745,0.04870322413720682, ,0.3761310577392578
0.011302969056590756,0.02001286501986809,-0.08162185578564884, ,0.011277335766319889,0.020150049187745756,-0.08164242272555262, ,0.0001410658020336737, ,-0.001396831857080924,0.0019343254334627013,0.00023787868579848372,0.009346538374484856,0.0031988626098573914,0.003245399504217317, ,0.0023977782192383897, ,0.009878790491880188, ,1.363206977409071e-05, ,0.15970611583896285,-0.2344312791299592,0.0914662224,-4.533706268078901,0.20481811314839524,-1.1964942783725818, ,-0.018000178596068055,-0.023718305813164406,1.4438682357571264e-05,-0.002769063067377027,-0.0162583213333741,0.011504754337021148, ,0.3916740417480469
0.01128964961066752,0.020031314420800188,-0.08161917343329544, ,0.011260883198291856,0.020184379140622592,-0.08164299107840019, ,0.00015755505435755918, ,-0.0012047933356561672,0.0019135366684268748,0.00026802698614372114,0.01302863187849699,0.004135158001237663,0.003925931449415078, ,0.002277056878595048, ,0.013669117759408952, ,1.3835844968060599e-05, ,0.15955166118147837,-0.23465523838331173,0.0914662224,-4.533706268078901,0.20481811314839524,-1.1964942783725818, ,-0.015181081676287116,-0.023408224360747604,1.3904522768363523e-05,-0.0026779063588483363,-0.01192225292087452,0.00809783881276064, ,0.4062778949737549
0.011278836829264722,0.020052790306594594,-0.08161744575134376, ,0.011245090258778952,0.02021838702082279,-0.08164415430532049, ,0.00017109777800501373, ,-0.0011250166785762477,0.001915787839396069,0.0002788477440863569,0.01110667775801081,0.0030955352487299307,0.0038881422889081134, ,0.0022391207285527596, ,0.011529988260897024, ,1.4081418213022098e-05, ,0.15938176105824542,-0.23491781130103537,0.09146751869000001,-4.533706268078901,0.2044082036490989,-1.196160024661493, ,-0.014246650887024589,-0.023437130540496613,1.4685077694992815e-05,-0.0025782138495633565,-0.012303482398077053,0.010032664912470842, ,0.4220118522644043
0.011264504882142843,0.020088954869667802,-0.08161263674208183, ,0.011229954204429632,0.020252074195292406,-0.08164590953675166, ,0.00017002571154918993, ,-0.0007169031627913011,0.0017613343131583372,0.00022230963799138942,-0.035907247324336394,-0.034638942077899686,-0.004586183083589662, ,0.0019145940255503213, ,0.04989175000626008, ,1.4307301543120576e-05, ,0.1590882972090249,-0.23537345254061462,0.09146751869000001,-4.533706268078901,0.20317847515120993,-1.1948305485676627, ,-0.014210383581681757,-0.02216182661337477,1.4685077694992815e-05,-0.002421677652014336,-0.0568491624247802,0.050048060891182446, ,0.4356379508972168
0.011254507111491995,0.020107551778982276,-0.08161101606811352, ,0.011215472297338228,0.020285442028281062,-0.0816482539092845, ,0.00018589059773608334, ,-0.0012704534077184956,0.001937793927443507,0.0002550548970552531,0.04109659103534801,0.011920715808026795,0.004467249841260974, ,0.002331126373007764, ,0.0427905744306195, ,1.4579943472094311e-05, ,0.15895701075016308,-0.23559741179396712,0.09146881498000001,-4.533706268078901,0.2030418386514445,-1.1945557731836853, ,-0.014730975094453707,-0.023448713011729867,4.541861068305547e-05,-0.0023510915047006984,0.0,-0.018505590697976245, ,0.44916701316833496
0.01122784982962539,0.020150469152020626,-0.08160544895531682, ,0.011201641805039884,0.02031849188134517,-0.0816511845656576, ,0.00017609725771739878, ,-0.0011418936684668656,0.0018805894682565577,0.00028128703661091733,0.03263553801337553,0.014183663125465481,0.005722939435322169, ,0.002218030724576995, ,0.03558447190951652, ,1.4800157212615217e-05, ,0.1586481014351941,-0.23611483489654017,0.09147011127000002,-4.533706268078901,0.2030418386514445,-1.1946374519238259, ,-0.012792793415808948,-0.02275160430555521,3.0396679583144778e-05,-0.0022048494822414777,0.0032892730671603473,-0.010160774438647218, ,0.4634368419647217
0.011214514045778992,0.020170336316752913,-0.08160214131948533, ,0.011188460000505605,0.02035122511335056,-0.08165469865475254, ,0.00019016267641165112, ,-0.0011925998924789888,0.0019536146764315724,0.0002874130114644875,0.028472438640575807,0.01257155220835931,0.0053476870957580675, ,0.002306840056585809, ,0.031124326291003635, ,1.5058291812294102e-05, ,0.15850909224345805,-0.23635423961564112,0.09147011127000002,-4.533706268078901,0.20317847515120993,-1.1947488698275222, ,-0.01374123103945421,-0.02368279050623179,3.0396679583144778e-05,-0.002143016849100075,0.0,-0.005474809500354533, ,0.4794318675994873
0.011196905071298805,0.020209129497482922,-0.08159858679177172, ,0.011175924162138619,0.02038364308047352,-0.08165879333158804, ,0.00018579563136430005, ,-0.000868014934777675,0.0019239328215143185,0.000226387927458481,-0.021760167566833005,-0.011898119150942417,0.0010631359988825361, ,0.002122785651542822, ,0.02480060748987158, ,1.528671592721e-05, ,0.15824651932573444,-0.2368253263209688,0.09147270385,-4.533706268078901,0.2026319291521482,-1.1940581619923147, ,-0.013274156043988078,-0.023612078019027316,7.52144966264658e-05,-0.002030741812544393,-0.031031960158525728,0.040891718803876535, ,0.49376487731933594
0.011189070573485699,0.02022965895887111,-0.08159527168267852, ,0.011164031573769608,0.020415747136203543,-0.08166346575731398, ,0.0001997653450052746, ,-0.0007239878899375633,0.0019484377482087002,0.00023918180258593772,-0.0024506388609200278,-0.022961593950225467,-0.0026596001720494873, ,0.002092313565914319, ,0.023091999211018583, ,1.5550224830569166e-05, ,0.15811523286687262,-0.23708017650581822,0.09147270385,-4.533706268078901,0.20222201965285186,-1.1935605508009444, ,-0.012383784622011064,-0.02401846154352589,7.52144966264658e-05,-0.001976131718005239,-0.039100956863955094,0.02065064056415488, ,0.5069749355316162
0.01117844874185453,0.020249039682447685,-0.08159326723452608, ,0.01115277952465119,0.020447538631346743,-0.08166871309920765, ,0.0002138990881780774, ,-0.0009475598041261395,0.002050377311166818,0.00024190447762361886,0.010207810971079843,-0.008145420382048796,0.000669974012642384, ,0.002271658970188438, ,0.013059375100731076, ,1.584657347140865e-05, ,0.15799166914088503,-0.23731185849204495,0.09147400014000001,-4.533706268078901,0.20222201965285186,-1.1934788720608038, ,-0.01339406373443483,-0.024992610365675735,9.359649828737514e-05,-0.0019294822576543579,-0.023452578185644852,0.01103519538552687, ,0.5211060047149658
0.011155941679686218,0.020291553282113368,-0.08158982713293476, ,0.011142165309454962,0.02047901891402598,-0.08167453253066692, ,0.0002061750613680208, ,-0.0010330146947457829,0.002106160909800438,0.00015467385005084902,0.009363952478113178,0.003630156107338833,0.002024622982855662, ,0.002350948135842576, ,0.01004298956367134, ,1.6102710483011077e-05, ,0.1577290962231614,-0.23782155886174378,0.09147788901000001,-4.533915958022385,0.20222201965285186,-1.1935605508009444, ,-0.013371416310901899,-0.02517160253540339,0.00019971071319335642,0.0,-0.011964601885739404,0.013984383518141474, ,0.5372450351715088
0.011149182519292422,0.020311420173131384,-0.08158919813567381, ,0.011132186228266061,0.020510189329684573,-0.08168092123120539, ,0.0002195704391748008, ,-0.0009367792173729094,0.0019846752388050022,0.00012649728403661895,0.009369702734082348,0.0034036144789648826,0.0019783597059013567, ,0.0021982931261540473, ,0.009968747205466174, ,1.6388083927384383e-05, ,0.15747424603831198,-0.23832353649856836,0.09148307417000001,-4.533915958022385,0.2012655641544938,-1.1927806254750695, ,-0.011487305219771558,-0.026426327362425724,0.00025582550337867126,0.0,-0.06285754040499096,0.05476366062763287, ,0.5520298480987549
0.01113504230273827,0.020353577438404845,-0.08158716951566003, ,0.011122839586578323,0.020541051221088576,-0.0816878763864474, ,0.0002131600321336295, ,-0.0006426983914172099,0.002032313551266352,3.3147872317018694e-05,-0.0036517592237339377,-0.018736539753078808,-0.003910421698742769, ,0.002131773527941058, ,0.01908908765098082, ,1.6639787487858476e-05, ,0.15736612777807282,-0.23856294121766933,0.09148566675000001,-4.533706268078901,0.2011289276547283,-1.192505850091092, ,-0.011335599186174319,-0.02423313114363401,0.0003152494226226911,0.0007118589548716059,-0.03457721207713796,0.023134321513428462, ,0.5688040256500244
0.011124912589946242,0.020376419440131154,-0.08158823944075995, ,0.011114122695290525,0.020571605928328456,-0.08169539518812231, ,0.0002229272105290509, ,-0.0007206583380829223,0.002137646016793164,-0.0001338104293439383,0.010155977225375581,-0.007021516439559218,-0.0011722646566763263, ,0.002259819498181509, ,0.012346884891070614, ,1.6959453247960703e-05, ,0.15724256405208525,-0.23882551413539296,0.09149085191,-4.533706268078901,0.2011289276547283,-1.192505850091092, ,-0.01110069498977673,-0.024751419290159303,0.0005142636023160544,0.0007118589548716059,-0.020616260908242433,0.011656949976419154, ,0.5814089775085449
0.011107238704900154,0.020419412608368416,-0.08159090980895077, ,0.011106032870701426,0.020601854788821438,-0.08170347483405946, ,0.0002143769766609451, ,-0.0008739910313648551,0.0021786868018281494,-0.0002332504615624699,0.02971288725773331,0.010449200614308332,0.0027321968545534004, ,0.002359012988769981, ,0.031496689709695394, ,1.7240808553623117e-05, ,0.1570108820658585,-0.23931976903934332,0.09150122223000001,-4.533706268078901,0.2009922911549629,-1.192312753447255, ,-0.010931709074282099,-0.024622973938368133,0.0006344286826847495,0.0007111638500685014,0.0,-0.0053425295815960686, ,0.5931069850921631
0.011100663348209116,0.020440663266770964,-0.08159503079929949, ,0.011098567434505593,0.020631799137313656,-0.08171211252818149, ,0.00022415495778671464, ,-0.0008545849700854092,0.002139690907594881,-0.0003876337089351544,0.012585832003504995,0.004865812107510939,0.0015952535473741911, ,0.002336418743171461, ,0.013493676099789926, ,1.753899096835324e-05, ,0.1569491002028647,-0.23945105549820514,0.09150511110000001,-4.533706268078901,0.2009922911549629,-1.192312753447255, ,-0.011363493968699092,-0.024208403458793566,0.0006621294702690909,0.000703248970915497,0.0,0.002792604869144515, ,0.6047580242156982
0.011095946508551481,0.020461764875098765,-0.08159916065298062, ,0.011091723713788044,0.020661440305883388,-0.08172130548050179, ,0.00023410994969205097, ,-0.00027125560030499905,0.0021151135323917883,-0.0005246380141329127,-0.04409174379357961,-0.038618996506413567,-0.007369272335356247, ,0.0021960259336986482, ,0.058613213202493936, ,1.7853502304267303e-05, ,0.156786922812506,-0.23979857847754524,0.09151677771000001,-4.533706268078901,0.20030910865613571,-1.1915106277083511, ,-0.010574672447949348,-0.023927620160986075,0.000883197831955611,0.0006827927465054042,-0.059314967315929674,0.0602310181257985, ,0.6179289817810059
0.01108901399969305,0.0204822086937801,-0.0816046382894352, ,0.011085499041020868,0.020690779623941856,-0.08173105090711583, ,0.00024391461159978446, ,-0.0004903784561992469,0.0021117073692385616,-0.0006579271478232179,-0.017804907222294535,-0.015955640253648925,-0.0025099780487982475, ,0.002265534633468135, ,0.023908098567185447, ,1.8182976252937424e-05, ,0.15667880455226685,-0.24002253773089777,0.09152585174000001,-4.533706268078901,0.20017247215637027,-1.1913175310645143, ,-0.01061016377026293,-0.023111773394659224,0.0010256722860407929,0.000670021626750242,-0.03262651124281284,0.036593048014473696, ,0.6298708915710449
0.011075484749253012,0.020528494455612792,-0.08162045450849495, ,0.011079890754057789,0.020719818418236273,-0.08174134603019842, ,0.0002496035052413229, ,-0.0005596594368125092,0.0021192813385873207,-0.0007994548050909722,0.017774025963939153,-0.0037932888749428392,-0.0011086046541613397, ,0.0023882576591882265, ,0.018174296119938777, ,1.8515374816716663e-05, ,0.15648573623041123,-0.24050134716909968,0.09155048125000001,-4.533496578135416,0.20017247215637027,-1.191154173584233, ,-0.009808865848983096,-0.022616048989149373,0.0011844547097634346,0.001023197294236381,-0.01496215030957561,0.002540295999211205, ,0.6428439617156982
0.011070223714434824,0.020548930669887378,-0.0816283871092286, ,0.011074896196129847,0.020748558012852397,-0.08175218807799725, ,0.00023494592572019862, ,-0.000644999206641107,0.0022025712435180993,-0.0007279397730160708,0.03151995106565642,0.008337938859577603,0.0020011743187144946, ,0.002407745911112552, ,0.03260411844548515, ,1.8796276955391818e-05, ,0.15639306343592055,-0.24072530642245218,0.09156214786000001,-4.533496578135416,0.20003583565660482,-1.190961076940396, ,-0.00911688424858657,-0.023396681843804435,0.0011491511373365056,0.0010039091361107818,0.0,-0.008347266652215593, ,0.6545939445495605
0.011065903668747476,0.020566844097828232,-0.08163412715083994, ,0.011070512715841313,0.02077699972921587,-0.0817635742848273, ,0.0002468667519464558, ,-0.0006221918003830212,0.0022344086385889615,-0.0007446450461570186,0.012812999879707842,0.006490885785336203,0.0024085837245492866, ,0.002436021519903104, ,0.014363306172168154, ,1.9098090602665936e-05, ,0.1563158361071783,-0.2409183747443078,0.09157122189000001,-4.533496578135416,0.19989919915683937,-1.1907679802965592, ,-0.009360140364576457,-0.023783694626183155,0.0011689409766957738,0.0009885132005060992,-0.0045648547864487864,0.010306095706485675, ,0.6685688495635986
0.011064087754081763,0.020592850306961192,-0.0816449118480058, ,0.011066737667164659,0.02080514488609514,-0.08177550189106576, ,0.00024925843960718467, ,3.837117420536407e-05,0.0019495799763102697,-0.0009073402437820025,-0.044486394291618186,-0.03587363383026723,-0.006594732473063476, ,0.0021507209835369707, ,0.057148550998750595, ,1.939519035944877e-05, ,0.15621544057981337,-0.24119639312777988,0.09158677737000001,-4.533496578135416,0.19935265315777762,-1.1901589512014923, ,-0.006841420403885287,-0.020683727453895115,0.0012658129051008676,0.0009665462516039378,-0.0524034730102737,0.05839986101396981, ,0.6799540519714355
0.011059848694824211,0.020614706948754172,-0.08165479996514025, ,0.011063568409436203,0.02083299479960363,-0.081787968143147, ,0.00025572873467584283, ,-0.00016801266777609765,0.0022908863959046196,-0.0010035497670031366,-0.021676353714928074,-0.019688114804352917,-0.002661402195078302, ,0.0025066912195813324, ,0.029282864868776733, ,1.9698125718437915e-05, ,0.15615365871681958,-0.24140490691538394,0.09159974027000001,-4.533496578135416,0.19935265315777762,-1.1900772724613518, ,-0.007595920702819161,-0.023629716523523598,0.0014105988232824519,0.0009498153441726857,-0.03527920777227299,0.04239240634593182, ,0.6921889781951904
0.011052413680265005,0.020660054097352432,-0.08167670398480822, ,0.011061002307351384,0.02086055078320209,-0.08180097029355735, ,0.00023603982935525226, ,-0.0001605655445912319,0.0022576076463576887,-0.0012321234257052526,-0.009838053391139986,-0.007466517301175403,0.0011210609855370668, ,0.002576955900898234, ,0.01235055363669309, ,1.9941681423961953e-05, ,0.15601464952508354,-0.24187599362071163,0.09163214752000001,-4.533286888191932,0.19935265315777762,-1.1899139149810707, ,-0.006184530256025729,-0.02274615090087986,0.0016834635550017952,0.00013587478639537153,-0.01817275272785632,0.030121937485154855, ,0.7041459083557129
0.011049382927510613,0.020677797469081403,-0.08168610714668564, ,0.011059036730960408,0.02088781414770047,-0.0818145056008291, ,0.00024634602543102327, ,-0.0002326442394663503,0.002231444637422009,-0.0011546982203093899,-0.005300564754843156,-0.004862127445334978,0.0014923343347460188, ,0.002523251174976837, ,0.007192792921592581, ,2.0202057656799244e-05, ,0.15596059039496396,-0.2420536164768188,0.09164511042000001,-4.533286888191932,0.19935265315777762,-1.18983223624093, ,-0.006598373079100491,-0.02263223027867178,0.0015982223535745477,0.00013587478639537153,-0.01532985591545889,0.02582194738255613, ,0.7172799110412598
0.011047413419408092,0.02070457180482074,-0.0817027435214943, ,0.011057669055664226,0.020914786201260138,-0.08182857132953487, ,0.00024520992602603675, ,-0.0002774087814146752,0.00229903551047522,-0.0013999066676052873,0.008945592968419583,0.00762898490901507,0.004445023223938489, ,0.0027059672186554237, ,0.011756914743811029, ,2.0500128762773383e-05, ,0.15589108579909594,-0.24231618939454244,0.09166714735,-4.533286888191932,0.19921601665801217,-1.189475782116812, ,-0.005962083408255048,-0.022333947177799667,0.0018888697557286433,0.00013587478639537153,0.0,0.013392469847289624, ,0.728532075881958
0.01104879669703759,0.02072979311192663,-0.08171707497632627, ,0.011056896662208793,0.020941468249396883,-0.08184316475028368, ,0.00024651694537182424, ,-0.00019071369073650333,0.0023084860710901526,-0.0012964088533910483,-0.018372873163582118,0.0034639027320804983,0.004792543935369769, ,0.0026544595622089028, ,0.018696552902038623, ,2.0792821115368607e-05, ,0.1558370266689764,-0.24257103957939186,0.09168659170000001,-4.533286888191932,0.19880610715871586,-1.1888148134451604, ,-0.005508747420982714,-0.022933045325875007,0.001772569405146939,0.00013587478639537153,-0.007346472858520251,0.04046209701221917, ,0.7399468421936035
0.011045805992813844,0.02075168436311564,-0.08172675703267147, ,0.011056716936681813,0.020967861594982155,-0.08185828313971422, ,0.000253280005344633, ,-0.00016338292286136383,0.0021386145730040032,-0.0008710406160291761,-0.012583712371812132,0.0015253390465994156,0.00413698308115609, ,0.002314968255963849, ,0.01267582250834545, ,2.1093108682313514e-05, ,0.15578296753885681,-0.24279499883274436,0.09170085089,-4.533286888191932,0.19880610715871586,-1.1886514559648793, ,-0.004379383277525871,-0.0221670034007173,0.0013262240669981765,0.00013587478639537153,-0.007346472858520251,0.03384503493659649, ,0.7500019073486328
0.011043905564592399,0.020772632029151233,-0.08173517834390703, ,0.011057127270507382,0.02099396753824606,-0.08187392378049015, ,0.00026156168921730047, ,-0.00011579556344209,0.0022051377218116584,-0.0009322487378347663,0.01072464832133393,-0.001737423868949386,0.0023552534264536596, ,0.0023968998088914973, ,0.010864470687335927, ,2.1404175588127843e-05, ,0.15574435387448568,-0.24301123535322264,0.09171381379000001,-4.533286888191932,0.19880610715871586,-1.1884064197444575, ,-0.003923586939085034,-0.022729806361310365,0.0014079008390661103,0.00013587478639537153,-0.007346472858520251,0.01084452925853421, ,0.7601220607757568
0.011042734591409755,0.02079103667149421,-0.08174414373411788, ,0.011058125060441756,0.021019787376779387,-0.08189008396129499, ,0.00027177619765902385, ,-3.501498926566514e-05,0.0021766940850790756,-0.0011451961762471109,-0.008728851870004667,-2.4294655339920576e-05,0.003726185115706763, ,0.002459816552424695, ,0.008728885678985169, ,2.1729973642969337e-05, ,0.1557134629429888,-0.24319658094220403,0.09172677669000001,-4.533286888191932,0.19880610715871586,-1.188324741004317, ,-0.0033556117296531353,-0.02177034676725643,0.0016164727532508364,0.00013587478639537153,-0.007346472858520251,0.029552429320822114, ,0.7704248428344727
0.01104175955512873,0.020816463009240276,-0.08175803574002101, ,0.011059707708568239,0.021045322405536235,-0.08190676097682606, ,0.0002735287106458065, ,4.030645623542649e-05,0.0021962796587304385,-0.001379000116538764,0.009201969852958366,-0.0015879376234508077,-0.002109762660980354, ,0.002593628784383238, ,0.009337975961938349, ,2.2050935232180077e-05, ,0.15567484927861766,-0.24344370839417923,0.09174622104,-4.5330771982484475,0.19880610715871586,-1.1879980260437548, ,-0.002909219757689542,-0.02120602045999347,0.0018562171736376384,0.004602724414590302,-0.007346472858520251,0.011540898867024009, ,0.7808499336242676
0.01104247713064909,0.020840459591467735,-0.08177498424922318, ,0.011061872622294439,0.021070573916834673,-0.08192395212778915, ,0.00027480941883365536, ,2.257872314538308e-05,0.002329855782491672,-0.0016555159562396096,-0.014777285817957229,0.0021433320945721647,-0.0008997134316141849, ,0.002858228620546773, ,0.014931913762166836, ,2.236620914244684e-05, ,0.15563623561424655,-0.24366766764753173,0.09176825797,-4.532867508304963,0.1986694706589504,-1.1877232506597772, ,-0.0036790116356009966,-0.02193641737366407,0.0021522512525334416,0.005492379164894152,-0.007682146761661128,0.03659932550352262, ,0.7909789085388184
0.011043368201806021,0.02086456992579889,-0.08179299605928428, ,0.011064617214345278,0.021095543200361534,-0.08194165472089447, ,0.0002754987690858505, ,0.00014881379457470047,0.0023135462422006637,-0.0017814316298816074,0.0017317397323800279,-0.0009249670040592528,-0.0023009407560840847, ,0.0029237203033462647, ,0.0019632846052880454, ,2.2674727732471228e-05, ,0.15561306741562386,-0.24388390416801,0.09179029490000001,-4.532867508304963,0.1986694706589504,-1.187396535699215, ,-0.002441978759316765,-0.021191813657541487,0.0022886223448275868,0.005492379164894152,-0.007347290019043339,0.01938609513994889, ,0.8011479377746582
0.011043260771563685,0.020887425353737197,-0.08180876069971205, ,0.011067938902760312,0.021120231543172382,-0.08195986606884914, ,0.0002786405652103561, ,9.562673874926225e-05,0.0023425871707914124,-0.001639455169753056,-0.01427062098184088,0.002271344083379056,-0.0005703624001517386, ,0.0028608866422055864, ,0.014450246611757677, ,2.2982038505780556e-05, ,0.15558217648412698,-0.24410786342136254,0.09181233183000001,-4.532867508304963,0.1986694706589504,-1.1872331782189338, ,-0.0026387032776495098,-0.022053669895066415,0.0021522512525334416,0.005492379164894152,-0.006429877552757039,0.03638094071778541, ,0.8107759952545166
0.011043860858812043,0.02090329706978121,-0.08182081400541556, ,0.011071835110888177,0.021144640229695363,-0.08197858349035424, ,0.0002896899894618075, ,7.942406827266663e-05,0.002256800655465729,-0.0016461797927568966,-0.008293094792091105,0.002065986959356744,-0.001158690399123678, ,0.002794524161858807, ,0.00854656207692613, ,2.330501245988082e-05, ,0.15556673101837853,-0.2442545953459728,0.09182788731000001,-4.532867508304963,0.1986694706589504,-1.1871514994787935, ,-0.002789286466894927,-0.021046117001213303,0.0021366615050301815,0.005492379164894152,-0.0059101216730471995,0.0294049228390511, ,0.8224239349365234
0.011045520850361878,0.020934100939191014,-0.0818437440739408, ,0.011076303267383056,0.02116877054173219,-0.08199780431009707, ,0.0002824038525215723, ,0.00020327617994971416,0.0022080784225748953,-0.001696649179364565,-0.012376249543203774,0.0017776749267805144,-0.0007856098996604844, ,0.002792051210743499, ,0.012503266808594326, ,2.3604537203078902e-05, ,0.15554356281975584,-0.2445403364623191,0.09185770198000001,-4.532867508304963,0.1986694706589504,-1.1868247845182311, ,-0.0013160111090813943,-0.020272792471367394,0.002191033221458047,0.005492379164894152,-0.005112231178083713,0.03287298459857435, ,0.8328959941864014
0.011047209934045716,0.02095411521936178,-0.08185863199770303, ,0.011081340806198707,0.02119262375846152,-0.08201752585874802, ,0.00028861479299440086, ,0.00021742073363718306,0.0023704813225836853,-0.0016415462950013573,-0.0030685943385032914,0.0009480862466274431,-0.0009737720740308447, ,0.0028915614665377793, ,0.0032117189686239446, ,2.3909490667344314e-05, ,0.15553584008688162,-0.2447256820513005,0.09187714633,-4.532867508304963,0.1986694706589504,-1.1868247845182311, ,-0.0010000429541151164,-0.02225538029044812,0.0021808339978094194,0.005492379164894152,-0.004707754589391385,0.02550049664026196, ,0.8428518772125244
0.011052593834535303,0.020979555019443805,-0.08187748222692852, ,0.011086945166585338,0.021216201156440444,-0.0820377454729538, ,0.00028786405853388985, ,0.0002768931458819159,0.0023115027121643154,-0.0018896305928613587,0.006085412030700884,0.00013724613976572075,-0.0018359855583228238, ,0.002998402638081974, ,0.006086959508834193, ,2.4255109979864165e-05, ,0.15553584008688162,-0.24496508677040144,0.09190177584,-4.532867508304963,0.19839619765941952,-1.1862752337502758, ,-0.0006633946921835014,-0.020833576631936506,0.002414187862988785,0.005492379164894152,-0.0038573407626463388,0.014945933751082474, ,0.8509368896484375
0.01105763945209559,0.021002767556986875,-0.0818982931765096, ,0.011093113793084416,0.021239504009606867,-0.08205846049533212, ,0.0002880210875725697, ,0.0004456052931709702,0.002433558645050211,-0.0021411082617687994,-0.011514609101047511,-0.006334564879834212,-0.0025031329025069085, ,0.003271867409418544, ,0.013142029330425237, ,2.459402367432199e-05, ,0.1555281173540074,-0.24517360055800552,0.09192770164000001,-4.532867508304963,0.19812292465988865,-1.1860523979428832, ,0.0,-0.021587111364529295,0.002694774407037727,0.005492379164894152,-0.012165998774773043,0.0323195942896155, ,0.8594579696655273
0.011063341628204496,0.02102535148914588,-0.08191917251824156, ,0.011099844135523802,0.021262533589282432,-0.08207966827446751, ,0.0002886982324717653, ,0.0006315615255034916,0.002352807482440925,-0.002169436018356248,-0.001852771822237231,-0.02751259434316033,-0.008918121553866884, ,0.003262058498504849, ,0.02757490908178157, ,2.4927480644342422e-05, ,0.1555281173540074,-0.24537439161273536,0.09195362744,-4.532867508304963,0.19784965166035778,-1.185666204655209, ,0.0,-0.020879415084372008,0.0026938629325215634,0.00530719796664606,-0.03259854875664575,0.018938394885151727, ,0.8693280220031738
0.011068981641785932,0.021051953412172655,-0.08194284491269613, ,0.011107133649014517,0.021285291164172996,-0.0821013661649041, ,0.00028465956784504154, ,0.0002040467629145161,0.0024957942868058364,-0.0022717955337327343,0.027818560525955258,0.01809322842816595,0.0048704721220403065, ,0.003381076625957558, ,0.033184894524911725, ,2.524624989658013e-05, ,0.15553584008688162,-0.24560607359896208,0.09198344211000001,-4.5326578183614785,0.19771301516059234,-1.1855547867515128, ,0.00015979587190185208,-0.021474754822011943,0.0028546257204301083,0.003256578622191881,0.018749079036147222,-0.0035355188684485636, ,0.8779408931732178
0.011073416097334466,0.021078080759030882,-0.08196656962550282, ,0.011114979793944203,0.021307778000373735,-0.08212355152714221, ,0.0002813035389018448, ,0.0002747527278780098,0.002511971456671018,-0.002318202380333819,0.022352793813148468,0.014270230005329173,0.00036922922225543866, ,0.0034292203103317384, ,0.026519556097174296, ,2.555211240036503e-05, ,0.15554356281975584,-0.24583003285231458,0.09201325678000001,-4.532448128417994,0.19771301516059234,-1.1854731080113723, ,0.0003244502025669038,-0.02150882628251831,0.002904067733819508,0.006912898911201303,0.013298510123426088,0.0018127639174737812, ,0.8894739151000977
0.011077703642963455,0.021100991381920592,-0.08198978786749628, ,0.01112338003597468,0.02132999536136842,-0.08214622172763204, ,0.00028107064606328595, ,0.0002927703112985906,0.0023407560386792593,-0.0023034275804295484,0.019202123478079383,0.011593095346268536,-0.000638526239820935, ,0.0032970641343587504, ,0.022430367935239857, ,2.585154615829757e-05, ,0.15555128555263006,-0.2460231011741702,0.09204177516,-4.532448128417994,0.19771301516059234,-1.1854731080113723, ,0.00024858635779505484,-0.019639267706637164,0.002845446859592712,0.006912898911201303,0.010298216209289258,0.002706583291537578, ,0.8983309268951416
0.011081720041417326,0.0211255128354104,-0.08201127483100984, ,0.011132331846035909,0.02135194450803366,-0.0821693741387679, ,0.0002807636875511087, ,0.00033155589311035496,0.0025561435477841257,-0.002169152852273675,0.022037877662069456,0.009245063448390546,-0.0007201703721337344, ,0.0033688311390839463, ,0.023898519827911593, ,2.6144594430559892e-05, ,0.15555900828550429,-0.24623933769464848,0.09206899725,-4.532448128417994,0.19771301516059234,-1.1854731080113723, ,0.0007630281936112087,-0.02247145194375344,0.0027721565471632444,0.006912898911201303,0.008414782395741612,0.0024021012880252003, ,0.906559944152832
0.01108498335329314,0.021147811090144866,-0.08203208281338208, ,0.011141832700321949,0.021373626698640576,-0.08219300613888417, ,0.00028305627353680297, ,0.00037768582384257093,0.0025274865827754865,-0.0023977230395585834,0.02446984317729408,0.007702937123462398,-0.001468316510849647, ,0.0035042703637236383, ,0.025653624799823742, ,2.6436420678421967e-05, ,0.15555900828550429,-0.2464324060165041,0.09209492305000001,-4.532448128417994,0.19771301516059234,-1.1853914292712315, ,0.0007630281936112087,-0.021489343650016028,0.002989080788140364,0.006912898911201303,0.007259359462804053,-0.0012007006910258943, ,0.9162330627441406
0.01108498335329314,0.021147811090144866,-0.08203208281338208, ,0.011151880080287124,0.021395043188856214,-0.082217115112248, ,0.0003159680906979889, ,0.00037768582384257093,0.0025274865827754865,-0.0023977230395585834,0.02446984317729408,0.007702937123462398,-0.001468316510849647, ,0.0035042703637236383, ,0.025653624799823742, ,2.6785160692285116e-05, ,0.15555900828550429,-0.2464324060165041,0.09209492305000001,-4.532448128417994,0.19771301516059234,-1.1853914292712315, ,0.0007630281936112087,-0.021489343650016028,0.002989080788140364,0.006912898911201303,0.007259359462804053,-0.0012007006910258943, ,0.9248600006103516
0.011089199794450003,0.021178233400073583,-0.08206258334956669, ,0.011162471472640203,0.021416195231747388,-0.08224169844905613, ,0.000306719401120098, ,0.00045663829793484264,0.002572363224116096,-0.002548026895923684,0.0175746392183698,0.0016345787346517134,-0.002868497578153579, ,0.0036493851748309976, ,0.017650489828563782, ,2.7109960687884124e-05, ,0.15556673101837853,-0.2466872562013535,0.09213251546000001,-4.532448128417994,0.19784965166035778,-1.1854211684347877, ,0.000653584457659354,-0.021656079771444726,0.0031436375606867972,0.006912898911201303,0.0,0.004911712052271997, ,0.9331920146942139
0.01109435706265751,0.021205328831041995,-0.08209133830155964, ,0.011173604369340564,0.021437084077781957,-0.0822667535454282, ,0.000301265892177468, ,0.0005495981491115338,0.002724569581626329,-0.003231665952656018,0.015275945985482048,0.0020580869193369423,-0.002741413104955449, ,0.004262511273907252, ,0.015413962734041907, ,2.7418556756297618e-05, ,0.15557445375125276,-0.246911215454706,0.09216751529000002,-4.532448128417994,0.19784965166035778,-1.1852578109545067, ,0.00048293852928426223,-0.02139245751994382,0.0038503291080493117,0.006912898911201303,0.0,0.006972184730918874, ,0.9425420761108398
0.011101404030137565,0.02123131839872621,-0.08212439732058012, ,0.011185276267594087,0.02145771097483074,-0.08229227780340162, ,0.0002940612304326899, ,0.0006248561972182596,0.0027372229791100973,-0.003480155927171139,-0.010644551284140954,0.0030427395859017577,-0.0013009973103695076, ,0.004471500886950022, ,0.011070895885962575, ,2.7708166436465887e-05, ,0.15558217648412698,-0.24711200650943585,0.09220640399,-4.532448128417994,0.19771301516059234,-1.1848196780902476, ,0.0007051400542642889,-0.020819864317347694,0.004099025095213588,0.006912898911201303,-0.001981302238953284,0.03232428207794912, ,0.9509539604187012
0.011108307930647291,0.021257362276460457,-0.08215610787958394, ,0.011197484669847279,0.021478077168171076,-0.08231826863092674, ,0.0002880341360207759, ,0.0005705153425283183,0.0025426317914695857,-0.002965686930745919,-0.014561524482531306,-0.0004826648944473964,8.396830530443139e-05, ,0.003947880843471493, ,0.014569521626541931, ,2.8032711253819206e-05, ,0.1555898992170012,-0.2473127975641657,0.09224399640000001,-4.53223843847451,0.19757637866082686,-1.1844632239661297, ,0.0006591225331268076,-0.020186543620180977,0.0035444618424566093,0.004607795922714706,-0.005460459535179757,0.03481034518291527, ,0.9575610160827637
0.011108307930647291,0.021257362276460457,-0.08215610787958394, ,0.011210227083784685,0.021498183900487272,-0.08234472344186013, ,0.0003224258034151709, ,0.0005705153425283183,0.0025426317914695857,-0.002965686930745919,-0.014561524482531306,-0.0004826648944473964,8.396830530443139e-05, ,0.003947880843471493, ,0.014569521626541931, ,2.8415065723637194e-05, ,0.1555898992170012,-0.2473127975641657,0.09224399640000001,-4.53223843847451,0.19757637866082686,-1.1844632239661297, ,0.0006591225331268076,-0.020186543620180977,0.0035444618424566093,0.004607795922714706,-0.005460459535179757,0.03481034518291527, ,0.9664280414581299
0.011114753684816488,0.02127959306008528,-0.08218076290866787, ,0.011223501022322746,0.02151803241187423,-0.08237163965596099, ,0.0003242117218014129, ,0.0005531585629590047,0.0025623439873560952,-0.002923869827449351,0.011168001900064655,0.003909821507788408,0.00033428019432729, ,0.00392690792777008, ,0.01183262314319693, ,2.8795122508667634e-05, ,0.15560534468274964,-0.24749042042027286,0.09227381107,-4.532028748531025,0.19743974216106144,-1.184188448582152, ,0.0014354554265485016,-0.020364150549028064,0.0035209574535809023,0.004667170798779242,0.0030962399685008717,0.010194913380221934, ,0.9734909534454346
0.01112412472867809,0.021311525142432605,-0.08221983071058207, ,0.011237304003605605,0.021537623939839715,-0.08239901469888512, ,0.00030989855779956003, ,0.0007277236143347595,0.0026071448141298317,-0.0031701741773545625,0.02765389469570392,0.00021881727095284962,-0.0010790013067282337, ,0.004168547715388442, ,0.027654760395254788, ,2.91440796193574e-05, ,0.15563623561424655,-0.24772210240649958,0.09231788493000001,-4.532028748531025,0.19743974216106144,-1.1841067698420116, ,0.0031097031805347856,-0.020054298723260942,0.0038079874539803976,0.004667170798779242,0.0030962399685008717,-0.0065716350277467, ,0.9811549186706543
0.011130923019052037,0.021334851819837634,-0.08224661981294834, ,0.011251633551001203,0.02155695971930547,-0.08242684600217878, ,0.0003104584204269429, ,0.0008152309495331523,0.00249367545830103,-0.0029266239902682907,0.026278362802630063,-0.0011831770558483172,-0.0011164227186432145, ,0.003930413053716297, ,0.02630498544606014, ,2.948906556588678e-05, ,0.15567484927861766,-0.24792289346122942,0.09235288476,-4.532028748531025,0.19743974216106144,-1.1841067698420116, ,0.004546798005204728,-0.01944211054260823,0.0035413098088039135,0.004667170798779242,0.0030962399685008717,-0.006002007563451621, ,0.9881720542907715
0.011130923019052037,0.021334851819837634,-0.08224661981294834, ,0.011266487193095724,0.021576040982610956,-0.08245513100327473, ,0.00034644880432001815, ,0.0008152309495331523,0.00249367545830103,-0.0029266239902682907,0.026278362802630063,-0.0011831770558483172,-0.0011164227186432145, ,0.003930413053716297, ,0.02630498544606014, ,2.9892762636657934e-05, ,0.15567484927861766,-0.24792289346122942,0.09235288476,-4.532028748531025,0.19743974216106144,-1.1841067698420116, ,0.004546798005204728,-0.01944211054260823,0.0035413098088039135,0.004667170798779242,0.0030962399685008717,-0.006002007563451621, ,0.9947140216827393
0.01114096693185755,0.021361058852053246,-0.08228167152914684, ,0.011281862463690449,0.02159486895951404,-0.08248386714548527, ,0.000339708381568339, ,0.0009924276853139086,0.002545547113803376,-0.0036856875936556914,0.028259845288796995,-0.0023159229145778715,-0.0016667064360020112, ,0.004587920646349248, ,0.02835458259281694, ,3.0278968480555667e-05, ,0.15572890840873724,-0.24811596178308504,0.09239436604000001,-4.532028748531025,0.19743974216106144,-1.184025091101871, ,0.005233326386851186,-0.017787617911615893,0.004306248045417681,0.004667170798779242,0.0030962399685008717,-0.009657532758326036, ,1.0022809505462646
0.011152117587761119,0.02138730621269486,-0.08232331172804908, ,0.01129775690179564,0.021613444877194857,-0.08251305187799884, ,0.0003291668723873184, ,0.0012452284409993457,0.0028607886504336136,-0.004634904969719614,0.012130152634130377,-0.0006049761898361354,-0.003210950242807587, ,0.00558722199765277, ,0.012145229391765367, ,3.064142666603493e-05, ,0.15578296753885681,-0.248285861906318,0.09244232877000001,-4.531819058587541,0.19743974216106144,-1.1839434123617303, ,0.006449399248379374,-0.01847322202812357,0.0053291440347942465,0.007869507127122841,0.0030962399685008717,0.007820847638313515, ,1.0092930793762207
0.011152117587761119,0.02138730621269486,-0.08232331172804908, ,0.011314168051627528,0.021631769960256324,-0.08254268265587286, ,0.0003662601270755291, ,0.0012452284409993457,0.0028607886504336136,-0.004634904969719614,0.012130152634130377,-0.0006049761898361354,-0.003210950242807587, ,0.00558722199765277, ,0.012145229391765367, ,3.106304331034529e-05, ,0.15582158120322792,-0.2483862574336829,0.09247084715000001,-4.531819058587541,0.19743974216106144,-1.1839434123617303, ,0.007256819622991426,-0.018520090077765568,0.005417963102040817,0.007869507127122841,0.0030962399685008717,0.007245182686394192, ,1.0161428451538086
0.0111592531730781,0.021402655687015278,-0.08234806766170658, ,0.01133109346260224,0.021649845430728287,-0.08257275694002936, ,0.0003756555953181799, ,0.0013252002663997494,0.0028875067437384187,-0.004709468550555244,0.012745915978248215,-0.001482392597662468,-0.003249196709879806, ,0.005680928178552315, ,0.012831829940484816, ,3.1495007953088935e-05, ,0.15582158120322792,-0.2483862574336829,0.09247084715000001,-4.531819058587541,0.19743974216106144,-1.1839434123617303, ,0.007256819622991426,-0.018520090077765568,0.005417963102040817,0.007869507127122841,0.0030962399685008717,0.007245182686394192, ,1.0235249996185303
0.011180967439098981,0.02144648628298838,-0.08242421524821335, ,0.011348530689333218,0.021667672508067577,-0.082603272197249, ,0.0003302456358406614, ,0.0014911226930089693,0.0029231009030878255,-0.005369443455321364,0.0080628491361221,-0.0021355524063553684,-0.0028474834136799684, ,0.006292764797379019, ,0.00834087020693614, ,3.184358406917819e-05, ,0.1559374221963413,-0.24865655308428075,0.09255769858000001,-4.531819058587541,0.19743974216106144,-1.1837800548814492, ,0.007960040342403604,-0.016961026194543483,0.006082020435280642,0.007397800278648768,0.0028743452153791108,0.010319458149350577, ,1.0299930572509766
0.011196876829937093,0.02147369538936887,-0.08247575531786819, ,0.011366477291624112,0.02168525240916298,-0.08263422590016728, ,0.0003140598902802267, ,0.0017699507738025886,0.0028484412539237104,-0.005317406407554501,0.012071020329334601,-0.0064446543746926425,-0.003008785624617004, ,0.006286585259251682, ,0.013683679971022938, ,3.216000026240449e-05, ,0.15603009499083198,-0.24881100774176526,0.09261603163000001,-4.531819058587541,0.19743974216106144,-1.1836166974011681, ,0.0113333974573578,-0.016149921980679167,0.006049681549563237,0.006953558032714167,0.002643863606458902,0.005357420645861904, ,1.03678297996521
0.011196876829937093,0.02147369538936887,-0.08247575531786819, ,0.011384930834467287,0.0217025863483343,-0.08266561552726609, ,0.0003518554800320297, ,0.0017699507738025886,0.0028484412539237104,-0.005317406407554501,0.012071020329334601,-0.0064446543746926425,-0.003008785624617004, ,0.006286585259251682, ,0.013683679971022938, ,3.2590650311721206e-05, ,0.15603009499083198,-0.24881100774176526,0.09261603163000001,-4.531819058587541,0.19743974216106144,-1.1836166974011681, ,0.0113333974573578,-0.016149921980679167,0.006049681549563237,0.006953558032714167,0.002643863606458902,0.005357420645861904, ,1.0417108535766602
0.011213945395447403,0.021501754260434883,-0.08252533482750367, ,0.011403888888035769,0.02171967553733835,-0.08269743856287301, ,0.0003364341080092579, ,0.0017699507738025886,0.0028484412539237104,-0.005317406407554501,0.012071020329334601,-0.0064446543746926425,-0.003008785624617004, ,0.006286585259251682, ,0.013683679971022938, ,3.299109017258378e-05, ,0.15615365871681958,-0.24897318513212396,0.09267306839000002,-4.531609368644055,0.19757637866082686,-1.1835647578245834, ,0.01231787922617741,-0.016336192383968114,0.005748398238902924,0.0019503790684905352,0.0040062323754350045,0.013146776858303613, ,1.0468988418579102
0.011213945395447403,0.021501754260434883,-0.08252533482750367, ,0.011423349027682642,0.0217365211853668,-0.08272969249714997, ,0.0003751365716356712, ,0.0017927778357485868,0.002784500852257143,-0.0050143650693622805,0.003987473573970205,-0.00640744869649599,0.002807295207492049, ,0.006009272369714384, ,0.007546876249892359, ,3.3452130742062776e-05, ,0.15615365871681958,-0.24897318513212396,0.09267306839000002,-4.531609368644055,0.19757637866082686,-1.1835647578245834, ,0.01231787922617741,-0.016336192383968114,0.005748398238902924,0.0019503790684905352,0.0040062323754350045,0.013146776858303613, ,1.0519979000091553
0.011233921881463545,0.021530317568857222,-0.08257731316755387, ,0.011443308833933175,0.02175312449905251,-0.08276237482609401, ,0.0003573984351801138, ,0.002067338596016976,0.002729669741662621,-0.005365484763013507,-0.009436043635626728,-0.004973853115491313,-0.005985730152378985, ,0.006365014729854129, ,0.010666683170562566, ,3.387911087985999e-05, ,0.15629266790855562,-0.2491353625224827,0.09273269773000001,-4.531399678700571,0.19757637866082686,-1.1833197216041618, ,0.014850851574095584,-0.014391407576352863,0.0061076731288343565,0.011900334288412449,0.003901832924718346,0.026278624105544213, ,1.0570008754730225
0.011233921881463545,0.021530317568857222,-0.08257731316755387, ,0.011463765892481948,0.02176948668246945,-0.08279548305152767, ,0.0003970242216543325, ,0.002067338596016976,0.002729669741662621,-0.005365484763013507,-0.009436043635626728,-0.004973853115491313,-0.005985730152378985, ,0.006365014729854129, ,0.010666683170562566, ,3.4367353671619915e-05, ,0.15629266790855562,-0.2491353625224827,0.09273269773000001,-4.531399678700571,0.19757637866082686,-1.1833197216041618, ,0.014850851574095584,-0.014391407576352863,0.0061076731288343565,0.011900334288412449,0.003901832924718346,0.026278624105544213, ,1.0618150234222412
0.01125763844556607,0.021559173083049204,-0.08263680731983655, ,0.011484717794188084,0.021785608937135565,-0.08282901468109519, ,0.00037387417175892827, ,0.0024350893548618457,0.003002993071833263,-0.00613757690004515,-0.0055316974563092754,-0.00858238412715144,-0.005992514000395667, ,0.007253790578698001, ,0.010210630996407117, ,3.4812702537975296e-05, ,0.15646256803178857,-0.24928209444709296,0.09280010481,-4.531399678700571,0.19757637866082686,-1.1831563641238807, ,0.017711261955668304,-0.015120608916263666,0.0069649372627896815,0.011664319607982294,0.0036014765239596345,0.022981988947401416, ,1.066969871520996
0.01125763844556607,0.021559173083049204,-0.08263680731983655, ,0.011506162135070632,0.021801492462014817,-0.08286296722825746, ,0.00041428373108800143, ,0.0024350893548618457,0.003002993071833263,-0.00613757690004515,-0.0055316974563092754,-0.00858238412715144,-0.005992514000395667, ,0.007253790578698001, ,0.010210630996407117, ,3.5319814851353485e-05, ,0.15646256803178857,-0.24928209444709296,0.09280010481,-4.531399678700571,0.19757637866082686,-1.1831563641238807, ,0.017711261955668304,-0.015120608916263666,0.0069649372627896815,0.011664319607982294,0.0036014765239596345,0.022981988947401416, ,1.0720279216766357
0.01128200977238113,0.02158915968279947,-0.08269973721468842, ,0.011528096516303868,0.021817138453520124,-0.0828973382122857, ,0.00038933168338222763, ,0.002618753019652445,0.003046456746654748,-0.006615390402787892,0.002016495111434989,-0.011918556922816216,-0.006254156712238801, ,0.007739648329767651, ,0.01208793774747491, ,3.5781333155633894e-05, ,0.15664791362076996,-0.24942882637170322,0.09287140076000001,-4.531399678700571,0.19771301516059234,-1.183104424547296, ,0.018869942644356888,-0.014191257897184204,0.007457308764044945,0.010788574806414127,0.0026782187293604982,0.014159890865499385, ,1.0771338939666748
0.01128200977238113,0.02158915968279947,-0.08269973721468842, ,0.011550518544212974,0.02183254810551456,-0.08293212515825724, ,0.00043051021030694454, ,0.002618753019652445,0.003046456746654748,-0.006615390402787892,0.002016495111434989,-0.011918556922816216,-0.006254156712238801, ,0.007739648329767651, ,0.01208793774747491, ,3.6305103351484853e-05, ,0.15664791362076996,-0.24942882637170322,0.09287140076000001,-4.531399678700571,0.19771301516059234,-1.183104424547296, ,0.018869942644356888,-0.014191257897184204,0.007457308764044945,0.010788574806414127,0.0026782187293604982,0.014159890865499385, ,1.0822110176086426
0.011310780693323638,0.021619644708318526,-0.08277026595397285, ,0.01157342583026961,0.021847722609314408,-0.08296732559704904, ,0.0003997930712423254, ,0.002912396688334296,0.0030975310153250925,-0.00724670550621619,0.02490007856807469,-0.017536112427447514,-0.00775720962120376, ,0.008401874407234704, ,0.030455362939545177, ,3.677426103082013e-05, ,0.15685642740837402,-0.24956011283056503,0.09295047445000001,-4.531399678700571,0.19771301516059234,-1.1828593883268743, ,0.021111666642596394,-0.012853439192532953,0.008114524462557312,0.010024275987664947,0.0024969848482583093,-0.010450616947371028, ,1.0872008800506592
0.011310780693323638,0.021619644708318526,-0.08277026595397285, ,0.011596815991086832,0.021862663153691307,-0.08300293706533336, ,0.0004415993686811802, ,0.002912396688334296,0.0030975310153250925,-0.00724670550621619,0.02490007856807469,-0.017536112427447514,-0.00775720962120376, ,0.008401874407234704, ,0.030455362939545177, ,3.730600514894006e-05, ,0.15685642740837402,-0.24956011283056503,0.09295047445000001,-4.531399678700571,0.19771301516059234,-1.1828593883268743, ,0.021111666642596394,-0.012853439192532953,0.008114524462557312,0.010024275987664947,0.0024969848482583093,-0.010450616947371028, ,1.0920419692993164
0.011339854836433249,0.02165129492641366,-0.08284561948059846, ,0.011620686648415533,0.02187737092487397,-0.08303895710557126, ,0.0004090920445709023, ,0.0031228510808522813,0.0031038915704828182,-0.007656725052092669,0.001734177835828259,-0.019271613343360597,0.0009921386576504452, ,0.00883242776805098, ,0.019349481318799013, ,3.778072404530441e-05, ,0.1570726639288523,-0.24968367655655263,0.0930347333,-4.531189988757087,0.19784965166035778,-1.182725770010149, ,0.022735251930635067,-0.011828111873173473,0.008536340578778135,0.0022607665531859974,0.0016786260443930284,0.010640979730781748, ,1.09688401222229
0.011339854836433249,0.02165129492641366,-0.08284561948059846, ,0.011645035429138487,0.0218918471065514,-0.08307538326600876, ,0.00045143320947733804, ,0.0031228510808522813,0.0031038915704828182,-0.007656725052092669,0.001734177835828259,-0.019271613343360597,0.0009921386576504452, ,0.00883242776805098, ,0.019349481318799013, ,3.837924595834061e-05, ,0.1570726639288523,-0.24968367655655263,0.0930347333,-4.531189988757087,0.19784965166035778,-1.182725770010149, ,0.022735251930635067,-0.011828111873173473,0.008536340578778135,0.0022607665531859974,0.0016786260443930284,0.010640979730781748, ,1.100147008895874
0.011339854836433249,0.02165129492641366,-0.08284561948059846, ,0.011669859965267568,0.02190609287987357,-0.08311221310066993, ,0.0004948712361888982, ,0.0031228510808522813,0.0031038915704828182,-0.007656725052092669,0.001734177835828259,-0.019271613343360597,0.0009921386576504452, ,0.00883242776805098, ,0.019349481318799013, ,3.9042916980994924e-05, ,0.1570726639288523,-0.24968367655655263,0.0930347333,-4.531189988757087,0.19784965166035778,-1.182725770010149, ,0.022735251930635067,-0.011828111873173473,0.008536340578778135,0.0022607665531859974,0.0016786260443930284,0.010640979730781748, ,1.103410005569458
0.011339854836433249,0.02165129492641366,-0.08284561948059846, ,0.011695157893937528,0.02192010942345591,-0.08314944416935267, ,0.0005392688921016695, ,0.003487997629991676,0.003250587292723319,-0.007854713880334388,-0.008958960495863802,-0.016967561450318185,-0.007810984414593515, ,0.00918852411197574, ,0.019187524197720334, ,3.977263700969695e-05, ,0.15731206864795327,-0.24979179481679176,0.09311899215000001,-4.530980298813603,0.1979862881601232,-1.1828371879138455, ,0.026807045637986096,-0.012483154638051932,0.008815058948533483,0.013286624232606332,0.00377383781633529,0.0240943991733789, ,1.1074059009552002
0.011370934819617595,0.021681672871852048,-0.08292102486160588, ,0.011720926857402723,0.02193389791337929,-0.08318707403762277, ,0.0005068471782950647, ,0.003487997629991676,0.003250587292723319,-0.007854713880334388,-0.008958960495863802,-0.016967561450318185,-0.007810984414593515, ,0.00918852411197574, ,0.019187524197720334, ,4.044661477669327e-05, ,0.15731206864795327,-0.24979179481679176,0.09311899215000001,-4.530980298813603,0.1979862881601232,-1.1828371879138455, ,0.026807045637986096,-0.012483154638051932,0.008815058948533483,0.013286624232606332,0.00377383781633529,0.0240943991733789, ,1.110795021057129
0.011370934819617595,0.021681672871852048,-0.08292102486160588, ,0.011747164503031572,0.021947459523194022,-0.0832251002768088, ,0.0005519539626129939, ,0.003487997629991676,0.003250587292723319,-0.007854713880334388,-0.008958960495863802,-0.016967561450318185,-0.007810984414593515, ,0.00918852411197574, ,0.019187524197720334, ,4.118727630666121e-05, ,0.15731206864795327,-0.24979179481679176,0.09311899215000001,-4.530980298813603,0.1979862881601232,-1.1828371879138455, ,0.026807045637986096,-0.012483154638051932,0.008815058948533483,0.013286624232606332,0.00377383781633529,0.0240943991733789, ,1.1144108772277832
0.01139040155460228,0.02169982191004255,-0.08296473007025565, ,0.011773868483303307,0.021960795423920636,-0.08326352046399652, ,0.0005517515380541284, ,0.0037888813214041555,0.003214027533292941,-0.007675860402845922,0.002351651884225244,-0.016377187536179914,-0.006867405325959494, ,0.00914354567858817, ,0.016545165805563374, ,4.1922976910800406e-05, ,0.15747424603831198,-0.24986129941265978,0.09316825117000001,-4.530980298813603,0.19812292465988865,-1.1828669270774013, ,0.0313708897713953,-0.012325263974999594,0.008685284362050164,0.013286624232606332,0.010551446502605808,0.013463321753715767, ,1.118035078048706
0.01139040155460228,0.02169982191004255,-0.08296473007025565, ,0.011801036455801973,0.021973906784053466,-0.0833023321820238, ,0.0005980959171530771, ,0.0037888813214041555,0.003214027533292941,-0.007675860402845922,0.002351651884225244,-0.016377187536179914,-0.006867405325959494, ,0.00914354567858817, ,0.016545165805563374, ,4.2726492478505835e-05, ,0.15747424603831198,-0.24986129941265978,0.09316825117000001,-4.530980298813603,0.19812292465988865,-1.1828669270774013, ,0.0313708897713953,-0.012325263974999594,0.008685284362050164,0.013286624232606332,0.010551446502605808,0.013463321753715767, ,1.1215178966522217
0.01139040155460228,0.02169982191004255,-0.08296473007025565, ,0.011828666083212713,0.02198679476956223,-0.08334153301947521, ,0.0006452981339501804, ,0.0037888813214041555,0.003214027533292941,-0.007675860402845922,0.002351651884225244,-0.016377187536179914,-0.006867405325959494, ,0.00914354567858817, ,0.016545165805563374, ,4.3598525420862795e-05, ,0.15747424603831198,-0.24986129941265978,0.09316825117000001,-4.530980298813603,0.19812292465988865,-1.1828669270774013, ,0.0313708897713953,-0.012325263974999594,0.008685284362050164,0.013286624232606332,0.010551446502605808,0.013463321753715767, ,1.1249098777770996
0.011447637374637509,0.021745975317655278,-0.08307518466812235, ,0.011856755033317328,0.02199946054389417,-0.08338112057067674, ,0.0005702883437672695, ,0.003783318655795586,0.0030653010729743907,-0.0075356321259050715,0.02582550337653083,0.007340877327714173,-0.0015309295981664113, ,0.00897191853820806, ,0.02684855825351133, ,4.434866718006395e-05, ,0.1579839464080108,-0.2500311995358927,0.0932939913,-4.530770608870118,0.19853283415918496,-1.1828744658279282, ,0.034697236401634655,-0.010443322735439785,0.008563877161290324,0.014301023383547178,0.041380945926067995,-0.0076178573324956235, ,1.1285898685455322
0.011447637374637509,0.021745975317655278,-0.08307518466812235, ,0.011885300978989355,0.02201190526797648,-0.0834210924356899, ,0.0006179970491156551, ,0.003783318655795586,0.0030653010729743907,-0.0075356321259050715,0.02582550337653083,0.007340877327714173,-0.0015309295981664113, ,0.00897191853820806, ,0.02684855825351133, ,4.5168016583710274e-05, ,0.1579839464080108,-0.2500311995358927,0.0932939913,-4.530770608870118,0.19853283415918496,-1.1828744658279282, ,0.034697236401634655,-0.010443322735439785,0.008563877161290324,0.014301023383547178,0.041380945926067995,-0.0076178573324956235, ,1.132040023803711
0.011447637374637509,0.021745975317655278,-0.08307518466812235, ,0.011914301598189785,0.022024130100218677,-0.08346144622030732, ,0.0006665910045169286, ,0.003783318655795586,0.0030653010729743907,-0.0075356321259050715,0.02582550337653083,0.007340877327714173,-0.0015309295981664113, ,0.00897191853820806, ,0.02684855825351133, ,4.6057298946903964e-05, ,0.1579839464080108,-0.2500311995358927,0.0932939913,-4.530770608870118,0.19853283415918496,-1.1828744658279282, ,0.034697236401634655,-0.010443322735439785,0.008563877161290324,0.014301023383547178,0.041380945926067995,-0.0076178573324956235, ,1.1356699466705322
0.011492768669059288,0.021779748891214475,-0.08316191537062426, ,0.011943754573962465,0.022036136196514598,-0.08350217953604616, ,0.0006204050604328286, ,0.0052464452569485134,0.0037294670151312628,-0.010045307865478185,-0.006961167435077356,-0.0005544178019057521,0.008404793210772015, ,0.01193073016052863, ,0.006983203338886599, ,4.68700535046563e-05, ,0.15840869671609314,-0.25013159506325766,0.09339250934000001,-4.530560918926633,0.19907938015824675,-1.1829934224821517, ,0.04742475840003537,-0.010260372900152631,0.011337232398576515,0.007375148499918381,0.04409235211204282,0.024667445137428263, ,1.1389658451080322
0.011492768669059288,0.021779748891214475,-0.08316191537062426, ,0.011973657594429126,0.02204792471024522,-0.08354329000014439, ,0.0006697902929259192, ,0.0052464452569485134,0.0037294670151312628,-0.010045307865478185,-0.006961167435077356,-0.0005544178019057521,0.008404793210772015, ,0.01193073016052863, ,0.006983203338886599, ,4.775356605974312e-05, ,0.15840869671609314,-0.25013159506325766,0.09339250934000001,-4.530560918926633,0.19907938015824675,-1.1829934224821517, ,0.04742475840003537,-0.010260372900152631,0.011337232398576515,0.007375148499918381,0.04409235211204282,0.024667445137428263, ,1.1423389911651611
0.011492768669059288,0.021779748891214475,-0.08316191537062426, ,0.012004008352785794,0.022059496792280024,-0.08358477523555384, ,0.0007200245605086149, ,0.0052464452569485134,0.0037294670151312628,-0.010045307865478185,-0.006961167435077356,-0.0005544178019057521,0.008404793210772015, ,0.01193073016052863, ,0.006983203338886599, ,4.8708485675017024e-05, ,0.15840869671609314,-0.25013159506325766,0.09339250934000001,-4.530560918926633,0.19907938015824675,-1.1829934224821517, ,0.04742475840003537,-0.010260372900152631,0.011337232398576515,0.007375148499918381,0.04409235211204282,0.024667445137428263, ,1.1456739902496338
0.011545442150529375,0.02181999483594336,-0.08327427471505269, ,0.012034804547297745,0.022070853590979482,-0.08362663287093522, ,0.0006531170954477398, ,0.005538520366077186,0.004267632483346311,-0.012370802677052468,0.040086636239519476,0.024535885173735977,-0.0030169119577593798, ,0.014210019483904057, ,0.04699944442789752, ,4.955558952272694e-05, ,0.15887206068854662,-0.2502242678577483,0.09351824947000001,-4.530141539039664,0.19962592615730848,-1.1828673429159535, ,0.04937405908349156,-0.008675350235826985,0.013791178805194806,0.023819316005916014,0.07366728926799782,-0.017717069476529616, ,1.1492478847503662
0.011545442150529375,0.02181999483594336,-0.08327427471505269, ,0.012066043881294116,0.02208199625219857,-0.08366886054065427, ,0.0007038244653041399, ,0.005538520366077186,0.004267632483346311,-0.012370802677052468,0.040086636239519476,0.024535885173735977,-0.0030169119577593798, ,0.014210019483904057, ,0.04699944442789752, ,5.0474606675095765e-05, ,0.15887206068854662,-0.2502242678577483,0.09351824947000001,-4.530141539039664,0.19962592615730848,-1.1828673429159535, ,0.04937405908349156,-0.008675350235826985,0.013791178805194806,0.023819316005916014,0.07366728926799782,-0.017717069476529616, ,1.152946949005127
0.011545442150529375,0.02181999483594336,-0.08327427471505269, ,0.012097724063165005,0.022092925919287073,-0.08371145588477433, ,0.0007554032449220879, ,0.005538520366077186,0.004267632483346311,-0.012370802677052468,0.040086636239519476,0.024535885173735977,-0.0030169119577593798, ,0.014210019483904057, ,0.04699944442789752, ,5.1466203692628945e-05, ,0.15887206068854662,-0.2502242678577483,0.09351824947000001,-4.530141539039664,0.19962592615730848,-1.1828673429159535, ,0.04937405908349156,-0.008675350235826985,0.013791178805194806,0.023819316005916014,0.07366728926799782,-0.017717069476529616, ,1.1562299728393555
0.011610706116295184,0.021868319821100473,-0.08341337452192284, ,0.01212984280635649,0.022103643733092333,-0.08375441654905136, ,0.0006642212814950246, ,0.006658771214802427,0.004702949529540404,-0.01375624412202075,0.041547303841379085,0.029400835485110403,-0.038885120881893, ,0.015990347735841022, ,0.050897810278093196, ,5.2314072082522854e-05, ,0.1594589883869877,-0.25031694065223903,0.09367380427000001,-4.529512469209211,0.20044574515590113,-1.182964099157148, ,0.06013747880764941,-0.008225121052228052,0.015390156057971019,0.06324184485402375,0.07918372981595373,-0.012681452751139272, ,1.1604249477386475
0.011610706116295184,0.021868319821100473,-0.08341337452192284, ,0.012162397829364312,0.022114150831963393,-0.08379774018493041, ,0.000715914516594187, ,0.006658771214802427,0.004702949529540404,-0.01375624412202075,0.041547303841379085,0.029400835485110403,-0.038885120881893, ,0.015990347735841022, ,0.050897810278093196, ,5.331497773035342e-05, ,0.1594589883869877,-0.25031694065223903,0.09367380427000001,-4.529512469209211,0.20044574515590113,-1.182964099157148, ,0.06013747880764941,-0.008225121052228052,0.015390156057971019,0.06324184485402375,0.07918372981595373,-0.012681452751139272, ,1.1621298789978027
0.011610706116295184,0.021868319821100473,-0.08341337452192284, ,0.012195386855731767,0.022124448351750692,-0.08384142444953789, ,0.0007685571753697989, ,0.006658771214802427,0.004702949529540404,-0.01375624412202075,0.041547303841379085,0.029400835485110403,-0.038885120881893, ,0.015990347735841022, ,0.050897810278093196, ,5.439214971475017e-05, ,0.1594589883869877,-0.25031694065223903,0.09367380427000001,-4.529512469209211,0.20044574515590113,-1.182964099157148, ,0.06013747880764941,-0.008225121052228052,0.015390156057971019,0.06324184485402375,0.07918372981595373,-0.012681452751139272, ,1.1638288497924805
0.011610706116295184,0.021868319821100473,-0.08341337452192284, ,0.01222880761404433,0.022134537425809158,-0.08388546700567752, ,0.0008220660483162125, ,0.006658771214802427,0.004702949529540404,-0.01375624412202075,0.041547303841379085,0.029400835485110403,-0.038885120881893, ,0.015990347735841022, ,0.050897810278093196, ,5.554654655475238e-05, ,0.1594589883869877,-0.25031694065223903,0.09367380427000001,-4.529512469209211,0.20044574515590113,-1.182964099157148, ,0.06013747880764941,-0.008225121052228052,0.015390156057971019,0.06324184485402375,0.07918372981595373,-0.012681452751139272, ,1.165653944015503
0.011610706116295184,0.021868319821100473,-0.08341337452192284, ,0.012262657837924126,0.02214441918500184,-0.08392986552182514, ,0.000876375980422653, ,0.006771245127706656,0.004843458373235039,-0.014871459362295265,0.0686950542169312,0.040493107653091304,-0.030143651665607174, ,0.015990347735841022, ,0.05089780797165401, ,5.677902318218165e-05, ,0.15976017496908243,-0.2503478315837359,0.09375287796000001,-4.529512469209211,0.2009922911549629,-1.183164734551512, ,0.06114493657117962,-0.0063928737067907365,0.016540821931464174,0.05652918388649702,0.09721435556662215,-0.04042701610135541, ,1.1681818962097168
0.01164298921158203,0.021891123900425104,-0.08348443694427865, ,0.012296935266026878,0.0221540947576998,-0.08397461767212233, ,0.000858531455363828, ,0.006771245127706656,0.004843458373235039,-0.014871459362295265,0.0686950542169312,0.040493107653091304,-0.030143651665607174, ,0.01704315561030736, ,0.07974146671513464, ,5.798105081663689e-05, ,0.15976017496908243,-0.2503478315837359,0.09375287796000001,-4.529512469209211,0.2009922911549629,-1.183164734551512, ,0.06114493657117962,-0.0063928737067907365,0.016540821931464174,0.05652918388649702,0.09721435556662215,-0.04042701610135541, ,1.1701149940490723
0.01164298921158203,0.021891123900425104,-0.08348443694427865, ,0.012331637642036576,0.022163565269786068,-0.08401972113637203, ,0.000913777941740688, ,0.006771245127706656,0.004843458373235039,-0.014871459362295265,0.0686950542169312,0.040493107653091304,-0.030143651665607174, ,0.01704315561030736, ,0.07974146671513464, ,5.926218388688248e-05, ,0.15976017496908243,-0.2503478315837359,0.09375287796000001,-4.529512469209211,0.2009922911549629,-1.183164734551512, ,0.06114493657117962,-0.0063928737067907365,0.016540821931464174,0.05652918388649702,0.09721435556662215,-0.04042701610135541, ,1.1720199584960938
0.01164298921158203,0.021891123900425104,-0.08348443694427865, ,0.012366762714660681,0.022172831844657792,-0.0840651736000328, ,0.000969774464986089, ,0.006771245127706656,0.004843458373235039,-0.014871459362295265,0.0686950542169312,0.040493107653091304,-0.030143651665607174, ,0.01704315561030736, ,0.07974146671513464, ,0.00033243371558543925, ,0.15976017496908243,-0.2503478315837359,0.09375287796000001,-4.529512469209211,0.2009922911549629,-1.183164734551512, ,0.06114493657117962,-0.0063928737067907365,0.016540821931464174,0.05652918388649702,0.09721435556662215,-0.04042701610135541, ,1.1737730503082275
0.01164298921158203,0.021891123900425104,-0.08348443694427865, ,0.012402308237626357,0.022181895603227503,-0.08411097275421352, ,0.0010264797550825098, ,0.006771245127706656,0.004843458373235039,-0.014871459362295265,0.0686950542169312,0.040493107653091304,-0.030143651665607174, ,0.01704315561030736, ,0.07974146671513464, ,0.00033807636631305767, ,0.15976017496908243,-0.2503478315837359,0.09375287796000001,-4.529512469209211,0.2009922911549629,-1.183164734551512, ,0.06114493657117962,-0.0063928737067907365,0.016540821931464174,0.05652918388649702,0.09721435556662215,-0.04042701610135541, ,1.1754369735717773
0.01164298921158203,0.021891123900425104,-0.08348443694427865, ,0.012438271969675585,0.022190757663926034,-0.08415711629566741, ,0.001083860031247313, ,0.006771245127706656,0.004843458373235039,-0.014871459362295265,0.0686950542169312,0.040493107653091304,-0.030143651665607174, ,0.01704315561030736, ,0.07974146671513464, ,0.0003440907507076888, ,0.15976017496908243,-0.2503478315837359,0.09375287796000001,-4.529512469209211,0.2009922911549629,-1.183164734551512, ,0.06114493657117962,-0.0063928737067907365,0.016540821931464174,0.05652918388649702,0.09721435556662215,-0.04042701610135541, ,1.177116870880127
0.011759222274296832,0.02196728583003701,-0.08372709077540193, ,0.01247465167456061,0.02219941914270467,-0.08420360192678812, ,0.0008903864211718682, ,0.008101749542727073,0.004906353896625354,-0.015193061933499471,0.03184315885929175,0.006572762387072354,-0.0071946569642005005, ,0.017903624915842038, ,0.03251441468052202, ,0.0003484611160714022, ,0.16080274390710275,-0.2504405043782266,0.09402250628000001,-4.529512469209211,0.2023586561526173,-1.1832987687067895, ,0.07379233402680464,-0.0065050126192268505,0.01701796102564103,0.029732619883498346,0.07791010001538876,-0.009973114971100386, ,1.1790499687194824
0.011759222274296832,0.02196728583003701,-0.08372709077540193, ,0.01251144512103889,0.02220788115303796,-0.084250427355603, ,0.0009474209712620917, ,0.008101749542727073,0.004906353896625354,-0.015193061933499471,0.03184315885929175,0.006572762387072354,-0.0071946569642005005, ,0.017903624915842038, ,0.03251441468052202, ,0.00035321476571577277, ,0.16080274390710275,-0.2504405043782266,0.09402250628000001,-4.529512469209211,0.2023586561526173,-1.1832987687067895, ,0.07379233402680464,-0.0065050126192268505,0.01701796102564103,0.029732619883498346,0.07791010001538876,-0.009973114971100386, ,1.1808009147644043
0.011759222274296832,0.02196728583003701,-0.08372709077540193, ,0.012548650082869662,0.022216144805924674,-0.08429759029576842, ,0.0010052844162555946, ,0.008101749542727073,0.004906353896625354,-0.015193061933499471,0.03184315885929175,0.006572762387072354,-0.0071946569642005005, ,0.017903624915842038, ,0.03251441468052202, ,0.00035834917241293673, ,0.16080274390710275,-0.2504405043782266,0.09402250628000001,-4.529512469209211,0.2023586561526173,-1.1832987687067895, ,0.07379233402680464,-0.0065050126192268505,0.01701796102564103,0.029732619883498346,0.07791010001538876,-0.009973114971100386, ,1.1830918788909912
0.011759222274296832,0.02196728583003701,-0.08372709077540193, ,0.012586264338808571,0.02222421120989112,-0.08434508846656412, ,0.0010639221651825939, ,0.008101749542727073,0.004906353896625354,-0.015193061933499471,0.03184315885929175,0.006572762387072354,-0.0071946569642005005, ,0.017903624915842038, ,0.03251441468052202, ,0.00036386146141894964, ,0.16080274390710275,-0.2504405043782266,0.09402250628000001,-4.529512469209211,0.2023586561526173,-1.1832987687067895, ,0.07379233402680464,-0.0065050126192268505,0.01701796102564103,0.029732619883498346,0.07791010001538876,-0.009973114971100386, ,1.1850290298461914
0.011759222274296832,0.02196728583003701,-0.08372709077540193, ,0.012624285672603108,0.022232081470993408,-0.08439291959288829, ,0.0011232895569504781, ,0.008101749542727073,0.004906353896625354,-0.015193061933499471,0.03184315885929175,0.006572762387072354,-0.0071946569642005005, ,0.017903624915842038, ,0.03251441468052202, ,0.0003697485009191941, ,0.16080274390710275,-0.2504405043782266,0.09402250628000001,-4.529512469209211,0.2023586561526173,-1.1832987687067895, ,0.07379233402680464,-0.0065050126192268505,0.01701796102564103,0.029732619883498346,0.07791010001538876,-0.009973114971100386, ,1.1867709159851074
0.011854400738891638,0.022018902809681492,-0.08389815983293727, ,0.012662711872988957,0.022239756692818632,-0.08444108140525146, ,0.0009984523828839077, ,0.010990695061777979,0.006084235294262149,-0.02143916589679606,0.08057427268385281,0.03417492256472748,0.0151003507545348, ,0.024848563970726344, ,0.087522192736757, ,0.0003745846846266149, ,0.16171402638626123,-0.2504636725768493,0.09421435720000002,-4.529093089322242,0.20358838465050627,-1.183648099918933, ,0.10225963530007626,0.00017993096057002504,0.02380988269058296,0.020266232132874706,0.1454041540455452,-0.05777215280232748, ,1.1884779930114746
0.011854400738891638,0.022018902809681492,-0.08389815983293727, ,0.01270154073368416,0.02224723797648855,-0.08448957163977207, ,0.001058088391601323, ,0.010990695061777979,0.006084235294262149,-0.02143916589679606,0.08057427268385281,0.03417492256472748,0.0151003507545348, ,0.024848563970726344, ,0.087522192736757, ,0.00037980227017604017, ,0.16171402638626123,-0.2504636725768493,0.09421435720000002,-4.529093089322242,0.20358838465050627,-1.183648099918933, ,0.10225963530007626,0.00017993096057002504,0.02380988269058296,0.020266232132874706,0.1454041540455452,-0.05777215280232748, ,1.1901679039001465
0.011854400738891638,0.022018902809681492,-0.08389815983293727, ,0.012740770053385574,0.02225452642066083,-0.08453838803817032, ,0.0011185084722537056, ,0.010990695061777979,0.006084235294262149,-0.02143916589679606,0.08057427268385281,0.03417492256472748,0.0151003507545348, ,0.024848563970726344, ,0.087522192736757, ,0.00038539852928268914, ,0.16171402638626123,-0.2504636725768493,0.09421435720000002,-4.529093089322242,0.20358838465050627,-1.183648099918933, ,0.10225963530007626,0.00017993096057002504,0.02380988269058296,0.020266232132874706,0.1454041540455452,-0.05777215280232748, ,1.1918690204620361
0.011854400738891638,0.022018902809681492,-0.08389815983293727, ,0.012780397635763942,0.0222616231215317,-0.08458752834776342, ,0.0011796662036505962, ,0.010990695061777979,0.006084235294262149,-0.02143916589679606,0.08057427268385281,0.03417492256472748,0.0151003507545348, ,0.024848563970726344, ,0.087522192736757, ,0.0003913704666839516, ,0.16171402638626123,-0.2504636725768493,0.09421435720000002,-4.529093089322242,0.20358838465050627,-1.183648099918933, ,0.10225963530007626,0.00017993096057002504,0.02380988269058296,0.020266232132874706,0.1454041540455452,-0.05777215280232748, ,1.193570852279663
0.011854400738891638,0.022018902809681492,-0.08389815983293727, ,0.012820421289459576,0.022268529172837857,-0.08463699032145972, ,0.0012415230630449699, ,0.010990695061777979,0.006084235294262149,-0.02143916589679606,0.08057427268385281,0.03417492256472748,0.0151003507545348, ,0.024848563970726344, ,0.087522192736757, ,0.00039771488904485474, ,0.16171402638626123,-0.2504636725768493,0.09421435720000002,-4.529093089322242,0.20358838465050627,-1.183648099918933, ,0.10225963530007626,0.00017993096057002504,0.02380988269058296,0.020266232132874706,0.1454041540455452,-0.05777215280232748, ,1.1952569484710693
0.011854400738891638,0.022018902809681492,-0.08389815983293727, ,0.01286083882807738,0.022275245665859325,-0.0846867717177535, ,0.0013040467752924595, ,0.010990695061777979,0.006084235294262149,-0.02143916589679606,0.08057427268385281,0.03417492256472748,0.0151003507545348, ,0.024848563970726344, ,0.087522192736757, ,0.00040442845857261475, ,0.16171402638626123,-0.2504636725768493,0.09421435720000002,-4.529093089322242,0.20358838465050627,-1.183648099918933, ,0.10225963530007626,0.00017993096057002504,0.02380988269058296,0.020266232132874706,0.1454041540455452,-0.05777215280232748, ,1.196929931640625
0.011973595188962299,0.02208972079932973,-0.08414519772196534, ,0.012901648070183127,0.022281773689420914,-0.08473687030071957, ,0.0011172479149160815, ,0.0128319731396077,0.007649512334311473,-0.026476347728952652,0.14363170276060386,0.06982174484249144,-0.0959855670864201, ,0.030400190174944847, ,0.15970325319281525, ,0.000409669778104552, ,0.16279520898865266,-0.25045594984397507,0.09448787439,-4.528044639604819,0.20522802264769155,-1.1846583998027276, ,0.11558701773260752,0.0007117501544180499,0.02933482784530387,0.14004121271771994,0.17108915305061734,-0.09925515197617936, ,1.198591947555542
0.011973595188962299,0.02208972079932973,-0.08414519772196534, ,0.01294284683929728,0.022288114329895834,-0.08478728384000932, ,0.0011794419602644093, ,0.0128319731396077,0.007649512334311473,-0.026476347728952652,0.14363170276060386,0.06982174484249144,-0.0959855670864201, ,0.030400190174944847, ,0.15970325319281525, ,0.00041528855315681374, ,0.16279520898865266,-0.25045594984397507,0.09448787439,-4.528044639604819,0.20522802264769155,-1.1846583998027276, ,0.11558701773260752,0.0007117501544180499,0.02933482784530387,0.14004121271771994,0.17108915305061734,-0.09925515197617936, ,1.2002589702606201
0.011973595188962299,0.02208972079932973,-0.08414519772196534, ,0.012984432963893034,0.022294268671205753,-0.08483801011084209, ,0.001242425790659965, ,0.0128319731396077,0.007649512334311473,-0.026476347728952652,0.14363170276060386,0.06982174484249144,-0.0959855670864201, ,0.030400190174944847, ,0.15970325319281525, ,0.00042128230125466264, ,0.16279520898865266,-0.25045594984397507,0.09448787439,-4.528044639604819,0.20522802264769155,-1.1846583998027276, ,0.11558701773260752,0.0007117501544180499,0.02933482784530387,0.14004121271771994,0.17108915305061734,-0.09925515197617936, ,1.201930046081543
0.011973595188962299,0.02208972079932973,-0.08414519772196534, ,0.013026404277388931,0.02230023779482549,-0.08488904689400359, ,0.0013061531199703455, ,0.0128319731396077,0.007649512334311473,-0.026476347728952652,0.14363170276060386,0.06982174484249144,-0.0959855670864201, ,0.030400190174944847, ,0.15970325319281525, ,0.0004276482783677251, ,0.16279520898865266,-0.25045594984397507,0.09448787439,-4.528044639604819,0.20522802264769155,-1.1846583998027276, ,0.11558701773260752,0.0007117501544180499,0.02933482784530387,0.14004121271771994,0.17108915305061734,-0.09925515197617936, ,1.2036230564117432
0.011973595188962299,0.02208972079932973,-0.08414519772196534, ,0.013068758618146721,0.02230602277978315,-0.08494039197583732, ,0.001370585051998622, ,0.0128319731396077,0.007649512334311473,-0.026476347728952652,0.14363170276060386,0.06982174484249144,-0.0959855670864201, ,0.030400190174944847, ,0.15970325319281525, ,0.00043438354103651723, ,0.16279520898865266,-0.25045594984397507,0.09448787439,-4.528044639604819,0.20522802264769155,-1.1846583998027276, ,0.11558701773260752,0.0007117501544180499,0.02933482784530387,0.14004121271771994,0.17108915305061734,-0.09925515197617936, ,1.20530104637146
0.011973595188962299,0.02208972079932973,-0.08414519772196534, ,0.013111493829465266,0.022311624702663915,-0.08499204314824207, ,0.0014356886272375608, ,0.0128319731396077,0.007649512334311473,-0.026476347728952652,0.14363170276060386,0.06982174484249144,-0.0959855670864201, ,0.030400190174944847, ,0.15970325319281525, ,0.00044148499554858136, ,0.16279520898865266,-0.25045594984397507,0.09448787439,-4.528044639604819,0.20522802264769155,-1.1846583998027276, ,0.11558701773260752,0.0007117501544180499,0.02933482784530387,0.14004121271771994,0.17108915305061734,-0.09925515197617936, ,1.2069790363311768
0.012111198173784594,0.022163669992642625,-0.08441166421496644, ,0.013154607759576845,0.022317044637611316,-0.08504399820866368, ,0.0012296640293297683, ,0.015352964637862856,0.008239353449484496,-0.02960015697383487,0.0983076274971886,0.034094154953212684,-0.013195061847813508, ,0.03434777665748781, ,0.10405180586068329, ,0.0004470355521245052, ,0.16404629171427704,-0.2504250589124782,0.09478342851,-4.5272058798308805,0.20686766064487683,-1.185178627245679, ,0.13873821865273506,0.0023324913801545458,0.03284291035051547,0.05714611359966328,0.17538730141426995,-0.06743805845885395, ,1.2087459564208984
0.012111198173784594,0.022163669992642625,-0.08441166421496644, ,0.013198098261641983,0.02232228365633017,-0.0850962549600926, ,0.0012942853563280264, ,0.015352964637862856,0.008239353449484496,-0.02960015697383487,0.0983076274971886,0.034094154953212684,-0.013195061847813508, ,0.03434777665748781, ,0.10405180586068329, ,0.00045296037593012424, ,0.16404629171427704,-0.2504250589124782,0.09478342851,-4.5272058798308805,0.20686766064487683,-1.185178627245679, ,0.13873821865273506,0.0023324913801545458,0.03284291035051547,0.05714611359966328,0.17538730141426995,-0.06743805845885395, ,1.2104530334472656
0.012111198173784594,0.022163669992642625,-0.08441166421496644, ,0.013241963193745659,0.022327342828088105,-0.08514881121105579, ,0.0013597073292712124, ,0.015352964637862856,0.008239353449484496,-0.02960015697383487,0.0983076274971886,0.034094154953212684,-0.013195061847813508, ,0.03434777665748781, ,0.10405180586068329, ,0.0004592572297727707, ,0.16404629171427704,-0.2504250589124782,0.09478342851,-4.5272058798308805,0.20686766064487683,-1.185178627245679, ,0.13873821865273506,0.0023324913801545458,0.03284291035051547,0.05714611359966328,0.17538730141426995,-0.06743805845885395, ,1.2123148441314697
0.012111198173784594,0.022163669992642625,-0.08441166421496644, ,0.013286200418891544,0.022332223219719213,-0.08520166477561385, ,0.0014258826572293793, ,0.015352964637862856,0.008239353449484496,-0.02960015697383487,0.0983076274971886,0.034094154953212684,-0.013195061847813508, ,0.03434777665748781, ,0.10405180586068329, ,0.0004659236120310922, ,0.16404629171427704,-0.2504250589124782,0.09478342851,-4.5272058798308805,0.20686766064487683,-1.185178627245679, ,0.13873821865273506,0.0023324913801545458,0.03284291035051547,0.05714611359966328,0.17538730141426995,-0.06743805845885395, ,1.2141969203948975
0.012111198173784594,0.022163669992642625,-0.08441166421496644, ,0.013330807804999435,0.022336925895623784,-0.08525481347335338, ,0.0014927712257369716, ,0.015352964637862856,0.008239353449484496,-0.02960015697383487,0.0983076274971886,0.034094154953212684,-0.013195061847813508, ,0.03434777665748781, ,0.10405180586068329, ,0.00047295681486469413, ,0.16404629171427704,-0.2504250589124782,0.09478342851,-4.5272058798308805,0.20686766064487683,-1.185178627245679, ,0.13873821865273506,0.0023324913801545458,0.03284291035051547,0.05714611359966328,0.17538730141426995,-0.06743805845885395, ,1.2159979343414307
0.012111198173784594,0.022163669992642625,-0.08441166421496644, ,0.013375783224898456,0.022341451917773602,-0.08530825512938374, ,0.0015603387555975033, ,0.015352964637862856,0.008239353449484496,-0.02960015697383487,0.0983076274971886,0.034094154953212684,-0.013195061847813508, ,0.03434777665748781, ,0.10405180586068329, ,0.00048035397092410103, ,0.16547499729600856,-0.2503401088508617,0.09513213052000001,-4.5272058798308805,0.208780571641593,-1.185594975535461, ,0.14781455071412894,0.010836695393224937,0.037043747720930234,0.02974652414618916,0.2000325936310279,-0.05076293107543404, ,1.2179679870605469
0.01228176830568164,0.022250556031906916,-0.08475027644016678, ,0.013421124556324467,0.02234580234571152,-0.08536198757432983, ,0.0012966861755379744, ,0.016591852557253775,0.008471174445214972,-0.03359052414582331,0.07790268754090084,0.044617569278069084,0.020331883010309762, ,0.03841059333249163, ,0.08977479295341678, ,0.000485869729063384, ,0.16547499729600856,-0.2503401088508617,0.09513213052000001,-4.5272058798308805,0.208780571641593,-1.185594975535461, ,0.14781455071412894,0.010836695393224937,0.037043747720930234,0.02974652414618916,0.2000325936310279,-0.05076293107543404, ,1.2202670574188232
0.01228176830568164,0.022250556031906916,-0.08475027644016678, ,0.013466829681913962,0.022349978236555563,-0.0854160086443283, ,0.0013628846641857131, ,0.016591852557253775,0.008471174445214972,-0.03359052414582331,0.07790268754090084,0.044617569278069084,0.020331883010309762, ,0.03841059333249163, ,0.08977479295341678, ,0.0004917557353393728, ,0.16547499729600856,-0.2503401088508617,0.09513213052000001,-4.5272058798308805,0.208780571641593,-1.185594975535461, ,0.14781455071412894,0.010836695393224937,0.037043747720930234,0.02974652414618916,0.2000325936310279,-0.05076293107543404, ,1.2223079204559326
0.01228176830568164,0.022250556031906916,-0.08475027644016678, ,0.013512896489200909,0.02235398064500005,-0.08547031618102052, ,0.0014299756932401497, ,0.016591852557253775,0.008471174445214972,-0.03359052414582331,0.07790268754090084,0.044617569278069084,0.020331883010309762, ,0.03841059333249163, ,0.08977479295341678, ,0.0004980105350587112, ,0.16547499729600856,-0.2503401088508617,0.09513213052000001,-4.5272058798308805,0.208780571641593,-1.185594975535461, ,0.14781455071412894,0.010836695393224937,0.037043747720930234,0.02974652414618916,0.2000325936310279,-0.05076293107543404, ,1.2240159511566162
0.01228176830568164,0.022250556031906916,-0.08475027644016678, ,0.01355932287061103,0.02235781062331857,-0.08552490803154919, ,0.0014978996348615796, ,0.016591852557253775,0.008471174445214972,-0.03359052414582331,0.07790268754090084,0.044617569278069084,0.020331883010309762, ,0.03841059333249163, ,0.08977479295341678, ,0.000504632317176611, ,0.16547499729600856,-0.2503401088508617,0.09513213052000001,-4.5272058798308805,0.208780571641593,-1.185594975535461, ,0.14781455071412894,0.010836695393224937,0.037043747720930234,0.02974652414618916,0.2000325936310279,-0.05076293107543404, ,1.2257640361785889
0.01228176830568164,0.022250556031906916,-0.08475027644016678, ,0.013606106723457682,0.02236146922136623,-0.0855797820485518, ,0.0015666057368514219, ,0.016591852557253775,0.008471174445214972,-0.03359052414582331,0.07790268754090084,0.044617569278069084,0.020331883010309762, ,0.03841059333249163, ,0.08977479295341678, ,0.0005116189844113138, ,0.16547499729600856,-0.2503401088508617,0.09513213052000001,-4.5272058798308805,0.208780571641593,-1.185594975535461, ,0.14781455071412894,0.010836695393224937,0.037043747720930234,0.02974652414618916,0.2000325936310279,-0.05076293107543404, ,1.2274830341339111
0.012453079433536683,0.02233326034370622,-0.08507933165899548, ,0.013653245949937961,0.022364957486580943,-0.08563493609015481, ,0.0013229137008441197, ,0.018603158778124664,0.007929352586947646,-0.0323143656490438,0.023796257065398153,-0.03225950942588493,0.02727604761138026, ,0.03812047187893078, ,0.04008618918536625, ,0.0005169215642572797, ,0.16708904846672148,-0.2502165451248741,0.09551972123000001,-4.526786499943912,0.21069348263830917,-1.1860113238252432, ,0.1650381592321231,0.012839526661949773,0.03579508206741574,0.0073710671606984305,0.13955334021810864,-0.01569862217227462, ,1.2297379970550537
0.012453079433536683,0.02233326034370622,-0.08507933165899548, ,0.01370073845712711,0.022368276463986887,-0.08569036801996965, ,0.0013896922689065699, ,0.018603158778124664,0.007929352586947646,-0.0323143656490438,0.023796257065398153,-0.03225950942588493,0.02727604761138026, ,0.03812047187893078, ,0.04008618918536625, ,0.0005225889064952623, ,0.16708904846672148,-0.2502165451248741,0.09551972123000001,-4.526786499943912,0.21069348263830917,-1.1860113238252432, ,0.1650381592321231,0.012839526661949773,0.03579508206741574,0.0073710671606984305,0.13955334021810864,-0.01569862217227462, ,1.233327865600586
0.012453079433536683,0.02233326034370622,-0.08507933165899548, ,0.013748582156974703,0.022371427196196104,-0.08574607570708624, ,0.0014575087103440483, ,0.018603158778124664,0.007929352586947646,-0.0323143656490438,0.023796257065398153,-0.03225950942588493,0.02727604761138026, ,0.03812047187893078, ,0.04008618918536625, ,0.0005286206471652544, ,0.16708904846672148,-0.2502165451248741,0.09551972123000001,-4.526786499943912,0.21069348263830917,-1.1860113238252432, ,0.1650381592321231,0.012839526661949773,0.03579508206741574,0.0073710671606984305,0.13955334021810864,-0.01569862217227462, ,1.2351160049438477
0.012453079433536683,0.02233326034370622,-0.08507933165899548, ,0.013796774966300308,0.022374410723409868,-0.08580205702606751, ,0.0015262840478521954, ,0.018603158778124664,0.007929352586947646,-0.0323143656490438,0.023796257065398153,-0.03225950942588493,0.02727604761138026, ,0.03812047187893078, ,0.04008618918536625, ,0.000535015925374786, ,0.16708904846672148,-0.2502165451248741,0.09551972123000001,-4.526786499943912,0.21069348263830917,-1.1860113238252432, ,0.1650381592321231,0.012839526661949773,0.03579508206741574,0.0073710671606984305,0.13955334021810864,-0.01569862217227462, ,1.2368199825286865
0.012657266648628172,0.022405450494108487,-0.08539893924644001, ,0.013845314806787681,0.022377228083423822,-0.08585830985694569, ,0.0012740786036848004, ,0.0212567343520723,0.006986621997302049,-0.03183554982033455,0.025166101627088242,-0.0455353633839707,-0.08814821808187362, ,0.038912258667555634, ,0.052026620960422196, ,0.0005397233309691173, ,0.16892705889078694,-0.2500003086043958,0.09587490469000001,-4.525947740169974,0.21192321113619814,-1.186033940076824, ,0.19287996251721704,0.024946619757747313,0.035476194922048995,0.12215442616818219,0.12461107538385996,-0.012320336605086003, ,1.2385828495025635
0.012657266648628172,0.022405450494108487,-0.08539893924644001, ,0.013894199604981538,0.022379880311627014,-0.08591483208521541, ,0.0013404485793363933, ,0.0212567343520723,0.006986621997302049,-0.03183554982033455,0.025166101627088242,-0.0455353633839707,-0.08814821808187362, ,0.038912258667555634, ,0.052026620960422196, ,0.0005447912122878975, ,0.16892705889078694,-0.2500003086043958,0.09587490469000001,-4.525947740169974,0.21192321113619814,-1.186033940076824, ,0.19287996251721704,0.024946619757747313,0.035476194922048995,0.12215442616818219,0.12461107538385996,-0.012320336605086003, ,1.2402210235595703
0.012657266648628172,0.022405450494108487,-0.08539893924644001, ,0.013943427292282368,0.022382368441006058,-0.0859716216018285, ,0.001408086312210194, ,0.0212567343520723,0.006986621997302049,-0.03183554982033455,0.025166101627088242,-0.0455353633839707,-0.08814821808187362, ,0.038912258667555634, ,0.052026620960422196, ,0.0005502207412182264, ,0.16892705889078694,-0.2500003086043958,0.09587490469000001,-4.525947740169974,0.21192321113619814,-1.186033940076824, ,0.19287996251721704,0.024946619757747313,0.035476194922048995,0.12215442616818219,0.12461107538385996,-0.012320336605086003, ,1.2418889999389648
0.012657266648628172,0.022405450494108487,-0.08539893924644001, ,0.013992995804942336,0.02238469350214637,-0.08602867630318907, ,0.0014768791393970008, ,0.0212567343520723,0.006986621997302049,-0.03183554982033455,0.025166101627088242,-0.0455353633839707,-0.08814821808187362, ,0.038912258667555634, ,0.052026620960422196, ,0.0005560123562068437, ,0.16892705889078694,-0.2500003086043958,0.09587490469000001,-4.525947740169974,0.21192321113619814,-1.186033940076824, ,0.19287996251721704,0.024946619757747313,0.035476194922048995,0.12215442616818219,0.12461107538385996,-0.012320336605086003, ,1.2435789108276367
0.012657266648628172,0.022405450494108487,-0.08539893924644001, ,0.014042903084060625,0.022386856523234716,-0.08608599409114749, ,0.0015467315302232722, ,0.0212567343520723,0.006986621997302049,-0.03183554982033455,0.025166101627088242,-0.0455353633839707,-0.08814821808187362, ,0.038912258667555634, ,0.052026620960422196, ,0.0005621658914491818, ,0.16892705889078694,-0.2500003086043958,0.09587490469000001,-4.525947740169974,0.21192321113619814,-1.186033940076824, ,0.19287996251721704,0.024946619757747313,0.035476194922048995,0.12215442616818219,0.12461107538385996,-0.012320336605086003, ,1.2458059787750244
