NicholasDascanio/dvrk_moveit_final/test/execution/second_exp_sharpbends/firstexp_700vel4.csv
Current Position (x),Current Position (y),Current Position (z), ,Planned Position (x),Planned Position (y),Planned Position (z), ,Position Error,,Cartesian linear Velocity(x),Cartesian linear Velocity(y),Cartesian linear Velocity(z),Cartesian Angular Velocity(x),Cartesian Angular Velocity(y),Cartesian Angular Velocity(z), ,Total Linear Velocity, ,Total Angular Velocity, ,MSE, ,Joint 1 Position,Joint 2 Position,Joint 3 Position,Joint 4 Position,Joint 5 Position,Joint 6 Position, ,Joint 1 Velocity,Joint 2 Velocity,Joint 3 Velocity,Joint 4 Velocity,Joint 5 Velocity,Joint 6 Velocity, ,Time Stamp
0.009093222714406459,0.020513231185613746,-0.07914646920591707, ,0.009152060278824462,0.02042603141856345,-0.07915013586037674, ,0.00010525731668247786, ,-3.2426286142438206e-05,-0.0001252557036947435,0.0003522841533237376,-0.26081757281629503,0.02884053287552187,0.08635696569716594, ,0.00037529265916625565, ,0.2624072838667544, ,8.771443056873154e-06, ,0.16177580824925503,-0.24118867039490566,0.08954512062000002,-4.475412463790203,0.4406527117435454,-0.9993573471624047, ,0.000295716746934919,0.0005213473597683714,-0.00013469427011685026,0.001328033271163745,0.0,0.24934712632384226, ,0.0201718807220459
0.009064662573872305,0.020515243378553573,-0.07912921206414632, ,0.009168040063507158,0.020432540999625787,-0.07919869353063813, ,0.00014951342090050736, ,-0.0025282799376221184,0.00037001330540773587,0.0004730448003071327,-0.3948416824653371,0.3391737279259206,0.23520682662625952, ,0.0025986305378523657, ,0.5205177921332031, ,1.1580488071953874e-05, ,0.16178353098212925,-0.24118867039490566,0.08953604659000002,-4.475202773846719,0.44406862423768145,-0.9900543412140119, ,0.0003566771411735277,0.0003414684321778531,0.00043638913869641674,0.0012030845567504874,0.30655273126122556,0.4824786911138079, ,0.03778982162475586
0.009039599334855836,0.02051943033458331,-0.07912755006540664, ,0.009184352703340327,0.02043900068884543,-0.07924735955562207, ,0.000204393687639337, ,-0.0022803611308030757,0.0005371031463866923,-0.00019884277580516693,-0.28110224242532805,0.31000221399492334,0.19215416987818523, ,0.002351183771257762, ,0.4184732289863978, ,1.434888828819757e-05, ,0.16179125371500347,-0.24118094766203144,0.08954382433000001,-4.475202773846719,0.4472112637322866,-0.9853475451265197, ,0.0003194590607695638,0.0,0.001100344765923578,0.00118130284122506,0.28953083447451844,0.3588570520530918, ,0.05472683906555176
0.009003595664546959,0.020528062718613807,-0.07913461743220408, ,0.009200996901714626,0.020445410658549573,-0.07929613328951758, ,0.00026811561616567933, ,-0.0003431748881370784,0.00018042271073143707,-0.0005693259136276092,0.23436403763078337,0.030121232034451936,-0.06196378140572902, ,0.000688805744984381, ,0.2362917492293721, ,1.7316191461619086e-05, ,0.16180669918075194,-0.24115777946340877,0.08956586126,-4.474993083903234,0.45199354122407703,-0.9844281260876013, ,0.0004045073005867551,0.0006619489080369808,0.0008238374453314025,-0.0007250873890536116,0.061065535219806066,-0.2365335741351231, ,0.07081103324890137
0.009036160867771583,0.020528753928837778,-0.0791643992737614, ,0.009217971364161606,0.020451771080832994,-0.07934501408767664, ,0.00026758760526255585, ,0.003304474695294713,-0.0003884042710309549,-0.0013015230824113039,0.13107105778283665,-0.37817063565987463,-0.17078515444583836, ,0.0035727263012505723, ,0.400240742383508, ,1.9132070127895338e-05, ,0.16182214464650038,-0.2411423339976603,0.0895866019,-4.474993083903234,0.4487142652297064,-0.9926990475777224, ,0.000689966371620936,0.0010029451479796822,0.00018333597336978524,-0.0007250873890536116,-0.3761176767736855,-0.21844111980469055, ,0.08855581283569336
0.009070868131341505,0.020527175053470428,-0.07919054745505415, ,0.009235274798354965,0.02045808212755365,-0.07939400130660833, ,0.0002705491716535956, ,0.0026029067424312544,-4.070583348100376e-05,-0.0019727964818747517,0.07646024705571833,-0.27066521282875894,-0.11599545023079692, ,0.0032662985830402684, ,0.28125758090303804, ,2.040994868232505e-05, ,0.1618298673793746,-0.24111916579903764,0.08960215738,-4.474993083903234,0.4450250797360395,-0.994019737405369, ,0.0011887315595873942,0.0009591325091821258,0.0012245169703021786,-0.0007250873890536116,-0.2701946104148265,-0.13823585837927288, ,0.1044149398803711
0.009088846272453011,0.020533361424442606,-0.07923244856266672, ,0.009252905914105136,0.0204643439703393,-0.07944309430398398, ,0.0002757727385457568, ,0.0006986096726077206,0.00046215809836634225,-0.0028069035638438036,-0.1335908330295105,0.011215887556850533,0.044721180375742166, ,0.0029292239926754847, ,0.13406083247180076, ,2.1405410511804304e-05, ,0.16189937197524262,-0.24108055213466653,0.08964363866000001,-4.474993083903234,0.44434189723721235,-0.9946878289889953, ,0.0029835923755656335,0.0028449975520967916,0.00289614754909091,-0.0007250873890536116,0.0,0.13878041794683457, ,0.12258601188659668
0.009096560288693878,0.02054745471086769,-0.07929354853385105, ,0.009270863423362028,0.0204705567805811,-0.07949229243863086, ,0.0002753071269048988, ,-3.3047494598348826e-05,0.0006728991709881208,-0.0024543376373335995,-0.03483249603420531,0.07456130309102686,0.037442850794613215, ,0.002545124489931289, ,0.08229635896268948, ,2.2152398582375713e-05, ,0.1619534311053622,-0.24104966120316962,0.08970974945000001,-4.474993083903234,0.44516171623580497,-0.9925792592463947, ,0.0022332687913914325,0.0007932728015326213,0.002795999915745129,-0.0007250873890536116,0.07588212325800334,0.05174370256352163, ,0.13979291915893555
0.009108084318469382,0.02055683395365024,-0.07934616378285564, ,0.009289146040210283,0.02047672072943893,-0.07954159507053629, ,0.0002781993241865068, ,0.0006009997036862381,0.0002923397718315125,-0.00225523804347812,-0.019308750653910023,0.017121891768998684,0.012528256709629737, ,0.002352182352364813, ,0.025806724501684367, ,2.276843486892734e-05, ,0.16203065843410444,-0.24099560207305004,0.08976548992000001,-4.474993083903234,0.44557162573510134,-0.9919333680757971, ,0.005018761775305935,0.003694797165684112,0.00238705402667466,-0.0007250873890536116,0.02135143884191872,0.02093494699426738, ,0.15655994415283203
0.009114501475244396,0.020561608126119728,-0.07936925952831406, ,0.009307752480870122,0.02048283598783796,-0.07959100156084285, ,0.0003045004596627699, ,0.0008006366207052404,0.000521602428024174,-0.0025555786844748524,0.0013142471039087995,-0.005228033422238683,-0.0005138527913420086, ,0.0027283823969299534, ,0.005390693722070696, ,2.352153399611848e-05, ,0.1620769948313498,-0.2409801566073016,0.08979011943000001,-4.474993083903234,0.44570826223486676,-0.9919631072393531, ,0.004742032157452867,0.001445863559101915,0.0026802644321049975,-0.0007250873890536116,0.0,-0.003033023921207677, ,0.17349696159362793
0.00913146463688349,0.02057196153596914,-0.07943007200803624, ,0.009326681463694753,0.02048890272647078,-0.07964051127185012, ,0.0002988194422390747, ,0.0008594082022718004,0.00044386183395117487,-0.002847562717258527,0.0036390395886256653,-0.0058033479933087394,-0.0021923080456354663, ,0.00300735917616957, ,0.006849923858832248, ,2.4089427766456784e-05, ,0.1621773903587147,-0.2409183747443078,0.08985363764000001,-4.474993083903234,0.4458448987346322,-0.9920745251430494, ,0.00487089955835684,0.003218092378246078,0.002948687804516846,-0.0007250873890536116,0.0,-0.007361231710548609, ,0.19032692909240723
0.009139695295760784,0.02057691505774938,-0.07945745038599765, ,0.00934593170916903,0.020494921115797197,-0.07969012356701285, ,0.00032154824505210687, ,0.0008565321297660379,0.0002803750381086442,-0.0026236920961534155,-0.0032413747262829036,-0.005597387795888224,-0.0004774016616160208, ,0.0027741697256537627, ,0.006468172858653154, ,2.4750525859797268e-05, ,0.16227006315320538,-0.240856592881314,0.08990937811000001,-4.474993083903234,0.4458448987346322,-0.9921562038831899, ,0.005281167764683894,0.0044933017765502285,0.0026920418320094644,-0.0007250873890536116,0.0,-0.0013882085569334106, ,0.20661592483520508
0.00915446081078501,0.020584166769694774,-0.07950855003114238, ,0.009365501939908944,0.02050089132604314,-0.07973983781094023, ,0.000323986411414274, ,0.0008617826321121319,0.00045255950292637714,-0.0025704641178772355,-0.0012016459359882848,-0.005754345005483148,-8.763450323288706e-05, ,0.0027485933111308916, ,0.005878472529951063, ,2.5329928532648035e-05, ,0.16231639955045074,-0.24082570194981712,0.08993530391000001,-4.474993083903234,0.4459815352343976,-0.9922676217868864, ,0.005450340183470124,0.002314009585606158,0.0026843295449949446,-0.0007250873890536116,0.0,-0.0012704006637188014, ,0.22387003898620605
0.009175925592149501,0.020594064736213707,-0.07957080460607713, ,0.009385390880658604,0.02050681352720336,-0.0797896533693959, ,0.0003152511090704154, ,0.0009712711644436666,0.00047292895824565325,-0.002967999211382774,-0.0023249506572155885,-0.006264758716310515,-0.00018863536366588488, ,0.003158488371546719, ,0.006682259879843235, ,2.5766208981548985e-05, ,0.16245540874218678,-0.2407561973539491,0.09000011841000001,-4.474993083903234,0.4459815352343976,-0.9922676217868864, ,0.00598786721645625,0.0032490794411552206,0.0030845878233927188,-0.0007050730136858898,0.0,-0.0010539926380657785, ,0.24063682556152344
0.009195359417532802,0.020603644852574557,-0.07963202723088893, ,0.009405597258290781,0.020512687889038102,-0.07983956960929547, ,0.00030910670930440164, ,0.0010211440501553498,0.0005407091959187182,-0.00315543735529797,-0.0030705079393223596,-0.006376308109263262,0.00016587070427804412, ,0.0033603402370784696, ,0.0070770985436742154, ,2.610466042555499e-05, ,0.16257124973530016,-0.24068669275808108,0.09006363662000001,-4.474993083903234,0.4459815352343976,-0.992349300527027, ,0.006214146392773497,0.0030031717588497697,0.0032876803962848303,-0.000680285164560733,0.0,0.0, ,0.2570028305053711
0.009204333792712228,0.02060840518709311,-0.07966290245794681, ,0.009426119801803901,0.02051851458107638,-0.0798895858987075, ,0.000329628180218211, ,0.0011159895538942568,0.00047584362033372557,-0.003268004350901234,-0.004167686963055744,-0.00730932618031146,-2.5602763448811768e-05, ,0.003485930617915796, ,0.008414027778624529, ,2.65280034870529e-05, ,0.16263303159829395,-0.24064807909370994,0.09009604387,-4.474993083903234,0.44611817173416307,-0.9924607184307235, ,0.007149916819580734,0.00411683485360095,0.003390551621966795,-0.0006688439698360538,0.0,0.0, ,0.2739698886871338
0.009226769604370567,0.020618406432437612,-0.0797298926260505, ,0.009446957242321256,0.02052429377261451,-0.07993970160685211, ,0.00031837022013733333, ,0.001112744506087041,0.0004657264330724907,-0.0033559221685255498,0.0013710158826381305,-0.0023068884481114173,-0.00010060722963519514, ,0.0035661344685093614, ,0.002683545870079229, ,2.699360693005791e-05, ,0.16278748625577844,-0.24056312903209348,0.09016604353,-4.474993083903234,0.4462548082339285,-0.9925721363344198, ,0.007543171609135294,0.00461994157170992,0.003494693181219834,-0.0006465454851274164,0.0062692291869581316,-0.005112136032483236, ,0.2888200283050537
0.009238185352584156,0.020622411237701147,-0.0797611803384949, ,0.00946810831308921,0.02053002563271745,-0.07998991610410072, ,0.00033722354342912363, ,0.001147727598326116,0.0003467643232546179,-0.0030264470517990198,0.0005924947312521568,-0.0036573477186471973,-0.00018559936136450488, ,0.0032552889108625437, ,0.003705029296477134, ,2.7517390713716813e-05, ,0.16286471358452068,-0.24051679263484813,0.09019845078000001,-4.474993083903234,0.4462548082339285,-0.9926538150745604, ,0.008598760209833835,0.005073462274376128,0.0031504769620253163,-0.0006363878698774385,0.005923479550087444,-0.004830200387102524, ,0.30370283126831055
0.00926142139959184,0.0206297971366762,-0.07981848402234162, ,0.009489571749476941,0.020535710330216346,-0.08004022876197255, ,0.00033177648930642095, ,0.001173742848455145,0.00040550347586095024,-0.0027631326068688414,0.0011971422169659873,-0.005152517169909867,2.6959406253697794e-05, ,0.0030293575468037293, ,0.0052897620468968605, ,2.7962469935319825e-05, ,0.16303461370775363,-0.24043184257323166,0.09025808012000001,-4.474993083903234,0.4462548082339285,-0.9926538150745604, ,0.009351329553238029,0.003616410941344929,0.002911499089745934,-0.0006159726897192706,0.005054150289932448,-0.004121320666422434, ,0.31894493103027344
0.009272889062538347,0.020634542042481364,-0.0798490695364807, ,0.009511346288973635,0.02054134803371161,-0.08009063895313825, ,0.00035199823177689045, ,0.0013385674932757732,0.00039739936334236986,-0.003144244993629979,-0.0030744894708473482,-0.008867168497721777,-0.00018687743830283132, ,0.003440343844444432, ,0.009385049939453013, ,2.8469217421981502e-05, ,0.1631272865022443,-0.24039322890886053,0.09029048737,-4.474993083903234,0.44639144473369397,-0.9927652329782569, ,0.010276078510585828,0.004780357688254123,0.003283614001236859,-0.0006063789065141823,0.0018065284206348474,-0.001473102794207053, ,0.3344278335571289
0.009301580347221509,0.020645740070469813,-0.07992308676423168, ,0.009533430671187306,0.020546938911572447,-0.08014114605141603, ,0.00033326580150062755, ,0.0015264437024358306,0.0006006516382743702,-0.004114973527396176,0.0008422115395223213,-0.005546251786533419,-0.00022891143679137742, ,0.0044298780906971945, ,0.005609833150554195, ,2.8841405077550554e-05, ,0.1633435230227226,-0.24030055611436985,0.09036826477000001,-4.474993083903234,0.4465280812334594,-0.9929583296220937, ,0.011072596144936322,0.005331456393274102,0.004307412525689562,-0.0005880669413820035,0.006573563170170916,-0.005223605969944017, ,0.34926486015319824
0.009317138277754662,0.02065219496356206,-0.07996401948473265, ,0.009555823637844768,0.020552483131934512,-0.08019174943177095, ,0.0003446361549024226, ,0.0014262341944858915,0.0006518225505699512,-0.003910106156936009,0.0020338667515944335,-0.004715945614470117,-3.423422446780736e-05, ,0.004212831206381431, ,0.005135830613239546, ,2.9235217620163826e-05, ,0.16345164128296175,-0.2402542197171245,0.09041104234000001,-4.474993083903234,0.4465280812334594,-0.9930400083622343, ,0.01024586988293446,0.004111242551293678,0.004111722127000517,-0.0005792891119074202,0.006573563170170916,-0.005209002719315435, ,0.3661668300628662
0.009346297841663142,0.02066121307834373,-0.08002911512531365, ,0.009578523932787885,0.020557980862704165,-0.08024244847031625, ,0.0003318086253172631, ,0.0013882202898455327,0.0002436409071065091,-0.0026723289752671473,0.001268042331077733,-0.007803967411641515,-0.0007840335959433367, ,0.0030212346179677705, ,0.007906316372311591, ,2.9540513916767335e-05, ,0.16369104600206272,-0.2401615469226338,0.09047974571,-4.474993083903234,0.4466647177332248,-0.9933147837462118, ,0.012147585964986017,0.00531402016370816,0.0028098097583348037,-0.0005624634734271483,0.005387895730266142,-0.005898083146212248, ,0.38199901580810547
0.009373025616223296,0.020665595359145302,-0.08007549769201258, ,0.00960153030197429,0.02056343227155494,-0.08029324254431013, ,0.0003317597151226098, ,0.0014687577413046297,0.00021344297347672013,-0.0025043080321926993,0.0012191803138764286,-0.009369779986532788,-0.0008229713744122157, ,0.0029110764204454908, ,0.009448765926578647, ,2.982211686493701e-05, ,0.16393817345403788,-0.2400688741281431,0.09052900473000002,-4.474993083903234,0.4468013542329903,-0.9934262016499084, ,0.01157562107324601,0.004516214474560599,0.0023486894013565324,-0.0005472675176074448,0.0034218775663995634,0.0005298626084279723, ,0.3973369598388672
0.009387808024568529,0.02066802708490856,-0.08010005542970494, ,0.00962484149347526,0.020568837525928897,-0.08034413103215568, ,0.000354395730369638, ,0.001533629700046063,0.00023100988935762976,-0.0024227550842300404,-0.0025465677264784278,-0.011283498297408392,0.00012121552629750518, ,0.0028766521903085384, ,0.011567296180598399, ,3.0176012661583943e-05, ,0.1640694599128997,-0.24002253773089777,0.09055493053000001,-4.474993083903234,0.4468013542329903,-0.9935078803900489, ,0.01421464073673918,0.004749955080666846,0.002576226996603591,-0.0005394381041863054,0.0034218775663995634,-0.0016572566261068298, ,0.4126448631286621
0.009418514119472943,0.02067577775236579,-0.08016258779089029, ,0.00964845625747321,0.020574196793038485,-0.08039511331340203, ,0.00034243276237145795, ,0.0016016172652879345,0.000509473930076157,-0.0035107153124669006,0.0011386901074809477,-0.0070178873191581136,0.00013453480588239007, ,0.003892282563623203, ,0.007109666451526912, ,3.0457158091810937e-05, ,0.16433203283062334,-0.23992214220353283,0.09062104132000001,-4.474993083903234,0.4469379907327557,-0.9936192982937454, ,0.013191123374822181,0.004689341646369577,0.0037147414925373136,-0.0005246028785607927,0.007188018985567718,-0.004728292423044851, ,0.4281938076019287
0.009434760583362543,0.020681281324934603,-0.08019963390646007, ,0.009672373346261908,0.020579510239864242,-0.08044618876874078, ,0.00035722049068233883, ,0.0015906610002732258,0.0005905835292644101,-0.003942047928813839,0.00028118949331647236,-0.006473748662355043,8.27122628052721e-05, ,0.004291705161808545, ,0.0064798524923454425, ,3.0775572144899216e-05, ,0.16445559655661093,-0.2398758058062875,0.09065993002000002,-4.474993083903234,0.4469379907327557,-0.9936192982937454, ,0.012107290323867157,0.004945795523170711,0.004147048039573028,-0.0005178146974875534,0.006558504649595001,-0.004214965692769043, ,0.44388699531555176
0.009464487810228855,0.02069094460539433,-0.08027422906265452, ,0.009696591514244117,0.02058477803315633,-0.08049735678000683, ,0.00033901246102351697, ,0.001514360039229615,0.00045637524699326684,-0.0034073739267047568,0.005237579571992732,-0.002389063795695705,-0.0010512714868183125, ,0.00375656249393925, ,0.005756723472041788, ,3.100532144756375e-05, ,0.16471044674146035,-0.23976768754604835,0.09073900371000002,-4.475202773846719,0.447347900232052,-0.9939535520048346, ,0.012731009063384865,0.00512818517050182,0.0036087022020842774,0.000658765850858914,0.011705671577703905,-0.008412135190596703, ,0.45972299575805664
0.009478558876713785,0.02069502617553373,-0.08030466007389997, ,0.009721109517930867,0.020590000339433194,-0.08054861673017642, ,0.00035968887937358083, ,0.001499102674684406,0.0003815062688294355,-0.0032209636280245224,0.00831088104889901,0.00018678076579810255,-0.0010984573003619828, ,0.003573158624446862, ,0.008312979641304348, ,3.129435724091682e-05, ,0.16483401046744794,-0.239721351148803,0.09077141096,-4.475202773846719,0.44748453673181743,-0.994064969908531, ,0.013270443512581566,0.005543706471819765,0.0034218714328678847,0.0006545216862000814,0.01532816158506978,-0.01136603289344188, ,0.4747889041900635
0.00951070105549798,0.02070431014821484,-0.08037114610242607, ,0.009745926115939012,0.02059517732498408,-0.08059996800336816, ,0.0003458327117502836, ,0.0014858217315184006,0.0004536424224516664,-0.0034009475952096998,0.008628988865132725,0.000683642052541148,-0.0008458582664111894, ,0.003738970742151213, ,0.008656027659128608, ,3.1517216604048876e-05, ,0.16508886065229733,-0.2396209556214381,0.09084141062000001,-4.474993083903234,0.44748453673181743,-0.994064969908531, ,0.012722475071520417,0.0051916538469254855,0.0036119754013605445,0.00045186292328418926,0.01532816158506978,-0.01136603289344188, ,0.4897348880767822
0.009527029184263996,0.020709167627511144,-0.08040833781818076, ,0.009771040068990676,0.02060030915586723,-0.08065140998484094, ,0.00036121400432239856, ,0.001473684844591847,0.0005189229984379227,-0.0036799420167331004,0.0070093609249616586,0.0001599077661127637,-0.0008347468278657779, ,0.003997874603586908, ,0.0070111846641773895, ,3.17783582029915e-05, ,0.16521242437828493,-0.23956689649131852,0.09088029932000001,-4.474993083903234,0.44748453673181743,-0.994064969908531, ,0.011832896323519946,0.005175696045278468,0.0038898196630036633,0.00045186292328418926,0.013678630377193178,-0.009969113442553995, ,0.5052368640899658
0.009553723434545164,0.02071778924799822,-0.08047243379441603, ,0.009796450139911456,0.020605395997910683,-0.0807029420609931, ,0.000353104173189131, ,0.0014404151663713074,0.00044214811021195497,-0.0033759864075432614,-0.000595779582607608,-0.006323865543848908,-0.0009040800289039483, ,0.0036969683562066554, ,0.006351868094442561, ,3.19976358152863e-05, ,0.165420938165889,-0.23947422369682783,0.09094770640000001,-4.474993083903234,0.4476211732315829,-0.9941763878122275, ,0.011214481394288676,0.005010222053203906,0.0035452507277987984,0.00045186292328418926,0.005439887989443449,-0.0034174807496278456, ,0.5203619003295898
0.00957024949981881,0.020723189051552366,-0.08051248667601915, ,0.009822155093629268,0.02061043801671257,-0.08075456361936229, ,0.0003671109785184839, ,0.0014671439970888331,0.00034402446977610827,-0.003151944295024778,0.0005687692998903667,-0.005822035810171353,-0.001017927761838396, ,0.003493653844177722, ,0.005849752061439925, ,3.2351552668777356e-05, ,0.16556767009049927,-0.23941244183383403,0.09099048397000001,-4.474993083903234,0.4478944462311138,-0.9943992236196203, ,0.01214914115458594,0.005560018470053485,0.0033143594506866423,0.00045186292328418926,0.007121267192884801,-0.004883687238909511, ,0.5341370105743408
0.009584196719657323,0.020726315082458785,-0.08054182037018782, ,0.009848153697172856,0.020615435377640275,-0.08080627404862341, ,0.00038974779403851215, ,0.0015475938329354351,0.000359308105626199,-0.0030648547933192086,0.00010660676430592012,-0.007716284486044302,-0.0009740169960377892, ,0.003452170895341105, ,0.007717020863088106, ,3.275818426097702e-05, ,0.16569123381648684,-0.23935838270371446,0.09102159493,-4.474993083903234,0.44803108273087927,-0.9945106415233168, ,0.013200297893792012,0.005138814423516259,0.003240197624084622,0.00045186292328418926,0.006148269410581281,-0.00415217077611215, ,0.5469658374786377
0.009617987546406918,0.02073475802772826,-0.0806109918982885, ,0.009874444719669716,0.02062038824583298,-0.08085807273859034, ,0.00037403164354501034, ,0.0019268976242334116,0.0005534375375619539,-0.004307464540617755,-0.0011372262691912412,-0.009786354659381782,-0.0012341662511914037, ,0.004751155473244202, ,0.009852208870281499, ,3.309747568357458e-05, ,0.1659615294670847,-0.2392502644434753,0.09109418717000001,-4.474993083903234,0.44803108273087927,-0.9945106415233168, ,0.015259196262818906,0.006502671954771663,0.004529090565823146,0.00045186292328418926,0.006148269410581281,-0.004259329067838304, ,0.5602810382843018
0.00963697764682659,0.020741853823982595,-0.08065888528099059, ,0.009901026932345828,0.020625296786198608,-0.08090995908021294, ,0.0003825514617618658, ,0.0018532838290550293,0.0007707856410826813,-0.004835098040755507,0.0063373894956769775,-0.002637407507622867,-0.0010634650174491975, ,0.005235164230399449, ,0.006864285930715068, ,3.344591253651325e-05, ,0.166108261391695,-0.2391884825804815,0.09114474248000001,-4.474993083903234,0.44816771923064463,-0.9946220594270131, ,0.013982163188223188,0.005582591136178097,0.005095589097888676,0.00045186292328418926,0.012940253683644397,-0.009844529003868788, ,0.5736129283905029
0.009656116127590627,0.020750351492665773,-0.08070639782633458, ,0.009927899108523656,0.020630161163415976,-0.08096193246557587, ,0.00039193067731703825, ,0.0019560533815131454,0.0007237985627704465,-0.004764763377929603,0.0042905704476297124,-0.006240517584881946,-0.003136732061904465, ,0.005201249776587998, ,0.007573179783777537, ,3.380534426201883e-05, ,0.16625499331630525,-0.23913442345036195,0.09119529779,-4.47478339395975,0.4483043557304101,-0.994651798590569, ,0.014970333105926926,0.005961978092837763,0.00502803393939394,0.0020990312774838813,0.009644575389353975,-0.008453548880747567, ,0.5873079299926758
0.009693775409350904,0.02076235148249061,-0.08079604349502298, ,0.009955060023620418,0.020634981541934737,-0.08101399228790032, ,0.0003633103738236302, ,0.0018927378240758117,0.0004541714431732563,-0.003934673712643658,0.004583267200097017,-0.00813400412793852,-0.003948510446591204, ,0.004389804710400036, ,0.009336399757815465, ,3.406768217085352e-05, ,0.1665561798984,-0.23900313699150014,0.09128992696,-4.47478339395975,0.448577628729941,-0.9947929556578212, ,0.01575837621362849,0.0066991799972256575,0.004151371258795935,0.0020990312774838813,0.008615361745545032,-0.00974768776955282, ,0.601801872253418
0.009714012534578228,0.020765905547011784,-0.08083307814434405, ,0.009982508455147301,0.020639758085974968,-0.08106613794154097, ,0.0003772533768672395, ,0.0019663131934174543,0.0003572152677164749,-0.003413474911708104,0.00479963609060818,-0.010068691484540246,-0.0038406952952428413, ,0.003955477378895997, ,0.011154149647090649, ,3.435694161698725e-05, ,0.16672608002163294,-0.23893363239563212,0.09132881566,-4.47478339395975,0.448577628729941,-0.9947929556578212, ,0.01769804952601096,0.006378722860598363,0.0036342257631759075,0.0020765618684524985,0.008615361745545032,-0.009644934080883408, ,0.6155869960784912
0.009752646940698183,0.020772785541781517,-0.08090051723199035, ,0.010010243182707474,0.02064449095952804,-0.0811183688219863, ,0.00036093578237224696, ,0.0019527532875870366,0.00022890869845890605,-0.002931170488222441,0.010514979180840295,-0.00598326459782537,-0.0037329732789104196, ,0.00352950492639383, ,0.012098109034254942, ,3.4589590939788196e-05, ,0.1670967711995957,-0.2388023459367703,0.09140140790000001,-4.47478339395975,0.4489875382292373,-0.9951272093689105, ,0.019113180575724222,0.006636044525556041,0.0031598515215235075,0.0020107260848404155,0.015006896216031617,-0.014677642086117418, ,0.6311888694763184
0.009770362962126806,0.020774435546745983,-0.08092790148806298, ,0.0100382629879949,0.020649180326356233,-0.08117068432585738, ,0.00038262618888742063, ,0.001813095464796222,0.00016178792355901143,-0.0027787379345465876,0.019549657180679456,0.003041265884289975,-0.0037135937697031097, ,0.0033218782346080057, ,0.019784802093914665, ,3.486977470002395e-05, ,0.1672821167885771,-0.23873284134090228,0.09143122257000001,-4.47478339395975,0.4492608112287682,-0.9953500451763033, ,0.018698904740585377,0.007152361099966606,0.0030162491043363,0.0019785439620856856,0.025015606272059385,-0.022756773389548467, ,0.6441729068756104
0.009792575779663406,0.020775792114238963,-0.08096120983567409, ,0.01006656665479341,0.020653826349992115,-0.08122308385090694, ,0.00039815153793122367, ,0.0019382617576853896,0.0002507069584654039,-0.0035075665883433733,0.01818725902301006,0.0028260296795570984,-0.003831662906048218, ,0.004015312689192636, ,0.018405510967883447, ,3.5178565737150975e-05, ,0.16748290784330694,-0.2386478912792858,0.0914662224,-4.47478339395975,0.4492608112287682,-0.9953500451763033, ,0.018680500306785586,0.008191455018014656,0.0037541389394296497,0.0019473936010781922,0.02474394737808261,-0.022458222642691855, ,0.6572158336639404
0.009839044423471235,0.020783285530989945,-0.0810384523169048, ,0.010095152968974078,0.020658429193741275,-0.08127556679601985, ,0.00037068041253448544, ,0.0021661571212726227,0.00041768652425773186,-0.003952050459577841,0.008194438019745958,-0.00660181861183881,-0.0019280481032657875, ,0.00452608015192352, ,0.010522966429624341, ,3.540509336821005e-05, ,0.1678844899527666,-0.2384934366218013,0.09154788867000001,-4.474573704016265,0.4492608112287682,-0.9954317239164439, ,0.019554284269208896,0.0072905883879905075,0.004216202096347274,0.0005285095259906832,0.01502570221834072,-0.013145585468886736, ,0.671907901763916
0.009861129758108836,0.02078754352520979,-0.08107724204104655, ,0.010124020718495039,0.02066298902067935,-0.08132813256121026, ,0.00038415040642906953, ,0.0022430706495099404,0.00032990932877792413,-0.003855419748273188,-0.0067201260998172845,-0.019158687841553848,-0.0020734424831495967, ,0.004472635413185669, ,0.020303088773773022, ,3.565611242165132e-05, ,0.16807755827462223,-0.2384316547588075,0.09158677737000001,-4.474573704016265,0.4493974477285336,-0.9955431418201403, ,0.019486024960671616,0.007830632956616937,0.004083263655472956,0.0005285095259906832,0.0,-0.0008627652606822502, ,0.6881070137023926
0.009899175889321378,0.020796098728810063,-0.0811508263249497, ,0.01015316869340007,0.020667505993652836,-0.08138078054762146, ,0.000365960900348039, ,0.0018472876936396563,0.000373969543529056,-0.0037436383195422057,0.038752654380890386,0.022213342917287576,-0.005935346278674516, ,0.0041913187554879, ,0.04466767090850434, ,3.5852970960614314e-05, ,0.16847141765120768,-0.23827720010132303,0.09166973993000001,-4.474364014072781,0.4502172667271263,-0.9962116492423189, ,0.019128591324021525,0.007979411784718443,0.004082217201435162,0.004779919981321326,0.046863119903303295,-0.03901691119543295, ,0.7012460231781006
0.009924160353789289,0.020800038988909572,-0.0811911842362909, ,0.0101825956858154,0.020671980275282303,-0.08143351015752733, ,0.0003767090483096971, ,0.0020897869259130755,0.0003398000681531354,-0.003856226736054731,0.017318707696439548,0.0019735016658041405,0.0043750782642680485, ,0.004399222445148395, ,0.01743078725264334, ,3.6068007517132933e-05, ,0.16868765417168596,-0.23819225003970657,0.09171251750000001,-4.474154324129296,0.4502172667271263,-0.9962933279824594, ,0.019999355439087624,0.0078485020818619,0.0041405800675851315,-0.005757662690642576,0.027126072290833126,-0.022007043038698597, ,0.7174489498138428
0.009969555226115463,0.020807327802105733,-0.08126586639737553, ,0.010212300489950686,0.020676412027958068,-0.08148632079432826, ,0.0003530783824746374, ,0.0020359549477108945,0.00023357489567337147,-0.00320475322435739,0.0003587586601454336,-0.012054475689486916,0.004766977047075737, ,0.0038039601746109783, ,0.012059813082573735, ,3.6219496536704704e-05, ,0.16908151354827142,-0.2380532408479705,0.09179159119000001,-4.474154324129296,0.4502172667271263,-0.9962116492423189, ,0.01893016987003207,0.006845814407610525,0.0034181998969957084,-0.005757662690642576,0.00944431619519346,-0.006598175253143712, ,0.7321999073028564
0.009991117912470648,0.020809086157403036,-0.08129725844458843, ,0.010242281902095817,0.020680801413843805,-0.08153921186255278, ,0.00037159357042220115, ,0.002047063377183975,4.686706417479365e-05,-0.0030214848189752297,-0.010151650036026706,-0.019747404024590916,0.004475315401372549, ,0.0036499363697481088, ,0.022203962797495487, ,3.640806243101015e-05, ,0.16928230460300125,-0.23797601351922826,0.09182270215,-4.474154324129296,0.4503539032268917,-0.9963230671460152, ,0.018780316952002926,0.008279134131538461,0.0031579721490880256,-0.005757662690642576,0.0,0.0011120077343579572, ,0.7452490329742432
0.010009101855648612,0.020810860490316052,-0.08132639031239887, ,0.010272538720620505,0.02068514859487439,-0.08159218276785524, ,0.00039477600213194355, ,0.0020245857514235802,0.00030899191264573014,-0.0031807601667588337,-0.0028692147288096,-0.014998424797185888,0.005030131678524478, ,0.0037830752973457365, ,0.015270400755424882, ,3.6725340356440695e-05, ,0.16945992745910843,-0.23790650892336024,0.09185640569,-4.474154324129296,0.4504905397266572,-0.9963528063095711, ,0.018415862906747675,0.005809195669937919,0.0033985089652229577,-0.005757662690642576,0.005377372718938662,-0.0029268543071918063, ,0.7566888332366943
0.010025689498845424,0.020814239291697047,-0.08135914086822521, ,0.01030306974597247,0.020689453732757213,-0.08164523291701567, ,0.0004175642436767187, ,0.0016931651572690987,0.00038331636984340273,-0.003633313844104276,0.04505503811418755,0.02902491287945982,0.005058918514739255, ,0.004026749207355706, ,0.0535947947705555, ,3.708356995729256e-05, ,0.1696452730480898,-0.23783700432749222,0.09189270181,-4.474154324129296,0.45103708572571893,-0.9967984779243568, ,0.01845884877620517,0.0072091572582837285,0.0039971923513174405,-0.005757662690642576,0.05662630075390904,-0.0447169187346868, ,0.7688868045806885
0.010068827565842285,0.020824587319389083,-0.08144656107336501, ,0.01033387378067599,0.020693716988972183,-0.08169836171793915, ,0.00038830413851651837, ,0.002553601857716917,0.000442171641095151,-0.004578966026013933,-0.03455307493600186,-0.04064619933974513,0.005098514260256952, ,0.005261494851780613, ,0.053348181846116255, ,3.736646918545843e-05, ,0.1700236869589268,-0.23769027240288196,0.09198603469000001,-4.474154324129296,0.45144699522501525,-0.9968876954150244, ,0.01898698310493613,0.007671467235206393,0.004736488706512043,-0.005757662690642576,-0.02399067642233616,0.0227116315512064, ,0.7810969352722168
0.01009473524185232,0.020829722461509107,-0.08149370196700757, ,0.010364949629330612,0.020697938524771635,-0.08175156857965507, ,0.0003960782891053096, ,0.0023814039618325618,0.0005210260771010158,-0.004590253909450659,-0.014212100935793047,-0.019880162264188456,0.006356253621225865, ,0.005197401654257457, ,0.02443777122860694, ,3.765762287551709e-05, ,0.17022447801365664,-0.23761304507413972,0.09203529371000001,-4.474154324129296,0.45131035872524977,-0.9966129200310467, ,0.0191982483428021,0.007253353416881957,0.004832770485436894,-0.005757662690642576,0.0,0.006491457983627554, ,0.7925119400024414
0.010117421597374242,0.020836070617712126,-0.08153856368965373, ,0.010396296098609653,0.020702118501180637,-0.0818048529123156, ,0.00040819616248615647, ,0.0025382331195963914,0.0005921215834567371,-0.00491683782935293,-0.002408167180278506,-0.020395221841392662,0.002836072744121306, ,0.005564937517993115, ,0.020536901914703937, ,3.7965923093763435e-05, ,0.17041754633551226,-0.23755126321114592,0.09208325644000001,-4.474154324129296,0.45144699522501525,-0.9966426591946027, ,0.020598424475465765,0.0074432706516958215,0.005191920312907433,-0.005572079943928415,0.00223443623132176,-0.0057452635844827986, ,0.8039209842681885
0.010139933041827212,0.020840462466013614,-0.08158612599048566, ,0.01042791199725885,0.020706257078997037,-0.08185821412719588, ,0.0004183000344420303, ,0.0024633606592254264,0.0005945603935328064,-0.004842515936584786,0.009636983826117471,-0.008721189264913524,-0.005759279668881592, ,0.00546549251166398, ,0.012997330371902914, ,3.8286382280287984e-05, ,0.1706183373902421,-0.23746631314952946,0.09213381175,-4.474364014072781,0.45172026822454614,-0.9968654950019955, ,0.02082900385392247,0.007833171739253584,0.005153287453898416,0.0033944703313974296,0.013620240814057976,-0.01502962377142635, ,0.8159708976745605
0.010165448033147007,0.020848529193646773,-0.08164128437365623, ,0.010459796136094955,0.020710354418791477,-0.08191165163669226, ,0.00042288477276553976, ,0.002265476998584922,0.0007189665644540474,-0.005007599442145372,0.031125783200108958,0.010632531883720426,-0.005552560616281789, ,0.005543045293419029, ,0.032891717968657336, ,3.8607045006589274e-05, ,0.17085001937646882,-0.23738908582078722,0.09219344109000001,-4.474364014072781,0.4521301777238424,-0.9971997487130848, ,0.020190838629461867,0.007257841477215241,0.0053977673737716034,0.0033944703313974296,0.0353750654382182,-0.03276922453014173, ,0.8278968334197998
0.010190774568307854,0.020856277615390304,-0.08168864814492574, ,0.010491947328004084,0.020714410680907878,-0.08196516485432268, ,0.0004327733227200967, ,0.0024392521205678173,0.0006172478161606885,-0.004657846305692607,0.00976123983787885,0.0028152844977342327,-0.00748253187417619, ,0.005294003965025338, ,0.010159115502018158, ,3.8938726654903505e-05, ,0.17105081043119866,-0.2373195812249192,0.09224399640000001,-4.473944634185812,0.4521301777238424,-0.9971997487130848, ,0.021900978896485294,0.007572045702456273,0.005020110784746298,0.009592733717026982,0.025039245470867492,-0.011444270259246058, ,0.8398339748382568
0.010243451056842828,0.020865453767155283,-0.08177613407814775, ,0.010524364387940494,0.02071842602546383,-0.082018753194725, ,0.0003992411453545326, ,0.002612438772907739,0.00020959380567748902,-0.004529243987903591,-0.011158715253197907,-0.032787053560411665,0.03723632716241927, ,0.005232859352928463, ,0.03463391120519353, ,3.9193595988445176e-05, ,0.1715064516707779,-0.2371342356359378,0.09233732928,-4.473315564355358,0.45226681422360787,-0.9970661303963595, ,0.022360259556661353,0.009022975463724664,0.004728053285841497,-0.042155730985343025,0.0,-0.005015715262955656, ,0.8515570163726807
0.01026650700517588,0.0208691997153976,-0.08181652721097703, ,0.010557046132925296,0.020722400612349486,-0.08207241607365626, ,0.0004140556381120685, ,0.0026408780498062175,0.0002413912961206088,-0.004089953457800347,0.003849004940242858,-0.018681386017958983,0.029182022777218996, ,0.0048744462166244165, ,0.019073778373399707, ,3.9470779453113733e-05, ,0.17173813365700466,-0.2370492855743213,0.09238140314000001,-4.473315564355358,0.45267672372290424,-0.9973187053673083, ,0.02506522492299809,0.00825785043740768,0.004376047120879121,-0.032386084015214714,0.016473446377236023,-0.015035361058743757, ,0.8630199432373047
0.01029010719126935,0.020873676215278667,-0.08185884118951858, ,0.01058999138204484,0.02072633460122881,-0.08212615290799222, ,0.00042789675617047496, ,0.0024145399024068244,0.00028736673388929097,-0.004376025577711892,0.02439372007091923,0.010836796378561222,0.025156311479972816, ,0.005006214381830811, ,0.026692503311679952, ,3.976745518696633e-05, ,0.17198526110897983,-0.23696433551270485,0.09242806958000001,-4.473315564355358,0.45322326972196597,-0.997764376982094, ,0.02461020268632541,0.009431362782226711,0.0047463681525625745,-0.02505333126653975,0.04712133817642054,-0.03046699263169969, ,0.87503981590271
0.010319844358396193,0.020877395083915767,-0.08190614088200653, ,0.01062319895644928,0.02073022815153952,-0.08217996311572645, ,0.00043435093395128535, ,0.0028712713021767627,0.0003106184093056197,-0.004932547166893939,-0.027438212231553905,-0.017928116248398056,0.026087008462863884, ,0.005715829269715534, ,0.03277610165593291, ,4.006857246040749e-05, ,0.17225555675957768,-0.23686393998533994,0.09247862489000001,-4.473315564355358,0.4533599062217314,-0.9976307586653688, ,0.025346405330788135,0.010268637166676718,0.005214013590834698,-0.020340952212042906,0.011026948104567762,0.017063129775889318, ,0.8869929313659668
0.010349097132700949,0.020881278455090083,-0.0819553094227228, ,0.010656667679351323,0.020734081422492757,-0.08223384611596922, ,0.0004402832009705975, ,0.003095255496658043,0.00046957486802738234,-0.005210687386577834,-0.03941556584245968,-0.01976102169120121,0.027045713813707777, ,0.006078846122983876, ,0.04409177706920108, ,4.037295949611748e-05, ,0.17250268421155288,-0.236763544457975,0.09253047649000001,-4.473315564355358,0.4533599062217314,-0.997385722444947, ,0.027152200732037418,0.009371357454479706,0.005540456180869566,-0.01726435967010032,0.008717764942289371,0.03077710063017674, ,0.8981029987335205
0.010377210570360396,0.020887059812736794,-0.08200932815661824, ,0.010690396376024444,0.020737894573074393,-0.08228780132894771, ,0.00044484033686281185, ,0.0029386929959211755,0.00044192382414098255,-0.005484083960932206,0.01120028743793435,-0.012471975925360985,0.010922427064166039, ,0.006237498703901544, ,0.016762953713910057, ,4.067790239158738e-05, ,0.1727652571292765,-0.2366631489306101,0.09258880954000001,-4.473315564355358,0.4537698157210277,-0.9975566186757552, ,0.025752222946667784,0.010722800265696152,0.005819806912678116,-0.014942841362515743,0.020151890133125856,-0.02160006065939374, ,0.9096558094024658
0.010436508301510512,0.020897645141768968,-0.08211585467127983, ,0.010724383873801919,0.020741667762043756,-0.08234182817600423, ,0.0003978257318795237, ,0.003077771673435151,0.0004189341602578605,-0.004811034169735146,0.008148618342813373,-0.006640833277346828,0.01247476619825236, ,0.005726625017127445, ,0.010511928697289093, ,4.088769908015586e-05, ,0.1733290166290949,-0.23645463514300605,0.09270417935000001,-4.473315564355358,0.45458963471962033,-0.9980617686176525, ,0.029526117473077408,0.009505598732850697,0.0052157208644400795,-0.011694881665781918,0.028753630826515355,-0.014749472836266455, ,0.9236488342285156
0.010467583431115878,0.020900543047315832,-0.08216366675323289, ,0.010758629002075285,0.020745401147934047,-0.08239592607959532, ,0.0004033868217991354, ,0.002939523950040497,0.00031652640938434535,-0.004751040347424259,-0.02800899012640601,-0.010275408105662551,0.019766143995766962, ,0.00559583545179383, ,0.029834334871391224, ,4.110230151282627e-05, ,0.17359931227969275,-0.2363465168827669,0.09275473466,-4.473315564355358,0.45458963471962033,-0.9977350536570901, ,0.026921118172615822,0.010266911119341358,0.005077721236850495,-0.010598791387511264,0.017959260968582656,0.020804034045157113, ,0.935338020324707
0.010497684842363623,0.0209035919906532,-0.08220835088165816, ,0.01079313059229257,0.02074909488905378,-0.0824500944632924, ,0.00041182217620600704, ,0.0030179775166675536,0.00014962599683158843,-0.0043995913518424705,-0.03133171800865572,-0.026991021611847844,0.01380568431692756, ,0.00533731957945613, ,0.041354465289455286, ,4.1401592032987595e-05, ,0.17387733066316483,-0.236246121355402,0.09280269739000001,-4.473315564355358,0.4547262712193858,-0.9975197566002245, ,0.026822199422970826,0.010881157960501946,0.004643968373177843,-0.009678128756800377,0.0,0.020152394692172042, ,0.9452338218688965
0.010524524201128522,0.020905773026731356,-0.08224943250713142, ,0.010827887477957772,0.020752749143483958,-0.08250433275177793, ,0.000424758426983557, ,0.0028599352457586344,0.00024994274805079987,-0.004197254100990795,0.004379064895640393,0.012074596934043159,0.01703257223597223, ,0.005085139425376627, ,0.012844146494695112, ,4.1717629442997684e-05, ,0.17416307177951115,-0.23613800309516284,0.09284806754000001,-4.473315564355358,0.45527281721844753,-0.9979654282150101, ,0.02986998475243021,0.010185048745098253,0.004626433784490271,-0.00889609875826508,0.047393136400011394,-0.007135687478062154, ,0.9554519653320312
0.0105500195770729,0.02090867924354265,-0.08229267158340768, ,0.010862898494627677,0.020756364069083575,-0.08255864037084976, ,0.00043798690084767924, ,0.0026839084795298217,0.0002889130680406751,-0.004660015511318576,0.03212597326555062,0.02841673795576674,0.012614334673268546, ,0.005385404353723728, ,0.04289043194126223, ,4.2050397393688633e-05, ,0.17444109016298323,-0.23602988483492368,0.09289603027000001,-4.473315564355358,0.4559559997172748,-0.9984408389933516, ,0.028557611061832917,0.011360821448398275,0.005128400360592403,-0.008245791662234577,0.06607548563767579,-0.0338662787222134, ,0.9651298522949219
0.0105819925898521,0.02091117388799182,-0.08234127116993409, ,0.010898162479912512,0.02075993982348341,-0.08261301674741475, ,0.0004434870917274218, ,0.0031630962002596294,0.00047595020037607657,-0.0051689641443488765,-0.01432067847089292,-0.004510826623017779,0.007899811504570036, ,0.006078642652015271, ,0.015014306011257944, ,4.238580916099616e-05, ,0.17473455401220375,-0.23592176657468455,0.09294788187000001,-4.473525254298842,0.4560926362170402,-0.998388899416767, ,0.029118423307293886,0.010259744472636854,0.005575362800140008,0.0,0.02499452823051427,0.009610489512936441, ,0.9755358695983887
0.01061769356924948,0.020917386133392158,-0.08239972245872276, ,0.010933678273473309,0.02076347656409025,-0.08266746130949149, ,0.00044183546828777316, ,0.0035092907986716067,0.0006531503097330143,-0.0057912150212198,-0.010514655051217838,-0.016531424182238588,0.003454294809783251, ,0.006802933092332115, ,0.019591986877935407, ,4.27113657813465e-05, ,0.17503574059429852,-0.23582137104731962,0.09301010379,-4.473525254298842,0.4560926362170402,-0.998225541936486, ,0.03090099041304812,0.009822197092167032,0.00622462349355217,0.0,0.01477951570420058,0.003928790400638756, ,0.9857509136199951
0.010654242940458481,0.02092409852142522,-0.0824641439304826, ,0.010969444717020743,0.02076697444808571,-0.08272197348620822, ,0.00043648163097257124, ,0.0035521337472447546,0.0005185207173768885,-0.006251446668728581,-0.025043058882274736,-0.02704898822903911,0.00043647443178117164, ,0.007208821217412857, ,0.036861939081496924, ,4.302101086087312e-05, ,0.17534464990926749,-0.23569780732133203,0.09307880716000001,-4.473315564355358,0.45622927271680563,-0.9982552811000417, ,0.02895848079294195,0.012367645192033205,0.006587597816377173,0.001950231929971759,0.0,0.014005292126862637, ,0.995358943939209
0.010687112763529707,0.020930521618008267,-0.08251999629560249, ,0.01100546065431373,0.0207704336324267,-0.0827765527078025, ,0.000439083972988248, ,0.003200013684980507,0.0003839886385540558,-0.004934966507858699,-0.0047139713635164756,-0.012496188625927286,-0.0027049113829457527, ,0.005894186058506145, ,0.013355757307761291, ,4.33287624047898e-05, ,0.17563039102561379,-0.23559741179396712,0.09313584392,-4.473105874411874,0.456639182216102,-0.9985078560709904, ,0.02929822215451398,0.010657207339605491,0.005451338644763861,0.004820433282211595,0.016546629139930335,-0.0017252026799915382, ,1.0060429573059082
0.010711046773031571,0.020933167765091486,-0.0825572445602085, ,0.011041724931158077,0.020773854273845163,-0.08283119840562005, ,0.0004580169671210886, ,0.002843748733326809,0.00030295901589249543,-0.0042524312990585775,0.0516108816464204,0.032769647412038395,-0.0025145366510729555, ,0.005124632960205189, ,0.061135365333328785, ,4.366217047329544e-05, ,0.1759084094090859,-0.23548929353372797,0.09318121407,-4.472896184468389,0.45718572821516373,-0.9988718489456355, ,0.031611239693028245,0.010798740638810858,0.004787740162308387,0.003969203398332266,0.07271955457082327,-0.050388657601740106, ,1.0170159339904785
0.010750148988507926,0.020936567451343292,-0.0826122036337015, ,0.011078236395404659,0.020777236528849365,-0.08288591001211491, ,0.0004560075339412423, ,0.003192641771823339,0.00013047889173905007,-0.0043927226370285306,-0.009878374949919107,-0.017106528392822333,0.024455101447380806, ,0.005431942414113353, ,0.019753875662007616, ,4.3985561325131226e-05, ,0.176255932388426,-0.23536572980774037,0.09323825083000001,-4.472686494524905,0.4574590012146946,-0.9989313272727471, ,0.03038646863863938,0.01095697326336331,0.004776255328335833,-0.02230446057617573,0.020764380630635692,-0.005811412752824515, ,1.0279889106750488
0.010782068705256003,0.02093818371880447,-0.08265206657918772, ,0.011114993896948897,0.020780580553721603,-0.08294068696084654, ,0.0004679526318087865, ,0.003223810745968941,7.601984161098824e-05,-0.004344143706997127,-0.01574136166189704,-0.022912535192333945,0.023990258616483063, ,0.005410205106018266, ,0.02779882613283292, ,4.432225978034245e-05, ,0.1765725644362692,-0.23524988881462702,0.09328362098000001,-4.472686494524905,0.4574590012146946,-0.998604612312185, ,0.030454730923771108,0.011246354269274292,0.004653465241016653,-0.02230446057617573,0.013089804534065618,0.0036072406166517256, ,1.0382499694824219
0.010817005632105746,0.02094074837015296,-0.08270019410289492, ,0.01115199628772811,0.020783886504521693,-0.08299552868648209, ,0.00047333592775768813, ,0.0037196944679711024,0.0002483434295926213,-0.0053030749795220135,-0.04598788447847157,-0.034113684797945104,0.02711031024826168, ,0.006482314835960149, ,0.057259313697464946, ,4.466115254026995e-05, ,0.1768969192169866,-0.23513404782151365,0.09333547258000001,-4.472686494524905,0.4575956377144601,-0.9984709939954597, ,0.03297322500294329,0.011882912792195189,0.005634528305624337,-0.019581748317455377,0.0,0.032836990048718664, ,1.048616886138916
0.010848428956297467,0.020944684493057756,-0.08275308901317532, ,0.011189242421721387,0.02078715453708347,-0.08305043462479222, ,0.0004789404117333918, ,0.0028045958382072996,0.00039362800820657044,-0.005046284177383358,0.056201855495783326,0.05565251647590048,0.024486269686041617, ,0.005786681676353384, ,0.07909393875637338, ,4.5002533602554375e-05, ,0.17722127399770404,-0.23501048409552605,0.09339380563,-4.472686494524905,0.4582788202132873,-0.9988647260336607, ,0.03246559752256955,0.011555886697329612,0.005684800685224841,-0.01697801270125408,0.10335894964025415,-0.05355465032377615, ,1.0595309734344482
0.010877072845770526,0.020948904807874136,-0.08280253594401958, ,0.011226731154947055,0.02079038480701822,-0.08310540421265347, ,0.000488997660518779, ,0.002969512946575304,0.00028122559714215773,-0.004877784541914555,0.030486518745259827,0.03121656707886709,0.021600475610275352, ,0.005717506188340061, ,0.043633724143524476, ,4.535346703028427e-05, ,0.17754562877842148,-0.23489464310241268,0.0934495461,-4.472686494524905,0.4592352757116453,-0.9993179363989735, ,0.03191959016430231,0.011875470333472908,0.005410601739130436,-0.015054581594561104,0.07408550643871824,-0.03228066288493195, ,1.0695598125457764
0.010914002726343817,0.02095242457147416,-0.08285634196888139, ,0.011264461345461553,0.02079357746971368,-0.08316043688804597, ,0.000490435893173948, ,0.0037780202842304365,0.0003264792969746959,-0.00550703769754847,-0.035629496574158044,-0.021332267172325756,0.022760652079810678, ,0.006686365993694159, ,0.04152742038429911, ,4.5699998920748145e-05, ,0.17789315175776158,-0.2347710793764251,0.09350787915000001,-4.472686494524905,0.45950854871117625,-0.9991323785056634, ,0.03438294984002565,0.012110380494955433,0.005912699153674834,-0.013508471117979847,0.014322613542672138,0.02564699952706502, ,1.0796058177947998
0.010953985207443478,0.020956576135248744,-0.08291464937462147, ,0.011302431853359062,0.020796732680331404,-0.08321553209005092, ,0.00048733500138399007, ,0.003992009892495268,0.00044594679406695934,-0.00582948576226136,-0.04180684027971931,-0.026091006213759718,0.022454863543239487, ,0.0070794008063766655, ,0.04928034590674358, ,4.6035116857634154e-05, ,0.17824067473710167,-0.2346475156504375,0.09357010107000001,-4.472686494524905,0.45950854871117625,-0.9985606273246797, ,0.03571582294259344,0.011643117928798541,0.00626378746362564,-0.0122920579034331,0.00969995966291144,0.03195667045661503, ,1.0900168418884277
0.010988992645580424,0.020961590791163106,-0.08297182750645296, ,0.01134064154076833,0.02079985059381195,-0.08327068925885374, ,0.0004890145028259693, ,0.003648014973363472,0.0005143318707872297,-0.00575216616837341,-0.025376003835025796,-0.011860730829365056,0.009357034898342248, ,0.006830810065268337, ,0.02801104246800813, ,4.636658695370917e-05, ,0.17857275225069333,-0.23453939739019836,0.09363232299,-4.472896184468389,0.45991845821047256,-0.9986498448153471, ,0.032599430284600064,0.011307273003816008,0.006200393740755158,0.0,0.019844463558176022,0.019196021912758484, ,1.0996780395507812
0.011021275176734761,0.020966312692044485,-0.08302600389983858, ,0.01137908927185253,0.02080293136487123,-0.08332590783574004, ,0.0004946380045073647, ,0.0032363270713926763,0.0004498594829777994,-0.005385855120024298,0.04415510436017979,0.04958208652121595,0.009814548466397859, ,0.006299493776593965, ,0.0663931964912361, ,4.67727771696888e-05, ,0.17892799796290768,-0.23441583366421076,0.09369324862,-4.472896184468389,0.4608749137088306,-0.9991030551806599, ,0.03555524224746001,0.012494659849699904,0.00605428031927024,0.0,0.09453627547810124,-0.040531626597278776, ,1.1077709197998047
0.011058337649212649,0.020971893031558306,-0.08308222083066219, ,0.011417773912807308,0.02080597514800217,-0.08338118726309637, ,0.00049608880192266, ,0.003925572139185079,0.0004634727029036393,-0.005632639209146493,0.0011504547676939386,-0.000287433551864132,-0.0049608551049854415, ,0.006881246110022323, ,0.0011858155630418644, ,4.717496262379036e-05, ,0.17929096640799622,-0.23428454720534894,0.09375547054000001,-4.47247680458142,0.4614214597078924,-0.9990586543546021, ,0.03750867255275525,0.01252930308403364,0.006173957953488373,0.01155561029298515,0.03705634624913923,-0.0045659894969836195, ,1.118628978729248
0.011102956930978337,0.020978146539779693,-0.08314471589865127, ,0.011456694331859685,0.020808982097473786,-0.0834365269844083, ,0.0004887744542154968, ,0.004042473209093699,0.0006597649746818049,-0.006294841895613512,-0.013013164475558555,-0.009118623093337589,-0.026140434811934, ,0.007510120768591429, ,0.01588998825998574, ,4.755989358436348e-05, ,0.17967710305170745,-0.23415326074648712,0.09382287762000001,-4.472057424694451,0.4614214597078924,-0.9988952968743209, ,0.03539609905202192,0.012715656111278409,0.00680718441025641,0.03353375611416709,0.018420887001504457,0.010514511125924672, ,1.1273949146270752
0.011143952349652403,0.020985559491735147,-0.08321225281263557, ,0.01149584939926594,0.020811952367334,-0.08349192644426197, ,0.0004818592194787242, ,0.0042954706016164485,0.0004989782080988387,-0.007197377053621803,-0.02736434283420214,-0.04580433510980561,0.045042741668240675, ,0.008396563784877143, ,0.053355827744353886, ,4.792856390393585e-05, ,0.18002462603104755,-0.23402969702049956,0.09389546986000001,-4.471847734750966,0.46155809620765786,-0.9987616785575958, ,0.035568568800026526,0.012919937584543332,0.007603251322195704,-0.04720615821027718,0.0,0.006827320672936071, ,1.1359608173370361
0.011185461520342915,0.02099154475744615,-0.08327984949815846, ,0.011535237987311485,0.020814886111404807,-0.08354738508833877, ,0.00047447565383199557, ,0.004033380776339716,0.00037454252159302794,-0.006074568166504408,0.013558941197909458,-0.007924016818696873,0.03362417118541256, ,0.007301288995577203, ,0.015704614630101397, ,4.8280637118796894e-05, ,0.180418485407633,-0.2338906878287635,0.09396935839000001,-4.471847734750966,0.4621046422067196,-0.9991256714322407, ,0.03879678722750236,0.012768695042851289,0.006620453665835412,-0.03379700404442119,0.04372254219153728,-0.024990360885108615, ,1.143949031829834
0.011185461520342915,0.02099154475744615,-0.08327984949815846, ,0.011574858970307826,0.020817783483288336,-0.08360290236342077, ,0.00053496402513656, ,0.004033380776339716,0.00037454252159302794,-0.006074568166504408,0.013558941197909458,-0.007924016818696873,0.03362417118541256, ,0.007301288995577203, ,0.015704614630101397, ,4.8717483606211434e-05, ,0.180418485407633,-0.2338906878287635,0.09396935839000001,-4.471847734750966,0.4621046422067196,-0.9991256714322407, ,0.03879678722750236,0.012768695042851289,0.006620453665835412,-0.03379700404442119,0.04372254219153728,-0.024990360885108615, ,1.1522648334503174
0.011224305142686786,0.02099643769890202,-0.0833421547192428, ,0.011614711224592473,0.02082064463636251,-0.08365847771738442, ,0.0005323348089119025, ,0.003960813601234159,0.00040051321890892107,-0.006307628281691588,0.026052310091670434,0.005743071900480766,0.02640159863870897, ,0.00745886249787713, ,0.02667781336582985, ,4.9143993784765126e-05, ,0.18080462205134423,-0.23375167863702745,0.09403806176000001,-4.471847734750966,0.4627878247055468,-0.9997644396908634, ,0.038560317577598854,0.013689691511608594,0.006892605590653397,-0.026088732436355618,0.05714382717182547,-0.03504018830818534, ,1.1602959632873535
0.01125969906357892,0.02100039016747966,-0.08339377094087959, ,0.011654793628526706,0.0208234697237834,-0.0837141105992028, ,0.0005385332444182057, ,0.004453847991732109,0.0004488282926247756,-0.0068137105702549055,-0.003912313333462906,-0.02296950039838797,0.02217924424298712, ,0.008152598389772432, ,0.023300303205843337, ,4.9573338763495894e-05, ,0.18112125409918742,-0.23364356037678832,0.09409380223000001,-4.471847734750966,0.4629244612053123,-0.9997941788544193, ,0.04009165253843294,0.014129979386311909,0.007337084993090743,-0.022264922848407285,0.024642666079081898,-0.009673708416298738, ,1.1712379455566406
0.011315473472449359,0.021007502204833158,-0.08347466457061312, ,0.011695105062494784,0.020826258898484034,-0.08376980045894356, ,0.0005138817693179804, ,0.0047045577233950486,0.0006396015334918146,-0.006994769628987686,-0.006362436241307448,-0.03327997004212016,0.016687938143680102, ,0.008453919544034566, ,0.033882694464649865, ,4.996055139158978e-05, ,0.18160006353738933,-0.2334891057193038,0.09418065366000002,-4.471847734750966,0.4629244612053123,-0.9996308213741383, ,0.04149407151660287,0.012491370482884135,0.007552779288762448,-0.018234677767666265,0.013910743088883095,-0.006828135580270241, ,1.179560899734497
0.011360231067802797,0.02101404916995225,-0.08354669990168048, ,0.011735644408901773,0.020829012313176184,-0.0838255467477692, ,0.0005029208472655367, ,0.00469980134139208,0.00047784195808361473,-0.006972167701577897,-0.02103829804823741,-0.03623820286521224,0.016621165927993627, ,0.008421851818001905, ,0.041902473855265715, ,5.032632897873947e-05, ,0.1819939229139748,-0.23335009652756777,0.09425843106000001,-4.471847734750966,0.4631977342048431,-0.99969029970125, ,0.04083345161724216,0.014210383581681757,0.007471299962476548,-0.01577500756980723,0.008041203464836059,0.0062008504078611285, ,1.1879429817199707
0.01140500951772095,0.02101906140314441,-0.08361483692988264, ,0.011776410552172987,0.020831730120348297,-0.08388134891793456, ,0.0004940246731505058, ,0.003972243411041663,0.0003649120129270082,-0.006245337711584346,0.04516344323452625,0.025354429055955655,0.015323391155540555, ,0.007410541250507951, ,0.05179366436206785, ,5.067409515988267e-05, ,0.18241867322205715,-0.2331956418700833,0.09433102330000001,-4.471847734750966,0.4638809167036703,-1.000084031739451, ,0.04048504332699265,0.01486480914136447,0.00693159770234987,-0.013885744145874663,0.07847512380626388,-0.04985784693557299, ,1.1961050033569336
0.01144583187530729,0.021023556961248115,-0.08367554336111258, ,0.011817402378751627,0.02083441247226845,-0.08393720642278854, ,0.0004922477370053579, ,0.004546104848178377,0.0004031634695282095,-0.006487187037277857,0.005146906693690114,-0.0024943893413321774,0.017674970409255385, ,0.007931784523700755, ,0.005719494314247297, ,5.101437615875154e-05, ,0.1828434235301395,-0.23305663267834725,0.09440102296000001,-4.471847734750966,0.4645640992024975,-1.0003144062973708, ,0.043650847083013235,0.014676297797474605,0.007117431420911529,-0.012431122906419623,0.04804710678306724,-0.013250420429390414, ,1.2042360305786133
0.01144583187530729,0.021023556961248115,-0.08367554336111258, ,0.01185861877709834,0.020837059520981242,-0.08399311871677036, ,0.0005531983622874491, ,0.004546104848178377,0.0004031634695282095,-0.006487187037277857,0.005146906693690114,-0.0024943893413321774,0.017674970409255385, ,0.007931784523700755, ,0.005719494314247297, ,5.1436054350397494e-05, ,0.1828434235301395,-0.23305663267834725,0.09440102296000001,-4.471847734750966,0.4645640992024975,-1.0003144062973708, ,0.043650847083013235,0.014676297797474605,0.007117431420911529,-0.012431122906419623,0.04804710678306724,-0.013250420429390414, ,1.2125389575958252
0.0114939105913162,0.021025726107211592,-0.0837441300655739, ,0.011900058637688896,0.020839671418311265,-0.08404908525541191, ,0.0005408976341631524, ,0.004903762752440612,0.00036153430799655247,-0.006743065268254499,-0.05923721484537298,-0.015332937568216532,0.020265443104153437, ,0.008345449382748817, ,0.06118943195656364, ,5.1834533791986204e-05, ,0.1832836193039703,-0.2328867325551143,0.09447491149000001,-4.472057424694451,0.46483737220202836,-1.000128848404061, ,0.04495354881973983,0.01601365871725798,0.007320225882352943,0.0,0.025706432668396225,0.051435393451066104, ,1.2211129665374756
0.011541956332478008,0.021030976048193407,-0.08380870800527912, ,0.011941720853013451,0.020842248315860182,-0.08410510549533379, ,0.000532241769256492, ,0.004708136081083515,0.0004146908214641173,-0.006330685408985149,-0.02140517285911325,-0.009501040804671438,0.007663051136578766, ,0.007900385533816971, ,0.023419034807867847, ,5.221538330425478e-05, ,0.18373926054354953,-0.23274000063050404,0.09454620744000002,-4.471847734750966,0.46524728170132473,-0.9998913509341661, ,0.04424099839555748,0.014595038689398767,0.006943684184829993,0.003696443708068676,0.0341908374848967,0.015201841534774198, ,1.2300479412078857
0.011589860883612186,0.02103662154935298,-0.08387213291136905, ,0.01198360431757458,0.02084479036500948,-0.08416117889424757, ,0.0005247672582139023, ,0.00432490153051245,0.0003320006309898466,-0.005902006600039255,0.01078711697293123,0.038218315424311894,0.00897875316892866, ,0.007324525894180013, ,0.03971147843254503, ,5.258060538416146e-05, ,0.18421806998175144,-0.23258554597301956,0.09461750339000001,-4.471428354863997,0.46593046420015194,-1.0000400467519455, ,0.04553596044072494,0.015610617134145549,0.0066592021404682285,0.009003376009751077,0.08732629282221786,-0.008092243535411457, ,1.2385358810424805
0.011634105512722717,0.021039561386514007,-0.08393080516387849, ,0.012025707927886499,0.020847297716917935,-0.08421730491095192, ,0.0005219194145476781, ,0.004652905502472583,0.00037965026272917114,-0.0059110246814172845,0.04525859414387451,0.021805390893015877,-0.0057871268421301955, ,0.0075321893710430755, ,0.05023758959843599, ,5.300980234423176e-05, ,0.18468143395420492,-0.23243109131553508,0.09468361418000001,-4.471428354863997,0.46675028319874456,-1.0002184817332807, ,0.04829360893560853,0.014984516273246611,0.006687158488664989,0.009003376009751077,0.07705038374646918,-0.04615091325716841, ,1.2449979782104492
0.011634105512722717,0.021039561386514007,-0.08393080516387849, ,0.012068030582472791,0.020849770522525145,-0.08427348300533542, ,0.00058458501626096, ,0.004652905502472583,0.00037965026272917114,-0.0059110246814172845,0.04525859414387451,0.021805390893015877,-0.0057871268421301955, ,0.0075321893710430755, ,0.05023758959843599, ,5.352013906599071e-05, ,0.18468143395420492,-0.23243109131553508,0.09468361418000001,-4.471428354863997,0.46675028319874456,-1.0002184817332807, ,0.04829360893560853,0.014984516273246611,0.006687158488664989,0.009003376009751077,0.07705038374646918,-0.04615091325716841, ,1.2514419555664062
0.011681770110581132,0.021041453488861342,-0.08399568534987983, ,0.01211057118186605,0.020852208932547127,-0.08432971263837112, ,0.0005755502500099355, ,0.0050303924246515195,0.0002289094508665518,-0.0067391240421317685,-0.015400558192564952,-0.010348648582596522,-0.00039873503735362095, ,0.008412671415069404, ,0.01855456025424957, ,5.401260458880539e-05, ,0.18512935246090995,-0.23226119119230212,0.09475231755,-4.471428354863997,0.4672968291978063,-1.000337438387504, ,0.046540922784929266,0.018141262006972046,0.0073101475539238195,0.009003376009751077,0.03686992417654648,0.005773592156771047, ,1.2578608989715576
0.011731071947036178,0.021045681660033698,-0.08406078612918286, ,0.01215332862860512,0.020854613097482325,-0.08438599327212155, ,0.0005661868830548915, ,0.005537586097387933,0.0004851235507085921,-0.007142031021829985,0.009892500656108768,-0.030733469576603507,-0.01282941987178837, ,0.00905034870942651, ,0.03228633926081482, ,5.4487044242869976e-05, ,0.18560043916623764,-0.23210673653481764,0.09482620608,-4.471428354863997,0.46757010219733725,-1.0003969167146158, ,0.0505039603823687,0.01611974546602187,0.007812070387444827,0.009003376009751077,0.021061864932379097,-0.02128175881266322, ,1.2648568153381348
0.011731071947036178,0.021045681660033698,-0.08406078612918286, ,0.012196301827235044,0.02085698316760581,-0.0844423243697323, ,0.0006305691012696174, ,0.005537586097387933,0.0004851235507085921,-0.007142031021829985,0.009892500656108768,-0.030733469576603507,-0.01282941987178837, ,0.00905034870942651, ,0.03228633926081482, ,5.504313713275965e-05, ,0.18560043916623764,-0.23210673653481764,0.09482620608,-4.471428354863997,0.46757010219733725,-1.0003969167146158, ,0.0505039603823687,0.01611974546602187,0.007812070387444827,0.009003376009751077,0.021061864932379097,-0.02128175881266322, ,1.2715809345245361
0.011792926953398949,0.021050853299481743,-0.08414489486494427, ,0.012239489684304834,0.02085931929297275,-0.08449870539543425, ,0.0006010702452867807, ,0.005920999348172238,0.0005904471463829834,-0.008211998506437765,-0.011329116353786774,-0.02071118628368611,-0.002937746999778828, ,0.010141192266369076, ,0.02360724628772208, ,5.55537238576333e-05, ,0.18614875320030758,-0.23192139094583625,0.09491565009000001,-4.471428354863997,0.4679800116966335,-1.0004861342052833, ,0.05343296258922904,0.01800700978339104,0.008958836625421823,0.009003376009751077,0.03239355646929177,-0.016204068132160153, ,1.2784578800201416
0.011849286498528719,0.021059794599039172,-0.08423231231055375, ,0.012282891108366034,0.020861621623418935,-0.08455513581454341, ,0.0005757608016064556, ,0.006095869101238565,0.0010630421129156613,-0.009769368044257399,0.027790763061588526,0.00837052295689829,-0.008493837170488, ,0.011564178769693284, ,0.029023991405889165, ,5.6025118399201196e-05, ,0.18668162176862907,-0.23174376808972907,0.09501416813,-4.471218664920513,0.4685265576956953,-1.000931805820069, ,0.05526903992922002,0.017867998787134395,0.010733700485175203,0.013444574630646864,0.0675470755396885,-0.031701375538669835, ,1.2852909564971924
0.011849286498528719,0.021059794599039172,-0.08423231231055375, ,0.01232650500997174,0.0208638903085587,-0.08461161509345798, ,0.0006403019598684989, ,0.006095869101238565,0.0010630421129156613,-0.009769368044257399,0.027790763061588526,0.00837052295689829,-0.008493837170488, ,0.011564178769693284, ,0.029023991405889165, ,5.6577109760304236e-05, ,0.18668162176862907,-0.23174376808972907,0.09501416813,-4.471218664920513,0.4685265576956953,-1.000931805820069, ,0.05526903992922002,0.017867998787134395,0.010733700485175203,0.013444574630646864,0.0675470755396885,-0.031701375538669835, ,1.2919600009918213
0.01191290744958573,0.021069977499993956,-0.08433265493812167, ,0.012370330301674783,0.020866125497786527,-0.08466814269965851, ,0.0006027796799480411, ,0.006099383742036255,0.000971611125657921,-0.00960243703508858,0.012230532884920372,0.0017438345208495361,-0.0059440371452790085, ,0.011417237285129849, ,0.012354222429777136, ,5.707377366651377e-05, ,0.18726082673419592,-0.2315584225007477,0.09512435278,-4.471218664920513,0.4692097401945225,-1.0012438591181294, ,0.05469564354955088,0.01820041073234959,0.010521011571994717,0.012948174737655164,0.0584870298491246,-0.017482112222490773, ,1.2986748218536377
0.011976275951964974,0.021078078805646636,-0.08442649610149444, ,0.01241436589802649,0.020868327340277177,-0.08472471810170759, ,0.0005699603841285374, ,0.0063911362612648365,0.0007563124648915722,-0.009060574692599157,-0.009167325202393023,-0.0263428916529095,-0.00720706424258247, ,0.01111362429699569, ,0.027892431427544585, ,5.752215331147765e-05, ,0.1878245862340143,-0.2313730769117663,0.09522675969000001,-4.471218664920513,0.4696196496938188,-1.0014147553489376, ,0.05641910913107657,0.018570830050581365,0.009881396724565759,0.011471273549353728,0.029195045759708684,-0.0014389912278668544, ,1.3053629398345947
0.011976275951964974,0.021078078805646636,-0.08442649610149444, ,0.012458610715575271,0.020870495984985214,-0.08478134076924813, ,0.0006337603568021449, ,0.0063911362612648365,0.0007563124648915722,-0.009060574692599157,-0.009167325202393023,-0.0263428916529095,-0.00720706424258247, ,0.01111362429699569, ,0.027892431427544585, ,5.8049139921864384e-05, ,0.1878245862340143,-0.2313730769117663,0.09522675969000001,-4.471218664920513,0.4696196496938188,-1.0014147553489376, ,0.05641910913107657,0.018570830050581365,0.009881396724565759,0.011471273549353728,0.029195045759708684,-0.0014389912278668544, ,1.311830997467041
0.012022219944256608,0.021082993687481573,-0.08449177674597246, ,0.012503063672865015,0.020872631580645916,-0.084838010173004, ,0.0006287610780959525, ,0.006627846418791739,0.0006577105807681065,-0.009318817512793372,-0.010480853893807093,-0.027436353363404435,-0.001057950693143325, ,0.011454313213627837, ,0.029370081953399626, ,5.856415877694035e-05, ,0.1882338910763482,-0.23122634498715605,0.09529805564,-4.471008974977028,0.4698929226933497,-1.00155591241619, ,0.05883257381182317,0.02017366954899464,0.010152206195028681,0.00526000392036276,0.032193738831708056,-0.002291948085773871, ,1.318863868713379
0.012104213744525995,0.021092692992671844,-0.08460919578858712, ,0.012547723690433912,0.020874734275774597,-0.0848947257847777, ,0.0005707315070287694, ,0.006207773012461157,0.0006939427777830831,-0.00890590792773421,0.03239927902173868,0.018704469932450438,-0.0018760152761929556, ,0.01087810637796659, ,0.03741083293053283, ,5.899888083368584e-05, ,0.18899071889802221,-0.23096377206943242,0.09542768464000001,-4.470589595090059,0.4707127416919423,-1.0017343473975249, ,0.05949651508368074,0.019794939832805752,0.009905977313432835,0.009347292983618445,0.08442279158652427,-0.03588249064095238, ,1.3255670070648193
0.012104213744525995,0.021092692992671844,-0.08460919578858712, ,0.012592589690812943,0.020876804218666768,-0.08495148707744979, ,0.0006342573248172623, ,0.006207773012461157,0.0006939427777830831,-0.00890590792773421,0.03239927902173868,0.018704469932450438,-0.0018760152761929556, ,0.01087810637796659, ,0.03741083293053283, ,5.951078546284075e-05, ,0.18899071889802221,-0.23096377206943242,0.09542768464000001,-4.470589595090059,0.4707127416919423,-1.0017343473975249, ,0.05949651508368074,0.019794939832805752,0.009905977313432835,0.009347292983618445,0.08442279158652427,-0.03588249064095238, ,1.3322529792785645
0.012167991514738895,0.02109974454364885,-0.08469480145161302, ,0.012637660598524319,0.020878841557399174,-0.08500829352497903, ,0.0006063534098701685, ,0.0066125280490440365,0.0006590278812802297,-0.008727232823983477,0.03523577857673854,0.00899237798018053,-0.02074946601442912, ,0.010969249642145695, ,0.03636513306754576, ,5.9981770460307255e-05, ,0.18960853752796017,-0.2307707037475768,0.0955236101,-4.470379905146574,0.471532560690535,-1.002157818599282, ,0.06330683226048751,0.020364150549028064,0.009748354663402695,0.025409808857055804,0.0745676662000126,-0.03837052595617362, ,1.339082956314087
0.012238161131208312,0.02110534071352331,-0.0847876123679239, ,0.012682935340080272,0.020880846439828855,-0.08506514460240071, ,0.0005703033552180537, ,0.006750355751002699,8.079623972227258e-05,-0.008577069306553995,-0.029568527662202488,-0.030393885697189864,0.042426776225565635, ,0.010915124767352827, ,0.04240384498445162, ,6.040209650786046e-05, ,0.190257247089395,-0.2305467444942243,0.09562601701000001,-4.47017021520309,0.47207910668959674,-1.0022767752535056, ,0.06272104531293508,0.022949683569158594,0.009364380670194005,-0.034399701654752535,0.04150073643365792,0.009271026831511422, ,1.3453898429870605
0.012238161131208312,0.02110534071352331,-0.0847876123679239, ,0.012728412843981334,0.02088281901359543,-0.0851220397858276, ,0.0006338015041488998, ,0.006750355751002699,8.079623972227258e-05,-0.008577069306553995,-0.029568527662202488,-0.030393885697189864,0.042426776225565635, ,0.010915124767352827, ,0.04240384498445162, ,6.097572795858964e-05, ,0.190257247089395,-0.2305467444942243,0.09562601701000001,-4.47017021520309,0.47207910668959674,-1.0022767752535056, ,0.06272104531293508,0.022949683569158594,0.009364380670194005,-0.034399701654752535,0.04150073643365792,0.009271026831511422, ,1.3502249717712402
0.012308959637360563,0.021106388930825653,-0.08487252117034193, ,0.012774092040715345,0.020884759426117463,-0.08517897855244617, ,0.0005994863777050997, ,0.006750355751002699,8.079623972227258e-05,-0.008577069306553995,-0.029568527662202488,-0.030393885697189864,0.042426776225565635, ,0.010915124767352827, ,0.04240384498445162, ,6.150168653665697e-05, ,0.190257247089395,-0.2305467444942243,0.09562601701000001,-4.47017021520309,0.47207910668959674,-1.0022767752535056, ,0.06272104531293508,0.022949683569158594,0.009364380670194005,-0.034399701654752535,0.04150073643365792,0.009271026831511422, ,1.3554139137268066
0.012308959637360563,0.021106388930825653,-0.08487252117034193, ,0.012819971862755792,0.02088666782459494,-0.08523596038051698, ,0.0006644538498039556, ,0.0071071750059670934,0.00020597189780333178,-0.007919448492981342,-0.010659551782075725,-0.029140737394663274,-0.00668609425194164, ,0.010642933121142523, ,0.031029157077630817, ,6.21053957067123e-05, ,0.19092140211657832,-0.23031506250799755,0.09571934989000001,-4.470379905146574,0.4724890161888931,-1.002365992744173, ,0.06720746569296797,0.022028073713665455,0.008800448353591162,0.012416918064070283,0.037441734286714504,-0.0015273332262772561, ,1.3604509830474854
0.012381597908451291,0.02110851004080424,-0.08495819646233568, ,0.012866051244560065,0.02088854435601148,-0.085292984749377, ,0.0006286200239360204, ,0.007479301174466053,0.00024882902144604535,-0.009301306615275248,-0.011298656698815846,-0.027731587482939832,-0.005060285526942701, ,0.011938013515306732, ,0.029944958138289655, ,6.265966116638134e-05, ,0.19160100260951007,-0.23008338052177083,0.09581397906000001,-4.470379905146574,0.47289892568818936,-1.0022101740144187, ,0.0686167328694655,0.025178281124561098,0.010210776615384616,0.01035013264189959,0.04116902074745713,-0.003767667503108415, ,1.3656198978424072
0.012381597908451291,0.02110851004080424,-0.08495819646233568, ,0.012912329122568771,0.020890389167129438,-0.08535005113943332, ,0.0006948398557470406, ,0.007479301174466053,0.00024882902144604535,-0.009301306615275248,-0.011298656698815846,-0.027731587482939832,-0.005060285526942701, ,0.011938013515306732, ,0.029944958138289655, ,6.329244627530504e-05, ,0.19160100260951007,-0.23008338052177083,0.09581397906000001,-4.470379905146574,0.47289892568818936,-1.0022101740144187, ,0.0686167328694655,0.025178281124561098,0.010210776615384616,0.01035013264189959,0.04116902074745713,-0.003767667503108415, ,1.3712029457092285
0.01245370501830864,0.02111291322940503,-0.08505169712671816, ,0.012958804435203636,0.020892202404494038,-0.0854071590321664, ,0.0006558901244914832, ,0.007675304524810503,0.000591919338789975,-0.009897875557282634,0.02512687255802801,-0.005594041129240996,-0.004934553294612381, ,0.012539083243988102, ,0.02574204587257992, ,6.387206416792392e-05, ,0.19228060310244185,-0.22985169853554407,0.09591768226000001,-4.470379905146574,0.47358210818701657,-1.0026039060526197, ,0.07221989464114975,0.023530111965899023,0.011015775601659753,0.008759900259787005,0.07217335118710601,-0.03466901622530219, ,1.376262903213501
0.01245370501830864,0.02111291322940503,-0.08505169712671816, ,0.013005476122866398,0.02089398421443286,-0.0854643079101286, ,0.0007229307878408213, ,0.007675304524810503,0.000591919338789975,-0.009897875557282634,0.02512687255802801,-0.005594041129240996,-0.004934553294612381, ,0.012539083243988102, ,0.02574204587257992, ,6.45304465661111e-05, ,0.19228060310244185,-0.22985169853554407,0.09591768226000001,-4.470379905146574,0.47358210818701657,-1.0026039060526197, ,0.07221989464114975,0.023530111965899023,0.011015775601659753,0.008759900259787005,0.07217335118710601,-0.03466901622530219, ,1.381701946258545
0.01253364740421153,0.021118700677637874,-0.0851536230656218, ,0.01305234312793736,0.020895734743054083,-0.08552149725694166, ,0.0006738623616403654, ,0.008140158999369556,0.0006031078886255957,-0.010809098395278261,-0.005291245799445069,-0.019882252105947268,0.007757545766592799, ,0.01354483428393078, ,0.020574282086182862, ,6.512337375369385e-05, ,0.19301426272549316,-0.2296045710835689,0.09603045949000001,-4.47017021520309,0.47412865418607836,-1.0027228627068432, ,0.0741382355925553,0.02516492748832426,0.011913845564697085,0.0,0.05834361942169208,-0.008643844788526008, ,1.3871209621429443
0.01253364740421153,0.021118700677637874,-0.0851536230656218, ,0.01309940439477387,0.020897454136249084,-0.0855787265572981, ,0.0007414472220475601, ,0.008140158999369556,0.0006031078886255957,-0.010809098395278261,-0.005291245799445069,-0.019882252105947268,0.007757545766592799, ,0.01354483428393078, ,0.020574282086182862, ,6.579505530447673e-05, ,0.19301426272549316,-0.2296045710835689,0.09603045949000001,-4.47017021520309,0.47412865418607836,-1.0027228627068432, ,0.0741382355925553,0.02516492748832426,0.011913845564697085,0.0,0.05834361942169208,-0.008643844788526008, ,1.3920738697052002
0.012621851806847502,0.02112797966972572,-0.08527496833814899, ,0.013146658869709019,0.020899142539690635,-0.08563599529695903, ,0.0006768525321660968, ,0.008683655555641304,0.0009340510060024763,-0.012323861256248967,0.004828235698305406,-0.023211534293788055,-0.017946944789440165, ,0.0151048297360185, ,0.023708371938160246, ,6.638263786115891e-05, ,0.19379425874578984,-0.22933427543297105,0.09616397736000001,-4.4697508353161215,0.47467520018514014,-1.0028418193610666, ,0.07591755324677663,0.02640426865845041,0.013510442340966922,0.02204380127311249,0.052382984349444044,-0.017489229550762715, ,1.3973779678344727
0.012621851806847502,0.02112797966972572,-0.08527496833814899, ,0.013194105501050166,0.020900800098833997,-0.08569330296275371, ,0.0007443713495979793, ,0.008683655555641304,0.0009340510060024763,-0.012323861256248967,0.004828235698305406,-0.023211534293788055,-0.017946944789440165, ,0.0151048297360185, ,0.023708371938160246, ,6.70483563422511e-05, ,0.19379425874578984,-0.22933427543297105,0.09616397736000001,-4.4697508353161215,0.47467520018514014,-1.0028418193610666, ,0.07591755324677663,0.02640426865845041,0.013510442340966922,0.02204380127311249,0.052382984349444044,-0.017489229550762715, ,1.4023668766021729
0.012704879890613262,0.021135559821000044,-0.08539070028336172, ,0.013241743239077416,0.020902426958917905,-0.08575064904257956, ,0.0006871217472684266, ,0.008872037853138497,0.0007303156077834078,-0.011910875211793508,-0.010760446964052112,-0.02542894743762522,-0.017976258187913645, ,0.014869948381397005, ,0.027611923998951963, ,6.763956884619474e-05, ,0.19452791836884117,-0.22907170251524742,0.09629101378,-4.469541145372637,0.4752217461842019,-1.0031241334955712, ,0.07849209392760198,0.02774764373054701,0.013088587937551356,0.026307092685423545,0.05002967442967628,-0.0019519042281009244, ,1.4071898460388184
0.012704879890613262,0.021135559821000044,-0.08539070028336172, ,0.013289571036042423,0.020904023264961782,-0.08580803302539924, ,0.0007547446786177948, ,0.008872037853138497,0.0007303156077834078,-0.011910875211793508,-0.010760446964052112,-0.02542894743762522,-0.017976258187913645, ,0.014869948381397005, ,0.027611923998951963, ,6.830844881235136e-05, ,0.19452791836884117,-0.22907170251524742,0.09629101378,-4.469541145372637,0.4752217461842019,-1.0031241334955712, ,0.07849209392760198,0.02774764373054701,0.013088587937551356,0.026307092685423545,0.05002967442967628,-0.0019519042281009244, ,1.4119880199432373
0.012797142128025784,0.02114243638306088,-0.08551406313551997, ,0.013337587846166711,0.02090558916176913,-0.08586545440124255, ,0.0006867707056336913, ,0.008866440048520169,0.0007754983245306501,-0.012053382445116239,0.016337038044680924,-0.012796124980382729,-0.02159607092091995, ,0.014983296871970083, ,0.020751852258793016, ,6.889038765196084e-05, ,0.1953619735192574,-0.2287859613989011,0.09642712423000001,-4.469541145372637,0.4759049286830291,-1.0035178655337722, ,0.07941166657612617,0.027902658499991406,0.01330727779448622,0.026307092685423545,0.06716928562069792,-0.027334926028052674, ,1.4170448780059814
0.012797142128025784,0.02114243638306088,-0.08551406313551997, ,0.013385792625640387,0.020907124793926507,-0.08592291266120441, ,0.0007543466623345384, ,0.008866440048520169,0.0007754983245306501,-0.012053382445116239,0.016337038044680924,-0.012796124980382729,-0.02159607092091995, ,0.014983296871970083, ,0.020751852258793016, ,6.954944360789183e-05, ,0.1953619735192574,-0.2287859613989011,0.09642712423000001,-4.469541145372637,0.4759049286830291,-1.0035178655337722, ,0.07941166657612617,0.027902658499991406,0.01330727779448622,0.026307092685423545,0.06716928562069792,-0.027334926028052674, ,1.4224679470062256
0.012887423928047504,0.021148274208328356,-0.08563655869356282, ,0.013434184332620766,0.020908630305802176,-0.08598040729744258, ,0.0006889179939710927, ,0.009136675979832634,0.0004768852553743109,-0.011563001551696903,0.004594273490160277,-0.012427701577506757,-0.01698342117596606, ,0.014744804928916118, ,0.01324971353260255, ,7.012530651334435e-05, ,0.196172860471051,-0.22849249754968057,0.09656193839,-4.469541145372637,0.4765881111818563,-1.0038299188318325, ,0.08368336998101479,0.03002117733580221,0.01282513004830918,0.025716315402379477,0.07101440482967035,-0.016394582188534013, ,1.4276888370513916
0.012887423928047504,0.021148274208328356,-0.08563655869356282, ,0.01348276192723087,0.020910105841549183,-0.08603793780318043, ,0.0007564764992009604, ,0.009136675979832634,0.0004768852553743109,-0.011563001551696903,0.004594273490160277,-0.012427701577506757,-0.01698342117596606, ,0.014744804928916118, ,0.01324971353260255, ,7.086241881738057e-05, ,0.196172860471051,-0.22849249754968057,0.09656193839,-4.469541145372637,0.4765881111818563,-1.0038299188318325, ,0.08368336998101479,0.03002117733580221,0.01282513004830918,0.025716315402379477,0.07101440482967035,-0.016394582188534013, ,1.4310979843139648
0.012887423928047504,0.021148274208328356,-0.08563655869356282, ,0.013531524371557966,0.02091155154510288,-0.0860955036727025, ,0.0008255504191098527, ,0.009136675979832634,0.0004768852553743109,-0.011563001551696903,0.004594273490160277,-0.012427701577506757,-0.01698342117596606, ,0.014744804928916118, ,0.01324971353260255, ,7.16784397976611e-05, ,0.196172860471051,-0.22849249754968057,0.09656193839,-4.469541145372637,0.4765881111818563,-1.0038299188318325, ,0.08368336998101479,0.03002117733580221,0.01282513004830918,0.025716315402379477,0.07101440482967035,-0.016394582188534013, ,1.4345488548278809
0.012978970976556646,0.0211520633466429,-0.08574716508437095, ,0.013580470629652272,0.0209129675601817,-0.08615310440135544, ,0.0007640388451194686, ,0.009400570778831234,0.000330381653072379,-0.010869684034001681,0.0065195347897437665,-0.02671881119396491,-0.016673990951667425, ,0.014374627438773276, ,0.027502709934819736, ,7.241734689947557e-05, ,0.19702236108721569,-0.22820675643333427,0.09668508594000001,-4.469541145372637,0.4772712936806835,-1.004141972129893, ,0.08714136047609806,0.029507755459723495,0.012131615780654989,0.02128062157266365,0.06110618502527788,-0.020811072204564886, ,1.437816858291626
0.012978970976556646,0.0211520633466429,-0.08574716508437095, ,0.01362959966752534,0.020914354030288528,-0.08621073948554747, ,0.0008335014325239434, ,0.009400570778831234,0.000330381653072379,-0.010869684034001681,0.0065195347897437665,-0.02671881119396491,-0.016673990951667425, ,0.014374627438773276, ,0.027502709934819736, ,7.323524088846011e-05, ,0.19702236108721569,-0.22820675643333427,0.09668508594000001,-4.469541145372637,0.4772712936806835,-1.004141972129893, ,0.08714136047609806,0.029507755459723495,0.012131615780654989,0.02128062157266365,0.06110618502527788,-0.020811072204564886, ,1.4411168098449707
0.012978970976556646,0.0211520633466429,-0.08574716508437095, ,0.013678910453148839,0.02091571109870942,-0.08626840842274705, ,0.0009041417332458555, ,0.009400570778831234,0.000330381653072379,-0.010869684034001681,0.0065195347897437665,-0.02671881119396491,-0.016673990951667425, ,0.014374627438773276, ,0.027502709934819736, ,7.413295564138539e-05, ,0.19702236108721569,-0.22820675643333427,0.09668508594000001,-4.469541145372637,0.4772712936806835,-1.004141972129893, ,0.08714136047609806,0.029507755459723495,0.012131615780654989,0.02128062157266365,0.06110618502527788,-0.020811072204564886, ,1.4444458484649658
0.013082079033306146,0.021156940186099763,-0.08587373358284418, ,0.01372840195645302,0.020917038908513954,-0.08632611071148183, ,0.000824579293025762, ,0.010723067188929505,0.0006338089688119313,-0.014013979809913826,-0.01408121131901948,-0.03772775347063054,-0.0017948000564193753, ,0.017657222710831828, ,0.04026988147036128, ,7.493238044250005e-05, ,0.19794908903212263,-0.22788240165261683,0.09682508526000001,-4.469331455429152,0.4778178396797452,-1.0040975713038354, ,0.09461310225171563,0.03389176484231099,0.01541995306873185,0.008884840905929085,0.05875624787148576,-0.006487548873607064, ,1.4476649761199951
0.013082079033306146,0.021156940186099763,-0.08587373358284418, ,0.01377807314932533,0.020918337602556937,-0.08638384585133915, ,0.000895295218838859, ,0.010723067188929505,0.0006338089688119313,-0.014013979809913826,-0.01408121131901948,-0.03772775347063054,-0.0017948000564193753, ,0.017657222710831828, ,0.04026988147036128, ,7.581142579386071e-05, ,0.19794908903212263,-0.22788240165261683,0.09682508526000001,-4.469331455429152,0.4778178396797452,-1.0040975713038354, ,0.09461310225171563,0.03389176484231099,0.01541995306873185,0.008884840905929085,0.05875624787148576,-0.006487548873607064, ,1.4509568214416504
0.013082079033306146,0.021156940186099763,-0.08587373358284418, ,0.013827923005608974,0.020919607323476357,-0.08644161334296373, ,0.0009670044160472657, ,0.010723067188929505,0.0006338089688119313,-0.014013979809913826,-0.01408121131901948,-0.03772775347063054,-0.0017948000564193753, ,0.017657222710831828, ,0.04026988147036128, ,7.677069822263665e-05, ,0.19794908903212263,-0.22788240165261683,0.09682508526000001,-4.469331455429152,0.4778178396797452,-1.0040975713038354, ,0.09461310225171563,0.03389176484231099,0.01541995306873185,0.008884840905929085,0.05875624787148576,-0.006487548873607064, ,1.4543139934539795
0.013197646643375152,0.021167474284217055,-0.08603007063067505, ,0.013877950501101374,0.020920848213694086,-0.08649941268805729, ,0.0008625078111684379, ,0.011826734382389993,0.0013115212284894855,-0.01667184787093226,-0.033327527627530544,-0.0347213373174766,-0.00027499172412018616, ,0.020482730421403604, ,0.048127892898706975, ,7.760281842771078e-05, ,0.19895304430577182,-0.2275194332075283,0.09699749183,-4.468702385598698,0.47850102217857243,-1.0040829096413335, ,0.10106170560007538,0.03392811639559198,0.018330047779056387,0.016470573492982414,0.06439447575686216,0.016638643033793768, ,1.4575278759002686
0.013197646643375152,0.021167474284217055,-0.08603007063067505, ,0.013928154613553078,0.02092206041541665,-0.08655724338937791, ,0.0009336921221748832, ,0.011826734382389993,0.0013115212284894855,-0.01667184787093226,-0.033327527627530544,-0.0347213373174766,-0.00027499172412018616, ,0.020482730421403604, ,0.048127892898706975, ,7.851439510841272e-05, ,0.19895304430577182,-0.2275194332075283,0.09699749183,-4.468702385598698,0.47850102217857243,-1.0040829096413335, ,0.10106170560007538,0.03392811639559198,0.018330047779056387,0.016470573492982414,0.06439447575686216,0.016638643033793768, ,1.4607579708099365
0.013197646643375152,0.021167474284217055,-0.08603007063067505, ,0.013978534322665914,0.020923244070635855,-0.08661510495074004, ,0.001005832550948681, ,0.011826734382389993,0.0013115212284894855,-0.01667184787093226,-0.033327527627530544,-0.0347213373174766,-0.00027499172412018616, ,0.020482730421403604, ,0.048127892898706975, ,7.95059882868378e-05, ,0.19895304430577182,-0.2275194332075283,0.09699749183,-4.468702385598698,0.47850102217857243,-1.0040829096413335, ,0.10106170560007538,0.03392811639559198,0.018330047779056387,0.016470573492982414,0.06439447575686216,0.016638643033793768, ,1.4640839099884033
0.013308733378376552,0.021183489998503405,-0.08619129877074966, ,0.014029088610091866,0.0209243993211274,-0.0866729968770126, ,0.0009044737168873896, ,0.01241395725430095,0.0019983553248626024,-0.018361294458472704,0.067740197468947,0.008582635067344031,-0.07161740915253846, ,0.022253918596659743, ,0.06828172442798905, ,8.037482481400995e-05, ,0.19991838591504987,-0.2272105238925593,0.09717637985000001,-4.46828300571173,0.47945747767693053,-1.0046177987467868, ,0.10698640536467957,0.03447037470340384,0.020395405275288096,0.07559922951993714,0.11191678915226112,-0.06921426222445812, ,1.4682519435882568
0.013308733378376552,0.021183489998503405,-0.08619129877074966, ,0.014079816459431562,0.020925526308451545,-0.086730918674118, ,0.0009758606577712414, ,0.01241395725430095,0.0019983553248626024,-0.018361294458472704,0.067740197468947,0.008582635067344031,-0.07161740915253846, ,0.022253918596659743, ,0.06828172442798905, ,8.13226283118509e-05, ,0.19991838591504987,-0.2272105238925593,0.09717637985000001,-4.46828300571173,0.47945747767693053,-1.0046177987467868, ,0.10698640536467957,0.03447037470340384,0.020395405275288096,0.07559922951993714,0.11191678915226112,-0.06921426222445812, ,1.4717028141021729
0.013440821818234545,0.021198772931914592,-0.08638844540218801, ,0.014130716856232864,0.020926625173954758,-0.08678886984903332, ,0.0010482020652337336, ,0.013073175684259574,0.0016964124347873906,-0.019720319850640076,-0.003773863850913153,-0.011578292564906731,-0.029441602451344064, ,0.023720808431248, ,0.012177681415488806, ,8.234995639608527e-05, ,0.20103818218181244,-0.22681666451597385,0.09739286028000001,-4.46828300571173,0.48041393317528863,-1.0049076516318185, ,0.10945437319316122,0.03947460131383976,0.02167185240816327,0.0454833007840132,0.09363697516912362,-0.00844439258557883, ,1.4759299755096436
0.013440821818234545,0.021198772931914592,-0.08638844540218801, ,0.014181788787989334,0.020927696058766918,-0.08684684990978658, ,0.0009124962542442586, ,0.013073175684259574,0.0016964124347873906,-0.019720319850640076,-0.003773863850913153,-0.011578292564906731,-0.029441602451344064, ,0.023720808431248, ,0.012177681415488806, ,8.321546142091409e-05, ,0.20103818218181244,-0.22681666451597385,0.09739286028000001,-4.46828300571173,0.48041393317528863,-1.0049076516318185, ,0.10945437319316122,0.03947460131383976,0.02167185240816327,0.0454833007840132,0.09363697516912362,-0.00844439258557883, ,1.4799978733062744
0.013440821818234545,0.021198772931914592,-0.08638844540218801, ,0.014233031244138973,0.020928739103804123,-0.08690485836545808, ,0.000983461433635906, ,0.013073175684259574,0.0016964124347873906,-0.019720319850640076,-0.003773863850913153,-0.011578292564906731,-0.029441602451344064, ,0.023720808431248, ,0.012177681415488806, ,8.415891466663474e-05, ,0.20103818218181244,-0.22681666451597385,0.09739286028000001,-4.46828300571173,0.48041393317528863,-1.0049076516318185, ,0.10945437319316122,0.03947460131383976,0.02167185240816327,0.0454833007840132,0.09363697516912362,-0.00844439258557883, ,1.4836699962615967
0.013571185379099154,0.021212141193944135,-0.0865781013799379, ,0.01428444321606276,0.020929754449767777,-0.08696289472617963, ,0.0008582219611431705, ,0.013611976932580011,0.0013597415221791379,-0.01890540548623692,0.010650729931451993,-0.032388068914087666,-0.017460235646489845, ,0.023335577336317723, ,0.034094319775953494, ,8.495373509498716e-05, ,0.20215025571570078,-0.2264228051393884,0.09760156297000001,-4.46828300571173,0.4813703886736467,-1.0051158257767092, ,0.11643796510241813,0.040024015840772156,0.020876555072083886,0.02361724762483033,0.08663222952541064,-0.030245994444469394, ,1.4878549575805664
0.013571185379099154,0.021212141193944135,-0.0865781013799379, ,0.014336023697083105,0.02093074223714426,-0.08702095850313231, ,0.0009275157449383806, ,0.013611976932580011,0.0013597415221791379,-0.01890540548623692,0.010650729931451993,-0.032388068914087666,-0.017460235646489845, ,0.023335577336317723, ,0.034094319775953494, ,8.582454920389337e-05, ,0.20215025571570078,-0.2264228051393884,0.09760156297000001,-4.46828300571173,0.4813703886736467,-1.0051158257767092, ,0.11643796510241813,0.040024015840772156,0.020876555072083886,0.02361724762483033,0.08663222952541064,-0.030245994444469394, ,1.4911868572235107
0.013571185379099154,0.021212141193944135,-0.0865781013799379, ,0.01438777168246261,0.020931702606205957,-0.0870790492085468, ,0.0009982022436968072, ,0.013611976932580011,0.0013597415221791379,-0.01890540548623692,0.010650729931451993,-0.032388068914087666,-0.017460235646489845, ,0.023335577336317723, ,0.034094319775953494, ,8.677243125124316e-05, ,0.20215025571570078,-0.2264228051393884,0.09760156297000001,-4.46828300571173,0.4813703886736467,-1.0051158257767092, ,0.11643796510241813,0.040024015840772156,0.020876555072083886,0.02361724762483033,0.08663222952541064,-0.030245994444469394, ,1.4944579601287842
0.013709529021566037,0.021221861439770024,-0.08676050904746983, ,0.014439686169402449,0.02093263569701068,-0.08713716635570215, ,0.000871006153052958, ,0.013626325972231691,0.0007668833176263934,-0.01695366224257273,0.014930806465664803,-0.029440243275257183,-0.01154319349467477, ,0.021764455723946002, ,0.03300993040298841, ,8.75704418811636e-05, ,0.20336272477695402,-0.22600577756418028,0.09780378421000001,-4.46828300571173,0.4823268441720048,-1.005405678661741, ,0.12150696742441842,0.04145781632086971,0.01891782840855107,0.01822846165902665,0.09694195756364297,-0.03526969172156385, ,1.4978840351104736
0.013709529021566037,0.021221861439770024,-0.08676050904746983, ,0.014491766157041158,0.020933541649403156,-0.08719530945892644, ,0.0009402524317630606, ,0.013626325972231691,0.0007668833176263934,-0.01695366224257273,0.014930806465664803,-0.029440243275257183,-0.01154319349467477, ,0.021764455723946002, ,0.03300993040298841, ,8.844385689029686e-05, ,0.20336272477695402,-0.22600577756418028,0.09780378421000001,-4.46828300571173,0.4823268441720048,-1.005405678661741, ,0.12150696742441842,0.04145781632086971,0.01891782840855107,0.01822846165902665,0.09694195756364297,-0.03526969172156385, ,1.5014088153839111
0.013709529021566037,0.021221861439770024,-0.08676050904746983, ,0.014544010646453004,0.020934420603012358,-0.08725347803359244, ,0.001010940274293538, ,0.013626325972231691,0.0007668833176263934,-0.01695366224257273,0.014930806465664803,-0.029440243275257183,-0.01154319349467477, ,0.021764455723946002, ,0.03300993040298841, ,8.93938028589904e-05, ,0.20336272477695402,-0.22600577756418028,0.09780378421000001,-4.46828300571173,0.4823268441720048,-1.005405678661741, ,0.12150696742441842,0.04145781632086971,0.01891782840855107,0.01822846165902665,0.09694195756364297,-0.03526969172156385, ,1.504624843597412
0.013850389569789125,0.021226156780474403,-0.08692479808506616, ,0.01459641864064677,0.02093527269725512,-0.08731167159612141, ,0.000889294123443566, ,0.013878990251445058,9.415776046269638e-05,-0.01567906414141037,0.006006171714621182,-0.026552311732568532,0.007359142008209092, ,0.020939634391125905, ,0.027223122698584384, ,9.020119662913311e-05, ,0.20463697570120107,-0.22556558179034947,0.09798785739000002,-4.468073315768245,0.4832832996703629,-1.0056955315467726, ,0.12806604798714005,0.0451245561381221,0.017639879867109635,0.002867525823927239,0.11000224300904753,-0.0301359399316527, ,1.5078198909759521
0.013850389569789125,0.021226156780474403,-0.08692479808506616, ,0.014648989144564051,0.02093609807133326,-0.08736988966397816, ,0.0009591672686229936, ,0.013878990251445058,9.415776046269638e-05,-0.01567906414141037,0.006006171714621182,-0.026552311732568532,0.007359142008209092, ,0.020939634391125905, ,0.027223122698584384, ,9.10841500025625e-05, ,0.20463697570120107,-0.22556558179034947,0.09798785739000002,-4.468073315768245,0.4832832996703629,-1.0056955315467726, ,0.12806604798714005,0.0451245561381221,0.017639879867109635,0.002867525823927239,0.11000224300904753,-0.0301359399316527, ,1.511112928390503
0.013850389569789125,0.021226156780474403,-0.08692479808506616, ,0.01470172116507823,0.02093689686423595,-0.08742813175567317, ,0.0010304278568859123, ,0.013878990251445058,9.415776046269638e-05,-0.01567906414141037,0.006006171714621182,-0.026552311732568532,0.007359142008209092, ,0.020939634391125905, ,0.027223122698584384, ,9.214795941013142e-05, ,0.20463697570120107,-0.22556558179034947,0.09798785739000002,-4.468073315768245,0.4832832996703629,-1.0056955315467726, ,0.12806604798714005,0.0451245561381221,0.017639879867109635,0.002867525823927239,0.11000224300904753,-0.0301359399316527, ,1.5128459930419922
0.013850389569789125,0.021226156780474403,-0.08692479808506616, ,0.014754613710992615,0.02093766921473882,-0.08748639739076097, ,0.0011028327857277947, ,0.013878990251445058,9.415776046269638e-05,-0.01567906414141037,0.006006171714621182,-0.026552311732568532,0.007359142008209092, ,0.020939634391125905, ,0.027223122698584384, ,9.32912680371876e-05, ,0.20463697570120107,-0.22556558179034947,0.09798785739000002,-4.468073315768245,0.4832832996703629,-1.0056955315467726, ,0.12806604798714005,0.0451245561381221,0.017639879867109635,0.002867525823927239,0.11000224300904753,-0.0301359399316527, ,1.5146398544311523
0.013993094904961912,0.02123007998466682,-0.08707871698002526, ,0.014807665793039361,0.02093841526140333,-0.08754468608983779, ,0.0009827111751675225, ,0.014682415431067289,0.00042004653793264145,-0.015708371115028284,0.02337503115559022,-0.03484258020711846,-0.028071612790730283, ,0.021505875594170235, ,0.04195707950487766, ,9.429626228253261e-05, ,0.20595756302269344,-0.22512538601651869,0.09816285654000001,-4.467444245937791,0.4843763916684864,-1.0060968023355004, ,0.1353736684143663,0.04317422272905859,0.01785741201793722,0.03468268060043817,0.10270932336928686,-0.04124045204743156, ,1.5165798664093018
0.013993094904961912,0.02123007998466682,-0.08707871698002526, ,0.01486087642387781,0.020939135142579095,-0.08760299737454394, ,0.0010547813032975603, ,0.014682415431067289,0.00042004653793264145,-0.015708371115028284,0.02337503115559022,-0.03484258020711846,-0.028071612790730283, ,0.021505875594170235, ,0.04195707950487766, ,9.538033117758343e-05, ,0.20595756302269344,-0.22512538601651869,0.09816285654000001,-4.467444245937791,0.4843763916684864,-1.0060968023355004, ,0.1353736684143663,0.04317422272905859,0.01785741201793722,0.03468268060043817,0.10270932336928686,-0.04124045204743156, ,1.518312931060791
0.013993094904961912,0.02123007998466682,-0.08707871698002526, ,0.014914244618093216,0.020939828996401403,-0.08766133076755904, ,0.0011279189933746992, ,0.014682415431067289,0.00042004653793264145,-0.015708371115028284,0.02337503115559022,-0.03484258020711846,-0.028071612790730283, ,0.021505875594170235, ,0.04195707950487766, ,9.654441084184172e-05, ,0.20595756302269344,-0.22512538601651869,0.09816285654000001,-4.467444245937791,0.4843763916684864,-1.0060968023355004, ,0.1353736684143663,0.04317422272905859,0.01785741201793722,0.03468268060043817,0.10270932336928686,-0.04124045204743156, ,1.5200839042663574
0.013993094904961912,0.02123007998466682,-0.08707871698002526, ,0.014967769392195388,0.02094049696079408,-0.08771968579260571, ,0.0012019524543341617, ,0.014682415431067289,0.00042004653793264145,-0.015708371115028284,0.02337503115559022,-0.03484258020711846,-0.028071612790730283, ,0.021505875594170235, ,0.04195707950487766, ,9.77892397196484e-05, ,0.20595756302269344,-0.22512538601651869,0.09816285654000001,-4.467444245937791,0.4843763916684864,-1.0060968023355004, ,0.1353736684143663,0.04317422272905859,0.01785741201793722,0.03468268060043817,0.10270932336928686,-0.04124045204743156, ,1.5218608379364014
0.013993094904961912,0.02123007998466682,-0.08707871698002526, ,0.015021449764617006,0.02094113917346723,-0.08777806197444507, ,0.0012767474029630823, ,0.014682415431067289,0.00042004653793264145,-0.015708371115028284,0.02337503115559022,-0.03484258020711846,-0.028071612790730283, ,0.021505875594170235, ,0.04195707950487766, ,9.911540188302685e-05, ,0.20595756302269344,-0.22512538601651869,0.09816285654000001,-4.467444245937791,0.4843763916684864,-1.0060968023355004, ,0.1353736684143663,0.04317422272905859,0.01785741201793722,0.03468268060043817,0.10270932336928686,-0.04124045204743156, ,1.5236458778381348
0.013993094904961912,0.02123007998466682,-0.08707871698002526, ,0.015075284755712346,0.020941755771918164,-0.08783645883887713, ,0.0013521976369527747, ,0.014682415431067289,0.00042004653793264145,-0.015708371115028284,0.02337503115559022,-0.03484258020711846,-0.028071612790730283, ,0.021505875594170235, ,0.04195707950487766, ,0.00010052335945052093, ,0.20737854587155075,-0.22464657657831677,0.09835470746000001,-4.466815176107338,0.48560612016637533,-1.0063644548075033, ,0.15159255840011304,0.05240029903836045,0.021760671475409835,0.05805955767825069,0.14955744382834468,-0.06219935027865125, ,1.5254499912261963
