NicholasDascanio/dvrk_moveit_final/test/execution/second_exp_sharpbends/firstexp_400vel4.csv
Current Position (x),Current Position (y),Current Position (z), ,Planned Position (x),Planned Position (y),Planned Position (z), ,Position Error,,Cartesian linear Velocity(x),Cartesian linear Velocity(y),Cartesian linear Velocity(z),Cartesian Angular Velocity(x),Cartesian Angular Velocity(y),Cartesian Angular Velocity(z), ,Total Linear Velocity, ,Total Angular Velocity, ,MSE, ,Joint 1 Position,Joint 2 Position,Joint 3 Position,Joint 4 Position,Joint 5 Position,Joint 6 Position, ,Joint 1 Velocity,Joint 2 Velocity,Joint 3 Velocity,Joint 4 Velocity,Joint 5 Velocity,Joint 6 Velocity, ,Time Stamp
0.012171836443936912,0.01921170840672992,-0.08128836489180602, ,0.012173804146586992,0.01920502095743967,-0.08138183172642094, ,9.372642639438194e-05, ,-0.00020623124270969468,-9.567644962576739e-05,0.0006235462210386467,-0.38987167647074517,0.050557097346023955,0.0279489705150218, ,0.0006636981228345865, ,0.393136037786114, ,7.810535532865161e-06, ,0.1718462519172438,-0.22555013632460102,0.09109677975000001,-4.53223843847451,0.21479257763127238,-1.206833111326216, ,-0.0011897504047682183,-0.0005324481128948161,-0.0006521731287012502,0.0034556405394456056,0.0,0.39521221207325885, ,0.02806687355041504
0.012107072069397245,0.01922781713290881,-0.08128888391175852, ,0.01210246881288098,0.01926668594810622,-0.08138444467620728, ,0.0001032658436630278, ,-0.003282458244999137,0.0006932787695866417,-0.00014947605632773518,-0.10250076208130776,0.30594956538765566,0.08972460318358419, ,0.0033582005112764894, ,0.3226632033376974, ,8.954194093518626e-06, ,0.17169951999263353,-0.22564280911909174,0.09110196491000001,-4.531819058587541,0.22039467412165545,-1.19261513514544, ,-0.00817907760488995,-0.0036351084121525835,0.00035212808307187024,-0.004361287616043279,0.30003382936342604,0.1090665592033147, ,0.055493831634521484
0.012064652835868177,0.019248084946778977,-0.08129324092958441, ,0.012033001824768286,0.019327638287146058,-0.08138816505941411, ,0.00012783235463344797, ,4.712129788785791e-05,0.00035241058842097703,0.00021078050466810777,0.5943807098429338,-0.21141029880670284,-0.09363810333744113, ,0.00041333044975418604, ,0.6308587343256248, ,1.0150769521589304e-05, ,0.17132110608179651,-0.22586676837244424,0.09110715007,-4.53223843847451,0.22203431211884073,-1.1987711956580902, ,-0.016010956902053446,-0.007481081775052883,-0.00040279144709613344,0.00216134968710185,-0.15997440473859775,-0.6157322081478547, ,0.08280491828918457
0.01206186950300662,0.019273660082748636,-0.0812952006284423, ,0.011965391995549003,0.019387881957872374,-0.08139298528019669, ,0.0001786515723993069, ,-0.0017326103065826224,0.0012888777780825566,-0.00016138375340971428,-0.10630251949552458,0.01722361976398984,0.004819278816679977, ,0.002165453559228635, ,0.10768880503037855, ,1.1987528502146776e-05, ,0.17069556471898434,-0.22625290501615547,0.09110455749000002,-4.53223843847451,0.21643221562845769,-1.2009823970382039, ,-0.023396681843804435,-0.015415357628081671,0.00016612055426581043,0.00216134968710185,-0.023084319031295302,0.12004154845833499, ,0.11037993431091309
0.011990867412660837,0.01931959498370836,-0.08129699602024273, ,0.011899628171803558,0.01944742093300107,-0.08139889776645205, ,0.0001872112129796258, ,-0.002674235411642778,0.001694907098694743,-1.0592540165185824e-05,-0.02253095452827497,0.03792610294407468,0.005007358773935065, ,0.003166126547059862, ,0.04411386626084529, ,1.3282450193649814e-05, ,0.16986923230144232,-0.2268012190502254,0.09110715007,-4.53223843847451,0.2165688521282231,-1.1974182716355748, ,-0.03190885728260618,-0.02042111933687772,1.8243622981212435e-05,0.00216134968710185,0.002431970820816137,0.04161748676405542, ,0.1409909725189209
0.011932756500470421,0.01935815509099441,-0.0812988166322368, ,0.011835699233349707,0.019506259174666637,-0.08140589496979217, ,0.00020693163865140006, ,-0.002863157687137561,0.0019649919474641307,-5.3933270571324474e-05,0.024099528317635836,0.022739715437297883,0.008555829521300545, ,0.0034730064918868644, ,0.033134301309999205, ,1.4477726592277265e-05, ,0.1691741863427621,-0.22726458302267888,0.09110974265,-4.532028748531025,0.216842125127754,-1.1976411074429676, ,-0.03562197505948603,-0.02403671265412127,7.828214280680864e-05,-0.007874352674913189,-0.011169455189333152,-0.003292189167583169, ,0.16905689239501953
0.011847257785580108,0.0194201105952398,-0.08130107872238687, ,0.011773594093201521,0.01956440063442924,-0.0814139693655078, ,0.00019745949531079285, ,-0.0030005242258197024,0.002030163642547597,-0.00012473575002889273,0.020085379166672874,0.02854215998708879,0.01193944797949029, ,0.003624950903472807, ,0.034900964929319496, ,1.5209424222666435e-05, ,0.16811617193899336,-0.22802141084435287,0.09111363152000002,-4.532448128417994,0.2165688521282231,-1.1974182716355748, ,-0.03693925323412642,-0.024603822027086022,0.0001544170884842398,-0.009731051197421821,-0.0066789900450994165,0.0016739578462426144, ,0.1974928379058838
0.011759451666684784,0.019487754239864034,-0.08130610269523851, ,0.01171330169752638,0.019621849253291766,-0.08142311345254363, ,0.00018385540406695564, ,-0.0024148086281613073,0.002241394035780722,-0.00023754478840072086,-0.04520997716645733,-0.030958321869941973,-0.0020814468671891137, ,0.0033032673916551215, ,0.05479379279073972, ,1.578930800122147e-05, ,0.16695003927498545,-0.22884002052902067,0.09112011297000001,-4.532448128417994,0.21561239662986503,-1.1966383463096997, ,-0.0377024003013392,-0.027755759449684343,0.00027473525946130576,-0.007804952782364807,-0.07758048434060365,0.061179780692242086, ,0.22207188606262207
0.011705638785804376,0.01953320670372628,-0.08130957775537097, ,0.011654811025603114,0.019678608961709542,-0.08143331975346503, ,0.0001975787436087675, ,-0.0026904572127389777,0.0022765317160611306,-7.069216840765197e-05,0.005249011271881619,0.0149774427821863,0.007411244162484312, ,0.0035250750418233086, ,0.015870598968722158, ,1.640569657453007e-05, ,0.16622410238480834,-0.2293883345630906,0.09112529813,-4.532448128417994,0.21492921413103783,-1.1961629355313583, ,-0.034684554663183764,-0.02765062399722342,0.00018490136451168753,-0.006882099971255469,-0.021242909419920557,0.01814968400993722, ,0.2469499111175537
0.011632153510617452,0.01960104541211645,-0.08131677618671064, ,0.01159811108978029,0.019734683679601676,-0.08144458081442567, ,0.00018802153019876303, ,-0.0020449735224768424,0.0022983428680875117,-0.0004444607359682954,-0.046742543693974806,-0.03265574796334598,-0.008861119641302788, ,0.0031083503651836855, ,0.05701984975452585, ,1.6813476988954238e-05, ,0.16519697891253649,-0.23020694424775842,0.09113566845000001,-4.5326578183614785,0.21369948563314886,-1.1951601743980906, ,-0.03367528089370858,-0.027522314837143496,0.0005466253391244886,-0.0005925774200310443,-0.07720007295902437,0.06373816807977596, ,0.2725718021392822
0.011580304522257416,0.01964809963836807,-0.08132676975189648, ,0.011543190935433592,0.019790077316365222,-0.08145688920514103, ,0.00019612789574421498, ,-0.0023748998865411037,0.0022975337212804226,-0.0004175892626550969,0.01021153585530697,0.017200768776173807,0.0020578260239013154, ,0.0033306443016026858, ,0.020003547460778124, ,1.7228352941210043e-05, ,0.16452510115247895,-0.23074753554895414,0.09114863135000001,-4.5326578183614785,0.21342621263361797,-1.1949373385906976, ,-0.031072999855425925,-0.02658177634691058,0.0005833255147111687,-0.0005925774200310443,-0.01609738881165051,0.013824742613564252, ,0.2973818778991699
0.011517601510968617,0.019714720853603353,-0.0813403482580374, ,0.011490039640923618,0.019844793770887492,-0.08147023751885595, ,0.00018587587408582928, ,-0.0016968432712629051,0.002071430583111453,-0.0005227253061295186,-0.04815201463971607,-0.03613793868643683,-0.004969485218941557, ,0.0027282491626586915, ,0.06020437796678959, ,1.7491777707149692e-05, ,0.16362926413906892,-0.2315275315692508,0.09116677941000001,-4.532867508304963,0.21233312063549445,-1.1940459953611264, ,-0.029407171229770927,-0.02459107062930054,0.0006266211795413215,-0.0048676933679409895,-0.07512545029002828,0.061855978125882075, ,0.32272791862487793
0.011474268318238121,0.01975765419769563,-0.08135134901821606, ,0.01143864631755455,0.019898836931555426,-0.08148461837231283, ,0.00019738847994297138, ,-0.0019809496526784058,0.0020835228198427774,-0.000583639057234165,0.005201039874192195,0.010020719554889349,0.005034716013071251, ,0.0029335751935788998, ,0.011290068032151589, ,1.7808940251424486e-05, ,0.1630577819063763,-0.23201406374032693,0.09118103860000001,-4.532867508304963,0.21205984763596358,-1.1938231595537334, ,-0.02694404927838466,-0.023635601882558102,0.0007488451858849846,-0.004761786991610658,-0.01894816700046043,0.015431007471042533, ,0.34745097160339355
0.01143821085752219,0.01979947222438062,-0.08136497367026947, ,0.011389000109531143,0.019952210676271027,-0.08150002440572354, ,0.00020973658133573557, ,-0.0015736688173005045,0.0019374956183846233,-0.0005751282536948495,-0.03180157916636858,-0.026829141705886368,-0.0038549381075434087, ,0.0025614635125259287, ,0.041607010012127486, ,1.817528187418682e-05, ,0.16224689495458272,-0.2327245551647556,0.09120566811000001,-4.532867508304963,0.21083011913807462,-1.1929837559007468, ,-0.02646317388691321,-0.022546196616410257,0.0006925443754712716,-0.004070696695143903,-0.06046065173469948,0.045478717875633345, ,0.37227392196655273
0.01138340044813961,0.01985869229757569,-0.08138280729814526, ,0.011341090193917172,0.020004918872461697,-0.08151644828273759, ,0.00020256426530379726, ,-0.0020765727068487727,0.0019227044276350846,-0.0006693345374746456,0.021488088069816814,0.022432585193266227,0.00603765378071538, ,0.0029080844633423554, ,0.031063786107768908, ,1.844602304388207e-05, ,0.16172947185200967,-0.23315702820571219,0.0912199273,-4.532867508304963,0.21042020963877828,-1.192894538410079, ,-0.02658922430890187,-0.021248755387028837,0.0008110566783079614,-0.003719339769440382,-0.0032448619202267628,-0.0015698383421767924, ,0.3966078758239746
0.011349384791691078,0.01989761643066309,-0.08139858448862211, ,0.011294905780593374,0.020056965377092395,-0.08153388269041069, ,0.00021602234325535983, ,-0.0016063845579550459,0.0018785003753769198,-0.0007342107814994129,-0.018608974737768652,-0.01450289413966994,-0.00468081094321535, ,0.002578429847794513, ,0.023592962493446456, ,1.889637935246301e-05, ,0.16118888055081396,-0.23359722397954297,0.09123807536,-4.5330771982484475,0.2094637541404202,-1.1921146130842042, ,-0.025627043359025322,-0.021088209235215725,0.000855609178217386,-0.0007846146159904605,-0.04595714337210563,0.03325916320301326, ,0.4196288585662842
0.011308305420985711,0.0199359703762183,-0.08141131364080145, ,0.011250436112215052,0.02010835403667861,-0.08155232033917689, ,0.00023010404663549797, ,-0.0020702053999810525,0.0018793267534063236,-0.0005558316803973199,0.014554407186876549,0.014620196536052451,0.0010234135955704262, ,0.002850713647687675, ,0.020629612582744997, ,1.9389710676311724e-05, ,0.16065601198249246,-0.2340219742876253,0.09125363084,-4.5330771982484475,0.2093271176406548,-1.192166552660789, ,-0.027411017203486647,-0.021158738363092705,0.0006781754867105543,-0.0007815706315987716,-0.013725535521581992,0.00434297790360914, ,0.4413299560546875
0.011256115915395463,0.01999397078791684,-0.08143681422315363, ,0.011207670464169865,0.02015908868729924,-0.08157175396281616, ,0.00021867696673655168, ,-0.0019016361730573132,0.002011942534071023,-0.0010686821490691533,-0.006302836141039333,-8.89910736774731e-05,-0.009305936385995129, ,0.0029675266520830536, ,0.006303464351496875, ,1.9768039731823972e-05, ,0.15980651136632779,-0.2346784065819344,0.09128214922000001,-4.533496578135416,0.20768747964346948,-1.1910745740368536, ,-0.028617895524267425,-0.02143110694635745,0.001193428292661542,0.006207777391522875,-0.03453137584808369,0.023875890121827482, ,0.4640669822692871
0.011215493051400368,0.020035282712287317,-0.0814569786669536, ,0.011166598144536653,0.020209173154605492,-0.08159217631842351, ,0.00022562580262416987, ,-0.0022199423834799612,0.002112628686090688,-0.0008408354007577645,0.0357303423848709,0.028238247796270734,-0.0034273491423380885, ,0.00317778984868909, ,0.04554180503167689, ,2.0151457258923848e-05, ,0.1592504745993836,-0.2351186023557652,0.09130548244000002,-4.533496578135416,0.20741420664393861,-1.1911784531900231, ,-0.02831054342436479,-0.0226863355387212,0.001015492529337924,0.006207777391522875,0.0,-0.012511909531426162, ,0.48635387420654297
0.011188854570288868,0.020067691816440844,-0.08147048460488747, ,0.011127208494042133,0.020258611253837436,-0.08161358018638046, ,0.00024642811474193875, ,-0.0015475927969101572,0.0020659259143405283,-0.0009375022753018813,-0.05941038398173327,-0.03572144947944479,-0.016054481266362785, ,0.0027462709015660045, ,0.06932254811941632, ,2.061459017561161e-05, ,0.1588025560926786,-0.23548157080085375,0.09132103792000001,-4.533496578135416,0.20645775114558051,-1.1904802066042885, ,-0.028747937460912077,-0.023044424856355213,0.00105734460521533,0.006207777391522875,-0.07816294048700041,0.07302934090821482, ,0.5084249973297119
0.011137983502693967,0.02012273714080754,-0.08149959965103418, ,0.011089490886019853,0.020307406789832474,-0.08163595837032223, ,0.00023462334382744467, ,-0.0021385286258232177,0.0022581626452654897,-0.0012142793676246481,0.029488814837304526,0.02109937746219115,-0.005041954593207036, ,0.0033387239476447717, ,0.03625981149700328, ,2.0977645500729067e-05, ,0.15809206466824993,-0.2360607757664206,0.09135474146000001,-4.533496578135416,0.2060478416462842,-1.1903093103734805, ,-0.028976165361365123,-0.023437130540496613,0.0014095104362882396,0.006138385866423523,-0.00888036827709848,-0.006717318184006839, ,0.531376838684082
0.011082544058372105,0.020187195663089266,-0.08153081094451602, ,0.011053434726367387,0.020355563557040185,-0.0816593036971098, ,0.0002137884196872156, ,-0.002046565184281601,0.002135254548114612,-0.0009194933277747795,0.008031176264038459,0.01344921864409308,-0.0052316043467832245, ,0.003097290593176568, ,0.015664650469130115, ,2.1207481779135983e-05, ,0.15725028678495948,-0.2367558217251008,0.09139103758000001,-4.533496578135416,0.20495474964816068,-1.1896630033643307, ,-0.028285228482405594,-0.02291089849311221,0.0010955210332344455,0.005415839200413901,-0.03811937591688566,0.03330235745642118, ,0.5536718368530273
0.01104055589022254,0.020229728401201786,-0.08154640169029315, ,0.011019029453505056,0.020403085339531845,-0.08168360901679611, ,0.00022213029057518172, ,-0.0019596043561120138,0.0020777425466886727,-0.0006555021822843768,0.0005239469385379413,0.020606804288346055,-0.0018143713139370248, ,0.0029303150741504047, ,0.020613464128391414, ,2.145974349231913e-05, ,0.15670197275088954,-0.23721918569755426,0.09141048193000001,-4.533496578135416,0.20481811314839524,-1.189796621681056, ,-0.025794221679388635,-0.022828227461744233,0.000856109225811624,0.005018175371303569,-0.009415369690574105,0.021711534400288127, ,0.5764470100402832
0.011011316712547773,0.020273746966781706,-0.08156823584568478, ,0.010986264538333066,0.02044997591101548,-0.08170886720259911, ,0.00022685112026657846, ,-0.0013207560175810661,0.002204223314160857,-0.001275048561848388,-0.04043460841927188,-0.023649474678061194,-0.004631003558190069, ,0.0028685790405248573, ,0.04684287790651573, ,2.181617565892538e-05, ,0.1561922723811907,-0.23769027240288196,0.09143640773,-4.533286888191932,0.20372502115027172,-1.1889869571916254, ,-0.02432007728305248,-0.02332766508320324,0.0014891977505395741,-0.0016549813501199556,-0.05687725950578035,0.0558892521502771, ,0.5952320098876953
0.010976825369844631,0.0203172077353681,-0.08159621094310178, ,0.010955129484189512,0.02049623903484694,-0.08173507115087, ,0.00022760728228436941, ,-0.0017005788161479649,0.0022323789514887412,-0.0015321931838361744,0.007887879464516133,0.013362778058650904,0.009324779040632659, ,0.003197358291711334, ,0.015517167263487655, ,2.2153536256546516e-05, ,0.15569801747724035,-0.238138190909587,0.09146881498000001,-4.533706268078901,0.20345174815074082,-1.1889274788645134, ,-0.024445373920265526,-0.02236552947406806,0.0017712045731605537,-0.008038445059876331,-0.011076940343523552,0.011577612054994791, ,0.6150670051574707
0.010950272928034195,0.020361849386290737,-0.08162395672459082, ,0.010925613826809252,0.020541878464040493,-0.08176221378106117, ,0.0002283277332530978, ,-0.0009655630132352125,0.0021807306845044614,-0.0013837714160591526,-0.056850674710569656,-0.034711545694333934,-0.03164881037744002, ,0.002757303317150566, ,0.06660998888704128, ,2.247341826291015e-05, ,0.15522693077191266,-0.23860927761491468,0.09150122223000001,-4.534125647965871,0.20249529265238275,-1.188229232278779, ,-0.0222085049282637,-0.022376076764553353,0.0016086383130755229,0.02304005285309072,-0.07445462119036368,0.07285339839219346, ,0.635051965713501
0.01092169521846609,0.02040597071095468,-0.08164844646915452, ,0.01089770713428107,0.020586897941282385,-0.0817902880356972, ,0.00023114740071262548, ,-0.0013927333656279766,0.0022205176273443926,-0.001130994516917287,0.0016633334047919193,0.01081338006367606,-0.020234678127584893, ,0.0028547422577839786, ,0.010940560607900903, ,2.2786271961521396e-05, ,0.15479445773095607,-0.23906491885449394,0.09153103690000002,-4.534125647965871,0.2020853831530864,-1.1878132998275492, ,-0.020897806993717415,-0.02269176029614318,0.001412664415136709,0.021628218571622046,-0.018646836208725804,0.02163786830328769, ,0.6550087928771973
0.010893013343841783,0.02044883616211348,-0.08167142269112837, ,0.010871399007005516,0.020631301198944088,-0.08181928688034519, ,0.0002358484421725407, ,-0.0015111277496423366,0.002194911326956422,-0.0011954654809387245,0.019214618633830408,0.024835864290707384,-0.011596766309071565, ,0.00292066439788223, ,0.03140098285575685, ,2.310044701683782e-05, ,0.1543928756214964,-0.23950511462832472,0.09155955528000001,-4.534125647965871,0.20194874665332097,-1.1877018819238527, ,-0.02042111933687772,-0.022028073713665455,0.0014852261183862208,0.01605340390282262,0.0,0.005004823389863844, ,0.6748378276824951
0.01087213674833933,0.02049378820029766,-0.08170251039945448, ,0.01084667907765334,0.020675091959092395,-0.08184920330358232, ,0.00023460169238800807, ,-0.001083314608495392,0.002300527722489468,-0.0017086884457208093,-0.01205181839321078,-0.005649002632705794,-0.01488084654837134, ,0.003063595036466455, ,0.013310054744916925, ,2.3392041269918397e-05, ,0.15396812531341406,-0.23996075586790397,0.09159585140000001,-4.534125647965871,0.20085565465519745,-1.186892217434422, ,-0.019823885848855395,-0.022318189454014765,0.0020056423470158655,0.012745886710146403,-0.03383196604195668,0.03163781004262257, ,0.6944777965545654
0.010844816145862777,0.020538373814438793,-0.08173401774653531, ,0.01082353701112327,0.020718273933502732,-0.08188003031696739, ,0.00023267257066243127, ,-0.0012216836358450818,0.0022932643626376666,-0.0016116316967796879,0.013338635485413388,0.010084218093554307,-0.009553107606476749, ,0.003057601849342157, ,0.016721562461690737, ,2.366024470094175e-05, ,0.15358198866970282,-0.24039322890886053,0.09163344381,-4.534125647965871,0.20085565465519745,-1.1868922174344219, ,-0.019078597016178284,-0.022203308740868222,0.0019277274016700958,0.010696073003170386,-0.013146404408001472,0.00845321248731681, ,0.7144927978515625
0.010823834115534368,0.020581905711539762,-0.08176742259155123, ,0.010801962504499819,0.020760850823671136,-0.08191176095500874, ,0.00023094000019604244, ,-0.0008368821523157846,0.0021556623074280357,-0.0015970291313599806,-0.030377613170429953,-0.028678131591762426,-0.016808141405307772, ,0.0028102942491744663, ,0.0417760052364552, ,2.390766245582603e-05, ,0.1531958520259916,-0.2408179792169429,0.09167233251000001,-4.534125647965871,0.20017247215637027,-1.1863351279159398, ,-0.01920990719807101,-0.02135394724538046,0.0018577455558068496,0.009203240518713449,-0.05814486385779428,0.0452361940042053, ,0.7345478534698486
0.010816452754630274,0.020603137417971727,-0.0817841827677677, ,0.010781945287011842,0.02080282632082564,-0.08194438827513409, ,0.0002583258172056383, ,-0.0008974343981452606,0.002063591185378313,-0.001624071455074769,-0.01366557650247374,-0.013356770293833888,-0.012765279812460808, ,0.0027751405677071735, ,0.01910893230444619, ,2.4333143353865595e-05, ,0.15301822916988445,-0.24102649300454695,0.09169177686,-4.534125647965871,0.19962592615730848,-1.185971135041295, ,-0.01789832922641848,-0.019898708651388295,0.0018859988721187336,0.008627531996272562,-0.03861341604079237,0.029549161232621142, ,0.7508828639984131
0.010789712884755168,0.02064681222148819,-0.08181982137527372, ,0.010763475119989473,0.020844204105940557,-0.08197790535766164, ,0.0002542489367434644, ,-0.0012130265460672503,0.0021116590451976188,-0.001818946078238075,0.010613557930620071,0.00869063121854136,-0.007366906751645101, ,0.0030395891433163194, ,0.013717677751842787, ,2.472535377640281e-05, ,0.1526320925261732,-0.24143579784688085,0.09173325814000001,-4.534125647965871,0.19962592615730848,-1.1860528137814352, ,-0.019418240548080782,-0.01957849010903049,0.0020856758270700027,0.007654621612703212,-0.01415464143146984,0.007980960644251087, ,0.768427848815918
0.010768734024640427,0.020688948668789148,-0.08185732872957284, ,0.010746541796823142,0.020884987849746184,-0.08201230530576757, ,0.000250881634670299, ,-0.0011570113508792414,0.002154938683338742,-0.0019451551847686351,0.008895829985084794,0.007003831176714551,-0.006892459356713912, ,0.0031250703492634244, ,0.01132207764712846, ,2.5088933606232177e-05, ,0.1522536786153362,-0.2418296572234663,0.09177603571000001,-4.534125647965871,0.19907938015824675,-1.1856071421666496, ,-0.019117030934421995,-0.01972089392320673,0.002223452194304858,0.0069102022470574785,-0.015621138889768989,0.00954001514586576, ,0.786376953125
0.010759254407378734,0.020709713565221187,-0.08187691995046231, ,0.010731135142920909,0.02092518121274241,-0.08204758124545657, ,0.00027630106364452434, ,-0.0008976540564252999,0.002107741377295781,-0.0019032491861875277,-0.01942733180788232,-0.018537454920708473,-0.012249504081601685, ,0.002978374386020837, ,0.026852531651333764, ,2.5525626182645826e-05, ,0.15206061029348059,-0.24202272554532192,0.09179807264,-4.534125647965871,0.1986694706589504,-1.1852728884555603, ,-0.01908627143171174,-0.01973730065691988,0.0021572063271939335,0.006581467862863401,-0.04534413506767176,0.03395075490487348, ,0.8037359714508057
0.010735149746213578,0.02075298553879009,-0.08191383017545106, ,0.010717245015666912,0.02096478784521024,-0.0820837263255314, ,0.0002721130246661582, ,-0.0011227956128236453,0.0021594114511367243,-0.0019551254374442144,0.011697406940431102,0.009181126254638416,-0.0053256389127660725, ,0.0031218973845432317, ,0.014870185217578461, ,2.5930249541728424e-05, ,0.15168991911551782,-0.2424243076547816,0.09184085021,-4.534125647965871,0.19853283415918496,-1.185161470551864, ,-0.018309269063953457,-0.01965146853561209,0.0022460253130287653,0.00601960609496649,-0.011959113998346722,0.007019490885653987, ,0.8207929134368896
0.01071645181443116,0.020798343182231976,-0.08195825048369519, ,0.010704861304378602,0.021003811387225055,-0.08212073371756286, ,0.0002622066446039285, ,-0.0009199673814225019,0.002270891445104412,-0.0023529640070743957,0.004188071089756205,0.0015091720671493497,-0.006332042542912621, ,0.003397017450193239, ,0.004451689534209695, ,2.6285666699573617e-05, ,0.15132695067042926,-0.2428336124971155,0.09189140552000001,-4.534125647965871,0.1979862881601232,-1.1847157989370782, ,-0.01742187287653218,-0.019861226780759897,0.002669931532014751,0.00554642778664321,-0.01978872266065315,0.013645212375584442, ,0.8388478755950928
0.010701896770362334,0.02084214429969565,-0.08200565187330004, ,0.010693973930265789,0.02104225546866669,-0.08215859661585795, ,0.00025199076494636916, ,-0.0009075573105500161,0.002071805728633324,-0.002129760303295567,0.0009478676801674456,-0.00021230502634636452,-0.006472415318081751, ,0.003106753643053189, ,0.0009713529325120893, ,2.659376070202109e-05, ,0.15097942769108916,-0.2432197491408267,0.09194455341,-4.534125647965871,0.19716646916153055,-1.1840472915148998, ,-0.017000526972137366,-0.018224878348083496,0.002406892039891206,0.005145889901779313,-0.021229973912289122,0.01502124207844219, ,0.8562729358673096
0.010691991042349549,0.020863579879313508,-0.08202598230744847, ,0.010684572846387727,0.021080123709233855,-0.08219730823743075, ,0.00027622243607678814, ,-0.0010281306487512577,0.0021632369597778486,-0.0018123896426927542,0.022108213016672387,0.017049463084090617,-0.0017912364096543483, ,0.003003565047071656, ,0.027918762046816762, ,2.696767054774116e-05, ,0.15081725030073045,-0.2434050947298081,0.09196659034000002,-4.534125647965871,0.19702983266176513,-1.184017552351344, ,-0.015546681120326145,-0.01969633490213175,0.0021444280452342494,0.004967976363378864,0.0003792646854385978,-0.0016182855610612824, ,0.8742318153381348
0.010671516520333074,0.02090567672577293,-0.08206083942845571, ,0.010676648037611617,0.02111741971845461,-0.08223686182197171, ,0.00027540027312708727, ,-0.0008572765965615997,0.00213686814411928,-0.0018974284515409056,0.018723526074705316,0.014935626045576265,-0.0014937199420993598, ,0.002983515268451116, ,0.023950852887086756, ,2.7411083545811764e-05, ,0.15051606371863568,-0.24379895410639355,0.09200936791000001,-4.534125647965871,0.19716646916153055,-1.184210648995181, ,-0.013701550903619807,-0.019194365201956064,0.002240969544175577,0.0046396580223164235,0.0,0.0009393222733311618, ,0.8881809711456299
0.010666202329991104,0.020926658440388202,-0.08208224833635809, ,0.010670189520570151,0.021154147095700255,-0.08227725063181722, ,0.00029965460319963206, ,-0.0006266496814098736,0.0022972479770493443,-0.0025118590820850327,0.008282700154144524,0.004870949727465917,-0.0034832878326004546, ,0.0034611376943891534, ,0.009608812257036322, ,2.7916049960316654e-05, ,0.15038477725977387,-0.24398429969537494,0.09203399742000001,-4.534125647965871,0.19689319616199968,-1.183987813187788, ,-0.013238970641527733,-0.019402359754338742,0.0028825210857763304,0.004501134110171271,-0.011186180104483053,0.010103703872088542, ,0.9018268585205078
0.010661729176423293,0.020972421037117103,-0.08214126172371727, ,0.01066518734362008,0.021190309430195113,-0.08231846795191847, ,0.00028087249433109666, ,-0.00016570700118458261,0.002371197881342811,-0.003189049163661983,-0.02002051318000313,-0.020238525968425812,-0.008651262859927891, ,0.00397744550823508, ,0.028467856980030706, ,2.8348136335024643e-05, ,0.1501376498077987,-0.2443549908733377,0.09210010821,-4.534125647965871,0.19607337716340703,-1.18340098450575, ,-0.011897811128193428,-0.01865112845095731,0.003565885721961048,0.0042419259554030446,-0.03905799754811424,0.03399437688232988, ,0.9167129993438721
0.01065644948612652,0.02099687114817641,-0.08217479790039178, ,0.010661631586799353,0.021225910301032137,-0.082360507089813, ,0.00029491302233665444, ,-0.00023728114752017256,0.0024009118978220085,-0.003357837420078679,-0.0032049102336976438,-0.005435375284888252,-0.005065718374391193, ,0.00413470100778187, ,0.00630989331659112, ,2.8809498806896725e-05, ,0.1500140860818111,-0.2445403364623191,0.09213770062000001,-4.534125647965871,0.19607337716340703,-1.18340098450575, ,-0.011410529513809477,-0.01815861874444523,0.00369921307942406,0.004117547286010367,-0.021440584936633245,0.019624550871787255, ,0.9310808181762695
0.010653441038508727,0.02102196222444245,-0.08221056820091795, ,0.010659512361786933,0.021260953277179258,-0.08240336137558989, ,0.00030712015963573917, ,-0.00011586787718308438,0.0025439301051447235,-0.003747640879695124,0.002811867221604021,-0.0017896016685635073,-0.003774403119353779, ,0.004530984209637747, ,0.0033330572549551186, ,2.929339395704882e-05, ,0.14991369055444617,-0.2447256820513005,0.09217788561000001,-4.534125647965871,0.19607337716340703,-1.18340098450575, ,-0.009728866116006088,-0.018559933807641458,0.0041906896921862676,0.004003142549054749,-0.014886241026389989,0.014196361022758132, ,0.9445219039916992
0.010653190300432104,0.021071592634443848,-0.08227969751410674, ,0.010658819811857687,0.021295441917500036,-0.08244702416186651, ,0.00027953246676223995, ,-0.00015391294048036088,0.0023501657482600164,-0.0029679367736708115,0.005747544115447669,-0.0005262774926914947,-0.003016490537099678, ,0.003788880696201634, ,0.0057715882673698895, ,2.9682474357566354e-05, ,0.1497283449654648,-0.24510409596213747,0.09225566301,-4.534125647965871,0.1955268311643453,-1.1829553128909644, ,-0.008439155058759052,-0.018484016665070272,0.0033941639718730026,0.003794381404254508,-0.011826352445872657,0.011553438414364695, ,0.9591259956359863
0.01065418174071605,0.021094697320579593,-0.08230938150893374, ,0.010659544111843746,0.02132937977075718,-0.08249148882375032, ,0.0002970987740721425, ,0.00018277478235430327,0.0022594148217830214,-0.0027795573526515635,-0.03073439991413661,-0.03390465256701056,-0.010444887645213351, ,0.0035866838492731464, ,0.0457616521074782, ,3.0110965430431804e-05, ,0.14964339490384831,-0.24528944155111887,0.09228936655000002,-4.534125647965871,0.19511692166504896,-1.1826210591798751, ,-0.008177248798169143,-0.01854542535830971,0.0031718063560334533,0.003696119200693847,-0.050502123434236976,0.043023675682959985, ,0.9728798866271973
0.010652618605726681,0.021116214842096748,-0.08233395656367747, ,0.010661675468090118,0.02136277037563074,-0.08253674875881416, ,0.0003193686463641361, ,-0.00010147107253572472,0.0022609749278054985,-0.0024612454361383675,-0.003472883074422157,-0.009951764711326094,-0.004804870093246695, ,0.0033436556490820902, ,0.010540329104344189, ,3.067770270861531e-05, ,0.14956616757510607,-0.24546706440722604,0.09231788493000001,-4.534125647965871,0.1949802851652835,-1.1825096412761789, ,-0.007997472633032155,-0.019044138382193612,0.002875755825961365,0.0036071098145359784,-0.02226062393754463,0.019934597659372784, ,0.9846727848052979
0.010649627808439064,0.02116679525238459,-0.08239170570409345, ,0.010665204118414056,0.0213956172607269,-0.08258279738706231, ,0.00029852665581840216, ,-0.00034818947779978113,0.002440336016967993,-0.002603942859772968,0.030105483814896555,0.01892209741325604,0.0021127918808946508, ,0.003585665099409636, ,0.03555820476523009, ,3.117295860997852e-05, ,0.14948894024636383,-0.24566785546195588,0.09234769960000001,-4.534125647965871,0.19484364866551807,-1.1823982233724823, ,-0.007557036691917612,-0.02013514567334411,0.0030810080309477757,0.0035198220783282668,0.012040177972447183,-0.008093224028395962, ,0.9956779479980469
0.01064967301529471,0.02119501874264063,-0.08243411898050203, ,0.010670120332062029,0.02142792394459263,-0.08262962815090279, ,0.0003047732953689992, ,0.00015194092564982273,0.0029627494444597804,-0.004426534882667223,0.018959116790960996,0.005942516943826423,0.0047066127999898216, ,0.005328712919927644, ,0.019868608794313455, ,3.167457827830466e-05, ,0.1493499310546278,-0.24606943757141556,0.09243325474000001,-4.533706268078901,0.1949802851652835,-1.1825096412761789, ,-0.006112344420387644,-0.021008842496894126,0.005005911854179762,-0.0015061168684730613,0.0,0.0016163217043807505, ,1.0078349113464355
0.01065386139249183,0.021224684238897076,-0.08248034153290548, ,0.010676414409668796,0.021459693935724965,-0.08267723451511447, ,0.0003074167247077949, ,0.0004005124995557977,0.0028619777973935634,-0.004584663008392084,0.006156363553462836,-0.006799803767098413,0.0017724461990811236, ,0.005419452193311876, ,0.009172684527875617, ,3.2172425142201564e-05, ,0.149288149191634,-0.24627795135901961,0.09248510634000001,-4.533706268078901,0.19470701216575265,-1.1822051267286455, ,-0.004831989103757863,-0.019546228951281313,0.005143303687439458,-0.0014752549227126383,-0.013245525086956924,0.0112280841364631, ,1.0194838047027588
0.010659878255383183,0.021255318727751275,-0.08253012037730603, ,0.010684076683214014,0.02149093073258697,-0.08272560996681914, ,0.00030710708285577534, ,0.0006906679957065364,0.0030801189668973952,-0.00502195482949565,-0.008893242501381494,-0.0224918955227117,-0.0014597430782620703, ,0.00593162586817721, ,0.02418625897485477, ,3.265857604761565e-05, ,0.14924181279438864,-0.24648646514662367,0.09254084681000001,-4.533706268078901,0.19443373916622175,-1.1819822909212525, ,-0.003995848269995018,-0.020957805114503264,0.005626567121158602,-0.0014380960543386254,-0.030633801081222378,0.02539995718247146, ,1.0303668975830078
0.01066593496577816,0.021286126555787706,-0.0825796214793893, ,0.01069309751598184,0.021521637823615682,-0.08277474801544871, ,0.00030704678223692844, ,0.0008191124762973609,0.003033577204567809,-0.004981900581072139,-0.009543639030749132,-0.025075926632697372,-0.0018776266652886053, ,0.005890065305630011, ,0.02683063807233835, ,3.3134081379277284e-05, ,0.14921092186289175,-0.24669497893422773,0.09259658728,-4.533706268078901,0.19429710266645633,-1.1817891942774155, ,-0.002518322974201066,-0.020491673841172703,0.005591018434538434,-0.001403846523520903,-0.03180706539981721,0.02543099576244989, ,1.0418918132781982
0.010670859629889097,0.021315513963284377,-0.08262536099306321, ,0.010703467302517717,0.021551818687237365,-0.08282464219271574, ,0.00031083143247056415, ,0.0007008164573477486,0.0030660800378946836,-0.004780205883315153,-0.00021939190635884192,-0.017267290613879573,-2.772542162956127e-05, ,0.005722093916788374, ,0.01726868424220027, ,3.3609534997819825e-05, ,0.1491877536642691,-0.24689576998895757,0.09264843888,-4.533706268078901,0.19429710266645633,-1.1817891942774155, ,-0.002608637544516347,-0.02128211293080753,0.005405093831014592,-0.0013727546911679507,-0.022786919255384626,0.0180756714078792, ,1.0543789863586426
0.010676581678460783,0.021345881385180447,-0.08267208991864304, ,0.01071517646858725,0.02158147679187761,-0.0828752860525833, ,0.0003135018697392056, ,0.0007138391512022918,0.002944334814585609,-0.004638018255408441,0.0029829003271362926,-0.013717318901451498,0.000842203909346162, ,0.005539845410448926, ,0.014037896212025058, ,3.40819986647009e-05, ,0.14917230819852062,-0.24710428377656163,0.09270158677000001,-4.533706268078901,0.19429710266645633,-1.181870873017556, ,-0.001652868187412041,-0.020186543620180977,0.00524837282372323,-0.001341600860343681,-0.017613562781828594,0.014479726424134283, ,1.0654528141021729
0.01068380008252937,0.021379788132824026,-0.0827244522404922, ,0.010728215471132991,0.021610615595976074,-0.08292667317123503, ,0.00031007636046709216, ,0.0007651391184362117,0.002954174478012612,-0.004345674646323353,0.007271117331125787,-0.012092246223824585,0.001647600339598253, ,0.005310129268558349, ,0.014109981021630066, ,3.46260572104417e-05, ,0.1491645854656464,-0.2473127975641657,0.09275473466,-4.533706268078901,0.19429710266645633,-1.181870873017556, ,-0.0001060231533761779,-0.02081073279791026,0.005031210208464941,-0.0013106124041798249,-0.014240721771508638,0.011729400738711393, ,1.0738978385925293
0.010689748167515441,0.021406360317215625,-0.08276403105017598, ,0.010742574798233914,0.021639238547995536,-0.08297879714704312, ,0.0003211656887772965, ,0.0007412485992515535,0.0029257394852804305,-0.004346068019729587,0.008774440020117985,-0.010324966654528494,0.001952669694445929, ,0.005291286068030875, ,0.013549750275677954, ,3.5190440371859814e-05, ,0.1491645854656464,-0.24752131135176977,0.09280658626,-4.533706268078901,0.19429710266645633,-1.181870873017556, ,-0.0002122806663512529,-0.0206387432706548,0.004976198537956889,-0.0012813470169946075,-0.011976696537701241,0.00988323996981249, ,1.0823009014129639
0.010697332229018273,0.021436637786318068,-0.08281075527686424, ,0.010758244969062124,0.021667349086436683,-0.08303165160053935, ,0.0003251664984515652, ,0.0007402701560723713,0.0030781586166867864,-0.004928681194674144,0.01947062152865645,-0.00023474672723706905,0.004294270092170086, ,0.005857897122021611, ,0.019472036509562418, ,3.575640732375669e-05, ,0.14915686273277218,-0.24772982513937383,0.09285973415000001,-4.533706268078901,0.1941604661666909,-1.1816777763737192, ,0.0,-0.020469573243846156,0.0055929815730337085,-0.0012540580712667464,0.0,0.0005975495286103019, ,1.090660810470581
0.010697332229018273,0.021436637786318068,-0.08281075527686424, ,0.01077521653384172,0.02169495063984876,-0.08308523017438424, ,0.0003848739593758115, ,0.0007402701560723713,0.0030781586166867864,-0.004928681194674144,0.01947062152865645,-0.00023474672723706905,0.004294270092170086, ,0.005857897122021611, ,0.019472036509562418, ,3.646639386443326e-05, ,0.14915686273277218,-0.24772982513937383,0.09285973415000001,-4.533706268078901,0.1941604661666909,-1.1816777763737192, ,0.0,-0.020469573243846156,0.0055929815730337085,-0.0012540580712667464,0.0,0.0005975495286103019, ,1.0988450050354004
0.010708646485588225,0.021465452801842835,-0.0828616438480545, ,0.010793480073806655,0.02172204662684137,-0.08313952653333542, ,0.00038762857930798743, ,0.0009840578534125928,0.0031496173382354695,-0.005764040759446799,0.009383815172776167,-0.0061087937833618254,0.0017196666978037474, ,0.006641733592424535, ,0.011197023815365206, ,3.7172559848480694e-05, ,0.14917230819852062,-0.2479151707283552,0.09291677091000002,-4.533915958022385,0.19388719316716,-1.181536619306467, ,0.00068249974244135,-0.018896244834422697,0.006433284135702748,0.0,-0.006764797173317115,0.008450165966797964, ,1.107996940612793
0.010727715694503294,0.021511832067288794,-0.08295037362362813, ,0.010813026201157688,0.02174864045609947,-0.08319453436422056, ,0.00035067158824658235, ,0.0013665122835000677,0.003401346092660394,-0.006819650312710551,-0.003418701707890788,-0.017531582140556782,-0.010035188519928906, ,0.007742360198974588, ,0.017861799432531883, ,3.777496264117878e-05, ,0.1491954763971433,-0.24817774364607884,0.09301528895000001,-4.533496578135416,0.19347728366786368,-1.1812023655953776, ,0.0017414799840425813,-0.018643799913255557,0.0075349155723746465,0.00916795533725196,-0.021522441128384324,0.02038613952566281, ,1.1164917945861816
0.01074219731755265,0.02154830358023925,-0.0830242725799884, ,0.010833845559022422,0.021774735526390716,-0.08325024737590167, ,0.0003327693417225898, ,0.0010894518523786958,0.0035455103877792566,-0.006986640419095588,0.04608685254084424,0.036241252401300536,-0.07477666366330998, ,0.00791016394231132, ,0.058629568786484045, ,3.832357377567641e-05, ,0.14921864459576598,-0.24836308923506023,0.09309695522000001,-4.532867508304963,0.19334064716809823,-1.1810909476916813, ,0.0022639734794957615,-0.017596317737524715,0.007762578713450294,0.085145847360854,0.02019212004552803,-0.013728197507902364, ,1.1249659061431885
0.010754761345055467,0.02157942373803272,-0.08308608810175576, ,0.010855928821411148,0.02180033522658274,-0.08330665929925049, ,0.00032815910349984684, ,0.001085380072092659,0.0029876529536488226,-0.005735508980722047,0.022744300140572892,-0.0012122308692012755,0.04337902870718532, ,0.006557452503852823, ,0.022776581972675836, ,3.885257720538564e-05, ,0.1492572582601371,-0.24853298935829318,0.09316565859,-4.532867508304963,0.19334064716809823,-1.1810909476916813, ,0.004306377627071751,-0.017425071898360407,0.00641256502415459,-0.03931317461716013,0.01457115072163907,-0.009232951947084862, ,1.133387804031372
0.010754761345055467,0.02157942373803272,-0.08308608810175576, ,0.010879266693176402,0.02182544293565128,-0.08336376388711329, ,0.00039131939522788655, ,0.001085380072092659,0.0029876529536488226,-0.005735508980722047,0.022744300140572892,-0.0012122308692012755,0.04337902870718532, ,0.006557452503852823, ,0.022776581972675836, ,3.962693335555136e-05, ,0.1492572582601371,-0.24853298935829318,0.09316565859,-4.532867508304963,0.19334064716809823,-1.1810909476916813, ,0.004306377627071751,-0.017425071898360407,0.00641256502415459,-0.03931317461716013,0.01457115072163907,-0.009232951947084862, ,1.139009952545166
0.010767627196894945,0.021608620845848782,-0.08314161380522421, ,0.01090384990996977,0.021850062022695245,-0.08342155491428359, ,0.000393976514497839, ,0.0013134047012295647,0.0030314679246364463,-0.0058848293615155825,0.027290118011340517,0.006774109258223048,-0.007600478358897762, ,0.006748781097462521, ,0.028118305252227326, ,4.0400207674437684e-05, ,0.14930359465738244,-0.24869516674865189,0.09322528793000001,-4.5330771982484475,0.19334064716809823,-1.1810092689515406, ,0.005969883186427897,-0.01644091156591663,0.006528201442622951,0.012926973301562443,0.01135563532435423,-0.007805827535719626, ,1.1447649002075195
0.010782955039816858,0.02164056537130194,-0.0832080266829261, ,0.01092966923820092,0.02187419584694656,-0.08348002617746977, ,0.000387417062336477, ,0.0018787432808889514,0.00330678676864804,-0.0072094293009128,0.01651250123369906,-0.006677679941585128,-0.007591207361228904, ,0.008151097220230608, ,0.01781162785707561, ,4.1149881627952604e-05, ,0.14938082198612468,-0.2488573441390106,0.09329658388,-4.5330771982484475,0.19347728366786368,-1.1810390081150963, ,0.009059621610989244,-0.01575052971924826,0.007838982047244095,0.010582501410016178,0.0,0.0005904296286736864, ,1.15104079246521
0.010782955039816858,0.02164056537130194,-0.0832080266829261, ,0.010956715474994721,0.021897847757784382,-0.08353917149526607, ,0.0004539204797836069, ,0.0018787432808889514,0.00330678676864804,-0.0072094293009128,0.01651250123369906,-0.006677679941585128,-0.007591207361228904, ,0.008151097220230608, ,0.01781162785707561, ,4.205406828617085e-05, ,0.14938082198612468,-0.2488573441390106,0.09329658388,-4.5330771982484475,0.19347728366786368,-1.1810390081150963, ,0.009059621610989244,-0.01575052971924826,0.007838982047244095,0.010582501410016178,0.0,0.0005904296286736864, ,1.156749963760376
0.010802866032640981,0.021675894839257824,-0.08328803128650189, ,0.010984979448150162,0.0219210210947448,-0.08359898470812033, ,0.0004358258914448518, ,0.002172569749647299,0.0037701208133001434,-0.008862299288721218,0.011567483187854007,-0.007024896907077134,-0.005312938858555847, ,0.009872903268382107, ,0.01353350616760078, ,4.290568512605587e-05, ,0.1494812175134896,-0.24902724426224354,0.09338991676000001,-4.5330771982484475,0.19347728366786368,-1.1807939718946747, ,0.0098349245666024,-0.016185731120325904,0.00972454915750916,0.008556590900554871,0.0,0.005735762670683052, ,1.1623189449310303
0.010802866032640981,0.021675894839257824,-0.08328803128650189, ,0.011014452016096781,0.021943719187536608,-0.08365945967830692, ,0.0005044378655144568, ,0.002172569749647299,0.0037701208133001434,-0.008862299288721218,0.011567483187854007,-0.007024896907077134,-0.005312938858555847, ,0.009872903268382107, ,0.01353350616760078, ,4.391442366885669e-05, ,0.1494812175134896,-0.24902724426224354,0.09338991676000001,-4.5330771982484475,0.19347728366786368,-1.1807939718946747, ,0.0098349245666024,-0.016185731120325904,0.00972454915750916,0.008556590900554871,0.0,0.005735762670683052, ,1.1678528785705566
0.010827175302552568,0.021715417886664264,-0.08338796598221197, ,0.011045124067854779,0.021965945356048757,-0.08372059028989104, ,0.00047000490132756585, ,0.002658585564559712,0.004046265059210453,-0.010841782874819721,-0.003804927684466939,-0.009909453836299412,0.003486888844431937, ,0.011873693361301143, ,0.010614829260079032, ,4.483091300696185e-05, ,0.14958933577372877,-0.2491739761868538,0.09349880512000001,-4.532867508304963,0.19347728366786368,-1.180548935674253, ,0.01205040527726613,-0.013646382162564103,0.011755580457564578,0.0,0.0,0.017491347691442713, ,1.1742618083953857
0.010827175302552568,0.021715417886664264,-0.08338796598221197, ,0.011076986522990988,0.02198770291036693,-0.08378237044870414, ,0.0005404624530702051, ,0.002658585564559712,0.004046265059210453,-0.010841782874819721,-0.003804927684466939,-0.009909453836299412,0.003486888844431937, ,0.011873693361301143, ,0.010614829260079032, ,4.590680949158305e-05, ,0.14958933577372877,-0.2491739761868538,0.09349880512000001,-4.532867508304963,0.19347728366786368,-1.180548935674253, ,0.01205040527726613,-0.013646382162564103,0.011755580457564578,0.0,0.0,0.017491347691442713, ,1.1797258853912354
0.010855018805093155,0.021758271207675105,-0.08350659450854896, ,0.011110030331577883,0.02200899515078354,-0.08384479408230922, ,0.0004922116678620417, ,0.0030166458348091867,0.004282763664075551,-0.012209879085678244,-0.024998283472637915,-0.008317730139962348,0.005229783433877918, ,0.01328620954154647, ,0.026345749939842972, ,4.685787374070152e-05, ,0.14972062223259056,-0.24930526264571562,0.09362713783000001,-4.532867508304963,0.1936139201676291,-1.180333638617387, ,0.01390431378146092,-0.012244076718271811,0.013175195632754346,0.0,0.0010268253724921093,0.03766361061429603, ,1.185297966003418
0.010879048031083137,0.02179249214404676,-0.08360366773807214, ,0.011144246474151515,0.02202982536780949,-0.08390785513997207, ,0.00046817437860494874, ,0.003292321323289177,0.004479616432690218,-0.012882864523123384,-0.013342454129638366,-0.007036323917744105,0.0006846518778945727, ,0.01403119885829304, ,0.015084116865521599, ,4.774311873153732e-05, ,0.14984418595857815,-0.2493979354402063,0.09373213732,-4.5326578183614785,0.19375055666739455,-1.1802816990408025, ,0.016302515299513966,-0.01224491745014497,0.013911625781659389,0.004929895841637186,0.00495385035127619,0.027158657128965848, ,1.1913859844207764
0.010879048031083137,0.02179249214404676,-0.08360366773807214, ,0.011179625961669364,0.02205019684218722,-0.08397154759263044, ,0.0005404575757531768, ,0.003292321323289177,0.004479616432690218,-0.012882864523123384,-0.013342454129638366,-0.007036323917744105,0.0006846518778945727, ,0.01403119885829304, ,0.015084116865521599, ,4.879011011574932e-05, ,0.14984418595857815,-0.2493979354402063,0.09373213732,-4.5326578183614785,0.19375055666739455,-1.1802816990408025, ,0.016302515299513966,-0.01224491745014497,0.013911625781659389,0.004929895841637186,0.00495385035127619,0.027158657128965848, ,1.1968708038330078
0.010922839595631036,0.02184827996591167,-0.08376543752049863, ,0.011216159835468054,0.022070112844902953,-0.08403586543286393, ,0.00045648422216530205, ,0.003844794582709545,0.004404843552067279,-0.013075151359771579,-0.0039831821509799135,-0.011318651728062217,-0.013565492656039475, ,0.014322872448721937, ,0.011999051414143575, ,4.963063471044207e-05, ,0.15008359067767912,-0.24953694463194237,0.09390713647000001,-4.53223843847451,0.19388719316716,-1.180393116944499, ,0.0222501621473554,-0.010364969129641197,0.014146369023090587,0.01853618873760136,0.004381059540101089,0.017730503677979386, ,1.2024688720703125
0.010922839595631036,0.02184827996591167,-0.08376543752049863, ,0.011253839167221509,0.022089576637198557,-0.08410080267486378, ,0.0005293907694034441, ,0.003844794582709545,0.004404843552067279,-0.013075151359771579,-0.0039831821509799135,-0.011318651728062217,-0.013565492656039475, ,0.014322872448721937, ,0.011999051414143575, ,5.0751569604584605e-05, ,0.15008359067767912,-0.24953694463194237,0.09390713647000001,-4.53223843847451,0.19388719316716,-1.180393116944499, ,0.0222501621473554,-0.010364969129641197,0.014146369023090587,0.01853618873760136,0.004381059540101089,0.017730503677979386, ,1.205392837524414
0.010922839595631036,0.02184827996591167,-0.08376543752049863, ,0.011292655058899374,0.022108591470582785,-0.08416635335440094, ,0.0006043666620604586, ,0.003844794582709545,0.004404843552067279,-0.013075151359771579,-0.0039831821509799135,-0.011318651728062217,-0.013565492656039475, ,0.014322872448721937, ,0.011999051414143575, ,5.204204767557731e-05, ,0.15008359067767912,-0.24953694463194237,0.09390713647000001,-4.53223843847451,0.19388719316716,-1.180393116944499, ,0.0222501621473554,-0.010364969129641197,0.014146369023090587,0.01853618873760136,0.004381059540101089,0.017730503677979386, ,1.208495855331421
0.010964048539788692,0.021891837226778923,-0.08389697607181715, ,0.011332598642723781,0.022127160586845898,-0.08423251152879799, ,0.0005511717564044966, ,0.004223905070135192,0.004167287516156188,-0.012566428404286543,0.009524679595054411,-0.0073537943399610345,-0.023690008858857952, ,0.013896862312187045, ,0.012033183253467307, ,5.320281444006318e-05, ,0.15034616359540276,-0.24962961742643305,0.09404972837000002,-4.532028748531025,0.1940238296669254,-1.1805045348481955, ,0.02841225795163796,-0.008588056363718585,0.01366107334476844,0.03031011258432234,0.013547504312687808,0.005334411850867732, ,1.2115240097045898
0.010964048539788692,0.021891837226778923,-0.08389697607181715, ,0.01137366108112875,0.022145287218068646,-0.08429927127689578, ,0.0006275832726715076, ,0.004223905070135192,0.004167287516156188,-0.012566428404286543,0.009524679595054411,-0.0073537943399610345,-0.023690008858857952, ,0.013896862312187045, ,0.012033183253467307, ,0.0002975290314164389, ,0.15034616359540276,-0.24962961742643305,0.09404972837000002,-4.532028748531025,0.1940238296669254,-1.1805045348481955, ,0.02841225795163796,-0.008588056363718585,0.01366107334476844,0.03031011258432234,0.013547504312687808,0.005334411850867732, ,1.2147347927093506
0.010964048539788692,0.021891837226778923,-0.08389697607181715, ,0.011415833566717163,0.022162974586636738,-0.08436662669902571, ,0.0007058306384004764, ,0.004223905070135192,0.004167287516156188,-0.012566428404286543,0.009524679595054411,-0.0073537943399610345,-0.023690008858857952, ,0.013896862312187045, ,0.012033183253467307, ,0.00030263280150373935, ,0.15034616359540276,-0.24962961742643305,0.09404972837000002,-4.532028748531025,0.1940238296669254,-1.1805045348481955, ,0.02841225795163796,-0.008588056363718585,0.01366107334476844,0.03031011258432234,0.013547504312687808,0.005334411850867732, ,1.2178568840026855
0.011013147739416078,0.021939037700737418,-0.0840434006733699, ,0.011459107322218769,0.022180225905252933,-0.08443457191697817, ,0.0006403644597547612, ,0.004223905070135192,0.004167287516156188,-0.012566428404286543,0.009524679595054411,-0.0073537943399610345,-0.023690008858857952, ,0.013896862312187045, ,0.012033183253467307, ,0.00030680232814881374, ,0.15034616359540276,-0.24962961742643305,0.09404972837000002,-4.532028748531025,0.1940238296669254,-1.1805045348481955, ,0.02841225795163796,-0.008588056363718585,0.01366107334476844,0.03031011258432234,0.013547504312687808,0.005334411850867732, ,1.2212738990783691
0.011013147739416078,0.021939037700737418,-0.0840434006733699, ,0.011503473600448823,0.022197044376947125,-0.08450310107397126, ,0.0007199384371453759, ,0.005491257436817346,0.0049513545159750065,-0.01593061169342015,0.05562331188673905,0.01418388370524472,-0.016366150488005007, ,0.017562864478973886, ,0.05740326084969525, ,0.00031184057338047913, ,0.15068596384186864,-0.2497068447551753,0.09419620914000001,-4.532028748531025,0.19443373916622175,-1.1805120735987225, ,0.040364500875572425,-0.006893779413158987,0.01701796102564103,0.03031011258432234,0.04096176620630837,-0.025598337793200303, ,1.2241079807281494
0.011013147739416078,0.021939037700737418,-0.0840434006733699, ,0.011548923684265201,0.02221343319509109,-0.08457220833462145, ,0.0008012404713935116, ,0.005491257436817346,0.0049513545159750065,-0.01593061169342015,0.05562331188673905,0.01418388370524472,-0.016366150488005007, ,0.017562864478973886, ,0.05740326084969525, ,0.00031773695769388914, ,0.15068596384186864,-0.2497068447551753,0.09419620914000001,-4.532028748531025,0.19443373916622175,-1.1805120735987225, ,0.040364500875572425,-0.006893779413158987,0.01701796102564103,0.03031011258432234,0.04096176620630837,-0.025598337793200303, ,1.226897954940796
0.011013147739416078,0.021939037700737418,-0.0840434006733699, ,0.011595448886527006,0.02222939554340852,-0.0846418878849126, ,0.0008840640503422072, ,0.005491257436817346,0.0049513545159750065,-0.01593061169342015,0.05562331188673905,0.01418388370524472,-0.016366150488005007, ,0.017562864478973886, ,0.05740326084969525, ,0.0003244789468920834, ,0.15068596384186864,-0.2497068447551753,0.09419620914000001,-4.532028748531025,0.19443373916622175,-1.1805120735987225, ,0.040364500875572425,-0.006893779413158987,0.01701796102564103,0.03031011258432234,0.04096176620630837,-0.025598337793200303, ,1.2296268939971924
0.011070295655261643,0.02198924037492108,-0.0842106985870779, ,0.011643040550052062,0.022244934595988787,-0.08471213393216578, ,0.0008030278043127235, ,0.006575223035709378,0.005812153961751335,-0.01956087477183539,0.04391533009634339,0.039499196024962886,-0.0022716320552823004, ,0.021439275022347448, ,0.05906555544729905, ,0.00033010893344997326, ,0.15115705054719633,-0.2497686266181691,0.09439065264,-4.532028748531025,0.19525355816481438,-1.180608829839917, ,0.05118497387188284,-0.004980361022743459,0.02121013517976032,0.02662786254357924,0.09112369651019428,-0.022532688014210833, ,1.2324140071868896
0.011070295655261643,0.02198924037492108,-0.0842106985870779, ,0.011691690047574881,0.022260053517298654,-0.08478294070500914, ,0.0008870917598631945, ,0.006575223035709378,0.005812153961751335,-0.01956087477183539,0.04391533009634339,0.039499196024962886,-0.0022716320552823004, ,0.021439275022347448, ,0.05906555544729905, ,0.0003365854779431503, ,0.15115705054719633,-0.2497686266181691,0.09439065264,-4.532028748531025,0.19525355816481438,-1.180608829839917, ,0.05118497387188284,-0.004980361022743459,0.02121013517976032,0.02662786254357924,0.09112369651019428,-0.022532688014210833, ,1.235198974609375
0.011070295655261643,0.02198924037492108,-0.0842106985870779, ,0.011741388781705145,0.022274755462193013,-0.08485430245334566, ,0.0009726822636886215, ,0.006575223035709378,0.005812153961751335,-0.01956087477183539,0.04391533009634339,0.039499196024962886,-0.0022716320552823004, ,0.021439275022347448, ,0.05906555544729905, ,0.0003438969352505695, ,0.15115705054719633,-0.2497686266181691,0.09439065264,-4.532028748531025,0.19525355816481438,-1.180608829839917, ,0.05118497387188284,-0.004980361022743459,0.02121013517976032,0.02662786254357924,0.09112369651019428,-0.022532688014210833, ,1.2380387783050537
0.01114472427607412,0.02205471408315476,-0.08443269129388063, ,0.011792128184884907,0.02228904357592915,-0.08492621344832499, ,0.0008471164319352959, ,0.00788320623401911,0.006487880186274233,-0.022696788829774134,0.06447526568982745,0.0790061669059552,0.019553248130780087, ,0.024887381401483107, ,0.10197562587117374, ,0.00034961533862198685, ,0.15176714644426006,-0.24980724028254023,0.09463176258000001,-4.531399678700571,0.19661992316246882,-1.1807428639951945, ,0.06692308995660845,-0.0022118780770552207,0.024657602972136226,0.019314683932116147,0.15302601535513213,-0.03828425671921287, ,1.241703987121582
0.01114472427607412,0.02205471408315476,-0.08443269129388063, ,0.011843899719346953,0.02230292099417774,-0.0849986679823118, ,0.0009331573195355887, ,0.00788320623401911,0.006487880186274233,-0.022696788829774134,0.06447526568982745,0.0790061669059552,0.019553248130780087, ,0.024887381401483107, ,0.10197562587117374, ,0.00035617199009292617, ,0.15176714644426006,-0.24980724028254023,0.09463176258000001,-4.531399678700571,0.19661992316246882,-1.1807428639951945, ,0.06692308995660845,-0.0022118780770552207,0.024657602972136226,0.019314683932116147,0.15302601535513213,-0.03828425671921287, ,1.2444758415222168
0.01114472427607412,0.02205471408315476,-0.08443269129388063, ,0.011896694877072574,0.022316390843035622,-0.08507166036885558, ,0.0010208898031629368, ,0.00788320623401911,0.006487880186274233,-0.022696788829774134,0.06447526568982745,0.0790061669059552,0.019553248130780087, ,0.024887381401483107, ,0.10197562587117374, ,0.00036355774357148187, ,0.15176714644426006,-0.24980724028254023,0.09463176258000001,-4.531399678700571,0.19661992316246882,-1.1807428639951945, ,0.06692308995660845,-0.0022118780770552207,0.024657602972136226,0.019314683932116147,0.15302601535513213,-0.03828425671921287, ,1.2472598552703857
0.01114472427607412,0.02205471408315476,-0.08443269129388063, ,0.011950505179749792,0.022329456239036406,-0.08514518494265909, ,0.0011101411245857504, ,0.00788320623401911,0.006487880186274233,-0.022696788829774134,0.06447526568982745,0.0790061669059552,0.019553248130780087, ,0.024887381401483107, ,0.10197562587117374, ,0.0003717619565496607, ,0.15176714644426006,-0.24980724028254023,0.09463176258000001,-4.531399678700571,0.19661992316246882,-1.1807428639951945, ,0.06692308995660845,-0.0022118780770552207,0.024657602972136226,0.019314683932116147,0.15302601535513213,-0.03828425671921287, ,1.2500388622283936
0.011229421874789043,0.022121859628426936,-0.0846715228630473, ,0.012005322178730845,0.022342120289164706,-0.08521923605955, ,0.0009749491196718004, ,0.009456858264703435,0.007537729598311154,-0.02673161291951812,0.0646029827710949,0.08883350658225822,-0.02246906341232172, ,0.029339881816648372, ,0.1098404462155778, ,0.00037831833875751005, ,0.15247763786868873,-0.24981496301541445,0.09489102058000001,-4.530980298813603,0.19812292465988865,-1.1810699947943089, ,0.0778481883170392,-0.0008511541177849132,0.028546257204301078,0.06615261740839737,0.1622467385950488,-0.03492329846009004, ,1.2528409957885742
0.011229421874789043,0.022121859628426936,-0.0846715228630473, ,0.012061137454990297,0.02235438609086749,-0.08529380809644888, ,0.0010644521002817742, ,0.009456858264703435,0.007537729598311154,-0.02673161291951812,0.0646029827710949,0.08883350658225822,-0.02246906341232172, ,0.029339881816648372, ,0.1098404462155778, ,0.0003856961211394914, ,0.15247763786868873,-0.24981496301541445,0.09489102058000001,-4.530980298813603,0.19812292465988865,-1.1810699947943089, ,0.0778481883170392,-0.0008511541177849132,0.028546257204301078,0.06615261740839737,0.1622467385950488,-0.03492329846009004, ,1.2556679248809814
0.011229421874789043,0.022121859628426936,-0.0846715228630473, ,0.012117942619083234,0.022366256732064986,-0.08536889545133831, ,0.001155650286292302, ,0.009456858264703435,0.007537729598311154,-0.02673161291951812,0.0646029827710949,0.08883350658225822,-0.02246906341232172, ,0.029339881816648372, ,0.1098404462155778, ,0.0003938871228964362, ,0.15247763786868873,-0.24981496301541445,0.09489102058000001,-4.530980298813603,0.19812292465988865,-1.1810699947943089, ,0.0778481883170392,-0.0008511541177849132,0.028546257204301078,0.06615261740839737,0.1622467385950488,-0.03492329846009004, ,1.2585978507995605
0.011229421874789043,0.022121859628426936,-0.0846715228630473, ,0.01217572931110269,0.02237773529116533,-0.08544449254323452, ,0.0012483798481604305, ,0.011034655040312362,0.007914350953675585,-0.028875908755264863,0.06549528190535939,0.09149763302449368,0.004676328786290294, ,0.03190953884528917, ,0.11252301420107699, ,0.000402881783162373, ,0.15337347488209876,-0.24980724028254023,0.09520342647,-4.530770608870118,0.19989919915683937,-1.1813749251803944, ,0.09489694155847078,0.0016262641495634936,0.03141777420118344,0.04449427965662095,0.18844265380516764,-0.03426496003538354, ,1.2619178295135498
0.011335612485839152,0.02220077441509011,-0.08495927403703019, ,0.01223448920063813,0.022388824837073894,-0.08552059381215409, ,0.001076300236718932, ,0.011034655040312362,0.007914350953675585,-0.028875908755264863,0.06549528190535939,0.09149763302449368,0.004676328786290294, ,0.03190953884528917, ,0.11252301420107699, ,0.0004098965587202538, ,0.15337347488209876,-0.24980724028254023,0.09520342647,-4.530770608870118,0.19989919915683937,-1.1813749251803944, ,0.09489694155847078,0.0016262641495634936,0.03141777420118344,0.04449427965662095,0.18844265380516764,-0.03426496003538354, ,1.2647278308868408
0.011335612485839152,0.02220077441509011,-0.08495927403703019, ,0.012294213986732843,0.022399528429207744,-0.08559719371908565, ,0.0011684868490476302, ,0.011034655040312362,0.007914350953675585,-0.028875908755264863,0.06549528190535939,0.09149763302449368,0.004676328786290294, ,0.03190953884528917, ,0.11252301420107699, ,0.00041771707717723705, ,0.15337347488209876,-0.24980724028254023,0.09520342647,-4.530770608870118,0.19989919915683937,-1.1813749251803944, ,0.09489694155847078,0.0016262641495634936,0.03141777420118344,0.04449427965662095,0.18844265380516764,-0.03426496003538354, ,1.2678329944610596
0.011335612485839152,0.02220077441509011,-0.08495927403703019, ,0.012354895397842016,0.022409849117507166,-0.08567428674595899, ,0.0012624947761561338, ,0.011034655040312362,0.007914350953675585,-0.028875908755264863,0.06549528190535939,0.09149763302449368,0.004676328786290294, ,0.03190953884528917, ,0.11252301420107699, ,0.0004263372577790625, ,0.15337347488209876,-0.24980724028254023,0.09520342647,-4.530770608870118,0.19989919915683937,-1.1813749251803944, ,0.09489694155847078,0.0016262641495634936,0.03141777420118344,0.04449427965662095,0.18844265380516764,-0.03426496003538354, ,1.2709848880767822
0.011456040401336232,0.022281474737986477,-0.08526030741520893, ,0.012416525191791058,0.022419789942446304,-0.08575186739561334, ,0.001087792876799164, ,0.012353201294079194,0.008044925645368104,-0.02974580869380119,0.05044047981711669,0.09892055245348252,0.026964117349790734, ,0.033198426855797845, ,0.11103825653377108, ,0.0004330186276681545, ,0.15443148928586753,-0.24977634935104331,0.09553138784000001,-4.530770608870118,0.20194874665332097,-1.1815759764133107, ,0.11047373871766097,0.003256649744744732,0.0325077786122449,0.029610462599248086,0.21448987136469838,-0.019202639011976275, ,1.274587869644165
0.011456040401336232,0.022281474737986477,-0.08526030741520893, ,0.012479095155732915,0.02242935393504759,-0.08582993019176821, ,0.0011802454808183768, ,0.012353201294079194,0.008044925645368104,-0.02974580869380119,0.05044047981711669,0.09892055245348252,0.026964117349790734, ,0.033198426855797845, ,0.11103825653377108, ,0.0004404908961996567, ,0.15443148928586753,-0.24977634935104331,0.09553138784000001,-4.530770608870118,0.20194874665332097,-1.1815759764133107, ,0.11047373871766097,0.003256649744744732,0.0325077786122449,0.029610462599248086,0.21448987136469838,-0.019202639011976275, ,1.2773079872131348
0.011456040401336232,0.022281474737986477,-0.08526030741520893, ,0.012542597106106201,0.022438544116893302,-0.08590846967899313, ,0.00127490806831889, ,0.012353201294079194,0.008044925645368104,-0.02974580869380119,0.05044047981711669,0.09892055245348252,0.026964117349790734, ,0.033198426855797845, ,0.11103825653377108, ,0.00044875245235925304, ,0.15443148928586753,-0.24977634935104331,0.09553138784000001,-4.530770608870118,0.20194874665332097,-1.1815759764133107, ,0.11047373871766097,0.003256649744744732,0.0325077786122449,0.029610462599248086,0.21448987136469838,-0.019202639011976275, ,1.2801108360290527
0.011590602767167038,0.022355895442575845,-0.08554768323847767, ,0.012607022888593557,0.02244736350013506,-0.08598748042267447, ,0.0011112595700473364, ,0.014370856114787254,0.007029328662185557,-0.028059939083349677,0.002594253379459964,0.05754025809917894,0.022847978242080482, ,0.03230004873485853, ,0.05759855950758684, ,0.0004552476201797245, ,0.155651681079995,-0.24969912202230107,0.09584638631,-4.530141539039664,0.20386165765003716,-1.1814205735221088, ,0.13328222128998704,0.00998678389889222,0.030869789767441865,0.02953494944007959,0.1901462619723331,0.01907475958715174, ,1.2828278541564941
0.011590602767167038,0.022355895442575845,-0.08554768323847767, ,0.012672364378078576,0.02245581508751126,-0.08606695700898978, ,0.0012040919263195025, ,0.014370856114787254,0.007029328662185557,-0.028059939083349677,0.002594253379459964,0.05754025809917894,0.022847978242080482, ,0.03230004873485853, ,0.05759855950758684, ,0.00046251795324904276, ,0.155651681079995,-0.24969912202230107,0.09584638631,-4.530141539039664,0.20386165765003716,-1.1814205735221088, ,0.13328222128998704,0.00998678389889222,0.030869789767441865,0.02953494944007959,0.1901462619723331,0.01907475958715174, ,1.2855679988861084
0.011590602767167038,0.022355895442575845,-0.08554768323847767, ,0.012738613478604775,0.02246390187235384,-0.08614689404487216, ,0.0012994797316422863, ,0.014370856114787254,0.007029328662185557,-0.028059939083349677,0.002594253379459964,0.05754025809917894,0.022847978242080482, ,0.03230004873485853, ,0.05759855950758684, ,0.0004705656626566701, ,0.155651681079995,-0.24969912202230107,0.09584638631,-4.530141539039664,0.20386165765003716,-1.1814205735221088, ,0.13328222128998704,0.00998678389889222,0.030869789767441865,0.02953494944007959,0.1901462619723331,0.01907475958715174, ,1.2883269786834717
0.011590602767167038,0.022355895442575845,-0.08554768323847767, ,0.012805762123333059,0.022471626838602664,-0.08622728615798218, ,0.0013970920317227479, ,0.016016526539463477,0.006565322817853496,-0.02623977769594125,0.05260994765581764,0.06950197513482573,-0.03938173254776071, ,0.031434988780408075, ,0.08716833542377583, ,0.00047938972331444224, ,0.155651681079995,-0.24969912202230107,0.09584638631,-4.530141539039664,0.20386165765003716,-1.1814205735221088, ,0.13328222128998704,0.00998678389889222,0.030869789767441865,0.02953494944007959,0.1901462619723331,0.01907475958715174, ,1.2913579940795898
0.011741352449012032,0.02242401746728423,-0.08581519876986256, ,0.012873802274499224,0.022478992960819427,-0.08630812799667881, ,0.0012363026064783145, ,0.016016526539463477,0.006565322817853496,-0.02623977769594125,0.05260994765581764,0.06950197513482573,-0.03938173254776071, ,0.031434988780408075, ,0.08716833542377583, ,0.0004865304108914599, ,0.15709583212747497,-0.24959100376206192,0.09614323672000001,-4.529093089322242,0.20591120514651876,-1.1815399460148843, ,0.15659561313279005,0.012461843934139303,0.029280903529411772,0.09744852639260126,0.2145947480978697,-0.019894510879432628, ,1.2946038246154785
0.011741352449012032,0.02242401746728423,-0.08581519876986256, ,0.012942725923372598,0.02248600320419661,-0.08638941422998603, ,0.001332990566779283, ,0.016016526539463477,0.006565322817853496,-0.02623977769594125,0.05260994765581764,0.06950197513482573,-0.03938173254776071, ,0.031434988780408075, ,0.08716833542377583, ,0.0004944412534698508, ,0.15709583212747497,-0.24959100376206192,0.09614323672000001,-4.529093089322242,0.20591120514651876,-1.1815399460148843, ,0.15659561313279005,0.012461843934139303,0.029280903529411772,0.09744852639260126,0.2145947480978697,-0.019894510879432628, ,1.2974247932434082
0.011741352449012032,0.02242401746728423,-0.08581519876986256, ,0.013012525090213445,0.022492660524571634,-0.08647113954756387, ,0.0014320789283081227, ,0.016016526539463477,0.006565322817853496,-0.02623977769594125,0.05260994765581764,0.06950197513482573,-0.03938173254776071, ,0.031434988780408075, ,0.08716833542377583, ,0.0005031230837924274, ,0.15709583212747497,-0.24959100376206192,0.09614323672000001,-4.529093089322242,0.20591120514651876,-1.1815399460148843, ,0.15659561313279005,0.012461843934139303,0.029280903529411772,0.09744852639260126,0.2145947480978697,-0.019894510879432628, ,1.3002498149871826
0.011741352449012032,0.02242401746728423,-0.08581519876986256, ,0.013083191824230967,0.02249896786843875,-0.08655329865967816, ,0.0015332781609567682, ,0.016016526539463477,0.006565322817853496,-0.02623977769594125,0.05260994765581764,0.06950197513482573,-0.03938173254776071, ,0.031434988780408075, ,0.08716833542377583, ,0.0005125740478031094, ,0.15709583212747497,-0.24959100376206192,0.09614323672000001,-4.529093089322242,0.20591120514651876,-1.1815399460148843, ,0.15659561313279005,0.012461843934139303,0.029280903529411772,0.09744852639260126,0.2145947480978697,-0.019894510879432628, ,1.303184986114502
0.011901303982798638,0.022482974602762537,-0.08606313737261519, ,0.013154718203541402,0.02250492817296039,-0.08663588629716931, ,0.0013782490698645616, ,0.017603692466640508,0.0058851577366017815,-0.025393107251289383,0.11065732842646639,0.0335209381231103,0.02001313483738848, ,0.03145369558446551, ,0.11562303866096556, ,0.0005204438207309408, ,0.15868671509956522,-0.24944427183745166,0.09642064278000001,-4.528673709435273,0.2080973891427658,-1.1821791301120592, ,0.17638836720905351,0.016879569825412805,0.028546257204301078,0.030639340888432315,0.2241641267179883,-0.09185189760531451, ,1.3059887886047363
0.011901303982798638,0.022482974602762537,-0.08606313737261519, ,0.013227096335125643,0.02251054436598041,-0.086718897211422, ,0.0014793601385479447, ,0.017603692466640508,0.0058851577366017815,-0.025393107251289383,0.11065732842646639,0.0335209381231103,0.02001313483738848, ,0.03145369558446551, ,0.11562303866096556, ,0.0005290827064770399, ,0.15868671509956522,-0.24944427183745166,0.09642064278000001,-4.528673709435273,0.2080973891427658,-1.1821791301120592, ,0.17638836720905351,0.016879569825412805,0.028546257204301078,0.030639340888432315,0.2241641267179883,-0.09185189760531451, ,1.3087868690490723
0.011901303982798638,0.022482974602762537,-0.08606313737261519, ,0.013300318354787314,0.02251581936603554,-0.08680232617433505, ,0.0015826307453393452, ,0.017603692466640508,0.0058851577366017815,-0.025393107251289383,0.11065732842646639,0.0335209381231103,0.02001313483738848, ,0.03145369558446551, ,0.11562303866096556, ,0.0005384893853954534, ,0.15868671509956522,-0.24944427183745166,0.09642064278000001,-4.528673709435273,0.2080973891427658,-1.1821791301120592, ,0.17638836720905351,0.016879569825412805,0.028546257204301078,0.030639340888432315,0.2241641267179883,-0.09185189760531451, ,1.3118879795074463
0.012139029533957766,0.02255174423342391,-0.08637689815546733, ,0.013374376427110861,0.02252075608236669,-0.08688616797828952, ,0.0013365619942098817, ,0.020639555811330514,0.005218916767402808,-0.02542120526277631,0.0749540314854807,-0.05356553971321616,0.03439984785225521, ,0.033158197075931484, ,0.09212688676065814, ,0.0005455519748539881, ,0.1610421486262037,-0.24919714438547647,0.09677452995000001,-4.528464019491787,0.21042020963877828,-1.1830930895932115, ,0.20364150549028065,0.02359446582756608,0.02875236736462094,0.0,0.1671607363971403,-0.07543054454001562, ,1.3147058486938477
0.012139029533957766,0.02255174423342391,-0.08637689815546733, ,0.013449262745418794,0.022525357414934256,-0.08697041743612162, ,0.0014386356276395614, ,0.020639555811330514,0.005218916767402808,-0.02542120526277631,0.0749540314854807,-0.05356553971321616,0.03439984785225521, ,0.033158197075931484, ,0.09212688676065814, ,0.0005533860419836862, ,0.1610421486262037,-0.24919714438547647,0.09677452995000001,-4.528464019491787,0.21042020963877828,-1.1830930895932115, ,0.20364150549028065,0.02359446582756608,0.02875236736462094,0.0,0.1671607363971403,-0.07543054454001562, ,1.3176169395446777
0.012139029533957766,0.02255174423342391,-0.08637689815546733, ,0.013524969531730527,0.022529626254425016,-0.08705506938108656, ,0.0015431251062954213, ,0.020639555811330514,0.005218916767402808,-0.02542120526277631,0.0749540314854807,-0.05356553971321616,0.03439984785225521, ,0.033158197075931484, ,0.09212688676065814, ,0.0005619924686298751, ,0.1610421486262037,-0.24919714438547647,0.09677452995000001,-4.528464019491787,0.21042020963877828,-1.1830930895932115, ,0.20364150549028065,0.02359446582756608,0.02875236736462094,0.0,0.1671607363971403,-0.07543054454001562, ,1.3205528259277344
0.012139029533957766,0.02255174423342391,-0.08637689815546733, ,0.013601489036719202,0.022533565482270927,-0.08714011866683506, ,0.001649734467477459, ,0.020639555811330514,0.005218916767402808,-0.02542120526277631,0.0749540314854807,-0.05356553971321616,0.03439984785225521, ,0.033158197075931484, ,0.09212688676065814, ,0.0005713695548268371, ,0.1610421486262037,-0.24919714438547647,0.09677452995000001,-4.528464019491787,0.21042020963877828,-1.1830930895932115, ,0.20364150549028065,0.02359446582756608,0.02875236736462094,0.0,0.1671607363971403,-0.07543054454001562, ,1.3233869075775146
0.012360059119572381,0.022603096336999286,-0.08663995392468789, ,0.01367881353967083,0.022537177970654083,-0.08722556016737551, ,0.0014444352263170309, ,0.022905457506954937,0.0052656928558671105,-0.027111162317588526,0.12333242663164982,-0.04715033991078321,-0.05437209417405909, ,0.03588039335160472, ,0.1320379769832276, ,0.0005788316545831635, ,0.16322768202960924,-0.24890368053625594,0.09707267665000001,-4.52762525971785,0.212196484135729,-1.1840514499004218, ,0.2254084122528997,0.030562622080022795,0.030750601389961392,0.09108118049298612,0.17832766465675642,-0.11515728440847196, ,1.3261098861694336
0.012360059119572381,0.022603096336999286,-0.08663995392468789, ,0.013756935348440942,0.02254046658252527,-0.08731138877704998, ,0.001551131988545797, ,0.022905457506954937,0.0052656928558671105,-0.027111162317588526,0.12333242663164982,-0.04715033991078321,-0.05437209417405909, ,0.03588039335160472, ,0.1320379769832276, ,0.0005870714879218299, ,0.16322768202960924,-0.24890368053625594,0.09707267665000001,-4.52762525971785,0.212196484135729,-1.1840514499004218, ,0.2254084122528997,0.030562622080022795,0.030750601389961392,0.09108118049298612,0.17832766465675642,-0.11515728440847196, ,1.3289029598236084
0.012360059119572381,0.022603096336999286,-0.08663995392468789, ,0.013835846799413371,0.022543434171611247,-0.0873975994104988, ,0.0016599805818499464, ,0.022905457506954937,0.0052656928558671105,-0.027111162317588526,0.12333242663164982,-0.04715033991078321,-0.05437209417405909, ,0.03588039335160472, ,0.1320379769832276, ,0.0005960875307279486, ,0.16322768202960924,-0.24890368053625594,0.09707267665000001,-4.52762525971785,0.212196484135729,-1.1840514499004218, ,0.2254084122528997,0.030562622080022795,0.030750601389961392,0.09108118049298612,0.17832766465675642,-0.11515728440847196, ,1.3318228721618652
0.012605401488013587,0.022659350873022097,-0.08693270752490947, ,0.013915540257457656,0.022546083582431584,-0.0874841870026346, ,0.0014259813072653232, ,0.024502213320989046,0.005436287115924499,-0.029360804492598366,0.12310485713577536,-0.045566247134442545,-0.03389834622491186, ,0.038626008280517474, ,0.13126715853209397, ,0.0006030033121990933, ,0.16322768202960924,-0.24890368053625594,0.09707267665000001,-4.52762525971785,0.212196484135729,-1.1840514499004218, ,0.2254084122528997,0.030562622080022795,0.030750601389961392,0.09108118049298612,0.17832766465675642,-0.11515728440847196, ,1.3351178169250488
0.012605401488013587,0.022659350873022097,-0.08693270752490947, ,0.013996008115887285,0.022548417650304856,-0.08757114650860606, ,0.0015341764270422823, ,0.024502213320989046,0.005436287115924499,-0.029360804492598366,0.12310485713577536,-0.045566247134442545,-0.03389834622491186, ,0.038626008280517474, ,0.13126715853209397, ,0.0006106989577763098, ,0.16562945195349307,-0.2485716030226643,0.09740452689000001,-4.526786499943912,0.2141093951324452,-1.1851212281113281, ,0.23963874130926963,0.035356535603007,0.03325430379958247,0.07453455685287981,0.199784544159654,-0.1190352449738174, ,1.338005781173706
0.012605401488013587,0.022659350873022097,-0.08693270752490947, ,0.014077242796417373,0.0225504392013665,-0.087658472903773, ,0.0016446622676110456, ,0.024502213320989046,0.005436287115924499,-0.029360804492598366,0.12310485713577536,-0.045566247134442545,-0.03389834622491186, ,0.038626008280517474, ,0.13126715853209397, ,0.0006191740668733158, ,0.16562945195349307,-0.2485716030226643,0.09740452689000001,-4.526786499943912,0.2141093951324452,-1.1851212281113281, ,0.23963874130926963,0.035356535603007,0.03325430379958247,0.07453455685287981,0.199784544159654,-0.1190352449738174, ,1.340728998184204
0.012605401488013587,0.022659350873022097,-0.08693270752490947, ,0.014159236749122565,0.022552151052577536,-0.08774616118367233, ,0.0017571575555776519, ,0.024502213320989046,0.005436287115924499,-0.029360804492598366,0.12310485713577536,-0.045566247134442545,-0.03389834622491186, ,0.038626008280517474, ,0.13126715853209397, ,0.0006284259651554649, ,0.16562945195349307,-0.2485716030226643,0.09740452689000001,-4.526786499943912,0.2141093951324452,-1.1851212281113281, ,0.23963874130926963,0.035356535603007,0.03325430379958247,0.07453455685287981,0.199784544159654,-0.1190352449738174, ,1.3434638977050781
0.012873830421564994,0.022712621750165647,-0.08724457240505668, ,0.01424198245239493,0.02255355601173872,-0.0878342063639901, ,0.001498269032628282, ,0.02706068099913559,0.004967350324195334,-0.03059558198910695,0.07107817917017498,-0.055599281483681276,0.018873101575077753, ,0.04114662395181927, ,0.09024057206073059, ,0.0006354408286028264, ,0.16827834932935207,-0.24815457544745617,0.09775841406,-4.526576810000427,0.21643221562845769,-1.1861168663326214, ,0.2665644425799741,0.04397448635703002,0.034779064454148474,0.02836692671791385,0.22425394805899987,-0.07894901362272971, ,1.3461508750915527
0.012873830421564994,0.022712621750165647,-0.08724457240505668, ,0.01432547241290213,0.022554656877500343,-0.08792260348052776, ,0.0016099514002956377, ,0.02706068099913559,0.004967350324195334,-0.03059558198910695,0.07107817917017498,-0.055599281483681276,0.018873101575077753, ,0.04114662395181927, ,0.09024057206073059, ,0.0006432369131763689, ,0.16827834932935207,-0.24815457544745617,0.09775841406,-4.526576810000427,0.21643221562845769,-1.1861168663326214, ,0.2665644425799741,0.04397448635703002,0.034779064454148474,0.02836692671791385,0.22425394805899987,-0.07894901362272971, ,1.3488857746124268
0.012873830421564994,0.022712621750165647,-0.08724457240505668, ,0.014409699165544894,0.02255545643937616,-0.08801134758917427, ,0.0017238149310841114, ,0.02706068099913559,0.004967350324195334,-0.03059558198910695,0.07107817917017498,-0.055599281483681276,0.018873101575077753, ,0.04114662395181927, ,0.09024057206073059, ,0.0006518129291915097, ,0.16827834932935207,-0.24815457544745617,0.09775841406,-4.526576810000427,0.21643221562845769,-1.1861168663326214, ,0.2665644425799741,0.04397448635703002,0.034779064454148474,0.02836692671791385,0.22425394805899987,-0.07894901362272971, ,1.3516879081726074
0.013152334662990359,0.02275735767255655,-0.08755077589720371, ,0.01449465527341522,0.022555957477755663,-0.08810043376587508, ,0.001464414706368915, ,0.02923084808401827,0.004211264017894307,-0.031348008036257695,-0.01710593134931507,-0.12780060409323102,-0.004634492960060287, ,0.04306825782616059, ,0.128940207155567, ,0.0006582113683818831, ,0.17097358310245642,-0.2476603205435058,0.09810581978,-4.525947740169974,0.21820849012540838,-1.1865034754588475, ,0.2799319809984389,0.0535838179325075,0.03555538285714287,0.037113909874640985,0.15119622540020486,-0.00824770161077619, ,1.3547070026397705
0.013152334662990359,0.02275735767255655,-0.08755077589720371, ,0.014580333327754005,0.022556162763915918,-0.08818985710660207, ,0.0015773662764354194, ,0.02923084808401827,0.004211264017894307,-0.031348008036257695,-0.01710593134931507,-0.12780060409323102,-0.004634492960060287, ,0.04306825782616059, ,0.128940207155567, ,0.0006653922661010512, ,0.17097358310245642,-0.2476603205435058,0.09810581978,-4.525947740169974,0.21820849012540838,-1.1865034754588475, ,0.2799319809984389,0.0535838179325075,0.03555538285714287,0.037113909874640985,0.15119622540020486,-0.00824770161077619, ,1.3574798107147217
0.013152334662990359,0.02275735767255655,-0.08755077589720371, ,0.01466672594790925,0.0225560750600323,-0.08827961272732052, ,0.0016926602668219013, ,0.02923084808401827,0.004211264017894307,-0.031348008036257695,-0.01710593134931507,-0.12780060409323102,-0.004634492960060287, ,0.04306825782616059, ,0.128940207155567, ,0.0006733555839360966, ,0.17097358310245642,-0.2476603205435058,0.09810581978,-4.525947740169974,0.21820849012540838,-1.1865034754588475, ,0.2799319809984389,0.0535838179325075,0.03555538285714287,0.037113909874640985,0.15119622540020486,-0.00824770161077619, ,1.3602898120880127
0.013152334662990359,0.02275735767255655,-0.08755077589720371, ,0.01475382578129373,0.022555697119192693,-0.08836969576396177, ,0.0018099918588100415, ,0.02923084808401827,0.004211264017894307,-0.031348008036257695,-0.01710593134931507,-0.12780060409323102,-0.004634492960060287, ,0.04306825782616059, ,0.128940207155567, ,0.0006820989398966654, ,0.17097358310245642,-0.2476603205435058,0.09810581978,-4.525947740169974,0.21820849012540838,-1.1865034754588475, ,0.2799319809984389,0.0535838179325075,0.03555538285714287,0.037113909874640985,0.15119622540020486,-0.00824770161077619, ,1.3631949424743652
0.013453135290993607,0.022799277535970344,-0.08786363194367972, ,0.014841625503342969,0.022555031685407873,-0.08846010137239048, ,0.0015307961603993863, ,0.0313271599715581,0.003900154074915627,-0.03119400270215823,0.016977297453663814,-0.13417694038768935,-0.06622065737318711, ,0.04438094138562101, ,0.13524662814417973, ,0.0006885775446333274, ,0.17385416246454216,-0.24711200650943585,0.09846229953,-4.525108980396035,0.21971149162282821,-1.1866672487776808, ,0.30126013193165324,0.05847008105882364,0.03571482403587444,0.09901702480114413,0.15466084692164053,-0.03643827754873288, ,1.3661069869995117
0.013453135290993607,0.022799277535970344,-0.08786363194367972, ,0.014930117817473164,0.022554081493626067,-0.08855082472837644, ,0.0016473713625186253, ,0.0313271599715581,0.003900154074915627,-0.03119400270215823,0.016977297453663814,-0.13417694038768935,-0.06622065737318711, ,0.04438094138562101, ,0.13524662814417973, ,0.0006958411341627615, ,0.17385416246454216,-0.24711200650943585,0.09846229953,-4.525108980396035,0.21971149162282821,-1.1866672487776808, ,0.30126013193165324,0.05847008105882364,0.03571482403587444,0.09901702480114413,0.15466084692164053,-0.03643827754873288, ,1.3690237998962402
0.013453135290993607,0.022799277535970344,-0.08786363194367972, ,0.015019295455038979,0.02255284926974237,-0.08864186102756129, ,0.001766132797056298, ,0.0313271599715581,0.003900154074915627,-0.03119400270215823,0.016977297453663814,-0.13417694038768935,-0.06622065737318711, ,0.04438094138562101, ,0.13524662814417973, ,0.0007038884398988031, ,0.17385416246454216,-0.24711200650943585,0.09846229953,-4.525108980396035,0.21971149162282821,-1.1866672487776808, ,0.30126013193165324,0.05847008105882364,0.03571482403587444,0.09901702480114413,0.15466084692164053,-0.03643827754873288, ,1.3720510005950928
0.0137745905623384,0.022833102716061714,-0.08817679502429893, ,0.015109151175291503,0.022551337730612013,-0.08873320548542939, ,0.0014731042522261096, ,0.03215571628640461,0.002965785574737364,-0.030965685015403775,0.0721400037878035,-0.1246051513979545,-0.003815948028661831, ,0.04473991084524274, ,0.14398123291027584, ,0.0007096288564087083, ,0.17696642381285463,-0.24647101968087523,0.09882137186,-4.524479910565582,0.22148776611977897,-1.1873805728644693, ,0.3131912262655801,0.06735056178741716,0.03555538285714287,0.03903626366797755,0.2014444935868054,-0.10440447149647658, ,1.3748359680175781
0.0137745905623384,0.022833102716061714,-0.08817679502429893, ,0.015199677765336159,0.022549549584062894,-0.08882485333727776, ,0.0015909919835861164, ,0.03215571628640461,0.002965785574737364,-0.030965685015403775,0.0721400037878035,-0.1246051513979545,-0.003815948028661831, ,0.04473991084524274, ,0.14398123291027584, ,0.000716157472165578, ,0.17696642381285463,-0.24647101968087523,0.09882137186,-4.524479910565582,0.22148776611977897,-1.1873805728644693, ,0.3131912262655801,0.06735056178741716,0.03555538285714287,0.03903626366797755,0.2014444935868054,-0.10440447149647658, ,1.377565860748291
0.0137745905623384,0.022833102716061714,-0.08817679502429893, ,0.015290868040090628,0.022547487528907874,-0.08891679983818551, ,0.0017112219462264101, ,0.03215571628640461,0.002965785574737364,-0.030965685015403775,0.0721400037878035,-0.1246051513979545,-0.003815948028661831, ,0.04473991084524274, ,0.14398123291027584, ,0.000723474122710143, ,0.17696642381285463,-0.24647101968087523,0.09882137186,-4.524479910565582,0.22148776611977897,-1.1873805728644693, ,0.3131912262655801,0.06735056178741716,0.03555538285714287,0.03903626366797755,0.2014444935868054,-0.10440447149647658, ,1.3802669048309326
0.0137745905623384,0.022833102716061714,-0.08817679502429893, ,0.015382714842242616,0.02254515425495537,-0.08900904026298158, ,0.00183346943066442, ,0.03215571628640461,0.002965785574737364,-0.030965685015403775,0.0721400037878035,-0.1246051513979545,-0.003815948028661831, ,0.04473991084524274, ,0.14398123291027584, ,0.000731576278242656, ,0.17696642381285463,-0.24647101968087523,0.09882137186,-4.524479910565582,0.22148776611977897,-1.1873805728644693, ,0.3131912262655801,0.06735056178741716,0.03555538285714287,0.03903626366797755,0.2014444935868054,-0.10440447149647658, ,1.383056879043579
0.014105508834577448,0.0228594740639169,-0.08848896859516915, ,0.015475211042207889,0.022542552443023514,-0.08910156990621684, ,0.0015335591992729678, ,0.03353041028215344,0.0021251521853561436,-0.031189695686881423,0.0744564213053782,-0.13267934183895846,0.0019202524455862319, ,0.045843230716657996, ,0.1521431461109783, ,0.0007373877486849046, ,0.18018680342140625,-0.24575280552357234,0.09918044419000001,-4.524060530678613,0.22353731361626059,-1.1884800902389316, ,0.3261063283796246,0.07702673827797953,0.035875701621621625,0.03239997027965964,0.20975933647523684,-0.11624778323172244, ,1.3857898712158203
0.014105508834577448,0.0228594740639169,-0.08848896859516915, ,0.015568349538088104,0.022539684764951183,-0.08919438408213189, ,0.001655227817802555, ,0.03353041028215344,0.0021251521853561436,-0.031189695686881423,0.0744564213053782,-0.13267934183895846,0.0019202524455862319, ,0.045843230716657996, ,0.1521431461109783, ,0.0007439909146497798, ,0.18018680342140625,-0.24575280552357234,0.09918044419000001,-4.524060530678613,0.22353731361626059,-1.1884800902389316, ,0.3261063283796246,0.07702673827797953,0.035875701621621625,0.03239997027965964,0.20975933647523684,-0.11624778323172244, ,1.3885209560394287
0.014105508834577448,0.0228594740639169,-0.08848896859516915, ,0.015662123255628643,0.02253655388360969,-0.08928747812462638, ,0.0017790287707927035, ,0.03353041028215344,0.0021251521853561436,-0.031189695686881423,0.0744564213053782,-0.13267934183895846,0.0019202524455862319, ,0.045843230716657996, ,0.1521431461109783, ,0.0007513840421936579, ,0.18018680342140625,-0.24575280552357234,0.09918044419000001,-4.524060530678613,0.22353731361626059,-1.1884800902389316, ,0.3261063283796246,0.07702673827797953,0.035875701621621625,0.03239997027965964,0.20975933647523684,-0.11624778323172244, ,1.3912618160247803
0.014445769454046103,0.022879228186737797,-0.08880933051904458, ,0.015756525148176683,0.022533162452916502,-0.08938084738723022, ,0.0014712149783229283, ,0.03353041028215344,0.0021251521853561436,-0.031189695686881423,0.0744564213053782,-0.13267934183895846,0.0019202524455862319, ,0.045843230716657996, ,0.1521431461109783, ,0.0007564892261378371, ,0.18018680342140625,-0.24575280552357234,0.09918044419000001,-4.524060530678613,0.22353731361626059,-1.1884800902389316, ,0.3261063283796246,0.07702673827797953,0.035875701621621625,0.03239997027965964,0.20975933647523684,-0.11624778323172244, ,1.394563913345337
0.014445769454046103,0.022879228186737797,-0.08880933051904458, ,0.015851548196638934,0.022529513117845564,-0.08947448724307108, ,0.0015940351219637077, ,0.034758661515748066,0.001939269199028073,-0.032448571129150665,0.08589315288045109,-0.09541815231325172,-0.04152927674998261, ,0.04759028350111181, ,0.12838310453294707, ,0.0007623874366718222, ,0.18349213309157436,-0.24493419583890455,0.09954859055000001,-4.523431460848159,0.22586013411227307,-1.1896390859405055, ,0.3377115357952697,0.08420314246536893,0.03739157633802818,0.08677448785968744,0.24767507141432843,-0.1196697315271465, ,1.397974967956543
0.014445769454046103,0.022879228186737797,-0.08880933051904458, ,0.01594718540943953,0.022525608514440354,-0.0895683930848444, ,0.0017191488366468815, ,0.034758661515748066,0.001939269199028073,-0.032448571129150665,0.08589315288045109,-0.09541815231325172,-0.04152927674998261, ,0.04759028350111181, ,0.12838310453294707, ,0.000769078075832487, ,0.18349213309157436,-0.24493419583890455,0.09954859055000001,-4.523431460848159,0.22586013411227307,-1.1896390859405055, ,0.3377115357952697,0.08420314246536893,0.03739157633802818,0.08677448785968744,0.24767507141432843,-0.1196697315271465, ,1.4008748531341553
0.014445769454046103,0.022879228186737797,-0.08880933051904458, ,0.01604342982247816,0.022521451269827446,-0.08966256032478523, ,0.0018462188593275069, ,0.034758661515748066,0.001939269199028073,-0.032448571129150665,0.08589315288045109,-0.09541815231325172,-0.04152927674998261, ,0.04759028350111181, ,0.12838310453294707, ,0.0007765582201623134, ,0.18349213309157436,-0.24493419583890455,0.09954859055000001,-4.523431460848159,0.22586013411227307,-1.1896390859405055, ,0.3377115357952697,0.08420314246536893,0.03739157633802818,0.08677448785968744,0.24767507141432843,-0.1196697315271465, ,1.4037377834320068
0.014780706566455441,0.022893907735947495,-0.08912193051239556, ,0.016140274499087618,0.022517044002225435,-0.08975698439463366, ,0.0015471731223694214, ,0.03472059551257641,0.001107253798512375,-0.03247821753243444,0.06552461710059179,-0.06197004101748861,0.005699605276248134, ,0.047556076139715235, ,0.0901871681125046, ,0.0007818728056947763, ,0.18676657183024553,-0.24407697248986562,0.09990895917,-4.522592701074221,0.22859286410758187,-1.1908056203926067, ,0.33891764842310995,0.09249214576849003,0.03739157633802818,0.048941467774234755,0.2921505670989616,-0.10749515774214145, ,1.4067409038543701
0.014780706566455441,0.022893907735947495,-0.08912193051239556, ,0.016237712529991854,0.02251238932095924,-0.08985166074560662, ,0.0016735975896308196, ,0.03472059551257641,0.001107253798512375,-0.03247821753243444,0.06552461710059179,-0.06197004101748861,0.005699605276248134, ,0.047556076139715235, ,0.0901871681125046, ,0.0007879805096943381, ,0.18676657183024553,-0.24407697248986562,0.09990895917,-4.522592701074221,0.22859286410758187,-1.1908056203926067, ,0.33891764842310995,0.09249214576849003,0.03739157633802818,0.048941467774234755,0.2921505670989616,-0.10749515774214145, ,1.4096319675445557
0.014780706566455441,0.022893907735947495,-0.08912193051239556, ,0.016335737033264047,0.022507489826472573,-0.08994658484836844, ,0.0018020802777081928, ,0.03472059551257641,0.001107253798512375,-0.03247821753243444,0.06552461710059179,-0.06197004101748861,0.005699605276248134, ,0.047556076139715235, ,0.0901871681125046, ,0.0007948791475719834, ,0.18676657183024553,-0.24407697248986562,0.09990895917,-4.522592701074221,0.22859286410758187,-1.1908056203926067, ,0.33891764842310995,0.09249214576849003,0.03739157633802818,0.048941467774234755,0.2921505670989616,-0.10749515774214145, ,1.412381887435913
0.01516312677268659,0.02289711922004209,-0.08946475733878038, ,0.016434341154284254,0.022502348110338872,-0.09004175219299808, ,0.0014507767901475181, ,0.0360050092584287,-0.00044235164238169613,-0.031280079159885135,-0.061287250471649166,-0.10500790620210634,0.0441518186144501, ,0.04769695712436732, ,0.12158436367106443, ,0.0007993108884001964, ,0.18676657183024553,-0.24407697248986562,0.09990895917,-4.522592701074221,0.22859286410758187,-1.1908056203926067, ,0.33891764842310995,0.09249214576849003,0.03739157633802818,0.048941467774234755,0.2921505670989616,-0.10749515774214145, ,1.4154188632965088
0.01516312677268659,0.02289711922004209,-0.08946475733878038, ,0.01653351806569732,0.022496966755273292,-0.09013715828895943, ,0.00157804224557578, ,0.0360050092584287,-0.00044235164238169613,-0.031280079159885135,-0.061287250471649166,-0.10500790620210634,0.0441518186144501, ,0.04769695712436732, ,0.12158436367106443, ,0.0008045372733476836, ,0.19048120634274754,-0.24301895808609686,0.10030432762000001,-4.522383011130737,0.23146223060265614,-1.1911851066068584, ,0.34888581455320145,0.1039396950257073,0.03611975401360545,0.004406425872614561,0.2552819384396734,-0.004087292873918305, ,1.4182758331298828
0.01516312677268659,0.02289711922004209,-0.08946475733878038, ,0.01663326096737106,0.022491348335147345,-0.0902327986650722, ,0.00170758075659715, ,0.0360050092584287,-0.00044235164238169613,-0.031280079159885135,-0.061287250471649166,-0.10500790620210634,0.0441518186144501, ,0.04769695712436732, ,0.12158436367106443, ,0.0008105575632360133, ,0.19048120634274754,-0.24301895808609686,0.10030432762000001,-4.522383011130737,0.23146223060265614,-1.1911851066068584, ,0.34888581455320145,0.1039396950257073,0.03611975401360545,0.004406425872614561,0.2552819384396734,-0.004087292873918305, ,1.421090841293335
0.01516312677268659,0.02289711922004209,-0.08946475733878038, ,0.016733563086353653,0.022485495414996653,-0.09032866886947812, ,0.0018390343947400146, ,0.0360050092584287,-0.00044235164238169613,-0.031280079159885135,-0.061287250471649166,-0.10500790620210634,0.0441518186144501, ,0.04769695712436732, ,0.12158436367106443, ,0.0008173686680804107, ,0.19048120634274754,-0.24301895808609686,0.10030432762000001,-4.522383011130737,0.23146223060265614,-1.1911851066068584, ,0.34888581455320145,0.1039396950257073,0.03611975401360545,0.004406425872614561,0.2552819384396734,-0.004087292873918305, ,1.4239509105682373
0.015530112470580745,0.022892823745614313,-0.08978752350204972, ,0.016834417676832233,0.02247941055103808,-0.09042476446961495, ,0.001509370263138882, ,0.03564894559488461,-0.0003187703365097475,-0.032173219453884905,0.008367020858970797,-0.008633580061856857,-0.02838772523594962, ,0.04802150545934935, ,0.012021284051744916, ,0.0008219213101531638, ,0.19380198147866406,-0.24200728007957345,0.10065043705000001,-4.521753941300283,0.23433159709773038,-1.191482914080969, ,0.347607844536523,0.10759290426130474,0.036872248888888896,0.056845274502611585,0.3327366843277313,-0.0480713090298211, ,1.4267559051513672
0.015530112470580745,0.022892823745614313,-0.08978752350204972, ,0.01693581802009011,0.022473096290678053,-0.09052108105218201, ,0.0016402091048719335, ,0.03564894559488461,-0.0003187703365097475,-0.032173219453884905,0.008367020858970797,-0.008633580061856857,-0.02838772523594962, ,0.04802150545934935, ,0.012021284051744916, ,0.0008272695963931557, ,0.19380198147866406,-0.24200728007957345,0.10065043705000001,-4.521753941300283,0.23433159709773038,-1.191482914080969, ,0.347607844536523,0.10759290426130474,0.036872248888888896,0.056845274502611585,0.3327366843277313,-0.0480713090298211, ,1.429569959640503
0.015530112470580745,0.022892823745614313,-0.08978752350204972, ,0.01703775742446482,0.022466555172525483,-0.09061761422311078, ,0.0017730619866679741, ,0.03564894559488461,-0.0003187703365097475,-0.032173219453884905,0.008367020858970797,-0.008633580061856857,-0.02838772523594962, ,0.04802150545934935, ,0.012021284051744916, ,0.0008334111054209142, ,0.19380198147866406,-0.24200728007957345,0.10065043705000001,-4.521753941300283,0.23433159709773038,-1.191482914080969, ,0.347607844536523,0.10759290426130474,0.036872248888888896,0.056845274502611585,0.3327366843277313,-0.0480713090298211, ,1.4323999881744385
0.01585933076346066,0.022883611728201296,-0.09008166145368418, ,0.017140229225306697,0.022459789726406658,-0.09071435960753707, ,0.0014901788190192513, ,0.03546328550539376,-0.0014131073838372045,-0.03125773963825147,0.039752799088549014,0.0422097705019153,0.009364026853316283, ,0.047293633594893546, ,0.05798206551988949, ,0.0008376483164763874, ,0.19730810220356199,-0.24087203834706244,0.10101858341000002,-4.52070549158286,0.2381574190911627,-1.1922339319203925, ,0.3514701539202621,0.11672440536097266,0.03628430870159454,0.07271671082895548,0.4056509565396792,-0.08413226816936534, ,1.4352610111236572
0.01585933076346066,0.022883611728201296,-0.09008166145368418, ,0.017243226784935728,0.022452802473373112,-0.09081131284976565, ,0.00162270021017555, ,0.03546328550539376,-0.0014131073838372045,-0.03125773963825147,0.039752799088549014,0.0422097705019153,0.009364026853316283, ,0.047293633594893546, ,0.05798206551988949, ,0.0008426807004103564, ,0.19730810220356199,-0.24087203834706244,0.10101858341000002,-4.52070549158286,0.2381574190911627,-1.1922339319203925, ,0.3514701539202621,0.11672440536097266,0.03628430870159454,0.07271671082895548,0.4056509565396792,-0.08413226816936534, ,1.4380958080291748
0.01585933076346066,0.022883611728201296,-0.09008166145368418, ,0.017346743492600233,0.022445595925717182,-0.09090846961324457, ,0.001757232540885774, ,0.03546328550539376,-0.0014131073838372045,-0.03125773963825147,0.039752799088549014,0.0422097705019153,0.009364026853316283, ,0.047293633594893546, ,0.05798206551988949, ,0.0008485058713687986, ,0.19730810220356199,-0.24087203834706244,0.10101858341000002,-4.52070549158286,0.2381574190911627,-1.1922339319203925, ,0.3514701539202621,0.11672440536097266,0.03628430870159454,0.07271671082895548,0.4056509565396792,-0.08413226816936534, ,1.4408760070800781
0.01585933076346066,0.022883611728201296,-0.09008166145368418, ,0.017450772764434304,0.022438172586981938,-0.09100582558053066, ,0.0018934579489239137, ,0.03546328550539376,-0.0014131073838372045,-0.03125773963825147,0.039752799088549014,0.0422097705019153,0.009364026853316283, ,0.047293633594893546, ,0.05798206551988949, ,0.0008551194921128184, ,0.19730810220356199,-0.24087203834706244,0.10101858341000002,-4.52070549158286,0.2381574190911627,-1.1922339319203925, ,0.3514701539202621,0.11672440536097266,0.03628430870159454,0.07271671082895548,0.4056509565396792,-0.08413226816936534, ,1.443640947341919
0.016238679303208138,0.022864430165109268,-0.09041707315210304, ,0.017555308043416033,0.022430534951974834,-0.09110337645326204, ,0.0015468640912194406, ,0.03589523746925897,-0.0020629703728269402,-0.03201044361830148,-0.01097805095386429,0.032778176030174674,0.060156455507915145, ,0.04813930224228549, ,0.0345672217192584, ,0.000859470087075753, ,0.20093006392157328,-0.23963640108718653,0.10139450751000001,-4.520286111695891,0.24239315058389135,-1.192992488510343, ,0.35277673441810703,0.12340304493949386,0.036957799350348035,0.019798866022618967,0.4048684130980787,-0.051824046556549236, ,1.446380853652954
0.016238679303208138,0.022864430165109268,-0.09041707315210304, ,0.01766034279932532,0.022422685506779335,-0.09120111795212604, ,0.0016825551069127782, ,0.03589523746925897,-0.0020629703728269402,-0.03201044361830148,-0.01097805095386429,0.032778176030174674,0.060156455507915145, ,0.04813930224228549, ,0.0345672217192584, ,0.0008646143684497345, ,0.20093006392157328,-0.23963640108718653,0.10139450751000001,-4.520286111695891,0.24239315058389135,-1.192992488510343, ,0.35277673441810703,0.12340304493949386,0.036957799350348035,0.019798866022618967,0.4048684130980787,-0.051824046556549236, ,1.4491288661956787
0.016238679303208138,0.022864430165109268,-0.09041707315210304, ,0.017765870528701766,0.022414626728766998,-0.09129904581682978, ,0.0018200307557553063, ,0.03589523746925897,-0.0020629703728269402,-0.03201044361830148,-0.01097805095386429,0.032778176030174674,0.060156455507915145, ,0.04813930224228549, ,0.0345672217192584, ,0.0008705486317249244, ,0.20093006392157328,-0.23963640108718653,0.10139450751000001,-4.520286111695891,0.24239315058389135,-1.192992488510343, ,0.35277673441810703,0.12340304493949386,0.036957799350348035,0.019798866022618967,0.4048684130980787,-0.051824046556549236, ,1.4519579410552979
0.016238679303208138,0.022864430165109268,-0.09041707315210304, ,0.017871884754802298,0.022406361086608765,-0.09139715580606744, ,0.001959017441575519, ,0.036775575727349616,-0.002322911177853035,-0.03399031779983158,-0.03515313080462288,0.039613587276045636,0.018666376698391482, ,0.05013163263401431, ,0.05296162319525657, ,0.000877267574995607, ,0.20447479831084234,-0.23835442743006527,0.10177691306000002,-4.519866731808922,0.24635560907708912,-1.1932831730724789, ,0.35277673441810703,0.13143620714469637,0.039137129041769046,0.04325582597893974,0.3998545627810746,-0.02679479340393276, ,1.4550368785858154
