NicholasDascanio/dvrk_moveit_final/test/execution/second_exp_sharpbends/firstexp_300vel4.csv
Current Position (x),Current Position (y),Current Position (z), ,Planned Position (x),Planned Position (y),Planned Position (z), ,Position Error,,Cartesian linear Velocity(x),Cartesian linear Velocity(y),Cartesian linear Velocity(z),Cartesian Angular Velocity(x),Cartesian Angular Velocity(y),Cartesian Angular Velocity(z), ,Total Linear Velocity, ,Total Angular Velocity, ,MSE, ,Joint 1 Position,Joint 2 Position,Joint 3 Position,Joint 4 Position,Joint 5 Position,Joint 6 Position, ,Joint 1 Velocity,Joint 2 Velocity,Joint 3 Velocity,Joint 4 Velocity,Joint 5 Velocity,Joint 6 Velocity, ,Time Stamp
0.011199691939775156,0.01961533593904618,-0.08090147919954127, ,0.011332953265032118,0.019590824730478185,-0.08101690924533356, ,0.0001779985270341151, ,-0.00020636029159033488,9.143651119924976e-07,0.00024258477802338105,0.336124728390703,-0.038717128908720366,-0.029915145344837586, ,0.0003184851339347869, ,0.3383472315634611, ,1.4833210586176257e-05, ,0.1607564075098574,-0.23169743169248375,0.09067937437000001,-4.534125647965871,0.2131529396340871,-1.1956946476649915, ,-0.0020191936376452095,-0.0007452835777270693,-0.0002610194860732426,0.0,0.0,-0.33918628155442265, ,0.03598499298095703
0.011237473864609585,0.019617544567674842,-0.0809122270480413, ,0.01129424908551412,0.019641640826489056,-0.08103140512284579, ,0.0001341919107536134, ,0.0009012018845195952,0.00026252436575949125,-0.0003742970661117722,0.17141446444764508,-0.13947333106857246,-0.04660388239688598, ,0.0010105355871907597, ,0.22098807366289383, ,1.419047444489675e-05, ,0.16067918018111516,-0.23176693628835177,0.09068715211,-4.534125647965871,0.2083706621422967,-1.2024949359940305, ,-0.003291103696450693,-0.003977082365330464,0.0003314909172835734,0.0,-0.12536812686569823,-0.18694541297408795, ,0.07291293144226074
0.011253420246582612,0.019631931165823333,-0.08092010712116379, ,0.01125804583835031,0.019691750834546492,-0.08104799677822642, ,0.0001412641258386137, ,-0.0007289738991253191,0.0006160800665510285,-0.0003233467634327544,-0.19767982040325477,0.04661076314581397,0.021215359446908715, ,0.0010077255198862082, ,0.2031006514900881, ,1.4170455113323192e-05, ,0.16043205272913996,-0.23198317280883005,0.09069363356000001,-4.534335337909355,0.2044082036490989,-1.2062881884389225, ,-0.007957503363497641,-0.006283102399461573,0.0003806402426346516,0.0,0.013832701156000358,0.20803655129471307, ,0.10923194885253906
0.011213919194069005,0.019665861666853607,-0.08093226045259895, ,0.011224323382498489,0.019741159426821177,-0.08106666351639577, ,0.00015440914270528841, ,-0.0010298320642893061,0.001063647540138581,-0.0004735563339688761,0.039883938284662045,0.02957408213394065,0.01971385434321425, ,0.0015543988457674786, ,0.04965233999681963, ,1.4472945388848348e-05, ,0.16009225248267409,-0.23233069578817014,0.09071048533,-4.534335337909355,0.20591120514651876,-1.201796273569744, ,-0.010433115813855039,-0.011236462734093143,0.0006123207540695159,-0.013973888171378152,0.026841779780400362,-0.027533751580749492, ,0.14827799797058105
0.011178071884162939,0.01970911616745625,-0.08094419266521835, ,0.011193061655911836,0.019789871262353202,-0.08108738473268406, ,0.00016507588192708685, ,-0.0007977298956240681,0.001267798649538292,-0.00057839990475288,0.014320495305965849,0.012679980260322344,-0.005727778451676714, ,0.0016056876570372098, ,0.019127427563848973, ,1.4864222851129181e-05, ,0.15963661124309483,-0.23281722795924628,0.09072733710000001,-4.534545027852839,0.20591120514651876,-1.2021229885303062, ,-0.010799285092436094,-0.0132278981821119,0.0007483565398977227,0.008151303932370157,0.0,0.0, ,0.18449902534484863
0.011153921909624866,0.019746176366135702,-0.08095376785745245, ,0.011164240675407841,0.019837890987065766,-0.0811101399126672, ,0.000181577168916454, ,-0.000877548772204094,0.0012778501136922991,-0.00031463211896413983,0.01343935001039278,0.012191254732682039,-0.00367549533333234, ,0.0015817667751423404, ,0.018145049480753243, ,1.564781569139625e-05, ,0.15929681099662896,-0.23323425553445443,0.09074159629,-4.534545027852839,0.20563793214698786,-1.2019001527229132, ,-0.011319500060685184,-0.014144722247498999,0.0004855777821271661,0.006087911168140085,-0.0007337488610192496,0.0013791132106237946, ,0.2164769172668457
0.011131508876420244,0.01978799020033419,-0.08097379753596905, ,0.011137840536537333,0.0198852232337796,-0.08113490863200874, ,0.0001882847258275267, ,-0.0008542522550176797,0.0014346711434947207,-0.0005614811752765676,0.009682171447475432,0.005909543070945468,-0.003983082646633041, ,0.0017616155413055358, ,0.011343154025473352, ,1.6325735471467115e-05, ,0.15897245621591152,-0.2336744513082852,0.09076752209000001,-4.534545027852839,0.20550129564722242,-1.2017070560790764, ,-0.012348333319254492,-0.015437927697815322,0.0007511096239966585,0.004883687029699864,-0.008562024402987832,0.005182784617794077, ,0.2494649887084961
0.011106731682756823,0.01983009288073579,-0.08099991090195069, ,0.011113841413452343,0.019931872622230493,-0.08116167055630001, ,0.00019124813678701133, ,-0.0008553186637145387,0.0013717190732307665,-0.0010441378538561831,-0.001765108643377826,0.003967228598619864,-0.003863231700943628, ,0.0019244238333119067, ,0.004342178171769716, ,1.6886704047971006e-05, ,0.15857859683932607,-0.2341069243492418,0.09079863305000001,-4.534545027852839,0.2050913861479261,-1.2012911236278465, ,-0.013759162180436534,-0.013479679198646417,0.0011945043910343719,0.004028806831735688,-0.012982860992082512,0.014047248541576763, ,0.2823638916015625
0.01107305934773226,0.01988169668082363,-0.0810381092977039, ,0.011092223558776057,0.019977843759080603,-0.0811904054408972, ,0.00018112328087200103, ,-0.0008513326663027419,0.0012389238758626206,-0.0010317089986822748,-0.0034856613029467212,0.00372215345044631,-0.0033972771713905855, ,0.001823217797428101, ,0.0050994373244859755, ,1.72178738711558e-05, ,0.15806889646962727,-0.2346166247189406,0.09084270691000002,-4.534545027852839,0.20481811314839524,-1.200986609080313, ,-0.01367391088738772,-0.011977757735696462,0.0011527127703324929,0.0032981145535613734,-0.012991046487037446,0.014171579596194184, ,0.3157060146331787
0.011051630802670902,0.019919662830507757,-0.08106899604701666, ,0.011072967303470635,0.020023141237936526,-0.08122109313076482, ,0.00018519327729447292, ,-0.0007762608992614863,0.0012543133759973686,-0.001018088767566585,-0.002873985129353271,-0.0001379566700778083,0.003530906125294459, ,0.0017923135237935958, ,0.002877294313320923, ,1.7529548226352408e-05, ,0.15769048255879026,-0.23497959316402917,0.09087770674000001,-4.534125647965871,0.20427156714933348,-1.2004592587253868, ,-0.012820446035999834,-0.012338699981598072,0.0011519819283531802,-0.004295337635354507,-0.014093012256746085,0.012580305073504685, ,0.3477818965911865
0.011028158753133947,0.01995453203271237,-0.08109885333644942, ,0.01105605305670663,0.020067769639361473,-0.08125371356031176, ,0.00019386215893287434, ,-0.00047316728017226763,0.0012227032516145858,-0.0010974579604240936,-0.007109636710759161,-0.005593364874596046,0.0028272642880519234, ,0.0017097673793334326, ,0.00904614087761998, ,1.7870078649896773e-05, ,0.15733523684657594,-0.23531167067762082,0.09091141028000001,-4.534125647965871,0.20413493064956803,-1.2002661620815496, ,-0.009606295147219657,-0.011679791036374992,0.0012566324182219436,-0.004131733029270664,-0.016887837251543372,0.01583867234704477, ,0.3824729919433594
0.011009868058034495,0.019991032125340785,-0.08113051348932461, ,0.011041461305731136,0.02011173353089311,-0.08128824675323465, ,0.0002011137617022825, ,-0.0006349136647788058,0.0012644144008796213,-0.0011588962465084382,-0.0009585836206907671,0.006026472843178151,-0.0015056552207540997, ,0.0018289066813388737, ,0.0061022338110998334, ,1.838019384729246e-05, ,0.15702632753160695,-0.23566691638983514,0.09094770640000001,-4.534545027852839,0.20386165765003716,-1.1997982900537354, ,-0.01063609482788731,-0.011714642149847436,0.0013213589780664988,0.002672709644977175,-0.007000379614823813,0.012095771723975513, ,0.4116098880767822
0.010997213903548856,0.02003081387566093,-0.08116912829651214, ,0.011029172615737323,0.020155037467055874,-0.08132467282235484, ,0.00020161091107237286, ,-0.0006724275344755798,0.0013599736460115273,-0.0010963953292066717,0.016245322320130116,0.024387479665825093,-0.004018204479265969, ,0.0018718359503100159, ,0.029302895108408073, ,1.8827483685768143e-05, ,0.15674058641526065,-0.23602988483492368,0.09099178026000002,-4.534335337909355,0.20331511165097538,-1.1990259034783872, ,-0.00874016223855735,-0.01245366687119039,0.0013140426017558195,0.00988193463191236,0.014001026833617725,-0.0005036344511574796, ,0.4412410259246826
0.010981215844061925,0.02006859495764062,-0.08120077546040907, ,0.011019167629732743,0.020197685989377368,-0.08136297196945995, ,0.0002107428291988881, ,-0.0004077431683138189,0.0012957073106549474,-0.0013287717238080559,-0.0010712199738344232,0.005832422141217562,0.009459819888172221, ,0.0019001963635853795, ,0.0059299797859321815, ,1.9289967991250782e-05, ,0.1565011816961597,-0.23637740781426378,0.09102937267000001,-4.534125647965871,0.20345174815074082,-1.1990556426419432, ,-0.0075714790883704515,-0.011614624380679336,0.0015321090206009812,-0.007360690643110439,-0.0014575068206893285,0.01135007536383162, ,0.47014284133911133
0.010974379768851988,0.02010725001112683,-0.08123996509350875, ,0.011011427068408205,0.020239683626403004,-0.0814031244851432, ,0.00021338264207298492, ,-0.00025525438253633383,0.0014158849120268246,-0.0013317330095290866,-0.008061838190307159,-0.0046246114706668,0.007429118449101143, ,0.0019604585414077524, ,0.009294098463924793, ,1.971796000677961e-05, ,0.15630039064142986,-0.2367249307936039,0.09107474282000001,-4.534125647965871,0.2030418386514445,-1.1983946739702915, ,-0.00692533669640481,-0.013123626270013936,0.001565547414393228,-0.007360690643110439,-0.012600577224119697,0.018358421250951936, ,0.498776912689209
0.010966283201439837,0.02014793337595575,-0.08128215059107177, ,0.011005931730006926,0.020281034893710245,-0.08144511074864258, ,0.0002141121967604553, ,-5.8292810559341886e-05,0.001484912315637849,-0.0018139309517806069,0.0006463728005236593,-0.004064566589740675,0.006660963676023937, ,0.0023449324371340777, ,0.004115640817667967, ,2.0104045737644123e-05, ,0.1561227677853227,-0.23708017650581822,0.09112400184000001,-4.534125647965871,0.2030418386514445,-1.1982313164900105, ,-0.00509723498995204,-0.0124210656490145,0.002077851750587008,-0.006542122231691309,-0.009172324121342267,0.009461591324803896, ,0.5273158550262451
0.010963468911010079,0.02020082944611127,-0.08134259171072605, ,0.01100266249019315,0.020321744293924377,-0.08148891122768184, ,0.0001938193440114331, ,-6.869055630062394e-05,0.0014334111221916232,-0.0014632112442886315,-0.010282812899498157,-0.0031508192149380344,0.006251823845681147, ,0.0020494811497450333, ,0.010754715377200892, ,2.0318246894204382e-05, ,0.15594514492921552,-0.23752809501252325,0.09119400150000001,-4.534125647965871,0.20276856565191362,-1.1975184082417742, ,-0.004591260282327658,-0.01275496526323532,0.0017265778257540563,-0.00514461699574813,-0.009496168577335701,0.021014823917735882, ,0.557135820388794
0.010960664200759375,0.020223716398899416,-0.08136556525357867, ,0.011001600301920596,0.020361816316733505,-0.08153450647831004, ,0.00022201011035040115, ,-0.0001085870087992229,0.0014192001757854641,-0.001376768630095057,-0.00927961452986861,-0.0015360155740441542,0.006139186588104411, ,0.001980255573971015, ,0.009405880589381741, ,2.0813789640111032e-05, ,0.15586791760047328,-0.2377288860672531,0.09122122359000001,-4.534125647965871,0.20276856565191362,-1.197436729501634, ,-0.004746854464371135,-0.012799695381504016,0.0016374888192642368,-0.004680266742608628,-0.007996076704685436,0.020327864881995984, ,0.5829238891601562
0.010960724764558567,0.020272343984828686,-0.08141587970959427, ,0.011002726195302457,0.02040125543890167,-0.08158187714473991, ,0.00021433019304492888, ,5.1441643867479e-05,0.0015212421569891683,-0.0019644104331328423,0.004728382280524684,0.001704346458791417,0.005801615199297818, ,0.0024851020688748393, ,0.005026171088723729, ,2.1222323363707174e-05, ,0.15574435387448568,-0.23815363637533543,0.09128085293,-4.534125647965871,0.20249529265238275,-1.1969688574738193, ,-0.0032324677339710547,-0.012135158767067876,0.0022594058893617023,-0.0039022157785294953,-0.0014650133227687675,0.006539413105106733, ,0.6080648899078369
0.010963247521181068,0.020300820410047302,-0.0814574007831658, ,0.011006021277478623,0.020440066124286962,-0.08163100395919116, ,0.0002266208858159615, ,0.00011042099316927111,0.0015627011103698074,-0.0023381708590031487,-0.0030146741898956666,-0.0013194772109478689,0.004792975251447642, ,0.0028144751770045936, ,0.003290787217604521, ,2.166840691953581e-05, ,0.15566712654574344,-0.2383698728958137,0.09132751937000001,-4.534125647965871,0.20222201965285186,-1.1964193067058642, ,-0.0037175378336513853,-0.011619559392490606,0.0026293845361505448,-0.0035824696594012897,-0.006064797388833906,0.013255114420708706, ,0.6334729194641113
0.01096753460896623,0.020353723927541926,-0.0815338792866069, ,0.011011466732485813,0.020478252823853536,-0.08168186774172666, ,0.00019833824730056956, ,0.00019145160993555357,0.0014078602170855335,-0.0018638329310026597,-0.006083402906737475,-0.0025405742136191487,0.004552975672274664, ,0.0023436290885054754, ,0.0065925949548046835, ,2.192477724296339e-05, ,0.15557445375125276,-0.23876373227239917,0.0914143708,-4.534125647965871,0.20222201965285186,-1.196092591745302, ,-0.0018191132876042393,-0.011087557768733047,0.002147029454104327,-0.003117134798054906,-0.005809173727911621,0.015933946964387543, ,0.6590869426727295
0.010969557326275749,0.020380714142459216,-0.08156728006415384, ,0.011019043821126366,0.020515819975686914,-0.0817344494000936, ,0.00022056311165580278, ,0.00010699246751684465,0.0013035980898256647,-0.0014634039819519619,-0.009032621886484272,-0.0009478460301307599,0.004863223078170333, ,0.0019627446553984866, ,0.009082217253199673, ,2.227974904695841e-05, ,0.15553584008688162,-0.23897996879287745,0.09145325950000001,-4.534125647965871,0.20222201965285186,-1.1959292342650207, ,-0.001964344026770583,-0.010997855692595983,0.001727670925842079,-0.0028987323444179727,-0.004738219638207584,0.019010356912952105, ,0.6849930286407471
0.010975002317754978,0.020423519526374,-0.0816234373415518, ,0.011028733880836226,0.020552772005010645,-0.08178872992956472, ,0.0002165985312897611, ,0.00028467387061376786,0.0014650243808932983,-0.0019309348566697495,0.0009982340027564608,0.000224633889792741,0.002238260763198572, ,0.0024404600119494364, ,0.001023196697541175, ,2.2589138271249495e-05, ,0.15548178095676204,-0.23931976903934332,0.091518074,-4.534335337909355,0.2020853831530864,-1.1955727801409026, ,-0.00036855202314761226,-0.01134848758913149,0.0022450756194503175,0.0,-0.0014317087856583583,0.010124952377306092, ,0.7112398147583008
0.010980643797489453,0.020452184057345543,-0.08166265853634287, ,0.011040518325554378,0.020589113324200024,-0.08184469041277671, ,0.0002355210972934872, ,0.00043475321033332385,0.0014888490747679585,-0.0023753026014345594,-0.0001240667911764971,0.0005027844224271605,-0.002451000367302016, ,0.0028368546613660563, ,0.0005178654926673046, ,2.3084119794348457e-05, ,0.15547405822388782,-0.23952828282694738,0.09156344415,-4.533915958022385,0.2020853831530864,-1.195327743920481, ,0.0005775975562842834,-0.010221345630120598,0.0026979694308943095,0.0047695061763906085,-0.0014317087856583583,0.010859246581151588, ,0.7329399585723877
0.010990329144314605,0.02048554130700927,-0.08171901919728528, ,0.011054378645591756,0.020624848332796687,-0.08190231201957052, ,0.00023896661848232364, ,0.00045401088905761493,0.0015756396191031038,-0.0029191635660158746,0.0077177622968180645,-0.013641940747221906,0.04822929116939477, ,0.003348175924563221, ,0.015673748817973357, ,2.3567109696830344e-05, ,0.15548178095676204,-0.23973679661455147,0.09162696236000001,-4.533286888191932,0.2020853831530864,-1.1950010289599187, ,0.0,-0.01083049988501944,0.003244817991444286,-0.04930353618319194,-0.0014266895208152218,-0.004685875637758031, ,0.7550430297851562
0.011001058649931684,0.020518310601232843,-0.08177561479490413, ,0.011070296407500273,0.020659981417523142,-0.08196157600683047, ,0.0002438156262477925, ,0.00042085145597440236,0.0015121718195853587,-0.002551551842110102,-0.00560291058327066,-0.007351054006298581,0.027696078313560583, ,0.002995696306857443, ,0.009242867623172795, ,2.4045674968170583e-05, ,0.15548950368963627,-0.23995303313502975,0.09169048057000001,-4.533286888191932,0.20194874665332097,-1.194971289796363, ,9.433059930640093e-05,-0.010661288931055942,0.00287005612972973,-0.02675896835517058,-0.0024555527568599625,0.011898183085843955, ,0.7783708572387695
0.011015133380791926,0.020564977589891797,-0.081861722831982, ,0.011088253253940692,0.020694516952300134,-0.08202246371832594, ,0.00021900820716376976, ,0.0004834819053976384,0.0015586085968010708,-0.002839686837427574,0.0032236239255045464,-0.0014769054067945773,0.0014960145380750708, ,0.0032751850093587923, ,0.003545842721984881, ,2.4385375683419426e-05, ,0.15549722642251051,-0.24024649698425027,0.09178640603,-4.533496578135416,0.20194874665332097,-1.1947262535759413, ,0.000236565972061699,-0.009775396933959506,0.0031673914336846297,0.0,-0.0020878415242282958,0.0062107786114993825, ,0.8007209300994873
0.011023091912706036,0.020593211255616306,-0.08190880892366775, ,0.011108230903552603,0.020728459298258572,-0.08208495658454991, ,0.00023784171046137157, ,0.0003601564778251417,0.0013182722701230963,-0.0021305233212865434,0.0007836211768957888,-0.0007178310610601068,0.0006702448888242854, ,0.002531142842520105, ,0.0010627057622905605, ,2.4790373277936486e-05, ,0.15550494915538474,-0.24043956530610588,0.09183955392000001,-4.533706268078901,0.20194874665332097,-1.19456289609566, ,0.00010687399234946221,-0.009009398477842252,0.0024116292990158973,0.0009506623561675414,-0.0019024305846132392,0.008083659449324142, ,0.8221659660339355
0.011031786960057015,0.020620202654413184,-0.08196014851475195, ,0.011130211150823084,0.020761812803755043,-0.08214903612255801, ,0.0002557719376852709, ,0.000513604124467864,0.0014585482034205784,-0.0029583688096002005,7.753119547521204e-05,-0.0007958191053458431,0.00034614985126858733, ,0.0033381279292422432, ,0.00079958671081028, ,2.5251708183184986e-05, ,0.15551267188825896,-0.2406017426964646,0.09189659068000001,-4.533706268078901,0.20194874665332097,-1.1943995386153787, ,0.00040590194635831996,-0.007976132901188971,0.0032388799349329,0.0012057676288517623,-0.0017411787642467864,0.008126457871470016, ,0.8440790176391602
0.011043142250409484,0.020650379914759542,-0.08201976003130285, ,0.011154175865954446,0.020794581804389423,-0.08221468393581122, ,0.00026667954046496144, ,0.0005614986601825211,0.0014693086876484721,-0.002950954046537114,-0.004388877026251518,-0.0010161422898751042,0.0019388153111481875, ,0.003343991409941091, ,0.004504973527231391, ,2.5844201852168262e-05, ,0.15553584008688162,-0.24077164281969754,0.09196270147,-4.533496578135416,0.20194874665332097,-1.1943178598752382, ,0.0010090964389908182,-0.00837245886946406,0.0032641007213114756,0.0,-0.0016056221488558078,0.01257442815805546, ,0.8620519638061523
0.011050061578090187,0.020665118201738986,-0.08205150751802155, ,0.01118010699473461,0.020826770623015724,-0.08228188171401263, ,0.00031002513748628187, ,0.0007351906483317821,0.0014886024522061385,-0.003381213069365264,-0.007009492986035633,-0.002036743744845354,0.0019278758304683468, ,0.0037668347946990064, ,0.007299405219708661, ,2.6591326348967605e-05, ,0.15555900828550429,-0.24084887014843978,0.09199770130000001,-4.533496578135416,0.20194874665332097,-1.1941545023949571, ,0.0022818175773792037,-0.007327283457593146,0.003705236454989533,0.0,-0.0015466993788008979,0.014188374031624916, ,0.8802008628845215
0.011075534443675374,0.020716151522356233,-0.08217674188092096, ,0.011207986558405016,0.020858383569759352,-0.08235061123294901, ,0.0002607758991538372, ,0.0008782357944677442,0.0016213510393022386,-0.003934895462158869,-0.0047567310226058,-0.002852494547794379,0.0017542103097195334, ,0.0043455125821299035, ,0.005546459611615501, ,2.7108813261554646e-05, ,0.15562851288137233,-0.24107282940179228,0.09213381175,-4.533496578135416,0.20194874665332097,-1.193827787434395, ,0.002961512788757552,-0.007224689371607702,0.004288856090468499,0.0,-0.0013888081554245257,0.011830263415279365, ,0.9018039703369141
0.011083729178439706,0.02073056015505149,-0.0822124420681695, ,0.011237796653529305,0.020889424942032598,-0.08242085435433091, ,0.0003039909348090265, ,0.0008640850102054236,0.001625985482851444,-0.0039536005899602255,-0.003755214543736834,-0.0027344692296160317,0.001679610620822046, ,0.004361356362444967, ,0.004645315626654319, ,2.7777253215924698e-05, ,0.15565940381286922,-0.24113461126478608,0.09217270045,-4.533496578135416,0.20194874665332097,-1.193827787434395, ,0.0027594450737598018,-0.007223671319119079,0.004306248045417681,0.0,-0.0013485553378014114,0.010822245818426914, ,0.9198780059814453
0.011101399149531161,0.020761039012179114,-0.08228324912436268, ,0.011269519451863018,0.020919899024546794,-0.08249259302563074, ,0.0003119708457272024, ,0.0008729759665561332,0.0013775593098897215,-0.0030890708034118615,-0.0037643894676221076,-0.004432064232275946,0.0015958372069940746, ,0.003493152604588019, ,0.005814965274331716, ,2.8450734070584538e-05, ,0.15573663114161146,-0.24127362045652212,0.09225047785000001,-4.533286888191932,0.20194874665332097,-1.1937461086942545, ,0.004482905340702055,-0.0067791613763543025,0.0034160007548788337,0.0,-0.0012695395779219187,0.010398565418603631, ,0.9409389495849609
0.01112228404225431,0.02079089680669214,-0.08235377635213943, ,0.011303137200221303,0.020949810089330327,-0.08256580927992492, ,0.0003208103156239901, ,0.0010015093803401225,0.0014278841488198893,-0.0031956094156627593,0.0028466897600295496,-0.004288116655633032,-0.006906624069193429, ,0.003640576014703283, ,0.0051469978345561615, ,2.913224798383289e-05, ,0.15585247213472483,-0.24140490691538394,0.09232825525,-4.5330771982484475,0.20194874665332097,-1.1935827512139734, ,0.005779223594406135,-0.006817140493278229,0.0035476194922049002,0.008422842128439642,-0.0011897997169287662,0.005046666280883523, ,0.9599099159240723
0.011145438308163195,0.02081994699059881,-0.08242308186049671, ,0.011338632220348605,0.020979162395741286,-0.08264048523573155, ,0.00033156848538979815, ,0.001255842487872501,0.0015504343612251672,-0.004102388796446512,-0.0015956954278558933,-0.004395116729573463,-0.00570549445023531, ,0.004561861560813014, ,0.004675820120910952, ,2.9940667132157952e-05, ,0.15598375859358665,-0.24153619337424576,0.09240473636,-4.5330771982484475,0.20181211015355555,-1.1933079758299958, ,0.0072251481929811665,-0.005586580320194927,0.004484462702702703,0.00758250602955324,0.0,0.008349897491822543, ,0.9744210243225098
0.01116026149079176,0.020837800412295632,-0.08247184097455981, ,0.011375986908787,0.021007960190483326,-0.0827166030968522, ,0.000367967801025012, ,0.0015304200736453203,0.001864516531170079,-0.004912906465017237,-0.002421834031206104,-0.00599356445115081,-0.004944077254897742, ,0.0054731396319508616, ,0.006464370970377251, ,3.0859945400663066e-05, ,0.15606870865520311,-0.24159797523723955,0.09245788425000001,-4.5330771982484475,0.20181211015355555,-1.1931446183497147, ,0.008963850135445104,-0.006800293515430887,0.005375906689166386,0.007158487316191148,0.0,0.010333215205267303, ,0.9887738227844238
0.01119628300191395,0.020879499891689055,-0.08258854901151012, ,0.011415183736745051,0.021036207707620425,-0.08279414515221031, ,0.00033873978856105566, ,0.0020523676914327472,0.0022259441180928737,-0.006621872049231382,-0.0004910794456211269,-0.010709751536330957,-0.0001456810542774566, ,0.007281224470794804, ,0.010721003883015853, ,3.164571184941636e-05, ,0.15627722244280717,-0.24172926169610137,0.09258492067000001,-4.532867508304963,0.20181211015355555,-1.193062939609574, ,0.011954767140144972,-0.0060642836726419866,0.007175140324324325,0.0017301091017847437,0.0,0.006817757471666434, ,1.0031769275665283
0.011217732861113036,0.020903811626173736,-0.08265746090389978, ,0.01145620524996635,0.021063909168592392,-0.08287309377569206, ,0.000359162691173913, ,0.002131208091480794,0.002263988491330896,-0.006356590740819657,-0.002730353100834782,-0.009566480927543189,-0.005775317797356457, ,0.007076294062879677, ,0.009948486066437666, ,3.248232999249639e-05, ,0.1564162316345432,-0.2417987662919694,0.09266010549,-4.5326578183614785,0.20194874665332097,-1.19309267877313, ,0.013390283837797485,-0.007039169317898692,0.0069406586143790855,0.008273577182972081,0.0005076129181439954,0.011128390714807777, ,1.0175108909606934
0.011260760846726633,0.020945768964213803,-0.0827812313235283, ,0.01149903406859916,0.0210910687822272,-0.08295343142598416, ,0.00032793145726210774, ,0.00221025472275759,0.0019831277506836336,-0.00608336452101553,-0.004828455817996208,-0.011009822136152196,-0.006188421838745024, ,0.006769442038348084, ,0.012022069735475044, ,3.318446523112094e-05, ,0.1566942500180153,-0.24191460728508277,0.09279491965000002,-4.5326578183614785,0.20194874665332097,-1.1929293212928487, ,0.014792976080821633,-0.0045747965973563865,0.006620453665835412,0.008273577182972081,0.0005076129181439954,0.01079013855600957, ,1.0320639610290527
0.011282141259813881,0.020965839169069092,-0.08283796736987936, ,0.011543652887064264,0.021117690744758957,-0.08303514064641614, ,0.00036100489360517716, ,0.002264082617224512,0.0020389652155071124,-0.005637266402323648,0.000745465850026183,-0.01292204685577919,-0.006220002766080398, ,0.00640798109691603, ,0.012943531534457164, ,3.398260170902546e-05, ,0.15684098194262558,-0.24197638914807656,0.09285714157000001,-4.5326578183614785,0.20194874665332097,-1.1928476425527081, ,0.01624113324635817,-0.006404464031709118,0.006212484992199689,0.008273577182972081,0.0005076129181439954,0.006982559736600714, ,1.0466489791870117
0.01130492267608688,0.0209864341983997,-0.08289414429477271, ,0.011590044473923675,0.021143779239841922,-0.08311820406479947, ,0.00039529063005918437, ,0.0023121392837772126,0.0018431327558746362,-0.005259949037103261,-0.0003657306558314729,-0.012736099938147352,-0.0062385221791079176, ,0.006034085705083029, ,0.012741349870432784, ,3.499762878491511e-05, ,0.15701860479873272,-0.24203817101107036,0.09291936349,-4.532448128417994,0.2020853831530864,-1.1928773817162641, ,0.017655244941110843,-0.005177057152863201,0.005811313943816127,0.00854014505910315,0.002093298489962535,0.007146974870550899, ,1.0574009418487549
0.011330453450905912,0.02100525120502041,-0.08294792844166268, ,0.011638191671749827,0.021169338438564906,-0.08320260439326665, ,0.00043184172228474257, ,0.002543979791909701,0.0018582966273061492,-0.005343279924418578,-0.0016918159252733139,-0.015312772948712552,-0.005550830953503073, ,0.006202881579346565, ,0.015405948596185666, ,3.61169741134425e-05, ,0.15721939585346256,-0.24209223014118994,0.09297899283000001,-4.532448128417994,0.2020853831530864,-1.192714024235983, ,0.020212341120015073,-0.005036313484307329,0.005925897142857144,0.007895652803647889,0.002093298489962535,0.008249379975330755, ,1.068436861038208
0.011357769487660664,0.021026798076660316,-0.08301132891058864, ,0.011688077396994814,0.02119437249946445,-0.08328832442810992, ,0.00046250515551041763, ,0.003001877297608931,0.002218867587444854,-0.007006134564267872,-0.005819637816733957,-0.014944791396501834,-0.012951278643837404, ,0.007938549125195498, ,0.01603792247525036, ,3.731749693774789e-05, ,0.15743563237394084,-0.24213856653843527,0.09304899249000001,-4.532028748531025,0.20222201965285186,-1.1925804059192577, ,0.022450187262472384,-0.00416416613386034,0.007672837919075146,0.015903718985438253,0.002223867585366082,0.01280580679888978, ,1.0797159671783447
0.011387114785913005,0.021050599547540315,-0.08308712919088675, ,0.011739684639857405,0.02121888556854419,-0.0833753470496249, ,0.00048548452176284766, ,0.0031381863401588523,0.0022743983297561833,-0.007379167932200706,0.0035974850498121337,-0.010116097234294233,-0.00948491046783092, ,0.008335059726215318, ,0.01073672669195964, ,3.857096012885394e-05, ,0.1576673143601676,-0.2421771802028064,0.09313195505,-4.531819058587541,0.20249529265238275,-1.19272156298651, ,0.024226944487738267,-0.0035912279751074013,0.008077490628803247,0.013752162984905726,0.01085877236100584,0.003609019580370661, ,1.0906479358673096
0.011430010491991582,0.021080907777616762,-0.08318638967605944, ,0.011792996464153662,0.021242881779284867,-0.08346365522194568, ,0.00048463447683632965, ,0.003341008418286437,0.0022998013707713565,-0.007588391328010888,0.02059136701156912,0.00483730246241172,-0.0050915018161678625, ,0.008604365551456626, ,0.021151923443407983, ,3.9796613273205334e-05, ,0.1580148373395077,-0.24222351660005176,0.09324084341000001,-4.531819058587541,0.20276856565191362,-1.1926993625734812, ,0.028454855040021224,-0.0028187120718145718,0.008348433710691824,0.013752162984905726,0.0328455383173377,-0.011224880693572968, ,1.1013948917388916
0.011469074306759319,0.02110493117278211,-0.08327069275611997, ,0.011847996007184336,0.021266365252662643,-0.08355323199288794, ,0.0004994707574155802, ,0.003707150442068712,0.002482197522258092,-0.008446855255744222,-0.0002000320094347466,-0.0013391677327450557,-0.005335369181219486, ,0.009552676727029355, ,0.001354008870188893, ,4.1046879449507847e-05, ,0.15831602392160246,-0.24224668479867442,0.09333288000000001,-4.531819058587541,0.20276856565191362,-1.1924543263530594, ,0.030357306960483294,-0.0024873752262422775,0.009255555793143523,0.013752162984905726,0.025843670400574417,0.008475972893342818, ,1.1120200157165527
0.01150740495267951,0.021128799947245872,-0.08335354461379443, ,0.011904666479604156,0.021289340097161963,-0.08364406049378695, ,0.0005176768654647482, ,0.004252925689286363,0.0024866073210214196,-0.008467119996739802,-0.01886988190570952,-0.026246379464002073,-0.01028130218681303, ,0.009796056039383412, ,0.032325606484408714, ,4.247035365397103e-05, ,0.15862493323657142,-0.24226985299729709,0.09342362030000001,-4.531819058587541,0.20290520215167906,-1.1924023867764748, ,0.034147873896535,-0.002700318936755635,0.009309650216247809,0.013723795761218485,0.0017305648928783455,0.024148087902397766, ,1.1191928386688232
0.01150740495267951,0.021128799947245872,-0.08335354461379443, ,0.011962991165290211,0.021311810408792077,-0.08373612393933837, ,0.0006224295674933576, ,0.004252925689286363,0.0024866073210214196,-0.008467119996739802,-0.01886988190570952,-0.026246379464002073,-0.01028130218681303, ,0.009796056039383412, ,0.032325606484408714, ,4.421544735587172e-05, ,0.15862493323657142,-0.24226985299729709,0.09342362030000001,-4.531819058587541,0.20290520215167906,-1.1924023867764748, ,0.034147873896535,-0.002700318936755635,0.009309650216247809,0.013723795761218485,0.0017305648928783455,0.024148087902397766, ,1.126720905303955
0.011534205625363609,0.021145021236381255,-0.08340866106366972, ,0.012022953421211017,0.021333780271099695,-0.08382940562743674, ,0.0006719600948516489, ,0.0044232250539693605,0.0024860144508539964,-0.008868541556900495,-0.004030832902872431,-0.014056332623133522,-0.005873401373164612, ,0.010217446700344867, ,0.014622860385108887, ,4.6097799614387544e-05, ,0.1588643379556724,-0.24228529846304556,0.09348454593000001,-4.531819058587541,0.20317847515120993,-1.192543543843727, ,0.037229086527450286,-0.0012233524429009267,0.009748354663402695,0.012600101591152272,0.019810502234666995,0.010057400188617529, ,1.1338939666748047
0.011599233638573882,0.021183927755063493,-0.08354644723362306, ,0.012084536677294776,0.021355253755185873,-0.08392388893901609, ,0.000638227137216575, ,0.0054774374547062465,0.0032238272065259793,-0.01177935712322259,0.01881407331896111,-0.006019103048642764,-0.009163488169775287, ,0.013384641839218961, ,0.01975344854904474, ,4.7847900697681773e-05, ,0.159435820188365,-0.24229302119591978,0.09363621186000001,-4.531189988757087,0.20386165765003716,-1.1928555971417873, ,0.0458439331200342,-0.0006259305321606915,0.012897823093117412,0.019216669994164663,0.03816091579519676,-0.009984561641307234, ,1.1415038108825684
0.011663397380820796,0.02122033322846434,-0.08368050500566573, ,0.012147724436298201,0.021376234919720367,-0.08401955733788999, ,0.0006114200830775922, ,0.006535817633557343,0.0036803891973820144,-0.013385440186651533,-0.03325224381345398,-0.024456593086511498,-0.062216472978074484, ,0.015343799587251886, ,0.0412775512152869, ,4.9490334715778046e-05, ,0.15994552055806383,-0.24229302119591978,0.09378269263000001,-4.530560918926633,0.20399829414980258,-1.1926403000849217, ,0.05135115885198635,-0.0004606535384000275,0.014640451764705886,0.07020167837628505,0.004622692188437667,0.045719508308482, ,1.1487669944763184
0.011729996254997651,0.021258516901758593,-0.08382002158851298, ,0.012212500273675125,0.021396727810955713,-0.08411639437058985, ,0.0005828800986626562, ,0.007051139191888397,0.0037352020190237235,-0.014219636973723743,-0.010732810513236714,-0.03248622763284979,0.028440483258170342, ,0.016305470667564145, ,0.0342132668123034, ,5.10216620234714e-05, ,0.16050155732500798,-0.242300743928794,0.09393565485000001,-4.5303512289831485,0.2044082036490989,-1.1924844813551676, ,0.058687038687984396,0.0,0.015570685747800588,-0.02017718691413601,0.030949737544573263,0.012100215728237364, ,1.156585931777954
0.011729996254997651,0.021258516901758593,-0.08382002158851298, ,0.012278847837445294,0.021416736462742683,-0.08421438366620568, ,0.000694113058049897, ,0.007051139191888397,0.0037352020190237235,-0.014219636973723743,-0.010732810513236714,-0.03248622763284979,0.028440483258170342, ,0.016305470667564145, ,0.0342132668123034, ,5.2883516532914655e-05, ,0.16050155732500798,-0.242300743928794,0.09393565485000001,-4.5303512289831485,0.2044082036490989,-1.1924844813551676, ,0.058687038687984396,0.0,0.015570685747800588,-0.02017718691413601,0.030949737544573263,0.012100215728237364, ,1.1647648811340332
0.011799867462549588,0.021296231041108102,-0.0839654437171786, ,0.012346750848062395,0.021436264896546,-0.08431350893622636, ,0.0006632045798466093, ,0.007042800947083716,0.003814859250934337,-0.014492276836064683,0.019326800113536026,-0.0032157178181825945,0.030266670858336963, ,0.016558390144510413, ,0.019592483365988705, ,5.462550886660459e-05, ,0.16111165322207172,-0.24228529846304556,0.09409509852,-4.5303512289831485,0.2050913861479261,-1.1927965346532279, ,0.061501582345088,0.0006083516433762527,0.015912898621378624,-0.014655634531464018,0.06640877819191353,-0.013000721795892067, ,1.1719398498535156
0.01184923699547082,0.02132033219581735,-0.08405605066008859, ,0.012416193098283828,0.021455317121457033,-0.08441375397437717, ,0.0006838214779603679, ,0.00782523286980622,0.0036845149784654357,-0.014094385532098398,-0.005219141058750376,-0.04407338578897946,0.01919691591556092, ,0.016536675107791665, ,0.044381327290828866, ,5.640988917786906e-05, ,0.16152868079727983,-0.24228529846304556,0.09419491285,-4.5303512289831485,0.20522802264769155,-1.1927445950766433, ,0.06706497636641044,0.0006083516433762527,0.01554030392195122,-0.01237428729666449,0.026356585522413104,0.0064671570681688675, ,1.1796329021453857
0.01184923699547082,0.02132033219581735,-0.08405605066008859, ,0.012487158453038015,0.02147389713421105,-0.08451510265646235, ,0.0008007838108398884, ,0.00782523286980622,0.0036845149784654357,-0.014094385532098398,-0.005219141058750376,-0.04407338578897946,0.01919691591556092, ,0.016536675107791665, ,0.044381327290828866, ,5.871445240282886e-05, ,0.16152868079727983,-0.24228529846304556,0.09419491285,-4.5303512289831485,0.20522802264769155,-1.1927445950766433, ,0.06706497636641044,0.0006083516433762527,0.01554030392195122,-0.01237428729666449,0.026356585522413104,0.0064671570681688675, ,1.1836378574371338
0.011959763877254623,0.021368985299053612,-0.08424575227448655, ,0.01255963084929405,0.02149200891919975,-0.08461753894020109, ,0.0007163801505211784, ,0.008528042058534194,0.0035807105346979053,-0.013718277223198858,-0.015764828924561165,-0.03934350587205188,0.010935984723404648, ,0.016545093510100247, ,0.04238444053517408, ,6.074428480442871e-05, ,0.16250946787230636,-0.24226213026442286,0.09440491183000001,-4.530560918926633,0.2057745686467533,-1.192781872990726, ,0.07659155896567456,0.001456315833133279,0.01527211075743049,0.0,0.036482494835792495,0.019660443706817098, ,1.1873610019683838
0.011959763877254623,0.021368985299053612,-0.08424575227448655, ,0.01263359429592933,0.02150965644848936,-0.08472104686507177, ,0.000836505082623218, ,0.008528042058534194,0.0035807105346979053,-0.013718277223198858,-0.015764828924561165,-0.03934350587205188,0.010935984723404648, ,0.016545093510100247, ,0.04238444053517408, ,0.0003419608893209687, ,0.16250946787230636,-0.24226213026442286,0.09440491183000001,-4.530560918926633,0.2057745686467533,-1.192781872990726, ,0.07659155896567456,0.001456315833133279,0.01527211075743049,0.0,0.036482494835792495,0.019660443706817098, ,1.1909730434417725
0.011959763877254623,0.021368985299053612,-0.08424575227448655, ,0.012709032873599162,0.02152684368183126,-0.08482561055214724, ,0.0009604993076873856, ,0.008528042058534194,0.0035807105346979053,-0.013718277223198858,-0.015764828924561165,-0.03934350587205188,0.010935984723404648, ,0.016545093510100247, ,0.04238444053517408, ,0.0003521008633925493, ,0.16250946787230636,-0.24226213026442286,0.09440491183000001,-4.530560918926633,0.2057745686467533,-1.192781872990726, ,0.07659155896567456,0.001456315833133279,0.01527211075743049,0.0,0.036482494835792495,0.019660443706817098, ,1.194627046585083
0.01205080929591651,0.021407510335957388,-0.08439300204926292, ,0.0127859307346048,0.02154357456667995,-0.0849312142039367, ,0.0009211890837064133, ,0.010061982044046652,0.004245090559205817,-0.016589056208570572,0.07351650597062014,0.0013689338388505664,0.005804688295052245, ,0.019861043839679966, ,0.07352924162290733, ,0.0003612797056556761, ,0.16336669122134528,-0.24223123933292598,0.09456954066,-4.530141539039664,0.20659438764534596,-1.1931236654523425, ,0.09556590287862111,0.004053590754206974,0.018521873860465117,0.016836787606852123,0.10512921161322522,-0.0607584661421516, ,1.1982998847961426
0.01205080929591651,0.021407510335957388,-0.08439300204926292, ,0.01286427210276161,0.021559853038207875,-0.08503784210422627, ,0.0010491657321578998, ,0.010061982044046652,0.004245090559205817,-0.016589056208570572,0.07351650597062014,0.0013689338388505664,0.005804688295052245, ,0.019861043839679966, ,0.07352924162290733, ,0.00037219853147317175, ,0.16336669122134528,-0.24223123933292598,0.09456954066,-4.530141539039664,0.20659438764534596,-1.1931236654523425, ,0.09556590287862111,0.004053590754206974,0.018521873860465117,0.016836787606852123,0.10512921161322522,-0.0607584661421516, ,1.20192289352417
0.01205080929591651,0.021407510335957388,-0.08439300204926292, ,0.012944041273268578,0.021575683019318295,-0.08514547861791569, ,0.001179985763966894, ,0.010061982044046652,0.004245090559205817,-0.016589056208570572,0.07351650597062014,0.0013689338388505664,0.005804688295052245, ,0.019861043839679966, ,0.07352924162290733, ,0.00038482020698088617, ,0.16336669122134528,-0.24223123933292598,0.09456954066,-4.530141539039664,0.20659438764534596,-1.1931236654523425, ,0.09556590287862111,0.004053590754206974,0.018521873860465117,0.016836787606852123,0.10512921161322522,-0.0607584661421516, ,1.205538034439087
0.012167257525812403,0.02146118210573987,-0.08459947357846052, ,0.013025222612576172,0.02159106842066161,-0.08525410819086063, ,0.0010869779301631403, ,0.012166964316390442,0.006143495930039209,-0.02350846566824005,0.08359927256195336,0.016271538806440163,-0.06121240176008274, ,0.027173986107922182, ,0.08516803489612276, ,0.0003956226334913824, ,0.1644401510908625,-0.2421771802028064,0.09479898399000002,-4.529093089322242,0.20782411614323493,-1.1936363541447668, ,0.10674571603877478,0.004289801556512947,0.025942689771986976,0.08940911364833512,0.11394783578913346,-0.05817654960743184, ,1.2094829082489014
0.012167257525812403,0.02146118210573987,-0.08459947357846052, ,0.013107800558255188,0.02160601314064998,-0.08536371534971082, ,0.0012205173941708478, ,0.012166964316390442,0.006143495930039209,-0.02350846566824005,0.08359927256195336,0.016271538806440163,-0.06121240176008274, ,0.027173986107922182, ,0.08516803489612276, ,0.00040812103895622275, ,0.1644401510908625,-0.2421771802028064,0.09479898399000002,-4.529093089322242,0.20782411614323493,-1.1936363541447668, ,0.10674571603877478,0.004289801556512947,0.025942689771986976,0.08940911364833512,0.11394783578913346,-0.05817654960743184, ,1.2130968570709229
0.012302349548923106,0.021525420647773606,-0.08485765221035722, ,0.013191759618865042,0.021620521065472412,-0.08547428470175057, ,0.0010864299293569628, ,0.014605335857410704,0.006972198371726316,-0.02816270581040136,0.00490164479495853,-0.025110041639072052,-0.005339605722213942, ,0.03248177002882824, ,0.025583639236005946, ,0.000418245052245786, ,0.16559856102199616,-0.2421153983398126,0.09508287150000001,-4.528883399378757,0.208780571641593,-1.1938445282896577, ,0.12340304493949386,0.007059505240740094,0.03092973110679612,0.03080279908046081,0.09440159813154579,0.006458614714454053, ,1.216742992401123
0.012302349548923106,0.021525420647773606,-0.08485765221035722, ,0.013277084373822938,0.02163459606910814,-0.08558580093473704, ,0.0012215677698400671, ,0.014605335857410704,0.006972198371726316,-0.02816270581040136,0.00490164479495853,-0.025110041639072052,-0.005339605722213942, ,0.03248177002882824, ,0.025583639236005946, ,0.0004300586216221725, ,0.16559856102199616,-0.2421153983398126,0.09508287150000001,-4.528883399378757,0.208780571641593,-1.1938445282896577, ,0.12340304493949386,0.007059505240740094,0.03092973110679612,0.03080279908046081,0.09440159813154579,0.006458614714454053, ,1.2204020023345947
0.012302349548923106,0.021525420647773606,-0.08485765221035722, ,0.013363759473271451,0.0216482420133442,-0.08569824881674196, ,0.0013595141669034993, ,0.014605335857410704,0.006972198371726316,-0.02816270581040136,0.00490164479495853,-0.025110041639072052,-0.005339605722213942, ,0.03248177002882824, ,0.025583639236005946, ,0.000443528991843641, ,0.16559856102199616,-0.2421153983398126,0.09508287150000001,-4.528883399378757,0.208780571641593,-1.1938445282896577, ,0.12340304493949386,0.007059505240740094,0.03092973110679612,0.03080279908046081,0.09440159813154579,0.006458614714454053, ,1.2241389751434326
0.012302349548923106,0.021525420647773606,-0.08485765221035722, ,0.013451769637947874,0.021661462747787474,-0.08581161319598918, ,0.0014999051823824667, ,0.014605335857410704,0.006972198371726316,-0.02816270581040136,0.00490164479495853,-0.025110041639072052,-0.005339605722213942, ,0.03248177002882824, ,0.025583639236005946, ,0.00045862008027990997, ,0.16559856102199616,-0.2421153983398126,0.09508287150000001,-4.528883399378757,0.208780571641593,-1.1938445282896577, ,0.12340304493949386,0.007059505240740094,0.03092973110679612,0.03080279908046081,0.09440159813154579,0.006458614714454053, ,1.2278108596801758
0.012373666770582669,0.021560015022438973,-0.08499957706704721, ,0.013541099659052503,0.021674262109881326,-0.08592587900069551, ,0.0014946528755368795, ,0.015422219846029666,0.00746859337424567,-0.030531489843151037,0.03746409440592451,-0.02586804482653628,0.0007447799834748752, ,0.03501137849344885, ,0.045526778742149346, ,0.0004732120914807123, ,0.16620093418618567,-0.24207678467544147,0.09523842630000001,-4.528883399378757,0.2093271176406548,-1.1939634849438814, ,0.12893606190009615,0.008335800987672705,0.03346388974789917,0.024356080824638873,0.10538061803710586,-0.02721841807574226, ,1.2314949035644531
0.012373666770582669,0.021560015022438973,-0.08499957706704721, ,0.013631734398116917,0.021686643924920073,-0.08604103123891002, ,0.0016381073916210982, ,0.015422219846029666,0.00746859337424567,-0.030531489843151037,0.03746409440592451,-0.02586804482653628,0.0007447799834748752, ,0.03501137849344885, ,0.045526778742149346, ,0.000489391192871551, ,0.16620093418618567,-0.24207678467544147,0.09523842630000001,-4.528883399378757,0.2093271176406548,-1.1939634849438814, ,0.12893606190009615,0.008335800987672705,0.03346388974789917,0.024356080824638873,0.10538061803710586,-0.02721841807574226, ,1.235177993774414
0.012633124212280673,0.021690606200983634,-0.08554081673709985, ,0.01372365878687293,0.021698612006063146,-0.08615705499835305, ,0.0012526289737701494, ,0.018913351817123752,0.009442105120607624,-0.03931096288352913,0.03616130308127495,-0.025830971426055706,0.014043994064212018, ,0.044634292073439545, ,0.04443855360337116, ,0.0004998465049386551, ,0.1683169629937232,-0.24191460728508277,0.09582953454000001,-4.528464019491787,0.21124002863737093,-1.1941347970132417, ,0.15281311040011397,0.011838440813182484,0.04293480194070081,0.017260423135277793,0.132154703344531,-0.02670572854829409, ,1.238832950592041
0.012633124212280673,0.021690606200983634,-0.08554081673709985, ,0.01381685782712081,0.021710170154350634,-0.08627393544625676, ,0.001392505318083112, ,0.018913351817123752,0.009442105120607624,-0.03931096288352913,0.03616130308127495,-0.025830971426055706,0.014043994064212018, ,0.044634292073439545, ,0.04443855360337116, ,0.0005119094618730396, ,0.1683169629937232,-0.24191460728508277,0.09582953454000001,-4.528464019491787,0.21124002863737093,-1.1941347970132417, ,0.15281311040011397,0.011838440813182484,0.04293480194070081,0.017260423135277793,0.132154703344531,-0.02670572854829409, ,1.2424778938293457
0.01283325590064184,0.021780954983091703,-0.0859298938053166, ,0.01391131659059776,0.02172132215871856,-0.0863916578292046, ,0.0011743070036102968, ,0.020077082328530428,0.008294400592065035,-0.03589827140010767,0.05476650087190109,0.009236901220266384,-0.08571854518419975, ,0.04195917307960234, ,0.05553944855000951, ,0.000520741429096203, ,0.16998507329455567,-0.2417369844289756,0.09625601395000001,-4.527415569774365,0.21274303013479076,-1.1947886427729184, ,0.1738039222682615,0.0185526767465241,0.03962390925373134,0.1286887474103099,0.16329971851365596,-0.02913725409615424, ,1.2468628883361816
0.01283325590064184,0.021780954983091703,-0.0859298938053166, ,0.014007020218846868,0.02173207179601182,-0.08651020747296914, ,0.0013102962235825705, ,0.020077082328530428,0.008294400592065035,-0.03589827140010767,0.05476650087190109,0.009236901220266384,-0.08571854518419975, ,0.04195917307960234, ,0.05553944855000951, ,0.0005311303079710237, ,0.16998507329455567,-0.2417369844289756,0.09625601395000001,-4.527415569774365,0.21274303013479076,-1.1947886427729184, ,0.1738039222682615,0.0185526767465241,0.03962390925373134,0.1286887474103099,0.16329971851365596,-0.02913725409615424, ,1.2504630088806152
0.01283325590064184,0.021780954983091703,-0.0859298938053166, ,0.014103953923084875,0.021742422831002337,-0.08662956978235556, ,0.0014511046357277963, ,0.020077082328530428,0.008294400592065035,-0.03589827140010767,0.05476650087190109,0.009236901220266384,-0.08571854518419975, ,0.04195917307960234, ,0.05553944855000951, ,0.0005430780265133194, ,0.16998507329455567,-0.2417369844289756,0.09625601395000001,-4.527415569774365,0.21274303013479076,-1.1947886427729184, ,0.1738039222682615,0.0185526767465241,0.03962390925373134,0.1286887474103099,0.16329971851365596,-0.02913725409615424, ,1.2541539669036865
0.013016693089845934,0.02185189596589767,-0.08624814415875667, ,0.014202102984071645,0.02175237901639961,-0.08674973024103602, ,0.0012910030358221302, ,0.020137506892136104,0.007218075787927512,-0.03312225999655333,0.13225895592372564,0.04416350630988751,-0.00034493310992656304, ,0.03942973382094243, ,0.13943746571807508, ,0.0005526668086839453, ,0.17164546086251395,-0.24155163883999423,0.09660860483000001,-4.5272058798308805,0.21479257763127238,-1.1954797664466779, ,0.18680500306785586,0.02264843473949183,0.036872248888888896,0.053516970214396775,0.24319080375401683,-0.11259510858324606, ,1.257901906967163
0.013016693089845934,0.02185189596589767,-0.08624814415875667, ,0.014301452751977702,0.021761944092869873,-0.08687067441139418, ,0.0014304693790330005, ,0.020137506892136104,0.007218075787927512,-0.03312225999655333,0.13225895592372564,0.04416350630988751,-0.00034493310992656304, ,0.03942973382094243, ,0.13943746571807508, ,0.0005637782336250725, ,0.17164546086251395,-0.24155163883999423,0.09660860483000001,-4.5272058798308805,0.21479257763127238,-1.1954797664466779, ,0.18680500306785586,0.02264843473949183,0.036872248888888896,0.053516970214396775,0.24319080375401683,-0.11259510858324606, ,1.2616348266601562
0.013016693089845934,0.02185189596589767,-0.08624814415875667, ,0.014401988646253456,0.021771121789047887,-0.0869923879343616, ,0.0015746323519396116, ,0.020137506892136104,0.007218075787927512,-0.03312225999655333,0.13225895592372564,0.04416350630988751,-0.00034493310992656304, ,0.03942973382094243, ,0.13943746571807508, ,0.0005764139101040042, ,0.17164546086251395,-0.24155163883999423,0.09660860483000001,-4.5272058798308805,0.21479257763127238,-1.1954797664466779, ,0.18680500306785586,0.02264843473949183,0.036872248888888896,0.053516970214396775,0.24319080375401683,-0.11259510858324606, ,1.2653508186340332
0.01324047576236996,0.0219187319594681,-0.08658484790006163, ,0.014503696155497419,0.02177991582155254,-0.08711485652925793, ,0.0013769185991849436, ,0.022733053568760424,0.006103458592141503,-0.03164069888771732,0.03263150870033482,-0.0037555896584672305,0.033646542816337256, ,0.03943574213133706, ,0.032846432093199235, ,0.0005862966840432751, ,0.17373832147142879,-0.24125817499077368,0.09698452893000001,-4.5272058798308805,0.21711539812728486,-1.1960670109672682, ,0.2151858085226095,0.03051348603166263,0.03555538285714287,0.017574197660677447,0.22086152448273247,-0.02896740006030963, ,1.2689828872680664
0.01324047576236996,0.0219187319594681,-0.08658484790006163, ,0.014606560837324452,0.021788329895004017,-0.08723806599363323, ,0.0015198312433290866, ,0.022733053568760424,0.006103458592141503,-0.03164069888771732,0.03263150870033482,-0.0037555896584672305,0.033646542816337256, ,0.03943574213133706, ,0.032846432093199235, ,0.0005976812518394435, ,0.17373832147142879,-0.24125817499077368,0.09698452893000001,-4.5272058798308805,0.21711539812728486,-1.1960670109672682, ,0.2151858085226095,0.03051348603166263,0.03555538285714287,0.017574197660677447,0.22086152448273247,-0.02896740006030963, ,1.2725608348846436
0.01349242333172128,0.021981188854667703,-0.08690928093921417, ,0.014710568318235032,0.021796367702033796,-0.087362002203102, ,0.0013126281306621878, ,0.023797329421180867,0.005094937760272783,-0.028178899991263388,0.050795536649726004,0.00320618634607907,0.03202702690904198, ,0.03723334101418885, ,0.05089644788362799, ,0.0006062950696565849, ,0.17601652766932502,-0.24095698840867893,0.09733063836000001,-4.526786499943912,0.21943821862329735,-1.1962458617871554, ,0.23202186200115102,0.03205977755353743,0.03270803186858317,0.025080229081281193,0.2436142352173146,-0.03049636614387334, ,1.276960849761963
0.01349242333172128,0.021981188854667703,-0.08690928093921417, ,0.01481570429348295,0.021804032923304274,-0.08748665111118804, ,0.0014545834603979498, ,0.023797329421180867,0.005094937760272783,-0.028178899991263388,0.050795536649726004,0.00320618634607907,0.03202702690904198, ,0.03723334101418885, ,0.05089644788362799, ,0.0006163937409749345, ,0.17601652766932502,-0.24095698840867893,0.09733063836000001,-4.526786499943912,0.21943821862329735,-1.1962458617871554, ,0.23202186200115102,0.03205977755353743,0.03270803186858317,0.025080229081281193,0.2436142352173146,-0.03049636614387334, ,1.2805399894714355
0.01349242333172128,0.021981188854667703,-0.08690928093921417, ,0.014921954526944328,0.021811329227520753,-0.08761199874916151, ,0.0016019438353036964, ,0.023797329421180867,0.005094937760272783,-0.028178899991263388,0.050795536649726004,0.00320618634607907,0.03202702690904198, ,0.03723334101418885, ,0.05089644788362799, ,0.0006279884479670376, ,0.17601652766932502,-0.24095698840867893,0.09733063836000001,-4.526786499943912,0.21943821862329735,-1.1962458617871554, ,0.23202186200115102,0.03205977755353743,0.03270803186858317,0.025080229081281193,0.2436142352173146,-0.03049636614387334, ,1.2842719554901123
0.013722091035775647,0.022024809855513833,-0.08716843863241402, ,0.015029304850985779,0.021818260271447433,-0.08773803122587845, ,0.0014408006148956768, ,0.024637719634028703,0.004193326850520578,-0.027083677736890643,0.11725854154694136,0.0472879391790397,-0.045135239602820426, ,0.03685277219689241, ,0.12643456878906956, ,0.0006374397522336497, ,0.17848007945620264,-0.24056312903209348,0.09765082199000001,-4.525947740169974,0.22230758511837162,-1.1970337417021095, ,0.24907333742380783,0.04299816110488028,0.031232963764705888,0.11197203428542359,0.2954406667460377,-0.09975805895299796, ,1.2879528999328613
0.013722091035775647,0.022024809855513833,-0.08716843863241402, ,0.015137741166333108,0.021824829699923366,-0.0878647347276231, ,0.0015902470270309427, ,0.024637719634028703,0.004193326850520578,-0.027083677736890643,0.11725854154694136,0.0472879391790397,-0.045135239602820426, ,0.03685277219689241, ,0.12643456878906956, ,0.0006483915599899404, ,0.17848007945620264,-0.24056312903209348,0.09765082199000001,-4.525947740169974,0.22230758511837162,-1.1970337417021095, ,0.24907333742380783,0.04299816110488028,0.031232963764705888,0.11197203428542359,0.2954406667460377,-0.09975805895299796, ,1.2916169166564941
0.013722091035775647,0.022024809855513833,-0.08716843863241402, ,0.01524724944193981,0.02183104114587371,-0.08799209551794239, ,0.0017441516969022778, ,0.024637719634028703,0.004193326850520578,-0.027083677736890643,0.11725854154694136,0.0472879391790397,-0.045135239602820426, ,0.03685277219689241, ,0.12643456878906956, ,0.0006608433797275806, ,0.17848007945620264,-0.24056312903209348,0.09765082199000001,-4.525947740169974,0.22230758511837162,-1.1970337417021095, ,0.24907333742380783,0.04299816110488028,0.031232963764705888,0.11197203428542359,0.2954406667460377,-0.09975805895299796, ,1.2953448295593262
0.013985773891041246,0.02206531774612837,-0.08745577059172636, ,0.015357815714855658,0.0218368982303282,-0.08812009993749033, ,0.0015414304139783725, ,0.026800527922565407,0.003943179077698963,-0.029341803479486315,0.02986476919189179,-0.0006572890233476686,0.015108412420915217, ,0.03993442612077712, ,0.02987163736739676, ,0.0006707376160674772, ,0.1811135313663132,-0.24007659686101734,0.09798137594,-4.525108980396035,0.22517695161344586,-1.197739942876923, ,0.26433688456398546,0.05031651196101314,0.03367613429175476,0.04595945092912033,0.26919822176009817,-0.03371892802579109, ,1.2989699840545654
0.013985773891041246,0.02206531774612837,-0.08745577059172636, ,0.015469426090094869,0.02184240456243435,-0.08824873440386519, ,0.0016969695762101887, ,0.026800527922565407,0.003943179077698963,-0.029341803479486315,0.02986476919189179,-0.0006572890233476686,0.015108412420915217, ,0.03993442612077712, ,0.02987163736739676, ,0.0006821401934023962, ,0.1811135313663132,-0.24007659686101734,0.09798137594,-4.525108980396035,0.22517695161344586,-1.197739942876923, ,0.26433688456398546,0.05031651196101314,0.03367613429175476,0.04595945092912033,0.26919822176009817,-0.03371892802579109, ,1.3025779724121094
0.013985773891041246,0.02206531774612837,-0.08745577059172636, ,0.015582066740505031,0.02184756373947225,-0.08837798541144912, ,0.0018563533721735932, ,0.026800527922565407,0.003943179077698963,-0.029341803479486315,0.02986476919189179,-0.0006572890233476686,0.015108412420915217, ,0.03993442612077712, ,0.02987163736739676, ,0.0006950436349273545, ,0.1811135313663132,-0.24007659686101734,0.09798137594,-4.525108980396035,0.22517695161344586,-1.197739942876923, ,0.26433688456398546,0.05031651196101314,0.03367613429175476,0.04595945092912033,0.26919822176009817,-0.03371892802579109, ,1.306135892868042
0.014259912094188783,0.022105484225349747,-0.08776304745410185, ,0.01569572390663523,0.021852379346870884,-0.0885078395312503, ,0.0016371722201569548, ,0.029185419760091764,0.004219829410985447,-0.033075064290266624,-0.006788600575449279,-0.022444084613654436,0.03692810156857894, ,0.04431202505681548, ,0.023447440145861222, ,0.0007052841630276762, ,0.18377787420792066,-0.23955145102557007,0.09833267053000001,-4.524899290452551,0.2277730451089892,-1.197814914543641, ,0.2807601821256532,0.057132415146580844,0.03774599886255925,0.023015084655022524,0.2659574384789692,-0.007976228851015274, ,1.3097338676452637
0.014259912094188783,0.022105484225349747,-0.08776304745410185, ,0.015810383896604926,0.0218568549582199,-0.08863828341073676, ,0.0017977255915038086, ,0.029185419760091764,0.004219829410985447,-0.033075064290266624,-0.006788600575449279,-0.022444084613654436,0.03692810156857894, ,0.04431202505681548, ,0.023447440145861222, ,0.0007170308450543013, ,0.18377787420792066,-0.23955145102557007,0.09833267053000001,-4.524899290452551,0.2277730451089892,-1.197814914543641, ,0.2807601821256532,0.057132415146580844,0.03774599886255925,0.023015084655022524,0.2659574384789692,-0.007976228851015274, ,1.3133728504180908
0.0145757583137198,0.022148159741673258,-0.08812334200949953, ,0.015926033085972055,0.021860994135288643,-0.08876930377368428, ,0.001524130127928646, ,0.03114649283110748,0.0039041799941144668,-0.03549197399935071,0.03906393190435184,-0.0026649384710580475,-0.011667408746952403, ,0.047381714357706176, ,0.03915400815270397, ,0.000725617007638071, ,0.1868206309603651,-0.23887957326551254,0.09874359446000001,-4.524060530678613,0.23091568460359435,-1.1984172365652852, ,0.29748257541840367,0.0688157661772812,0.040428455634517774,0.07610355821585325,0.29669364006321475,-0.05175102778419123, ,1.3170068264007568
0.0145757583137198,0.022148159741673258,-0.08812334200949953, ,0.01604265791760191,0.02186480042803674,-0.08890088742000732, ,0.0016842398326532267, ,0.03114649283110748,0.0039041799941144668,-0.03549197399935071,0.03906393190435184,-0.0026649384710580475,-0.011667408746952403, ,0.047381714357706176, ,0.03915400815270397, ,0.0007357077742171778, ,0.1868206309603651,-0.23887957326551254,0.09874359446000001,-4.524060530678613,0.23091568460359435,-1.1984172365652852, ,0.29748257541840367,0.0688157661772812,0.040428455634517774,0.07610355821585325,0.29669364006321475,-0.05175102778419123, ,1.3205909729003906
0.0145757583137198,0.022148159741673258,-0.08812334200949953, ,0.016160244901535396,0.021868277374632334,-0.08903302122560539, ,0.0018483636445685947, ,0.03114649283110748,0.0039041799941144668,-0.03549197399935071,0.03906393190435184,-0.0026649384710580475,-0.011667408746952403, ,0.047381714357706176, ,0.03915400815270397, ,0.0007472979395333385, ,0.1868206309603651,-0.23887957326551254,0.09874359446000001,-4.524060530678613,0.23091568460359435,-1.1984172365652852, ,0.29748257541840367,0.0688157661772812,0.040428455634517774,0.07610355821585325,0.29669364006321475,-0.05175102778419123, ,1.3254408836364746
0.014725970225649119,0.022166510318580777,-0.0882927530883466, ,0.01627878061485775,0.0218714285014645,-0.08916569214219855, ,0.0018056345076916456, ,0.03241865527449486,0.0038176716133406065,-0.036582555825071195,0.04117208852691905,-0.009467110175241163,-0.01914690629079437, ,0.04902884066596202, ,0.042245727941320844, ,0.0007582086258030116, ,0.18824933654209663,-0.23854749575192088,0.09893674167000001,-4.523641150791644,0.23228204960124876,-1.1985512707205628, ,0.3081069531119181,0.07305384261622076,0.0416984594764398,0.0833927156784505,0.29949862809806144,-0.05620130817032683, ,1.329291820526123
0.014725970225649119,0.022166510318580777,-0.0882927530883466, ,0.016398251701566776,0.021874257323160236,-0.08929888719716914, ,0.0019733836405944343, ,0.03241865527449486,0.0038176716133406065,-0.036582555825071195,0.04117208852691905,-0.009467110175241163,-0.01914690629079437, ,0.04902884066596202, ,0.042245727941320844, ,0.0007706083708519038, ,0.18824933654209663,-0.23854749575192088,0.09893674167000001,-4.523641150791644,0.23228204960124876,-1.1985512707205628, ,0.3081069531119181,0.07305384261622076,0.0416984594764398,0.0833927156784505,0.29949862809806144,-0.05620130817032683, ,1.3330938816070557
0.014725970225649119,0.022166510318580777,-0.0882927530883466, ,0.01651864487244156,0.021876767342596956,-0.08943259349339976, ,0.0021440311402533578, ,0.034188225732399984,0.0031387465837114338,-0.036353402140601065,0.005252537293118081,-0.05378986441104535,0.02951121182854627, ,0.0500025634947105, ,0.05404512159717881, ,0.0007844813281185851, ,0.18824933654209663,-0.23854749575192088,0.09893674167000001,-4.523641150791644,0.23228204960124876,-1.1985512707205628, ,0.3081069531119181,0.07305384261622076,0.0416984594764398,0.0833927156784505,0.29949862809806144,-0.05620130817032683, ,1.3367528915405273
0.015231791701892658,0.022220164340608986,-0.0888552056673339, ,0.01663994690491102,0.02187896205091997,-0.08956679820911537, ,0.001614213128368034, ,0.034188225732399984,0.0031387465837114338,-0.036353402140601065,0.005252537293118081,-0.05378986441104535,0.02951121182854627, ,0.0500025634947105, ,0.05404512159717881, ,0.0007927786461210796, ,0.19301426272549316,-0.23739680855366144,0.09957840522000001,-4.523221770904676,0.23665441759374287,-1.1993395664740691, ,0.32168454765583315,0.07804024799216347,0.0416984594764398,0.026890310333574547,0.27890187859098536,-0.03813535175312889, ,1.3409500122070312
0.015231791701892658,0.022220164340608986,-0.0888552056673339, ,0.01676214464292225,0.021880844927554984,-0.08970148859772004, ,0.0017813794055327387, ,0.034188225732399984,0.0031387465837114338,-0.036353402140601065,0.005252537293118081,-0.05378986441104535,0.02951121182854627, ,0.0500025634947105, ,0.05404512159717881, ,0.0008025667724518879, ,0.19301426272549316,-0.23739680855366144,0.09957840522000001,-4.523221770904676,0.23665441759374287,-1.1993395664740691, ,0.32168454765583315,0.07804024799216347,0.0416984594764398,0.026890310333574547,0.27890187859098536,-0.03813535175312889, ,1.3447489738464355
0.015529306231467123,0.022243316194699127,-0.08916548725302159, ,0.016885224996809202,0.021882419440224083,-0.08983665198763789, ,0.0015553855684652528, ,0.03477748940069632,0.0020660476291387954,-0.035204164695036205,0.00781367852922087,-0.05597044907352211,0.02298253470961832, ,0.04952853252113017, ,0.056512747853252325, ,0.0008099473488833916, ,0.19581761475883666,-0.23668631712923277,0.09993488497000001,-4.522802391017706,0.23911387458952077,-1.1997115139377934, ,0.32836311957948366,0.08642708702957265,0.040531327022900764,0.0322301302550314,0.2834694089342786,-0.04731224738514192, ,1.348397970199585
0.015529306231467123,0.022243316194699127,-0.08916548725302159, ,0.017009174943160947,0.021883689044960263,-0.08997227578215276, ,0.0017234415630990449, ,0.03477748940069632,0.0020660476291387954,-0.035204164695036205,0.00781367852922087,-0.05597044907352211,0.02298253470961832, ,0.04952853252113017, ,0.056512747853252325, ,0.0008188162247495629, ,0.19581761475883666,-0.23668631712923277,0.09993488497000001,-4.522802391017706,0.23911387458952077,-1.1997115139377934, ,0.32836311957948366,0.08642708702957265,0.040531327022900764,0.0322301302550314,0.2834694089342786,-0.04731224738514192, ,1.3519878387451172
0.015529306231467123,0.022243316194699127,-0.08916548725302159, ,0.017133981524690593,0.021884657186122952,-0.09010834745924788, ,0.0018954166955051743, ,0.03477748940069632,0.0020660476291387954,-0.035204164695036205,0.00781367852922087,-0.05597044907352211,0.02298253470961832, ,0.04952853252113017, ,0.056512747853252325, ,0.0008291681523529824, ,0.19581761475883666,-0.23668631712923277,0.09993488497000001,-4.522802391017706,0.23911387458952077,-1.1997115139377934, ,0.32836311957948366,0.08642708702957265,0.040531327022900764,0.0322301302550314,0.2834694089342786,-0.04731224738514192, ,1.3555798530578613
0.015934188787511475,0.022256747741432496,-0.0895516121072518, ,0.017259631850103468,0.02188532729641197,-0.0902448545714452, ,0.0015412130200959983, ,0.036097615277409525,0.00023335531538943004,-0.032217658231855774,-0.08214124229684466,-0.13321579683811643,-0.04532803761480695, ,0.04838460277158173, ,0.15650430505920734, ,0.0008359495320457729, ,0.1996017538672067,-0.235628302725464,0.10038080873,-4.521753941300283,0.24170996808506415,-1.1996231281242302, ,0.33651397715769776,0.09763059831118392,0.03739157633802818,0.08178341635002336,0.1891895709455852,0.029072041410661845, ,1.3591790199279785
0.015934188787511475,0.022256747741432496,-0.0895516121072518, ,0.01738611309396579,0.02188570279688262,-0.0903817847456451, ,0.0017131681622321157, ,0.036097615277409525,0.00023335531538943004,-0.032217658231855774,-0.08214124229684466,-0.13321579683811643,-0.04532803761480695, ,0.04838460277158173, ,0.15650430505920734, ,0.0008442251795003611, ,0.1996017538672067,-0.235628302725464,0.10038080873,-4.521753941300283,0.24170996808506415,-1.1996231281242302, ,0.33651397715769776,0.09763059831118392,0.03739157633802818,0.08178341635002336,0.1891895709455852,0.029072041410661845, ,1.36289381980896
0.015934188787511475,0.022256747741432496,-0.0895516121072518, ,0.01751341249657319,0.02188578709696119,-0.09051912568296638, ,0.0018888202249555792, ,0.036097615277409525,0.00023335531538943004,-0.032217658231855774,-0.08214124229684466,-0.13321579683811643,-0.04532803761480695, ,0.04838460277158173, ,0.15650430505920734, ,0.0008539877500186342, ,0.1996017538672067,-0.235628302725464,0.10038080873,-4.521753941300283,0.24170996808506415,-1.1996231281242302, ,0.33651397715769776,0.09763059831118392,0.03739157633802818,0.08178341635002336,0.1891895709455852,0.029072041410661845, ,1.3666489124298096
0.01630623146750199,0.022261289203798065,-0.0898952115402927, ,0.017641517363819068,0.021885583594458035,-0.09065686515858384, ,0.0015824851860440443, ,0.036460750604129614,0.0006056323830163392,-0.03437984951354398,-0.0029498227969025972,-0.10345324667779453,-0.00529562851503651, ,0.05011713457265715, ,0.10349506109909634, ,0.0008607330966484991, ,0.20305381546198503,-0.23462434745181482,0.10077876976000001,-4.5213345614133145,0.24389615208131118,-1.199772239780562, ,0.3377115357952697,0.09874811816698312,0.039822028800000006,0.046483618038856665,0.24064631060881927,-0.05152841092057406, ,1.3709208965301514
0.01630623146750199,0.022261289203798065,-0.0898952115402927, ,0.017770415067063366,0.021885095675584724,-0.09079499102157097, ,0.0017592493566358088, ,0.036460750604129614,0.0006056323830163392,-0.03437984951354398,-0.0029498227969025972,-0.10345324667779453,-0.00529562851503651, ,0.05011713457265715, ,0.10349506109909634, ,0.0008689763650887496, ,0.20305381546198503,-0.23462434745181482,0.10077876976000001,-4.5213345614133145,0.24389615208131118,-1.199772239780562, ,0.3377115357952697,0.09874811816698312,0.039822028800000006,0.046483618038856665,0.24064631060881927,-0.05152841092057406, ,1.3757548332214355
0.016574733674291443,0.02226674921120248,-0.09015644066699086, ,0.017900093043001077,0.021884326714967903,-0.0909334911947387, ,0.0015832346460729985, ,0.036294160863967175,0.0005428361019133646,-0.03564504024133731,0.046309945752869994,-0.06674810188841966,0.017614634478773154, ,0.05087366389065783, ,0.0812395386369035, ,0.0008754696221886065, ,0.20554053544748532,-0.23388296509588927,0.10108080533000001,-4.520915181526345,0.2459456995777928,-1.2004633634543214, ,0.3353248818320522,0.10236994774376568,0.041159719689922485,0.029946879514496576,0.28705578887292393,-0.10152646329815605, ,1.3795349597930908
0.016574733674291443,0.02226674921120248,-0.09015644066699086, ,0.01803053879353056,0.021883280075663168,-0.09107235367447279, ,0.001762190046614919, ,0.036294160863967175,0.0005428361019133646,-0.03564504024133731,0.046309945752869994,-0.06674810188841966,0.017614634478773154, ,0.05087366389065783, ,0.0812395386369035, ,0.0008834580944807355, ,0.20554053544748532,-0.23388296509588927,0.10108080533000001,-4.520915181526345,0.2459456995777928,-1.2004633634543214, ,0.3353248818320522,0.10236994774376568,0.041159719689922485,0.029946879514496576,0.28705578887292393,-0.10152646329815605, ,1.383117914199829
0.016574733674291443,0.02226674921120248,-0.09015644066699086, ,0.01816173988562221,0.02188195910917148,-0.09121156653057652, ,0.0019442074800367528, ,0.036294160863967175,0.0005428361019133646,-0.03564504024133731,0.046309945752869994,-0.06674810188841966,0.017614634478773154, ,0.05087366389065783, ,0.0812395386369035, ,0.0008929290711374855, ,0.20554053544748532,-0.23388296509588927,0.10108080533000001,-4.520915181526345,0.2459456995777928,-1.2004633634543214, ,0.3353248818320522,0.10236994774376568,0.041159719689922485,0.029946879514496576,0.28705578887292393,-0.10152646329815605, ,1.3868038654327393
0.017090158073996976,0.02227097998072867,-0.09066031142494857, ,0.018293683951186968,0.021880367155452708,-0.09135111790610752, ,0.0014416194056501934, ,0.036540177654713416,-5.418668543150616e-06,-0.035557997724140915,-0.028407364992148798,-0.08369851440342202,-0.030035532446696975, ,0.05098583935319685, ,0.08838757183503675, ,0.0008977847378145893, ,0.21025140250076227,-0.23240020038403816,0.10166283954000001,-4.520076421752408,0.24977152157122512,-1.2014594175141666, ,0.3295032693002457,0.10722818255194438,0.04105363793814434,0.07250389960310612,0.24347292765628367,-0.028012521825777653, ,1.3905348777770996
0.017090158073996976,0.02227097998072867,-0.09066031142494857, ,0.01842635868694502,0.021878507542941728,-0.09149099601722006, ,0.001621574415283618, ,0.036540177654713416,-5.418668543150616e-06,-0.035557997724140915,-0.028407364992148798,-0.08369851440342202,-0.030035532446696975, ,0.05098583935319685, ,0.08838757183503675, ,0.0009041337700730894, ,0.21025140250076227,-0.23240020038403816,0.10166283954000001,-4.520076421752408,0.24977152157122512,-1.2014594175141666, ,0.3295032693002457,0.10722818255194438,0.04105363793814434,0.07250389960310612,0.24347292765628367,-0.028012521825777653, ,1.394273042678833
0.017090158073996976,0.02227097998072867,-0.09066031142494857, ,0.018559751854293975,0.02187638358856217,-0.09163118915300285, ,0.0018049974389539394, ,0.036540177654713416,-5.418668543150616e-06,-0.035557997724140915,-0.028407364992148798,-0.08369851440342202,-0.030035532446696975, ,0.05098583935319685, ,0.08838757183503675, ,0.0009119673671937925, ,0.21025140250076227,-0.23240020038403816,0.10166283954000001,-4.520076421752408,0.24977152157122512,-1.2014594175141666, ,0.3295032693002457,0.10722818255194438,0.04105363793814434,0.07250389960310612,0.24347292765628367,-0.028012521825777653, ,1.3979358673095703
0.017442144031663977,0.02226830236685412,-0.09100533519702085, ,0.018693851279177817,0.021873998597742028,-0.09177168567531913, ,0.0015197169313403965, ,0.036526433220652466,-0.0006063730063768091,-0.03619796413428191,-0.0010395823616350134,-0.051157346762170076,-0.026667677961720558, ,0.05142801395652379, ,0.0511673012005879, ,0.0009172065875743667, ,0.2134177229791943,-0.2313421859802694,0.10206080057000001,-4.519657041865438,0.25223097856700305,-1.2017496862377504, ,0.32836311957948366,0.11488733844851184,0.0416984594764398,0.07436618912059749,0.2797383054178161,-0.057491540882041, ,1.4015419483184814
0.017442144031663977,0.02226830236685412,-0.09100533519702085, ,0.018828644851955085,0.02187135586442782,-0.09191247401864662, ,0.0017037757751995942, ,0.036526433220652466,-0.0006063730063768091,-0.03619796413428191,-0.0010395823616350134,-0.051157346762170076,-0.026667677961720558, ,0.05142801395652379, ,0.0511673012005879, ,0.000923929401143813, ,0.2134177229791943,-0.2313421859802694,0.10206080057000001,-4.519657041865438,0.25223097856700305,-1.2017496862377504, ,0.32836311957948366,0.11488733844851184,0.0416984594764398,0.07436618912059749,0.2797383054178161,-0.057491540882041, ,1.4051599502563477
0.017442144031663977,0.02226830236685412,-0.09100533519702085, ,0.01896412052726772,0.021868458671100176,-0.09205354268991636, ,0.001890774016736722, ,0.036526433220652466,-0.0006063730063768091,-0.03619796413428191,-0.0010395823616350134,-0.051157346762170076,-0.026667677961720558, ,0.05142801395652379, ,0.0511673012005879, ,0.0009321229995810411, ,0.2134177229791943,-0.2313421859802694,0.10206080057000001,-4.519657041865438,0.25223097856700305,-1.2017496862377504, ,0.32836311957948366,0.11488733844851184,0.0416984594764398,0.07436618912059749,0.2797383054178161,-0.057491540882041, ,1.4088928699493408
0.017785842257698012,0.022262282021204654,-0.09135600005014972, ,0.019100266323909144,0.021865310288787673,-0.09219488026835318, ,0.0016090423246969676, ,0.03571868124717726,-0.0006568433589458043,-0.036571367667552764,0.05413504132869437,0.006940779270597495,0.018987196431362388, ,0.05112455932632542, ,0.05457757503979916, ,0.0009378113972710909, ,0.21650681612888412,-0.2302378351792553,0.10246394676000001,-4.519237661978469,0.2552369815618427,-1.2025673053162604, ,0.32277871278391423,0.11558701773260752,0.04213971301587302,0.04048954359215027,0.3497165817783237,-0.11100130019191413, ,1.412539005279541
0.017785842257698012,0.022262282021204654,-0.09135600005014972, ,0.019237070324693583,0.02186191397708345,-0.09233647540531574, ,0.0017965771331276224, ,0.03571868124717726,-0.0006568433589458043,-0.036571367667552764,0.05413504132869437,0.006940779270597495,0.018987196431362388, ,0.05112455932632542, ,0.05457757503979916, ,0.0009449677784032287, ,0.21650681612888412,-0.2302378351792553,0.10246394676000001,-4.519237661978469,0.2552369815618427,-1.2025673053162604, ,0.32277871278391423,0.11558701773260752,0.04213971301587302,0.04048954359215027,0.3497165817783237,-0.11100130019191413, ,1.416167974472046
0.018190650307939288,0.02225228598540071,-0.09176197819233194, ,0.019374520676323902,0.021858272984157913,-0.09247831682413428, ,0.0014387273298648122, ,0.036368487817035056,-0.0009237701009889594,-0.036116748887988145,-0.037839797288411955,-0.016901082913564864,0.011593507358691784, ,0.05126343538561673, ,0.041441952288192106, ,0.0009490484358533244, ,0.2201519460455181,-0.22892497059063713,0.10293320374,-4.5186085921480155,0.25906280355527506,-1.2034000018958244, ,0.3238803466159412,0.11615292724415029,0.04180790425196851,0.044820421180405724,0.3134782130540949,-0.02255235352596037, ,1.4197769165039062
0.018190650307939288,0.02225228598540071,-0.09176197819233194, ,0.019512605589260292,0.021854390546774877,-0.09262039331995173, ,0.001625657736800167, ,0.036368487817035056,-0.0009237701009889594,-0.036116748887988145,-0.037839797288411955,-0.016901082913564864,0.011593507358691784, ,0.05126343538561673, ,0.041441952288192106, ,0.0009545944137299379, ,0.2201519460455181,-0.22892497059063713,0.10293320374,-4.5186085921480155,0.25906280355527506,-1.2034000018958244, ,0.3238803466159412,0.11615292724415029,0.04180790425196851,0.044820421180405724,0.3134782130540949,-0.02255235352596037, ,1.4233968257904053
0.018190650307939288,0.02225228598540071,-0.09176197819233194, ,0.01965131333758925,0.021850269890306664,-0.09276269375956402, ,0.0018156500415557756, ,0.036368487817035056,-0.0009237701009889594,-0.036116748887988145,-0.037839797288411955,-0.016901082913564864,0.011593507358691784, ,0.05126343538561673, ,0.041441952288192106, ,0.0009615948659886846, ,0.2201519460455181,-0.22892497059063713,0.10293320374,-4.5186085921480155,0.25906280355527506,-1.2034000018958244, ,0.3238803466159412,0.11615292724415029,0.04180790425196851,0.044820421180405724,0.3134782130540949,-0.02255235352596037, ,1.4271278381347656
0.018550982204917365,0.022244338342506494,-0.09212902608058257, ,0.019790632258891543,0.02184591422874766,-0.09290520708125756, ,0.0015158927985024272, ,0.0368817437280773,-0.0007070432587259418,-0.038727655419652035,-0.01932739373073228,0.019829744511817553,-0.013488262408595221, ,0.053484523227720585, ,0.027688983336367545, ,0.0009660650106057308, ,0.22332598925682437,-0.22775883792662924,0.10335709057,-4.517769832374077,0.26220544304988025,-1.203593930216766, ,0.32277871278391423,0.12073402233902134,0.044618519663865555,0.0771815771822919,0.34462013733943603,-0.034036072845826715, ,1.4308269023895264
0.018550982204917365,0.022244338342506494,-0.09212902608058257, ,0.019930550754110963,0.021841326764730183,-0.09304792229465014, ,0.0017058716147393968, ,0.0368817437280773,-0.0007070432587259418,-0.038727655419652035,-0.01932739373073228,0.019829744511817553,-0.013488262408595221, ,0.053484523227720585, ,0.027688983336367545, ,0.0009719834634388002, ,0.22332598925682437,-0.22775883792662924,0.10335709057,-4.517769832374077,0.26220544304988025,-1.203593930216766, ,0.32277871278391423,0.12073402233902134,0.044618519663865555,0.0771815771822919,0.34462013733943603,-0.034036072845826715, ,1.4344890117645264
0.018550982204917365,0.022244338342506494,-0.09212902608058257, ,0.020071057287423286,0.02183651068953939,-0.09319082848053124, ,0.0018985194198418937, ,0.0368817437280773,-0.0007070432587259418,-0.038727655419652035,-0.01932739373073228,0.019829744511817553,-0.013488262408595221, ,0.053484523227720585, ,0.027688983336367545, ,0.0009793369234102533, ,0.22332598925682437,-0.22775883792662924,0.10335709057,-4.517769832374077,0.26220544304988025,-1.203593930216766, ,0.32277871278391423,0.12073402233902134,0.044618519663865555,0.0771815771822919,0.34462013733943603,-0.034036072845826715, ,1.4381380081176758
0.018905686460928606,0.02223858238648697,-0.09250828434709168, ,0.020212140386104194,0.021831469183127544,-0.09333391479070018, ,0.0015981954349732791, ,0.03648446677337296,-0.0004659946059332445,-0.03951807100344606,0.0012651462584273845,0.041843845839997715,0.021772850921418316, ,0.053786721433300974, ,0.041861816152245886, ,0.0009842098250761038, ,0.2264228051393884,-0.22660042799549557,0.10379394030000001,-4.517350452487108,0.26575799204378164,-1.2041221122487964, ,0.3163231385282359,0.11876963899683453,0.04551089005714286,0.04538076907367749,0.371211432482364,-0.05593494087230705, ,1.4418258666992188
0.018905686460928606,0.02223858238648697,-0.09250828434709168, ,0.020353788640398066,0.021826205414128764,-0.09347717044780614, ,0.0017904733915010235, ,0.03648446677337296,-0.0004659946059332445,-0.03951807100344606,0.0012651462584273845,0.041843845839997715,0.021772850921418316, ,0.053786721433300974, ,0.041861816152245886, ,0.0009905087591887986, ,0.2264228051393884,-0.22660042799549557,0.10379394030000001,-4.517350452487108,0.26575799204378164,-1.2041221122487964, ,0.3163231385282359,0.11876963899683453,0.04551089005714286,0.04538076907367749,0.371211432482364,-0.05593494087230705, ,1.445801019668579
0.01928239742032225,0.02223188118315559,-0.09292503663672255, ,0.02049599070338707,0.021820722539875333,-0.09362058474518983, ,0.001457959964414841, ,0.03663658839692211,-0.0009408176699429562,-0.04073859801306139,0.0007774007982066342,0.04477679654593374,0.03692548359685764, ,0.05479742799916228, ,0.04478229171467881, ,0.0009941324119424888, ,0.22965090748081424,-0.22534162253699697,0.10427227131000001,-4.51693107260014,0.269583814037214,-1.2046280938677982, ,0.3121609919686539,0.12502890850918416,0.04671205724340176,0.027607903970930058,0.3751931417022865,-0.06485599226485464, ,1.4495289325714111
0.01928239742032225,0.02223188118315559,-0.09292503663672255, ,0.020638735290858735,0.021815023706410436,-0.09376414704672005, ,0.0016484929041812569, ,0.03663658839692211,-0.0009408176699429562,-0.04073859801306139,0.0007774007982066342,0.04477679654593374,0.03692548359685764, ,0.05479742799916228, ,0.04478229171467881, ,0.0009991659541904794, ,0.22965090748081424,-0.22534162253699697,0.10427227131000001,-4.51693107260014,0.269583814037214,-1.2046280938677982, ,0.3121609919686539,0.12502890850918416,0.04671205724340176,0.027607903970930058,0.3751931417022865,-0.06485599226485464, ,1.4531338214874268
0.01928239742032225,0.02223188118315559,-0.09292503663672255, ,0.020782011181175217,0.021809112048504498,-0.09390784678663465, ,0.0018421430356309074, ,0.03663658839692211,-0.0009408176699429562,-0.04073859801306139,0.0007774007982066342,0.04477679654593374,0.03692548359685764, ,0.05479742799916228, ,0.04478229171467881, ,0.0010056008937434596, ,0.22965090748081424,-0.22534162253699697,0.10427227131000001,-4.51693107260014,0.269583814037214,-1.2046280938677982, ,0.3121609919686539,0.12502890850918416,0.04671205724340176,0.027607903970930058,0.3751931417022865,-0.06485599226485464, ,1.4568028450012207
0.019654980701674204,0.022224853526179124,-0.09334566789988226, ,0.020925807215141527,0.02180299068966926,-0.09405167346938051, ,0.0015137411087508355, ,0.03707657144439836,-0.0007989553071192628,-0.04125549444619147,0.01881577797242293,0.03951677145044492,0.01068349592951721, ,0.05547365412206127, ,0.043766302280075345, ,0.0010094504408268488, ,0.23279405976062362,-0.22408281707849836,0.10475449119000001,-4.51651169271317,0.27340963603064633,-1.205379111707222, ,0.31113751330646156,0.12437344896260916,0.04740717714285715,0.050826265892700596,0.36491834581998095,-0.07848354937807613, ,1.4605579376220703
0.019654980701674204,0.022224853526179124,-0.09334566789988226, ,0.021070112295874504,0.02179666274217343,-0.09419561666945374, ,0.0017053907726111818, ,0.03707657144439836,-0.0007989553071192628,-0.04125549444619147,0.01881577797242293,0.03951677145044492,0.01068349592951721, ,0.05547365412206127, ,0.043766302280075345, ,0.0010146830749004152, ,0.23279405976062362,-0.22408281707849836,0.10475449119000001,-4.51651169271317,0.27340963603064633,-1.205379111707222, ,0.31113751330646156,0.12437344896260916,0.04740717714285715,0.050826265892700596,0.36491834581998095,-0.07848354937807613, ,1.4643900394439697
0.019654980701674204,0.022224853526179124,-0.09334566789988226, ,0.021214915388670826,0.02179013130705649,-0.09433966603123696, ,0.0019001083970739128, ,0.03707657144439836,-0.0007989553071192628,-0.04125549444619147,0.01881577797242293,0.03951677145044492,0.01068349592951721, ,0.05547365412206127, ,0.043766302280075345, ,0.0010212907265584263, ,0.23279405976062362,-0.22408281707849836,0.10475449119000001,-4.51651169271317,0.27340963603064633,-1.205379111707222, ,0.31113751330646156,0.12437344896260916,0.04740717714285715,0.050826265892700596,0.36491834581998095,-0.07848354937807613, ,1.4679958820343018
0.02003291865136821,0.022217333623668806,-0.09376242012177749, ,0.02136020552087598,0.021783399474144493,-0.09448381126884163, ,0.0015717488562596907, ,0.037116927967214414,-0.0009249495270561179,-0.04094984080742262,-0.014001898052611584,0.019831047404998605,-0.005917895210572646, ,0.05527577530441558, ,0.024273616150289324, ,0.001025368194185843, ,0.23592948930755878,-0.222831734352874,0.10523411849000001,-4.515672932939232,0.27682554852478236,-1.2058775545756966, ,0.3061191663176477,0.12372482602147429,0.047126661301775154,0.06177998487377155,0.3324731305183628,-0.04637141542568793, ,1.4716918468475342
0.02003291865136821,0.022217333623668806,-0.09376242012177749, ,0.021505971781752554,0.02177647032206429,-0.09462804216594602, ,0.0017645247232575825, ,0.037116927967214414,-0.0009249495270561179,-0.04094984080742262,-0.014001898052611584,0.019831047404998605,-0.005917895210572646, ,0.05527577530441558, ,0.024273616150289324, ,0.0010308031686643117, ,0.23592948930755878,-0.222831734352874,0.10523411849000001,-4.515672932939232,0.27682554852478236,-1.2058775545756966, ,0.3061191663176477,0.12372482602147429,0.047126661301775154,0.06177998487377155,0.3324731305183628,-0.04637141542568793, ,1.4753539562225342
0.02003291865136821,0.022217333623668806,-0.09376242012177749, ,0.02165220332234944,0.021769346918259175,-0.09477234857563624, ,0.0019602883501699674, ,0.037116927967214414,-0.0009249495270561179,-0.04094984080742262,-0.014001898052611584,0.019831047404998605,-0.005917895210572646, ,0.05527577530441558, ,0.024273616150289324, ,0.0010375877320329663, ,0.23913442345036195,-0.2215420379628785,0.10572411611000002,-4.515253553052263,0.2803780975186838,-1.2064057366077272, ,0.3091105588223804,0.12181892369508443,0.04657547228070176,0.032658959275687745,0.32127617855295293,-0.03640357667951434, ,1.4790759086608887
0.02042147403692195,0.02220635506779438,-0.09418714036983077, ,0.021798889355369146,0.021762032319002304,-0.09491672042024374, ,0.0016207969380979622, ,0.0376367085015185,-0.0010644051961904294,-0.040207063337458576,-0.03005610015540117,0.0009485522240760269,0.019470491986054182, ,0.05508414225049127, ,0.030069317083698918, ,0.001041813885700104, ,0.23913442345036195,-0.2215420379628785,0.10572411611000002,-4.515253553052263,0.2803780975186838,-1.2064057366077272, ,0.3091105588223804,0.12181892369508443,0.04657547228070176,0.032658959275687745,0.32127617855295293,-0.03640357667951434, ,1.4834458827972412
0.02042147403692195,0.02220635506779438,-0.09418714036983077, ,0.021946019155037466,0.02175452956941282,-0.09506114769118686, ,0.0018144621505949482, ,0.0376367085015185,-0.0010644051961904294,-0.040207063337458576,-0.03005610015540117,0.0009485522240760269,0.019470491986054182, ,0.05508414225049127, ,0.030069317083698918, ,0.0010473725063108582, ,0.23913442345036195,-0.2215420379628785,0.10572411611000002,-4.515253553052263,0.2803780975186838,-1.2064057366077272, ,0.3091105588223804,0.12181892369508443,0.04657547228070176,0.032658959275687745,0.32127617855295293,-0.03640357667951434, ,1.4871559143066406
0.020781191643545714,0.022191208623878786,-0.09456048323948765, ,0.022093582056972223,0.021746841703470927,-0.09520562044881056, ,0.0015284085108568058, ,0.03688603513175023,-0.0020503778754767128,-0.03790286722197037,-0.0176949456380769,0.014022817577691932,0.01093457751403593, ,0.0529283570576234, ,0.022575922711932494, ,0.0010508084777719007, ,0.24210767560693838,-0.22035273710024794,0.10615837326000001,-4.514834173165294,0.28352073701328895,-1.2068447011490904, ,0.30513486031662634,0.12569131332247785,0.044124131634349036,0.04150708113694449,0.3303796357964841,-0.049170935242007885, ,1.491048812866211
0.020781191643545714,0.022191208623878786,-0.09456048323948765, ,0.022241567458050025,0.021738971744030486,-0.09535012882222343, ,0.001720684707149508, ,0.03688603513175023,-0.0020503778754767128,-0.03790286722197037,-0.0176949456380769,0.014022817577691932,0.01093457751403593, ,0.0529283570576234, ,0.022575922711932494, ,0.0010555593730157136, ,0.24210767560693838,-0.22035273710024794,0.10615837326000001,-4.514834173165294,0.28352073701328895,-1.2068447011490904, ,0.30513486031662634,0.12569131332247785,0.044124131634349036,0.04150708113694449,0.3303796357964841,-0.049170935242007885, ,1.4947829246520996
0.020781191643545714,0.022191208623878786,-0.09456048323948765, ,0.022389964816277363,0.021730922702837153,-0.0954946630091414, ,0.0019164305602970687, ,0.03688603513175023,-0.0020503778754767128,-0.03790286722197037,-0.0176949456380769,0.014022817577691932,0.01093457751403593, ,0.0529283570576234, ,0.022575922711932494, ,0.001061621846165582, ,0.24210767560693838,-0.22035273710024794,0.10615837326000001,-4.514834173165294,0.28352073701328895,-1.2068447011490904, ,0.30513486031662634,0.12569131332247785,0.044124131634349036,0.04150708113694449,0.3303796357964841,-0.049170935242007885, ,1.4984068870544434
0.0211459249490149,0.02216873100271809,-0.09492729758318684, ,0.022538763650657462,0.02172269758054091,-0.09563921327572406, ,0.0016265821269684367, ,0.036865813700981805,-0.0020981585338864595,-0.03685819289509605,0.02474905615725213,0.04356144414673161,-0.01539713689699318, ,0.05217295154158836, ,0.05010037097234299, ,0.0010655726173600076, ,0.2451427096265086,-0.21910165437462356,0.10658744525000001,-4.51420510333484,0.2869366495074249,-1.2074248227577056, ,0.30710984323129703,0.12437344896260916,0.043284813913043486,0.07443879797427945,0.35960362157158543,-0.0785284855273601, ,1.5020818710327148
0.0211459249490149,0.02216873100271809,-0.09492729758318684, ,0.02268795354105966,0.021714299366711976,-0.0957837699564165, ,0.0018215117942501468, ,0.036865813700981805,-0.0020981585338864595,-0.03685819289509605,0.02474905615725213,0.04356144414673161,-0.01539713689699318, ,0.05217295154158836, ,0.05010037097234299, ,0.0010708221949773, ,0.2451427096265086,-0.21910165437462356,0.10658744525000001,-4.51420510333484,0.2869366495074249,-1.2074248227577056, ,0.30710984323129703,0.12437344896260916,0.043284813913043486,0.07443879797427945,0.35960362157158543,-0.0785284855273601, ,1.5059828758239746
0.0211459249490149,0.02216873100271809,-0.09492729758318684, ,0.022837524128086775,0.02170573103985416,-0.09592832345378627, ,0.002019388407874518, ,0.036865813700981805,-0.0020981585338864595,-0.03685819289509605,0.02474905615725213,0.04356144414673161,-0.01539713689699318, ,0.05217295154158836, ,0.05010037097234299, ,0.0010773640309283154, ,0.2451427096265086,-0.21910165437462356,0.10658744525000001,-4.51420510333484,0.2869366495074249,-1.2074248227577056, ,0.30710984323129703,0.12437344896260916,0.043284813913043486,0.07443879797427945,0.35960362157158543,-0.0785284855273601, ,1.509739875793457
0.021588995169658374,0.022141491668041382,-0.09536566857833258, ,0.02298746511294582,0.021696995567422495,-0.09607286423836704, ,0.0016289323703933738, ,0.03680502791203185,-0.0026329502446753826,-0.03491783898644388,-0.017413685222063678,0.017145680744582885,0.016903377341441126, ,0.05080155495730027, ,0.02443683475637081, ,0.0010811418962671173, ,0.24881873047463948,-0.21761116692989824,0.10710336867,-4.513576033504387,0.2911723810001536,-1.2081017006075156, ,0.3061191663176477,0.12308293327946923,0.04137353641558442,0.03613226263865465,0.3355965039211938,-0.046947903308923275, ,1.5134689807891846
0.021588995169658374,0.022141491668041382,-0.09536566857833258, ,0.023137766257313817,0.02168809590583454,-0.09621738284849317, ,0.0018247401999023686, ,0.03680502791203185,-0.0026329502446753826,-0.03491783898644388,-0.017413685222063678,0.017145680744582885,0.016903377341441126, ,0.05080155495730027, ,0.02443683475637081, ,0.0010862003881285816, ,0.24881873047463948,-0.21761116692989824,0.10710336867,-4.513576033504387,0.2911723810001536,-1.2081017006075156, ,0.3061191663176477,0.12308293327946923,0.04137353641558442,0.03613226263865465,0.3355965039211938,-0.046947903308923275, ,1.517045021057129
0.021588995169658374,0.022141491668041382,-0.09536566857833258, ,0.023288417383209522,0.021679035000489025,-0.09636186989014517, ,0.0020234423843865294, ,0.03680502791203185,-0.0026329502446753826,-0.03491783898644388,-0.017413685222063678,0.017145680744582885,0.016903377341441126, ,0.05080155495730027, ,0.02443683475637081, ,0.0010925331043195137, ,0.24881873047463948,-0.21761116692989824,0.10710336867,-4.513576033504387,0.2911723810001536,-1.2081017006075156, ,0.3061191663176477,0.12308293327946923,0.04137353641558442,0.03613226263865465,0.3355965039211938,-0.046947903308923275, ,1.5206639766693115
0.021933571044782774,0.02211740150059755,-0.0956976795476482, ,0.023439408372858933,0.021669815785777192,-0.09650631603678352, ,0.0017668537014421683, ,0.037506678754331176,-0.002427958151113509,-0.03662248340589044,-0.018060965647047688,0.012775518370545974,0.026496862622057183, ,0.05247715905781177, ,0.022121177002143465, ,0.0010970587459109408, ,0.2516606961723541,-0.2164604797316388,0.10749614454,-4.513366343560902,0.2943150204947587,-1.2086223438890191, ,0.3061191663176477,0.12388634668207675,0.043284813913043486,0.024515359200309797,0.33399429264327274,-0.05005589942845898, ,1.5242979526519775
0.021933571044782774,0.02211740150059755,-0.0956976795476482, ,0.023590729168565742,0.02166044118509987,-0.09665071202919254, ,0.001965516900980043, ,0.037506678754331176,-0.002427958151113509,-0.03662248340589044,-0.018060965647047688,0.012775518370545974,0.026496862622057183, ,0.05247715905781177, ,0.022121177002143465, ,0.0011028484669447349, ,0.2516606961723541,-0.2164604797316388,0.10749614454,-4.513366343560902,0.2943150204947587,-1.2086223438890191, ,0.3061191663176477,0.12388634668207675,0.043284813913043486,0.024515359200309797,0.33399429264327274,-0.05005589942845898, ,1.5279488563537598
0.021933571044782774,0.02211740150059755,-0.0956976795476482, ,0.023742369772580263,0.021650914110882536,-0.09679504867531946, ,0.002166467706847008, ,0.037506678754331176,-0.002427958151113509,-0.03662248340589044,-0.018060965647047688,0.012775518370545974,0.026496862622057183, ,0.05247715905781177, ,0.022121177002143465, ,0.0011098923029705778, ,0.2516606961723541,-0.2164604797316388,0.10749614454,-4.513366343560902,0.2943150204947587,-1.2086223438890191, ,0.3061191663176477,0.12388634668207675,0.043284813913043486,0.024515359200309797,0.33399429264327274,-0.05005589942845898, ,1.5316379070281982
0.02233418763322806,0.022094113145826585,-0.09609256581704853, ,0.023894320246965677,0.021641237464587657,-0.09693931685011097, ,0.0018319654655854453, ,0.03777258576719087,-0.002003472730633107,-0.03742505441665181,-0.014400865101028344,0.0031608089079959204,-0.02019460673183765, ,0.05321105934494755, ,0.014741173934902199, ,0.0011146427843035703, ,0.25488879851377994,-0.2151476151430206,0.10796280894000002,-4.512527583786964,0.29773093298889475,-1.2091207867574938, ,0.30126013193165324,0.12135158767067875,0.044246698666666674,0.06767439962255437,0.3084676298213728,-0.043846352305673936, ,1.5353000164031982
0.02233418763322806,0.022094113145826585,-0.09609256581704853, ,0.0240465707134691,0.021631414136732446,-0.09708350749535674, ,0.00203182469625723, ,0.03777258576719087,-0.002003472730633107,-0.03742505441665181,-0.014400865101028344,0.0031608089079959204,-0.02019460673183765, ,0.05321105934494755, ,0.014741173934902199, ,0.0011206374373228752, ,0.25488879851377994,-0.2151476151430206,0.10796280894000002,-4.512527583786964,0.29773093298889475,-1.2091207867574938, ,0.30126013193165324,0.12135158767067875,0.044246698666666674,0.06767439962255437,0.3084676298213728,-0.043846352305673936, ,1.5389938354492188
0.02233418763322806,0.022094113145826585,-0.09609256581704853, ,0.02419911135338958,0.021621447006902703,-0.09722761161952787, ,0.0022337597754978618, ,0.03777258576719087,-0.002003472730633107,-0.03742505441665181,-0.014400865101028344,0.0031608089079959204,-0.02019460673183765, ,0.05321105934494755, ,0.014741173934902199, ,0.0011278655044538817, ,0.25488879851377994,-0.2151476151430206,0.10796280894000002,-4.512527583786964,0.29773093298889475,-1.2091207867574938, ,0.30126013193165324,0.12135158767067875,0.044246698666666674,0.06767439962255437,0.3084676298213728,-0.043846352305673936, ,1.5426230430603027
0.02278228088523082,0.02206922086222123,-0.09653234081144074, ,0.02435193240744482,0.021611338943766142,-0.09737162029761409, ,0.0018378933071177552, ,0.03999654591946174,-0.0018518859373471436,-0.04033625159801766,0.015899188775063525,-0.00739695948278535,-0.002998915340399937, ,0.05683455251861439, ,0.017532610652782925, ,0.001132446328987197, ,0.25844897836879743,-0.21373435502703753,0.10848391752000001,-4.512527583786964,0.3012834819827962,-1.2098123262698057, ,0.3131912262655801,0.1255250549715222,0.047691052455089825,0.04733551705249784,0.3192601842779488,-0.0819979793705837, ,1.5463018417358398
0.02278228088523082,0.02206922086222123,-0.09653234081144074, ,0.02450502417564242,0.021601092805089688,-0.09751552467096725, ,0.0020380477973210957, ,0.03999654591946174,-0.0018518859373471436,-0.04033625159801766,0.015899188775063525,-0.00739695948278535,-0.002998915340399937, ,0.05683455251861439, ,0.017532610652782925, ,0.001138251466604722, ,0.25844897836879743,-0.21373435502703753,0.10848391752000001,-4.512527583786964,0.3012834819827962,-1.2098123262698057, ,0.3131912262655801,0.1255250549715222,0.047691052455089825,0.04733551705249784,0.3192601842779488,-0.0819979793705837, ,1.5499188899993896
0.02278228088523082,0.02206922086222123,-0.09653234081144074, ,0.024658377017147043,0.02159071143775317,-0.09765931594713882, ,0.0022402635831476323, ,0.03999654591946174,-0.0018518859373471436,-0.04033625159801766,0.015899188775063525,-0.00739695948278535,-0.002998915340399937, ,0.05683455251861439, ,0.017532610652782925, ,0.0011452706520604092, ,0.26165391251160064,-0.21245238136991626,0.10899984094000001,-4.512108203899995,0.30483603097669765,-1.2109122594828206, ,0.31012072404729013,0.12470031742243204,0.052054939607843145,0.02295595333722809,0.35822259635539416,-0.1241198150677323, ,1.553520917892456
0.02321270408977331,0.022054798514482582,-0.09698713871339927, ,0.024811981350148428,0.02158019767776325,-0.09780298539971895, ,0.0018570243739236235, ,0.040826749849129956,-0.0010549024007826188,-0.044154151632564594,0.05473239495539004,0.019040482606048188,0.02540326534865052, ,0.06014586792714954, ,0.05794831498854268, ,0.0011497754224519487, ,0.26165391251160064,-0.21245238136991626,0.10899984094000001,-4.512108203899995,0.30483603097669765,-1.2109122594828206, ,0.31012072404729013,0.12470031742243204,0.052054939607843145,0.02295595333722809,0.35822259635539416,-0.1241198150677323, ,1.55753493309021
0.02321270408977331,0.022054798514482582,-0.09698713871339927, ,0.02496582765173157,0.02156955435027032,-0.097946524368178, ,0.0020565322650010808, ,0.040826749849129956,-0.0010549024007826188,-0.044154151632564594,0.05473239495539004,0.019040482606048188,0.02540326534865052, ,0.06014586792714954, ,0.05794831498854268, ,0.001155478295675528, ,0.26165391251160064,-0.21245238136991626,0.10899984094000001,-4.512108203899995,0.30483603097669765,-1.2109122594828206, ,0.31012072404729013,0.12470031742243204,0.052054939607843145,0.02295595333722809,0.35822259635539416,-0.1241198150677323, ,1.561128854751587
0.02363967240452434,0.02204616988106421,-0.09743751523215967, ,0.025119906457744624,0.0215587842695822,-0.09808992425770577, ,0.0016894600093540681, ,0.041539915700163556,-0.001093193968808935,-0.04266388754421212,-0.008922333180152186,-0.016203680550126887,-0.07944509359503488, ,0.059556418376320384, ,0.018493943351601233, ,0.001158815681386019, ,0.2647661738599131,-0.21121674411004035,0.10951446807000001,-4.511269444126056,0.3079786704713028,-1.2117596177248862, ,0.31527223109126506,0.12324278124476726,0.051218043472668826,0.12505484312287457,0.2879913051659918,-0.04203194928434528, ,1.5652189254760742
0.02363967240452434,0.02204616988106421,-0.09743751523215967, ,0.02527420836266643,0.021547890239178406,-0.09823317653904917, ,0.0018849581733445529, ,0.041539915700163556,-0.001093193968808935,-0.04266388754421212,-0.008922333180152186,-0.016203680550126887,-0.07944509359503488, ,0.059556418376320384, ,0.018493943351601233, ,0.0011633258831994261, ,0.2647661738599131,-0.21121674411004035,0.10951446807000001,-4.511269444126056,0.3079786704713028,-1.2117596177248862, ,0.31527223109126506,0.12324278124476726,0.051218043472668826,0.12505484312287457,0.2879913051659918,-0.04203194928434528, ,1.5688889026641846
0.02363967240452434,0.02204616988106421,-0.09743751523215967, ,0.025428724019476615,0.0215368750517261,-0.0983762727483544, ,0.002083591269507046, ,0.041539915700163556,-0.001093193968808935,-0.04266388754421212,-0.008922333180152186,-0.016203680550126887,-0.07944509359503488, ,0.059556418376320384, ,0.018493943351601233, ,0.001169006533732189, ,0.2647661738599131,-0.21121674411004035,0.10951446807000001,-4.511269444126056,0.3079786704713028,-1.2117596177248862, ,0.31527223109126506,0.12324278124476726,0.051218043472668826,0.12505484312287457,0.2879913051659918,-0.04203194928434528, ,1.5724899768829346
