NicholasDascanio/dvrk_moveit_final/test/execution/second_exp_sharpbends/firstexp_400vel3.csv
Current Position (x),Current Position (y),Current Position (z), ,Planned Position (x),Planned Position (y),Planned Position (z), ,Position Error,,Cartesian linear Velocity(x),Cartesian linear Velocity(y),Cartesian linear Velocity(z),Cartesian Angular Velocity(x),Cartesian Angular Velocity(y),Cartesian Angular Velocity(z), ,Total Linear Velocity, ,Total Angular Velocity, ,MSE, ,Joint 1 Position,Joint 2 Position,Joint 3 Position,Joint 4 Position,Joint 5 Position,Joint 6 Position, ,Joint 1 Velocity,Joint 2 Velocity,Joint 3 Velocity,Joint 4 Velocity,Joint 5 Velocity,Joint 6 Velocity, ,Time Stamp
0.011768373176377347,0.019158785126483904,-0.07942405536993515, ,0.011789382473920577,0.019114849748956726,-0.07945168344975007, ,5.599123838579796e-05, ,-0.00034343807593649196,-0.00026245327240146315,0.0013164879015433383,-0.33504803389553756,0.04128934654398234,0.09706063286638303, ,0.0013856304800007751, ,0.33758257531350505, ,4.66593653214983e-06, ,0.19387148607453208,-0.22353450304442843,0.08981474894000001,-4.476460913507625,0.4381932547477675,-1.126322555577817, ,-0.0010701059146067237,-0.0004122443967010022,-0.0013780948533399456,0.0027264722526089934,0.0,0.3526469058877866, ,0.027838945388793945
0.01171871008021208,0.019170556856535313,-0.07942855943490763, ,0.011750655943489605,0.01916907158521236,-0.0795391625505987, ,0.00011513380655576786, ,-0.00238426758474456,0.0005732656818856816,-0.00036174315552242944,-0.20102725064061214,0.2658419370922561,0.13499457523576675, ,0.002478754438878292, ,0.33329250069133953, ,7.778411133707537e-06, ,0.19377109054716718,-0.22356539397592534,0.08983289700000001,-4.476460913507625,0.44338544173885425,-1.1139756516697465, ,-0.005847537042738625,-0.0012098351675456252,0.000997259572930748,0.0027264722526089934,0.2430851757807633,0.261077305521767, ,0.055419921875
0.01168942749756879,0.01918954676848029,-0.07945997349965869, ,0.01171277021475083,0.019222822257816585,-0.07962638152553234, ,0.0001713002385029677, ,0.0004623381851649171,0.0005750710337356223,-0.0015028126601058889,0.5352761984219613,-0.18351460134967196,-0.20596621941823254, ,0.0016741891119816435, ,0.5658605990043734, ,1.0700790107641672e-05, ,0.19350079489656932,-0.2236812349690387,0.08986919312000001,-4.476460913507625,0.4450250797360395,-1.1200500334422565, ,-0.011788439945151651,-0.0055756528713865865,0.0011576985977742756,0.0027264722526089934,-0.13873400782764958,-0.5840168176340622, ,0.08378100395202637
0.011710745047503596,0.019211321450617696,-0.07953422311236516, ,0.0116757218334328,0.019276103717069653,-0.07971334137706515, ,0.00019366651832373316, ,-0.0008361677249105202,0.0010459958376323095,-0.002369278150180651,-0.12091533688941211,0.007643985193136331,0.02866082533143279, ,0.0027215368286043094, ,0.1211567134113428, ,1.2764090518292062e-05, ,0.1930528763898643,-0.22385113509227164,0.08993011875000001,-4.476460913507625,0.4396962562451874,-1.1218306407086382, ,-0.01864013780366741,-0.006868742332420758,0.0023115384588593825,0.0024890674317274166,-0.027404854040655853,0.12915567870707584, ,0.11159515380859375
0.011674610080754653,0.01925524916636894,-0.07963508412241696, ,0.011639507352048833,0.019328917909422448,-0.07980004310541618, ,0.00018404008079169544, ,-0.0011248727939572717,0.0017436906843436824,-0.004020155104272354,-0.02420496012567314,0.04298442241489705,0.015464736497098078, ,0.004524095828744042, ,0.04933093009439079, ,1.384869004923004e-05, ,0.19262040334890773,-0.22401331248263034,0.08999622954000001,-4.476460913507625,0.43996952924471827,-1.1196031143118141, ,-0.021880779699901032,-0.009566657763511566,0.003933039881481483,0.0023136544881921023,0.010416804202453419,0.011126054283375509, ,0.14154911041259766
0.011646072855489445,0.01928661340156827,-0.07969576894164426, ,0.01160412332989156,0.01938126677747908,-0.07988648770851098, ,0.00021700846136582148, ,-0.0015797217684124735,0.0015510045632994246,-0.002366789569040763,0.01604574204281436,0.024544919545626508,-0.0007944220484865042, ,0.0032408068262536156, ,0.02932437404500821, ,1.5115166837512638e-05, ,0.19193308012310173,-0.22432222179759934,0.09009604387,-4.476460913507625,0.4402428022442491,-1.1191725201980824, ,-0.02495974265083398,-0.012504538352677662,0.002417485433297921,0.0020960264696369174,-0.0005004811846671408,-0.0036516946725728846, ,0.1696770191192627
0.011595538007193637,0.01933535423004299,-0.07977305615687943, ,0.011569566333027328,0.019433152260000315,-0.07997267618198377, ,0.00022380155706605158, ,-0.0014689313363475322,0.001865508430696565,-0.003348309630836254,0.012317545862042074,0.023745910876509166,0.00020236047372129782, ,0.004104760450970863, ,0.026750518107090476, ,1.6124193069331044e-05, ,0.19110674770555972,-0.2247160811741848,0.09017382127000001,-4.476460913507625,0.43996952924471827,-1.1189496843906896, ,-0.02613520836091181,-0.013585818404934972,0.0034448121799307966,0.0019115308042092426,-0.003068460890253319,0.0008376128048790189, ,0.198106050491333
0.01154822869222098,0.019388762296314303,-0.0798602999425629, ,0.011535832934290696,0.019484576291906835,-0.08005860951918009, ,0.00022059162437445805, ,-0.0015914342154500765,0.0017479762469405273,-0.002343911146700046,0.012753067487423764,0.021782388601638423,0.00044962048862487447, ,0.003328964296233622, ,0.025241101074652546, ,1.684796982154016e-05, ,0.1903113062195146,-0.2251331087493929,0.09026326528,-4.476460913507625,0.4398328927449528,-1.118674909006712, ,-0.025339637265279248,-0.014930292882075327,0.0024300246407322657,0.0017599102387877996,-0.004342088032034813,0.0014861899419419031, ,0.2259819507598877
0.011504746968559925,0.019443215438407047,-0.07994242567006946, ,0.011502919713278737,0.019535540804282346,-0.08014428871115784, ,0.0002219819799067466, ,-0.000853436274513438,0.0018409831985685137,-0.0034365599403790373,-0.05106561671140855,-0.03396591803911664,-0.0009573653507733504, ,0.003990929319830772, ,0.061330096998758805, ,1.7429516361663475e-05, ,0.18950814200059524,-0.22558874998897216,0.09034622784000002,-4.476460913507625,0.43901307374636017,-1.1180064015845337, ,-0.025319354738119207,-0.014238100758960356,0.003381913273885351,0.0016302676257487444,-0.06938759013116205,0.054937945153968375, ,0.25748515129089355
0.011465292439389776,0.019501170775377646,-0.08004531028461494, ,0.011470823256345667,0.01958604772437681,-0.08022971474669115, ,0.0002030755820900748, ,-0.001393458880857209,0.001655811442304399,-0.0024682861513371825,0.00789620836034441,0.018409174309544224,0.0029529085768963416, ,0.0032826628992311895, ,0.02003117083791007, ,1.7711677327089358e-05, ,0.18875903691179546,-0.22600577756418028,0.09045252362,-4.476251223564142,0.4387398007468293,-1.117946923257422, ,-0.023213537563226708,-0.013504616701077384,0.0025551510298363815,-0.000568563968621264,-0.005458398913973266,0.0044509583133184715, ,0.2853829860687256
0.011431297068709698,0.019541825957236903,-0.08011063395087725, ,0.011439540156597155,0.019636098975609608,-0.08031488861227135, ,0.00022511178821251542, ,-0.0010204023633980765,0.0014114141346131905,-0.0023345096384558613,-0.037386843724569054,-0.024438048323522595,0.0031383891089158, ,0.0029126012591251826, ,0.04466535894268437, ,1.8140204246210984e-05, ,0.1880794364188637,-0.22637646874214304,0.09051604183,-4.476880293394594,0.43751007224894034,-1.1170258408642946, ,-0.023128672083468384,-0.012035122581924003,0.0022523771945701363,-0.0033935029148208207,-0.05411616494683184,0.04035900635170499, ,0.31383514404296875
0.011400843197433319,0.019584871787054006,-0.08018973121082874, ,0.011409067013884847,0.019685696477572637,-0.08039981129210952, ,0.00023316708585506505, ,-0.000967541199961761,0.001741219268845908,-0.0032311177430918003,0.04528726937832605,0.01968786798948951,-0.02391307076615845, ,0.00379580062510485, ,0.049381665761337526, ,1.8564507880579468e-05, ,0.18751567691904533,-0.22669310078998625,0.09059770810000001,-4.47708998333808,0.43737343574917487,-1.1175678528817228, ,-0.019386504914907208,-0.011319398858950037,0.003389830074483933,0.017379777918041305,0.0,-0.03259825410904963, ,0.34369993209838867
0.011391561659185109,0.019619543127361243,-0.08026908904096541, ,0.011379400434800778,0.019734842146033858,-0.0804844837681386, ,0.00024461530528445505, ,-0.0006245684188391745,0.001660279204134715,-0.003511642232249824,-0.013830126105916314,-0.021453839944423576,-0.017898425054316304, ,0.0039342399409306485, ,0.025525274453617148, ,1.9156376081795037e-05, ,0.1870986493438372,-0.22691706004333878,0.09067678179000001,-4.47708998333808,0.43614370725128593,-1.116565091748455, ,-0.020706293161350815,-0.010772794947133908,0.003516293933774835,0.012863243097535743,-0.04968766366945295,0.018274073551937196, ,0.3693850040435791
0.011361037635763307,0.019668632352127357,-0.08036367495367003, ,0.011350537032671887,0.019783537892940226,-0.0805689070200162, ,0.00023544372370378334, ,-0.0009725287356506928,0.0015557508662446583,-0.0029477037716168332,0.0044963460894988086,0.011802037419232792,-0.008572958684522422, ,0.00347204988799001, ,0.012629537409540247, ,1.9606635645849522e-05, ,0.18651172164539614,-0.2272491375569304,0.09077529983,-4.47708998333808,0.43614370725128593,-1.1168918067090172, ,-0.019757847503325165,-0.01046460844086563,0.003034637363307297,0.009619548682199205,-0.011346254958554295,0.005662252743010625, ,0.39430713653564453
0.011346496107652667,0.019700288337480942,-0.08042686036018454, ,0.011322473427554366,0.019831785626420746,-0.08065308202512599, ,0.00026276390133826266, ,-0.0005572533412929028,0.001604396572641232,-0.003286794327871489,-0.054896578008129956,-0.04156503862559006,-0.009207153894662973, ,0.003699680608162444, ,0.06885700191386425, ,2.0185858333940914e-05, ,0.1861178622688107,-0.22747309681028294,0.09083752175000001,-4.47708998333808,0.4353238882526933,-1.1163049780269791, ,-0.021860617728281684,-0.011422356952151031,0.0032024148612786497,0.00831861512345262,-0.07542112365052034,0.056106639503537836, ,0.41905999183654785
0.011317629699733692,0.019754325307290366,-0.08053805947055147, ,0.011295206246228057,0.01987958725079008,-0.08073700975858, ,0.00023616643043218878, ,-0.0011167829259928228,0.0019572243613479486,-0.003905498308315268,0.009570589831511444,0.013702004457775335,-0.0069513910079130655, ,0.0045089742004913265, ,0.01671350097900812, ,2.0530755203730286e-05, ,0.18545370724162738,-0.22782834252249726,0.09095289156000001,-4.47708998333808,0.43477734225363146,-1.1161860213727557, ,-0.023676881626364967,-0.012729301349224786,0.004030569716599191,0.00693903630259385,-0.012411105906026234,0.0019401820222843106, ,0.44422006607055664
0.01129364628935741,0.019790976102008265,-0.08060436473694153, ,0.011268732122191205,0.019926944666551333,-0.08082069119322174, ,0.00025672027959676707, ,-0.001458063651591417,0.0017012178420673274,-0.002592829414494387,0.006506049243839741,0.010564244743811155,-0.006673509616007706, ,0.0034267851013636114, ,0.012406931274623266, ,2.0961554501713485e-05, ,0.184959452337677,-0.22809863817309511,0.09102029864000001,-4.47708998333808,0.43423079625456973,-1.1159037072382512, ,-0.02529910465435105,-0.01351423263435927,0.0026424703915063044,0.006245898120694687,-0.01760910474147108,0.004807548977479345, ,0.469696044921875
0.011257454483772116,0.019842751876508156,-0.08068355824840992, ,0.01124304769565453,0.01997385977039965,-0.08090412729962729, ,0.00025699716290157354, ,-0.0015201325805707197,0.0020065936129819314,-0.003406815890548982,0.03828930047353792,0.03139273057921979,-0.007172962481130715, ,0.004235990498368656, ,0.04951337257260331, ,2.134986798118026e-05, ,0.18424896091324836,-0.22852338848117745,0.09110066862,-4.47708998333808,0.43327434075621163,-1.1156955330933602, ,-0.025326111971836346,-0.01435222951580018,0.0035795082067415734,0.005483695621146868,0.007770256076626758,-0.022845628367748064, ,0.4946479797363281
0.011236657512890493,0.01988427075043093,-0.08076431864238548, ,0.011218149613535924,0.02002033445522501,-0.0809873190461077, ,0.00026188748378088605, ,-0.0007611950532102393,0.002025241821576159,-0.0042496975864405795,-0.04784910938386564,-0.031558339702236544,-0.004915180498357351, ,0.004768747416365407, ,0.05731898526845021, ,2.172683377550601e-05, ,0.18376242874217222,-0.22880912959752378,0.09118363118,-4.47708998333808,0.4327277947571499,-1.115494897698996, ,-0.025124951431948844,-0.01366603421060927,0.004281938580645162,0.0050741772769116854,-0.06747234895118283,0.0520883547188368, ,0.5225260257720947
0.011204017839099314,0.019938478783033287,-0.08086106738486745, ,0.011194034529454767,0.020066370610115677,-0.08107026739871184, ,0.0002453989235885604, ,-0.0015378764412343527,0.0017722277832723557,-0.002259697835689767,0.020999916271524487,0.02707535504645641,-0.0023119483449145243, ,0.0032576202315382167, ,0.034264724342153885, ,2.1983830783799857e-05, ,0.1830982737149889,-0.22920298897410923,0.09128344551,-4.47708998333808,0.43218124875808817,-1.1151309048243512, ,-0.02329330916997319,-0.01478606132104562,0.0024043489086792453,0.0046029862485916385,0.0035032308923162504,-0.005237771031116619, ,0.547558069229126
0.011171311266289707,0.019978947600643733,-0.0809206898134894, ,0.011170699103726514,0.020111970120361426,-0.0811529733212283, ,0.00026767703200411455, ,-0.001154382973378003,0.0019218819693834922,-0.0034985486041854016,0.004508824463289266,0.013028123664000963,-0.0027376275675760273, ,0.004155246405366839, ,0.013786279546024263, ,2.232778425645954e-05, ,0.18257312787954164,-0.22951962102195242,0.09134307485000001,-4.47708998333808,0.4320446122583227,-1.1150194869206547, ,-0.023442920345472032,-0.013276013088762,0.0036152545438039043,0.00428209818204166,-0.012386740080838322,0.007431840433182577, ,0.5725469589233398
0.01115408946336997,0.020037643772287332,-0.08102991274212532, ,0.011148140003357015,0.020157134867456537,-0.0812354377751872, ,0.00023781096928920367, ,-0.0012437870936239633,0.0015368159671439513,-0.0034974919021580515,0.015140008554218716,0.02196702175402456,-0.0003453243292101723, ,0.004017618605193292, ,0.026679016159526284, ,2.250165647806835e-05, ,0.18204025931122014,-0.2299212031314121,0.09145714837,-4.476880293394594,0.4313614297594955,-1.1147074336225942, ,-0.019350926092673488,-0.00935986880461365,0.003535022529960054,0.0,-0.01871919443269447,0.012412526608181755, ,0.5974769592285156
0.01111981299433488,0.02007123897955457,-0.08110900481406325, ,0.011126353902036984,0.0202018667291031,-0.08131766171986268, ,0.0002462602216426268, ,0.0007550772893640647,0.0017380748889255957,-0.0043861215665925825,-0.021830072515639426,-0.030827221475276778,-0.0018958511255624472, ,0.004777981627147145, ,0.0377739281555483, ,2.2699599072367045e-05, ,0.18138382701691105,-0.23012971691901615,0.09153751835000001,-4.476880293394594,0.43067824726066833,-1.1143953803245337, ,-0.004545928665655421,-0.008916453153433467,0.004601043188908146,0.0,-0.040200548702565675,0.024162594692013033, ,0.6227560043334961
0.011094408547292003,0.02011922647599018,-0.08117386942712372, ,0.011105337480136514,0.020246167579214398,-0.08139964611227549, ,0.000259246208880711, ,-0.0011694569008122912,0.0011549705098743575,-0.0016378230421394597,0.00878285060088142,0.0026250962609863826,-0.0035258378998538177, ,0.00232035571387231, ,0.00916676578980082, ,2.2938511321190554e-05, ,0.18088184938008647,-0.23053129902847583,0.09160622172,-4.476880293394594,0.4301317012616065,-1.1142764236703102, ,-0.01936277118107953,-0.009748276649169304,0.0016398289700600213,0.0,-0.017373471231441662,-0.0026146245286066995, ,0.6471419334411621
0.011087311601196389,0.020158587849349534,-0.08124777102910871, ,0.011085087424699505,0.020290039287917765,-0.0814813919071946, ,0.0002680730168076732, ,0.0001998405416935736,0.001962048950813771,-0.003944491952351712,0.007701414141843109,-0.0065324740847959115,-0.0013206123548837794, ,0.0044100554519939114, ,0.010098762127004317, ,2.329382613731723e-05, ,0.1805806627979917,-0.23080159467907368,0.09168399912000001,-4.476880293394594,0.42958515526254476,-1.1139124307956654, ,-0.007748115781629742,-0.012293942422395489,0.004242027035952064,0.0,-0.015271008322874136,0.0015741842015429735, ,0.6692020893096924
0.011078626791639998,0.020197080819945822,-0.08133738347361072, ,0.01106560042943806,0.020333483721558045,-0.08156290005713943, ,0.0002638809715135026, ,-0.00030908324121838634,0.002192855228702112,-0.005237224781530728,-0.006286895607355798,-0.00906480352455893,-0.0032811237144318613, ,0.005686182367487683, ,0.011031578100007102, ,2.360899021217481e-05, ,0.18021769435290316,-0.23104099939817466,0.09177603571000001,-4.477299673281564,0.42890197276371755,-1.1136003774976049, ,-0.0181725280655823,-0.011918065210076751,0.005423497282941777,0.0012448648860917046,-0.030605933463003342,0.013073397799680146, ,0.6910560131072998
0.011073826571188177,0.020239553073894023,-0.08144641292450178, ,0.011046873194727027,0.02037650274270048,-0.08164417151238264, ,0.00024205403398722084, ,-0.0003600986198212844,0.0018069416266290417,-0.004203049655318171,0.023112962201976426,0.012201626096285589,-0.0035524391607078655, ,0.004589154111937427, ,0.02613596563802234, ,2.3818368607016632e-05, ,0.17990878503793417,-0.2312417904529045,0.09189010923,-4.477299673281564,0.42876533626395213,-1.1138973532946113, ,-0.013487342461408583,-0.009577213327932118,0.004433290153075425,0.0012448648860917046,0.0,-0.014163375442098494, ,0.7142000198364258
0.011046279101521023,0.020283428238967414,-0.08151175518667995, ,0.011028902427598377,0.02041909821013448,-0.0817252072209517, ,0.00025351540546450176, ,-0.0010982673278629213,0.0011703589350889857,-0.0015015595998286288,-0.0006018186762385045,-0.0054568852458322,-0.004511070206659049, ,0.002197865417224471, ,0.005489971065280518, ,2.405870622765926e-05, ,0.17932958007236735,-0.23160475889799303,0.09195622002,-4.477299673281564,0.42767224426582856,-1.1132510462854615, ,-0.01905943795108873,-0.010356295085546523,0.0014916334853087101,0.001158953769082332,-0.026909890979627166,0.0061983994574826414, ,0.7394840717315674
0.011018685364493689,0.020307035986460022,-0.0815446079335764, ,0.011011684841735684,0.020461271978876167,-0.08180600812863162, ,0.0003035915193979962, ,-0.0012989333632483686,0.0014596467780902127,-0.002375476766575055,0.006703796826144891,0.009570787564875994,-0.0021055464054345416, ,0.003075822892737281, ,0.011685070236099347, ,2.447026870757305e-05, ,0.17892799796290768,-0.23179782721984865,0.09198992356,-4.477299673281564,0.42767224426582856,-1.1134144037657425, ,-0.022043424287681943,-0.011106851774165588,0.0024222645255474458,0.001109213367719444,-0.013672419049445961,0.0019212350249838868, ,0.7619171142578125
0.010998014992554121,0.02037382160608659,-0.08168978406141937, ,0.010995217157468568,0.020503025900172018,-0.08188657517896643, ,0.00023543220135890312, ,-0.0003322718420255394,0.0018182364354118554,-0.004361781119320566,-0.03175666621055167,-0.017647000462181716,0.00021870332321472603, ,0.004737248446611559, ,0.03633046204690857, ,2.4612966735264842e-05, ,0.17828701113434703,-0.23219940932930833,0.09214029320000001,-4.477299673281564,0.42685242526723594,-1.112990932563986, ,-0.017437879742460635,-0.010100738242485542,0.004453120357841768,0.0010351630560921303,-0.04151909271764373,0.0357465896107933, ,0.7862870693206787
0.010977490629081186,0.02040974174997211,-0.08176347873756885, ,0.010979496101767147,0.02054436182150179,-0.08196690931326256, ,0.00024394791392103095, ,-0.0010930343259540208,0.0017836799670084011,-0.0033984497492115305,0.009271960530429734,0.009219212137646272,-0.002314845116363001, ,0.0039907015624244275, ,0.013075286767924129, ,2.477745687526104e-05, ,0.1778699835591389,-0.23242336858266086,0.09221677431000001,-4.477299673281564,0.4267157887674705,-1.1128795146602894, ,-0.021670916090082388,-0.011940756355580326,0.0035147421712268317,0.0009923511340738918,-0.013412554198416592,0.00011350562845143745, ,0.8084030151367188
0.010960046744271238,0.020442547087415483,-0.08181695129522176, ,0.010964518408236494,0.020585281586581936,-0.08204701147058953, ,0.0002707781699494324, ,-0.0009257522378820196,0.001642807353103367,-0.0026197776935553635,0.007231704197692057,0.0052556588611439884,-0.0016714009252471785, ,0.003227858170521796, ,0.008939770441361246, ,2.5024254545149966e-05, ,0.17750701511405034,-0.23267049603463602,0.09227251478000001,-4.477299673281564,0.4263058792681742,-1.1125452609492, ,-0.018041243642294827,-0.012359591242311901,0.0027510900725388606,0.0009532261942816178,-0.014043747195831983,0.002558513340580961, ,0.830204963684082
0.010949577437333779,0.02047678049627198,-0.08188623686809422, ,0.010950280817111115,0.02062578703536872,-0.08212688258778335, ,0.0002830438231818485, ,-0.0006327895205151773,0.001697087246902969,-0.0037461743366258467,-0.010396708064049093,-0.0063794072252472194,-0.0018898668042655177, ,0.004161051533118598, ,0.01219788401227023, ,2.5298591587602443e-05, ,0.17716721486758447,-0.23289445528798855,0.09234381073,-4.477299673281564,0.425622696769347,-1.1123148863912804, ,-0.018309269063953457,-0.010132200848212768,0.0038391929428778023,0.0009172429545185317,-0.02818909364770414,0.015956495241391876, ,0.8525669574737549
0.010940402389186005,0.02051331538991695,-0.08196630051002347, ,0.01093678007524929,0.020665880004061377,-0.08220652359944863, ,0.0002845983403680742, ,-0.00046210601531485116,0.0020053036506306097,-0.004084176663439609,0.0472185006822527,0.010308215682803927,-0.009372700898782095, ,0.004573323049906634, ,0.04833059192795725, ,2.556378387040004e-05, ,0.17687375101836394,-0.2331029690755926,0.09242806958000001,-4.477299673281564,0.4254860602695815,-1.112693540928427, ,-0.01421464073673918,-0.012052843742926493,0.004356895929978119,0.0008834476218796593,0.0,-0.03700642278779633, ,0.8751580715179443
0.010931242688544323,0.020568169141592346,-0.08208282042240336, ,0.010924012936127747,0.02070556232510522,-0.08228593543796014, ,0.0002453260396705558, ,-0.0003271536904032868,0.0016676357088215483,-0.0036844897287311128,0.0013182018084622873,-0.009896244573524981,-0.004910470510396497, ,0.004057524239681916, ,0.009983652236923587, ,2.569213534432254e-05, ,0.17641038704591047,-0.23344276932205849,0.09254862455000001,-4.477299673281564,0.424392968271458,-1.111965555179137, ,-0.014270216775709891,-0.009761138794763641,0.0038198588776978426,0.0008375547509433163,-0.026175957020393346,0.0036424477232142715, ,0.8977169990539551
0.010919602422480456,0.020601625823146192,-0.08214867611096006, ,0.010911976159835864,0.02074483582719514,-0.08236511903346519, ,0.0002596436092881609, ,-0.0005351627165812783,0.0017217701088752552,-0.003263808942156451,0.01258525975248257,0.002611512180208553,-0.003140060576149328, ,0.0037287183122267863, ,0.012853355924990005, ,2.5858106284609595e-05, ,0.1761323686624384,-0.23365128310966254,0.09261862421000001,-4.477299673281564,0.424392968271458,-1.1122105913995586, ,-0.014477031511589744,-0.01126774418884716,0.0034485411387746275,0.0008099696210033202,-0.01228486228220001,-0.003874964195498622, ,0.9204361438751221
0.010909153904861657,0.020634995873525217,-0.08221717275244919, ,0.010900666513070246,0.020783702335278507,-0.08244407531388624, ,0.000271422954028023, ,-0.0005910513648452906,0.001729067858046697,-0.003799341990997571,0.011928895636366857,0.008152899815650554,-0.002188539101752922, ,0.004215924209253892, ,0.014448817450424834, ,2.605139402039147e-05, ,0.1758234593474694,-0.2338597968972666,0.09268992016000001,-4.477299673281564,0.4239830587721617,-1.11195801642861, ,-0.015816156926411796,-0.0098149533964074,0.003974254371257486,0.0007839086370226477,-0.007845072995641087,-0.003807081350325212, ,0.9426641464233398
0.010901819721277545,0.020670444374082546,-0.08230183924757042, ,0.010890080769129205,0.02082216367055854,-0.08252280520492322, ,0.00026829555014861914, ,-0.000442564986746867,0.0018712353792304539,-0.004414801638593348,-0.015784246779841967,-0.007670004780824427,-0.000476772820760917, ,0.004815377360093859, ,0.017549114452522458, ,2.6303405140643316e-05, ,0.17549138183387775,-0.23405286521912222,0.09277677159000002,-4.477299673281564,0.42329987627333454,-1.1114826056502682, ,-0.017396322925475854,-0.01016651111582445,0.004548489868646488,0.0007595670676448114,-0.029204105637488244,0.02141635451082936, ,0.9624741077423096
0.010887429275300682,0.02070910257559585,-0.08238961409466503, ,0.010880215707907141,0.020860221650497338,-0.08260130963005469, ,0.00026019994246259616, ,-0.0006380884147951658,0.001759395708498589,-0.003741584229860661,0.001991119785456277,0.005428025225290948,-0.00046181451207539604, ,0.004183549047557714, ,0.0057816965601056175, ,2.6522014642017146e-05, ,0.17513613612166343,-0.23426137900672628,0.09286880818000001,-4.477299673281564,0.42329987627333454,-1.1116459631305495, ,-0.016671985516245744,-0.010400259238809446,0.003904120470588236,0.0007354675139991137,-0.012801555383054343,0.006246133643790729, ,0.981774091720581
0.01087461641783536,0.020742124240554067,-0.08245761577741992, ,0.010871068115889,0.020897878088819256,-0.08267958951054122, ,0.00027119032042446526, ,-0.0008659291115887258,0.0015941655527634362,-0.0034787399116346647,0.004027529996843525,0.0066016538414241125,-0.0017916784614553042, ,0.0039233695223257195, ,0.007733229002687331, ,2.6762961734778684e-05, ,0.17478861314232333,-0.23446989279433034,0.09293880784000001,-4.477299673281564,0.42275333027427275,-1.1112819702559045, ,-0.018858692678551427,-0.009308515123121638,0.003580312771409306,0.0007139753703247031,-0.013467587647283239,0.00283796224955778, ,1.001089096069336
0.010864055673827073,0.02077923054972309,-0.08254130601524415, ,0.01086263478614478,0.02093513479551403,-0.08275764576542714, ,0.00026666653387084156, ,-0.0003183809448792428,0.0019644206587250855,-0.004484752190118195,-0.011191870065193607,-0.00728911925417912,-0.0006522851459207298, ,0.004906456680462801, ,0.013356242482210028, ,2.698209378374938e-05, ,0.17444881289585745,-0.2346784065819344,0.09302565927,-4.477299673281564,0.42234342077497644,-1.1110293952849557, ,-0.015716618343569192,-0.010872266595130605,0.004664366477306004,0.0006931259507050592,-0.026591831405726605,0.017827153117617612, ,1.0208101272583008
0.01085445289582067,0.02081759288521512,-0.08262493503264591, ,0.01085491251832399,0.02097199357683999,-0.08283547931154267, ,0.0002610913215777971, ,-0.0007624867276644736,0.0018153826838634667,-0.0035939958543312047,0.025328759501356487,0.014997849632154324,-0.0030199311081898516, ,0.004098024707061401, ,0.02943605868431832, ,2.7177802903238677e-05, ,0.17414762631376268,-0.23489464310241268,0.09311380699,-4.477299673281564,0.42220678427521097,-1.1114080498221026, ,-0.016506686651325583,-0.011141107727152736,0.003804349539049439,0.0006747237973326368,0.0,-0.01497158989726405, ,1.0402309894561768
0.010848192193862058,0.020852482654282297,-0.08269704747343978, ,0.010847898118649998,0.021008456235327103,-0.08291309106350601, ,0.00026646327565515814, ,-2.7134270092329552e-05,0.0017886382377208018,-0.0039656051264869326,-0.030892553583570452,-0.03847435835411383,-0.00535555159589487, ,0.004350400789958306, ,0.04934193061376718, ,2.738051209295274e-05, ,0.1738309942659195,-0.2351186023557652,0.09318769552,-4.477299673281564,0.42125032877685287,-1.1107914819765088, ,-0.01435222951580018,-0.010848024702165424,0.004047982597204575,0.0006558214561627974,-0.05977447089357408,0.0318633573258998, ,1.0602431297302246
0.010837808438568148,0.020888195281237497,-0.08276931339944914, ,0.010841588399914517,0.02104452456978051,-0.08299048193372564, ,0.000270866489470666, ,-0.0004354164050028294,0.0017727561120844428,-0.003602454174282446,0.004023084547744749,-0.0005388833072140721,-0.0018946746287254947, ,0.004038555157043587, ,0.004059015137982481, ,2.75873081890885e-05, ,0.17354525314957317,-0.23533483887624349,0.09326417663000001,-4.477299673281564,0.4211136922770875,-1.1108434215530936, ,-0.014174300456829094,-0.010830214663038207,0.0037898671234832264,0.0006385153552159535,-0.016170647350845377,0.003862516720151624, ,1.0799860954284668
0.010827289485745234,0.020923130593396982,-0.08283996165944067, ,0.010835980181472223,0.021080200375283395,-0.08306765283240312, ,0.00027674846850358814, ,-0.00043764788507070606,0.0016952013356069876,-0.0034787918717835947,0.007343081424610652,0.004768478132504535,-0.0009961613285244838, ,0.003894513593086842, ,0.008755525569555389, ,2.7801762833139704e-05, ,0.1732749574989753,-0.23554335266384754,0.09333936145,-4.477299673281564,0.4211136922770875,-1.1110067790333746, ,-0.013251911961802929,-0.010119677010534766,0.003675314148592525,0.0006222047404203946,-0.009244679352454667,0.0010196237869892428, ,1.099287986755371
0.010826620473894811,0.02095663929454502,-0.08292013894044419, ,0.010831070289234947,0.021115485443200264,-0.08314460466753455, ,0.00027502138541824834, ,0.00017000950274265034,0.0018333276670434832,-0.004295316688077589,-0.029340215347227774,-0.02561624204533374,-0.000741816103848103, ,0.004673300655494758, ,0.03894919885806033, ,2.8004304509679426e-05, ,0.17303555277987437,-0.23572097551995472,0.09342232401000002,-4.477299673281564,0.4204305097782603,-1.110531368255033, ,-0.010984176092492375,-0.00997105977051048,0.00445935372900336,0.000606588039773346,-0.04271240310474873,0.03272326749223592, ,1.118746042251587
0.01082424950782289,0.02099370116883068,-0.08300628446001156, ,0.01082685555566631,0.021150381561180365,-0.08322133834491273, ,0.0002660896657957631, ,-0.0001559555113945337,0.0017880627485143009,-0.004146352327567541,0.002688724229556022,-0.0055572521754505754,-0.003129853031851467, ,0.004518155391139575, ,0.006173515084504276, ,2.8177719198362612e-05, ,0.17280387079364762,-0.23591404384181033,0.09351306431,-4.477299673281564,0.4201572367787294,-1.1106352474082026, ,-0.012236871896643556,-0.009453065424453693,0.004342642181025082,0.0005916834652305472,-0.01934156482167127,0.0031955120478002847, ,1.1387650966644287
0.010817710662559689,0.021029035623248777,-0.08309023575417593, ,0.010823332819776106,0.02118489051316054,-0.0832978547681297, ,0.000259669039964936, ,-0.0002852235247850119,0.0017366513569404864,-0.004274293921124639,0.018788417044710907,0.011014151805258488,-0.0023759369728179407, ,0.004622434306598317, ,0.021778800554865217, ,2.8329604856699346e-05, ,0.17254902060879823,-0.23608394396504326,0.09359991574000001,-4.477299673281564,0.42002060027896393,-1.1106871869847872, ,-0.012661366452097502,-0.008244797682838414,0.004516249367734619,0.0005775023921581351,0.0,-0.011241556309882316, ,1.1588449478149414
0.010817756067568591,0.021059945084693128,-0.0831687438311498, ,0.01082049892711473,0.021219014079368666,-0.08337415483857932, ,0.00025981560830478544, ,6.291412808304603e-05,0.0014788693390695932,-0.0035621748657916354,-0.04682800744153687,-0.0287528761942258,0.0019103065753733502, ,0.0038574735882479145, ,0.05495079771769972, ,2.8476754077531618e-05, ,0.17230189315682304,-0.236246121355402,0.09368158201000001,-4.477299673281564,0.4192007812803713,-1.1101820370428899, ,-0.011190855674458555,-0.008049536229533954,0.00363671495890411,0.0005641092811811112,-0.04805489750908817,0.04802835969349571, ,1.1797919273376465
0.01081428778047827,0.02107525802847238,-0.08320167375096348, ,0.010818350729767735,0.021252754036326687,-0.08345023945545882, ,0.00030546071729833143, ,-0.00014283101824353434,0.0014273132800359527,-0.0031190461790760703,-0.005966676729527141,-0.013207036187281345,-0.0033519055197789994, ,0.0034330850508469068, ,0.014492309538222147, ,2.8794207362515446e-05, ,0.17219377489658388,-0.23633107141701845,0.09371658184000001,-4.477299673281564,0.4192007812803713,-1.1102637157830304, ,-0.010612555942043942,-0.008262980097079585,0.003244157132382892,0.0005574945757675975,-0.02646737699884245,0.009626024599845089, ,1.1964030265808105
0.010806530165258814,0.02110521251950563,-0.08327049968168977, ,0.010816885086350161,0.021286112156854026,-0.08352610951577082, ,0.00031331819363472597, ,-0.00019382371006547525,0.0017285601242639722,-0.004198264013426962,0.004371396102671028,-0.0002208561198974204,-0.002155529953926449, ,0.0045443270635172036, ,0.004376971556673629, ,2.9121074686840176e-05, ,0.17196209291035716,-0.23648552607450293,0.09378917408000001,-4.477299673281564,0.4192007812803713,-1.1105087520034522, ,-0.01213591098902391,-0.008471986257010402,0.004394154902068966,0.0005448243506339673,-0.013392812021049999,0.0015921969811519502, ,1.2141590118408203
0.010808347753640686,0.02114630486705206,-0.08338024629195791, ,0.010816098862001045,0.02131909021007067,-0.08360176591432641, ,0.00028104412026790283, ,0.00021396368274967462,0.0021946171911886797,-0.005921866828285996,0.0058211139443723635,0.0006423364497463142,-0.0015590847142610603, ,0.006319068903355204, ,0.005856445712659367, ,2.9364922558736645e-05, ,0.17170724272550775,-0.2366631489306101,0.0939032476,-4.477299673281564,0.4186542352813096,-1.1100630803886662, ,-0.01057702881113372,-0.008852968118129034,0.006227056888193902,0.0005327169941088498,-0.01075737147494435,0.0009883380786872807, ,1.2311761379241943
0.010809677033445125,0.02116667972779649,-0.08343463201838672, ,0.01081598892837786,0.02135168996140019,-0.08367720954374708, ,0.00030514338001289335, ,0.00022103476886236188,0.0019389959238303453,-0.005059388042394811,-0.02208408472566064,-0.022407665568625525,-0.0021710336059248183, ,0.005422727074563529, ,0.031461250310349624, ,2.9656673338511472e-05, ,0.1715991244652686,-0.23674809899222657,0.09396028436000001,-4.477299673281564,0.4185175987815441,-1.10995166248497, ,-0.01142923540388664,-0.008889682190333875,0.005241464797630801,0.0005269689207523069,-0.038841519129304794,0.024728492518766163, ,1.2473809719085693
0.010810550897454856,0.021207471913815515,-0.08353863190201903, ,0.010816552163650994,0.02138391317257321,-0.08375244129446606, ,0.00027727601642862, ,0.00017702775004889066,0.0019023978306837001,-0.004675697821168546,-0.004877686439284052,-0.008661951179012927,-0.0013241802534133093, ,0.0050510005390375584, ,0.00994088632833171, ,2.987840542868458e-05, ,0.17139833341053876,-0.23692572184833374,0.09407046901,-4.477299673281564,0.4185175987815441,-1.1100333412251104, ,-0.009373834152380288,-0.009110004848014061,0.004919336479308216,0.0005156222443518821,-0.020451721503309577,0.010554428517719204, ,1.2644269466400146
0.010810472329767593,0.02124564434724914,-0.08362590923036461, ,0.010817785452498173,0.021415761601630546,-0.08382746205473178, ,0.0002638501525728607, ,0.00011846517543207262,0.001916744905226367,-0.004444465966507446,-0.0020390667653520413,-0.00327447211893234,0.00014466644394979576, ,0.004841613652176757, ,0.003857455015555399, ,3.0064704371417515e-05, ,0.1712207105544316,-0.23711879017018936,0.09416380189000001,-4.477299673281564,0.4185175987815441,-1.1101150199652512, ,-0.00897146899601773,-0.009757381071513058,0.0047140608227286196,0.0005048294370102992,-0.014198980549896037,0.009492438474489405, ,1.2821590900421143
0.010810955351435808,0.021282438487732053,-0.08370363539876086, ,0.010819685686098889,0.021447237002926223,-0.08390227271060885, ,0.00025824707357824833, ,-0.0001363861783855158,0.0016967790374623607,-0.003729488605128857,0.008691344785106454,0.007496941494175832,0.0004903849281622519, ,0.004099603096326801, ,0.01147796171884084, ,3.0233962735221307e-05, ,0.17113576049281515,-0.23721918569755426,0.09420657946000001,-4.477299673281564,0.4183809622817786,-1.1100036020615547, ,-0.007130197284359398,-0.009854302230211564,0.004021411643524363,0.0004996689739824133,0.0,-0.0019222744231421232, ,1.2988741397857666
0.010812329905796818,0.021299385506359708,-0.08374454034400997, ,0.0108222497621289,0.02147834112713088,-0.08397687414598175, ,0.00029343229763253374, ,8.574339772853952e-05,0.00173900654953426,-0.004210757045240877,0.004033219117318974,0.0038776732956035957,0.000603312941855512, ,0.004556530544572566, ,0.0055949267476893645, ,3.0474367287198143e-05, ,0.17095041490383375,-0.23741225401940988,0.09428954202,-4.477299673281564,0.41797105278248237,-1.1097510270906061, ,-0.00795804860065221,-0.008180777497663551,0.004473128761583825,0.0004893448649111121,-0.0048336619903087885,0.0033504566050897165, ,1.3154280185699463
0.010815189634936447,0.021338251857124558,-0.0838339456062467, ,0.010825474584754654,0.02150907572123491,-0.08405126724255545, ,0.0002766139301450079, ,0.00016618049688714497,0.00203042629219827,-0.004724106814902311,0.005667429631135353,0.003973801983532764,0.000971795034301196, ,0.005144650822378729, ,0.006921767005275937, ,3.0673027724532504e-05, ,0.1708036829792235,-0.2376053223412655,0.09438546748000001,-4.477299673281564,0.41797105278248237,-1.1097510270906061, ,-0.008036948906416194,-0.010008917805329552,0.005048751670364502,0.00047992400336482476,-0.0048336619903087885,0.003524925293920589, ,1.3328981399536133
0.010816346984657816,0.021376152971642318,-0.08392515931911182, ,0.010829357064627773,0.021539442528551594,-0.08412545287985886, ,0.00025874746772322065, ,-1.565070021245047e-05,0.0017245202667014385,-0.0040647148099531355,0.0027909676268167115,0.004900552335386808,0.001099347687990309, ,0.00441544126684225, ,0.0056395844152069404, ,3.082932333410578e-05, ,0.17063378285599054,-0.23778294519737264,0.09448268923000001,-4.477299673281564,0.41797105278248237,-1.1098327058307467, ,-0.008813905013016337,-0.008409343503595821,0.004316751089430895,0.0004708665733469011,-0.0048336619903087885,0.004890229497553942, ,1.3503921031951904
0.010818570579050057,0.021410143536883693,-0.0840020145522595, ,0.010833894118879403,0.0215694432887204,-0.08419943193524612, ,0.00025413548534870784, ,0.0001925199884690576,0.0016683401977289304,-0.0037527252842578683,-0.0004974115689732619,-0.000975131736401145,0.0010002060329920518, ,0.004111370820106918, ,0.0010946686384515673, ,3.0972214956717507e-05, ,0.17047932819850606,-0.23796056805347982,0.0945643555,-4.477299673281564,0.4176977797829515,-1.1096098700233537, ,-0.006101286426420326,-0.008610395626418762,0.004016341785173979,0.00046172418898806863,-0.00852280585886144,0.007813931047916535, ,1.3702199459075928
0.01081839729566044,0.02142680782098039,-0.08403954318289447, ,0.0108390826711148,0.021599079737710032,-0.0842732052838994, ,0.00029103861513109735, ,5.4294633300091654e-05,0.001472997985570969,-0.0032707829352666253,-0.0005606770710189585,0.00024082440951503362,0.0008709635384362624, ,0.0035875746657502037, ,0.000610208816595787, ,3.1186919702413e-05, ,0.17040210086976382,-0.23804551811509628,0.09460454049000001,-4.477299673281564,0.4176977797829515,-1.1096098700233537, ,-0.006665296509699309,-0.007752015410032851,0.0034900989307624897,0.00045687336942362895,-0.00775290721083656,0.007144892055713959, ,1.3873670101165771
0.010817726481214745,0.021453910717994157,-0.08409737047008313, ,0.010844919651407704,0.02162835360782177,-0.08434677379883077, ,0.0003055680132261125, ,0.0001122531715748077,0.0014540192722477642,-0.0035201255779520853,-7.069094270860824e-05,0.0011178083662606408,0.0007452247622016186, ,0.00381025680278233, ,0.0011200411655691188, ,3.1425723119775164e-05, ,0.17027853714377622,-0.23819225003970657,0.09466676241000001,-4.477299673281564,0.4176977797829515,-1.1096098700233537, ,-0.006345866419184355,-0.0068114707480664005,0.0037374029845143137,0.0004495057271586441,-0.006342832141597114,0.005937120697418936, ,1.4039521217346191
0.010820138189803813,0.021475740712457198,-0.08415123105100755, ,0.010851401996294788,0.0216572666276927,-0.08442013835088497, ,0.00032594511719882157, ,0.0002524907649825006,0.0017350162217553663,-0.004464084361276724,0.006523027978090587,0.006170113872136896,0.0009953502202308246, ,0.00479604858823919, ,0.008978875064576836, ,3.1762682204804995e-05, ,0.1701858643492855,-0.23829264556707147,0.09472379917000001,-4.477299673281564,0.417561143283186,-1.1094984521196574, ,-0.005988303737070131,-0.00721295026816832,0.004753450170098478,0.0004440707748785754,0.0,0.0006924894826089526, ,1.4185409545898438
0.010830118044035365,0.021514608450395,-0.08425095424041595, ,0.01085852664877009,0.021685820522298605,-0.08449329980874037, ,0.00029808052079091863, ,0.0005125921777105434,0.0018730318340726086,-0.004929929747010329,0.002949470658848694,0.0006627049264495423,0.0029441400669858444, ,0.005298604184363724, ,0.0030230038165486145, ,3.2037913647032066e-05, ,0.1700854688219206,-0.23843937749168173,0.09483009495000001,-4.476880293394594,0.4174245067834206,-1.1093870342159609, ,-0.004223446671313564,-0.007558636982044176,0.005255299082810954,-0.0016836621528521843,-0.0037818659596786553,0.0036797257461954, ,1.4321620464324951
0.010836534235101336,0.021532925087808543,-0.08430115415170682, ,0.010866290558279531,0.021714017012957578,-0.08456625903891281, ,0.00032242879112103233, ,0.0006708950753644151,0.00189822785923579,-0.005374010020072677,-0.0035236957139254555,-0.004751316793256141,0.0026032093826313433, ,0.005738758829535237, ,0.005915356140757951, ,3.235540723389287e-05, ,0.17004685515754947,-0.23850888208754975,0.09488324284,-4.476880293394594,0.4172878702836551,-1.1092756163122646, ,-0.0038255167980155613,-0.0067105412581151234,0.005688861257142857,-0.0016836621528521843,-0.009650929411063434,0.008426658166072517, ,1.4463541507720947
0.01084263184453501,0.021552875640931383,-0.08435993281848937, ,0.010874690680715351,0.021741857817333,-0.08463901690575665, ,0.00033857046495602345, ,0.0007345579860554754,0.0018533338558599614,-0.005610302166578156,-0.004125025878599387,-0.004621408454935034,0.0024112222709641523, ,0.005953982886813346, ,0.006194614519749946, ,3.269803015789783e-05, ,0.17000051876030414,-0.23857066395054355,0.09494546476000001,-4.476880293394594,0.4172878702836551,-1.1092756163122646, ,-0.0035008361925844677,-0.005538527935140424,0.005914894734496844,-0.0016836621528521843,-0.00911366713797092,0.007952664414796593, ,1.4603431224822998
0.010855249110938867,0.021592492420246804,-0.08447616082972764, ,0.01088372397841048,0.021769344649436705,-0.08471157427146704, ,0.0002958158508237054, ,0.0006861287662048741,0.001746980188718497,-0.005365276466038654,-0.0030131769887258163,-0.0033071378753887774,0.0023514703483817666, ,0.005684092189665555, ,0.00447396826612675, ,3.2952014227061395e-05, ,0.16991556869868765,-0.23869422767653115,0.09506861231000001,-4.476880293394594,0.4172878702836551,-1.1092756163122646, ,-0.0034068126277390313,-0.004981939237846071,0.005652523605393897,-0.0016836621528521843,-0.007456169782700061,0.0065405570156742065, ,1.4747600555419922
0.010860506062851258,0.021609399364271354,-0.08452235374861242, ,0.01089338742013304,0.02179647921963222,-0.08478393199608274, ,0.0003232696018622516, ,0.0005754475381230027,0.0017868355894983005,-0.004773356196151687,-0.00043172278779661684,-0.0027790428298839673,0.002707635032463678, ,0.005129215404754344, ,0.0028123764217704125, ,3.325336314479323e-05, ,0.16988467776719077,-0.23875600953952494,0.09511787133,-4.476880293394594,0.4172878702836551,-1.1092756163122646, ,-0.0034551312225300046,-0.007024212671527531,0.005080960612440192,-0.0016836621528521843,-0.006891102323873404,0.006056511329991539, ,1.4883861541748047
0.010873826418034235,0.02164660076967065,-0.08462072167100139, ,0.010903677981080795,0.02182326323463805,-0.08485609093748787, ,0.0002958030323561057, ,0.000786759149580952,0.0018946636388770268,-0.005269945230447502,0.005906795371022113,0.0009808767396886934,0.0028501565711534535, ,0.0056551801912802435, ,0.005987682913187016, ,3.349731082206656e-05, ,0.1698306186370712,-0.2389027414641352,0.09522287082000001,-4.476880293394594,0.4171512337838897,-1.109164198408568, ,-0.001335419517599268,-0.006653737069816547,0.005634528305624337,-0.0016836621528521843,0.0,0.0003939132789407626, ,1.5024731159210205
0.010883039156793343,0.021666456532543146,-0.0846795969087997, ,0.01091459264287565,0.021849698397530693,-0.08492805195141395, ,0.0003103274267100987, ,0.0009028748565952414,0.002048190389185342,-0.006139749641601895,-0.0025040511788085645,-0.004871329548600427,0.0024973218654280377, ,0.006535043422852956, ,0.005477236086969755, ,3.376380498736463e-05, ,0.16980745043844853,-0.238964523327129,0.09528509274000001,-4.476880293394594,0.41701459728412427,-1.1090527805048715, ,-0.0024929509465162142,-0.0061512671087486665,0.006496252659053834,-0.0016836621528521843,-0.00820629699272557,0.00706632864478037, ,1.516706943511963
0.01089188892563687,0.021688345105016445,-0.08474291329223489, ,0.010926128393557936,0.0218757864077481,-0.08499981589144275, ,0.0003198523543965385, ,0.0009479801395743312,0.0021595834511881577,-0.006579026047814934,-0.002222498899939287,-0.004340018238862281,0.0025043272240539228, ,0.006988994975352359, ,0.004875986807641068, ,3.404297934865801e-05, ,0.16978428223982583,-0.23903402792299702,0.09535249982,-4.476880293394594,0.41701459728412427,-1.1090527805048715, ,-0.002814631034976342,-0.006177236780835186,0.00695277674378001,-0.0016836621528521843,-0.007958362813258643,0.006847223676674782, ,1.5306849479675293
0.010906242382528481,0.021726176674483046,-0.08485398325402774, ,0.010938282227581057,0.021901528961092584,-0.08507138360900765, ,0.000281136782430864, ,0.0007022668247052472,0.001950567242304381,-0.005538381916390785,-0.0005850567942080003,-0.002705316956064214,0.002602165358112262, ,0.005913676141930412, ,0.0027678558622689013, ,3.4246132985448436e-05, ,0.16973022310970629,-0.2391498689161104,0.09547046221000001,-4.476880293394594,0.41701459728412427,-1.1090527805048715, ,-0.0034758847924876977,-0.006691522582107058,0.00587345557522124,-0.0016660029027623737,-0.006819341945946504,0.005890912895166204, ,1.5452589988708496
0.010914582207186925,0.02174971801162659,-0.08491828847819664, ,0.01095105114580583,0.021926927749734124,-0.0851427559533967, ,0.00028830352440928716, ,0.0006981254939658,0.0017330824942674377,-0.004637393517282508,7.4397273981829004e-06,-0.003975709081177156,0.0025932173082624044, ,0.004999637263981764, ,0.003975715772409096, ,3.4458606414635454e-05, ,0.16969933217820937,-0.23922709624485264,0.09553527671,-4.476880293394594,0.41701459728412427,-1.1090527805048715, ,-0.0016827310646460427,-0.006715147535051314,0.005037574800759013,-0.0016458290106547313,-0.00624463398534977,0.0054065604659204085, ,1.5598249435424805
0.010928248309169691,0.02178074036591683,-0.0849993283908711, ,0.010964432155494933,0.02195198446221378,-0.08521393377175417, ,0.0002769282953318663, ,0.0006096110473527539,0.0015090514837424393,-0.00396051701871661,0.005275012917602222,0.0004278876466043404,0.0026228441715167544, ,0.0042818870915968445, ,0.005292338627160702, ,3.464679933416547e-05, ,0.16968388671246093,-0.23935838270371446,0.09562601701000001,-4.476880293394594,0.4168779607843588,-1.1089413626011753, ,-0.0007776886712768526,-0.0059000384844738575,0.004257902036888533,-0.0016115561349490468,0.0,0.0002900132883727111, ,1.5743610858917236
0.010935251670021993,0.021796482141340726,-0.08504020359421852, ,0.010978422270307353,0.021976700783446455,-0.08528491790908307, ,0.000306965072265659, ,0.0007468157712011583,0.0017302800795825084,-0.004657093505904644,0.005802550967406445,0.0002246800089227056,0.0026931693098789376, ,0.005023954903525114, ,0.005806899055873103, ,3.494747411082439e-05, ,0.16968388671246093,-0.23942016456670825,0.09567009087000002,-4.476880293394594,0.4168779607843588,-1.1089413626011753, ,-0.0005720166995469981,-0.006422757515820573,0.0049996269679849345,-0.0015959118725770145,0.0,0.0002797577298777943, ,1.5851550102233887
0.010943908430735758,0.02181627344458496,-0.08509464894558352, ,0.010993018510292874,0.022001078394724444,-0.085355709208247, ,0.00032360026305936423, ,0.0009503194424512892,0.0020346222162927665,-0.005554851107917392,0.006676473306016089,-0.0003447231547924041,0.0028221685478581, ,0.005991591227450692, ,0.006685366449981252, ,3.527337901617202e-05, ,0.1696761639795867,-0.23948966916257627,0.09572842392000001,-4.476880293394594,0.4168779607843588,-1.1089413626011753, ,0.0,-0.007296827347573342,0.005963613448146762,-0.0015796191168583962,0.0,0.00026955351435849667, ,1.5960350036621094
0.010953915792028797,0.02183631267044857,-0.0851502040702124, ,0.011008217901886505,0.02202511897372056,-0.08542630850997317, ,0.0003388660516278394, ,0.0009532736897109818,0.0021318274954206995,-0.005844079679616304,0.0072430898843692535,0.0007404513115659157,0.0007217455697042733, ,0.006293384343851175, ,0.007280838715494972, ,3.5621570099909965e-05, ,0.16968388671246093,-0.23956689649131852,0.09578805326,-4.47708998333808,0.4168779607843588,-1.1089413626011753, ,-0.0005582833496532161,-0.007492547809900299,0.006266251581431944,0.0006458680367499759,0.0,0.0002604716322491303, ,1.607469081878662
0.010965242340252111,0.021858135784743726,-0.08521369024931978, ,0.011024017477902876,0.022048824194491282,-0.08549671665285334, ,0.0003462954396394206, ,0.0010502221283543874,0.002111115978800885,-0.006230035318609954,0.004639189368350852,-0.0006865165307322811,0.0004590071296521148, ,0.006661314980239342, ,0.004689709325426632, ,3.5977879818860634e-05, ,0.1696761639795867,-0.23963640108718653,0.09585546034,-4.47708998333808,0.4167413242845934,-1.1088299446974788, ,-0.0003362903653099495,-0.006224523350103805,0.006639771371404753,0.0006458680367499759,-0.0014096535779265782,0.0014010174533767177, ,1.6186261177062988
0.010976403194492184,0.021881143320057285,-0.08527776692445574, ,0.01104041427753077,0.022072195727479794,-0.0855669344733471, ,0.00035244334646229876, ,0.0010756582349156015,0.00221502951774716,-0.006355990686260432,0.005427165245155782,-0.0007185097703741447,0.000538255022424928, ,0.006816305011269838, ,0.0054745199346669755, ,3.633991424106003e-05, ,0.1696761639795867,-0.23970590568305455,0.09592416371000001,-4.476880293394594,0.4167413242845934,-1.1088299446974788, ,-0.0002923161174269341,-0.007007521416553223,0.006789774731457802,0.0006987109833338557,-0.0014096535779265782,0.0013928427574612682, ,1.6300790309906006
0.010988201648464768,0.021905083525589685,-0.08534556419844577, ,0.011057405346327515,0.022095235239519662,-0.08563696280578374, ,0.00035476749353188287, ,0.0011737812540284739,0.002338145656147073,-0.006884169965272324,0.005934989373710667,0.00038786954897986926,-0.004135375240382165, ,0.007364542324708687, ,0.005947648795226583, ,3.670096223514218e-05, ,0.1696761639795867,-0.23977541027892257,0.09599675595000001,-4.47667060345111,0.4167413242845934,-1.1088299446974788, ,-0.0002528891150062651,-0.006712104350582881,0.0073404661382488485,0.005525609324094953,-0.0014096535779265782,0.0013850234117454845, ,1.6417500972747803
0.011012425550596465,0.021950252803806358,-0.08547907768134613, ,0.01107498773621342,0.022117944393837425,-0.08570680248236426, ,0.00028964302414362137, ,0.001176587319347034,0.0021449722789758626,-0.0062454505148178754,0.005478583293020169,-0.0009704212247154937,-0.0039269701519810555, ,0.006707526811773622, ,0.005563864012523509, ,3.694554986391453e-05, ,0.16969160944533515,-0.2399066967377844,0.09613934785000001,-4.47667060345111,0.4167413242845934,-1.1088299446974788, ,0.0010340051037415008,-0.006285304272608412,0.006678746968553461,0.005228687238522465,-0.0014096535779265782,0.0013714515451930603, ,1.6527440547943115
0.011023064126404317,0.0219703614955699,-0.08553722654272214, ,0.011093158505466234,0.022140324850056084,-0.08577645433316365, ,0.00030171294232067786, ,0.0011109310316226504,0.0019512959506367321,-0.005455222489967084,0.0054550606232978294,-0.001815916732659805,-0.003740885531035787, ,0.00589925216099771, ,0.005749368239426564, ,3.720733684157613e-05, ,0.16969933217820937,-0.2399684786007782,0.09620156977000001,-4.47667060345111,0.4167413242845934,-1.1088299446974788, ,0.001832501186334821,-0.006287625511308882,0.005862646860507914,0.0050327918389947756,-0.0014096535779265782,0.0013648330134145225, ,1.6648120880126953
0.01103240424670465,0.021989553048737877,-0.08559173521376993, ,0.01111191471871567,0.022162378264198607,-0.08584591918613321, ,0.00031749009758548215, ,0.0011206132652006053,0.0018995684821320926,-0.0057660147413968466,0.004415946606737654,-0.0013820898747157052,-0.003918489741869801, ,0.006173415627224441, ,0.0046271752162457, ,3.74922367574869e-05, ,0.16969933217820937,-0.240030260463772,0.09625990282,-4.47667060345111,0.4167413242845934,-1.1087482659573382, ,0.0013368852938068132,-0.004893520097039315,0.00615012027799228,0.004865072353659127,-0.0013887921624176308,0.0009880021933929939, ,1.6763949394226074
0.011043077336542261,0.022009268265558733,-0.08565402305635808, ,0.011131253446937661,0.022184106288690452,-0.08591519786710287, ,0.0003264286178395638, ,0.0011287740786903935,0.0019534670612054135,-0.005970462167316216,0.004490991404992545,-0.0010665867778426358,-0.0037459966724466462, ,0.00638252167809026, ,0.004615907664578604, ,3.77883100306574e-05, ,0.16969933217820937,-0.24007659686101734,0.09632601361000001,-4.47667060345111,0.4167413242845934,-1.1087482659573382, ,0.001036757117378274,-0.004935394438018698,0.006361346453674121,0.004694884844741824,-0.0013237958030213972,0.0009362150688884765, ,1.6875410079956055
0.011054596036524377,0.022029964558407264,-0.08571729723599898, ,0.011151171767449024,0.02220551057236333,-0.08598429119978303, ,0.00033380990326323457, ,0.0010920136165509671,0.0019592965115627315,-0.006288931236878812,0.003762022433704384,-1.6202946350307788e-05,-0.003725617314632548, ,0.0066769748135772295, ,0.0037620560189445796, ,3.809273780255841e-05, ,0.1697070549110836,-0.2401306559911369,0.09639342069000001,-4.47667060345111,0.4167413242845934,-1.1087482659573382, ,0.0,-0.0041652045294146185,0.0066647746945606694,0.004540144847518803,-0.0012651737063516337,0.0008896407786528374, ,1.698655128479004
0.011066410016692917,0.02204871641018059,-0.08577833751991829, ,0.011171666763901779,0.022226592760458113,-0.08605320000576655, ,0.0003439016791871334, ,0.001056114628105478,0.0018216172799048085,-0.005764207260480228,0.0036907503445143875,-0.0006257794820504879,-0.003606198011215053, ,0.006136754269474959, ,0.0037434251297656165, ,3.84098416568248e-05, ,0.16972250037683204,-0.24016926965550803,0.09645823519,-4.47667060345111,0.4167413242845934,-1.1087482659573382, ,0.0006213696353228914,-0.0040658483360528205,0.006121756925441969,0.004400112333180539,-0.0012127020931681457,0.0008480733226538629, ,1.711475133895874
0.011078185457055004,0.022066968949356322,-0.08583412011491193, ,0.01119273552627756,0.022247354494628155,-0.08612192510453197, ,0.0003584583314028298, ,0.0013087256831774876,0.0018571001392689423,-0.006103397442714014,0.0025912228260829735,-0.0038955349250387053,0.0005359810214967954, ,0.006512529783794395, ,0.0046786343752317616, ,3.881054809246295e-05, ,0.16974566857545473,-0.24020788331987916,0.09651786453000001,-4.476460913507625,0.4167413242845934,-1.1087482659573382, ,0.0028841448289772887,-0.003638858605370892,0.006488314264765784,0.0,-0.001166617455085216,0.000811669289372652, ,1.7203891277313232
0.011088330226643153,0.022082594483169727,-0.08588539746398735, ,0.011214375150882167,0.022267797412942464,-0.08619046731344457, ,0.00037849050340883544, ,0.0011862513527831364,0.0017831222680002772,-0.005971911076131168,0.0022130093839266163,-0.002724974063804822,0.0004665435732075263, ,0.006344323383611242, ,0.00351039692714032, ,3.924015277956368e-05, ,0.16976111404120317,-0.24023877425137605,0.09657230871000001,-4.476460913507625,0.4167413242845934,-1.1087482659573382, ,0.00174648347374018,-0.0032184735498380756,0.006328490870083433,0.0,-0.0011282114573174763,0.0007814119527297579, ,1.729490041732788
0.011105125519454483,0.02210652594723734,-0.08596784805372824, ,0.011236582740339925,0.02228792314988881,-0.08625882744775937, ,0.00036722602549849737, ,0.001287141207305489,0.001974551203526018,-0.006866456236968774,0.005283808995203966,0.001905638555060746,-0.008037333826281664, ,0.007259738714106539, ,0.005616945837064012, ,3.964717654328278e-05, ,0.1697765595069516,-0.24026966518287293,0.09665916014,-4.476251223564142,0.4166046877848279,-1.1086368480536417, ,0.0012848070665978204,-0.002489407284303099,0.007256861740318907,0.008838939368590667,0.0012916895078283152,-0.0011902105961934407, ,1.7377090454101562
0.011121070445186043,0.022128637763222964,-0.0860450106173472, ,0.011259355403588207,0.022307733336377002,-0.08632700632062283, ,0.0003615515602366783, ,0.001614447864644722,0.0022884253808877664,-0.0079936146316918,0.005583491851303686,0.00037807493389016046,-0.007983805709307136, ,0.00847001815296428, ,0.005596274588668293, ,4.004102399556659e-05, ,0.16980745043844853,-0.24030055611436985,0.09674082641000001,-4.476251223564142,0.4166046877848279,-1.1086368480536417, ,0.0028042496755253925,-0.0028043288875046436,0.008459273244822095,0.008838939368590667,0.0012816813112015847,-0.0011807245055682235, ,1.746669054031372
0.011137474466618705,0.022150701479043015,-0.086124821451419, ,0.011282690255871825,0.022327229599742156,-0.08639500474307546, ,0.0003539050917072182, ,0.001908214052304793,0.002578944314117003,-0.009215097179183012,0.0053563120877582245,-0.0006381140385939498,-0.007865725138910406, ,0.009757574015425997, ,0.005394182260269841, ,4.041870092564821e-05, ,0.1698383413699454,-0.2403237243129925,0.09682508526000001,-4.476251223564142,0.4166046877848279,-1.1086368480536417, ,0.003754456490418057,-0.002634480616362114,0.00974239236697248,0.008684992707833034,0.0012469107796055235,-0.0011512094063479156, ,1.7552189826965332
0.011159868841059404,0.022180228507920785,-0.08623158913005441, ,0.011306584418737388,0.022346413563747773,-0.08646282352405316, ,0.00032033151340692584, ,0.001908214052304793,0.002578944314117003,-0.009215097179183012,0.0053563120877582245,-0.0006381140385939498,-0.007865725138910406, ,0.009757574015425997, ,0.005394182260269841, ,4.073875785592149e-05, ,0.16988467776719077,-0.2403468925116152,0.09693008475,-4.476251223564142,0.4166046877848279,-1.1086368480536417, ,0.00491869300753826,-0.0021055887837121965,0.010521011571994717,0.008145013727991363,0.0012089622154575772,-0.0011189438752635204, ,1.7636890411376953
0.011159868841059404,0.022180228507920785,-0.08623158913005441, ,0.011331035020027918,0.02236528684858882,-0.08653046347039074, ,0.00039098634449935164, ,0.002143640816685781,0.0027266585895132514,-0.009985271528535814,0.004736217389961999,-0.0019731322400201117,-0.007399952192840276, ,0.010570501904513127, ,0.005130780324262843, ,4.116878996941203e-05, ,0.16988467776719077,-0.2403468925116152,0.09693008475,-4.476251223564142,0.4166046877848279,-1.1086368480536417, ,0.00491869300753826,-0.0021055887837121965,0.010521011571994717,0.008145013727991363,0.0012089622154575772,-0.0011189438752635204, ,1.772407054901123
0.011179590700898866,0.022203481109850133,-0.08631875079115994, ,0.011356039193877218,0.022383851070895317,-0.08659792538682326, ,0.00037630552531892146, ,0.002103913310284168,0.0024761195810470474,-0.00902785487064049,0.004475064045983543,-0.003500258315835038,-0.0070305738695296775, ,0.0095947789428513, ,0.005681368367283898, ,4.157133639522522e-05, ,0.16993873689731034,-0.24037006071023787,0.09702989908000001,-4.476251223564142,0.4166046877848279,-1.1086368480536417, ,0.006320161687077122,-0.0019777500817901154,0.009561111356542617,0.0076954764832085,0.001174781431968029,-0.0010898300788211375, ,1.780574083328247
0.011200259482324679,0.02222544694033637,-0.08640342433599435, ,0.011381594080704266,0.022402107843735166,-0.08666521007598806, ,0.00036417452550009145, ,0.0020727928040929354,0.0022147734122078535,-0.008223072433339354,0.0037011448502577934,-0.0048242124754473,-0.006758087399970127, ,0.00876473681978346, ,0.006080416236767509, ,4.195083008193587e-05, ,0.17000824149317836,-0.2403777834431121,0.09711934309,-4.476251223564142,0.4166046877848279,-1.1086368480536417, ,0.007519224784973092,-0.0012936230775025558,0.0087185613136289,0.007289456231469615,0.0011414698962576336,-0.0010614052095111993, ,1.7898240089416504
0.011222696205659976,0.02224993717522082,-0.08649078702874322, ,0.011407696827207735,0.022420058776617395,-0.08673231833842772, ,0.0003485741854938534, ,0.0021038004215746353,0.0020362516113666797,-0.007833087404232658,0.001674501809285277,-0.007225373209775619,-0.004273090740502842, ,0.00836238931890637, ,0.007416868937800895, ,4.2302126131223e-05, ,0.17010091428766905,-0.2403855061759863,0.09721267597000001,-4.475831843677173,0.4167413242845934,-1.1087482659573382, ,0.008561792899355394,-0.0005046722855976216,0.008300579218342888,0.004525723413987505,0.00032046725032836075,-0.00039055786008087705, ,1.7981159687042236
0.01124332480888107,0.02227156930305543,-0.08656207040881779, ,0.011434344586360315,0.022437705475495607,-0.08679925097259121, ,0.00034690690828112676, ,0.001992618834809868,0.0019317124617436862,-0.006620941763769334,0.004799233307928412,-0.006193773358624405,-0.012132228784986012, ,0.007179060711187771, ,0.007835525256079653, ,4.264749587986894e-05, ,0.17019358708215973,-0.24041639710748322,0.09728915708000001,-4.4756221537336875,0.4167413242845934,-1.1087482659573382, ,0.00955922534384313,-0.0022537511093832403,0.0070952389844098004,0.013046296344549893,0.00032046725032836075,-0.00038930341232985615, ,1.8077340126037598
0.01126375029955409,0.022288293694403993,-0.08662520585391865, ,0.01146153451740331,0.02245504954277082,-0.08686600877483722, ,0.00035342913931604307, ,0.001956882285048699,0.0018343838379958834,-0.006066414089319558,0.005087738799655536,-0.006836966109800262,-0.012024608208093828, ,0.006632927878827929, ,0.008522275720960976, ,4.299981877311337e-05, ,0.17030170534239888,-0.24042411984035744,0.09735656416,-4.4756221537336875,0.4167413242845934,-1.1088299446974788, ,0.010216842083492916,-0.002668707332368405,0.006533556817063167,0.013046296344549893,0.00032046725032836075,-0.00026131955441069746, ,1.8159611225128174
0.01126375029955409,0.022288293694403993,-0.08662520585391865, ,0.011489263785841019,0.022472092577295072,-0.08693259253943592, ,0.0004232315398013017, ,0.0021910279765196836,0.0018538019507420797,-0.006852320313494176,0.00018184335400077433,-0.013870744068253232,0.010708550794768231, ,0.007429096778558751, ,0.013871935441928312, ,4.3457411437937574e-05, ,0.17040982360263804,-0.24042411984035744,0.09742526753000001,-4.475412463790203,0.4167413242845934,-1.1088299446974788, ,0.011553894643666235,-0.0016877605398337658,0.007323591503448277,-0.010877386518378862,0.00032046725032836075,-0.00026131955441069746, ,1.8246941566467285
0.011284580563442727,0.022305382440142036,-0.0866895412352145, ,0.011517529563435111,0.022488836174374006,-0.08699900305857029, ,0.0004285873648578559, ,0.0021910279765196836,0.0018538019507420797,-0.006852320313494176,0.00018184335400077433,-0.013870744068253232,0.010708550794768231, ,0.007429096778558751, ,0.013871935441928312, ,4.3987136309227466e-05, ,0.17040982360263804,-0.24042411984035744,0.09742526753000001,-4.475412463790203,0.4167413242845934,-1.1088299446974788, ,0.011553894643666235,-0.0016877605398337658,0.007323591503448277,-0.010877386518378862,0.00032046725032836075,-0.00026131955441069746, ,1.8301451206207275
0.011306985598378977,0.02232396043457424,-0.08676002657470686, ,0.011546329028199118,0.022505281925770847,-0.08706524112234003, ,0.00042815730830473035, ,0.002439046878469214,0.0019007007754399895,-0.007656106749585756,-0.0014826737983796867,-0.015087344031607011,0.010422134384947226, ,0.008256971822295456, ,0.015160021280175458, ,4.4512921526671476e-05, ,0.1705256645957514,-0.24043184257323166,0.09750045235000002,-4.475412463790203,0.4167413242845934,-1.1088299446974788, ,0.012770413343893255,0.0,0.008139402922841084,-0.010877386518378862,0.00032046725032836075,-0.00026131955441069746, ,1.8355519771575928
0.011306985598378977,0.02232396043457424,-0.08676002657470686, ,0.011575659364392938,0.02252143141970903,-0.08713130751876214, ,0.0004990289790511252, ,0.002439046878469214,0.0019007007754399895,-0.007656106749585756,-0.0014826737983796867,-0.015087344031607011,0.010422134384947226, ,0.008256971822295456, ,0.015160021280175458, ,4.514466749893309e-05, ,0.1705256645957514,-0.24043184257323166,0.09750045235000002,-4.475412463790203,0.4167413242845934,-1.1088299446974788, ,0.012770413343893255,0.0,0.008139402922841084,-0.010877386518378862,0.00032046725032836075,-0.00026131955441069746, ,1.841068983078003
0.011335083086434841,0.022346861210001744,-0.08684752747402104, ,0.011605517762517153,0.022537286240875434,-0.08719720303377382, ,0.0004813206867561484, ,0.003106442381630204,0.002501450604640611,-0.009956286213485635,-0.0012751226696063067,-0.01811210874805099,0.010457934167283113, ,0.01072543120637531, ,0.0181569359554533, ,4.574533009764012e-05, ,0.17067239652036167,-0.24043956530610588,0.09759378523000001,-4.475412463790203,0.4167413242845934,-1.1087482659573382, ,0.015795096797348664,-0.0002121599835432679,0.010583927920265782,-0.010877386518378862,0.00032046725032836075,-0.00026131955441069746, ,1.8479759693145752
0.011335083086434841,0.022346861210001744,-0.08684752747402104, ,0.011635901419307504,0.022552847970423857,-0.08726292845123511, ,0.000552702620522003, ,0.003106442381630204,0.002501450604640611,-0.009956286213485635,-0.0012751226696063067,-0.01811210874805099,0.010457934167283113, ,0.01072543120637531, ,0.0181569359554533, ,4.645162712723695e-05, ,0.17085001937646882,-0.24043956530610588,0.09771563649000001,-4.4756221537336875,0.4168779607843588,-1.1088596838610345, ,0.018509253278422233,-0.00018994992682493198,0.01361436882051282,0.015576119872624904,0.0021005060137606127,-0.0017128218093751865, ,1.854572057723999
0.011369299354649837,0.022375287947651198,-0.08696198608610886, ,0.011666807537729485,0.02256811818597807,-0.08732848455292996, ,0.0005099173913437071, ,0.003849874247567781,0.003315002147087863,-0.012794707205595682,0.004791829998901685,-0.013008532229608325,-0.014803663198800538, ,0.0137664557324754, ,0.013863015639446873, ,4.708828993195333e-05, ,0.17085001937646882,-0.24043956530610588,0.09771563649000001,-4.4756221537336875,0.4168779607843588,-1.1088596838610345, ,0.018509253278422233,-0.00018994992682493198,0.01361436882051282,0.015576119872624904,0.0021005060137606127,-0.0017128218093751865, ,1.8625819683074951
0.01140788813175275,0.022408378110725984,-0.08708997278344713, ,0.01169823332697251,0.022583098461634935,-0.0873938721185698, ,0.0004551728674876742, ,0.0040605786627601744,0.0034393152683792165,-0.013366705795909626,0.004168417539931561,-0.014455863048770532,-0.01369046206695805, ,0.014387008459932647, ,0.015044841460537323, ,4.763775155695145e-05, ,0.17103536496545022,-0.2404472880389801,0.09785174694000001,-4.4756221537336875,0.4168779607843588,-1.108778005120894, ,0.01972089392320673,0.0,0.014222153142857146,0.014460249633107172,0.0021005060137606127,-0.0014453446467253708, ,1.8681330680847168
0.01140788813175275,0.022408378110725984,-0.08708997278344713, ,0.011730176002444574,0.022597790367967583,-0.08745909192579394, ,0.0005253526587305677, ,0.0040605786627601744,0.0034393152683792165,-0.013366705795909626,0.004168417539931561,-0.014455863048770532,-0.01369046206695805, ,0.014387008459932647, ,0.015044841460537323, ,4.8290372430421355e-05, ,0.17103536496545022,-0.2404472880389801,0.09785174694000001,-4.4756221537336875,0.4168779607843588,-1.108778005120894, ,0.01972089392320673,0.0,0.014222153142857146,0.014460249633107172,0.0021005060137606127,-0.0014453446467253708, ,1.8736319541931152
0.011450389019331379,0.02244382119117281,-0.08722579709784482, ,0.011762632785766614,0.02261219547202886,-0.0875241447501742, ,0.0004635271187124904, ,0.004142192750453701,0.003234967831761462,-0.012631731113026878,0.0029977014729413816,-0.018560403339795566,-0.006310665546409851, ,0.013681498769003852, ,0.018800916590900878, ,4.884551066620297e-05, ,0.17125932421880272,-0.2404472880389801,0.09799693142000002,-4.475412463790203,0.41701459728412427,-1.1088894230245905, ,0.02207932563017003,0.0,0.01347615187817259,0.006753577644636423,0.0022054190057267317,-0.0015308941569620277, ,1.8791790008544922
0.011494588217847868,0.02247738515700625,-0.08735156477524753, ,0.01179560090476691,0.02262631533735429,-0.08758903136521463, ,0.00041131401344389923, ,0.00421151810000699,0.0029942513768925457,-0.011826586059205831,0.003722519884611821,-0.018442667566795277,-0.015667087089758107, ,0.012906221903814885, ,0.018814593003995985, ,4.9318546853399794e-05, ,0.1715064516707779,-0.2404472880389801,0.09813174558000001,-4.474993083903234,0.41701459728412427,-1.1088894230245905, ,0.024251710083943466,0.0008851053833836864,0.012651955138999207,0.016373462244721023,0.0022054190057267317,-0.0015308941569620277, ,1.8850960731506348
0.011494588217847868,0.02247738515700625,-0.08735156477524753, ,0.01182907759347564,0.022640151523965212,-0.08765375254235483, ,0.00047926347577316404, ,0.00421151810000699,0.0029942513768925457,-0.011826586059205831,0.003722519884611821,-0.018442667566795277,-0.015667087089758107, ,0.012906221903814885, ,0.018814593003995985, ,4.989091735274771e-05, ,0.1715064516707779,-0.2404472880389801,0.09813174558000001,-4.474993083903234,0.41701459728412427,-1.1088894230245905, ,0.024251710083943466,0.0008851053833836864,0.012651955138999207,0.016373462244721023,0.0022054190057267317,-0.0015308941569620277, ,1.89056396484375
0.0115350034363851,0.022506233899364476,-0.08746372946420916, ,0.011863060092119147,0.022653705588372212,-0.0877183090509729, ,0.00044065841013987006, ,0.0042396614058395465,0.002746319549628562,-0.010757769501188622,0.005868688480395983,-0.018692706223082133,-0.01541810755892514, ,0.011884721475303554, ,0.019592310388004436, ,5.0401976686232535e-05, ,0.17174585638987888,-0.2404472880389801,0.09824711539000001,-4.474993083903234,0.4171512337838897,-1.1089191621881462, ,0.02667142820642799,0.0008269404868576962,0.011567764357298475,0.016373462244721023,0.004851898811278228,-0.0031817086160680517, ,1.8961069583892822
0.0115350034363851,0.022506233899364476,-0.08746372946420916, ,0.011897545647114557,0.022666979083578304,-0.0877827016583862, ,0.0005089392198157384, ,0.0042396614058395465,0.002746319549628562,-0.010757769501188622,0.005868688480395983,-0.018692706223082133,-0.01541810755892514, ,0.011884721475303554, ,0.019592310388004436, ,5.101204434907748e-05, ,0.17174585638987888,-0.2404472880389801,0.09824711539000001,-4.474993083903234,0.4171512337838897,-1.1089191621881462, ,0.02667142820642799,0.0008269404868576962,0.011567764357298475,0.016373462244721023,0.004851898811278228,-0.0031817086160680517, ,1.9019510746002197
0.011577592875132579,0.022532304295062876,-0.08756417921305239, ,0.011932531511064059,0.022679973559081724,-0.08784693112985426, ,0.00047721723907241523, ,0.004597431276810728,0.0026421076195824677,-0.010215799175996796,0.008217735028384764,-0.02156497559870465,-0.01518631048619707, ,0.01150998087847022, ,0.023077678182686807, ,5.1571199565730625e-05, ,0.17204704297197362,-0.2404472880389801,0.09836118891000001,-4.474993083903234,0.4172878702836551,-1.1089489013517022, ,0.03203813016828858,0.0007065080637549572,0.011084767933194156,0.016373462244721023,0.0075565376537423574,-0.00498099760292194, ,1.9075660705566406
0.011577592875132579,0.022532304295062876,-0.08756417921305239, ,0.011968014942749503,0.02269269056087966,-0.08791099822858102, ,0.0005462934876759702, ,0.004597431276810728,0.0026421076195824677,-0.010215799175996796,0.008217735028384764,-0.02156497559870465,-0.01518631048619707, ,0.01150998087847022, ,0.023077678182686807, ,5.2229670722557536e-05, ,0.17204704297197362,-0.2404472880389801,0.09836118891000001,-4.474993083903234,0.4172878702836551,-1.1089489013517022, ,0.03203813016828858,0.0007065080637549572,0.011084767933194156,0.016373462244721023,0.0075565376537423574,-0.00498099760292194, ,1.9130799770355225
0.011619937411057461,0.022558214991862065,-0.08766778470534005, ,0.012003993207126697,0.022705131631471098,-0.08797490371571678, ,0.0005132303966282302, ,0.004439447191391156,0.0028242889870360964,-0.010853762632754053,0.03554778414693636,0.004639351320771839,-0.013471984861351068, ,0.0120619012985355, ,0.03584924528924079, ,5.283525747097697e-05, ,0.17235595228694262,-0.24043184257323166,0.09847396614000001,-4.474993083903234,0.4176977797829515,-1.1090381188423697, ,0.03172749634184914,0.0009784345130711167,0.011825398307349667,0.016144741113010678,0.03776990941139576,-0.027922949120277398, ,1.918673038482666
0.011619937411057461,0.022558214991862065,-0.08766778470534005, ,0.012040463575319902,0.022717298309860245,-0.08803864835036079, ,0.0005828289629837082, ,0.004439447191391156,0.0028242889870360964,-0.010853762632754053,0.03554778414693636,0.004639351320771839,-0.013471984861351068, ,0.0120619012985355, ,0.03584924528924079, ,5.3540070540462576e-05, ,0.17235595228694262,-0.24043184257323166,0.09847396614000001,-4.474993083903234,0.4176977797829515,-1.1090381188423697, ,0.03172749634184914,0.0009784345130711167,0.011825398307349667,0.016144741113010678,0.03776990941139576,-0.027922949120277398, ,1.9241790771484375
0.01167377636851038,0.02258858662135805,-0.08778718811555022, ,0.012077423324616301,0.022729192131559384,-0.08810223288956279, ,0.0005309933938432562, ,0.004844631142213753,0.0028884399244545615,-0.011096225363511144,0.016382963534338404,-0.007304941530645063,-0.004634768410674012, ,0.012447479801916468, ,0.017937767328017797, ,5.416439050034819e-05, ,0.1727343661977796,-0.24041639710748322,0.09860359514000001,-4.47478339395975,0.4178344162827169,-1.1089045005256444, ,0.034850143796720814,0.0006000451442547474,0.012094769567198179,0.009461009504792641,0.02804552854188235,-0.010516038926213729, ,1.930690050125122
0.01167377636851038,0.02258858662135805,-0.08778718811555022, ,0.012114869738460404,0.02274081462859256,-0.08816565808832579, ,0.0006008129887853566, ,0.004844631142213753,0.0028884399244545615,-0.011096225363511144,0.016382963534338404,-0.007304941530645063,-0.004634768410674012, ,0.012447479801916468, ,0.017937767328017797, ,5.4968285497826145e-05, ,0.1727343661977796,-0.24041639710748322,0.09860359514000001,-4.47478339395975,0.4178344162827169,-1.1089045005256444, ,0.034850143796720814,0.0006000451442547474,0.012094769567198179,0.009461009504792641,0.02804552854188235,-0.010516038926213729, ,1.9334900379180908
0.011727085419459937,0.022617102893009215,-0.08789903224200331, ,0.012152800106448447,0.02275216732949822,-0.088228924699608, ,0.0005552516819481765, ,0.0054102009568862235,0.0027427503015641105,-0.010614560403756312,-0.019794747782537214,-0.025752114249957946,-0.008157498172273146, ,0.012225458935173517, ,0.03248081423506735, ,5.570291603593239e-05, ,0.17308961190999395,-0.240408674374609,0.09871766866000001,-4.474573704016265,0.41797105278248237,-1.1088525609490598, ,0.040313059285671526,0.0017312825816471512,0.011609920932944608,0.017818321140439408,0.007736514264008655,0.025016277281070774, ,1.9362869262695312
0.011727085419459937,0.022617102893009215,-0.08789903224200331, ,0.012191211724322911,0.02276325175933292,-0.08829203347432509, ,0.0006254779665183242, ,0.0054102009568862235,0.0027427503015641105,-0.010614560403756312,-0.019794747782537214,-0.025752114249957946,-0.008157498172273146, ,0.012225458935173517, ,0.03248081423506735, ,5.6538363324029736e-05, ,0.17308961190999395,-0.240408674374609,0.09871766866000001,-4.474573704016265,0.41797105278248237,-1.1088525609490598, ,0.040313059285671526,0.0017312825816471512,0.011609920932944608,0.017818321140439408,0.007736514264008655,0.025016277281070774, ,1.9390580654144287
0.011727085419459937,0.022617102893009215,-0.08789903224200331, ,0.012230101893966897,0.02277406943967414,-0.08835498516135248, ,0.0006968192987140629, ,0.0054102009568862235,0.0027427503015641105,-0.010614560403756312,-0.019794747782537214,-0.025752114249957946,-0.008157498172273146, ,0.012225458935173517, ,0.03248081423506735, ,5.747581710937386e-05, ,0.17308961190999395,-0.240408674374609,0.09871766866000001,-4.474573704016265,0.41797105278248237,-1.1088525609490598, ,0.040313059285671526,0.0017312825816471512,0.011609920932944608,0.017818321140439408,0.007736514264008655,0.025016277281070774, ,1.9418411254882812
0.011727085419459937,0.022617102893009215,-0.08789903224200331, ,0.01226946792339861,0.022784621888623686,-0.08841778050752706, ,0.0007689870983666568, ,0.0054102009568862235,0.0027427503015641105,-0.010614560403756312,-0.019794747782537214,-0.025752114249957946,-0.008157498172273146, ,0.012225458935173517, ,0.03248081423506735, ,5.851603828080263e-05, ,0.17308961190999395,-0.240408674374609,0.09871766866000001,-4.474573704016265,0.41797105278248237,-1.1088525609490598, ,0.040313059285671526,0.0017312825816471512,0.011609920932944608,0.017818321140439408,0.007736514264008655,0.025016277281070774, ,1.944694995880127
0.01177160666683772,0.022642332245352163,-0.08799526500706685, ,0.012309307126765735,0.02279491062081078,-0.08848042025765016, ,0.0007401199648928139, ,0.005778695372142503,0.003155167403886874,-0.012368155940614188,0.028719759535533868,0.017361651066429104,0.004507029145171856, ,0.01401141259552089, ,0.03355966665677484, ,5.95110805094333e-05, ,0.17347574855370515,-0.2403855061759863,0.09883174218000002,-4.474364014072781,0.4185175987815441,-1.1090531963434238, ,0.046133661428522495,0.0021465771000088335,0.013637681095890414,0.008582763865964441,0.06717052225945748,-0.017316064126635753, ,1.9476771354675293
0.01177160666683772,0.022642332245352163,-0.08799526500706685, ,0.012349616824339955,0.022804937147395454,-0.08854290515448895, ,0.0008126781819470556, ,0.005778695372142503,0.003155167403886874,-0.012368155940614188,0.028719759535533868,0.017361651066429104,0.004507029145171856, ,0.01401141259552089, ,0.03355966665677484, ,0.00033262214664727096, ,0.17347574855370515,-0.2403855061759863,0.09883174218000002,-4.474364014072781,0.4185175987815441,-1.1090531963434238, ,0.046133661428522495,0.0021465771000088335,0.013637681095890414,0.008582763865964441,0.06717052225945748,-0.017316064126635753, ,1.95064115524292
0.01177160666683772,0.022642332245352163,-0.08799526500706685, ,0.012390394342511277,0.022814702976071403,-0.08860523593877943, ,0.000885818488127498, ,0.005778695372142503,0.003155167403886874,-0.012368155940614188,0.028719759535533868,0.017361651066429104,0.004507029145171856, ,0.01401141259552089, ,0.03355966665677484, ,0.000337012593801876, ,0.17347574855370515,-0.2403855061759863,0.09883174218000002,-4.474364014072781,0.4185175987815441,-1.1090531963434238, ,0.046133661428522495,0.0021465771000088335,0.013637681095890414,0.008582763865964441,0.06717052225945748,-0.017316064126635753, ,1.9535889625549316
0.01184308916985003,0.022686158237666336,-0.0881638230387977, ,0.012431637013782615,0.0228242096110694,-0.08866741334922763, ,0.0007867972718909748, ,0.007058970472119101,0.004645549073554244,-0.018030680666261283,0.10360487481909064,0.05699452270551976,-0.0025122275321050463, ,0.01991270035956295, ,0.11824696105601527, ,0.0003405542054403728, ,0.17406267625214622,-0.24035461524448942,0.09901840794000001,-4.474154324129296,0.4198839637791985,-1.110004017900107, ,0.054319943651099475,0.002702457168603857,0.01981195462686567,0.011956666825489137,0.12495285676279332,-0.08431798065254453, ,1.9563839435577393
0.01184308916985003,0.022686158237666336,-0.0881638230387977, ,0.012473342176764057,0.022833458553160515,-0.08872943812251301, ,0.0008595560822861578, ,0.007058970472119101,0.004645549073554244,-0.018030680666261283,0.10360487481909064,0.05699452270551976,-0.0025122275321050463, ,0.01991270035956295, ,0.11824696105601527, ,0.00034460890760323046, ,0.17406267625214622,-0.24035461524448942,0.09901840794000001,-4.474154324129296,0.4198839637791985,-1.110004017900107, ,0.054319943651099475,0.002702457168603857,0.01981195462686567,0.011956666825489137,0.12495285676279332,-0.08431798065254453, ,1.9592220783233643
0.01184308916985003,0.022686158237666336,-0.0881638230387977, ,0.012515507176167447,0.022842451299659172,-0.08879131099328927, ,0.0009329065491671695, ,0.007058970472119101,0.004645549073554244,-0.018030680666261283,0.10360487481909064,0.05699452270551976,-0.0025122275321050463, ,0.01991270035956295, ,0.11824696105601527, ,0.00034916935443705943, ,0.17406267625214622,-0.24035461524448942,0.09901840794000001,-4.474154324129296,0.4198839637791985,-1.110004017900107, ,0.054319943651099475,0.002702457168603857,0.01981195462686567,0.011956666825489137,0.12495285676279332,-0.08431798065254453, ,1.9619851112365723
0.011926860418690191,0.02273876266000589,-0.08836088647931123, ,0.012558129362800775,0.0228511893444265,-0.08885303269418798, ,0.0008082995335801074, ,0.007058970472119101,0.004645549073554244,-0.018030680666261283,0.10360487481909064,0.05699452270551976,-0.0025122275321050463, ,0.01991270035956295, ,0.11824696105601527, ,0.0003527011250458521, ,0.1746882176149584,-0.24033916977874098,0.09923488837000001,-4.473734944242327,0.42084041927755655,-1.110375549525279, ,0.06993142340344198,0.0015743697411829721,0.023989173975903617,0.03512171414521399,0.07441689892311953,-0.014343245681131801, ,1.9653239250183105
0.011926860418690191,0.02273876266000589,-0.08836088647931123, ,0.012601206093562554,0.022859674177873344,-0.08891460395581961, ,0.0008808886014490632, ,0.00961596591983283,0.005769304174022603,-0.021916634804657154,0.032355277480302265,0.00704703169592903,-0.01797832752623109, ,0.024618906401066853, ,0.033113737025976975, ,0.0003567330905145789, ,0.1746882176149584,-0.24033916977874098,0.09923488837000001,-4.473734944242327,0.42084041927755655,-1.110375549525279, ,0.06993142340344198,0.0015743697411829721,0.023989173975903617,0.03512171414521399,0.07441689892311953,-0.014343245681131801, ,1.9682159423828125
0.011926860418690191,0.02273876266000589,-0.08836088647931123, ,0.012644734731436326,0.022867907286963716,-0.0889760255067764, ,0.0009541582084138912, ,0.00961596591983283,0.005769304174022603,-0.021916634804657154,0.032355277480302265,0.00704703169592903,-0.01797832752623109, ,0.024618906401066853, ,0.033113737025976975, ,0.0003612590383774525, ,0.1746882176149584,-0.24033916977874098,0.09923488837000001,-4.473734944242327,0.42084041927755655,-1.110375549525279, ,0.06993142340344198,0.0015743697411829721,0.023989173975903617,0.03512171414521399,0.07441689892311953,-0.014343245681131801, ,1.9710121154785156
0.011926860418690191,0.02273876266000589,-0.08836088647931123, ,0.012688712645485102,0.022875890155217533,-0.08903729807363428, ,0.0010279860944341784, ,0.00961596591983283,0.005769304174022603,-0.021916634804657154,0.032355277480302265,0.00704703169592903,-0.01797832752623109, ,0.024618906401066853, ,0.033113737025976975, ,0.00036627202376133763, ,0.1746882176149584,-0.24033916977874098,0.09923488837000001,-4.473734944242327,0.42084041927755655,-1.110375549525279, ,0.06993142340344198,0.0015743697411829721,0.023989173975903617,0.03512171414521399,0.07441689892311953,-0.014343245681131801, ,1.9737579822540283
0.01203133959205046,0.0227967479226518,-0.08860506645566808, ,0.012733137210845718,0.02288362426271454,-0.08909842238095506, ,0.0008622455944944902, ,0.011040538657705153,0.006109648698756813,-0.025047921535842673,-0.05196920213557779,-0.017143549396708452,-0.0006437033167461456, ,0.028046740886246195, ,0.054723755325677935, ,0.00036997331906531643, ,0.1754141545051355,-0.24027738791574718,0.09949933153000001,-4.473734944242327,0.42138696527661834,-1.1099227549985184, ,0.07671539333748648,0.005823852342017048,0.027182272218430035,0.032125977566210905,0.04742454204873632,0.0639152049562005, ,1.9765441417694092
0.01203133959205046,0.0227967479226518,-0.08860506645566808, ,0.01277800580872336,0.02289111108609668,-0.0891593991512886, ,0.0009347189862038023, ,0.011040538657705153,0.006109648698756813,-0.025047921535842673,-0.05196920213557779,-0.017143549396708452,-0.0006437033167461456, ,0.028046740886246195, ,0.054723755325677935, ,0.00037415662030337925, ,0.1754141545051355,-0.24027738791574718,0.09949933153000001,-4.473734944242327,0.42138696527661834,-1.1099227549985184, ,0.07671539333748648,0.005823852342017048,0.027182272218430035,0.032125977566210905,0.04742454204873632,0.0639152049562005, ,1.9794790744781494
0.01203133959205046,0.0227967479226518,-0.08860506645566808, ,0.01282331582638599,0.022898352098571963,-0.08922022910517526, ,0.0010079557776338137, ,0.011040538657705153,0.006109648698756813,-0.025047921535842673,-0.05196920213557779,-0.017143549396708452,-0.0006437033167461456, ,0.028046740886246195, ,0.054723755325677935, ,0.0003788169082249266, ,0.1754141545051355,-0.24027738791574718,0.09949933153000001,-4.473734944242327,0.42138696527661834,-1.1099227549985184, ,0.07671539333748648,0.005823852342017048,0.027182272218430035,0.032125977566210905,0.04742454204873632,0.0639152049562005, ,1.9824919700622559
0.012140258706888417,0.02285863229222602,-0.08885827155982418, ,0.012869064657158695,0.02290534876991714,-0.08928091296114771, ,0.0008437809529433253, ,0.011248136946945247,0.006348286140258311,-0.026293209044933957,0.0479876306727526,0.03811178437865296,0.015445057985867261, ,0.029294268442417663, ,0.06128056983664752, ,0.00038221080636155724, ,0.1762018732583064,-0.24021560605275338,0.0997754413,-4.473525254298842,0.42234342077497644,-1.1098042141828475, ,0.08375722997217191,0.007373425312861909,0.02875236736462094,0.010123414944632675,0.13014244524860935,-0.029940055576833508, ,1.9856541156768799
0.012140258706888417,0.02285863229222602,-0.08885827155982418, ,0.012915249700418215,0.022912102566481254,-0.08934145143573374, ,0.0009148403701002805, ,0.011248136946945247,0.006348286140258311,-0.026293209044933957,0.0479876306727526,0.03811178437865296,0.015445057985867261, ,0.029294268442417663, ,0.06128056983664752, ,0.0003860704408814031, ,0.1762018732583064,-0.24021560605275338,0.0997754413,-4.473525254298842,0.42234342077497644,-1.1098042141828475, ,0.08375722997217191,0.007373425312861909,0.02875236736462094,0.010123414944632675,0.13014244524860935,-0.029940055576833508, ,1.9884390830993652
0.012140258706888417,0.02285863229222602,-0.08885827155982418, ,0.012961868361587343,0.022918614951188705,-0.08940184524345715, ,0.000986971475580244, ,0.011248136946945247,0.006348286140258311,-0.026293209044933957,0.0479876306727526,0.03811178437865296,0.015445057985867261, ,0.029294268442417663, ,0.06128056983664752, ,0.00039039346990801343, ,0.1762018732583064,-0.24021560605275338,0.0997754413,-4.473525254298842,0.42234342077497644,-1.1098042141828475, ,0.08375722997217191,0.007373425312861909,0.02875236736462094,0.010123414944632675,0.13014244524860935,-0.029940055576833508, ,1.9911510944366455
0.012140258706888417,0.02285863229222602,-0.08885827155982418, ,0.01300891805212937,0.022924887383542557,-0.08946209509684197, ,0.001059981914494999, ,0.011248136946945247,0.006348286140258311,-0.026293209044933957,0.0479876306727526,0.03811178437865296,0.015445057985867261, ,0.029294268442417663, ,0.06128056983664752, ,0.00039517624451220623, ,0.1762018732583064,-0.24021560605275338,0.0997754413,-4.473525254298842,0.42234342077497644,-1.1098042141828475, ,0.08375722997217191,0.007373425312861909,0.02875236736462094,0.010123414944632675,0.13014244524860935,-0.029940055576833508, ,1.99397611618042
0.012259559884432916,0.022921178450983903,-0.08911953019767396, ,0.01305639618954251,0.022930921319627352,-0.08952220170641252, ,0.0008928534955858665, ,0.011861716332702471,0.005934482815084116,-0.02493369473090258,0.09419307072209268,0.05867880223467495,0.0023544447662867743, ,0.028241946348895083, ,0.11097534305847227, ,0.0003987058704063457, ,0.1771440466689618,-0.24012293325826267,0.10006321768000001,-4.473315564355358,0.4239830587721617,-1.1103244416257987, ,0.09575877049290694,0.00961506727112459,0.027558497439446373,0.021213614600284064,0.1667712591968336,-0.07143375490467518, ,1.998000144958496
0.012259559884432916,0.022921178450983903,-0.08911953019767396, ,0.013104300197354308,0.02293671821211288,-0.08958216578069725, ,0.0009632545681852602, ,0.011861716332702471,0.005934482815084116,-0.02493369473090258,0.09419307072209268,0.05867880223467495,0.0023544447662867743, ,0.028241946348895083, ,0.11097534305847227, ,0.00040268156546112676, ,0.1771440466689618,-0.24012293325826267,0.10006321768000001,-4.473315564355358,0.4239830587721617,-1.1103244416257987, ,0.09575877049290694,0.00961506727112459,0.027558497439446373,0.021213614600284064,0.1667712591968336,-0.07143375490467518, ,2.0007741451263428
0.012259559884432916,0.022921178450983903,-0.08911953019767396, ,0.013152627505116159,0.02294227951025679,-0.08964198802622965, ,0.0010348802889389626, ,0.011861716332702471,0.005934482815084116,-0.02493369473090258,0.09419307072209268,0.05867880223467495,0.0023544447662867743, ,0.028241946348895083, ,0.11097534305847227, ,0.0004071025355553774, ,0.1771440466689618,-0.24012293325826267,0.10006321768000001,-4.473315564355358,0.4239830587721617,-1.1103244416257987, ,0.09575877049290694,0.00961506727112459,0.027558497439446373,0.021213614600284064,0.1667712591968336,-0.07143375490467518, ,2.003533124923706
0.0123857470492686,0.022976412328481022,-0.0893537645178081, ,0.013201375548397695,0.022947606659908314,-0.08970166914755161, ,0.0008871962841054196, ,0.012752247523656196,0.004780844933708301,-0.021030208356698134,0.05353470076876437,0.014650327590255712,0.0018666824388637346, ,0.025054858984055288, ,0.05550308253910371, ,0.0004104365199203082, ,0.17819433833985635,-0.24001481499802355,0.10032377197,-4.472896184468389,0.4254860602695815,-1.1108966086453347, ,0.10932827368487416,0.011323700919990005,0.023528525140324965,0.021329551733762525,0.13048274706459975,-0.03773521991825518, ,2.0063631534576416
0.0123857470492686,0.022976412328481022,-0.0893537645178081, ,0.01325054176878111,0.02295270110351094,-0.08976120984721456, ,0.000956265562247974, ,0.012752247523656196,0.004780844933708301,-0.021030208356698134,0.05353470076876437,0.014650327590255712,0.0018666824388637346, ,0.025054858984055288, ,0.05550308253910371, ,0.00041420085814325766, ,0.17819433833985635,-0.24001481499802355,0.10032377197,-4.472896184468389,0.4254860602695815,-1.1108966086453347, ,0.10932827368487416,0.011323700919990005,0.023528525140324965,0.021329551733762525,0.13048274706459975,-0.03773521991825518, ,2.0091969966888428
0.0123857470492686,0.022976412328481022,-0.0893537645178081, ,0.013300123613855842,0.02295756428010621,-0.08982061082578281, ,0.0010268326183285768, ,0.012752247523656196,0.004780844933708301,-0.021030208356698134,0.05353470076876437,0.014650327590255712,0.0018666824388637346, ,0.025054858984055288, ,0.05550308253910371, ,0.00041839696608973243, ,0.17819433833985635,-0.24001481499802355,0.10032377197,-4.472896184468389,0.4254860602695815,-1.1108966086453347, ,0.10932827368487416,0.011323700919990005,0.023528525140324965,0.021329551733762525,0.13048274706459975,-0.03773521991825518, ,2.0120949745178223
0.0123857470492686,0.022976412328481022,-0.0893537645178081, ,0.013350118537212779,0.022962197625336207,-0.08987987278183414, ,0.0010986374879921274, ,0.012752247523656196,0.004780844933708301,-0.021030208356698134,0.05353470076876437,0.014650327590255712,0.0018666824388637346, ,0.025054858984055288, ,0.05550308253910371, ,0.00042302445263328614, ,0.1793218573394931,-0.23988352853916173,0.10054154869000001,-4.472686494524905,0.4265791522677051,-1.1110528432136413, ,0.12276447808340334,0.015602917059926138,0.02155454874154263,0.044450430642909655,0.10499554198842209,-0.023526543263531614, ,2.0149099826812744
0.012515446985158222,0.02301817640080736,-0.0895477838259538, ,0.013400523998438777,0.02296660257144748,-0.08993899641196376, ,0.0009690554508205784, ,0.013915396972396682,0.003976173256056954,-0.019098013039192407,0.034928304731921704,-0.01575698957077741,-0.023759249740025856, ,0.02396210192588982, ,0.038317967732546365, ,0.0004267138512696867, ,0.1793218573394931,-0.23988352853916173,0.10054154869000001,-4.472686494524905,0.4265791522677051,-1.1110528432136413, ,0.12276447808340334,0.015602917059926138,0.02155454874154263,0.044450430642909655,0.10499554198842209,-0.023526543263531614, ,2.01861310005188
0.012515446985158222,0.02301817640080736,-0.0895477838259538, ,0.013451337463111168,0.022970780547293523,-0.08999798241078552, ,0.001039623066037776, ,0.013915396972396682,0.003976173256056954,-0.019098013039192407,0.034928304731921704,-0.01575698957077741,-0.023759249740025856, ,0.02396210192588982, ,0.038317967732546365, ,0.00043082733593255976, ,0.1793218573394931,-0.23988352853916173,0.10054154869000001,-4.472686494524905,0.4265791522677051,-1.1110528432136413, ,0.12276447808340334,0.015602917059926138,0.02155454874154263,0.044450430642909655,0.10499554198842209,-0.023526543263531614, ,2.0214929580688477
0.012515446985158222,0.02301817640080736,-0.0895477838259538, ,0.013502556402792019,0.022974732978338595,-0.0900568314709338, ,0.0011114863193925585, ,0.013915396972396682,0.003976173256056954,-0.019098013039192407,0.034928304731921704,-0.01575698957077741,-0.023759249740025856, ,0.02396210192588982, ,0.038317967732546365, ,0.0004353650624889598, ,0.1793218573394931,-0.23988352853916173,0.10054154869000001,-4.472686494524905,0.4265791522677051,-1.1110528432136413, ,0.12276447808340334,0.015602917059926138,0.02155454874154263,0.044450430642909655,0.10499554198842209,-0.023526543263531614, ,2.024402141571045
0.012659054170604454,0.023054327626821896,-0.08973845788691545, ,0.013554178295022777,0.02297846128666045,-0.09011554428306669, ,0.0009742674426703834, ,0.014657362671364147,0.0034565802298001406,-0.018229788352301806,0.04037178527765141,-0.02056158369746395,-0.013916996164348735, ,0.0236455368036901, ,0.045306266204072465, ,0.0004389339524239361, ,0.1806038309966144,-0.23970590568305455,0.10075673283000001,-4.472686494524905,0.42767224426582856,-1.111290756522088, ,0.13290888173455292,0.018806369710358855,0.02074064,0.03348437506388127,0.11448491143470654,-0.03262895242314338, ,2.0271620750427246
0.012659054170604454,0.023054327626821896,-0.08973845788691545, ,0.013606200623318545,0.022981966890953835,-0.09017412153586739, ,0.001045047986459172, ,0.014657362671364147,0.0034565802298001406,-0.018229788352301806,0.04037178527765141,-0.02056158369746395,-0.013916996164348735, ,0.0236455368036901, ,0.045306266204072465, ,0.0004429215447531153, ,0.1806038309966144,-0.23970590568305455,0.10075673283000001,-4.472686494524905,0.42767224426582856,-1.111290756522088, ,0.13290888173455292,0.018806369710358855,0.02074064,0.03348437506388127,0.11448491143470654,-0.03262895242314338, ,2.0298919677734375
0.012659054170604454,0.023054327626821896,-0.08973845788691545, ,0.013658620877162561,0.02298525120653351,-0.09023256391604641, ,0.0011171597561328642, ,0.014657362671364147,0.0034565802298001406,-0.018229788352301806,0.04037178527765141,-0.02056158369746395,-0.013916996164348735, ,0.0236455368036901, ,0.045306266204072465, ,0.0004473283304484078, ,0.1806038309966144,-0.23970590568305455,0.10075673283000001,-4.472686494524905,0.42767224426582856,-1.111290756522088, ,0.13290888173455292,0.018806369710358855,0.02074064,0.03348437506388127,0.11448491143470654,-0.03262895242314338, ,2.0326719284057617
0.01281899562716714,0.023085991924804802,-0.08992141317897417, ,0.013711436552000682,0.02298831564533752,-0.0902908721083446, ,0.000970819942306431, ,0.015664430821103786,0.0025439224974853694,-0.016420089739775053,0.03179615159121267,-0.02304549325120817,0.020021802962688094, ,0.022835614326849725, ,0.03926943877306026, ,0.00045072762662930405, ,0.1819939229139748,-0.23950511462832472,0.10095247262000001,-4.47247680458142,0.42890197276371755,-1.1115584089940906, ,0.14781455071412894,0.022524790305832133,0.01900812830548926,0.004054166502230892,0.13226900880143155,-0.02492552719096632, ,2.0353970527648926
0.01281899562716714,0.023085991924804802,-0.08992141317897417, ,0.013764645149235729,0.02299116161593026,-0.09034904679553439, ,0.001042169043908981, ,0.015664430821103786,0.0025439224974853694,-0.016420089739775053,0.03179615159121267,-0.02304549325120817,0.020021802962688094, ,0.022835614326849725, ,0.03926943877306026, ,0.0004545433777085278, ,0.1819939229139748,-0.23950511462832472,0.10095247262000001,-4.47247680458142,0.42890197276371755,-1.1115584089940906, ,0.14781455071412894,0.022524790305832133,0.01900812830548926,0.004054166502230892,0.13226900880143155,-0.02492552719096632, ,2.0383291244506836
0.01281899562716714,0.023085991924804802,-0.08992141317897417, ,0.013818244176222023,0.02299379052350603,-0.09040708865842227, ,0.0011148450262376758, ,0.015664430821103786,0.0025439224974853694,-0.016420089739775053,0.03179615159121267,-0.02304549325120817,0.020021802962688094, ,0.022835614326849725, ,0.03926943877306026, ,0.0004587760805837147, ,0.1819939229139748,-0.23950511462832472,0.10095247262000001,-4.47247680458142,0.42890197276371755,-1.1115584089940906, ,0.14781455071412894,0.022524790305832133,0.01900812830548926,0.004054166502230892,0.13226900880143155,-0.02492552719096632, ,2.0410780906677246
0.012962290612519037,0.023109764113132057,-0.0900707707922146, ,0.013872231146259732,0.022996203769891616,-0.09046499837585106, ,0.000998149845564802, ,0.016449614551389262,0.002488902770435483,-0.01716885759559024,0.047350947621101085,0.006495303516252875,-0.0020941892519672385, ,0.023907198226216626, ,0.04779434816583345, ,0.00046221158227149233, ,0.1819939229139748,-0.23950511462832472,0.10095247262000001,-4.47247680458142,0.42890197276371755,-1.1115584089940906, ,0.14781455071412894,0.022524790305832133,0.01900812830548926,0.004054166502230892,0.13226900880143155,-0.02492552719096632, ,2.046052932739258
0.012962290612519037,0.023109764113132057,-0.0900707707922146, ,0.01392660357858935,0.022998402753550178,-0.09052277662470228, ,0.0010707988240291125, ,0.016449614551389262,0.002488902770435483,-0.01716885759559024,0.047350947621101085,0.006495303516252875,-0.0020941892519672385, ,0.023907198226216626, ,0.04779434816583345, ,0.0004660634002573, ,0.18346124216007745,-0.2392502644434753,0.10114043467000002,-4.471847734750966,0.43040497426113744,-1.1118038610530647, ,0.15816156926411795,0.027878067437858627,0.019960916691729325,0.03361250158689204,0.17054029704592838,-0.03786935899171386, ,2.0489161014556885
0.012962290612519037,0.023109764113132057,-0.0900707707922146, ,0.013981358998386127,0.023000388869583794,-0.09058042407989826, ,0.0011446439588892997, ,0.016449614551389262,0.002488902770435483,-0.01716885759559024,0.047350947621101085,0.006495303516252875,-0.0020941892519672385, ,0.023907198226216626, ,0.04779434816583345, ,0.0004703312025128472, ,0.18346124216007745,-0.2392502644434753,0.10114043467000002,-4.471847734750966,0.43040497426113744,-1.1118038610530647, ,0.15816156926411795,0.027878067437858627,0.019960916691729325,0.03361250158689204,0.17054029704592838,-0.03786935899171386, ,2.0517749786376953
0.012962290612519037,0.023109764113132057,-0.0900707707922146, ,0.014036494936754513,0.0230021635097372,-0.09063794141440358, ,0.0012194979847180458, ,0.016449614551389262,0.002488902770435483,-0.01716885759559024,0.047350947621101085,0.006495303516252875,-0.0020941892519672385, ,0.023907198226216626, ,0.04779434816583345, ,0.00047501349490162965, ,0.18346124216007745,-0.2392502644434753,0.10114043467000002,-4.471847734750966,0.43040497426113744,-1.1118038610530647, ,0.15816156926411795,0.027878067437858627,0.019960916691729325,0.03361250158689204,0.17054029704592838,-0.03786935899171386, ,2.054643154144287
0.013139072580652477,0.02313539798150453,-0.09025583162078274, ,0.014092008930722507,0.023003728062400614,-0.09069532929922858, ,0.0010576307787885637, ,0.01724484541413545,0.002486351872325522,-0.018015939730105388,0.042472321246234394,0.005276784819882417,-0.02357937313663805, ,0.025062735751494387, ,0.042798839144647355, ,0.00047863223579533735, ,0.18516024339240683,-0.23892590966275787,0.10135561881,-4.471218664920513,0.43231788525785353,-1.1123018880829874, ,0.16389799923742793,0.031123955906353157,0.020903952125984254,0.05675279360571617,0.1688560546325854,-0.0319825511059237, ,2.057634115219116
