NicholasDascanio/dvrk_moveit_final/test/execution/second_exp_sharpbends/firstexp_600vel5.csv
Current Position (x),Current Position (y),Current Position (z), ,Planned Position (x),Planned Position (y),Planned Position (z), ,Position Error,,Cartesian linear Velocity(x),Cartesian linear Velocity(y),Cartesian linear Velocity(z),Cartesian Angular Velocity(x),Cartesian Angular Velocity(y),Cartesian Angular Velocity(z), ,Total Linear Velocity, ,Total Angular Velocity, ,MSE, ,Joint 1 Position,Joint 2 Position,Joint 3 Position,Joint 4 Position,Joint 5 Position,Joint 6 Position, ,Joint 1 Velocity,Joint 2 Velocity,Joint 3 Velocity,Joint 4 Velocity,Joint 5 Velocity,Joint 6 Velocity, ,Time Stamp
0.012579706848511934,0.01882996157781376,-0.08007332905956624, ,0.01256002213809631,0.01882081991498812,-0.08020638501587912, ,0.00013481448488089314, ,-4.340143229101472e-06,5.3361469511233636e-05,1.1866581573281559e-05,-0.04685225759369938,0.005936992948171076,0.003924654954707175, ,5.483702243815557e-05, ,0.04722691951517687, ,1.1234540406741095e-05, ,0.18030264441451962,-0.22392836242101388,0.08991585956,-4.530141539039664,0.22353731361626059,-1.217557721728972, ,-2.6431051556611114e-05,-0.0006585301180020331,0.0,0.0,0.0,0.048017551962826754, ,0.01861286163330078
0.012565914159923893,0.01883392146336557,-0.08007353895427599, ,0.012481873724685783,0.01888817053003884,-0.0802696904152276, ,0.0002201843582622964, ,-0.00047323349627900724,0.000457401505448637,-0.0012396057722434068,-0.6887018066632072,0.09422190536732863,0.056193317312058816, ,0.001403491556713579, ,0.6951172174189132, ,1.613631105196316e-05, ,0.18019452615428047,-0.22397469881825924,0.08991585956,-4.5303512289831485,0.22408385961532232,-1.210243913030404, ,-0.008487550695436169,-0.002286310170511754,0.00122526380268498,0.0,0.0,0.6984809255912294, ,0.03842306137084961
0.012505406577281867,0.018857076671813834,-0.08010997585393609, ,0.012405136679154249,0.01895488616786028,-0.08033300016596366, ,0.0002633639947729269, ,-0.003322677007356408,0.0011951687351548033,-0.002321130580343341,-0.1289138828518018,0.2721290626281801,0.10111381875873834, ,0.004225666571289254, ,0.30111960400935817, ,1.9323838684878637e-05, ,0.17990878503793417,-0.22408281707849836,0.08995604455,-4.5303512289831485,0.22900277360687818,-1.2025748977233748, ,-0.01852732166311417,-0.00520573483996106,0.002466142052949373,-0.025428543785022767,0.24933016173414496,0.1660911215050559, ,0.05967998504638672
0.012469523108155208,0.018887883603598346,-0.08017140276049041, ,0.012329804130296084,0.019020969720078208,-0.08039631417960683, ,0.00029634178514453537, ,-0.0011109692575474962,0.0016202797874455236,-0.0035899592496338494,0.3299450456280579,-0.051492406852521655,-0.01842290381861926, ,0.004092354663864287, ,0.33393891821315247, ,2.177868150144409e-05, ,0.17949948019560028,-0.22426816266747976,0.09001956276,-4.5303512289831485,0.23050577510429804,-1.202738671042208, ,-0.024946619757747313,-0.011010906846176945,0.0035940459205776173,-0.017413335991240536,-0.03395993820060001,-0.3305512017904124, ,0.07867193222045898
0.012468496181285713,0.018920420912566106,-0.08024336193059632, ,0.012255869223810634,0.019086424071927153,-0.08045963236720455, ,0.0003457458224095714, ,0.0008926135150114466,0.0018550485015803616,-0.004660309043751086,-0.005780940473968484,-0.3211268139056327,-0.07841045876148395, ,0.0050947467271361775, ,0.3211788440725014, ,2.423943164365814e-05, ,0.1788739388327881,-0.22453845831807762,0.09008826613000001,-4.5303512289831485,0.22627004361156938,-1.2103930246867356, ,-0.03890813512032422,-0.016224472825862674,0.0043688457268239176,-0.01316037117608619,-0.36836097172394305,-0.03215903445163887, ,0.09986305236816406
0.012433568565750733,0.018967530698171094,-0.08032353625226284, ,0.012183325122284785,0.0191512521022608,-0.08052295463933838, ,0.0003689756474649796, ,-0.0033783332562922685,0.0022943506900857382,-0.002850944678587006,-0.16896644833512378,0.01969074952987988,0.015069444578412127, ,0.004980468475959947, ,0.17010992410746112, ,2.6281066015083914e-05, ,0.17790859722351002,-0.22495548589328573,0.09016474724000001,-4.5303512289831485,0.22285413111743338,-1.2103846542591041, ,-0.05307435210205301,-0.02194656372767594,0.0026623452314892197,-0.010619735708070597,-0.05578697725804087,0.18295200539778506, ,0.11936807632446289
0.012346008924256085,0.019021191280366147,-0.08038308970779758, ,0.012112165005174832,0.019215456683554556,-0.08058628090612194, ,0.0003656619865992703, ,-0.004972965213276177,0.0029329796727560883,-0.002861962309200122,-0.005749651815750606,0.09713772984949781,0.024781567932210476, ,0.006443879346522363, ,0.09730774407067701, ,2.7709556660201016e-05, ,0.17675018729237635,-0.22546518626298456,0.09022178400000001,-4.530770608870118,0.22312740411696425,-1.207422019201015, ,-0.0628040645655002,-0.0282768002260044,0.0027477680731412806,-0.008882144974005446,0.03315810900653506,0.03708250183216384, ,0.14049506187438965
0.012234218671048538,0.019084718790360375,-0.08043603281249244, ,0.012042382068788715,0.01927904068191293,-0.08064961107720323, ,0.00034666692178520186, ,-0.005319475377297286,0.0031666170938970195,-0.002403797460672456,0.03165198834501745,0.06387585114811029,0.010764996829711054, ,0.006640973147135008, ,0.07128795638821753, ,2.8557987820971645e-05, ,0.17529831351202216,-0.22611389582441943,0.09027104302000001,-4.530980298813603,0.2232640406167297,-1.2066349709631652, ,-0.0700346432165836,-0.03295032693002458,0.0022501499533832464,-0.006551402938345623,-0.004766394176795496,-0.0009945651858941514, ,0.1594250202178955
0.012128208515908383,0.019153327691906894,-0.08049443890216405, ,0.011973969526268533,0.019342006957077985,-0.08071294506176846, ,0.00032731402783212765, ,-0.0053212878604311075,0.0035067577359977533,-0.0032941242210196846,0.02394539629923488,0.06134830464554056,0.009076164951848563, ,0.007173890764157209, ,0.06585587662784227, ,2.901161988208481e-05, ,0.17384643973166794,-0.22680894178309963,0.09032678349,-4.530980298813603,0.22285413111743338,-1.2065457534724977, ,-0.07260668826202814,-0.03458343351256224,0.0031825797242757245,-0.005508924950890576,-0.011430065953170426,0.007679683865286798, ,0.17832589149475098
0.012037148858999702,0.019220101904449526,-0.08056802096647173, ,0.011906920607572175,0.01940435836243127,-0.08077628276853914, ,0.000307055073200584, ,-0.004322736994996922,0.0037688121549735555,-0.004692268120042651,-0.06117838009730822,-0.013966292078027917,-0.011040368649555168, ,0.007409951436936684, ,0.0627523027741999, ,2.946657527081571e-05, ,0.17248723874580443,-0.22744992861166025,0.09039807944000001,-4.531189988757087,0.22189767561907528,-1.2057658281466228, ,-0.07299764735266984,-0.034991497624804864,0.004581193994823124,-0.001131198502266721,-0.10092897683783401,0.08230081303897992, ,0.19760799407958984
0.01193353838889804,0.01930249562707697,-0.08066269683427246, ,0.011841228559455762,0.01946609774500171,-0.08083962410577636, ,0.00025805041562248414, ,-0.00517390297100995,0.003543110390306129,-0.0032966047413640356,0.021584071323812022,0.051214533830351724,0.016071161542251137, ,0.007084525814202717, ,0.05557697913688995, ,2.9401586527044278e-05, ,0.17091952397233684,-0.2282222018990827,0.09049141232,-4.531399678700571,0.22080458362095176,-1.2052011998776138, ,-0.07135108387854945,-0.035120999836591706,0.0032205441811564905,-0.014632637957903757,-0.018587737278693967,0.008097672585452197, ,0.21548199653625488
0.011883644918155672,0.019338385416649242,-0.0806931876875054, ,0.011776886645455995,0.019527227945473406,-0.08090296898128232, ,0.0003017731278646995, ,-0.004947326777079325,0.003444000216792961,-0.0026961495853885646,0.02488189150373298,0.04193411318514361,0.01297105532491888, ,0.006603514391539326, ,0.04876041809998665, ,2.9713845763357733e-05, ,0.1702090325479082,-0.22858517034417125,0.09052122699000001,-4.531399678700571,0.22039467412165545,-1.2050303036468055, ,-0.06797775183271546,-0.035528619078424105,0.0026455425211758844,-0.013250834814251478,-0.024627499070897257,0.004559029233535169, ,0.23223185539245605
0.011800762345566575,0.019406985589201255,-0.08075088379726822, ,0.01171388814587205,0.01958775179818917,-0.08096631730240016, ,0.0002943384854514606, ,-0.004099240472238067,0.0034470409298450497,-0.003080833144253395,-0.012827704279887029,-0.0007140124402236338,0.002574970270988971, ,0.006178786004061952, ,0.012847560491372529, ,2.992411040071118e-05, ,0.16892705889078694,-0.2292879390357257,0.09057826375000001,-4.531399678700571,0.21889167262423562,-1.2039680641864259, ,-0.06318038718939466,-0.03490141285710584,0.0030661812358036577,-0.011233990402580038,-0.06863669138315617,0.03619971041293844, ,0.2514610290527344
0.011713470140032708,0.019476539779042183,-0.08081944969207319, ,0.011652226357747911,0.01964767213115826,-0.08102966897601711, ,0.0002779014756190107, ,-0.004085453672350201,0.003551507194652049,-0.0037441127106953823,0.04796362254838368,0.03578266201877092,0.003520269584397733, ,0.006581984127371908, ,0.05984068840160211, ,2.9986770853357966e-05, ,0.1676605306994141,-0.22996753952865745,0.09064696712,-4.531819058587541,0.21820849012540838,-1.2040644045890683, ,-0.05919958924421134,-0.03322722043363823,0.0038226089560835135,-0.005068954379513615,-0.020815052280279505,-0.019147419763703134, ,0.268765926361084
0.011644171522738818,0.019544036709788434,-0.08089130009583054, ,0.011591894594854565,0.01970699176606207,-0.08109302390856445, ,0.00026453681062956993, ,-0.0032431995184604868,0.003150677058542366,-0.003122556659669637,-0.018829564677857347,-0.010801015171708239,0.005091368441383723, ,0.005495040412646181, ,0.02170747415984238, ,2.9950167243421995e-05, ,0.16651756623402889,-0.23061624909009232,0.09071955936000001,-4.532028748531025,0.21670548862798855,-1.2031655226089701, ,-0.052662009743879454,-0.030931206505368573,0.0031718063560334533,-0.014260989222619477,-0.06767792444502856,0.03800706667615999, ,0.28932690620422363
0.011572421245032986,0.019615028156314704,-0.0809590938454777, ,0.011532886187671967,0.01976571351825879,-0.08115638200601905, ,0.0002513796279624668, ,-0.003063845412380014,0.003009712621003608,-0.0029369271561170227,-0.008173328830868645,0.015812571853219895,0.010207236395459268, ,0.00520298567097086, ,0.01780002057786011, ,2.983292932581986e-05, ,0.16539776996726632,-0.2313035723158983,0.09078955902000001,-4.532028748531025,0.21561239662986503,-1.2032543242610854, ,-0.0463590334921694,-0.028967320378043584,0.0030509119938709065,-0.011561591208898,-0.033017455267571674,0.03061983726383323, ,0.30727386474609375
0.01154510113756971,0.0196455574999832,-0.08098888963199272, ,0.01147519448337155,0.019823840196791745,-0.08121974317390565, ,0.0002999416911605568, ,-0.0026928962325859372,0.0031701809982192138,-0.0032810276793852704,-0.00964427832724642,-0.01905520710655895,0.0002254005123440454, ,0.005297818448553895, ,0.021356802708903246, ,3.0024669125991674e-05, ,0.1649498514605613,-0.2315970361651188,0.09082066998,-4.532028748531025,0.21506585063080325,-1.2030536888667211, ,-0.04644980007756769,-0.030376741856104606,0.0034094202739726035,-0.010711221839320806,-0.06946305080789364,0.028500763689149153, ,0.3243880271911621
0.011497973714252692,0.019703490632801357,-0.08105643451991679, ,0.011418812845798258,0.01988137460439457,-0.08128310731729786, ,0.00029881383421253573, ,-0.0027552119456272076,0.003266269088709013,-0.0038081799590391277,-0.01874153615305271,0.011145348645663827,-0.001898131947864318, ,0.0057238047857705735, ,0.021805136390508215, ,3.018993971604145e-05, ,0.16411579631014506,-0.2321299047334403,0.09089066964,-4.53223843847451,0.21383612213291428,-1.2021326064735942, ,-0.045189019789747986,-0.02926208497023459,0.003984194977488744,0.0,-0.04093679806195334,0.04236167860936152, ,0.3435790538787842
0.011438887853616702,0.01976586254821294,-0.08113247123890296, ,0.011363734655452698,0.019938319537497647,-0.08134647434082042, ,0.00028493287626687574, ,-0.0029345865920727345,0.0031057244529334813,-0.003577678835383118,0.010288553128889048,0.027059776860060683,0.05293651014618675, ,0.0055728905150801535, ,0.02894971240990316, ,3.0429792525646668e-05, ,0.16321223656386077,-0.2326936642332587,0.09096974333,-4.5330771982484475,0.21342621263361797,-1.2018800315026454, ,-0.04280421360327955,-0.02853185254313613,0.003765676482269504,-0.0508854432928246,-0.005345822095989598,0.009176828379392609, ,0.3597080707550049
0.01141190963836877,0.01979927328921951,-0.0811737749585077, ,0.011309953309473339,0.01999467778623206,-0.08140984414864769, ,0.00032296543621247465, ,-0.002161897241471238,0.0029858653624289153,-0.0037361787329949956,-0.05863983576066635,-0.02815420615422494,-0.031338573672065974, ,0.005248640125796186, ,0.06504836401850941, ,3.085057081139958e-05, ,0.16273342712565886,-0.23299485081535345,0.0910125209,-4.533286888191932,0.21274303013479076,-1.2013229419841633, ,-0.04299816110488028,-0.026309104951059266,0.003853123251088535,0.020532293202338986,-0.08888967472819112,0.07633051528068224, ,0.3750009536743164
0.01135814125253029,0.019862387479663644,-0.08125290994803223, ,0.011257462221618685,0.020050452134438238,-0.08147321664450806, ,0.0003066588041339732, ,-0.002901887530449612,0.003113522922977418,-0.003929678414961366,0.008181703145800981,0.026844465801329764,-0.011979778088953176, ,0.005792870504015955, ,0.028063599369782824, ,3.115439942887561e-05, ,0.1617989764478777,-0.2335508875822976,0.09109418717000001,-4.533286888191932,0.2115133016369018,-1.200401859591036, ,-0.045275258377133004,-0.026492725169869006,0.004084310646153846,0.012016007281552839,-0.024261208585975292,0.016657485747572833, ,0.39287805557250977
0.011304458852830868,0.019922498737663524,-0.08133599625443064, ,0.01120625482224976,0.020105645359672693,-0.08153659173168576, ,0.00028883431629734494, ,-0.0026780356867561377,0.003074200661429472,-0.004322026270647471,-0.010991534211390373,-0.007900537536982695,-0.017769046761120583, ,0.005941590353637628, ,0.013536333188323703, ,3.134756587212605e-05, ,0.16090313943446766,-0.23405286521912222,0.09117974231,-4.533286888191932,0.21069348263830917,-1.2001417458695605, ,-0.047543557895025436,-0.025551142045899512,0.0044173076871880206,0.008678658050268276,-0.06358367366521712,0.029087033640718494, ,0.40881896018981934
0.011278301221813213,0.019953535336936164,-0.0813790037277147, ,0.011156324558311809,0.020160260233210665,-0.08159996931301927, ,0.0003262503319042452, ,-0.002548827854089225,0.003132114657591375,-0.004411888395448945,-0.028000095852027385,-0.021702611425780127,-0.01960171216779671, ,0.005980921741000871, ,0.03542610208235674, ,3.170188420511777e-05, ,0.16043205272913996,-0.23431543813684585,0.09122381617000001,-4.533286888191932,0.21001030013948196,-1.199666335091219, ,-0.04778295143931056,-0.026287241428939272,0.0045111332540356845,0.007607274709988656,-0.08006935222829568,0.044467703765613806, ,0.4242830276489258
0.011218888205428195,0.020015144710818375,-0.08146018118935758, ,0.011107664893316833,0.02021429952005518,-0.08166334929090496, ,0.0003054677408263245, ,-0.0034423566289449596,0.0030926553502348595,-0.0035329486831880293,0.03505226595899699,0.023312850253819694,-0.0036180449653583657, ,0.005822032520882861, ,0.04209691598284689, ,3.193651165844529e-05, ,0.15944354292123922,-0.23484058397229313,0.09130677873000001,-4.5330771982484475,0.20891720814135845,-1.1993467430426312, ,-0.051102284091799025,-0.027715228258899178,0.0036300846672743855,0.0,-0.027558604851362536,-0.011669884224589791, ,0.44083285331726074
0.011185675526591075,0.020047392075079894,-0.08149951546264388, ,0.011060269307325716,0.020267765978941133,-0.0817267315672974, ,0.00034046811237969867, ,-0.0029768023102819145,0.0030487711973531833,-0.0040134700527045064,-0.015348728083313057,-0.00946160353958259,-0.010039716663155313, ,0.0058535715313188085, ,0.018030679251607982, ,3.230758597771226e-05, ,0.15891067435291772,-0.23512632508863943,0.09134696372000001,-4.5330771982484475,0.2083706621422967,-1.199227786388408, ,-0.05058472364524029,-0.02641161746687191,0.004080125901639345,0.0,-0.06687043225515683,0.03243972760845076, ,0.45683908462524414
0.01112315888290967,0.020110865449321877,-0.08158099046640153, ,0.011014131296930418,0.020320662362344036,-0.08179011604371271, ,0.0003156505445961139, ,-0.0033093908984030513,0.003124699485523015,-0.0037354657100163373,0.004417440761332045,-0.002776677039348602,-0.005556800320567634, ,0.005888082800366228, ,0.005217635243422685, ,3.254889339026254e-05, ,0.1578603826820232,-0.2356900845884578,0.09142992628,-4.533496578135416,0.2070042971446423,-1.1984403223120061, ,-0.053133785867004915,-0.028051120768096596,0.003804349539049439,-0.004054373237126472,-0.059288293268508735,0.014550314076258484, ,0.4721798896789551
0.01109007055965012,0.020142208179638618,-0.08162179782038999, ,0.010969244375236161,0.020372991416483365,-0.08185350262122774, ,0.00034863589026352265, ,-0.0033824592281163856,0.0033273977327011694,-0.004355442365446,0.02134760485981815,0.008038681713966935,-0.003883354573607151, ,0.006440689737922207, ,0.022810976204057216, ,3.290907601532957e-05, ,0.15732751411370172,-0.23596038023905566,0.09147140756000001,-4.533496578135416,0.20645775114558051,-1.1981580081775016, ,-0.05382696628387452,-0.02844632540721546,0.004463102135051835,-0.003802099580282346,-0.04687912629274952,-0.0003850092859663066, ,0.48717188835144043
0.011016851410863997,0.020211564066850776,-0.08170754803675083, ,0.010925602071843642,0.020424755881329623,-0.08191689120048186, ,0.000312412790764641, ,-0.0034848781430512734,0.0033082846724119034,-0.003806064222945666,0.016926818188734226,0.020859211569142094,-0.00014817827449818688, ,0.006129865252582557, ,0.026863057913834025, ,3.323466831158883e-05, ,0.15619999511406493,-0.23656275340324517,0.09155955528000001,-4.533496578135416,0.20563793214698786,-1.1978162157158851, ,-0.05245823192839733,-0.029434535222850736,0.003944727964338782,-0.0032535179972066493,-0.03313616148463166,0.007101159167741711, ,0.5018119812011719
0.010982823774708463,0.020244243056402832,-0.08174625079855405, ,0.010883197932831235,0.0204759584906109,-0.08198028168167987, ,0.0003440752898373133, ,-0.003557904812865445,0.0033973820176450317,-0.004259716941891827,0.022922266777622272,0.026654012217557976,0.0005275054297090172, ,0.006507386545785426, ,0.035154895535553975, ,3.3664910055435126e-05, ,0.1556902947443661,-0.2368484945195915,0.09159974027000001,-4.533496578135416,0.205364659147457,-1.1977567373887732, ,-0.05355357875760201,-0.029100564722008823,0.00440509168141593,-0.0030522814720345746,-0.02756581385707395,0.001524563410832673, ,0.5154159069061279
0.010943699484854042,0.020287058700680108,-0.08180399852437843, ,0.01084202552073727,0.02052660197181871,-0.08204367396459195, ,0.00035378367736307783, ,-0.003062683762552469,0.0035690373086154554,-0.004646321780790009,-0.035820762010830356,-0.0027548489591676245,-0.006135014116287635, ,0.006611078976259114, ,0.03592653868185652, ,3.410900519443901e-05, ,0.15504158518293126,-0.23721146296468004,0.09165936961000001,-4.533706268078901,0.20468147664862982,-1.1973630053505724, ,-0.052227265579785784,-0.030396201652296857,0.004823988952150212,-0.0007494411440795562,-0.06457503347602453,0.05734860648816824, ,0.5291879177093506
0.010881796984720714,0.020354855694331236,-0.08189511857874798, ,0.010802078414542029,0.020576689046213733,-0.0821070679485558, ,0.00031699782617659417, ,-0.003309569096182535,0.003714639701615158,-0.004905224083822926,0.010721054708933045,0.018958183582078337,0.00706620813603782, ,0.006986631450687698, ,0.021779663357450626, ,3.4395579516107586e-05, ,0.1540453526421563,-0.23778294519737264,0.09175399878000001,-4.534125647965871,0.20386165765003716,-1.196857855408675, ,-0.05228481628565883,-0.03101207240472901,0.005131704742268042,-0.010245142877533111,-0.03406655503590376,0.013792682603325222, ,0.5426359176635742
0.010850884420365789,0.020390045612346565,-0.08194391554471352, ,0.010763350209650278,0.02062622242883224,-0.08217046353247737, ,0.0003387708922719684, ,-0.0030161054445036087,0.003515245691426757,-0.00468645325380756,-0.0426855195273021,-0.0015432426776465433,-0.01806292802937944, ,0.006589134117893045, ,0.042713407415204074, ,3.474558607203335e-05, ,0.15352792953958325,-0.2380764090465932,0.09180455409,-4.534335337909355,0.20331511165097538,-1.1965755412741705, ,-0.051884604460618246,-0.02931632423802001,0.004859307968273338,0.011477423117052483,-0.06688088497947191,0.06475285859586791, ,0.5563230514526367
0.010821680167734951,0.020424895739371944,-0.08198739260422322, ,0.010725834517873182,0.020675204828492263,-0.08223386061483337, ,0.0003641256774079446, ,-0.002978354010521709,0.0036465716904775397,-0.004432616004288643,-0.01175437021258933,-0.0011358103226333906,-0.018807240657111493, ,0.0064665417610388, ,0.011809118615392461, ,3.516686333650621e-05, ,0.15302595190275867,-0.23837759562868793,0.09184992424,-4.534335337909355,0.2026319291521482,-1.196100130495829, ,-0.05031651196101314,-0.03136052265646754,0.004663001030444965,0.011477423117052483,-0.06122984620275293,0.03630467071318749, ,0.5695159435272217
0.010760336690896717,0.0204985733055833,-0.08207969994724267, ,0.010689524967410722,0.020723638947799293,-0.08229725909367186, ,0.00032093741708338354, ,-0.003027549865820341,0.003771184243235919,-0.004471710268457053,0.02450187831691716,0.015438248749872523,-0.015534948754528616, ,0.0065866593589986025, ,0.028959999373825145, ,3.542118093421996e-05, ,0.15202199662910948,-0.23900313699150014,0.09194714599,-4.534335337909355,0.2016754736537901,-1.1956469201305162, ,-0.04839211706194329,-0.032190278683334725,0.004767677797066747,0.011477423117052483,-0.037781753927309515,0.0037666110313433095, ,0.5825538635253906
0.010746703933436389,0.0205172214621007,-0.08210152836193826, ,0.010654415202833787,0.02077152748315267,-0.08236065886661403, ,0.00037461631116789747, ,-0.002942837333010704,0.0036797795872114797,-0.00431775200806219,0.018419963341019828,0.005460204739225239,-0.018032159068395493, ,0.006390935125796922, ,0.019212206634795774, ,3.584200500275271e-05, ,0.15179031464288273,-0.23916531438185884,0.09197047921000001,-4.534335337909355,0.20140220065425923,-1.195505763063264, ,-0.04821999062930426,-0.03171689223210922,0.004591758869991353,0.011477423117052483,-0.04856663553255601,0.007916186763519163, ,0.5973250865936279
0.010699892492262532,0.02057161964113244,-0.08216678834293019, ,0.010620498885066457,0.02081887312475139,-0.08242405983085488, ,0.0003655492422701693, ,-0.0030051718510607154,0.003565920052396584,-0.0046799356667780205,0.03886001139421289,0.022653863094075268,0.006368996603456383, ,0.006606711853840212, ,0.044981084873517097, ,3.6214262169151733e-05, ,0.15056240011588104,-0.23992986493640706,0.09208714531000001,-4.534125647965871,0.20044574515590113,-1.1952159101782325, ,-0.04649531678514002,-0.029280142412363704,0.004956070790292471,-0.008969173640238992,-0.020891887924393542,-0.014308810972335221, ,0.6109049320220947
0.01063740766170065,0.02064401666145764,-0.08225955464134173, ,0.010587769691368161,0.0208656785566012,-0.08248746188316655, ,0.00032177575224613013, ,-0.0030951123857995387,0.0036469201604371246,-0.004646493520230555,0.020546044282184657,0.044438816555034955,0.012372385517919849, ,0.006668556768212818, ,0.0489586391793287, ,3.643101111220591e-05, ,0.15008359067767912,-0.24023105151850183,0.09213770062000001,-4.534335337909355,0.20030910865613571,-1.195267849754817, ,-0.045253667886729035,-0.02987938965946813,0.004968437779164068,-0.007500560897068527,0.0,0.00799818736945114, ,0.6261129379272461
0.010614355034321551,0.020678426730815953,-0.08230733106930203, ,0.010556221315316066,0.02091194645651941,-0.08255086491989783, ,0.0003423736671592024, ,-0.00224307158685181,0.003367282259809245,-0.004715414111306224,-0.035662518665681264,-0.012205844800267245,0.004446389762031653, ,0.006213299461805605, ,0.03769347267813049, ,3.681664226636781e-05, ,0.149666563102471,-0.24051679263484813,0.09218825593,-4.534754717796323,0.19976256265707393,-1.1949855356203125, ,-0.04151222290396797,-0.02733206842121854,0.004977753600000001,-0.011672921389547937,-0.06001679844733442,0.053206440464763353, ,0.6374728679656982
0.010597542911675271,0.02070117682185068,-0.08233925234617936, ,0.010525847466786973,0.020957679496141475,-0.08261426883697617, ,0.0003828419111673279, ,-0.0025030969658585136,0.003441581449726064,-0.0049099299714324375,-0.012091225237145323,-0.00199103655932831,0.030817211330424227, ,0.00649749102500028, ,0.012254058571039679, ,3.731187791642628e-05, ,0.14938082198612468,-0.24070213822382952,0.09222195947,-4.534964407739808,0.19948928965754306,-1.1948443785530602, ,-0.042881582267722894,-0.027886259641043427,0.005181786441119064,-0.03630463813556257,-0.041544536426089004,0.02894324147594622, ,0.6493880748748779
0.010534552068830224,0.02078165184170652,-0.08244515335288505, ,0.010496641871939863,0.021002880340926094,-0.0826776735299087, ,0.0003231793072248272, ,-0.0025814848214950107,0.0035320515436241783,-0.004923809832916502,0.01766183166239076,0.026207497621004605,-0.02566051988793943, ,0.006586604228367778, ,0.03160337365427208, ,3.761010025794661e-05, ,0.14838458944534974,-0.2413585705181386,0.0923347367,-4.535174097683293,0.1989427436584813,-1.1943987069382744, ,-0.04213896161566198,-0.027230112355371816,0.0052397406315789485,0.025272979621758264,-0.024202661028641593,0.00962715754803447, ,0.6613819599151611
0.010513164358533975,0.020815587606982846,-0.0824954556639938, ,0.010468598273198014,0.02104755165016451,-0.08274107889378568, ,0.0003407700460791002, ,-0.002206300730628169,0.0036227815658231477,-0.005358476352809029,-0.029244245791605637,-0.0017442152635720625,-0.025747707931060404, ,0.0068341479360087, ,0.0292962146767755, ,3.7949656141520117e-05, ,0.14798300733589007,-0.24162114343586225,0.09238788459000001,-4.535174097683293,0.19839619765941952,-1.1941163928037701, ,-0.04187861498608596,-0.027578303271860147,0.0056746745707160675,0.020353730850538466,-0.057304887840047544,0.052016109516418885, ,0.6726479530334473
0.010489051292738404,0.020856016864513372,-0.08255768753986964, ,0.010441710429231126,0.021091696076983014,-0.08280448482327954, ,0.00034452104093426794, ,-0.0022224728096553415,0.0038313311530041557,-0.006215846816761223,0.014359874785231829,0.021013466792282103,-0.01771389765951746, ,0.007632511738810369, ,0.0254513610873539, ,3.8288273834520546e-05, ,0.14754281156205926,-0.241922330017957,0.09245399538000001,-4.535174097683293,0.1979862881601232,-1.1937821390926806, ,-0.04017652055820101,-0.02703616568617401,0.006601248039784502,0.016693729152774155,-0.025664641698494476,0.011306565357942819, ,0.6840610504150391
0.010463923565622929,0.020898627543530796,-0.08262979527368955, ,0.010415972114937631,0.021135316268349812,-0.08286789121264673, ,0.0003391320837478803, ,-0.002124974797713514,0.0038994356810605917,-0.006638375128819491,0.023134510022980607,0.029148618778352654,-0.012944368373000989, ,0.007986810431741527, ,0.037213539441948544, ,3.859996169987883e-05, ,0.14710261578822845,-0.2422157938671775,0.09253047649000001,-4.535174097683293,0.19784965166035778,-1.1936707211889843, ,-0.03841981439614202,-0.02638958330324549,0.007057515073105894,0.014109641236045866,-0.013635736724001852,0.0031067644152833343, ,0.6968679428100586
0.010446063304352167,0.02093431723256441,-0.08269104875059557, ,0.010391377121427051,0.021178414865083692,-0.08293129795573106, ,0.00034683412948075405, ,-0.0019885585822156247,0.0035828711595634333,-0.005958816488310735,0.007953956406607319,0.01617637776742363,-0.013894831008358074, ,0.007231792649288192, ,0.018026109194161612, ,3.892274701999502e-05, ,0.1467396473431399,-0.2424629213191527,0.09259529099000001,-4.535174097683293,0.19743974216106144,-1.193336467477895, ,-0.03692487998384077,-0.024874689792521828,0.006323466264390632,0.012402944648732948,-0.026705737009175234,0.01484638523509334, ,0.7085599899291992
0.01042532488203651,0.02096991702189118,-0.08274571228992109, ,0.01036791925600187,0.021220994501856067,-0.08299470494596237, ,0.00035823546670931105, ,-0.0020785667992838314,0.0035521032501690895,-0.005270105721058653,-0.002756142789441381,0.008957800752604354,-0.013846380188770737, ,0.0066866951291412995, ,0.009372220299043927, ,3.9266270393519376e-05, ,0.14636895616517714,-0.24272549423687634,0.09265362404000001,-4.535174097683293,0.19716646916153055,-1.1931953104106428, ,-0.03773238232941184,-0.02662652681214107,0.005628555307420495,0.01106316974340491,-0.03617004204614776,0.0258957319651722, ,0.7201559543609619
0.01040407225283643,0.02100432185723187,-0.08279668731906271, ,0.010345592342140183,0.021263057807199975,-0.08305811207635992, ,0.0003724340149460596, ,-0.0019908741761059156,0.003363404502914417,-0.005095093170324352,-0.008754118014982685,0.005798793737064415,-0.0030120088484551248, ,0.006421529743729, ,0.010500504158923766, ,3.9637100725727896e-05, ,0.14599826498721435,-0.24298034442172575,0.09270806822000001,-4.534964407739808,0.19689319616199968,-1.1930541533433905, ,-0.03623403648662496,-0.025131605285611962,0.005427193022146509,0.0,-0.03552311333950878,0.02896671700353033, ,0.7318999767303467
0.01036320051237642,0.02107671661193914,-0.08291251893807619, ,0.010324390219477614,0.021304607403516022,-0.08312151923953358, ,0.00031164335020935046, ,-0.001951949530038444,0.003564101158205795,-0.005843267829086014,-0.007343221647515234,0.005191643777385515,-0.0010641999051415568, ,0.007117352243367808, ,0.008993111945468833, ,3.9940463951879526e-05, ,0.14524143716554036,-0.24350549025717302,0.09283121577,-4.535174097683293,0.19621001366317248,-1.1925787425650487, ,-0.037040180155531136,-0.025285622584191522,0.006202808224299066,-0.002372628462566964,-0.03618814472434275,0.027268037993489622, ,0.7433669567108154
0.010344042295939385,0.021112218442911935,-0.08297121523160997, ,0.01030430674378979,0.02134564590707733,-0.08318492632768457, ,0.0003189666561205514, ,-0.0019323118017958323,0.003589040592195736,-0.005912744343699898,-0.00018738675519146497,0.004254300803974098,0.0012438211158147306, ,0.007181614508294309, ,0.0042584248144031675, ,4.025514557816225e-05, ,0.14487074598757757,-0.2437603404420224,0.09289343769000001,-4.5353837876267775,0.19580010416387617,-1.1924895250743814, ,-0.036767509321375735,-0.025366731237228223,0.0062810770977918,-0.0052055547257757115,-0.03522783302103962,0.019853191720561984, ,0.752964973449707
0.010323360519641405,0.02114952755794009,-0.08303209502432567, ,0.010285335786974228,0.021386175928035052,-0.08324833323260712, ,0.0003228115457721202, ,-0.002064715132705227,0.0035818638503855686,-0.0056715006680616315,0.007510622971213217,0.01131183506426635,0.002359514046132381, ,0.007018455460408965, ,0.013578183386185489, ,4.0571645103894825e-05, ,0.1444923320767406,-0.24402291335974605,0.09295825219000001,-4.5353837876267775,0.1955268311643453,-1.1922666892669884, ,-0.03705464332622834,-0.025815272458778772,0.006045089760910817,-0.004778986443417849,-0.02746879026478977,0.013676607456429143, ,0.7633590698242188
0.010323360519641405,0.02114952755794009,-0.08303209502432567, ,0.010267471237033053,0.021426200070427136,-0.08331173984569067, ,0.00039733174702335627, ,-0.002064715132705227,0.0035818638503855686,-0.0056715006680616315,0.007510622971213217,0.01131183506426635,0.002359514046132381, ,0.007018455460408965, ,0.013578183386185489, ,4.1071577035781415e-05, ,0.1444923320767406,-0.24402291335974605,0.09295825219000001,-4.5353837876267775,0.1955268311643453,-1.1922666892669884, ,-0.03705464332622834,-0.025815272458778772,0.006045089760910817,-0.004778986443417849,-0.02746879026478977,0.013676607456429143, ,0.7730779647827148
0.010306032908908148,0.02118354425658996,-0.08308552455927701, ,0.010250706998054786,0.02146572093218142,-0.08337514605791972, ,0.0004081240560609651, ,-0.001775300070682512,0.0035858559896575566,-0.005764315487931357,-0.011606907922517739,-0.006370559072413628,-0.00155832926084135, ,0.007016935696152104, ,0.013240254078105581, ,4.158621198725872e-05, ,0.1441525318302747,-0.24427004081172124,0.09301528895000001,-4.5353837876267775,0.19511692166504896,-1.1919324355558993, ,-0.03578316046699501,-0.025801234790231317,0.006140636669236701,-0.0044412797559585096,-0.046838545384545884,0.030303661712347215, ,0.7825400829315186
0.0102840420650821,0.021227764725694577,-0.08316116208101948, ,0.010235036990196832,0.02150474110512516,-0.0834385517598785, ,0.000395047397237966, ,-0.0018691993090519626,0.0037751448658354062,-0.006488356172905019,0.004256654213368903,0.012305660387908278,0.002346745031423377, ,0.007735915630452443, ,0.013021074117574671, ,4.205517523864136e-05, ,0.14372005878931812,-0.244571227393816,0.09309565893,-4.5353837876267775,0.19470701216575265,-1.1916798605849506, ,-0.03586430142043491,-0.02551678987858854,0.006907550529054641,-0.00407547704821547,-0.025784201560653294,0.017009908995564392, ,0.7924089431762695
0.010263915664490765,0.021265322328755734,-0.08322163793873852, ,0.010220455149667618,0.021543263174986258,-0.08350195684174713, ,0.0003971380336054272, ,-0.0021527893412067057,0.0036952604342517298,-0.005670229558105502,0.02118407116323169,0.028767198049419157,0.006002963796425426, ,0.0071021795856041825, ,0.03572557275680748, ,4.2517705331245856e-05, ,0.1433648130771038,-0.24483380031153962,0.09316047343000002,-4.5353837876267775,0.1945703756659872,-1.1916501214213948, ,-0.03578316046699501,-0.02661159325812417,0.006098319877488516,-0.003811427355625795,-0.006847841957349644,0.003708202927279129, ,0.8032350540161133
0.010243485912966411,0.021303094784897763,-0.08328095771671479, ,0.010206955428708902,0.021581289721404592,-0.08356536119330879, ,0.00039951500156675283, ,-0.0019455686390366217,0.0036422669796977686,-0.0058949375680383545,0.012086869756903665,0.01582276812121359,0.002576528788662091, ,0.00719733527158972, ,0.019911112586177136, ,4.297473827723736e-05, ,0.142994121899141,-0.24510409596213747,0.09322399164,-4.5353837876267775,0.19429710266645633,-1.1915089643541426, ,-0.035108006495919636,-0.02551678987858854,0.006305942802850357,-0.003569865806771555,-0.020540631608377224,0.009907567965903304, ,0.8129520416259766
0.010228556319673857,0.021338987214281013,-0.08333916757031731, ,0.010194531795577918,0.021618823317933827,-0.08362876470394674, ,0.00040414404975692183, ,-0.0015281239087752497,0.003671660149134155,-0.0060647417741683555,-0.012320276023404598,-0.010139112213920847,-0.0030879737809358064, ,0.007252402616971366, ,0.01595590140276251, ,4.3431913055910635e-05, ,0.14266204438554936,-0.2453589461469869,0.09328621356000001,-4.5353837876267775,0.19375055666739455,-1.1911449714794973, ,-0.03336741967597425,-0.02568252816196773,0.006483032771672773,-0.0033707438762988168,-0.04860297607927399,0.03080732358604554, ,0.8223810195922852
0.01021045591023673,0.02137741752104745,-0.08340204557576265, ,0.01018317823452966,0.02165586653205028,-0.08369216726264826, ,0.000403049024960718, ,-0.0018390050345283506,0.0039143360118075975,-0.006368825062546599,0.021399558534512864,0.019078675913418094,-0.00012471997607135105, ,0.0076984348154463264, ,0.02866944313381135, ,4.398052878016201e-05, ,0.14231452140620926,-0.24562924179758475,0.09335362064000001,-4.535593477570262,0.19347728366786368,-1.1910854931523855, ,-0.034111050164798984,-0.026974684922817165,0.006851101729032258,0.0,-0.016131701114950752,0.003076450695112521, ,0.8308150768280029
0.010192595754632104,0.021415049604179573,-0.08346620931801212, ,0.010172888745799191,0.021692421925158804,-0.08375556875800604, ,0.00040131366305689177, ,-0.0017596125427606843,0.003969690777805404,-0.007074358864456593,0.01963743854420314,0.01779891948075491,0.009899887637487906, ,0.008300676750431231, ,0.02650340562155939, ,4.4514631974323724e-05, ,0.1419824438926176,-0.24588409198243416,0.09342232401000002,-4.5358031675137465,0.19334064716809823,-1.1909740752486893, ,-0.03413559048865855,-0.025738253745177863,0.00755636220113852,-0.010329070307183115,-0.014776676541437259,0.002382435652868828, ,0.8397960662841797
0.010178216014363969,0.021454310975438234,-0.08353804644941139, ,0.010163657345583712,0.021728492052597043,-0.0838189690782182, ,0.0003928164218618534, ,-0.0014898166875719678,0.004066098426268788,-0.007111955145930501,0.00036038398718105574,0.0009742096085449765,-0.014150332497265519, ,0.008326620933632128, ,0.0010387217071438223, ,4.501875848597761e-05, ,0.14165036637902595,-0.24613894216728358,0.09349880512000001,-4.536012857457231,0.1929307376688019,-1.1908031790178808, ,-0.03362754839067001,-0.02660413276099545,0.00761051673196369,0.009908546991036228,-0.039506462453696135,0.022058293569073073, ,0.8476848602294922
0.010162823918981207,0.021499758151897398,-0.08361648803422246, ,0.010155478066025004,0.021764079463642613,-0.08388236811109025, ,0.00037498257649334156, ,-0.0012851770662355077,0.004321303437234324,-0.007735452530103087,0.0026237277756031617,-0.0021187659453611304,-0.014270412529593494, ,0.008953355199795725, ,0.0033724010548799362, ,4.5472031840743734e-05, ,0.14129512066681163,-0.24644012874937832,0.09358306397,-4.536012857457231,0.19252082816950558,-1.1905506040469322, ,-0.03237698449623704,-0.02762647498063196,0.008296256,0.009567896709888106,-0.04116071507825221,0.020507536491477255, ,0.855463981628418
0.010162823918981207,0.021499758151897398,-0.08361648803422246, ,0.010148344955191452,0.021799186701519813,-0.08394576574403743, ,0.0004452986715704434, ,-0.0012851770662355077,0.004321303437234324,-0.007735452530103087,0.0026237277756031617,-0.0021187659453611304,-0.014270412529593494, ,0.008953355199795725, ,0.0033724010548799362, ,4.607896857854896e-05, ,0.14129512066681163,-0.24644012874937832,0.09358306397,-4.536012857457231,0.19252082816950558,-1.1905506040469322, ,-0.03237698449623704,-0.02762647498063196,0.008296256,0.009567896709888106,-0.04116071507825221,0.020507536491477255, ,0.8632230758666992
0.010150493621457785,0.02154278072663572,-0.08369763973127556, ,0.010142252077060505,0.021833816303405182,-0.08400916186408552, ,0.000426398486430305, ,-0.0012293212115182136,0.004506636461149658,-0.00865060011104838,0.014214028243342433,0.011043727692173386,-0.010350782958617723, ,0.009831270778252544, ,0.018000068660935623, ,4.6631668606211304e-05, ,0.14098621135184264,-0.24670270166710195,0.09366991540000001,-4.536012857457231,0.19224755516997472,-1.1904911257198205, ,-0.03149583191452731,-0.026799475164775707,0.009255555793143523,0.008818054236458204,-0.02495750402991007,0.010143213686893375, ,0.8710939884185791
0.01014035919611581,0.021581990170504637,-0.0837714108669226, ,0.010137193511500775,0.021867970800433137,-0.08407255635787197, ,0.00041531138796393146, ,-0.0012593818045124154,0.004524483976568203,-0.00825906588472135,0.0028270408884125643,0.013745342305650563,-0.007971205332611704, ,0.00950100873970377, ,0.014033052300039919, ,4.714928108028163e-05, ,0.14071591570124478,-0.24694210638620293,0.09374898909000001,-4.536012857457231,0.19197428217044385,-1.190431647392709, ,-0.03094129167214567,-0.028026267441958293,0.008883888187395427,0.008237387065248708,-0.02303294529353933,0.023079179454548033, ,0.878993034362793
0.010129475046585396,0.021629456925375615,-0.08385952516572469, ,0.010133163354254262,0.02190165271770293,-0.0841359491116482, ,0.00038796179045633166, ,-0.0008770409770181514,0.004664220903549946,-0.00893026409767361,0.003300430085509826,-0.004318899075684019,-0.012075045255884778, ,0.010113049706526687, ,0.005435592992378164, ,4.7596287058163253e-05, ,0.1403992836534016,-0.24723557023542345,0.09384361826000001,-4.536012857457231,0.1915643726711475,-1.1900973936816197, ,-0.02923504052941182,-0.02782085651083869,0.009584122454873648,0.007628902831293867,-0.039625431742885034,0.019958974104861978, ,0.8872818946838379
0.010121752887407536,0.021671620565928508,-0.08394165498478215, ,0.010130155716918693,0.021934864574283817,-0.08419934001127978, ,0.00036846925022293006, ,-0.0008410738305429638,0.004501136068820682,-0.008774751352131113,0.008990515756793004,0.0023048895055547366,-0.009878055269908148, ,0.009897671058900145, ,0.009281262693486857, ,4.799202950703054e-05, ,0.14014443346855218,-0.24748269768739864,0.09393176598000001,-4.536012857457231,0.19129109967161662,-1.189874557874227, ,-0.027498389324390263,-0.026214624739909057,0.00941419120567376,0.007171029687875348,-0.02998850358427202,0.013895333343516593, ,0.8960840702056885
0.010121752887407536,0.021671620565928508,-0.08394165498478215, ,0.01012816472692971,0.02196760888322221,-0.08426272894224962, ,0.000436736398556657, ,-0.0008410738305429638,0.004501136068820682,-0.008774751352131113,0.008990515756793004,0.0023048895055547366,-0.009878055269908148, ,0.009897671058900145, ,0.009281262693486857, ,4.853116668881145e-05, ,0.14014443346855218,-0.24748269768739864,0.09393176598000001,-4.536012857457231,0.19129109967161662,-1.189874557874227, ,-0.027498389324390263,-0.026214624739909057,0.00941419120567376,0.007171029687875348,-0.02998850358427202,0.013895333343516593, ,0.9037940502166748
0.01010852770777265,0.021723185063655795,-0.08403504374864161, ,0.010127184527543092,0.021999888151546257,-0.08432611578965737, ,0.0004020393125468526, ,-0.0009854789648158636,0.004432577764677438,-0.007439586135983852,0.020187243518170157,0.010136817732078281,-0.006736553106826369, ,0.008715868075225239, ,0.022589374754634156, ,4.9092317263166846e-05, ,0.1398355241535832,-0.24779932973524185,0.09403287660000001,-4.536012857457231,0.19129109967161662,-1.189874557874227, ,-0.025780206889016784,-0.028976165361365123,0.008114524462557312,0.006655761622124082,-0.01896195851044393,0.006826306031355808, ,0.9097099304199219
0.01009944637769298,0.0217696826610813,-0.0841175419748739, ,0.010127209277817024,0.022031704880274162,-0.08438950043822294, ,0.0003786658523833678, ,-0.0008245640721890378,0.0044398952286253054,-0.008348035650118393,0.022339208065374424,0.014538537122589321,-0.005414910539901804, ,0.009491168250851017, ,0.026653503298993835, ,4.9595336612283954e-05, ,0.13956522850298533,-0.24809279358446237,0.09412232061,-4.536012857457231,0.19101782667208575,-1.189651722066834, ,-0.02468060898789877,-0.026309104951059266,0.009019712072480182,0.006256553318147722,-0.012593492867989307,0.0028251461888293638, ,0.9155950546264648
0.01009944637769298,0.0217696826610813,-0.0841175419748739, ,0.01012823315259432,0.02206306156441739,-0.08445288277228596, ,0.00044648998839937114, ,-0.0008245640721890378,0.0044398952286253054,-0.008348035650118393,0.022339208065374424,0.014538537122589321,-0.005414910539901804, ,0.009491168250851017, ,0.026653503298993835, ,5.023832576684663e-05, ,0.13956522850298533,-0.24809279358446237,0.09412232061,-4.536012857457231,0.19101782667208575,-1.189651722066834, ,-0.02468060898789877,-0.026309104951059266,0.009019712072480182,0.006256553318147722,-0.012593492867989307,0.0028251461888293638, ,0.921396017074585
0.01009578857503993,0.021814398985536377,-0.08420679856834883, ,0.010130250342484715,0.02209396069299009,-0.08451626267580901, ,0.0004184619403195303, ,-0.00022897681297869433,0.004743786721803515,-0.009380545200170806,-0.012721509057785631,-0.018608117060421002,-0.011972643322853745, ,0.010514303167366288, ,0.022541045685761325, ,5.081289006517064e-05, ,0.1393335465167586,-0.2483476437693118,0.09421824607000001,-4.536012857457231,0.1906079171727894,-1.1893174683557448, ,-0.02320786049363433,-0.02719110073308618,0.010100704831959418,0.005919325733715007,-0.049619164217244334,0.03387533537647352, ,0.9274029731750488
0.01009578857503993,0.021814398985536377,-0.08420679856834883, ,0.010133255053847013,0.022124404749012443,-0.08457964003237839, ,0.00048633123251780596, ,-0.00022897681297869433,0.004743786721803515,-0.009380545200170806,-0.012721509057785631,-0.018608117060421002,-0.011972643322853745, ,0.010514303167366288, ,0.022541045685761325, ,5.152481450509024e-05, ,0.1393335465167586,-0.2483476437693118,0.09421824607000001,-4.536012857457231,0.1906079171727894,-1.1893174683557448, ,-0.02320786049363433,-0.02719110073308618,0.010100704831959418,0.005919325733715007,-0.049619164217244334,0.03387533537647352, ,0.9331989288330078
0.01009388693330985,0.02186594790558833,-0.08430889058049877, ,0.010137241508771367,0.022154396209517792,-0.08464301472520461, ,0.0004435323971579052, ,-0.00019024294624953985,0.00508039455336208,-0.010312381223023316,0.009938796616225426,0.0005278078395172393,-0.006938644109814453, ,0.011497469620981507, ,0.009952795721218563, ,5.2137013559417856e-05, ,0.13910186453053186,-0.2486411076185323,0.09432843072000001,-4.536012857457231,0.1901980076734931,-1.1889832146446555, ,-0.021730465206885912,-0.02782085651083869,0.011123471731843576,0.005605254065324895,-0.025553764365987074,0.014953882994016818, ,0.938992977142334
0.01009388693330985,0.02186594790558833,-0.08430889058049877, ,0.010142203945061632,0.022183937545559237,-0.08470638663712557, ,0.0005113267642000597, ,-0.00019024294624953985,0.00508039455336208,-0.010312381223023316,0.009938796616225426,0.0005278078395172393,-0.006938644109814453, ,0.011497469620981507, ,0.009952795721218563, ,5.288420455630587e-05, ,0.13888562801005358,-0.2489191260020044,0.09444380053000001,-4.536012857457231,0.1901980076734931,-1.1889832146446555, ,-0.019790811586750945,-0.027261402343714675,0.012021744543396226,0.005331188281912196,-0.01733394373637305,0.008801413312521635, ,0.9462158679962158
0.01009029384422559,0.02191797169707381,-0.08441578462901916, ,0.010148136616217284,0.022213031222213984,-0.08476975565060593, ,0.00046443664128792536, ,1.688965737293741e-05,0.005268649585126767,-0.011158669195591242,0.016582396500234922,0.005624965616076052,-0.005138556577333821, ,0.01233996968910457, ,0.017510452274761577, ,5.352392009525777e-05, ,0.13888562801005358,-0.2489191260020044,0.09444380053000001,-4.536012857457231,0.1901980076734931,-1.1889832146446555, ,-0.019790811586750945,-0.027261402343714675,0.012021744543396226,0.005331188281912196,-0.01733394373637305,0.008801413312521635, ,0.9521050453186035
0.010089825890812839,0.021972293890946577,-0.0845311344757008, ,0.010155033791416133,0.022241679698592906,-0.084833121647742, ,0.0004098988115862127, ,0.000116167566153356,0.005015257360816009,-0.010783534565956338,0.019345861639857496,0.007936695335361378,-0.004070609135663324, ,0.011893314047557153, ,0.02091060376026219, ,5.404227155326284e-05, ,0.13869255968819796,-0.24919714438547647,0.09456824437000001,-4.536012857457231,0.1901980076734931,-1.1889832146446555, ,-0.01740589537022575,-0.02531260110922133,0.011618389146608317,0.005070501768323854,-0.011840881542712013,0.004797236709482299, ,0.9582729339599609
0.010089825890812839,0.021972293890946577,-0.0845311344757008, ,0.010162889755496158,0.022269885427841887,-0.08489648451025814, ,0.00047684347421896907, ,0.000116167566153356,0.005015257360816009,-0.010783534565956338,0.019345861639857496,0.007936695335361378,-0.004070609135663324, ,0.011893314047557153, ,0.02091060376026219, ,5.4805747601114696e-05, ,0.13869255968819796,-0.24919714438547647,0.09456824437000001,-4.536012857457231,0.1901980076734931,-1.1889832146446555, ,-0.01740589537022575,-0.02531260110922133,0.011618389146608317,0.005070501768323854,-0.011840881542712013,0.004797236709482299, ,0.9621529579162598
0.010089825890812839,0.021972293890946577,-0.0845311344757008, ,0.010171698808937903,0.02229765085715199,-0.08495984411951309, ,0.0005443824839929701, ,0.000116167566153356,0.005015257360816009,-0.010783534565956338,0.019345861639857496,0.007936695335361378,-0.004070609135663324, ,0.011893314047557153, ,0.02091060376026219, ,5.570218262954921e-05, ,0.1385458277635877,-0.24944427183745166,0.09468102160000001,-4.536012857457231,0.1901980076734931,-1.1889832146446555, ,-0.013847503510648005,-0.02469345343702076,0.011170274558204768,0.004845055685557137,-0.009085662973134548,0.0029303875477718305, ,0.966101884841919
0.010091765307729617,0.022021168511956436,-0.0846354729586565, ,0.010181455267846654,0.02232497842776355,-0.08502320035649849, ,0.0005006768308258715, ,0.0003307612697980921,0.004859931955719539,-0.010327229613445487,0.02093417812330146,0.006728251474400374,-0.00338304887562517, ,0.011418406768049904, ,0.021988839535841697, ,5.6501510074244845e-05, ,0.1385458277635877,-0.24944427183745166,0.09468102160000001,-4.536012857457231,0.1901980076734931,-1.1889832146446555, ,-0.013847503510648005,-0.02469345343702076,0.011170274558204768,0.004845055685557137,-0.009085662973134548,0.0029303875477718305, ,0.9699108600616455
0.010091765307729617,0.022021168511956436,-0.0846354729586565, ,0.010192153463934922,0.022351870574972715,-0.08508655310184132, ,0.000568256044371865, ,0.0003307612697980921,0.004859931955719539,-0.010327229613445487,0.02093417812330146,0.006728251474400374,-0.00338304887562517, ,0.011418406768049904, ,0.021988839535841697, ,5.743249785384275e-05, ,0.1385458277635877,-0.24944427183745166,0.09468102160000001,-4.536012857457231,0.1901980076734931,-1.1889832146446555, ,-0.013847503510648005,-0.02469345343702076,0.011170274558204768,0.004845055685557137,-0.009085662973134548,0.0029303875477718305, ,0.9739348888397217
0.01009961459168182,0.0220713983209287,-0.08474592755205987, ,0.010203787744504197,0.022378329728137233,-0.08514990223580489, ,0.0005179328910262936, ,0.0009216679636809623,0.005565577013435366,-0.012708814285284272,0.023183070148468484,0.005080190726055505,-0.002691783608161137, ,0.013904642385390627, ,0.02373315713911931, ,5.825341006426761e-05, ,0.13842998677047433,-0.24969139928942685,0.09480028028000001,-4.536012857457231,0.18992473467396223,-1.1887603788372627, ,-0.010615527616777608,-0.025530519655224855,0.013708099414802067,0.0046421232565008845,-0.0072232760166659575,0.001730748271389243, ,0.9783620834350586
0.01009961459168182,0.0220713983209287,-0.08474592755205987, ,0.010216352472427699,0.022404358310683364,-0.08521324763829134, ,0.00058555798224758, ,0.0009216679636809623,0.005565577013435366,-0.012708814285284272,0.023183070148468484,0.005080190726055505,-0.002691783608161137, ,0.013904642385390627, ,0.02373315713911931, ,5.920483229980319e-05, ,0.13842998677047433,-0.24969139928942685,0.09480028028000001,-4.536012857457231,0.18992473467396223,-1.1887603788372627, ,-0.010615527616777608,-0.025530519655224855,0.013708099414802067,0.0046421232565008845,-0.0072232760166659575,0.001730748271389243, ,0.9822959899902344
0.01009961459168182,0.0220713983209287,-0.08474592755205987, ,0.010229842026132268,0.022429958740110965,-0.08527658918884147, ,0.0006535491807350357, ,0.001476576978990173,0.0058176702848479174,-0.013870502191479252,0.016364159992240942,-0.004237126921348944,-0.0037956837388117503, ,0.015113450901826392, ,0.016903800264830827, ,6.028592223138992e-05, ,0.1383527594417321,-0.24991535854277935,0.09492990928000002,-4.536012857457231,0.18965146167443137,-1.1885375430298697, ,-0.006677380874066996,-0.02492041532522867,0.014942599924953096,0.004469038324283089,-0.013496846536656037,0.007103505037642896, ,0.9866318702697754
0.010112168833253487,0.022122269347671805,-0.08486643437487296, ,0.010244250799580802,0.022455133428000974,-0.0853399267666381, ,0.0005936658882416496, ,0.001476576978990173,0.0058176702848479174,-0.013870502191479252,0.016364159992240942,-0.004237126921348944,-0.0037956837388117503, ,0.015113450901826392, ,0.016903800264830827, ,6.123782171585444e-05, ,0.1383527594417321,-0.24991535854277935,0.09492990928000002,-4.536012857457231,0.18965146167443137,-1.1885375430298697, ,-0.006677380874066996,-0.02492041532522867,0.014942599924953096,0.004469038324283089,-0.013496846536656037,0.007103505037642896, ,0.9906539916992188
0.010112168833253487,0.022122269347671805,-0.08486643437487296, ,0.010259573202254338,0.022479884780019176,-0.08540326025050532, ,0.000661663710809343, ,0.001476576978990173,0.0058176702848479174,-0.013870502191479252,0.016364159992240942,-0.004237126921348944,-0.0037956837388117503, ,0.015113450901826392, ,0.016903800264830827, ,6.231835892502805e-05, ,0.1383527594417321,-0.24991535854277935,0.09492990928000002,-4.536012857457231,0.18965146167443137,-1.1885375430298697, ,-0.006677380874066996,-0.02492041532522867,0.014942599924953096,0.004469038324283089,-0.013496846536656037,0.007103505037642896, ,0.9947540760040283
0.010130852961521327,0.022189525457562802,-0.0850302511576953, ,0.010275803659134355,0.022504215195925183,-0.08546658951891237, ,0.0005571638014432391, ,0.0021728780435718866,0.006499880206322206,-0.01632146657231564,0.00010569707104853086,-0.02158765131764968,-0.006878751509751501, ,0.017701980475641498, ,0.021587883246171773, ,6.318168643719009e-05, ,0.1382909775787383,-0.25019337692625143,0.09510620472,-4.536012857457231,0.18951482517466592,-1.1884261251261734, ,-0.004347260315673031,-0.0255580235815973,0.017523445016501653,0.004276726768557107,-0.031034337570869125,0.021674509105825728, ,0.9986209869384766
0.010130852961521327,0.022189525457562802,-0.0850302511576953, ,0.010292936610685009,0.022528127069575597,-0.08552991444997228, ,0.0006249684525101629, ,0.0021728780435718866,0.006499880206322206,-0.01632146657231564,0.00010569707104853086,-0.02158765131764968,-0.006878751509751501, ,0.017701980475641498, ,0.021587883246171773, ,6.417294902095905e-05, ,0.1382909775787383,-0.25019337692625143,0.09510620472,-4.536012857457231,0.18951482517466592,-1.1884261251261734, ,-0.004347260315673031,-0.0255580235815973,0.017523445016501653,0.004276726768557107,-0.031034337570869125,0.021674509105825728, ,1.0026929378509521
0.010151949346723609,0.022255661311982977,-0.08520058967690686, ,0.010310966512835348,0.02255162278893205,-0.0855932349214453, ,0.0005167687519720376, ,0.0021728780435718866,0.006499880206322206,-0.01632146657231564,0.00010569707104853086,-0.02158765131764968,-0.006878751509751501, ,0.017701980475641498, ,0.021587883246171773, ,6.494210318715732e-05, ,0.1382600866472414,-0.2504327816453524,0.09528898161,-4.5358031675137465,0.18951482517466592,-1.188507803866314, ,-0.0017180732107382416,-0.02296078915036796,0.01949670932680539,0.0,-0.02292618829508984,0.017000400793232968, ,1.0070269107818604
0.010151949346723609,0.022255661311982977,-0.08520058967690686, ,0.01032988783696165,0.02257470473606794,-0.08565655081074112, ,0.0005842528291138027, ,0.0025927308384874814,0.00677640665085274,-0.018238297492646625,0.002716236655916603,-0.01809970060508281,-0.0014029126545813675, ,0.019628485314176575, ,0.01830232459451848, ,6.583829376455277e-05, ,0.1382600866472414,-0.2504327816453524,0.09528898161,-4.5358031675137465,0.18951482517466592,-1.188507803866314, ,-0.0017180732107382416,-0.02296078915036796,0.01949670932680539,0.0,-0.02292618829508984,0.017000400793232968, ,1.0111019611358643
0.010151949346723609,0.022255661311982977,-0.08520058967690686, ,0.010349695069869482,0.022597375287172095,-0.08571986199491771, ,0.0006523155311000956, ,0.0025927308384874814,0.00677640665085274,-0.018238297492646625,0.002716236655916603,-0.01809970060508281,-0.0014029126545813675, ,0.019628485314176575, ,0.01830232459451848, ,6.68611600584054e-05, ,0.1382600866472414,-0.2504327816453524,0.09528898161,-4.5358031675137465,0.18951482517466592,-1.188507803866314, ,-0.0017180732107382416,-0.02296078915036796,0.01949670932680539,0.0,-0.02292618829508984,0.017000400793232968, ,1.014949083328247
0.010177718969837341,0.022324732539369865,-0.08538578066252968, ,0.010370382713775982,0.022619636812556417,-0.0857831683506845, ,0.0005310412632453132, ,0.002746565332414487,0.006648981070100392,-0.01785559631950926,0.006595912727506707,-0.016875936255419166,-0.0005550558508440593, ,0.01925032182383056, ,0.018119091429375362, ,6.777131712347776e-05, ,0.1382600866472414,-0.2506644636315791,0.09548731398000002,-4.5358031675137465,0.18951482517466592,-1.188507803866314, ,0.0011608225172558392,-0.022397201217481892,0.019122222713085234,0.0,-0.01814376166591436,0.013191054529940715, ,1.0168840885162354
0.010177718969837341,0.022324732539369865,-0.08538578066252968, ,0.010391945286292191,0.022641491676661903,-0.08584646975440338, ,0.000598718385462838, ,0.002746565332414487,0.006648981070100392,-0.01785559631950926,0.006595912727506707,-0.016875936255419166,-0.0005550558508440593, ,0.01925032182383056, ,0.018119091429375362, ,6.88103524822632e-05, ,0.1382600866472414,-0.2506644636315791,0.09548731398000002,-4.5358031675137465,0.18951482517466592,-1.188507803866314, ,0.0011608225172558392,-0.022397201217481892,0.019122222713085234,0.0,-0.01814376166591436,0.013191054529940715, ,1.0188360214233398
0.010177718969837341,0.022324732539369865,-0.08538578066252968, ,0.010414377320405208,0.022662942238065007,-0.08590976608209062, ,0.0006670484953115653, ,0.002746565332414487,0.006648981070100392,-0.01785559631950926,0.006595912727506707,-0.016875936255419166,-0.0005550558508440593, ,0.01925032182383056, ,0.018119091429375362, ,6.997878635497669e-05, ,0.1382600866472414,-0.2506644636315791,0.09548731398000002,-4.5358031675137465,0.18951482517466592,-1.188507803866314, ,0.0011608225172558392,-0.022397201217481892,0.019122222713085234,0.0,-0.01814376166591436,0.013191054529940715, ,1.0207839012145996
0.010177718969837341,0.022324732539369865,-0.08538578066252968, ,0.010437673364460321,0.022683990849482055,-0.085973057209417, ,0.0007358916789802472, ,0.002746565332414487,0.006648981070100392,-0.01785559631950926,0.006595912727506707,-0.016875936255419166,-0.0005550558508440593, ,0.01925032182383056, ,0.018119091429375362, ,7.127686216906104e-05, ,0.1382600866472414,-0.2506644636315791,0.09548731398000002,-4.5358031675137465,0.18951482517466592,-1.188507803866314, ,0.0011608225172558392,-0.022397201217481892,0.019122222713085234,0.0,-0.01814376166591436,0.013191054529940715, ,1.0226879119873047
0.010177718969837341,0.022324732539369865,-0.08538578066252968, ,0.010461827982143452,0.022704639857777497,-0.08603634301171086, ,0.0008051576687987043, ,0.002746565332414487,0.006648981070100392,-0.01785559631950926,0.006595912727506707,-0.016875936255419166,-0.0005550558508440593, ,0.01925032182383056, ,0.018119091429375362, ,0.0003975551910800746, ,0.1382600866472414,-0.2506644636315791,0.09548731398000002,-4.5358031675137465,0.18951482517466592,-1.188507803866314, ,0.0011608225172558392,-0.022397201217481892,0.019122222713085234,0.0,-0.01814376166591436,0.013191054529940715, ,1.0248188972473145
0.010207497538895325,0.02239256080302507,-0.08557081418530198, ,0.010486835752463203,0.022724891603969066,-0.0860996233639588, ,0.0006841876542638495, ,0.002746565332414487,0.006648981070100392,-0.01785559631950926,0.006595912727506707,-0.016875936255419166,-0.0005550558508440593, ,0.01925032182383056, ,0.018119091429375362, ,0.00040057237490306175, ,0.13830642304448673,-0.25088070015205743,0.09568564635000001,-4.5358031675137465,0.18951482517466592,-1.188507803866314, ,0.006289443894886923,-0.021191813657541487,0.02076768125162973,0.0,-0.015076314540127152,0.010770302799746745, ,1.0268158912658691
0.010207497538895325,0.02239256080302507,-0.08557081418530198, ,0.010512691269733136,0.022744748423233364,-0.08616289814080658, ,0.0007534870559848102, ,0.0033819986806020805,0.006965194569117164,-0.019403520477376084,0.008226171019590438,-0.019370386764519527,-0.00012502610236797248, ,0.020891348864475134, ,0.021044691078928028, ,0.0004042485694976633, ,0.13830642304448673,-0.25088070015205743,0.09568564635000001,-4.5358031675137465,0.18951482517466592,-1.188507803866314, ,0.006289443894886923,-0.021191813657541487,0.02076768125162973,0.0,-0.015076314540127152,0.010770302799746745, ,1.0288989543914795
0.010207497538895325,0.02239256080302507,-0.08557081418530198, ,0.01053938914355403,0.022764212644912744,-0.08622616721656151, ,0.0008232646745746417, ,0.0033819986806020805,0.006965194569117164,-0.019403520477376084,0.008226171019590438,-0.019370386764519527,-0.00012502610236797248, ,0.020891348864475134, ,0.021044691078928028, ,0.0004085683231582507, ,0.13830642304448673,-0.25088070015205743,0.09568564635000001,-4.5358031675137465,0.18951482517466592,-1.188507803866314, ,0.006289443894886923,-0.021191813657541487,0.02076768125162973,0.0,-0.015076314540127152,0.010770302799746745, ,1.0308160781860352
0.010207497538895325,0.02239256080302507,-0.08557081418530198, ,0.010566923998796149,0.022783286592521573,-0.08628943046519386, ,0.0008934558637001315, ,0.0033819986806020805,0.006965194569117164,-0.019403520477376084,0.008226171019590438,-0.019370386764519527,-0.00012502610236797248, ,0.020891348864475134, ,0.021044691078928028, ,0.00041351615520459647, ,0.13830642304448673,-0.25088070015205743,0.09568564635000001,-4.5358031675137465,0.18951482517466592,-1.188507803866314, ,0.006289443894886923,-0.021191813657541487,0.02076768125162973,0.0,-0.015076314540127152,0.010770302799746745, ,1.0327379703521729
0.010207497538895325,0.02239256080302507,-0.08557081418530198, ,0.010595290475581207,0.022801972583750812,-0.08635268776033678, ,0.0009640164185729321, ,0.0033819986806020805,0.006965194569117164,-0.019403520477376084,0.008226171019590438,-0.019370386764519527,-0.00012502610236797248, ,0.020891348864475134, ,0.021044691078928028, ,0.00041907676392548873, ,0.13830642304448673,-0.25088070015205743,0.09568564635000001,-4.5358031675137465,0.18951482517466592,-1.188507803866314, ,0.006289443894886923,-0.021191813657541487,0.02076768125162973,0.0,-0.015076314540127152,0.010770302799746745, ,1.0347108840942383
0.010207497538895325,0.02239256080302507,-0.08557081418530198, ,0.010624483229264936,0.022820272930475553,-0.08641593897528961, ,0.0010349157649745615, ,0.0033819986806020805,0.006965194569117164,-0.019403520477376084,0.008226171019590438,-0.019370386764519527,-0.00012502610236797248, ,0.020891348864475134, ,0.021044691078928028, ,0.00042523515393597946, ,0.13841454130472589,-0.25108149120678724,0.09589823791,-4.535593477570262,0.18937818867490044,-1.1883963859626174, ,0.01594906580814635,-0.022022961605586165,0.025324024674085854,0.005089060610073402,0.0,0.0006273734911015214, ,1.0373649597167969
0.010245821245827855,0.022462873093794553,-0.08576922678117414, ,0.010654496930419147,0.022838189938761504,-0.08647918398301872, ,0.0009010648021885514, ,0.0046854662195427435,0.008202158958698615,-0.023639629650342164,0.02187222580632135,-0.014609035276270919,-0.0017874035696151373, ,0.02545704411913474, ,0.02630229630522722, ,0.0004299463385721435, ,0.13841454130472589,-0.25108149120678724,0.09589823791,-4.535593477570262,0.18937818867490044,-1.1883963859626174, ,0.01594906580814635,-0.022022961605586165,0.025324024674085854,0.005089060610073402,0.0,0.0006273734911015214, ,1.0402069091796875
0.010245821245827855,0.022462873093794553,-0.08576922678117414, ,0.010685326264813876,0.022855725908868967,-0.08654242265615811, ,0.000972280750152965, ,0.0046854662195427435,0.008202158958698615,-0.023639629650342164,0.02187222580632135,-0.014609035276270919,-0.0017874035696151373, ,0.02545704411913474, ,0.02630229630522722, ,0.0004352633426072496, ,0.13841454130472589,-0.25108149120678724,0.09589823791,-4.535593477570262,0.18937818867490044,-1.1883963859626174, ,0.01594906580814635,-0.022022961605586165,0.025324024674085854,0.005089060610073402,0.0,0.0006273734911015214, ,1.0424559116363525
0.010245821245827855,0.022462873093794553,-0.08576922678117414, ,0.01071696593339978,0.022872883135261816,-0.08660565486701283, ,0.0010438857665046482, ,0.0046854662195427435,0.008202158958698615,-0.023639629650342164,0.02187222580632135,-0.014609035276270919,-0.0017874035696151373, ,0.02545704411913474, ,0.02630229630522722, ,0.000441172298179069, ,0.13841454130472589,-0.25108149120678724,0.09589823791,-4.535593477570262,0.18937818867490044,-1.1883963859626174, ,0.01594906580814635,-0.022022961605586165,0.025324024674085854,0.005089060610073402,0.0,0.0006273734911015214, ,1.0444018840789795
0.010245821245827855,0.022462873093794553,-0.08576922678117414, ,0.010749410652290157,0.022889663906610163,-0.0866688804875573, ,0.0011158536999149218, ,0.0046854662195427435,0.008202158958698615,-0.023639629650342164,0.02187222580632135,-0.014609035276270919,-0.0017874035696151373, ,0.02545704411913474, ,0.02630229630522722, ,0.0004476596193496061, ,0.13841454130472589,-0.25108149120678724,0.09589823791,-4.535593477570262,0.18937818867490044,-1.1883963859626174, ,0.01594906580814635,-0.022022961605586165,0.025324024674085854,0.005089060610073402,0.0,0.0006273734911015214, ,1.0464630126953125
0.01031203412116478,0.022567257202083454,-0.08607766535507916, ,0.010782655152743386,0.02290607050580002,-0.08673209938943989, ,0.0008743926552008017, ,0.006326490869619686,0.009359265245847778,-0.028412758452052586,0.02180792637975526,-0.022305099406597192,-0.0019510516558617855, ,0.030576219117480843, ,0.031194303897952188, ,0.0004517237435005699, ,0.13868483695532374,-0.25132089592588824,0.09621323638000001,-4.535174097683293,0.18951482517466592,-1.188507803866314, ,0.027159971825549738,-0.020589486126810757,0.030168203636363643,0.006024979225857393,0.0037253295631844833,-0.0024255712197845756, ,1.0484309196472168
0.01031203412116478,0.022567257202083454,-0.08607766535507916, ,0.010816694181144983,0.022922105209936577,-0.08679531144398263, ,0.0009463692692258123, ,0.006326490869619686,0.009359265245847778,-0.028412758452052586,0.02180792637975526,-0.022305099406597192,-0.0019510516558617855, ,0.030576219117480843, ,0.031194303897952188, ,0.0004563902107243929, ,0.13868483695532374,-0.25132089592588824,0.09621323638000001,-4.535174097683293,0.18951482517466592,-1.188507803866314, ,0.027159971825549738,-0.020589486126810757,0.030168203636363643,0.006024979225857393,0.0037253295631844833,-0.0024255712197845756, ,1.0505290031433105
0.01031203412116478,0.022567257202083454,-0.08607766535507916, ,0.010851522498989736,0.022937770290351264,-0.08685851652218221, ,0.0010188504323756997, ,0.006326490869619686,0.009359265245847778,-0.028412758452052586,0.02180792637975526,-0.022305099406597192,-0.0019510516558617855, ,0.030576219117480843, ,0.031194303897952188, ,0.00046164684830991913, ,0.13868483695532374,-0.25132089592588824,0.09621323638000001,-4.535174097683293,0.18951482517466592,-1.188507803866314, ,0.027159971825549738,-0.020589486126810757,0.030168203636363643,0.006024979225857393,0.0037253295631844833,-0.0024255712197845756, ,1.0527100563049316
0.01031203412116478,0.022567257202083454,-0.08607766535507916, ,0.010887134882864255,0.022953068012608838,-0.08692171449471359, ,0.0010917920212857337, ,0.006326490869619686,0.009359265245847778,-0.028412758452052586,0.02180792637975526,-0.022305099406597192,-0.0019510516558617855, ,0.030576219117480843, ,0.031194303897952188, ,0.00046748152583747296, ,0.13868483695532374,-0.25132089592588824,0.09621323638000001,-4.535174097683293,0.18951482517466592,-1.188507803866314, ,0.027159971825549738,-0.020589486126810757,0.030168203636363643,0.006024979225857393,0.0037253295631844833,-0.0024255712197845756, ,1.0547828674316406
0.01031203412116478,0.022567257202083454,-0.08607766535507916, ,0.01092352612442889,0.022968000636512702,-0.08698490523192945, ,0.0011651617760815164, ,0.006326490869619686,0.009359265245847778,-0.028412758452052586,0.02180792637975526,-0.022305099406597192,-0.0019510516558617855, ,0.030576219117480843, ,0.031194303897952188, ,0.000473882262078244, ,0.13894740987304738,-0.2514753505833727,0.09647249438000001,-4.534545027852839,0.18965146167443137,-1.1885375430298697, ,0.03709810068743971,-0.01847322202812357,0.03277533234567902,0.07820302073910346,0.004181629882178675,-0.0005048839779289876, ,1.0569610595703125
0.010365126959256872,0.022641796310981642,-0.08630511670546899, ,0.010960691030399912,0.022982570416109016,-0.0870480886038613, ,0.0010113509753604396, ,0.007521899309694971,0.009893697965499507,-0.030600436226129315,0.02987582177217571,-0.013713372430073015,-0.07138313021268912, ,0.033028032425306934, ,0.0328723969143227, ,0.00047876834128990033, ,0.13894740987304738,-0.2514753505833727,0.09647249438000001,-4.534545027852839,0.18965146167443137,-1.1885375430298697, ,0.03709810068743971,-0.01847322202812357,0.03277533234567902,0.07820302073910346,0.004181629882178675,-0.0005048839779289876, ,1.0589940547943115
0.010365126959256872,0.022641796310981642,-0.08630511670546899, ,0.010998624422532122,0.022996779599697176,-0.08711126448022376, ,0.0010849914312959048, ,0.007521899309694971,0.009893697965499507,-0.030600436226129315,0.02987582177217571,-0.013713372430073015,-0.07138313021268912, ,0.033028032425306934, ,0.0328723969143227, ,0.00048422981056923367, ,0.13894740987304738,-0.2514753505833727,0.09647249438000001,-4.534545027852839,0.18965146167443137,-1.1885375430298697, ,0.03709810068743971,-0.01847322202812357,0.03277533234567902,0.07820302073910346,0.004181629882178675,-0.0005048839779289876, ,1.060973882675171
0.010365126959256872,0.022641796310981642,-0.08630511670546899, ,0.011037321137600541,0.02301063042983131,-0.08717443273041198, ,0.0011591350101905333, ,0.007521899309694971,0.009893697965499507,-0.030600436226129315,0.02987582177217571,-0.013713372430073015,-0.07138313021268912, ,0.033028032425306934, ,0.0328723969143227, ,0.0004902557498515667, ,0.13894740987304738,-0.2514753505833727,0.09647249438000001,-4.534545027852839,0.18965146167443137,-1.1885375430298697, ,0.03709810068743971,-0.01847322202812357,0.03277533234567902,0.07820302073910346,0.004181629882178675,-0.0005048839779289876, ,1.0629370212554932
0.010365126959256872,0.022641796310981642,-0.08630511670546899, ,0.011076776027383061,0.02302412514333014,-0.0872375932235068, ,0.0012337472143440704, ,0.007521899309694971,0.009893697965499507,-0.030600436226129315,0.02987582177217571,-0.013713372430073015,-0.07138313021268912, ,0.033028032425306934, ,0.0328723969143227, ,0.0004968353203338013, ,0.13894740987304738,-0.2514753505833727,0.09647249438000001,-4.534545027852839,0.18965146167443137,-1.1885375430298697, ,0.03709810068743971,-0.01847322202812357,0.03277533234567902,0.07820302073910346,0.004181629882178675,-0.0005048839779289876, ,1.0649149417877197
0.010463370144259567,0.022760050578424795,-0.08668966663594571, ,0.01111698395864225,0.02303726597127929,-0.08730074582827298, ,0.0009367375148261625, ,0.007521899309694971,0.009893697965499507,-0.030600436226129315,0.02987582177217571,-0.013713372430073015,-0.07138313021268912, ,0.033028032425306934, ,0.0328723969143227, ,0.0005006941115135588, ,0.13946483297562043,-0.2516529734394799,0.09688341831000001,-4.534335337909355,0.18978809817419678,-1.1885672821934257, ,0.050638709476238414,-0.012326452102605256,0.03645036961098399,0.04496840603657343,0.005428276521515368,-0.0014139206979893728, ,1.067007064819336
0.010463370144259567,0.022760050578424795,-0.08668966663594571, ,0.011157939813108086,0.023050055139042167,-0.08736389041316392, ,0.0010104985758671826, ,0.009220532322284274,0.01023217553133789,-0.03412671108225219,0.0204261070037552,-0.03443877013102594,-0.04009091679904, ,0.03680146792862906, ,0.04004008550272469, ,0.000505127193812286, ,0.13946483297562043,-0.2516529734394799,0.09688341831000001,-4.534335337909355,0.18978809817419678,-1.1885672821934257, ,0.050638709476238414,-0.012326452102605256,0.03645036961098399,0.04496840603657343,0.005428276521515368,-0.0014139206979893728, ,1.0694119930267334
0.010463370144259567,0.022760050578424795,-0.08668966663594571, ,0.011199638487459595,0.023062494866260875,-0.0874270268463197, ,0.0010850178340865923, ,0.009220532322284274,0.01023217553133789,-0.03412671108225219,0.0204261070037552,-0.03443877013102594,-0.04009091679904, ,0.03680146792862906, ,0.04004008550272469, ,0.00051012625105603, ,0.13946483297562043,-0.2516529734394799,0.09688341831000001,-4.534335337909355,0.18978809817419678,-1.1885672821934257, ,0.050638709476238414,-0.012326452102605256,0.03645036961098399,0.04496840603657343,0.005428276521515368,-0.0014139206979893728, ,1.0713889598846436
0.010463370144259567,0.022760050578424795,-0.08668966663594571, ,0.011242074893307379,0.02307458736686572,-0.08749015499557052, ,0.0011602138127807114, ,0.009220532322284274,0.01023217553133789,-0.03412671108225219,0.0204261070037552,-0.03443877013102594,-0.04009091679904, ,0.03680146792862906, ,0.04004008550272469, ,0.0005156825550023948, ,0.13946483297562043,-0.2516529734394799,0.09688341831000001,-4.534335337909355,0.18978809817419678,-1.1885672821934257, ,0.050638709476238414,-0.012326452102605256,0.03645036961098399,0.04496840603657343,0.005428276521515368,-0.0014139206979893728, ,1.0734639167785645
0.010463370144259567,0.022760050578424795,-0.08668966663594571, ,0.011285243957175931,0.023086334849080695,-0.08755327472843846, ,0.0012360246466208119, ,0.009220532322284274,0.01023217553133789,-0.03412671108225219,0.0204261070037552,-0.03443877013102594,-0.04009091679904, ,0.03680146792862906, ,0.04004008550272469, ,0.0005217871489991611, ,0.13946483297562043,-0.2516529734394799,0.09688341831000001,-4.534335337909355,0.18978809817419678,-1.1885672821934257, ,0.050638709476238414,-0.012326452102605256,0.03645036961098399,0.04496840603657343,0.005428276521515368,-0.0014139206979893728, ,1.0756618976593018
0.010560572855254597,0.02286697998175671,-0.08704919750608438, ,0.011329140620485532,0.023097739515428654,-0.08761638591213741, ,0.0009826744425767617, ,0.010030912605137159,0.010736104679501361,-0.03612597514481698,0.1104324191746401,0.03432214011395866,-0.005012356662645463, ,0.03899960553063383, ,0.11564284229994586, ,0.0005256601514661997, ,0.14007492887268416,-0.25176881443259325,0.09726841644,-4.534335337909355,0.1906079171727894,-1.1889907533951822, ,0.06654764485166254,-0.010414991593801366,0.03875623240875913,0.02937839383968282,0.10854685013012236,-0.08176060496811673, ,1.0776679515838623
0.010560572855254597,0.02286697998175671,-0.08704919750608438, ,0.011373759839534698,0.023108803562738384,-0.08767948841357572, ,0.0010568908854690815, ,0.010030912605137159,0.010736104679501361,-0.03612597514481698,0.1104324191746401,0.03432214011395866,-0.005012356662645463, ,0.03899960553063383, ,0.11564284229994586, ,0.000530087074249557, ,0.14007492887268416,-0.25176881443259325,0.09726841644,-4.534335337909355,0.1906079171727894,-1.1889907533951822, ,0.06654764485166254,-0.010414991593801366,0.03875623240875913,0.02937839383968282,0.10854685013012236,-0.08176060496811673, ,1.0796048641204834
0.010560572855254597,0.02286697998175671,-0.08704919750608438, ,0.01141909658548216,0.02311952918214935,-0.08774258209935626, ,0.001132089346372283, ,0.010030912605137159,0.010736104679501361,-0.03612597514481698,0.1104324191746401,0.03432214011395866,-0.005012356662645463, ,0.03899960553063383, ,0.11564284229994586, ,0.000535062299639001, ,0.14007492887268416,-0.25176881443259325,0.09726841644,-4.534335337909355,0.1906079171727894,-1.1889907533951822, ,0.06654764485166254,-0.010414991593801366,0.03875623240875913,0.02937839383968282,0.10854685013012236,-0.08176060496811673, ,1.0818610191345215
0.010560572855254597,0.02286697998175671,-0.08704919750608438, ,0.011465145844329483,0.023129918559120353,-0.08780566683578031, ,0.001208153481475141, ,0.010030912605137159,0.010736104679501361,-0.03612597514481698,0.1104324191746401,0.03432214011395866,-0.005012356662645463, ,0.03899960553063383, ,0.11564284229994586, ,0.0005405794404737235, ,0.14007492887268416,-0.25176881443259325,0.09726841644,-4.534335337909355,0.1906079171727894,-1.1889907533951822, ,0.06654764485166254,-0.010414991593801366,0.03875623240875913,0.02937839383968282,0.10854685013012236,-0.08176060496811673, ,1.0838890075683594
0.010560572855254597,0.02286697998175671,-0.08704919750608438, ,0.011511902616902672,0.02313997387343192,-0.08786874248884528, ,0.0012849933692661354, ,0.010030912605137159,0.010736104679501361,-0.03612597514481698,0.1104324191746401,0.03432214011395866,-0.005012356662645463, ,0.03899960553063383, ,0.11564284229994586, ,0.0005466315862362633, ,0.14007492887268416,-0.25176881443259325,0.09726841644,-4.534335337909355,0.1906079171727894,-1.1889907533951822, ,0.06654764485166254,-0.010414991593801366,0.03875623240875913,0.02937839383968282,0.10854685013012236,-0.08176060496811673, ,1.0870320796966553
0.010643469742057609,0.02294775597173836,-0.08732667719102902, ,0.011559361918834934,0.023149697299195804,-0.08793180892424997, ,0.0011161645012130487, ,0.010983054980409062,0.009835021540515593,-0.03453180970747578,0.08555392652424318,0.030490129518505667,0.00984223886587927, ,0.03754731717551086, ,0.09082440883403552, ,0.0005512245936151084, ,0.14066185657112523,-0.2518228735627128,0.09756656314,-4.533915958022385,0.1915643726711475,-1.1893622850203545, ,0.08048934822601424,-0.004790473719327932,0.03713009678321679,0.017996658443506678,0.11965282250733374,-0.06216313068514559, ,1.0891039371490479
0.010643469742057609,0.02294775597173836,-0.08732667719102902, ,0.011607518780548602,0.02315909100485963,-0.0879948660073938, ,0.0011918596138617771, ,0.010983054980409062,0.009835021540515593,-0.03453180970747578,0.08555392652424318,0.030490129518505667,0.00984223886587927, ,0.03754731717551086, ,0.09082440883403552, ,0.0005563496737770817, ,0.14066185657112523,-0.2518228735627128,0.09756656314,-4.533915958022385,0.1915643726711475,-1.1893622850203545, ,0.08048934822601424,-0.004790473719327932,0.03713009678321679,0.017996658443506678,0.11965282250733374,-0.06216313068514559, ,1.0911469459533691
0.010643469742057609,0.02294775597173836,-0.08732667719102902, ,0.01165636824723737,0.02316815715321246,-0.0880579136033786, ,0.0012685608985525524, ,0.010983054980409062,0.009835021540515593,-0.03453180970747578,0.08555392652424318,0.030490129518505667,0.00984223886587927, ,0.03754731717551086, ,0.09082440883403552, ,0.0005620021438149822, ,0.14066185657112523,-0.2518228735627128,0.09756656314,-4.533915958022385,0.1915643726711475,-1.1893622850203545, ,0.08048934822601424,-0.004790473719327932,0.03713009678321679,0.017996658443506678,0.11965282250733374,-0.06216313068514559, ,1.0931808948516846
0.010643469742057609,0.02294775597173836,-0.08732667719102902, ,0.01170590537884856,0.02317689790139195,-0.08812095157700976, ,0.001346160208323605, ,0.010983054980409062,0.009835021540515593,-0.03453180970747578,0.08555392652424318,0.030490129518505667,0.00984223886587927, ,0.03754731717551086, ,0.09082440883403552, ,0.000568176616763869, ,0.14066185657112523,-0.2518228735627128,0.09756656314,-4.533915958022385,0.1915643726711475,-1.1893622850203545, ,0.08048934822601424,-0.004790473719327932,0.03713009678321679,0.017996658443506678,0.11965282250733374,-0.06216313068514559, ,1.0952930450439453
0.010756576475439594,0.02303652949736563,-0.08764284768029386, ,0.011756125250065055,0.02318531540088906,-0.08818397979279795, ,0.0011463241082371428, ,0.012732301391334154,0.009215946622633388,-0.032160571590667895,0.026455103385729397,0.029488236454708387,-0.15165350748030323, ,0.03579591507294474, ,0.039615580010618184, ,0.000572693394041004, ,0.14151907992016413,-0.251830596295587,0.09790748741000001,-4.5326578183614785,0.19252082816950558,-1.1894071016849646, ,0.09926458322015773,-0.0014855381144045802,0.034855167439824954,0.18347149144018235,0.08555192520756978,0.012404765032444504, ,1.09757399559021
0.010756576475439594,0.02303652949736563,-0.08764284768029386, ,0.011807022950288246,0.023193411797557247,-0.08824699811496263, ,0.0012219032696354634, ,0.012732301391334154,0.009215946622633388,-0.032160571590667895,0.026455103385729397,0.029488236454708387,-0.15165350748030323, ,0.03579591507294474, ,0.039615580010618184, ,0.0005777260287355348, ,0.14151907992016413,-0.251830596295587,0.09790748741000001,-4.5326578183614785,0.19252082816950558,-1.1894071016849646, ,0.09926458322015773,-0.0014855381144045802,0.034855167439824954,0.18347149144018235,0.08555192520756978,0.012404765032444504, ,1.0996530055999756
0.010756576475439594,0.02303652949736563,-0.08764284768029386, ,0.011858593583619008,0.023201189231612813,-0.0883100064074275, ,0.0012987129405657959, ,0.012732301391334154,0.009215946622633388,-0.032160571590667895,0.026455103385729397,0.029488236454708387,-0.15165350748030323, ,0.03579591507294474, ,0.039615580010618184, ,0.0005832720819034598, ,0.14151907992016413,-0.251830596295587,0.09790748741000001,-4.5326578183614785,0.19252082816950558,-1.1894071016849646, ,0.09926458322015773,-0.0014855381144045802,0.034855167439824954,0.18347149144018235,0.08555192520756978,0.012404765032444504, ,1.1018190383911133
0.010756576475439594,0.02303652949736563,-0.08764284768029386, ,0.011910832268841182,0.02320864983764739,-0.08837300453382936, ,0.0013766121018299602, ,0.012732301391334154,0.009215946622633388,-0.032160571590667895,0.026455103385729397,0.029488236454708387,-0.15165350748030323, ,0.03579591507294474, ,0.039615580010618184, ,0.0005893281125899216, ,0.14151907992016413,-0.251830596295587,0.09790748741000001,-4.5326578183614785,0.19252082816950558,-1.1894071016849646, ,0.09926458322015773,-0.0014855381144045802,0.034855167439824954,0.18347149144018235,0.08555192520756978,0.012404765032444504, ,1.1037979125976562
0.010756576475439594,0.02303652949736563,-0.08764284768029386, ,0.011963734139403001,0.023215795744630365,-0.08843599235751462, ,0.0014554877162235333, ,0.012732301391334154,0.009215946622633388,-0.032160571590667895,0.026455103385729397,0.029488236454708387,-0.15165350748030323, ,0.03579591507294474, ,0.039615580010618184, ,0.0005958899277689641, ,0.14151907992016413,-0.251830596295587,0.09790748741000001,-4.5326578183614785,0.19252082816950558,-1.1894071016849646, ,0.09926458322015773,-0.0014855381144045802,0.034855167439824954,0.18347149144018235,0.08555192520756978,0.012404765032444504, ,1.1057519912719727
0.010756576475439594,0.02303652949736563,-0.08764284768029386, ,0.012017294343399394,0.0232226290759153,-0.0884989697415423, ,0.0015352483771317721, ,0.012732301391334154,0.009215946622633388,-0.032160571590667895,0.026455103385729397,0.029488236454708387,-0.15165350748030323, ,0.03579591507294474, ,0.039615580010618184, ,0.000602952773252895, ,0.14296323096764413,-0.2518228735627128,0.09833785569,-4.531819058587541,0.19375055666739455,-1.1895930754168265, ,0.13053224423448526,0.0007852892587701528,0.03204992257545272,0.0503212344958401,0.12749597604959798,-0.042021651173880424, ,1.1078429222106934
0.010931692940011657,0.02314585036247556,-0.08803854237389633, ,0.01207150804355447,0.023229151949246855,-0.08856193654868523, ,0.001257004012255286, ,0.014782853056109635,0.008142683924141587,-0.02918478532163781,0.06590744048701144,-0.0016823430725292146,-0.017955415253229114, ,0.03371331695691021, ,0.06592874802964864, ,0.0006078337526484352, ,0.14296323096764413,-0.2518228735627128,0.09833785569,-4.531819058587541,0.19375055666739455,-1.1895930754168265, ,0.13053224423448526,0.0007852892587701528,0.03204992257545272,0.0503212344958401,0.12749597604959798,-0.042021651173880424, ,1.1098389625549316
0.010931692940011657,0.02314585036247556,-0.08803854237389633, ,0.01212637041720333,0.023235366476766293,-0.08862489264143125, ,0.0013338193451382574, ,0.014782853056109635,0.008142683924141587,-0.02918478532163781,0.06590744048701144,-0.0016823430725292146,-0.017955415253229114, ,0.03371331695691021, ,0.06592874802964864, ,0.0006132114237039154, ,0.14296323096764413,-0.2518228735627128,0.09833785569,-4.531819058587541,0.19375055666739455,-1.1895930754168265, ,0.13053224423448526,0.0007852892587701528,0.03204992257545272,0.0503212344958401,0.12749597604959798,-0.042021651173880424, ,1.1117889881134033
0.010931692940011657,0.02314585036247556,-0.08803854237389633, ,0.01218187665627463,0.023241274765017784,-0.0886878378819852, ,0.001411966641898463, ,0.014782853056109635,0.008142683924141587,-0.02918478532163781,0.06590744048701144,-0.0016823430725292146,-0.017955415253229114, ,0.03371331695691021, ,0.06592874802964864, ,0.0006190846238376988, ,0.14296323096764413,-0.2518228735627128,0.09833785569,-4.531819058587541,0.19375055666739455,-1.1895930754168265, ,0.13053224423448526,0.0007852892587701528,0.03204992257545272,0.0503212344958401,0.12749597604959798,-0.042021651173880424, ,1.1137499809265137
0.010931692940011657,0.02314585036247556,-0.08803854237389633, ,0.012238021967272463,0.023246878914954378,-0.08875077213226978, ,0.0014912992739865604, ,0.014782853056109635,0.008142683924141587,-0.02918478532163781,0.06590744048701144,-0.0016823430725292146,-0.017955415253229114, ,0.03371331695691021, ,0.06592874802964864, ,0.0006254511541307562, ,0.14296323096764413,-0.2518228735627128,0.09833785569,-4.531819058587541,0.19375055666739455,-1.1895930754168265, ,0.13053224423448526,0.0007852892587701528,0.03204992257545272,0.0503212344958401,0.12749597604959798,-0.042021651173880424, ,1.1156818866729736
0.01109024518261363,0.02321924055984883,-0.08832879670995836, ,0.01229480157125876,0.023252181021943884,-0.08881369525392707, ,0.0012989102222293173, ,0.016018965944365037,0.006592019167487762,-0.027167049180231266,0.09418604122710146,-0.006097437792239117,0.034184266629836584, ,0.03221972296268789, ,0.09438312514081026, ,0.0006303312923053835, ,0.14442282748087257,-0.2517302007682221,0.09865674303000001,-4.531609368644055,0.19539019466457985,-1.1903583390801997, ,0.15015338854188412,0.011756310896738204,0.029941375037593993,0.0,0.16196566789696226,-0.08369115913701466, ,1.1176059246063232
0.01109024518261363,0.02321924055984883,-0.08832879670995836, ,0.012352210703835572,0.023257183175776082,-0.08887660710832052, ,0.0013762604591464795, ,0.016018965944365037,0.006592019167487762,-0.027167049180231266,0.09418604122710146,-0.006097437792239117,0.034184266629836584, ,0.03221972296268789, ,0.09438312514081026, ,0.0006356976891891324, ,0.14442282748087257,-0.2517302007682221,0.09865674303000001,-4.531609368644055,0.19539019466457985,-1.1903583390801997, ,0.15015338854188412,0.011756310896738204,0.029941375037593993,0.0,0.16196566789696226,-0.08369115913701466, ,1.119621992111206
0.01109024518261363,0.02321924055984883,-0.08832879670995836, ,0.012410244615127018,0.023261887460667704,-0.08893950755653612, ,0.0014550549811305604, ,0.016018965944365037,0.006592019167487762,-0.027167049180231266,0.09418604122710146,-0.006097437792239117,0.034184266629836584, ,0.03221972296268789, ,0.09438312514081026, ,0.0006415502412744282, ,0.14442282748087257,-0.2517302007682221,0.09865674303000001,-4.531609368644055,0.19539019466457985,-1.1903583390801997, ,0.15015338854188412,0.011756310896738204,0.029941375037593993,0.0,0.16196566789696226,-0.08369115913701466, ,1.1216318607330322
0.01109024518261363,0.02321924055984883,-0.08832879670995836, ,0.012468898569761362,0.023266295955267465,-0.08900239645938213, ,0.0015351338686107104, ,0.016018965944365037,0.006592019167487762,-0.027167049180231266,0.09418604122710146,-0.006097437792239117,0.034184266629836584, ,0.03221972296268789, ,0.09438312514081026, ,0.0006478877138087281, ,0.14442282748087257,-0.2517302007682221,0.09865674303000001,-4.531609368644055,0.19539019466457985,-1.1903583390801997, ,0.15015338854188412,0.011756310896738204,0.029941375037593993,0.0,0.16196566789696226,-0.08369115913701466, ,1.123656988143921
0.01109024518261363,0.02321924055984883,-0.08832879670995836, ,0.012528167846853974,0.02327041073266573,-0.08906527367739413, ,0.0016163657687805536, ,0.016018965944365037,0.006592019167487762,-0.027167049180231266,0.09418604122710146,-0.006097437792239117,0.034184266629836584, ,0.03221972296268789, ,0.09438312514081026, ,0.0006547079818014874, ,0.14442282748087257,-0.2517302007682221,0.09865674303000001,-4.531609368644055,0.19539019466457985,-1.1903583390801997, ,0.15015338854188412,0.011756310896738204,0.029941375037593993,0.0,0.16196566789696226,-0.08369115913701466, ,1.1256070137023926
0.011269326882149315,0.023279778915068883,-0.08860072702488221, ,0.012588047739988345,0.023274233860395614,-0.08912813907083166, ,0.0014202883209910634, ,0.018881384714442298,0.0057551209037899655,-0.02717038185682036,0.06912548207382416,-0.02489423707324799,0.012031511082501462, ,0.0335835935480027, ,0.07347135839224014, ,0.0006600616904671487, ,0.14612955144607617,-0.25154485517924075,0.09895748231000001,-4.531399678700571,0.19702983266176513,-1.1909602452632917, ,0.18110103350853202,0.02201274450440055,0.030111174896030254,0.024458389179824444,0.1658573131678577,-0.06458257801782469, ,1.1276118755340576
0.011269326882149315,0.023279778915068883,-0.08860072702488221, ,0.012648533557199653,0.02327776740044511,-0.08919099249968551, ,0.0015002094618549954, ,0.018881384714442298,0.0057551209037899655,-0.02717038185682036,0.06912548207382416,-0.02489423707324799,0.012031511082501462, ,0.0335835935480027, ,0.07347135839224014, ,0.0006658960499906755, ,0.14612955144607617,-0.25154485517924075,0.09895748231000001,-4.531399678700571,0.19702983266176513,-1.1909602452632917, ,0.18110103350853202,0.02201274450440055,0.030111174896030254,0.024458389179824444,0.1658573131678577,-0.06458257801782469, ,1.1295719146728516
0.011269326882149315,0.023279778915068883,-0.08860072702488221, ,0.012709620620955452,0.02328101340925601,-0.08925383382367236, ,0.001581453783278528, ,0.018881384714442298,0.0057551209037899655,-0.02717038185682036,0.06912548207382416,-0.02489423707324799,0.012031511082501462, ,0.0335835935480027, ,0.07347135839224014, ,0.0006722102412547296, ,0.14612955144607617,-0.25154485517924075,0.09895748231000001,-4.531399678700571,0.19702983266176513,-1.1909602452632917, ,0.18110103350853202,0.02201274450440055,0.030111174896030254,0.024458389179824444,0.1658573131678577,-0.06458257801782469, ,1.1315388679504395
0.011269326882149315,0.023279778915068883,-0.08860072702488221, ,0.012771304268139305,0.023283973937736933,-0.08931666290224231, ,0.001663886368335256, ,0.018881384714442298,0.0057551209037899655,-0.02717038185682036,0.06912548207382416,-0.02489423707324799,0.012031511082501462, ,0.0335835935480027, ,0.07347135839224014, ,0.0006790025434950072, ,0.14612955144607617,-0.25154485517924075,0.09895748231000001,-4.531399678700571,0.19702983266176513,-1.1909602452632917, ,0.18110103350853202,0.02201274450440055,0.030111174896030254,0.024458389179824444,0.1658573131678577,-0.06458257801782469, ,1.133533000946045
0.011269326882149315,0.023279778915068883,-0.08860072702488221, ,0.012833579850031992,0.023286651031264836,-0.08937947959457655, ,0.0017473952438748122, ,0.018881384714442298,0.0057551209037899655,-0.02717038185682036,0.06912548207382416,-0.02489423707324799,0.012031511082501462, ,0.0335835935480027, ,0.07347135839224014, ,0.0006862705210486113, ,0.14612955144607617,-0.25154485517924075,0.09895748231000001,-4.531399678700571,0.19702983266176513,-1.1909602452632917, ,0.18110103350853202,0.02201274450440055,0.030111174896030254,0.024458389179824444,0.1658573131678577,-0.06458257801782469, ,1.1359748840332031
0.011449651727112866,0.02333317929430652,-0.08885227620095229, ,0.012896442732294101,0.02328904672969272,-0.08944228375959018, ,0.0015630933481985527, ,0.020765809305460948,0.005991718408886146,-0.028510534780887456,0.09700473544512635,0.024728025193568526,-0.08366817563776878, ,0.03577667003920777, ,0.10010681840463523, ,0.0006921949996104352, ,0.14788261180852513,-0.25132089592588824,0.09923748095000001,-4.5303512289831485,0.19880610715871586,-1.1914285331296584, ,0.20277124264630508,0.026633999876079364,0.031794034970059885,0.13588733569799014,0.21293459849305416,-0.07437270008788241, ,1.1381468772888184
0.011449651727112866,0.02333317929430652,-0.08885227620095229, ,0.012959888294948086,0.023291163067355222,-0.08950507525593278, ,0.0016458209077349045, ,0.020765809305460948,0.005991718408886146,-0.028510534780887456,0.09700473544512635,0.024728025193568526,-0.08366817563776878, ,0.03577667003920777, ,0.10010681840463523, ,0.0006985951734904653, ,0.14788261180852513,-0.25132089592588824,0.09923748095000001,-4.5303512289831485,0.19880610715871586,-1.1914285331296584, ,0.20277124264630508,0.026633999876079364,0.031794034970059885,0.13588733569799014,0.21293459849305416,-0.07437270008788241, ,1.1401560306549072
0.011449651727112866,0.02333317929430652,-0.08885227620095229, ,0.013023911932360558,0.02329300207307533,-0.0895678539419909, ,0.001729728564371384, ,0.020765809305460948,0.005991718408886146,-0.028510534780887456,0.09700473544512635,0.024728025193568526,-0.08366817563776878, ,0.03577667003920777, ,0.10010681840463523, ,0.000705469396096338, ,0.14788261180852513,-0.25132089592588824,0.09923748095000001,-4.5303512289831485,0.19880610715871586,-1.1914285331296584, ,0.20277124264630508,0.026633999876079364,0.031794034970059885,0.13588733569799014,0.21293459849305416,-0.07437270008788241, ,1.1422669887542725
0.011449651727112866,0.02333317929430652,-0.08885227620095229, ,0.013088509053224765,0.02329456577017111,-0.0896306196758898, ,0.0018147073881412921, ,0.020765809305460948,0.005991718408886146,-0.028510534780887456,0.09700473544512635,0.024728025193568526,-0.08366817563776878, ,0.03577667003920777, ,0.10010681840463523, ,0.0007128153430635231, ,0.14788261180852513,-0.25132089592588824,0.09923748095000001,-4.5303512289831485,0.19880610715871586,-1.1914285331296584, ,0.20277124264630508,0.026633999876079364,0.031794034970059885,0.13588733569799014,0.21293459849305416,-0.07437270008788241, ,1.144299030303955
0.011449651727112866,0.02333317929430652,-0.08885227620095229, ,0.013153675080542115,0.023295856176459462,-0.08969337231549268, ,0.0019006660090749843, ,0.020765809305460948,0.005991718408886146,-0.028510534780887456,0.09700473544512635,0.024728025193568526,-0.08366817563776878, ,0.03577667003920777, ,0.10010681840463523, ,0.0007206301500767565, ,0.14788261180852513,-0.25132089592588824,0.09923748095000001,-4.5303512289831485,0.19880610715871586,-1.1914285331296584, ,0.20277124264630508,0.026633999876079364,0.031794034970059885,0.13588733569799014,0.21293459849305416,-0.07437270008788241, ,1.1463139057159424
0.011688151320195107,0.023397268865179836,-0.0891770001880381, ,0.01321940545160463,0.023296875304263363,-0.08975611171840348, ,0.0016401793336810288, ,0.023172265389470613,0.005802368183403298,-0.030339150690365274,0.148520089468393,0.07195238234785527,0.026015282502716293, ,0.038614575284839275, ,0.16503132004641355, ,0.0007266402754597909, ,0.15020715440366672,-0.2509965411451708,0.09958747925000001,-4.5299318490961795,0.20194874665332097,-1.192684285072427, ,0.2343134359468414,0.03425882366731797,0.03403592205128206,0.04816731922530039,0.3317505056545608,-0.13364298864850982, ,1.1483678817749023
0.011688151320195107,0.023397268865179836,-0.0891770001880381, ,0.013285695617977765,0.02329762516042008,-0.08981883774196944, ,0.0017245382271531982, ,0.023172265389470613,0.005802368183403298,-0.030339150690365274,0.148520089468393,0.07195238234785527,0.026015282502716293, ,0.038614575284839275, ,0.16503132004641355, ,0.0007331201322889689, ,0.15020715440366672,-0.2509965411451708,0.09958747925000001,-4.5299318490961795,0.20194874665332097,-1.192684285072427, ,0.2343134359468414,0.03425882366731797,0.03403592205128206,0.04816731922530039,0.3317505056545608,-0.13364298864850982, ,1.150364875793457
0.011688151320195107,0.023397268865179836,-0.0891770001880381, ,0.013352541045481559,0.023298107746282982,-0.08988155024328005, ,0.0018100875297845176, ,0.023172265389470613,0.005802368183403298,-0.030339150690365274,0.148520089468393,0.07195238234785527,0.026015282502716293, ,0.038614575284839275, ,0.16503132004641355, ,0.0007400683090470048, ,0.15020715440366672,-0.2509965411451708,0.09958747925000001,-4.5299318490961795,0.20194874665332097,-1.192684285072427, ,0.2343134359468414,0.03425882366731797,0.03403592205128206,0.04816731922530039,0.3317505056545608,-0.13364298864850982, ,1.1526339054107666
0.011688151320195107,0.023397268865179836,-0.0891770001880381, ,0.013419937214173493,0.02329832505773126,-0.08994424907917033, ,0.0018967190410175572, ,0.023172265389470613,0.005802368183403298,-0.030339150690365274,0.148520089468393,0.07195238234785527,0.026015282502716293, ,0.038614575284839275, ,0.16503132004641355, ,0.0007474827368160467, ,0.15020715440366672,-0.2509965411451708,0.09958747925000001,-4.5299318490961795,0.20194874665332097,-1.192684285072427, ,0.2343134359468414,0.03425882366731797,0.03403592205128206,0.04816731922530039,0.3317505056545608,-0.13364298864850982, ,1.1547460556030273
0.011688151320195107,0.023397268865179836,-0.0891770001880381, ,0.013487879618330721,0.02329827908517465,-0.09000693410622171, ,0.001984341510982214, ,0.023172265389470613,0.005802368183403298,-0.030339150690365274,0.148520089468393,0.07195238234785527,0.026015282502716293, ,0.038614575284839275, ,0.16503132004641355, ,0.0007553608181801625, ,0.15020715440366672,-0.2509965411451708,0.09958747925000001,-4.5299318490961795,0.20194874665332097,-1.192684285072427, ,0.2343134359468414,0.03425882366731797,0.03403592205128206,0.04816731922530039,0.3317505056545608,-0.13364298864850982, ,1.1568129062652588
0.011925769769569099,0.023451425623447104,-0.08948095358055515, ,0.01355636376643177,0.023297971813558974,-0.09006960518076294, ,0.001740372247767978, ,0.026167585381313883,0.005481878251050399,-0.032139451515211366,0.0928009421159684,0.04671678367148169,0.04776071237329285, ,0.04180595480964779, ,0.10389628695126521, ,0.0007615950677345157, ,0.15270931985491545,-0.25060268176858536,0.09994136642000001,-4.5299318490961795,0.205364659147457,-1.1938361578620262, ,0.26433688456398546,0.043095795439814163,0.03611975401360545,0.027679284771746884,0.33018472155707623,-0.08535169196480266, ,1.158890962600708
0.011925769769569099,0.023451425623447104,-0.08948095358055515, ,0.01362538518113944,0.023297405222373974,-0.09013226215887245, ,0.0018266410964893607, ,0.026167585381313883,0.005481878251050399,-0.032139451515211366,0.0928009421159684,0.04671678367148169,0.04776071237329285, ,0.04180595480964779, ,0.10389628695126521, ,0.0007682934704310871, ,0.15270931985491545,-0.25060268176858536,0.09994136642000001,-4.5299318490961795,0.205364659147457,-1.1938361578620262, ,0.26433688456398546,0.043095795439814163,0.03611975401360545,0.027679284771746884,0.33018472155707623,-0.08535169196480266, ,1.1608819961547852
0.011925769769569099,0.023451425623447104,-0.08948095358055515, ,0.013694939399282298,0.02329658128565726,-0.09019490489637941, ,0.0019140701212370216, ,0.026167585381313883,0.005481878251050399,-0.032139451515211366,0.0928009421159684,0.04671678367148169,0.04776071237329285, ,0.04180595480964779, ,0.10389628695126521, ,0.0007754545744986242, ,0.15270931985491545,-0.25060268176858536,0.09994136642000001,-4.5299318490961795,0.205364659147457,-1.1938361578620262, ,0.26433688456398546,0.043095795439814163,0.03611975401360545,0.027679284771746884,0.33018472155707623,-0.08535169196480266, ,1.1628608703613281
0.011925769769569099,0.023451425623447104,-0.08948095358055515, ,0.01376502197183717,0.023295501972001496,-0.09025753324886428, ,0.002002557572170948, ,0.026167585381313883,0.005481878251050399,-0.032139451515211366,0.0928009421159684,0.04671678367148169,0.04776071237329285, ,0.04180595480964779, ,0.10389628695126521, ,0.0007830763322481417, ,0.15270931985491545,-0.25060268176858536,0.09994136642000001,-4.5299318490961795,0.205364659147457,-1.1938361578620262, ,0.26433688456398546,0.043095795439814163,0.03611975401360545,0.027679284771746884,0.33018472155707623,-0.08535169196480266, ,1.1648240089416504
0.011925769769569099,0.023451425623447104,-0.08948095358055515, ,0.01383562846391153,0.02329416924456061,-0.09032014707166125, ,0.002092017092800801, ,0.026167585381313883,0.005481878251050399,-0.032139451515211366,0.0928009421159684,0.04671678367148169,0.04776071237329285, ,0.04180595480964779, ,0.10389628695126521, ,0.0007911562134861211, ,0.15270931985491545,-0.25060268176858536,0.09994136642000001,-4.5299318490961795,0.205364659147457,-1.1938361578620262, ,0.26433688456398546,0.043095795439814163,0.03611975401360545,0.027679284771746884,0.33018472155707623,-0.08535169196480266, ,1.166748046875
