NicholasDascanio/dvrk_moveit_final/test/execution/third_experiment_notsharpbends/thirdexp_600vel3.0/thirdexp_600vel3.0_13.csv
Current Position (x),Current Position (y),Current Position (z), ,Planned Position (x),Planned Position (y),Planned Position (z), ,Position Error,,Cartesian linear Velocity(x),Cartesian linear Velocity(y),Cartesian linear Velocity(z),Cartesian Angular Velocity(x),Cartesian Angular Velocity(y),Cartesian Angular Velocity(z), ,Total Linear Velocity, ,Total Angular Velocity, ,MSE, ,Joint 1 Position,Joint 2 Position,Joint 3 Position,Joint 4 Position,Joint 5 Position,Joint 6 Position, ,Joint 1 Velocity,Joint 2 Velocity,Joint 3 Velocity,Joint 4 Velocity,Joint 5 Velocity,Joint 6 Velocity, ,Time Stamp
0.009183066668612936,0.020052174086331892,-0.07767247439034235, ,0.009205465819846572,0.019942637892738854,-0.07767107802614502, ,0.00011181166985520932, ,2.9235227673019056e-05,-2.6405643651669986e-05,-3.36054079157769e-06,-0.006343286200426755,0.00109808617508789,0.00921612996623586, ,3.953795376804541e-05, ,0.006437629460324946, ,9.317639154600777e-06, ,0.19265129428040462,-0.19184040732861105,0.09095418785,2.2585703812718116,0.9848758903092947,-0.8988277332885445, ,0.0004533324323664975,0.00022663617710271612,0.0,-0.0015179156278951112,0.0,0.009911399370677199, ,0.01884293556213379
0.009181469885066865,0.02005383846422173,-0.07767223706109681, ,0.00924411592136257,0.01995817232623088,-0.0777750747495391, ,0.00015379247701301888, ,2.5462220420570984e-05,-9.814147297999391e-06,-8.396777423468452e-05,-0.3934186226699764,0.12328525151199962,0.5268789505766003, ,8.82905955686081e-05, ,0.41228323505075765, ,1.2072915766737646e-05, ,0.19265901701327884,-0.19184040732861105,0.09095807672,2.2585703812718116,0.9854224363083565,-0.8924940694716634, ,0.00020799723880806162,0.0002133372083229696,8.159303614925125e-05,-0.0015179156278951112,0.0,0.667695090468043, ,0.037513017654418945
0.009158768923816996,0.02006974801738116,-0.07767040550118806, ,0.009282749734734573,0.019973598956592068,-0.07787887086848855, ,0.0002609093573065777, ,-0.0011229613488251949,0.0008526787106386785,0.0002794213978974757,0.18536365719158457,0.21726443090508593,0.059692061423584034, ,0.0014374211255351438, ,0.2855932743324852, ,1.6453547005462684e-05, ,0.19268218521190153,-0.19183268459573682,0.09099955800000001,2.2583606913283276,0.9912978057982704,-0.884134762167979, ,0.0008051372847623586,6.134619960738712e-05,0.001897579210737475,0.0023722622989112247,0.2915924468769941,-0.019764747139308314, ,0.05998492240905762
0.009164443362650451,0.020087064555202067,-0.07772019091026887, ,0.009321367168952297,0.01998891813019144,-0.0779824665916479, ,0.00032100830950219965, ,0.001108146005882982,0.0009171519278633107,-0.004714035253774599,0.16203503785320458,-0.050715508489057835,-0.22506118908786432, ,0.004928618833199372, ,0.16978638429233728, ,2.0179090801833464e-05, ,0.19271307614339842,-0.19180951639711416,0.09106826137000001,2.258780071215296,0.9934839897945175,-0.8846922675250133, ,0.0019816444628747492,0.0007037214018964377,0.004910237829839705,0.006222859595374235,0.0,-0.27662784368797144, ,0.07854580879211426
0.009195010173359396,0.020103929846275476,-0.07781189202291232, ,0.009359968133345647,0.020004130192942077,-0.0780858621276168, ,0.0003350085336824654, ,0.00231822065255088,0.0004588022888290361,-0.0072397654259582,-0.034754638849850056,-0.20163509475611235,-0.14642952207610022, ,0.0076156976014707875, ,0.20460839752805962, ,2.2740968218451363e-05, ,0.19275941254064377,-0.1918017936642399,0.09115381651000001,2.25940914104575,0.9919809882970977,-0.8916345445984089, ,0.003857396921213658,0.0007396902926271887,0.0058799599557032125,-0.04478772927013015,-0.2091156195189603,-0.16919065314282322, ,0.10009479522705078
0.009243355416539414,0.020123166482865013,-0.07796360651724926, ,0.009398552537584641,0.020019235490301206,-0.07818905768493956, ,0.00029277299501310225, ,0.0012611545154748013,0.0008474960050494744,-0.005326998584680324,-0.03324619212470045,0.022063636229363498,0.08841088889595783, ,0.005539465146714389, ,0.03990129484320796, ,2.379521519955763e-05, ,0.19285980806800868,-0.19177090273274303,0.09129122325000001,2.25940914104575,0.9892482583017889,-0.8904680101463078, ,0.005656906452340741,0.0016414169384713433,0.005686830246340593,-0.026192980293454956,0.025795665661197877,0.07175572481401102, ,0.11959981918334961
0.0092769303337162,0.020149858752247854,-0.07809391304062906, ,0.009437120291678742,0.02003423436726959,-0.07829205347210536, ,0.0003418746854678399, ,0.001047770417373827,0.0010195289854641545,-0.004641233672434847,0.047958060338138916,0.06602068407880567,0.051469649264881165, ,0.0060175526675251435, ,0.09674661515122884, ,2.5238583720005736e-05, ,0.1930219854583674,-0.1917322890683719,0.09143640773,2.25940914104575,0.9904779867996778,-0.8883669791542342, ,0.007694236238453804,0.00134358941113471,0.005565622473794551,-0.017381009623769397,0.09899105150879405,0.010915593562047105, ,0.14590096473693848
0.009301298253117457,0.02016051392858967,-0.07816573570308871, ,0.009475671305976782,0.020049127168392585,-0.07839484969754798, ,0.0003087170134083397, ,0.000999325209818105,0.00039199846132940096,-0.0026423053250913863,0.02954396885189905,-0.0013038652992812165,-0.02589375243070275, ,0.0028520328012961063, ,0.029572726626265818, ,2.5925549283521374e-05, ,0.1931841628487261,-0.19168595267112656,0.09151418513000001,2.2591994511022655,0.9908878962989741,-0.8882928391646207, ,0.006834537443093855,0.002348434247040693,0.0028825210857763304,0.0,0.016373436566854232,-0.03773830620134768, ,0.1645488739013672
0.009332737637355837,0.020176806074635383,-0.07824633823106068, ,0.00951420549116646,0.02006391423776043,-0.07849744656964634, ,0.0003297431523275112, ,0.0017567373843249163,0.0010139735678740727,-0.005040534821762723,0.010530717495766848,-0.002234813860720745,-0.012299813256997394, ,0.005433347027683267, ,0.010765240392763074, ,2.6691719495394174e-05, ,0.19335406297195906,-0.19165506173962965,0.09159974027000001,2.2596188309892344,0.9908878962989741,-0.8883745179047612, ,0.00951020492843531,0.0010145318496742944,0.005390460751269035,0.008957423851415397,0.009152567112197314,-0.007488857965854866, ,0.1847398281097412
0.009373091457224158,0.0201993081575119,-0.07837122841998811, ,0.009552722758274096,0.020078595919006834,-0.0785998442967235, ,0.0003148079858219668, ,0.0020168226999622623,0.0011034856171832832,-0.006322847047757375,0.00547717976824524,-0.004312517618871238,-0.009940292666470446, ,0.006727826476637725, ,0.006971176107452754, ,2.7161237052923833e-05, ,0.19353940856094043,-0.19160872534238432,0.09173066556000001,2.259828520932719,0.9908878962989741,-0.8883745179047612, ,0.009557673373512477,0.0027660428860601083,0.006661987252195735,0.007269293375543796,0.006346079967230826,-0.005188169357732061, ,0.20458197593688965
0.00941314883703934,0.020220202040780382,-0.07849119399269029, ,0.009591223018664215,0.020093172555311525,-0.0787020430870479, ,0.0003038161367196834, ,0.0019140361389938245,0.0007978551157496187,-0.005912300135707801,-0.002146151710218986,-0.01218721378364145,0.018511083966698354, ,0.0062654129969055275, ,0.012374737966816875, ,2.7448770679624236e-05, ,0.19373247688279605,-0.19155466621226475,0.09185640569,2.260038210876204,0.9908878962989741,-0.8883745179047612, ,0.010959070688677021,0.003279911150964985,0.006166787270615564,-0.021790305640024682,0.004812181886974516,-0.0039668700195010335, ,0.2248668670654297
0.009452756528131021,0.020237052811597937,-0.07860017093004959, ,0.009629706184039303,0.020107644489398842,-0.07880404314883221, ,0.0002993686292379254, ,0.00179438328687763,0.0006960463175829853,-0.004491932212945495,0.002289877123411883,-0.007575527739659636,-0.008197312985414498, ,0.004886895421650029, ,0.007914048012608891, ,2.7652712666851143e-05, ,0.19397188160189702,-0.1915083298150194,0.09197047921000001,2.259828520932719,0.9908878962989741,-0.8883745179047612, ,0.011138138680571688,0.003176631543148222,0.004749198425760287,0.00630619471946436,0.0038965872664809913,-0.0032298166982200455, ,0.24494695663452148
0.009485367805442069,0.020250021330643915,-0.07868447698108517, ,0.009668172166439405,0.020122012063539238,-0.07890584469023368, ,0.0003143365545366583, ,0.0017376890749633718,0.0006456972198959801,-0.004814053782596108,-0.0032747043580960773,-0.00871702683546959,-0.005120005226516279, ,0.0051586434304724295, ,0.009311833487432537, ,2.793914772645832e-05, ,0.19416494992375263,-0.19143882521915137,0.09205992322,2.260038210876204,0.9910245327987396,-0.8884859358084576, ,0.009549243809936301,0.004223725018946739,0.005013790217186026,0.004425232829539895,0.0,-5.356954871597072e-05, ,0.2652108669281006
0.00952364378088556,0.02026606032245392,-0.07878307247693939, ,0.009706620878241753,0.020136275619548137,-0.07900744791935468, ,0.00031728382628854693, ,0.0019203705755493883,0.0007549893590824753,-0.004885509783704603,-0.0005687202076211784,-0.007336834934708453,-0.01829678170443635, ,0.005303398714639231, ,0.007358844117827398, ,2.8406037774333654e-05, ,0.1943734637113567,-0.19136159789040913,0.09216362642,2.2604575907631723,0.9910245327987396,-0.8884859358084576, ,0.010775172199213215,0.004114001160511569,0.005131704742268042,0.018127347338967755,0.0,-5.1742325002493254e-05, ,0.28317999839782715
0.009542858500211492,0.02027421575041832,-0.07883634813363356, ,0.009745052232160472,0.020150435498786874,-0.07910885304424181, ,0.00036119632091012426, ,0.002027342277757352,0.0009391601224031098,-0.005446198419789871,0.0007270746814788703,-0.007411422129366482,-0.01869227342817796, ,0.00588669819800678, ,0.007447000119555328, ,2.9109650980607797e-05, ,0.19448158197159582,-0.19133070695891222,0.09221936689000002,2.2604575907631723,0.9910245327987396,-0.888404257068317, ,0.010717600949125047,0.0032247409751087887,0.005731850133141418,0.018127347338967755,0.0,-0.0007704319741161265, ,0.3051269054412842
0.009601302746975064,0.02029594516716339,-0.07899307357599558, ,0.009783466141246241,0.020164492042163328,-0.07921006027288655, ,0.00031232459543290773, ,0.0019531165421138726,0.0008364105312855786,-0.005430124736302034,-0.0013448501456952504,-0.007375583611922869,-0.014305761950214546, ,0.005830994894160302, ,0.007497189527394805, ,2.9426240519019356e-05, ,0.19482910495093594,-0.19120714323292465,0.09238269943,2.2604575907631723,0.9911611692985051,-0.8885156749720136, ,0.010042037325377418,0.004089036645608763,0.005666599615795092,0.014087928008504858,0.0,0.0, ,0.32303881645202637
0.009620201473340181,0.020304331714529056,-0.07904766133028483, ,0.009821862518885944,0.020178445590130597,-0.07931106981322458, ,0.00035482181794711413, ,0.0020396855934562,0.0009922242631649441,-0.005587974628161221,-0.00011449088202890691,-0.0083770913398483,-0.012571144648962463, ,0.00603077828754627, ,0.008377873359617564, ,2.996186940756662e-05, ,0.19492950047830085,-0.19117625230142773,0.09244103248,2.2604575907631723,0.9911611692985051,-0.888433996231873, ,0.010797239908803139,0.002502778931782739,0.0058843042186922795,0.01263473628561692,0.0,0.00010551869118061333, ,0.3414618968963623
0.009664822084013848,0.02032435998765429,-0.07916756980013229, ,0.009860241278802324,0.02019229648269039,-0.0794118818731363, ,0.00033958477594062667, ,0.0017255366547206127,0.0006913818453356624,-0.004423319966632183,0.00913071436598804,-0.010346744023139346,-0.026535176578672635, ,0.004798045969981018, ,0.013799458504604427, ,3.0356942578597844e-05, ,0.19516890519740182,-0.19109130223981127,0.09256806890000001,2.2608769706501417,0.9912978057982704,-0.8883003779151477, ,0.009705634286480264,0.0033483235626884,0.004648033708783193,0.012988915143861352,0.0,-0.016953254728957225, ,0.361785888671875
0.009682122167626366,0.020331973888245914,-0.0792118095951447, ,0.009898602335053693,0.02020604505939008,-0.07951249666044696, ,0.0003913239630618727, ,0.0017375544651948112,0.0006694932359893801,-0.004518860199850636,0.003444797994907093,-0.010002763377972472,-0.015701900348714232, ,0.0048874752396659855, ,0.010579315031567362, ,3.099195053480479e-05, ,0.1952615779918925,-0.19106041130831436,0.09261473534,2.261086660593626,0.9912978057982704,-0.8881370204348665, ,0.009901461583198741,0.003483526280287187,0.004736488706512043,0.008197619923013445,0.0,-0.009038181413475095, ,0.3798489570617676
0.009740354086040553,0.020355315900005333,-0.07937513779283974, ,0.00993694560203341,0.020219691659323222,-0.07961291438292577, ,0.0003370161207033117, ,0.0017802263627830072,0.0007290600723343323,-0.0048726459468982925,0.015322991821855314,-0.008855567536127117,-0.024298640208038326, ,0.005238646105211166, ,0.017697885523778562, ,3.1289840616292325e-05, ,0.19559365550548416,-0.1909368475823268,0.09278714191000001,2.261086660593626,0.9915710787978013,-0.8881964987619783, ,0.009926598897727545,0.003654379566878749,0.005139984356243951,0.006138789775881459,0.005778014357789806,-0.02436480755494027, ,0.4068779945373535
0.00977362552845223,0.020365383277034403,-0.07946374481313756, ,0.009975270994469786,0.0202332366211321,-0.07971313524828642, ,0.00034687061244120847, ,0.0016301162433817091,0.0006050199516327821,-0.004303494558294068,0.002954723711625891,-0.004791887973193684,-0.007147711082805658, ,0.004641486132918775, ,0.005629616424199326, ,3.160975261087359e-05, ,0.19578672382733978,-0.19084417478783608,0.0928791785,2.261086660593626,0.9915710787978013,-0.8883598562422593, ,0.009522402378721656,0.003715099289089392,0.004561515326460482,0.005305964862378677,0.005778014357789806,-0.0036896702028310475, ,0.42419981956481934
0.009819265055074942,0.020384838635761696,-0.07957659491083545, ,0.010013578427425618,0.020246680283006094,-0.07981315946418766, ,0.00033586932728840024, ,0.0021006168970472056,0.0009371065646489125,-0.006017164951370093,0.003032252881361133,-0.00561199566924926,-0.009658765483359052, ,0.0064418191618257166, ,0.006378796519746356, ,3.185098056294184e-05, ,0.19603385127931494,-0.19075922472621962,0.09299843718,2.2617157304240796,0.9915710787978013,-0.8883598562422593, ,0.01089657617728782,0.0040071463597349056,0.006336042768496421,0.008070833460576151,0.005778014357789806,-0.003361266671904486, ,0.4428858757019043
0.009840057759842511,0.020394283506451005,-0.07964004811019428, ,0.010051867816297742,0.02026002298268156,-0.07991298723823191, ,0.00037065503621610055, ,0.0020544423915060993,0.0009686887942861723,-0.0063443393507251035,0.0025373036948261175,-0.00438295956143381,-0.009446215633207059, ,0.006738674448090806, ,0.0050644085813042646, ,3.2229341874426635e-05, ,0.19613424680667987,-0.19072061106184848,0.09306454797000001,2.2617157304240796,0.9915710787978013,-0.8882781775021188, ,0.00952684886642614,0.004336452807227597,0.00665363889724311,0.007803235186404745,0.005642656378995893,-0.0032913718710039534, ,0.4599928855895996
0.009874381834016517,0.02040898224568849,-0.07974610628298859, ,0.01009013907681698,0.020273265057443774,-0.08001261877796641, ,0.00036878076547619906, ,0.001969996835795762,0.0008447584581822603,-0.005881093826412117,0.0015389462899463799,-0.005058138931046001,-0.008252049659006984, ,0.0062595342463140574, ,0.005287070842505764, ,3.257010676016845e-05, ,0.19647404705314575,-0.19058160187011244,0.09325899147000001,2.2617157304240796,0.9917077152975667,-0.8883079166656748, ,0.011007648945420577,0.0033160990914938887,0.004463102135051835,0.005783939435724359,0.0026134640577843327,-0.0020677850622089124, ,0.48221683502197266
0.009920223744811552,0.020425208387831306,-0.07986441639481111, ,0.01012839212504749,0.020286406844126387,-0.08011205429088285, ,0.0003520290764067086, ,0.0017216562139715185,0.00046400302655202734,-0.0038055099263945113,0.0030441315956989587,-0.007167500413302419,-0.008097524565090256, ,0.004202535511764694, ,0.007787155998727019, ,3.281551557502342e-05, ,0.1965821653133849,-0.19054298820574134,0.09330047275000002,2.2617157304240796,0.9918443517973322,-0.8884193345693712, ,0.01172959094478238,0.004255482291448253,0.0040387453144016235,0.005364372081436925,0.005812657523296719,-0.0046369851828157805, ,0.49920201301574707
0.00995155560129018,0.020435318149217334,-0.07993711272795544, ,0.010166626877386595,0.020299448679110495,-0.08021129398441679, ,0.0003740207589206496, ,0.0018647668595922708,0.0006831758271094005,-0.004976423606930554,0.0011377656575346684,-0.007022176205874224,-0.0013189379303686641, ,0.005358066495201039, ,0.007113751914833416, ,3.313150400371996e-05, ,0.19677523363524052,-0.19047348360987332,0.09337695386000001,2.261925420367564,0.9918443517973322,-0.8881742983489496, ,0.010930187256361478,0.003969485154104859,0.005241464797630801,0.0,0.005812657523296719,-0.0026622642901764286, ,0.5175189971923828
0.009999967660730946,0.020456913077421653,-0.0800678111508769, ,0.010204843250564392,0.02031239089832652,-0.08031033806594833, ,0.00034882656449025163, ,0.0020976862760148478,0.0008948564136980646,-0.005839174720700955,-0.00024257276275936482,-0.004909454915166062,-0.00773737408124197, ,0.006268733295697838, ,0.0049154432476673305, ,3.332779481169195e-05, ,0.19702236108721569,-0.19038853354825683,0.09351436060000001,2.2623448002545334,0.9918443517973322,-0.8880109408686683, ,0.010986846965995254,0.004173119256011221,0.00615012027799228,0.01013159064566797,0.005041171832867427,0.0018846725283057598, ,0.5350909233093262
0.010020166796546997,0.020464694920427007,-0.08012401981805896, ,0.010243041161643459,0.02032523383725431,-0.08040918674280213, ,0.0003878692451127471, ,0.002133569737172451,0.0008915200618506893,-0.005697474483903967,-0.0029486451430628196,-0.007458709069712165,-0.0056644472280489265, ,0.0061488326809889015, ,0.008020401683376697, ,3.378361017492206e-05, ,0.19713820208032906,-0.1903421971510115,0.09357398994,2.2623448002545334,0.9919809882970977,-0.8881223587723647, ,0.011680149236237983,0.003721007689126119,0.005997293493975904,0.009142327007559112,0.002288974431319033,0.004128904966678129, ,0.5504658222198486
0.01006696639662453,0.020485068980973478,-0.08025285887351498, ,0.01028122052801838,0.020337977830921818,-0.08050784022224663, ,0.00036408258327454694, ,0.0025927698132927534,0.0011423461068195682,-0.007124272585678411,-0.0026144338103139776,-0.009013702214679866,-0.0041216845800770485, ,0.00766698570544754, ,0.00938520502762857, ,3.412599594818911e-05, ,0.1974007749980527,-0.19027269255514348,0.09371010039000001,2.2623448002545334,0.992117624796863,-0.8881520979359205, ,0.013908389499995717,0.004050338785017602,0.007502972925105982,0.007631529338373997,0.0036206320365188894,0.0038708376264859454, ,0.5658378601074219
0.010092600547533935,0.020496888874962746,-0.08032178039839027, ,0.010319381267415587,0.020350623213906918,-0.08060629871149483, ,0.0003921400374942597, ,0.0024697283159174728,0.0010943067077094765,-0.0070935331250762,-0.0038227977585842984,-0.009526844033108302,0.0030092647512260495, ,0.007590472799604504, ,0.010265209300054843, ,3.454845009680169e-05, ,0.19753206145691452,-0.19023407889077235,0.09378269263000001,2.2625544901980175,0.992117624796863,-0.8881520979359205, ,0.012923456565228213,0.003962166382263242,0.007446849705469846,0.0,0.0036206320365188894,0.003573814185216311, ,0.5807478427886963
0.010143424793363453,0.020518773687112378,-0.08046178748635002, ,0.010357523297892869,0.020363170320337316,-0.08070456241770342, ,0.00035915211914607187, ,0.0025437219451709746,0.0011682134952962532,-0.007333753294665689,-0.00021398766422381057,-0.004766218804005218,-0.009524980413086095, ,0.007849788627215165, ,0.004771017836233409, ,3.483384498773844e-05, ,0.19780235710751237,-0.19014140609628166,0.09393046969,2.2627641801415024,0.9922542612966285,-0.8880184796191953, ,0.012512782378490345,0.004678904696312214,0.007724932841901067,0.013246655072657848,0.006161458234573047,0.003168575238922237, ,0.5963809490203857
0.010195088578258085,0.020539776387474236,-0.08060291267717871, ,0.01039564653783906,0.02037561948389058,-0.08080263154797401, ,0.00032719812269816896, ,0.002303886546528115,0.0008704791292688803,-0.005904136213881504,-0.0018242037144369486,-0.007315013382087134,-0.0033618136883521816, ,0.00639722217574417, ,0.007539040575400909, ,3.499668848705475e-05, ,0.19807265275811023,-0.19004873330179095,0.09407695046,2.262973870084987,0.9922542612966285,-0.8877734433987736, ,0.013373300670584946,0.004075672463995244,0.006246592752941177,0.007020344073280881,0.005415518088852084,0.00353073213243318, ,0.6155509948730469
0.010216309304883509,0.020545907002665644,-0.0806540212393245, ,0.010433750905973788,0.020387971037793554,-0.08090050630935164, ,0.0003646635553919075, ,0.0022040200540375367,0.0004812940899401641,-0.00489293180063332,-0.00752442723634634,-0.010617307531870287,-0.0020169591041995813, ,0.005387961581642892, ,0.013013232559857767, ,3.527345334815106e-05, ,0.19821166194984627,-0.18998695143879715,0.09413269093000001,2.262973870084987,0.992390897796394,-0.8878031825623295, ,0.014411076926115533,0.006674079531893539,0.005197002127243068,0.006357628695802669,0.0020360287686731547,0.006114960571704351, ,0.6310758590698242
0.01024553762861762,0.020551727550982793,-0.08071626893805794, ,0.010471836321346965,0.020400225314824785,-0.08099818690882588, ,0.0003919716420020647, ,0.00221808918345795,0.0004941084816261051,-0.004800558721132932,-0.0034176409431943226,-0.006460185719466885,0.00034003493552507854, ,0.005311254734282047, ,0.007308506454610207, ,3.562308396986078e-05, ,0.19842017573745033,-0.1899020013771807,0.09419880172,2.262973870084987,0.9925275342961595,-0.8878329217258853, ,0.01520784319847288,0.006337468809547141,0.005092331048593351,0.005645833650966596,0.008708788400290832,0.005951135509617964, ,0.6486759185791016
0.010311347095307,0.020572506383884234,-0.08087339382099115, ,0.010509902703338602,0.020412382647312006,-0.08109567355333014, ,0.0003383374349718684, ,0.002524971192546596,0.0007911477403737108,-0.006477436430403405,-0.008276662600724858,-0.011103584354829485,0.005358222440335674, ,0.006997040587291588, ,0.0138489247932155, ,3.578877578108123e-05, ,0.19881403511403578,-0.189739823986822,0.09436472684000001,2.263393249971956,0.992664170795925,-0.8877809821493008, ,0.012823911021414969,0.005344959408806722,0.006214908903628561,0.012480393487152405,0.003233304441667387,0.009689770373669655, ,0.6637818813323975
0.010335955568965634,0.020579563285629897,-0.08093825346575974, ,0.010547949971658404,0.02042444336713464,-0.08119296644974167, ,0.0003658996038478554, ,0.002449783747192733,0.0007069940477229444,-0.006109745639303096,-0.0047701783765676225,-0.008595091575484317,-0.009633880485923417, ,0.006620443547717067, ,0.00983006573841638, ,3.602995577380609e-05, ,0.19895304430577182,-0.18967031939095397,0.09443213392000001,2.263393249971956,0.992664170795925,-0.8876993034091603, ,0.014075488216919427,0.0070887876292634235,0.006399683214142226,0.012480393487152405,0.003233304441667387,0.003699849257623346, ,0.6792209148406982
0.010383898550959506,0.02059527916826627,-0.08106401835067735, ,0.010585978046345373,0.020436407805723273,-0.08129006580488231, ,0.0003423064180587588, ,0.002537744254877973,0.0009597056232459374,-0.006294845391405446,-0.0027540739411782158,-0.007151729498327014,-0.004793802266717049, ,0.006854652382736444, ,0.007663690247321197, ,3.61899166373218e-05, ,0.1992310626892439,-0.1895544783978406,0.0945643555,2.263393249971956,0.9928008072956902,-0.8876473638325754, ,0.014841561082025459,0.004548632843547719,0.006670356582914574,0.011092775920945314,0.00578450461766337,0.006643528853787238, ,0.6963520050048828
0.010409884744361879,0.020604866123963107,-0.08112971721538603, ,0.010623986847767539,0.020448276294059015,-0.08138697182551734, ,0.0003695132202586668, ,0.002338283436295409,0.0007662983324341129,-0.00604431153562772,0.00012156346388087749,-0.006927491528000176,-0.003331925151046775, ,0.0065259853280916205, ,0.006928557460168282, ,3.642111284298681e-05, ,0.19937779461385416,-0.1894926965348468,0.09463435516,2.2636029399154403,0.9929374437954557,-0.8875954242559908, ,0.013545095854763172,0.005767444180821123,0.006371524608000002,0.004068940610196008,0.00786223176745173,-0.0004879002347366636, ,0.7119297981262207
0.010446604759163362,0.020617923566901668,-0.08121832604745194, ,0.010661976296621625,0.020460049162675575,-0.08148368471835638, ,0.0003764630803691757, ,0.002257810155961004,0.000846970476718727,-0.005563105435597926,-0.0017256673211868577,-0.002795690203521985,-0.008591249056311232, ,0.0060632670876659385, ,0.0032853928363603922, ,3.666149187582659e-05, ,0.199578585668584,-0.18940774647323033,0.09472768804000001,2.2640223198024096,0.9929374437954557,-0.8873503880355691, ,0.012934025018191466,0.004587212297586247,0.005912699153674834,0.01670292557396937,0.00725088618624976,0.008189725314892482, ,0.7350490093231201
0.010488084514859247,0.020632525950791132,-0.08132670998118313, ,0.010699946313932642,0.02047172674165738,-0.08158020469005241, ,0.00036742533253625076, ,0.0020289855623091134,0.000689173929147914,-0.004703378820580184,0.013514460900466237,-0.005178294690011528,-0.025973596426806005, ,0.005168511918004857, ,0.014472573614431074, ,3.6866280266792436e-05, ,0.1998257131205592,-0.18931507367873962,0.09484305785000001,2.2640223198024096,0.9932107167949866,-0.8874098663626808, ,0.012388967145122174,0.004465101816519909,0.005031210208464941,0.015927490539574495,0.009396797416376888,-0.01559606461727822, ,0.7507388591766357
0.010526183404608199,0.02064186956980464,-0.08141606498704114, ,0.010737896821053482,0.020483309360640845,-0.08167653194720269, ,0.0003712235821830266, ,0.0018056954199659897,0.0006226792751643522,-0.004484599684580526,0.0049281739511923715,-0.001251373761229841,-0.012326389110512561, ,0.004874412760563584, ,0.005084568120261973, ,3.707247848314024e-05, ,0.20006511783966016,-0.18921467815137472,0.09493639073000001,2.2640223198024096,0.9932107167949866,-0.8874098663626808, ,0.010400489354980861,0.004465434593005539,0.004776255328335833,0.012870379899685163,0.009396797416376888,-0.0020020882795236073, ,0.7658078670501709
0.010569307066735378,0.02065974778365578,-0.08153379632117747, ,0.010775827739664769,0.020494797348815902,-0.08177266669634854, ,0.00035625621459203186, ,0.002152147662731022,0.0008452441572808648,-0.005629723003790912,0.005131697439479883,-0.0036532800274783547,-0.01252806370193473, ,0.006086046199876288, ,0.006299267252189237, ,3.732910677282207e-05, ,0.20028135436013844,-0.18913745082263247,0.09505564941000001,2.2642320097458937,0.993347353294752,-0.887357926786096, ,0.009424787668295305,0.00421664572447944,0.0074923854750705565,0.001391258169586026,0.005478386931858153,-0.002716784947547229, ,0.7815649509429932
0.010593173226080584,0.020672785427815935,-0.08160423639972618, ,0.010813738991774319,0.020506191034922957,-0.08186860914397423, ,0.0003824864659575403, ,0.0026376938628823797,0.001337565551137178,-0.007831962083199565,0.002899348257119751,-0.004557195352209573,-0.012868318456842751, ,0.008371746567506206, ,0.0054013165363745565, ,3.7644686769040265e-05, ,0.2003971953532518,-0.18909883715826134,0.09513601939,2.2644416996893786,0.9934839897945175,-0.8873876659496518, ,0.011942731129935914,0.003763555976620497,0.008266119107420863,0.014254875100798712,0.0062565244057616355,-0.00010296328797639812, ,0.7954788208007812
0.010620977379750585,0.020685156946670506,-0.0816901119929633, ,0.010851630499717047,0.020517490747257398,-0.08196435949650885, ,0.0003956317850942488, ,0.002513572537753405,0.001218923241631132,-0.0076824774652493235,0.0019427012264802244,-0.003722497189350857,-0.012258759144748787, ,0.00817461196483358, ,0.004198933986006194, ,3.798258696778954e-05, ,0.20052075907923939,-0.18904477802814176,0.09522546340000002,2.2644416996893786,0.9934839897945175,-0.8873876659496518, ,0.010861501837984523,0.004693465436753925,0.008077490628803247,0.013210405009874126,0.0062565244057616355,-0.0003703611989299533, ,0.8119299411773682
0.01067147912280236,0.020707467927830632,-0.08183392816760518, ,0.010889502186154192,0.020528696813665717,-0.0820599179603245, ,0.0003613371747086115, ,0.0025814670094896036,0.0011130916844359587,-0.0073871274888746416,-0.003205462444376985,-0.005385714786624268,0.0012401920027930026, ,0.007903960877682218, ,0.00626744694811526, ,3.822243386712141e-05, ,0.20076788653121458,-0.18895210523365108,0.09537712933,2.264651389632863,0.9936206262942829,-0.8871723688927861, ,0.012867381906233327,0.004727542961664956,0.007781539579872985,0.004977945647277729,0.007089950192344123,0.006436907259420385, ,0.825920820236206
0.010698799582807186,0.02071874607817639,-0.08191073637259268, ,0.010927353974073493,0.020539809561548165,-0.08215528474173699, ,0.0003795514347243283, ,0.002488613764053482,0.00091014467240852,-0.006638835746186602,-0.0061359615735744385,-0.006167434529223366,0.0037359296958469857, ,0.007148125758280633, ,0.008699842539293588, ,3.8498963244046046e-05, ,0.20090689572295062,-0.18890576883640572,0.09545749931000001,2.264651389632863,0.9936206262942829,-0.887009011412505, ,0.01354123024521558,0.00533549853029216,0.006992454574187885,0.004519603670764727,0.006317116479558919,0.009466850005957693, ,0.8392930030822754
0.01074365646693112,0.020735021017681644,-0.08203092840153443, ,0.010965185786788414,0.020550829317858614,-0.0822504600470063, ,0.00036220983587378956, ,0.0022834634739658578,0.0007410486443350144,-0.006065035824121089,0.0015573202404048714,-0.00012388089739147747,0.006298940548757601, ,0.00652288418401547, ,0.0015622370502729203, ,3.872400473231175e-05, ,0.20116174590780003,-0.18878220511041813,0.09558712831,2.2648610795763475,0.9941671722933447,-0.8872913255470094, ,0.01318196160000983,0.006007255708395448,0.006443693980582525,0.0,0.016328011370875348,0.0039437462352984905, ,0.8530759811401367
0.01074365646693112,0.020735021017681644,-0.08203092840153443, ,0.01100299754793807,0.020561756409104986,-0.08234544408233585, ,0.0004429430373682993, ,0.0022834634739658578,0.0007410486443350144,-0.006065035824121089,0.0015573202404048714,-0.00012388089739147747,0.006298940548757601, ,0.00652288418401547, ,0.0015622370502729203, ,3.913420760639795e-05, ,0.20116174590780003,-0.18878220511041813,0.09558712831,2.2648610795763475,0.9941671722933447,-0.8872913255470094, ,0.01318196160000983,0.006007255708395448,0.006443693980582525,0.0,0.016328011370875348,0.0039437462352984905, ,0.8668949604034424
0.010814242127144151,0.0207559253857895,-0.08220899828484694, ,0.011040789181486665,0.02057259116134755,-0.08244023705387231, ,0.00037203007134285114, ,0.002470226063134164,0.000622082856477091,-0.005806150387418644,-0.0013287206523466203,0.0038955937920200005,-0.0006265306354618541, ,0.006340377449697429, ,0.004115961973336879, ,3.9364467273294817e-05, ,0.2015556052843855,-0.18857369132281407,0.09577509036000001,2.2652804594633165,0.9944404452928756,-0.887024088913559, ,0.015198100826148428,0.007939183948978626,0.006205224589014414,0.014625574078608181,0.018528657130092364,0.01276705421552497, ,0.8799839019775391
0.010841704090953756,0.02076201552812319,-0.08227633613107206, ,0.011078560611723376,0.02058333390020229,-0.08253483916770633, ,0.0003935123321278411, ,0.002869854649220868,0.0007744228568833022,-0.007269083256948051,-0.004432499403286494,-0.0009123357989864944,-0.0016780708129537256, ,0.007853366658023832, ,0.004525415701879707, ,3.963689466640054e-05, ,0.2017177826747442,-0.1884887412611976,0.09584509002000001,2.2652804594633165,0.9944404452928756,-0.8868607314332779, ,0.016268976780125285,0.009216721874225484,0.0076765356722891575,0.012968875748378777,0.014386152759981233,0.011150068866950783, ,0.8934898376464844
0.010865304083973574,0.02076815946427652,-0.08233745280954032, ,0.011116311763261822,0.020593984950838532,-0.0826292506298717, ,0.000422477909651118, ,0.0029183605411597664,0.0009114071198925765,-0.007259661735353943,-0.004156937109519764,-0.0033668157480379367,-0.001027107763377675, ,0.007877193643560595, ,0.005349350825053039, ,3.996648477318762e-05, ,0.201849069133606,-0.1884192366653296,0.09590860823000001,2.2652804594633165,0.9944404452928756,-0.8867790526931373, ,0.016801866423241992,0.007462536928746701,0.0076913623949782725,0.01188476153119406,0.012153462654001317,0.010970752022940383, ,0.9108178615570068
0.010928670398037509,0.020786649130511377,-0.0824968960782689, ,0.011154042561039922,0.020604544637981313,-0.0827234716463463, ,0.00036781944769902246, ,0.002667788953101932,0.0005700105150525784,-0.0064765055533416134,-0.013240961426855057,-0.010045297682813401,0.00810627137518991, ,0.007027598029770056, ,0.016620200168742806, ,4.016347370895207e-05, ,0.20221203757869458,-0.1882416138092224,0.09607712593,2.2654901494068014,0.9947137182924064,-0.8870018885005301, ,0.01591162668653098,0.008576720827817269,0.006763826547770702,0.001590207619544182,0.004180280698734368,0.013004468883453104, ,0.9279608726501465
0.010981682186909494,0.020795808104599658,-0.08260971789110712, ,0.01119175293031917,0.02061501328590875,-0.08281750242305083, ,0.0003463970199312349, ,0.0025495775104584393,0.0004208443719523364,-0.005211755578491408,-0.007037827236888369,-0.010786344055084263,-0.008004792478893498, ,0.005817203080276269, ,0.012879294485558135, ,4.030720213179033e-05, ,0.20255183782516045,-0.1880717136859895,0.09619508832000001,2.2656998393502854,0.9947137182924064,-0.8868385310202489, ,0.01685558464626479,0.008213739045959451,0.005487017402686876,0.012483225681418252,0.0034708621901408964,0.006005782892995954, ,0.9413118362426758
0.010996802967417592,0.0207994523737876,-0.08263933387042968, ,0.011229442796684738,0.020625391218455597,-0.08291134316584965, ,0.0003980045637324116, ,0.0025825064981505404,0.00039022190404778374,-0.005180633254649711,-0.009643365871771357,-0.014840861172371713,-0.002255326318928147, ,0.005801773338089907, ,0.017698747468187975, ,4.05585126498161e-05, ,0.20265223335252536,-0.18802537728874413,0.09622749557000002,2.2659095292937703,0.9948503547921719,-0.8867865914436643, ,0.0175800188140924,0.00793372764788349,0.005434599631525077,0.005705255010455143,0.0007687256138000233,0.005878000157616346, ,0.956946849822998
0.011033174104495795,0.020806360479676867,-0.08271732643701822, ,0.01126711208604496,0.02063567875901207,-0.08300499408055101, ,0.00040818121235071636, ,0.0027101171429946536,0.0006468012050671471,-0.006084134754465818,-0.00822715126420734,-0.014370924656377853,-0.0022169581783130954, ,0.006691769753819138, ,0.016559271876104287, ,4.0824050307512693e-05, ,0.20289163807162633,-0.18792498176137923,0.09630916184,2.2659095292937703,0.9948503547921719,-0.8867865914436643, ,0.016894595256982517,0.0069391054723374574,0.0063868530553328,0.005178614177564471,0.0008273192910739157,0.0050108935820000425, ,0.9698150157928467
0.011087273748112029,0.020820654665790108,-0.08285381118121184, ,0.011304760724630714,0.020645876230521866,-0.08309845537290557, ,0.00037107797956700925, ,0.0027327554975534185,0.0008304839555726827,-0.007233648963452921,0.0036367743609913676,-0.00651387206582939,-0.007182197706013189, ,0.007777103158396165, ,0.007460337608794638, ,4.1090155112833224e-05, ,0.20321599285234374,-0.1877628043710205,0.09645434632000001,2.2659095292937703,0.9952602642914682,-0.8869574876744725, ,0.014857827079766834,0.007631394492628587,0.007621440918660288,0.004316396519374778,0.011422361409289355,-0.005808779518003966, ,0.9829239845275879
0.011119260147160099,0.02083098345001806,-0.08293687983711119, ,0.011342388638995528,0.020655983955486346,-0.08319172724860797, ,0.00038125890166882564, ,0.003023174078161249,0.0010544532284486401,-0.008384241884870454,-0.00013221572129797684,-0.007151934633548545,0.0013267417886898146, ,0.00897479610363756, ,0.0071531537498590045, ,4.137081755239953e-05, ,0.20337817024270247,-0.18767785430940404,0.09654119775000002,2.266119219237255,0.9952602642914682,-0.8867124514540508, ,0.015703614356854342,0.0073249136287713,0.008824826326869806,0.0,0.011422361409289355,-0.0003489953810818869, ,0.9971349239349365
0.011150694573989067,0.02084210448824684,-0.08301713281621431, ,0.011379995756014945,0.02066600225596246,-0.08328480991329587, ,0.00039400768596058763, ,0.003054189626778922,0.0010716227628487518,-0.007622513345727402,0.004128925070823383,-0.00597826796962354,-0.013111577300579448, ,0.008281253487725872, ,0.007265513362734131, ,4.167078212163037e-05, ,0.20354034763306117,-0.18760834971353602,0.0966254566,2.2663289091807393,0.9952602642914682,-0.8865490939737696, ,0.01703409469726634,0.006474725892422911,0.008098023141840367,0.014396164676627358,0.011422361409289355,-0.0013129779562225316, ,1.009037971496582
0.011210385182628776,0.020861219672766978,-0.08316503968488415, ,0.01141758200288632,0.020675931453563428,-0.08337770357255053, ,0.00034998310761784096, ,0.0029567235460940143,0.0008708137648676293,-0.007262270599346486,-0.00010603928559893002,-0.004218111319081255,-0.01047597604962878, ,0.007889303201122522, ,0.004219441577952108, ,4.187394963156545e-05, ,0.20388787061240127,-0.18746161778892576,0.09678360398000001,2.2665385991242237,0.9956701737907646,-0.8867199902045778, ,0.01663399501463116,0.008033887350016542,0.0076913623949782725,0.015668658390561304,0.01162189910404948,0.0039286048034968485, ,1.021756887435913
0.011235826718722218,0.020868432215282225,-0.08322993612511967, ,0.01145514730712824,0.020685771869458136,-0.08347040843189586, ,0.00037322011301858213, ,0.00270617897303578,0.0008247163630631103,-0.006683814779650461,-0.0016742116384935127,-0.0032349999549776453,-0.00682185638894858, ,0.007257888241236494, ,0.003642553497233859, ,4.211888219226663e-05, ,0.20403460253701156,-0.18739211319305774,0.09685230735000001,2.2665385991242237,0.9958068102905301,-0.8867497293681337, ,0.01513025216174598,0.0070854116185025545,0.007082619617607827,0.014023785383254356,0.010668519917689794,0.006646357411916439, ,1.034268856048584
0.011259024982028378,0.02087508572915702,-0.08329092030424377, ,0.011492691596580515,0.02069552382437315,-0.08356292469679932, ,0.0004010348538162022, ,0.0028804007273014296,0.0009237073535738316,-0.007703826874021081,-0.002002466961418929,-0.003363928574721298,-0.007080312161409319, ,0.008276405749464824, ,0.00391482595427041, ,4.241317100310513e-05, ,0.20415816626299912,-0.18733033133006394,0.09691582556000002,2.2665385991242237,0.9958068102905301,-0.8867497293681337, ,0.014746999465185822,0.008103562383090238,0.008114524462557312,0.012816915173519431,0.010668519917689794,0.005104718438795095, ,1.0463709831237793
0.011292382637166053,0.020885720522560207,-0.08338744438429942, ,0.011530214799403561,0.020705187638592016,-0.08365525257267147, ,0.00040109535692595523, ,0.0028571679122160083,0.001015196601245234,-0.007993107744099804,0.006520160812889761,-0.0018846769692686274,-0.01272378606081793, ,0.008548906598306295, ,0.006787081234031699, ,4.27006540048842e-05, ,0.20432034365335786,-0.187229935802699,0.09701693618000001,2.2665385991242237,0.9959434467902953,-0.8866977897915489, ,0.01400072905849377,0.007700654676993842,0.008441341558028618,0.01140655436880059,0.014541526015488136,-0.005230688809487398, ,1.057631015777588
0.01132304468839138,0.020894915360139085,-0.08346825364072542, ,0.011567716844078218,0.020714763631954566,-0.0837473922648658, ,0.00041259844937092976, ,0.0029829251733435275,0.0010003579442336421,-0.007778025248588862,0.004750263869102894,-0.005331584943161194,-0.011309637057386844, ,0.008390246442986268, ,0.007140782615716368, ,4.3003744170274944e-05, ,0.20448252104371656,-0.18715270847395676,0.09710119503,2.2665385991242237,0.9959434467902953,-0.8866161110514084, ,0.015916964367405365,0.007290107832723038,0.008231943937984496,0.010444365374426522,0.012445765176667714,-0.003995849430100716, ,1.0693600177764893
0.0113744019167012,0.02091126385271034,-0.08359445335957999, ,0.011605197659405334,0.020724252123859505,-0.08383934397867926, ,0.00038498243713311656, ,0.003150058503112756,0.0008904573738717165,-0.007758231173891951,-0.005993473870390539,-0.010484174613153338,-0.009167952365147823, ,0.008420566124392372, ,0.01207640750584387, ,4.324696250765323e-05, ,0.2047450939614402,-0.1870059765493465,0.0972347129,2.2671676689546776,0.9960800832900608,-0.886482492734683, ,0.01733277471387594,0.008429240788148471,0.008151899447287616,0.013306503486527052,0.004502961022955034,0.005254826002463164, ,1.083000898361206
0.011417431673193852,0.02092366779585703,-0.08369993517857464, ,0.01164265717450518,0.020733653433260925,-0.08393110791935111, ,0.00037453013298244497, ,0.0028575029996675667,0.000734549589635983,-0.006970652689570615,-0.007273984606350903,-0.007569788864182307,-0.004870708905702307, ,0.007569338505534125, ,0.010498215993401025, ,4.346485712495726e-05, ,0.20498449868054117,-0.18689013555623313,0.09734619384000001,2.2673773588981616,0.9962167197898263,-0.886348874417958, ,0.015932998918480656,0.008379825999566836,0.00732696022079117,0.012006671766801449,0.006005685452803412,0.008603462221803073, ,1.0941729545593262
0.01144659122762192,0.02093094536348107,-0.0837723311829014, ,0.011680095318817777,0.020742967878673413,-0.08402268429206422, ,0.00039055905400759897, ,0.003053110408178021,0.0006452177341750962,-0.007241803692336963,-0.013369316136634946,-0.009651722529582745,-0.001398117098021534, ,0.00788552533490092, ,0.016489218957606588, ,4.370787194004688e-05, ,0.2051543988037741,-0.18680518549461667,0.09742267495000001,2.2673773588981616,0.9963533562895918,-0.8863786135815137, ,0.01742187287653218,0.009933255311450798,0.007577931265461467,0.012006671766801449,0.003841898756495112,0.014169051500995917, ,1.1059420108795166
0.011477140639646135,0.02093810925652808,-0.08385127302475104, ,0.011717512022101756,0.020752195778167754,-0.08411407330194402, ,0.00040175391551591777, ,0.0030278196061407268,0.0008563015628032481,-0.007776387332578981,-0.005585782402053121,-0.00426420186471311,-0.003170362265843818, ,0.008388870238600923, ,0.007027400241109056, ,4.396621765092768e-05, ,0.20532429892700704,-0.18670478996725173,0.09750563751,2.2673773588981616,0.9964899927893571,-0.8864083527450696, ,0.016100600875207125,0.008891919396230732,0.008189620318766069,0.012006671766801449,0.010423207239637038,0.009384347093041265, ,1.1180098056793213
0.01150429010774717,0.020946244053490083,-0.08392269943544003, ,0.011754907214434552,0.020761337449374386,-0.08420527515405932, ,0.0004205334982651892, ,0.003014874276648258,0.0009440839152798626,-0.007737621640373027,0.005441756857798389,3.3895964396512017e-05,-0.007802394302035482, ,0.008357723972030573, ,0.005441859875098374, ,4.425328027429696e-05, ,0.20547875358449152,-0.1866275626385095,0.09758211862,2.2673773588981616,0.9967632657888881,-0.8866311885524625, ,0.016386969704450145,0.008097645295035656,0.008231943937984496,0.012006671766801449,0.018723601891006206,0.00043243157810237114, ,1.1338768005371094
0.011569711979749209,0.020960081005240258,-0.08408142433812174, ,0.01179228082621182,0.020770393209481906,-0.08429629005342155, ,0.00036288514282987745, ,0.002285969349072558,0.00044433935021703254,-0.004899552713380433,0.005645602114873198,0.005606113048121642,-0.00234804693714839, ,0.005424823509962704, ,0.007956212913460586, ,4.442966697934061e-05, ,0.20586489022820276,-0.18641904885090543,0.09774934003,2.2673773588981616,0.997036538788419,-0.8863639519190118, ,0.01496325158600927,0.007624142869145355,0.00530783456181273,0.011598250760184559,0.023142739024242957,0.005230752462334069, ,1.145427942276001
0.011569711979749209,0.020960081005240258,-0.08413996314063595, ,0.011829632788147066,0.02077936337523701,-0.08438711820498444, ,0.0004400754806503746, ,0.0028110257010693827,0.00037775933945469404,-0.005910935335571933,-0.005176958135218989,-0.0011421728127368812,0.002599238451944584, ,0.005424823509962704, ,0.007956212913460586, ,4.482091858751596e-05, ,0.20603479035143568,-0.18632637605641475,0.09780767308,2.2673773588981616,0.997036538788419,-0.8861189156985901, ,0.01838019398769529,0.010348038416561255,0.006214908903628561,0.010273756331454876,0.017382535161306934,0.012676618202415783, ,1.1555449962615967
0.011596643217528551,0.020963520917315782,-0.08413996314063595, ,0.011866963031271523,0.020788248262946517,-0.08447775981364551, ,0.0004667974907473415, ,0.0028110257010693827,0.00037775933945469404,-0.005910935335571933,-0.005176958135218989,-0.0011421728127368812,0.002599238451944584, ,0.006556197385064817, ,0.00530145706878992, ,4.525275648397461e-05, ,0.20603479035143568,-0.18632637605641475,0.09780767308,2.2673773588981616,0.997036538788419,-0.8861189156985901, ,0.01838019398769529,0.010348038416561255,0.006214908903628561,0.010273756331454876,0.017382535161306934,0.012676618202415783, ,1.1649248600006104
0.011658799927982102,0.020983252600412488,-0.08428248468949195, ,0.01190427148693355,0.020797048188476486,-0.08456821508424443, ,0.0004202026032331234, ,0.0033822311821810245,0.0011826246007373305,-0.00890912662484007,0.046567618006215165,0.011708473137592683,-0.029628052824851564, ,0.009602636405353531, ,0.04801699005413615, ,4.559480025965936e-05, ,0.20639003606365003,-0.18614875320030758,0.09796582046,2.2682161186721,0.9977197212872461,-0.8862676115163695, ,0.019128591324021525,0.008798930786233542,0.009689058102189783,0.00926662907844714,0.04878501120407671,-0.040842398929641914, ,1.1776928901672363
0.01169899187500938,0.020997495266048508,-0.08439620380815367, ,0.011941558086798271,0.020805763467250948,-0.08465848422156298, ,0.0004054509403490392, ,0.003698431042974379,0.0014024574133168594,-0.010776045037856986,0.00352690108243862,0.004013684981727844,0.0005646503268715232, ,0.011479042888399979, ,0.005343084602302029, ,4.590507462862919e-05, ,0.20659082711837987,-0.18604835767294267,0.09808637543000001,2.2682161186721,0.997992994286777,-0.8863270898434812, ,0.017123230162120313,0.009444608931142762,0.011410323438395417,0.00926662907844714,0.024254732158788598,0.0061743719421755855, ,1.1875708103179932
0.011737987252717094,0.02100987350684958,-0.08450855856650168, ,0.011978822762847792,0.02081439441425698,-0.08474856743032752, ,0.00039219647282416153, ,0.0037784890214346213,0.001306369042141537,-0.010974311545490369,-0.011307276869498893,-4.3306012371162154e-05,0.00905085857217168, ,0.011679858443356707, ,0.011307352759818399, ,4.6187000277989705e-05, ,0.2067607272416128,-0.18594796214557774,0.09819915266000001,2.2682161186721,0.997992994286777,-0.8860820536230595, ,0.017197705972901555,0.010569289340117317,0.011542617043478264,0.00926662907844714,0.015558304648166547,0.020633925460602845, ,1.1974568367004395
0.01177358929565144,0.021020968775302393,-0.08461095441150732, ,0.01201606544737984,0.020822941344038108,-0.08483846491520482, ,0.00038700203744016003, ,0.0034915507673506795,0.0010876964626590397,-0.009675273641749683,-0.002602371113833245,-0.0060799634405726355,-0.0061136379607657915, ,0.010343351990462487, ,0.0066134866801369225, ,4.6455156697319964e-05, ,0.20693062736484574,-0.1858398438853386,0.09830933731000001,2.2682161186721,0.997992994286777,-0.8858370174026379, ,0.01673667399620296,0.010100086374122,0.010152206195028681,0.00926662907844714,0.011300334450631118,0.0023118358765573128, ,1.2083489894866943
0.011802532477985798,0.021028804870692593,-0.08468720477806463, ,0.012053286073008419,0.020831404570700963,-0.08492817688080594, ,0.0003998897324927473, ,0.003534797308194225,0.0008156135083955982,-0.008695508648707953,-0.02268389268786427,-0.012882707677540108,0.007673254845285475, ,0.009421883466953374, ,0.026086837578861915, ,4.674070005167456e-05, ,0.20708508202233022,-0.18575489382372212,0.09838970729,2.2682161186721,0.9981296307865425,-0.8860301140464749, ,0.01905943795108873,0.010693209255090808,0.009065914354012522,0.00926662907844714,0.0,0.02390341333705477, ,1.2218708992004395
0.0118396521322063,0.02103803600014321,-0.08477769475528253, ,0.01209048457266272,0.020839784407910483,-0.08501770353168342, ,0.00039978096472641906, ,0.0032159436451871678,0.000810707682460915,-0.007182965205741387,0.03253932408440604,0.011381844914678831,-0.014513399405912656, ,0.007911670469775159, ,0.0344725105904755, ,4.7021236309221935e-05, ,0.20731676400855698,-0.18563905283060878,0.09848822533000001,2.2682161186721,0.9986761767856043,-0.8864757856612606, ,0.02103212357235611,0.009103930630364812,0.007893365470763133,0.00926662907844714,0.04584037630643634,-0.020526388832128848, ,1.231583833694458
0.011872300615353989,0.02104453373576506,-0.0848470328719898, ,0.01212766087958734,0.020848081168894084,-0.08510704507233292, ,0.0004140154826897108, ,0.00318971442016122,0.0005157887916918227,-0.006764619007264,0.021100700125658636,0.006515090820631675,-0.014793397619397906, ,0.007496691701894691, ,0.022083612476880798, ,4.732091688065175e-05, ,0.2075175550632868,-0.18553865730324384,0.09856211386000001,2.2684258086155844,0.9988128132853697,-0.8864238460846758, ,0.021106970987204356,0.0114165458752616,0.00735062829718505,0.012678970706932847,0.036784386589018635,-0.012983809942237152, ,1.2415039539337158
0.011905811906150676,0.021048802613173517,-0.08491781760906869, ,0.01216481492734143,0.020856295166438953,-0.08519620170719233, ,0.00042619172695198155, ,0.0029930770206244035,0.00032261413850651326,-0.006765531257019999,0.007079824479775062,-0.000976065149551673,-0.010265890026507157, ,0.007405066044504179, ,0.007146789745475488, ,4.763584568887222e-05, ,0.2077106233851424,-0.18541509357725625,0.09863340981,2.2686354985590693,0.9988128132853697,-0.8861788098642541, ,0.018408718052079685,0.012734425866676164,0.007207607022624436,0.008692514029320588,0.023102488563686293,-0.007274504706190187, ,1.252790927886963
0.011937777167838198,0.02105281424166873,-0.08498753233672438, ,0.012201946649798767,0.02086442671289422,-0.08528517364064207, ,0.00044030185327217144, ,0.003049571059390378,0.00045576957135236426,-0.007301387733960373,-0.001842242389975234,-0.0029646905390615006,-0.0036804967564934257, ,0.007925772668331402, ,0.0034904478602887637, ,4.7968831891224464e-05, ,0.20790369170699802,-0.18529152985126865,0.09870859463000001,2.2688451885025533,0.9988128132853697,-0.8860154523839731, ,0.017511891780489165,0.012107290323867157,0.0076913623949782725,0.008169698713492136,0.016633998528944847,0.0027636275315028047, ,1.2627379894256592
0.011972229028223143,0.021058702382817953,-0.0850738811891606, ,0.012239055981147195,0.020872476120170236,-0.08537396107700491, ,0.0004426339150981663, ,0.0035267117110890094,0.0007887129696129605,-0.008934526959165613,-0.014087523642709186,-0.004022673172730483,0.009933621740976454, ,0.009637714232411396, ,0.014650602885421311, ,4.8300187701097085e-05, ,0.2080890372959794,-0.18516796612528108,0.09879803864000002,2.2688451885025533,0.9988128132853697,-0.8858520949036919, ,0.018877450081255374,0.011705555884848992,0.009386453459045376,0.0072504175831298685,0.012950488264588944,0.020134033421307866, ,1.2723259925842285
0.01200656453092426,0.021066226489896124,-0.08516450246187895, ,0.012276142855888104,0.020880443699738273,-0.08546256422054588, ,0.00044275109304073654, ,0.0038581924041394115,0.000849632370098802,-0.009872305965689169,-0.016884052565673404,-0.009600807140554904,0.007174185142636235, ,0.010633435421906728, ,0.01942283797528738, ,4.862636299207804e-05, ,0.2082743828849608,-0.18504440239929348,0.09889396410000001,2.2688451885025533,0.9990860862849005,-0.8860749307110847, ,0.020177959081112223,0.012820446035999834,0.010316587772020727,0.006570656121032604,0.008022492044993168,0.01778345042452755, ,1.2818858623504639
0.012048388327503861,0.02107713233084866,-0.08526933526327239, ,0.012313207208836675,0.020888329762633513,-0.08555098327547277, ,0.000430233718403638, ,0.003910378549590378,0.0008817303360108967,-0.010059278348374919,-0.012019501302826896,-0.011806157800996806,0.006198250385468329, ,0.010828554366886785, ,0.016847957460518162, ,4.9005957624018985e-05, ,0.20848289667256487,-0.1849208386733059,0.09899766730000001,2.269054878446038,0.9993593592844314,-0.8861344090381964, ,0.020518257634263952,0.012516083033298705,0.010445122308196723,0.001048872509393824,0.009155120803252238,0.009489583891795089, ,1.2903618812561035
0.01208459396153735,0.021085770716614816,-0.08535773700873096, ,0.012350248975120734,0.02089613461945092,-0.08563921844593493, ,0.00043100607313581164, ,0.003960493655799191,0.0008727420243565388,-0.009413036090392133,0.014874291965954141,0.00160648482359244,-0.019500004069113938, ,0.010249509113988258, ,0.014960791458882426, ,4.938192921224256e-05, ,0.20869141046016892,-0.1847972749473183,0.09909877792,2.2692645683895227,0.9994959957841969,-0.8861641482017523, ,0.0226809133743955,0.013136342962136043,0.01005606787878788,0.017880146733194543,0.030371691791447667,-0.009942965446061347, ,1.2991318702697754
0.01212813592666386,0.021093380800794884,-0.08546382319982095, ,0.012387268090181211,0.020903858580350182,-0.08572726993602461, ,0.0004152978846898192, ,0.004124311321397194,0.0009637985166250532,-0.009991219987683559,0.012877574123732615,-0.0052422527083473705,-0.023870988178115102, ,0.010851881325315955, ,0.013903705592705621, ,4.9728145695296365e-05, ,0.2089308151792699,-0.18465054302270803,0.09920896257,2.2692645683895227,0.9994959957841969,-0.8860824694616117, ,0.022828227461744233,0.012990683307114411,0.01060506758988016,0.016736667775578636,0.022850256698010114,-0.014351852701245154, ,1.3066678047180176
0.01212813592666386,0.021093380800794884,-0.08546382319982095, ,0.012424264489770994,0.02091150195505129,-0.08581513794977585, ,0.0004941599882151504, ,0.004124311321397194,0.0009637985166250532,-0.009991219987683559,0.012877574123732615,-0.0052422527083473705,-0.023870988178115102, ,0.010851881325315955, ,0.013903705592705621, ,5.0194571296297894e-05, ,0.2089308151792699,-0.18465054302270803,0.09920896257,2.2692645683895227,0.9994959957841969,-0.8860824694616117, ,0.022828227461744233,0.012990683307114411,0.01060506758988016,0.016736667775578636,0.022850256698010114,-0.014351852701245154, ,1.3140308856964111
0.012170737117935794,0.021102052699064754,-0.08556842608788907, ,0.012461238109955287,0.02091906505283906,-0.08590282269116523, ,0.00047926651595762195, ,0.004288054191436648,0.00109135493112589,-0.010925791821788667,0.00654657528701212,-0.007836266231531736,-0.019633594590720775, ,0.011787764472852957, ,0.010211001946360047, ,5.0631758471764816e-05, ,0.2091547744326224,-0.18452697929672043,0.09931396206000001,2.2692645683895227,0.9994959957841969,-0.8859191119813307, ,0.022224108093318682,0.013326350450564638,0.011484363028118241,0.014840169783174451,0.01810863739517381,-0.009698092432768004, ,1.3220088481903076
0.01221480731552381,0.02111718195746244,-0.08568362155432631, ,0.012498188887110871,0.020926548182560577,-0.08599032436411108, ,0.0004590348186993685, ,0.004516317605738494,0.0013625531508477669,-0.012002724470220117,-0.012948131298019668,-0.02045264620228246,-0.0020920889661612237, ,0.012896475119691019, ,0.02420670551049635, ,5.1031926622798064e-05, ,0.2093787336859749,-0.18441886103648128,0.09943970219,2.269474258333007,0.9996326322839623,-0.8859488511448865, ,0.022053669895066415,0.011085807230266803,0.012532503162863888,0.003753463525060358,0.0,0.004866307546297401, ,1.3324828147888184
0.012258931524521906,0.021130627190935853,-0.08579953315717592, ,0.012535116757925726,0.020933951652625852,-0.08607764317247386, ,0.0004385256333771981, ,0.004702015068382192,0.0012411415783652197,-0.012359366911460884,-0.0033047481426912665,-0.009697931275481025,-0.02000088019770104, ,0.013281691480114807, ,0.010245532827528162, ,5.139533426138102e-05, ,0.20958724747357896,-0.18427985184474524,0.09956284974000001,2.269893638219976,0.9999059052834932,-0.886008329471998, ,0.022740700109865987,0.014781455071412894,0.012960790496338487,0.021523249007032466,0.01192090204301916,0.0006860685175257685, ,1.3406999111175537
0.012303332612788136,0.021144401424635202,-0.08591428898588496, ,0.012572021659398946,0.02094127577100955,-0.08616477932005627, ,0.00041976093486975136, ,0.0040505295090417955,0.0012684513950217708,-0.01011281067622693,0.043128456473214165,0.014235809681894827,-0.035068022368787685, ,0.010967438079075733, ,0.04541719860682536, ,5.172534905001619e-05, ,0.2098189294598057,-0.18415628811875767,0.09968599729000001,2.2701033281634606,1.0003158147827895,-0.8861792257028063, ,0.022360259556661353,0.011105996969871489,0.01099296861283644,0.022547155011808342,0.051066984511706194,-0.031729070966077334, ,1.3485329151153564
0.012303332612788136,0.021144401424635202,-0.08591428898588496, ,0.012608903528840126,0.02094852084524922,-0.0862517330106028, ,0.0004955918239188459, ,0.0040505295090417955,0.0012684513950217708,-0.01011281067622693,0.043128456473214165,0.014235809681894827,-0.035068022368787685, ,0.010967438079075733, ,0.04541719860682536, ,5.216744771421034e-05, ,0.2100660569117809,-0.1840172789270216,0.09979618194,2.270313018106945,1.000452451282555,-0.8858822499057999, ,0.024420211414943587,0.014799897311052836,0.010726472404040406,-0.02873341456662621,0.025370577977637022,0.010758662023502862, ,1.3559539318084717
0.01234799620558829,0.021153967771175106,-0.08601865061178396, ,0.012645762303869176,0.020955687182447218,-0.08633850444779997, ,0.0004798815661867628, ,0.004096539085469413,0.0005573725118984791,-0.010196558020832866,-0.011476289165576524,-0.008573516567648081,0.03987099140263676, ,0.01100282200474086, ,0.014325162795785069, ,5.258025102521479e-05, ,0.2100660569117809,-0.1840172789270216,0.09979618194,2.270313018106945,1.000452451282555,-0.8858822499057999, ,0.024420211414943587,0.014799897311052836,0.010726472404040406,-0.02873341456662621,0.025370577977637022,0.010758662023502862, ,1.3633339405059814
0.012392183390940384,0.021160853764897666,-0.08612475145090805, ,0.012682597922415996,0.020962775089269393,-0.0864250938352764, ,0.00046236490965353, ,0.004610043047568458,0.0011164789721826458,-0.010441597193685875,-0.017292932826995087,-0.0025769851138379785,0.006057217685084016, ,0.011468477412060812, ,0.01748388554978364, ,5.296155799276801e-05, ,0.2103904116924983,-0.18384737880378868,0.09993358868,2.2701033281634606,1.0005890877823205,-0.8855852741087936, ,0.026619057940665016,0.012442236994686086,0.011100217087108016,0.023821482511059894,0.0,0.035044112447558035, ,1.3777048587799072
0.012403161548048918,0.021163382113688227,-0.08614972604050619, ,0.012719410322719983,0.020969784871947315,-0.08651150137660236, ,0.0005180488136248731, ,0.004736914060113092,0.001086116322390061,-0.010550350108613736,-0.02795649968706312,-0.015685613109291684,0.0020144577364326, ,0.011615846542244998, ,0.0320562661994415, ,5.342201300277373e-05, ,0.2103904116924983,-0.18384737880378868,0.09993358868,2.2701033281634606,1.0005890877823205,-0.8855852741087936, ,0.026619057940665016,0.012442236994686086,0.011100217087108016,0.023821482511059894,0.0,0.035044112447558035, ,1.385981798171997
0.012471878203540007,0.021176573360802538,-0.08630531869643826, ,0.01275619944332962,0.02097671683627566,-0.0865977272752897, ,0.0004541849565731793, ,0.0033659432992032617,0.0007173694282405065,-0.0069775398655350365,0.0428466741282246,0.017087243268135696,-0.023944032447258016, ,0.007780119264198727, ,0.0461282055776683, ,5.378150015458551e-05, ,0.21083060746632912,-0.18362341955043618,0.10010340267000001,2.2701033281634606,1.0015455432806784,-0.8862018419543873, ,0.022540841225289973,0.010226442815572704,0.007777740000000001,0.015972346829736694,0.05561854669367659,-0.02742461063196481, ,1.3941128253936768
0.012513849035885316,0.021179280684324786,-0.08638721374422295, ,0.012792965223102548,0.02098357128761586,-0.08668377173479293, ,0.00045183476592418, ,0.0036834435653051827,1.909488392234232e-06,-0.007147865173743815,0.001351551743162664,-0.0076666928828909645,-0.0003486062784180115, ,0.008041127824313812, ,0.007784911895217617, ,5.41332219455303e-05, ,0.2110777349183043,-0.1834766876258259,0.10018377265000002,2.270313018106945,1.0015455432806784,-0.8859568057339656, ,0.025105010994304438,0.016086953985162026,0.007481827862846407,0.0,0.02529755325572586,-0.005219385319863573, ,1.4019889831542969
0.012550814580559715,0.021184207657449248,-0.08645987786359266, ,0.012829707601204662,0.020990348530893276,-0.0867696349585071, ,0.00045968699760091464, ,0.0041542334341931764,0.0006379254301980409,-0.008890383945599023,-0.02190358561881007,-0.00044389393310300534,0.009572189284460953, ,0.00983379534973281, ,0.02190808182486111, ,5.457299610494497e-05, ,0.21130941690453103,-0.18332995570121563,0.10026543892,2.2707323979939145,1.0015455432806784,-0.885548412033263, ,0.02461020268632541,0.014287404630904965,0.009436499715639812,0.023287415076951472,0.01682141003789558,0.03870491634700954, ,1.4087779521942139
0.012550814580559715,0.021184207657449248,-0.08645987786359266, ,0.012866426517110228,0.020997048870599458,-0.08685531714977002, ,0.0005394548498629961, ,0.0041542334341931764,0.0006379254301980409,-0.008890383945599023,-0.02190358561881007,-0.00044389393310300534,0.009572189284460953, ,0.00983379534973281, ,0.02190808182486111, ,5.512636261679793e-05, ,0.21130941690453103,-0.18332995570121563,0.10026543892,2.2707323979939145,1.0015455432806784,-0.885548412033263, ,0.02461020268632541,0.014287404630904965,0.009436499715639812,0.023287415076951472,0.01682141003789558,0.03870491634700954, ,1.414862871170044
0.012602298426046037,0.021196464328149894,-0.08656954794773819, ,0.012903121910601221,0.021003672610791693,-0.08694081851186078, ,0.0005152720125581764, ,0.005232272872650122,0.0014432447790211998,-0.011263992449289096,-0.00993197371492483,-0.009900930807892321,-0.040147587633242866, ,0.012503485946074562, ,0.014023991992650697, ,5.5639402095841595e-05, ,0.2116106034866258,-0.1831909465094796,0.10038340131000001,2.2711517778808834,1.0018188162802093,-0.8856078903603745, ,0.028420767163363513,0.012427572231334571,0.011985561715575624,0.058279055631316426,0.005063178950355499,0.021795052437181408, ,1.420639991760254
0.012602298426046037,0.021196464328149894,-0.08656954794773819, ,0.012939793721767137,0.02101022005509309,-0.08702613924799991, ,0.0005975496794033304, ,0.005232272872650122,0.0014432447790211998,-0.011263992449289096,-0.00993197371492483,-0.009900930807892321,-0.040147587633242866, ,0.012503485946074562, ,0.014023991992650697, ,5.626806118068219e-05, ,0.2116106034866258,-0.1831909465094796,0.10038340131000001,2.2711517778808834,1.0018188162802093,-0.8856078903603745, ,0.028420767163363513,0.012427572231334571,0.011985561715575624,0.058279055631316426,0.005063178950355499,0.021795052437181408, ,1.4262878894805908
0.012652423688019814,0.021210309501807828,-0.08669275769684735, ,0.012976441891004524,0.02101669150669239,-0.08711127956134972, ,0.0005635922949832592, ,0.005307315524155172,0.0016072725932108822,-0.01470641825022044,0.020297603470615894,0.0011914484589232554,0.009300329720587155, ,0.015717177259681275, ,0.020332524884184144, ,5.684188111010256e-05, ,0.21188089913722366,-0.18305193731774355,0.10051562289,2.271361467824368,1.0022287257795057,-0.8858604653313232, ,0.026693935740779398,0.014142614241202797,0.015647162593320236,-0.014120258768631313,0.04480297655374564,-0.0171517318439854, ,1.4326159954071045
0.012707558013829216,0.021229276011144417,-0.08685022855493908, ,0.013013066359016836,0.02102308726834597,-0.087196239655014, ,0.000505542112994688, ,0.005773546099512247,0.002016798279767386,-0.017192767806791773,0.011198574837328286,0.004402037776256272,0.018328436239054793, ,0.01824808413841632, ,0.012032643631661656, ,5.732670957560817e-05, ,0.21213574932207305,-0.1829129281260075,0.1006828443,2.271361467824368,1.002638635278802,-0.8859496828219907, ,0.025696436923496015,0.014811447098247353,0.018204356022857145,-0.012548611685363888,0.04388272756597632,-0.0032309818524057163, ,1.438607931137085
0.012707558013829216,0.021229276011144417,-0.08685022855493908, ,0.013049667066813805,0.021029407642375705,-0.08728101973203807, ,0.0005852922408802376, ,0.005773546099512247,0.002016798279767386,-0.017192767806791773,0.011198574837328286,0.004402037776256272,0.018328436239054793, ,0.01824808413841632, ,0.012032643631661656, ,5.7922260169489175e-05, ,0.21213574932207305,-0.1829129281260075,0.1006828443,2.271361467824368,1.002638635278802,-0.8859496828219907, ,0.025696436923496015,0.014811447098247353,0.018204356022857145,-0.012548611685363888,0.04388272756597632,-0.0032309818524057163, ,1.4443578720092773
0.012707558013829216,0.021229276011144417,-0.08685022855493908, ,0.013086243955711379,0.021035652930671236,-0.08736561999540873, ,0.0006682224755128236, ,0.005773546099512247,0.002016798279767386,-0.017192767806791773,0.011198574837328286,0.004402037776256272,0.018328436239054793, ,0.01824808413841632, ,0.012032643631661656, ,5.8631665757730725e-05, ,0.21239832223979668,-0.18275847346852303,0.10086302861000002,2.2711517778808834,1.0027752717785674,-0.8856527070249846, ,0.026309104951059266,0.015605482907165066,0.017600896707182324,0.00413506821207033,0.016328737137875193,0.01734111623527023, ,1.4515249729156494
0.012766704775063836,0.021247520918376055,-0.08702275556992647, ,0.013122796967331006,0.02104182343468823,-0.08745004064805381, ,0.000593030894793371, ,0.005939381277374615,0.0018811320371572454,-0.01678176639346414,-0.014822122538505556,-0.010024814080458369,0.010787976774870261, ,0.017900910339534407, ,0.017893878362799393, ,5.922757418275955e-05, ,0.21239832223979668,-0.18275847346852303,0.10086302861000002,2.2711517778808834,1.0027752717785674,-0.8856527070249846, ,0.026309104951059266,0.015605482907165066,0.017600896707182324,0.00413506821207033,0.016328737137875193,0.01734111623527023, ,1.458211898803711
0.012805175655737772,0.021259221778949636,-0.08713275114113966, ,0.013159326043599916,0.021047919455451793,-0.08753428189284335, ,0.0005755850186568609, ,0.00583372753637059,0.0017018753062898197,-0.016358688665842665,-0.05035420098580407,-0.013248893090782563,0.0395875790530751, ,0.017450944140439417, ,0.05206800892630093, ,5.979358029386707e-05, ,0.21256822236302964,-0.18265035520828388,0.10097839842,2.2711517778808834,1.0029119082783329,-0.8855190887082592, ,0.025366731237228223,0.016103333032151838,0.01701796102564103,0.004469461240724191,0.0,0.06022015386845723, ,1.4642670154571533
0.01289264371275,0.02128453283125395,-0.08735733507114724, ,0.013195831126749975,0.021053941293552668,-0.08761834393258823, ,0.0006561647154666213, ,0.005610975429188186,0.001280494092757536,-0.013181624053065525,0.04233463357031673,0.00987070523086406,-0.01063789927895396, ,0.014383251477496181, ,0.04347012334147265, ,6.0468911702627724e-05, ,0.2130238636026089,-0.18241095048918293,0.10121950836000002,2.271361467824368,1.0037317272769255,-0.8858608811698754, ,0.03339090132247389,0.016174696021556294,0.014298753608617595,0.0,0.06549193651669681,-0.031861676512861856, ,1.4707319736480713
0.01289264371275,0.02128453283125395,-0.08735733507114724, ,0.013232312159318063,0.021059889249150754,-0.08770222697004043, ,0.0005336570195324624, ,0.005610975429188186,0.001280494092757536,-0.013181624053065525,0.04233463357031673,0.00987070523086406,-0.01063789927895396, ,0.014383251477496181, ,0.04347012334147265, ,6.096573862001078e-05, ,0.2130238636026089,-0.18241095048918293,0.10121950836000002,2.271361467824368,1.0037317272769255,-0.8858608811698754, ,0.03339090132247389,0.016174696021556294,0.014298753608617595,0.0,0.06549193651669681,-0.031861676512861856, ,1.4763789176940918
0.012954255848235938,0.021298820714449117,-0.08749042762480501, ,0.013268769084144878,0.02106576362197247,-0.08778593120789312, ,0.0004904656476589276, ,0.005890984214895734,0.0011870639683194207,-0.013080366008431222,-0.03887187680530883,-0.01222072244727413,0.007274792164831281, ,0.014394748723043272, ,0.04074761932417612, ,6.139771675455979e-05, ,0.21336366384907476,-0.18223332763307576,0.10136210026,2.2719905376548213,1.0040050002764564,-0.8856753232765654, ,0.032124895585128904,0.01717902635019384,0.013779248719723186,0.034314698173486084,0.004648447175071955,0.05428287560894627, ,1.482597827911377
0.012954255848235938,0.021298820714449117,-0.08749042762480501, ,0.013305201844375754,0.0210715647113146,-0.08786945684878139, ,0.0005643328236026884, ,0.005890984214895734,0.0011870639683194207,-0.013080366008431222,-0.03887187680530883,-0.01222072244727413,0.007274792164831281, ,0.014394748723043272, ,0.04074761932417612, ,6.19293806333556e-05, ,0.21336366384907476,-0.18223332763307576,0.10136210026,2.2719905376548213,1.0040050002764564,-0.8856753232765654, ,0.032124895585128904,0.01717902635019384,0.013779248719723186,0.034314698173486084,0.004648447175071955,0.05428287560894627, ,1.4882287979125977
0.01301330928284004,0.021309018835422647,-0.08762187114226377, ,0.01334161038345915,0.02107729281604106,-0.08795280409528063, ,0.0005205719740041803, ,0.005815020712087602,0.0009501120522553371,-0.012097948254680904,-0.026880890710477293,-0.014678935968557877,-0.03381175614060622, ,0.013456505146834573, ,0.030627653965056335, ,6.248267660649014e-05, ,0.21365712769829528,-0.18207115024271703,0.10148524781000001,2.2722002275983058,1.0040050002764564,-0.8852669295758626, ,0.03232184657986061,0.018854945670270372,0.012939733160032494,0.062666362817702,0.006233225196209184,0.027988456474350967, ,1.4920589923858643
0.01301330928284004,0.021309018835422647,-0.08762187114226377, ,0.013377994645146999,0.021082948234585012,-0.08803597314990783, ,0.0005963084795463512, ,0.005815020712087602,0.0009501120522553371,-0.012097948254680904,-0.026880890710477293,-0.014678935968557877,-0.03381175614060622, ,0.013456505146834573, ,0.030627653965056335, ,6.31382303287897e-05, ,0.21365712769829528,-0.18207115024271703,0.10148524781000001,2.2722002275983058,1.0040050002764564,-0.8852669295758626, ,0.03232184657986061,0.018854945670270372,0.012939733160032494,0.062666362817702,0.006233225196209184,0.027988456474350967, ,1.4963898658752441
0.01301330928284004,0.021309018835422647,-0.08762187114226377, ,0.013414354573494202,0.021088531264948744,-0.08811896421512101, ,0.0006756875142934169, ,0.005815020712087602,0.0009501120522553371,-0.012097948254680904,-0.026880890710477293,-0.014678935968557877,-0.03381175614060622, ,0.013456505146834573, ,0.030627653965056335, ,6.390024288584355e-05, ,0.21365712769829528,-0.18207115024271703,0.10148524781000001,2.2722002275983058,1.0040050002764564,-0.8852669295758626, ,0.03232184657986061,0.018854945670270372,0.012939733160032494,0.062666362817702,0.006233225196209184,0.027988456474350967, ,1.5002999305725098
0.01301330928284004,0.021309018835422647,-0.08762187114226377, ,0.0134506901128583,0.021094042204704476,-0.08820177749331935, ,0.0007575013651585024, ,0.005815020712087602,0.0009501120522553371,-0.012097948254680904,-0.026880890710477293,-0.014678935968557877,-0.03381175614060622, ,0.013456505146834573, ,0.030627653965056335, ,6.477119845899267e-05, ,0.21365712769829528,-0.18207115024271703,0.10148524781000001,2.2722002275983058,1.0040050002764564,-0.8852669295758626, ,0.03232184657986061,0.018854945670270372,0.012939733160032494,0.062666362817702,0.006233225196209184,0.027988456474350967, ,1.504187822341919
0.013089057929402566,0.021319667095152026,-0.08779658907400983, ,0.01348700120789876,0.021099481350992152,-0.08828441318684241, ,0.0006669430109780176, ,0.00516907662046625,0.0007221569049539155,-0.013021024368520626,0.05975687020995295,0.017577280689580532,-0.00889169178752341, ,0.014028112464235215, ,0.062288393456761675, ,6.551244068528238e-05, ,0.2141359371364972,-0.18175451819487384,0.10168876534000001,2.2724099175417907,1.0049614557748145,-0.8853934249806131, ,0.030367021298710647,0.020925455690952763,0.01408382981432361,-0.01942200072474321,0.08303981072068878,-0.058193479527041965, ,1.507997989654541
0.013089057929402566,0.021319667095152026,-0.08779658907400983, ,0.013523287803577219,0.0211048490005232,-0.08836687149797136, ,0.0007482809903272461, ,0.00516907662046625,0.0007221569049539155,-0.013021024368520626,0.05975687020995295,0.017577280689580532,-0.00889169178752341, ,0.014028112464235215, ,0.062288393456761675, ,6.636148622717603e-05, ,0.2141359371364972,-0.18175451819487384,0.10168876534000001,2.2724099175417907,1.0049614557748145,-0.8853934249806131, ,0.030367021298710647,0.020925455690952763,0.01408382981432361,-0.01942200072474321,0.08303981072068878,-0.058193479527041965, ,1.5117290019989014
0.013150703138676107,0.021330194406952906,-0.08795263064835497, ,0.01355954984515673,0.021110145449578375,-0.08844915262892787, ,0.000679787650839368, ,0.0072156529433332756,0.001513403618167836,-0.01826834097773177,-0.022453331259188813,-0.005795796038026231,0.027709972868670395, ,0.019699957360075467, ,0.023189249700495698, ,6.711191788476864e-05, ,0.21447573738296308,-0.18153828167439556,0.10185469046000001,2.2722002275983058,1.0055080017738762,-0.885430702894696, ,0.03682457957255366,0.0229385887257604,0.019260957097944377,0.002860810943174657,0.032158873910453,0.0338561277526461, ,1.5154178142547607
0.013150703138676107,0.021330194406952906,-0.08795263064835497, ,0.013595787278201583,0.021115370994008655,-0.08853125678187496, ,0.0007609580753224438, ,0.0072156529433332756,0.001513403618167836,-0.01826834097773177,-0.022453331259188813,-0.005795796038026231,0.027709972868670395, ,0.019699957360075467, ,0.023189249700495698, ,6.796928346555237e-05, ,0.21447573738296308,-0.18153828167439556,0.10185469046000001,2.2722002275983058,1.0055080017738762,-0.885430702894696, ,0.03682457957255366,0.0229385887257604,0.019260957097944377,0.002860810943174657,0.032158873910453,0.0338561277526461, ,1.519136905670166
0.013150703138676107,0.021330194406952906,-0.08795263064835497, ,0.013632000048576834,0.02112052592923563,-0.08861318415891581, ,0.0008437644969673202, ,0.0072156529433332756,0.001513403618167836,-0.01826834097773177,-0.022453331259188813,-0.005795796038026231,0.027709972868670395, ,0.019699957360075467, ,0.023189249700495698, ,6.893493957747081e-05, ,0.21447573738296308,-0.18153828167439556,0.10185469046000001,2.2722002275983058,1.0055080017738762,-0.885430702894696, ,0.03682457957255366,0.0229385887257604,0.019260957097944377,0.002860810943174657,0.032158873910453,0.0338561277526461, ,1.5229198932647705
0.013220583685278883,0.02134796726973151,-0.08813457917996181, ,0.013668188102448112,0.021125610550251635,-0.08869493496209463, ,0.0007508600585574758, ,0.008147816994007991,0.0021470751298672515,-0.022098795006152104,-0.027307274137646186,-0.015903100496740267,0.018130008112307645, ,0.02365065737152084, ,0.03160048347486784, ,6.976893982155589e-05, ,0.21480781489655473,-0.18132976788679148,0.10204654138000001,2.2724099175417907,1.0057812747734072,-0.8850817875211049, ,0.03706911779627765,0.023530111965899023,0.023152342325581398,0.005324525198676389,0.019604859204147174,0.029192996149168295, ,1.5272128582000732
0.013220583685278883,0.02134796726973151,-0.08813457917996181, ,0.013704351386281219,0.021130625151620366,-0.08877650939339696, ,0.0008326723147547376, ,0.008147816994007991,0.0021470751298672515,-0.022098795006152104,-0.027307274137646186,-0.015903100496740267,0.018130008112307645, ,0.02365065737152084, ,0.03160048347486784, ,7.070942073758251e-05, ,0.21480781489655473,-0.18132976788679148,0.10204654138000001,2.2724099175417907,1.0057812747734072,-0.8850817875211049, ,0.03706911779627765,0.023530111965899023,0.023152342325581398,0.005324525198676389,0.019604859204147174,0.029192996149168295, ,1.5311288833618164
0.013220583685278883,0.02134796726973151,-0.08813457917996181, ,0.013740489846841406,0.021135570027475264,-0.08885790765474778, ,0.000915761479745098, ,0.008147816994007991,0.0021470751298672515,-0.022098795006152104,-0.027307274137646186,-0.015903100496740267,0.018130008112307645, ,0.02365065737152084, ,0.03160048347486784, ,7.175724568788013e-05, ,0.21480781489655473,-0.18132976788679148,0.10204654138000001,2.2724099175417907,1.0057812747734072,-0.8850817875211049, ,0.03706911779627765,0.023530111965899023,0.023152342325581398,0.005324525198676389,0.019604859204147174,0.029192996149168295, ,1.5351488590240479
0.013220583685278883,0.02134796726973151,-0.08813457917996181, ,0.013776603431193862,0.021140445471523186,-0.08893912994801403, ,0.0009997625682892871, ,0.008147816994007991,0.0021470751298672515,-0.022098795006152104,-0.027307274137646186,-0.015903100496740267,0.018130008112307645, ,0.02365065737152084, ,0.03160048347486784, ,7.291277615604953e-05, ,0.21480781489655473,-0.18132976788679148,0.10204654138000001,2.2724099175417907,1.0057812747734072,-0.8850817875211049, ,0.03706911779627765,0.023530111965899023,0.023152342325581398,0.005324525198676389,0.019604859204147174,0.029192996149168295, ,1.5391860008239746
0.013264922677713177,0.021360616722001145,-0.08825142614979685, ,0.013812692086702367,0.021145251777040738,-0.08902017647500224, ,0.0009681995907071831, ,0.008791029170289332,0.0023644114936971165,-0.023293015308744787,-0.0393601614260385,-0.0053949454575854625,0.03051440064696484, ,0.025008742426556037, ,0.03972808687896225, ,7.401960527905771e-05, ,0.21500860595128457,-0.1812062041608039,0.10216968893000002,2.272619607485275,1.0059179112731726,-0.8849481692043796, ,0.0406759286577243,0.024842131298029,0.024505863876923082,0.01969730939281303,0.02717585169057975,0.06028872875989309, ,1.5432639122009277
0.013264922677713177,0.021360616722001145,-0.08825142614979685, ,0.013848755761029875,0.021149989236878265,-0.08910104743746017, ,0.0010521793284012698, ,0.008791029170289332,0.0023644114936971165,-0.023293015308744787,-0.0393601614260385,-0.0053949454575854625,0.03051440064696484, ,0.025008742426556037, ,0.03972808687896225, ,7.523321617549148e-05, ,0.21500860595128457,-0.1812062041608039,0.10216968893000002,2.272619607485275,1.0059179112731726,-0.8849481692043796, ,0.0406759286577243,0.024842131298029,0.024505863876923082,0.01969730939281303,0.02717585169057975,0.06028872875989309, ,1.5470387935638428
0.013437928430509529,0.021413932087202263,-0.0887091236256089, ,0.013884794402137378,0.0211546581434567,-0.0891817430370755, ,0.0007002008873168595, ,0.009207668624719376,0.0026516769611627687,-0.023802338964561808,0.0389926540405155,0.013580409400761174,-0.04841419986025086, ,0.025658602697592486, ,0.04128979230428302, ,7.59691391406399e-05, ,0.21582721563595236,-0.18072739472260196,0.10266098284000001,2.273458367259213,1.007557549270358,-0.8854683966473312, ,0.043771652010364745,0.025885690550592137,0.025445385814696485,0.047765932176103636,0.07006404304211283,-0.020434958073158694, ,1.5507469177246094
0.013437928430509529,0.021413932087202263,-0.0887091236256089, ,0.013920807958283954,0.02115925878876975,-0.08926226347547675, ,0.0007771710370246536, ,0.009207668624719376,0.0026516769611627687,-0.023802338964561808,0.0389926540405155,0.013580409400761174,-0.04841419986025086, ,0.025658602697592486, ,0.04128979230428302, ,7.680389582788072e-05, ,0.21582721563595236,-0.18072739472260196,0.10266098284000001,2.273458367259213,1.007557549270358,-0.8854683966473312, ,0.043771652010364745,0.025885690550592137,0.025445385814696485,0.047765932176103636,0.07006404304211283,-0.020434958073158694, ,1.55448579788208
0.013437928430509529,0.021413932087202263,-0.0887091236256089, ,0.013956796378026746,0.02116379146438522,-0.08934260895423332, ,0.0008562113872907905, ,0.009860498598845751,0.0020622608345005266,-0.023846331670993384,-0.03918351662731483,-0.01987659356748407,0.00783901234894201, ,0.025886867066726632, ,0.04393653646089739, ,7.773945321221499e-05, ,0.21582721563595236,-0.18072739472260196,0.10266098284000001,2.273458367259213,1.007557549270358,-0.8854683966473312, ,0.043771652010364745,0.025885690550592137,0.025445385814696485,0.047765932176103636,0.07006404304211283,-0.020434958073158694, ,1.5586919784545898
0.013536065888466679,0.021433956709732062,-0.08895834917351877, ,0.013992759610219693,0.021168256461441604,-0.08942277967485393, ,0.0007034639066794081, ,0.009860498598845751,0.0020622608345005266,-0.023846331670993384,-0.03918351662731483,-0.01987659356748407,0.00783901234894201, ,0.025886867066726632, ,0.04393653646089739, ,7.846718893632518e-05, ,0.21630602507415428,-0.18042620814050722,0.10292153713,2.273458367259213,1.0076941857701234,-0.8846813484094813, ,0.04937405908349156,0.02951693361072186,0.025084742551181104,0.030693844052183384,0.0197753579630854,0.04872959607726875, ,1.5626518726348877
0.013536065888466679,0.021433956709732062,-0.08895834917351877, ,0.014028697604014062,0.021172654070651938,-0.08950277583878852, ,0.0007793365577272301, ,0.009860498598845751,0.0020622608345005266,-0.023846331670993384,-0.03918351662731483,-0.01987659356748407,0.00783901234894201, ,0.025886867066726632, ,0.04393653646089739, ,7.929156268447694e-05, ,0.21630602507415428,-0.18042620814050722,0.10292153713,2.273458367259213,1.0076941857701234,-0.8846813484094813, ,0.04937405908349156,0.02951693361072186,0.025084742551181104,0.030693844052183384,0.0197753579630854,0.04872959607726875, ,1.566415786743164
0.013536065888466679,0.021433956709732062,-0.08895834917351877, ,0.014064610308857388,0.02117698458230109,-0.0895825976474266, ,0.0008573680865175689, ,0.009860498598845751,0.0020622608345005266,-0.023846331670993384,-0.03918351662731483,-0.01987659356748407,0.00783901234894201, ,0.025886867066726632, ,0.04393653646089739, ,8.021466038744736e-05, ,0.21630602507415428,-0.18042620814050722,0.10292153713,2.273458367259213,1.0076941857701234,-0.8846813484094813, ,0.04937405908349156,0.02951693361072186,0.025084742551181104,0.030693844052183384,0.0197753579630854,0.04872959607726875, ,1.570274829864502
0.013536065888466679,0.021433956709732062,-0.08895834917351877, ,0.014100497674494169,0.02118124828625005,-0.08966224530209889, ,0.0009369709430964327, ,0.009860498598845751,0.0020622608345005266,-0.023846331670993384,-0.03918351662731483,-0.01987659356748407,0.00783901234894201, ,0.025886867066726632, ,0.04393653646089739, ,8.134494572083653e-05, ,0.21630602507415428,-0.18042620814050722,0.10292153713,2.273458367259213,1.0076941857701234,-0.8846813484094813, ,0.04937405908349156,0.02951693361072186,0.025084742551181104,0.030693844052183384,0.0197753579630854,0.04872959607726875, ,1.5724689960479736
0.013536065888466679,0.021433956709732062,-0.08895834917351877, ,0.014136359650964003,0.02118544547193064,-0.08974171900407517, ,0.0010177321494542367, ,0.009860498598845751,0.0020622608345005266,-0.023846331670993384,-0.03918351662731483,-0.01987659356748407,0.00783901234894201, ,0.025886867066726632, ,0.04393653646089739, ,8.257865745171057e-05, ,0.2167539435808593,-0.18015591248990936,0.10315098046000001,2.273458367259213,1.007967458769654,-0.8842507542957496, ,0.05058472364524029,0.029526117473077408,0.023774345552238813,0.023282722270827026,0.013902797566790715,0.0512826659270301, ,1.5748767852783203
0.013636462688117211,0.021453596957091082,-0.08920520297417776, ,0.01417219618860275,0.02118957642835129,-0.08982101895456646, ,0.0008578732685196656, ,0.009562214165038252,0.0016687356389714376,-0.022092204871291862,-0.03038809083765652,-0.02269912559423238,0.005223640694937578, ,0.024130605762101444, ,0.0379299499730966, ,8.359878193995787e-05, ,0.2167539435808593,-0.18015591248990936,0.10315098046000001,2.273458367259213,1.007967458769654,-0.8842507542957496, ,0.05058472364524029,0.029526117473077408,0.023774345552238813,0.023282722270827026,0.013902797566790715,0.0512826659270301, ,1.577420949935913
0.013707760525645991,0.021465442844541275,-0.08936895713458864, ,0.014208007238041243,0.02119364144409349,-0.08990014535472336, ,0.0007786422154992137, ,0.008708102383766441,0.001389554684703183,-0.018613058634222388,0.0753485879120092,0.021471713207271183,-0.03877314768965713, ,0.020596306976468862, ,0.07834820951598377, ,8.451211102479264e-05, ,0.21723275301906123,-0.1798856168393115,0.10335838686000001,2.273458367259213,1.008787277768247,-0.8845108680172254, ,0.05322318651624834,0.028259958772623817,0.020369324194373404,0.01879647566908954,0.1091067860771284,-0.05648514874547356, ,1.5803089141845703
0.013707760525645991,0.021465442844541275,-0.08936895713458864, ,0.014243792750204926,0.02119764080731259,-0.0899790984056362, ,0.0008551729927593361, ,0.008708102383766441,0.001389554684703183,-0.018613058634222388,0.0753485879120092,0.021471713207271183,-0.03877314768965713, ,0.020596306976468862, ,0.07834820951598377, ,8.55234770113209e-05, ,0.21723275301906123,-0.1798856168393115,0.10335838686000001,2.273458367259213,1.008787277768247,-0.8845108680172254, ,0.05322318651624834,0.028259958772623817,0.020369324194373404,0.01879647566908954,0.1091067860771284,-0.05648514874547356, ,1.582204818725586
0.013707760525645991,0.021465442844541275,-0.08936895713458864, ,0.014279552676314125,0.021201574805739993,-0.09005787830833614, ,0.0009333729099905111, ,0.008708102383766441,0.001389554684703183,-0.018613058634222388,0.0753485879120092,0.021471713207271183,-0.03877314768965713, ,0.020596306976468862, ,0.07834820951598377, ,8.663468203488473e-05, ,0.21723275301906123,-0.1798856168393115,0.10335838686000001,2.273458367259213,1.008787277768247,-0.8845108680172254, ,0.05322318651624834,0.028259958772623817,0.020369324194373404,0.01879647566908954,0.1091067860771284,-0.05648514874547356, ,1.5841639041900635
0.013707760525645991,0.021465442844541275,-0.08936895713458864, ,0.014315286967883246,0.021205443726681237,-0.09013648526379356, ,0.0010128116055941744, ,0.008708102383766441,0.001389554684703183,-0.018613058634222388,0.0753485879120092,0.021471713207271183,-0.03877314768965713, ,0.020596306976468862, ,0.07834820951598377, ,0.0004828422589799368, ,0.21723275301906123,-0.1798856168393115,0.10335838686000001,2.273458367259213,1.008787277768247,-0.8845108680172254, ,0.05322318651624834,0.028259958772623817,0.020369324194373404,0.01879647566908954,0.1091067860771284,-0.05648514874547356, ,1.586075782775879
0.013707760525645991,0.021465442844541275,-0.08936895713458864, ,0.01435099557672056,0.02120924785701787,-0.09021491947291936, ,0.0010931786132361875, ,0.008708102383766441,0.001389554684703183,-0.018613058634222388,0.0753485879120092,0.021471713207271183,-0.03877314768965713, ,0.020596306976468862, ,0.07834820951598377, ,0.00048720180436748146, ,0.21723275301906123,-0.1798856168393115,0.10335838686000001,2.273458367259213,1.008787277768247,-0.8845108680172254, ,0.05322318651624834,0.028259958772623817,0.020369324194373404,0.01879647566908954,0.1091067860771284,-0.05648514874547356, ,1.5880029201507568
0.013707760525645991,0.021465442844541275,-0.08936895713458864, ,0.014386678454927745,0.021212987483206165,-0.09029318113656405, ,0.0011742458303074796, ,0.010710202400310455,0.0012154202896146942,-0.023511179203828225,-0.026620433940012476,-0.022139801133369007,0.00941593471457476, ,0.025864284824648597, ,0.0346238517973496, ,0.0004920744570337226, ,0.21792007624486723,-0.1795072029284745,0.10362153373,2.274087437089667,1.0096070967668394,-0.8844442667781388, ,0.060061355416753656,0.037419929636620976,0.024849939968798754,0.01685864744252753,0.039202566351512994,0.02928850482992416, ,1.5900728702545166
0.013825430195473613,0.021483321049552535,-0.08961305321969482, ,0.01442233555489976,0.021216662891279162,-0.09037127045551827, ,0.0010011473209199319, ,0.010710202400310455,0.0012154202896146942,-0.023511179203828225,-0.026620433940012476,-0.022139801133369007,0.00941593471457476, ,0.025864284824648597, ,0.0346238517973496, ,0.0004956594772019354, ,0.21792007624486723,-0.1795072029284745,0.10362153373,2.274087437089667,1.0096070967668394,-0.8844442667781388, ,0.060061355416753656,0.037419929636620976,0.024849939968798754,0.01685864744252753,0.039202566351512994,0.02928850482992416, ,1.5919768810272217
0.013825430195473613,0.021483321049552535,-0.08961305321969482, ,0.014457966829324029,0.021220274366844167,-0.09044918763051187, ,0.0010809333482685538, ,0.010710202400310455,0.0012154202896146942,-0.023511179203828225,-0.026620433940012476,-0.022139801133369007,0.00941593471457476, ,0.025864284824648597, ,0.0346238517973496, ,0.0004997523014751285, ,0.21792007624486723,-0.1795072029284745,0.10362153373,2.274087437089667,1.0096070967668394,-0.8844442667781388, ,0.060061355416753656,0.037419929636620976,0.024849939968798754,0.01685864744252753,0.039202566351512994,0.02928850482992416, ,1.5938990116119385
0.013825430195473613,0.021483321049552535,-0.08961305321969482, ,0.014493572231180706,0.02122382219508619,-0.09052693286221523, ,0.0011614342152534564, ,0.010710202400310455,0.0012154202896146942,-0.023511179203828225,-0.026620433940012476,-0.022139801133369007,0.00941593471457476, ,0.025864284824648597, ,0.0346238517973496, ,0.0005043473147652558, ,0.21792007624486723,-0.1795072029284745,0.10362153373,2.274087437089667,1.0096070967668394,-0.8844442667781388, ,0.060061355416753656,0.037419929636620976,0.024849939968798754,0.01685864744252753,0.039202566351512994,0.02928850482992416, ,1.595754861831665
0.013825430195473613,0.021483321049552535,-0.08961305321969482, ,0.014529151713741926,0.02122730666076608,-0.09060450635123773, ,0.0012424760177105322, ,0.010710202400310455,0.0012154202896146942,-0.023511179203828225,-0.026620433940012476,-0.022139801133369007,0.00941593471457476, ,0.025864284824648597, ,0.0346238517973496, ,0.0005094378575441887, ,0.21792007624486723,-0.1795072029284745,0.10362153373,2.274087437089667,1.0096070967668394,-0.8844442667781388, ,0.060061355416753656,0.037419929636620976,0.024849939968798754,0.01685864744252753,0.039202566351512994,0.02928850482992416, ,1.597681999206543
0.013825430195473613,0.021483321049552535,-0.08961305321969482, ,0.014564705230571502,0.021230728048221376,-0.09068190829812905, ,0.0013239267277818404, ,0.010710202400310455,0.0012154202896146942,-0.023511179203828225,-0.026620433940012476,-0.022139801133369007,0.00941593471457476, ,0.025864284824648597, ,0.0346238517973496, ,0.0005150165484362275, ,0.21855334034055363,-0.17910562081901482,0.10392875446000001,2.2749261968636048,1.0102902792656667,-0.8841845688952152, ,0.06198363263126765,0.039004086131718366,0.03367613429175476,0.11084827179715606,0.08230393924641617,0.005404413114140989, ,1.5997529029846191
0.013954740457859478,0.021509620219493094,-0.08991203787251369, ,0.014600232735524597,0.02123408664136637,-0.09075913890337825, ,0.0011000723565713422, ,0.013010023265293536,0.003191211531074689,-0.03171628324747921,0.028631871383751815,0.017337315419141575,-0.07272690993109783, ,0.034429161468642736, ,0.033471397816577014, ,0.0005189965199201398, ,0.21855334034055363,-0.17910562081901482,0.10392875446000001,2.2749261968636048,1.0102902792656667,-0.8841845688952152, ,0.06198363263126765,0.039004086131718366,0.03367613429175476,0.11084827179715606,0.08230393924641617,0.005404413114140989, ,1.6022469997406006
0.013954740457859478,0.021509620219493094,-0.08991203787251369, ,0.014635734182747504,0.021237382723692615,-0.0908361983674135, ,0.0011798043599639916, ,0.013010023265293536,0.003191211531074689,-0.03171628324747921,0.028631871383751815,0.017337315419141575,-0.07272690993109783, ,0.034429161468642736, ,0.033471397816577014, ,0.0005234614377582739, ,0.21855334034055363,-0.17910562081901482,0.10392875446000001,2.2749261968636048,1.0102902792656667,-0.8841845688952152, ,0.06198363263126765,0.039004086131718366,0.03367613429175476,0.11084827179715606,0.08230393924641617,0.005404413114140989, ,1.6041908264160156
0.013954740457859478,0.021509620219493094,-0.08991203787251369, ,0.014671209526677085,0.021240616578269096,-0.09091308689060343, ,0.0012600754033717883, ,0.013010023265293536,0.003191211531074689,-0.03171628324747921,0.028631871383751815,0.017337315419141575,-0.07272690993109783, ,0.034429161468642736, ,0.033471397816577014, ,0.0005284051556482975, ,0.21855334034055363,-0.17910562081901482,0.10392875446000001,2.2749261968636048,1.0102902792656667,-0.8841845688952152, ,0.06198363263126765,0.039004086131718366,0.03367613429175476,0.11084827179715606,0.08230393924641617,0.005404413114140989, ,1.6061007976531982
0.013954740457859478,0.021509620219493094,-0.08991203787251369, ,0.014706658722040801,0.021243788487743158,-0.09098980467325567, ,0.001340756824482437, ,0.013010023265293536,0.003191211531074689,-0.03171628324747921,0.028631871383751815,0.017337315419141575,-0.07272690993109783, ,0.034429161468642736, ,0.033471397816577014, ,0.0005338208334405251, ,0.21855334034055363,-0.17910562081901482,0.10392875446000001,2.2749261968636048,1.0102902792656667,-0.8841845688952152, ,0.06198363263126765,0.039004086131718366,0.03367613429175476,0.11084827179715606,0.08230393924641617,0.005404413114140989, ,1.6080029010772705
0.014083307705964835,0.021541018938594173,-0.09024164721160627, ,0.01474208172385562,0.021246898734338354,-0.09106635191561725, ,0.001095731604918512, ,0.013010023265293536,0.003191211531074689,-0.03171628324747921,0.028631871383751815,0.017337315419141575,-0.07272690993109783, ,0.034429161468642736, ,0.033471397816577014, ,0.0005375420968277966, ,0.21919432716911427,-0.17871176144242937,0.10429301195000001,2.2753455767505737,1.01138337126379,-0.8843408034635216, ,0.06654764485166254,0.041098718734721,0.03875623240875913,0.0402389891981965,0.1165609278228285,-0.009246351424560699, ,1.609915018081665
0.014083307705964835,0.021541018938594173,-0.09024164721160627, ,0.014777478487428415,0.021249947599857374,-0.0911427288178743, ,0.0011741139890259252, ,0.01405305232854504,0.003575258345995696,-0.03623501795249295,0.04420027557999205,0.02626474512612973,-0.0230278872510987, ,0.03902880062219339, ,0.0514143825410141, ,0.0005417300698027842, ,0.21919432716911427,-0.17871176144242937,0.10429301195000001,2.2753455767505737,1.01138337126379,-0.8843408034635216, ,0.06654764485166254,0.041098718734721,0.03875623240875913,0.0402389891981965,0.1165609278228285,-0.009246351424560699, ,1.612022876739502
0.014083307705964835,0.021541018938594173,-0.09024164721160627, ,0.014812848968355476,0.02125293536568167,-0.09121893558015365, ,0.0012531221623650916, ,0.01405305232854504,0.003575258345995696,-0.03623501795249295,0.04420027557999205,0.02626474512612973,-0.0230278872510987, ,0.03902880062219339, ,0.0514143825410141, ,0.0005463796913227993, ,0.21919432716911427,-0.17871176144242937,0.10429301195000001,2.2753455767505737,1.01138337126379,-0.8843408034635216, ,0.06654764485166254,0.041098718734721,0.03875623240875913,0.0402389891981965,0.1165609278228285,-0.009246351424560699, ,1.6163959503173828
0.014083307705964835,0.021541018938594173,-0.09024164721160627, ,0.01484819312252162,0.021255862312770196,-0.09129497240251953, ,0.0013326132070203378, ,0.01405305232854504,0.003575258345995696,-0.03623501795249295,0.04420027557999205,0.02626474512612973,-0.0230278872510987, ,0.03902880062219339, ,0.0514143825410141, ,0.0005514851037623937, ,0.21919432716911427,-0.17871176144242937,0.10429301195000001,2.2753455767505737,1.01138337126379,-0.8843408034635216, ,0.06654764485166254,0.041098718734721,0.03875623240875913,0.0402389891981965,0.1165609278228285,-0.009246351424560699, ,1.6184628009796143
0.014219793279142119,0.021575551903848092,-0.090601418732018, ,0.014883510906100506,0.02125872872166116,-0.09137083948497678, ,0.001064380717689855, ,0.014828134522085815,0.003769793877236232,-0.04066535521458384,0.03175652156823766,0.027106924511878815,0.03410600078025904, ,0.043448314512880726, ,0.04175105763907436, ,0.000554794107723216, ,0.21982759126480067,-0.1783101793329697,0.10467671379000001,2.275555266694058,1.0124764632619139,-0.8843336805515469, ,0.06687592780723804,0.04446904477903973,0.043284813913043486,-0.00959120394018918,0.12772550648783604,-0.00037577869595303154, ,1.6204919815063477
0.014219793279142119,0.021575551903848092,-0.090601418732018, ,0.014918802275553967,0.021261534872472024,-0.09144653702746927, ,0.0011408090139744653, ,0.014828134522085815,0.003769793877236232,-0.04066535521458384,0.03175652156823766,0.027106924511878815,0.03410600078025904, ,0.043448314512880726, ,0.04175105763907436, ,0.000558550613532519, ,0.21982759126480067,-0.1783101793329697,0.10467671379000001,2.275555266694058,1.0124764632619139,-0.8843336805515469, ,0.06687592780723804,0.04446904477903973,0.043284813913043486,-0.00959120394018918,0.12772550648783604,-0.00037577869595303154, ,1.6225628852844238
0.014219793279142119,0.021575551903848092,-0.090601418732018, ,0.014954067187631774,0.02126428104489975,-0.09152206522987982, ,0.001218046671660961, ,0.014828134522085815,0.003769793877236232,-0.04066535521458384,0.03175652156823766,0.027106924511878815,0.03410600078025904, ,0.043448314512880726, ,0.04175105763907436, ,0.000562751225367732, ,0.21982759126480067,-0.1783101793329697,0.10467671379000001,2.275555266694058,1.0124764632619139,-0.8843336805515469, ,0.06687592780723804,0.04446904477903973,0.043284813913043486,-0.00959120394018918,0.12772550648783604,-0.00037577869595303154, ,1.6246869564056396
0.014219793279142119,0.021575551903848092,-0.090601418732018, ,0.014989305599371023,0.02126696751822002,-0.09159742429203038, ,0.0012959168991926514, ,0.014828134522085815,0.003769793877236232,-0.04066535521458384,0.03175652156823766,0.027106924511878815,0.03410600078025904, ,0.043448314512880726, ,0.04175105763907436, ,0.0005673915144425732, ,0.21982759126480067,-0.1783101793329697,0.10467671379000001,2.275555266694058,1.0124764632619139,-0.8843336805515469, ,0.06687592780723804,0.04446904477903973,0.043284813913043486,-0.00959120394018918,0.12772550648783604,-0.00037577869595303154, ,1.6268529891967773
0.014219793279142119,0.021575551903848092,-0.090601418732018, ,0.01502451746809598,0.02126959457128847,-0.09167261441368203, ,0.0013742820300251726, ,0.014828134522085815,0.003769793877236232,-0.04066535521458384,0.03175652156823766,0.027106924511878815,0.03410600078025904, ,0.043448314512880726, ,0.04175105763907436, ,0.0005724662975594448, ,0.21982759126480067,-0.1783101793329697,0.10467671379000001,2.275555266694058,1.0124764632619139,-0.8843336805515469, ,0.06687592780723804,0.04446904477903973,0.043284813913043486,-0.00959120394018918,0.12772550648783604,-0.00037577869595303154, ,1.6287999153137207
0.014219793279142119,0.021575551903848092,-0.090601418732018, ,0.015059702751418075,0.021272162482541684,-0.09174763579453524, ,0.0014530335911413558, ,0.014828134522085815,0.003769793877236232,-0.04066535521458384,0.03175652156823766,0.027106924511878815,0.03410600078025904, ,0.043448314512880726, ,0.04175105763907436, ,0.0005779698431443317, ,0.21982759126480067,-0.1783101793329697,0.10467671379000001,2.275555266694058,1.0124764632619139,-0.8843336805515469, ,0.06687592780723804,0.04446904477903973,0.043284813913043486,-0.00959120394018918,0.12772550648783604,-0.00037577869595303154, ,1.6307508945465088
0.014311663478556648,0.02159734831978668,-0.09085335325518051, ,0.01509486140723474,0.021274671529995084,-0.09182248863422882, ,0.0012871451701649507, ,0.01592316299554904,0.0038269290841238647,-0.04214659712634308,-0.0059142658726511945,0.014290073550149392,0.051555363755845816, ,0.04521645889859141, ,0.015461298614376263, ,0.000582374658840112, ,0.2202446188400088,-0.17803216094949761,0.10494374953,2.2753455767505737,1.0131596457607408,-0.8841556614087639, ,0.07322294873338794,0.046609499783138886,0.04474385258426967,0.0,0.10633090582051695,0.041588533521536214, ,1.6331288814544678
0.014311663478556648,0.02159734831978668,-0.09085335325518051, ,0.015129993393729696,0.021277121991245273,-0.09189717313234089, ,0.0013644664479250978, ,0.01592316299554904,0.0038269290841238647,-0.04214659712634308,-0.0059142658726511945,0.014290073550149392,0.051555363755845816, ,0.04521645889859141, ,0.015461298614376263, ,0.0005872023859332292, ,0.2202446188400088,-0.17803216094949761,0.10494374953,2.2753455767505737,1.0131596457607408,-0.8841556614087639, ,0.07322294873338794,0.046609499783138886,0.04474385258426967,0.0,0.10633090582051695,0.041588533521536214, ,1.6350359916687012
