NicholasDascanio/dvrk_moveit_final/test/execution/third_experiment_notsharpbends/thirdexp_600vel3.0/thirdexp_600vel3.0_21.csv
Current Position (x),Current Position (y),Current Position (z), ,Planned Position (x),Planned Position (y),Planned Position (z), ,Position Error,,Cartesian linear Velocity(x),Cartesian linear Velocity(y),Cartesian linear Velocity(z),Cartesian Angular Velocity(x),Cartesian Angular Velocity(y),Cartesian Angular Velocity(z), ,Total Linear Velocity, ,Total Angular Velocity, ,MSE, ,Joint 1 Position,Joint 2 Position,Joint 3 Position,Joint 4 Position,Joint 5 Position,Joint 6 Position, ,Joint 1 Velocity,Joint 2 Velocity,Joint 3 Velocity,Joint 4 Velocity,Joint 5 Velocity,Joint 6 Velocity, ,Time Stamp
0.009463516291599385,0.020486061023938316,-0.07611759768926271, ,0.009555589167876423,0.020368451928498562,-0.07626631259186059, ,0.00021077342368235307, ,-1.397690686097346e-05,6.5064285417043614e-06,1.3405656500429425e-08,-0.01921680927473295,0.006016462625228617,0.026484759418320184, ,1.5417124163742677e-05, ,0.020136622885236617, ,1.7564451973529424e-05, ,0.19977937672331383,-0.19909205349750786,0.08969678655,2.2751358868070892,0.9988128132853697,-0.866249197269957, ,-0.00016922173045011624,-9.644261859906249e-05,0.0,-0.0001521570388274056,0.0,0.03315178696275245, ,0.02428293228149414
0.00946906225846178,0.020490120989074684,-0.076142402637848, ,0.009579998059023383,0.020369934111289626,-0.07637638953378141, ,0.0002854846841890462, ,0.00012129865255784732,1.0566279293332446e-05,-0.00039642543265214106,0.21606291118301538,-0.068265156075711,-0.29194018227209395, ,0.0004147024632479186, ,0.22659062893888787, ,2.255718672142724e-05, ,0.19977937672331383,-0.19908433076463364,0.08972141606,2.2751358868070892,0.9986761767856043,-0.8700583588930075, ,0.0008686675039630107,0.000497892127103582,0.00039912132991077665,-0.005297876581034434,0.0,-0.3740482233998894, ,0.04312300682067871
0.009532388704397056,0.020480881936528094,-0.07626987980560242, ,0.009604457607724382,0.02037140451612464,-0.07648630410499027, ,0.0002530191885421381, ,0.002273516587739771,3.257036844287039e-05,-0.005581994234297679,-0.13055353034164754,-0.2320543171696848,-0.13869208818259993, ,0.006027320974973951, ,0.26625820249587956, ,2.3414915512923044e-05, ,0.19978709945618806,-0.19901482616876562,0.08978104540000001,2.2751358868070892,0.9891116218020234,-0.8763895276785751, ,0.0005943137031911663,0.00219508646148731,0.0036021735685210316,-0.005116169631176908,-0.2887341890142274,-0.0804347389534219, ,0.07018899917602539
0.009542578580420534,0.020482548925220747,-0.07631156193973797, ,0.009628967598359212,0.020372863179371148,-0.07659605623082788, ,0.0003169085466277988, ,0.0007651415138610013,0.0009376622039450633,-0.00514200149042812,0.29733263843019725,-0.045284756582204246,-0.34549224594261013, ,0.005282502368433508, ,0.3007613789218576, ,2.538537721526991e-05, ,0.19979482218906228,-0.19892987610714916,0.08987178570000001,2.2747165069201203,0.988974985302258,-0.8834658389072483, ,0.0005625230367889521,0.0035185402900261386,0.005074485989168526,-0.012878009578225037,-0.018696139157622676,-0.1426652102994337, ,0.08946585655212402
0.009566650993661784,0.02049894507788183,-0.0764330055894463, ,0.00965352781569225,0.02037431013740542,-0.07670564583715299, ,0.00031211240805715905, ,0.0014602091266833562,0.0011721799546561549,-0.007903596095261374,-0.09690122964021865,0.02948207267929572,0.13481649441856544, ,0.008122379440581307, ,0.10128692356080819, ,2.6505735598047987e-05, ,0.19980254492193653,-0.19887581697702958,0.08994308165,2.2747165069201203,0.9885650758029616,-0.8822331190546129, ,-0.0008489287768006853,0.004771949506327905,0.008114524462557312,-0.01227478381169981,0.0031335091813078746,0.15618547945425176, ,0.10943198204040527
0.00959020912661352,0.020521938297895594,-0.07657257628646058, ,0.009678138044872027,0.020375745426613003,-0.07681507285034166, ,0.0002964935644733085, ,0.00041609851523205255,0.0010795536061714132,-0.005937205007169907,0.02637388779978525,0.1352195077055676,0.13184056664239158, ,0.006048882314952031, ,0.137767547755029, ,2.701277121890006e-05, ,0.19981026765481075,-0.19875225325104198,0.09009604387,2.2747165069201203,0.989931440800616,-0.8769763563606132, ,-0.0015982005164580952,0.006982548403542341,0.007165457273954117,-0.010385024026329303,0.1567029253496338,0.10140494125161667, ,0.1279599666595459
0.009592438597885038,0.020533704474518508,-0.07665452208278574, ,0.009702798071431169,0.020377169083387627,-0.07692433719728803, ,0.00033088175847538075, ,0.0007970032027339306,0.00048708387316756595,-0.005069544632551418,-0.002195883867909001,0.04059841458078435,0.052204307500089496, ,0.005154876098035621, ,0.04065775656730373, ,2.785657741732201e-05, ,0.19980254492193653,-0.19860552132643172,0.09019974707,2.274297127033151,0.9929374437954557,-0.8784474053602478, ,0.00020926462838451954,0.007833744304294812,0.005453204902430675,-0.011511617848438571,0.048649638626079426,0.03703766471949192, ,0.1469099521636963
0.009613710298425532,0.020539154485919385,-0.07675837731711355, ,0.009727507681285975,0.02037858114413369,-0.07703343880540245, ,0.000338219551146615, ,0.0009049318138870234,6.457965982893503e-05,-0.005133292929773027,0.04257189819937252,-0.020145592738171653,-0.06241470401830892, ,0.00521284647990963, ,0.04709789187963366, ,2.8584062502363412e-05, ,0.1998257131205592,-0.19842017573745033,0.09030474656000001,2.274087437089667,0.9930740802952212,-0.8781504295632413, ,-0.0006425083309258207,0.010885784371934095,0.005071254861509074,-0.016730389797559333,0.0,-0.09656091249253317, ,0.16602301597595215
0.00963356052745331,0.020542211499803096,-0.07686540347873543, ,0.009752266660736177,0.020379981645262717,-0.07714237760261201, ,0.0003422343306571776, ,0.0011136875029108555,0.00010906571363256286,-0.005524440193516245,-0.0158375963417781,-0.002857755395199722,0.013148028354308014, ,0.005636633271356919, ,0.01609335945780845, ,2.9197037563597583e-05, ,0.19980254492193653,-0.1981884937512236,0.09041104234000001,2.274087437089667,0.9930740802952212,-0.8786405020040848, ,0.0007934022571817507,0.01157752794560195,0.005485127933884298,-0.013436957304301531,0.0,0.0032058892954143423, ,0.18789291381835938
0.00965658802143489,0.02054376009569405,-0.07698049866337005, ,0.009777074796464698,0.020381370623196015,-0.07725115351735963, ,0.000337848270268469, ,0.0010559033288856609,3.0190488558130835e-05,-0.005214798218230409,-0.011793160634321278,-0.005198753082851068,0.010114842499651168, ,0.005320710832436795, ,0.012888198768909098, ,2.96468208443083e-05, ,0.1998257131205592,-0.19794908903212263,0.09052511586,2.2736680572026975,0.9930740802952212,-0.8788038594843659, ,0.001062483832392243,0.011492908024521107,0.0051599648590864924,-0.016733374802748106,0.0,-0.0046611925133813, ,0.20669293403625488
0.009678981117367879,0.020540087318524882,-0.07708461598456688, ,0.0098019318755374,0.020382748114363903,-0.07735976647860363, ,0.0003399710406330727, ,0.0010356528542523678,-0.00012296759564181504,-0.004685892092489237,-0.012762035680882682,-0.004390548116539849,0.0057925238923935635, ,0.0048005502358117414, ,0.013496164833927423, ,3.0035238988861778e-05, ,0.19984115858630763,-0.19767879338152478,0.09061974503,2.273458367259213,0.9929374437954557,-0.8786924415806694, ,0.0014328332767355267,0.01246511776677667,0.004610365128798843,-0.010972912551823385,0.0,-0.002744452963555587, ,0.22721290588378906
0.009701233492855335,0.020542796441108183,-0.07718501329628115, ,0.009826837685402759,0.020384114155205104,-0.07746821641581718, ,0.0003480811513998648, ,0.0012968265838527357,0.00023742438605009963,-0.005990350233129124,-0.013927312236516163,-0.003013542757141458,0.007503444116309206, ,0.006133712207401695, ,0.014249612569079282, ,3.0426458345511345e-05, ,0.19987977225067877,-0.1974393886624238,0.09072733710000001,2.273458367259213,0.9930740802952212,-0.8788855382245064, ,0.001607988238596874,0.011443630181112363,0.0059905270853704414,-0.008758216254000304,0.0,0.0017193159260198332, ,0.24733495712280273
0.009720575541542119,0.02054394437239976,-0.07730131149597878, ,0.009851792013891662,0.02038546878216749,-0.0775765032589882, ,0.0003436026509553633, ,0.001110253165309107,9.987503099465522e-05,-0.005504325773542367,-0.005822936489795844,0.0002719257181773053,0.008900419387839066, ,0.005616069740857734, ,0.005829281937574775, ,3.0724474008392026e-05, ,0.19987977225067877,-0.19719998394332286,0.09084400320000001,2.272829297428759,0.993347353294752,-0.8791900527720399, ,0.001265486713991804,0.011689438574811228,0.005519338711018712,-0.015055685481781872,0.007633546104212945,-0.006766083799321998, ,0.26798582077026367
0.009739975427410608,0.020545449886339894,-0.07739968130212209, ,0.009876794649217025,0.020386812031707332,-0.0776846269386183, ,0.0003536657802733629, ,0.0008383707018598712,6.327918104204026e-05,-0.004464886203184482,0.004737381847179183,0.005953322580357552,0.004242140063357601, ,0.004543355422578945, ,0.007608208378940218, ,3.105138274212049e-05, ,0.19987977225067877,-0.1969683019570961,0.09094252124,2.272829297428759,0.9934839897945175,-0.8793014706757362, ,0.0007333743825506055,0.009972986648627887,0.004531667573257468,-0.01284171921319722,0.015470035435143399,-0.013122174058951417, ,0.2893099784851074
0.00976268564396263,0.02054972824564731,-0.07750227152575136, ,0.009901845379973646,0.020388143940289767,-0.07779258738572309, ,0.0003602196807722504, ,0.0010411375022297553,0.00017666175296255856,-0.005285488553157737,-0.005096099636816465,0.0011989929729891925,0.00496984256861224, ,0.005389950456086817, ,0.005235247036446507, ,3.137839493521947e-05, ,0.19991066318217565,-0.19675978816949205,0.09104622444,2.272829297428759,0.9936206262942829,-0.8794128885794327, ,0.0005745628234571366,0.010455452778828058,0.005311374298099368,-0.010117729243101357,0.006369952291392348,-0.005602703503331692, ,0.30893492698669434
0.009780408843932973,0.020555065192508472,-0.07760753890602567, ,0.009926943995137931,0.020389464544388607,-0.0779003845318307, ,0.0003669532473619935, ,0.0010252415347670667,0.00038233292650618805,-0.005521607956591937,0.020705976615283176,0.013181577615106884,0.004079434882835695, ,0.005628983309408699, ,0.024545701270960948, ,3.1903535885188535e-05, ,0.19991838591504987,-0.19657444258051068,0.09115511280000001,2.2724099175417907,0.9941671722933447,-0.8798585601942183, ,0.001430587929440023,0.008844455346671764,0.005760872159132007,-0.01800562370261381,0.030258926958362294,-0.025016340457640944, ,0.32613492012023926
0.009791245767903991,0.020558407637007843,-0.07766882633764949, ,0.00995209028406752,0.02039077388048621,-0.07800801830898245, ,0.00041112434630191197, ,0.0011131293212262817,0.0004868238526397294,-0.005985427762918395,0.023842039376510107,0.01598805960388121,-0.002343228482400182, ,0.006107487196416132, ,0.028706460663869504, ,3.263290366951333e-05, ,0.19991838591504987,-0.19647404705314575,0.09121733472000002,2.2722002275983058,0.9943038087931102,-0.8799699780979148, ,0.0010962553691246755,0.0092118582693083,0.006261325283018869,-0.012234057254376133,0.03247427452407326,-0.02679618547988872, ,0.34356689453125
0.009820256331858167,0.020570526118690955,-0.07779375267173785, ,0.009977284036501067,0.02039207198507418,-0.07811548864973125, ,0.0004000220211009641, ,0.0013116979537683034,0.0005471279501233239,-0.006044825866587234,0.00878362803345948,0.005907258831858639,0.0009724912865637412, ,0.0062096554069519996, ,0.010585264298349039, ,3.322690304423592e-05, ,0.19996472231229523,-0.19631186966278705,0.09134437114,2.2722002275983058,0.9943038087931102,-0.8799699780979148, ,0.002521018781610761,0.008255017084605954,0.00624904335817968,-0.009569817225525589,0.01720362113454245,-0.014301738712090199, ,0.3614158630371094
0.009844392134490326,0.020579283627947607,-0.07791411247195432, ,0.010002525042558033,0.02039335889465112,-0.07822279548714214, ,0.0003935215711123955, ,0.0012160004179261573,0.00033022385222434495,-0.005692418078147785,-0.0006234588954380485,0.003985608179403846,-0.005466709466562235, ,0.005830208262609339, ,0.004034075802091747, ,3.3729453276758645e-05, ,0.1999878905109179,-0.19612652407380565,0.09146751869000001,2.2719905376548213,0.994577081792641,-0.8801928139053078, ,0.00119798756870987,0.010353374120672078,0.005781782765880218,0.0,0.008689845641702141,-0.00732678201338753, ,0.3782179355621338
0.009868403427131616,0.02058686051753037,-0.07803374806799966, ,0.010027813092738341,0.0203946346457258,-0.07832993875479084, ,0.0003874159911796448, ,0.001312581231295494,0.00043786146889375076,-0.006056029541960732,0.01685721750633241,0.01197754144643572,0.002179178524770828, ,0.006212091915594303, ,0.020679150683985292, ,3.4155092422387154e-05, ,0.2000573951067859,-0.1959180102862016,0.09159455511,2.2715711577678523,0.9955335372909991,-0.8811360967114638, ,0.0032281817844772424,0.009753725807706943,0.006313440951248514,-0.012734533001157004,0.028440798979791276,-0.020124868033218335, ,0.40015602111816406
0.009895110635836781,0.0205929599710124,-0.07815279461566424, ,0.010053147977922106,0.02039589927481423,-0.07843691838676432, ,0.0003801776384581748, ,0.0010659714644830852,-1.3981297574256618e-05,-0.005186294180643608,-0.020784507694333595,-0.004910455337349294,0.011246423984193265, ,0.005294727374280174, ,0.02135669281428463, ,3.4508402163439055e-05, ,0.20009600877115705,-0.19569405103284906,0.09171511008000001,2.2715711577678523,0.9956701737907646,-0.88124751461516, ,0.0005471796108425555,0.011962301973839755,0.005090703585810164,-0.0097612500393455,-0.004999000563652286,0.007092233452759094, ,0.4180870056152344
0.009912486245091497,0.02059230792890916,-0.0782314392721308, ,0.010078529489369449,0.02039715281844136,-0.07854373431765962, ,0.0004039604826884603, ,0.0013269437676813618,0.00012376054981901963,-0.005492311771486035,-0.017568336884710663,-0.0042829051200924395,0.0014608648491805764, ,0.005651688688479222, ,0.0180828574114998, ,3.494275036445072e-05, ,0.20012689970265393,-0.1955087054438677,0.09179288748000002,2.271361467824368,0.9956701737907646,-0.88124751461516, ,0.00246417146946705,0.011834011916507143,0.005460682728830992,0.0,-0.003915937461126829,0.006177594187272334, ,0.4387040138244629
0.009945393899878707,0.020592304568086726,-0.07837650432838922, ,0.010103957418720113,0.020398395313141117,-0.07865038648258338, ,0.0003711530992016151, ,0.0013434387158201256,-6.0635889864440237e-05,-0.005672709780444068,-0.01699135732785311,-0.004202748780338227,0.007965827349359404, ,0.005829934866484347, ,0.017503408676002703, ,3.519573405160054e-05, ,0.20019640429852195,-0.19518435066315026,0.09193677567000001,2.270942087937399,0.9956701737907646,-0.88124751461516, ,0.002951962213049656,0.013949278488677169,0.005618628402116403,-0.008959488810666072,0.0,0.002689022429568431, ,0.45633697509765625
0.009964573219374852,0.02059512134082985,-0.07847176551380527, ,0.010129431557993236,0.020399626795454026,-0.07875687481715164, ,0.0003829930860190107, ,0.0011412578902501784,0.00012006226933625988,-0.005819250372772621,0.025815240667439152,0.020724121138901683,-0.008236683856893069, ,0.005931320208991481, ,0.03310461963268056, ,3.547998932865894e-05, ,0.20022729523001886,-0.19496039140979773,0.09203659000000002,2.270942087937399,0.9963533562895918,-0.8818046041336421, ,0.0018297542656633015,0.013648344823597119,0.006061191598173516,-0.007276587946169775,0.0390042715634596,-0.029306297239048252, ,0.47562694549560547
0.009982155896786579,0.020596081897392513,-0.07855698843338137, ,0.010154951699587146,0.020400847301931053,-0.07886319925748944, ,0.0004021691255323298, ,0.0014445662039310697,7.586406715202909e-05,-0.006095081690396792,-0.023475680252330943,-0.00664946557108682,0.0021811874746955643, ,0.006264387255497132, ,0.024399240711111915, ,3.582234148392505e-05, ,0.20025046342864153,-0.19477504582081637,0.09212214514000001,2.2707323979939145,0.9964899927893571,-0.8819160220373387, ,0.0021854942561813405,0.01361310307824857,0.006015412205438067,0.0,-0.00811354508495565,0.00898393594311642, ,0.49364590644836426
0.010005528485750011,0.020593621421831364,-0.0786645621907278, ,0.010180517636278995,0.02040205686912951,-0.0789693597402297, ,0.0004002745643143952, ,0.0011132787777837158,-7.676278865496324e-05,-0.00531664982723861,-0.012364090851972771,-0.0020538956617437852,0.014485369803766506, ,0.005432499199103671, ,0.012533524074940383, ,3.613259443595321e-05, ,0.20028907709301266,-0.19452019563596695,0.09222714463000001,2.270313018106945,0.9963533562895918,-0.8818046041336421, ,0.001727176746894674,0.012683365618614112,0.005276187982775754,-0.01759753318356701,0.004438414307299556,-0.001420870970593919, ,0.5107309818267822
0.010025138126195366,0.020593880063219674,-0.0787540569536464, ,0.010206129161224521,0.020403255533616417,-0.07907535620251416, ,0.0004151248888833007, ,0.001147943346560432,1.7500590360181793e-05,-0.005350300628888315,-0.005520880994730522,0.001179872253984091,0.009856277327887308, ,0.005472092562910282, ,0.005645548787274132, ,3.647848497041369e-05, ,0.20031996802450955,-0.19429623638261445,0.09231788493000001,2.270313018106945,0.9966266292891226,-0.8820274399410349, ,0.002136554205171995,0.01201613227734457,0.005374092955465587,-0.014742183598378818,0.00959492461881949,-0.00574910948680012, ,0.5337629318237305
0.010056773822907143,0.020595747287387167,-0.07889869516619272, ,0.01023178606795783,0.02040444333196554,-0.07918118858199083, ,0.0003834436324245419, ,0.001158338595112383,-6.423704272729412e-06,-0.005271378341538558,0.010579191540098773,0.010123098296548982,0.0003105090305444674, ,0.005397149171974526, ,0.014642281539891305, ,3.668345622576989e-05, ,0.20037402715462913,-0.19394871340327433,0.09246566199,2.270313018106945,0.9971731752881844,-0.8824731115558208, ,0.0029335252075537344,0.012923456565228213,0.005401428118006105,-0.010950640967746443,0.024572983444587065,-0.018137954151401563, ,0.5503928661346436
0.010066952128174069,0.02059377585171566,-0.07895301595160001, ,0.01025748815039104,0.02040562030076049,-0.07928685681681566, ,0.00042796753428904537, ,0.0010310314123870659,3.366143180697043e-05,-0.005656203554282845,0.002596952065161025,0.007471865056209868,0.0084395264334201, ,0.00574950411016481, ,0.007910304776534609, ,3.703531388137103e-05, ,0.20038947262037757,-0.19382514967728676,0.09251880988000001,2.269893638219976,0.9971731752881844,-0.8824731115558208, ,0.0004399696363114368,0.012610889243650602,0.005719501443447038,-0.016809360004913388,0.017919949998207202,-0.01276857005415305, ,0.570936918258667
0.010095780218498333,0.020596226074337705,-0.07909148194090294, ,0.010283235202814036,0.020406786476590954,-0.07939236084565027, ,0.0004019388606009629, ,0.0016339189230665833,0.0005273869825380931,-0.0062149036957565235,-0.004901337454480235,0.005147590595239969,-0.036494779381677694, ,0.006447701607862587, ,0.00710779772552116, ,3.7274411566627556e-05, ,0.20044353175049714,-0.19356257675956312,0.09265751291,2.2692645683895227,0.9973098117879499,-0.882584529459517, ,0.0022862049811715043,0.01135130879886014,0.006328490870083433,0.03702054416426656,0.0,0.0017286583229420257, ,0.5878009796142578
0.01011927741368559,0.020601707800816903,-0.07920156714029317, ,0.010309027019894244,0.020407941896056353,-0.07949770060766306, ,0.00040155344526044274, ,0.001176763828845372,0.0004391943532654298,-0.005342422200655618,0.045412291445339904,0.0330604603769374,-0.04524843804793576, ,0.0054880907207221965, ,0.056171792300936225, ,3.749766744892754e-05, ,0.2004898681477425,-0.1933386175062106,0.09277288272,2.2692645683895227,0.997992994286777,-0.8831416189779991, ,0.0017321135842204261,0.011342842733437905,0.005756708174918685,0.027279993449638787,0.04840955964343633,-0.03783557608217365, ,0.604841947555542
0.010132973752873992,0.020604865575479747,-0.07925710435307187, ,0.010334863396676403,0.02040908659576358,-0.07960287604252733, ,0.0004456982144930023, ,0.0013141045307815268,0.0003174062346323626,-0.005999034272265736,0.012419669395120427,0.011630288897275529,-0.008654588006092537, ,0.00614947393159959, ,0.017015046281113586, ,3.797699927426169e-05, ,0.2005516500107363,-0.19309921278710965,0.09289991914000001,2.269474258333007,0.998266267286308,-0.8833644547853922, ,0.002523804161476018,0.011344523796589455,0.00678110324393359,-0.0019824081960639053,-0.014724932958375821,0.01356253140927396, ,0.6214067935943604
0.010165517542672546,0.020611681451419527,-0.07939763862244346, ,0.010360744128582051,0.02041022061232665,-0.07970788709042162, ,0.00041827503083100617, ,0.0016140862219166214,0.0003427781797319578,-0.006965373349071112,-0.013579324648672323,-0.0029866615165839894,0.0019031424738420563, ,0.007158155984905019, ,0.01390389112922293, ,3.834385516091846e-05, ,0.20057481820935896,-0.19298337179399627,0.09297121509,2.2692645683895227,0.9981296307865425,-0.8832530368816957, ,0.002631802473076325,0.012298722337800775,0.007004754406332454,-0.003279430310272847,0.0,0.0015161538231919212, ,0.637509822845459
0.010193118841332612,0.020615421044955656,-0.07952981889858181, ,0.010386669011409532,0.020411343982368883,-0.07981273369202936, ,0.00039893595496310176, ,0.0014008826702346486,0.00022739957062862517,-0.006657540633198299,0.003919327175574359,0.0055640060321915895,0.006350715706434272, ,0.0068071308275346265, ,0.006805826588785746, ,3.863193364115519e-05, ,0.20062887733947854,-0.19272852160914686,0.09310602925000001,2.2688451885025533,0.9985395402858388,-0.8835056118526444, ,0.00242089397067263,0.012625990095592175,0.006783991277683136,-0.01604132783672566,0.01819953693146432,-0.014546914428435384, ,0.6544280052185059
0.010207230418995055,0.020618002301513526,-0.07959146464874606, ,0.01041263784133362,0.020412456742519958,-0.07991741578853757, ,0.0004366753158871481, ,0.00116339066820054,0.00010494675754597102,-0.005726489792304013,0.0485448006677844,0.029311562243013817,-0.010004903772026234, ,0.005844414171680304, ,0.05670771858259645, ,3.902101853980734e-05, ,0.20066749100384965,-0.19259723515028504,0.09317084375000001,2.2688451885025533,0.9989494497851351,-0.8839215443038743, ,0.0037948632177376485,0.013418685175123131,0.0061264659692307705,-0.01604132783672566,0.059954739293196536,-0.0493500905703678, ,0.6693220138549805
0.010235181243909116,0.020620582887024005,-0.07971178968708743, ,0.010438650414905253,0.020413558929419456,-0.08002193332163765, ,0.00042479135657416976, ,0.0014659520570673966,-0.0001230049412469504,-0.005860022436327464,-0.01765262118564737,-0.0062382172863037905,0.01065415428614813, ,0.006041854732071317, ,0.018722456642353693, ,3.935620665961601e-05, ,0.20072927286684344,-0.19232693949968718,0.0932939913,2.2688451885025533,0.9993593592844314,-0.8842557980149635, ,0.00412283038841556,0.014468202707496687,0.005804960466472304,-0.01267437669653763,0.0,0.0017030952106172766, ,0.684891939163208
0.010248701411179666,0.020618756531827452,-0.07977098243489908, ,0.010464706529051184,0.020414650579712784,-0.08012628623352343, ,0.0004632043177175868, ,0.001333020330421074,-5.890599472036678e-05,-0.005715862810764019,-0.017950910619199435,-0.004654359071563027,0.005868063621540654, ,0.0058695400832607875, ,0.018544493638932725, ,3.978747021903653e-05, ,0.20076016379834036,-0.19218020757507692,0.09335232435000002,2.2686354985590693,0.9993593592844314,-0.8842557980149635, ,0.002388882871269037,0.013662099274182375,0.0056505184533522535,-0.006745660990727098,-0.002110691854706802,0.0033826409840337036, ,0.703319787979126
0.010278320978473886,0.020615316277788495,-0.07989939345254707, ,0.010490805981073837,0.020415731730053854,-0.08023047446689192, ,0.00044113320673461133, ,0.0013628749065953886,-0.000166318404473804,-0.005988826041367548,-0.018121344383679447,-0.004247401074080144,0.008617084447194081, ,0.006144194591356641, ,0.018612456325056773, ,4.0136428869554483e-05, ,0.20082194566133416,-0.19187129826010793,0.09347806448000001,2.2682161186721,0.999222722784666,-0.8840627013711264, ,0.002411192690044378,0.015310897315016262,0.0059061221802002226,-0.0108244787408633,-8.61035525002866e-05,0.0016207222896557408, ,0.7198629379272461
0.010294365976092464,0.020617038768070334,-0.07997039642801228, ,0.01051694856865097,0.020416802417104075,-0.08033449796494202, ,0.0004713889433927672, ,0.0014448761478585983,4.931644850070813e-05,-0.006244002877682413,0.002012216609410527,0.005422167398683024,0.0008889146001239644, ,0.006409186464072463, ,0.00578350287381723, ,4.05539219596554e-05, ,0.20086055932570526,-0.19170912086974923,0.09355195301000001,2.2682161186721,0.9996326322839623,-0.8843969550822157, ,0.0034905095078310274,0.014096396547604098,0.006341087388535033,-0.009306388319482755,0.01720855507782483,-0.012533003235104987, ,0.7344839572906494
0.010314944660484326,0.0206177470044848,-0.08006256413333535, ,0.010543134089835435,0.020417862677533368,-0.0804383566713748, ,0.00048295361213531737, ,0.0015764857148134997,0.00038167638881731153,-0.006594800322496966,0.02352022643146214,0.016303546628725997,-0.01395620770121608, ,0.0067913456228053766, ,0.028618292604350472, ,4.098468890655234e-05, ,0.20091461845582484,-0.19150060708214517,0.09364658218000001,2.2680064287286155,1.0000425417832586,-0.884731208793305, ,0.004422325344341942,0.012257419472806869,0.006898575799047208,0.0,0.03379833072312121,-0.026118420689432133, ,0.7502789497375488
0.010343243657135476,0.020619724421266625,-0.08018063966422875, ,0.01056936234305476,0.020418912548017653,-0.08054205053039207, ,0.00047124609572975977, ,0.0017198979040544706,0.00023815519092727148,-0.007689137163379245,0.0005153822963215218,0.0042726347442437985,0.006471135164114145, ,0.007882740450667928, ,0.0043036031057280665, ,4.136598833335378e-05, ,0.201022736716064,-0.19114536136993085,0.09383972939000002,2.2675870488416465,1.0000425417832586,-0.884731208793305, ,0.003129628861735814,0.013154552475529633,0.007088923684913219,-0.01443202079948488,0.013309756467152848,-0.009503224164674837, ,0.7654459476470947
0.010377558696039943,0.020626209487243675,-0.08032664155963663, ,0.010595633127111235,0.02041995206524235,-0.08064557948669726, ,0.0004379725824014905, ,0.0016827609603175604,0.0002050813748943666,-0.0074965747111655715,-0.017114339119182313,-0.004762700764741791,0.010189171099889708, ,0.007685855529476508, ,0.01776468120694872, ,4.164475050974612e-05, ,0.20105362764756088,-0.1910063521781948,0.09391232163,2.2675870488416465,1.000179178283024,-0.8848426266970013, ,0.0026362800730523202,0.014189135998575176,0.007495911303529413,-0.012453258854011964,0.0,0.0013171312204355514, ,0.785916805267334
0.01039260661061359,0.020630674103340865,-0.08039570293078725, ,0.010621946241181103,0.020420981265898464,-0.0807489434854931, ,0.0004704749108213735, ,0.0017305016905470366,0.00032742414997978986,-0.007270992076787143,-0.0006748578667822568,0.0015233433403934757,0.0031351132993543336, ,0.007481254470720639, ,0.0016661295720890616, ,4.1995048741234404e-05, ,0.2010845185790578,-0.1908827884522072,0.09398491387,2.2675870488416465,1.0005890877823205,-0.8850952016679502, ,0.00428722437776584,0.012815252067315432,0.007408749544186048,-0.011011888970034373,0.013043621966581272,-0.010650954361112939, ,0.8025968074798584
0.010435811247293768,0.020632005677320573,-0.08056763948482157, ,0.010648301484814908,0.02042200018668652,-0.08085214247248348, ,0.0004125486118347706, ,0.0014032743045775218,-0.000363131012202444,-0.004867103444845407,-0.03675746127327025,-0.019509319703968304,0.02007611653568405, ,0.005078359858136949, ,0.04161399418268345, ,4.218651929599664e-05, ,0.2012466959694165,-0.19049665180849598,0.09416250560000002,2.2671676689546776,1.001408906780913,-0.8857637090901286, ,0.005097903229809348,0.013795165221466898,0.004649390402802102,-0.016490492998098197,-0.018610099303214885,0.015159863538296793, ,0.8186578750610352
0.0104704369025202,0.02062915274931483,-0.08069548667441952, ,0.010674698657936691,0.020423008864313034,-0.08095517639387045, ,0.00038943152984570516, ,0.0013174316745947583,-3.921703844299122e-05,-0.0050718846819473445,-0.02231562903158351,-0.010844187921294265,0.010933041047780973, ,0.005240341441194639, ,0.02481095942101806, ,4.2313821686873436e-05, ,0.20136253696252987,-0.19018001976065277,0.09428954202,2.2669579790111927,1.001408906780913,-0.8857637090901286, ,0.0036280909079456298,0.01119330623945199,0.004988666307547761,-0.010320104404388452,-0.008676981064907014,0.007059642776104012, ,0.8409237861633301
0.010484719882722215,0.020628450724866246,-0.08074720485737068, ,0.010701137560843982,0.020424007335492093,-0.08105804519635577, ,0.00043041308902353116, ,0.0013574053200077958,-0.000104710347320804,-0.0051579498625937,-0.014102313003956873,-0.00597794735034036,0.00636367934658082, ,0.00533460028911744, ,0.015317019388060888, ,4.2534741195355515e-05, ,0.20140115062690098,-0.19005645603466517,0.09434009733000001,2.2669579790111927,1.0012722702811476,-0.8856522911864323, ,0.004230071846937248,0.012550845332425706,0.00512345175940817,-0.009236756734626858,0.0,-1.599365688275664e-05, ,0.8563659191131592
0.010512260471641239,0.020628855785460972,-0.08085357669363785, ,0.010727617994207544,0.0204249956369457,-0.08116074882713914, ,0.00042695730732509896, ,0.001593271264010169,0.00021455712307188134,-0.005717491581165725,0.019904835850188134,0.011287328411824924,-0.013376165772624661, ,0.005939213589397369, ,0.022882444510792885, ,4.273917369007781e-05, ,0.20150926888714013,-0.18980932858269,0.09445028198000001,2.266748289067708,1.0018188162802093,-0.8860979628012179, ,0.0064788699202337815,0.011835487847152753,0.00598377592787378,0.0,0.029289731202186142,-0.02390003807678308, ,0.8730309009552002
0.010537171156871541,0.02063318473521401,-0.08095895814035112, ,0.010754139759070956,0.020425973805403022,-0.08126328723391886, ,0.00042734990460425537, ,0.001813671126476023,0.0005280778385284765,-0.007718487947612591,0.01716919794015769,0.009941968321207976,0.0006898146274298552, ,0.007946277452744684, ,0.01983996130575507, ,4.3036565079343966e-05, ,0.20158649621588237,-0.1896548739252055,0.09454361486000001,2.2663289091807393,1.0022287257795057,-0.8865138952524477, ,0.005279044868678654,0.011465203318098941,0.007838982047244095,-0.014552112833045206,0.03305423706082801,-0.026953513943376937, ,0.8877367973327637
0.010557612192658446,0.02063801873267089,-0.08103697003501968, ,0.01078070265685052,0.020426941877600528,-0.08136566036489051, ,0.0004498445586093335, ,0.001652098115391944,0.00035731974112251995,-0.007119544637507936,0.005188132642174139,0.004459806513057472,0.0037696874326062337, ,0.0073174463732743195, ,0.00684153317281347, ,4.337580846531183e-05, ,0.20164827807887617,-0.18950814200059524,0.09463824403000001,2.2663289091807393,1.0022287257795057,-0.8865138952524477, ,0.004012850662482865,0.011896748376861306,0.0073000969385884525,-0.013472801080544163,0.018136306727962438,-0.014788942046186531, ,0.9014878273010254
0.010573600683233538,0.020641022848909424,-0.08110259815527272, ,0.010807306489334789,0.020427899890281778,-0.0814678681687465, ,0.00048317903725510577, ,0.0014697763726065716,0.00016145518842834283,-0.006435090002847335,0.0005820977849648193,0.0023565926824551985,0.0027950826674122482, ,0.006602779241205076, ,0.0024274175304718946, ,4.377928796643076e-05, ,0.20167916901037308,-0.1893923010074819,0.09470435482,2.2663289091807393,1.0022287257795057,-0.8865955739925884, ,0.003184840836611162,0.012517734013780606,0.006533556817063167,-0.011976826315176528,0.01330262018895002,-0.012395283765145346, ,0.9150769710540771
0.010598589812288277,0.020645355855313324,-0.08120161968050982, ,0.010833951058684461,0.020428847880196985,-0.08156991059467575, ,0.0004877589743421642, ,0.0019074864331840608,0.00045605691155387886,-0.007393456511752916,-0.000777175759709106,-6.229101660523489e-05,-0.00556159721147335, ,0.007649162803244477, ,0.000779653923287731, ,4.418040291903507e-05, ,0.2017486736062411,-0.18923012361712316,0.09480416915,2.266119219237255,1.0022287257795057,-0.8865955739925884, ,0.005286391377521511,0.011898258135705256,0.007559948514475558,-0.0017168226898688858,0.00959585885157434,-0.009372668443307293, ,0.9332859516143799
0.010640218454747259,0.020652975311987044,-0.08137204507466868, ,0.010860636167432047,0.020429785884104754,-0.08167178759236389, ,0.00043386987184855616, ,0.0013412518603285188,-0.00016641760260663503,-0.0057197692411257075,0.014470137166170864,0.010323695595872592,0.0008691090138802904, ,0.005877279263657616, ,0.017775363688038837, ,4.4451877976584764e-05, ,0.20187996006510292,-0.18891349156927995,0.09498176088000002,2.2659095292937703,1.0030485447780983,-0.8873457601549074, ,0.0043800924577882434,0.014923249183593452,0.0058648054197349055,-0.016357865496866693,0.029544707320283862,-0.02506513108894961, ,0.9463279247283936
0.010656758144757934,0.0206545385393591,-0.08143392597045881, ,0.010887361618481544,0.020430713938769933,-0.08177349911199139, ,0.0004675311031071584, ,0.0015245567258734601,0.00020419828548525268,-0.006370179548902849,0.007564795977118271,0.005924463394106085,0.004564972323548059, ,0.006553255499021934, ,0.00960861041951131, ,4.478743153296044e-05, ,0.20192629646234825,-0.18878992784329238,0.09504398280000001,2.2659095292937703,1.0030485447780983,-0.8874274388950479, ,0.004480101237100868,0.011907310203847827,0.006546983773119607,-0.014494314456766081,0.021233724690462617,-0.016064846873826144, ,0.9601109027862549
0.010673362800710719,0.02065584512285348,-0.08150123043851182, ,0.010914127215108269,0.02043163208096491,-0.08187504510423456, ,0.0004979722840706352, ,0.001729057737532935,0.0003287320082900891,-0.00692426896878709,0.0033585992019330544,0.0050565708602084885,-0.007226087746238297, ,0.007144452823352169, ,0.006070344433903727, ,4.517741094805539e-05, ,0.20202669198971318,-0.18853507765844296,0.09518787099,2.2654901494068014,1.0030485447780983,-0.8874274388950479, ,0.004846568961400543,0.01300492552534888,0.0074748059690286275,-0.007240765656881414,0.011741846646879545,-0.00832485678645122, ,0.9758069515228271
0.010710865050404705,0.020660538044484082,-0.08165353391693389, ,0.01094093276095853,0.020432540347468324,-0.08197642552026399, ,0.00045735444546330853, ,0.0018621949851015084,0.0002404404438361707,-0.007693027089852787,-0.0075813173352445185,-0.0025185759898698947,0.0130821518615556, ,0.007918853930637829, ,0.007988715203893824, ,4.547139546644481e-05, ,0.2020730283869585,-0.18840379119958114,0.0952643521,2.2652804594633165,1.0030485447780983,-0.8874274388950479, ,0.004998886061021856,0.013681796649145152,0.007792960626223093,-0.019178502352340133,0.009618835650597552,-0.006593683672852338, ,0.9899909496307373
0.010728760470358896,0.020664105410730625,-0.08172641478759902, ,0.01096777806004938,0.02043343877506708,-0.0820776403117446, ,0.0004834210109222779, ,0.0019435392166793886,0.0002608870759835905,-0.007733539794246753,-0.005289129324071613,-0.0021123889848343033,0.01179209663178031, ,0.007978285812277228, ,0.005695353243433725, ,4.581045345958067e-05, ,0.20212708751707809,-0.1882647820078451,0.09534083321,2.2652804594633165,1.0034584542773946,-0.8877616926061372, ,0.005917072583807588,0.013644420065919594,0.0078621971964462,-0.018613706288380893,0.011617077045979758,-0.008223115543070736, ,1.0033929347991943
0.010768548498784152,0.020669857258522058,-0.08188777641381204, ,0.010994662916768237,0.020434327400554026,-0.08217868943083538, ,0.00043730130057929997, ,0.001992203746000446,0.000342701012736663,-0.007863379477897524,0.013273694641683275,0.009760989762153248,-0.007340973176830097, ,0.008119055152117693, ,0.016476281756317247, ,4.6046542784200574e-05, ,0.20225065124306568,-0.1879558726928761,0.09550805462,2.265070769519832,1.004141636776222,-0.8883187821246193, ,0.006050350332752769,0.01446158816800835,0.008126944653061225,-0.004986253331071806,0.027150881086786524,-0.020889891153019785, ,1.01737380027771
0.010790306179113751,0.020673653816262638,-0.08196851853256927, ,0.011021587135872767,0.020435206260729064,-0.0822795728301878, ,0.00045508558949527365, ,0.0020706369076644695,0.00033311480847036793,-0.008013377866318927,0.002932600443917212,0.003830862740090233,-0.0037636067201117754, ,0.008283279996922391, ,0.004824481490707424, ,4.6311532385010694e-05, ,0.20231243310605948,-0.18781686350114007,0.09558972089000001,2.265070769519832,1.004141636776222,-0.8883187821246193, ,0.00616962374334962,0.014550282361004412,0.008210727587628867,-0.004986253331071806,0.01760068099617693,-0.013102343346952308, ,1.0312278270721436
0.010810664116158348,0.020674453343751058,-0.08204751179228192, ,0.011048550522490534,0.020436075392399274,-0.08238029046294695, ,0.000473450772158943, ,0.00197804973843792,5.742880703180921e-05,-0.007803062233091672,-0.005422505393684852,-0.00026403493825926934,0.006182781992023844, ,0.00805007820142842, ,0.00542892717437804, ,4.660537105718367e-05, ,0.20237421496905328,-0.1876624088436556,0.09566879458000001,2.2648610795763475,1.004141636776222,-0.8883187821246193, ,0.005906094820257171,0.01643237083263563,0.007897278889439764,-0.013991054847639411,0.013193854411953036,-0.009508871757656839, ,1.0451769828796387
0.010827310139989017,0.020672484261059245,-0.08211726767764764, ,0.011075552882118738,0.020436934832377934,-0.0824808422827499, ,0.0004992939873936432, ,0.0016322047733405148,-0.00028925539890263204,-0.0063404745786644155,-0.01962654126088445,-0.006809204370556617,0.009801261691596067, ,0.006553577571876264, ,0.020774175694306663, ,4.694140288241349e-05, ,0.20242055136629863,-0.18749250872042264,0.09573879424000001,2.264651389632863,1.0042782732759874,-0.8884302000283157, ,0.004675636917657155,0.016739626311249037,0.006261325283018869,-0.012652649636297924,0.0,0.001249831830177633, ,1.058952808380127
0.010855345718974958,0.02066947760183472,-0.08222533304394498, ,0.011102594020623987,0.020437784617486656,-0.0825812282437258, ,0.000491400808802209, ,0.0019842433625454794,-0.00015489788971149543,-0.0071087664913894654,-0.009805002143903905,-0.002713738719101769,0.0008731277945032784, ,0.0073821254464513505, ,0.010173614240944942, ,4.7253301328055853e-05, ,0.20252094689366354,-0.18721449033695056,0.09584897889,2.2644416996893786,1.0046881827752836,-0.888764453739405, ,0.007036168699241149,0.017629006419927692,0.00714616936742934,-0.007093129948826859,0.008912827160297176,-0.006065888497690777, ,1.0719928741455078
0.010895560526663094,0.020668835398914738,-0.08236773267780445, ,0.011129673744241828,0.020438624784551666,-0.08268144830049472, ,0.0004541182858357858, ,0.0019361300755765618,0.00012101988963927456,-0.007067605037441029,0.006223868787797685,0.004671683079357566,-0.003231684804795553, ,0.0073290031005930276, ,0.007782104332842807, ,4.748646801338552e-05, ,0.20267540155114802,-0.18686696735761046,0.09599545966,2.2644416996893786,1.0052347287743453,-0.8892101253541906, ,0.007095124024044593,0.01472868874103225,0.007256861740318907,-0.007093129948826859,0.021157585307009303,-0.01613276865274605, ,1.0853219032287598
0.010914961389768559,0.02066909334927431,-0.08243922658012312, ,0.01115679185957679,0.02043945537040739,-0.08278150240816812, ,0.00047787898042249297, ,0.0021918612677687714,-0.00018655722812269127,-0.007917867629314458,-0.031760958811982896,-0.013943550200786966,0.007297402542713229, ,0.00821776655861284, ,0.0346869004919469, ,4.775787417817805e-05, ,0.20273718341414182,-0.18670478996725173,0.0960680519,2.2644416996893786,1.0053713652741108,-0.8893215432578871, ,0.0065838415936358505,0.019055610754713008,0.007808240941176472,-0.006600262357928278,-0.010395404690858461,0.009561900004758444, ,1.0988309383392334
0.010935501503230503,0.020666605297756525,-0.08252135376839449, ,0.011183948173601854,0.020440276411893724,-0.08288139052234747, ,0.0004925210419784162, ,0.002091707348179195,1.945952478634035e-05,-0.007853492306181986,-0.016200893055407832,-0.007954956004460174,0.014242597775306688, ,0.008127297195672827, ,0.01804855204580778, ,4.8137899633730355e-05, ,0.20279896527713562,-0.1865271671111446,0.09614842188000002,2.2640223198024096,1.0052347287743453,-0.8892101253541906, ,0.006898492334480531,0.01613893563919571,0.007885550257425744,-0.018746032708425647,0.003662697463179032,-0.0019364209769165558, ,1.1100149154663086
0.010957833925854185,0.020667355641926254,-0.08260574436888371, ,0.01121114249365831,0.020441087945858805,-0.08298111259912484, ,0.0005062248601965422, ,0.0022214912309991195,-2.6999372376040366e-06,-0.008174788668505717,-0.020503897607792365,-0.009980399203393421,0.012318722123018298, ,0.008471257306551168, ,0.02280390643864294, ,4.853461033152992e-05, ,0.20287619260587786,-0.18635726698791164,0.09623397702000001,2.263812629858925,1.0053713652741108,-0.8893215432578871, ,0.007280575173593689,0.017182136802185548,0.008181207765793529,-0.01555862768936243,0.0,0.0010168283743977316, ,1.1218369007110596
0.01097868639660404,0.020669843827858025,-0.08268349890846063, ,0.01123837462745551,0.020441890009156225,-0.08308066859508136, ,0.0005264453254364617, ,0.002297137786443657,0.00024993463567606,-0.008499715978748034,0.0036805000451226523,0.002077424271506172,0.0033813250656273977, ,0.008808205325229563, ,0.004226313739285347, ,4.895922705255389e-05, ,0.20300747906473968,-0.18607924860443956,0.09638045779000001,2.263812629858925,1.0060545477729381,-0.8898786327763692, ,0.008381587178619355,0.01577671513856538,0.008379174918463968,-0.012887083022629827,0.0519172236686999,-0.04142983620000084, ,1.1339929103851318
0.011024388496934542,0.020675076809110356,-0.08284613207209236, ,0.011265644383070397,0.020442682638645904,-0.08318005846728702, ,0.00047298867900696413, ,0.002122810820000872,0.00013909576600518799,-0.007898398940511425,0.01198922423167401,0.007692342617236992,-0.0026532674938816933, ,0.008179876480308572, ,0.014244774546440662, ,4.927928654664611e-05, ,0.2031078745921046,-0.18588618028258394,0.09647897583000001,2.263812629858925,1.0060545477729381,-0.8898786327763692, ,0.007760657741221906,0.016171939597558072,0.008143564171779142,-0.01112475153107041,0.028934631616845723,-0.022719855821449968, ,1.1466138362884521
0.011048046775192645,0.02067532594015596,-0.08293415786056388, ,0.011292951568947475,0.020443465871194777,-0.08327928217330091, ,0.00048254351184633104, ,0.002370368017445563,0.0002772383279344738,-0.008699123121375447,0.0039477549215157295,0.004164882929182011,-0.009012352447031803, ,0.009020545920810648, ,0.005738551116541904, ,4.9609441657187546e-05, ,0.20318510192084685,-0.1857085574264768,0.09656971613000001,2.2636029399154403,1.0060545477729381,-0.8898786327763692, ,0.007731703823625968,0.016716036913593586,0.00891870745800672,-0.0011380819276286844,0.01961372716059175,-0.015144399376015085, ,1.1582648754119873
0.011048046775192645,0.02067532594015596,-0.08293415786056388, ,0.011320295993898362,0.020444239743676124,-0.08337833967116988, ,0.0005699280201592275, ,0.002370368017445563,0.0002772383279344738,-0.008699123121375447,0.0039477549215157295,0.004164882929182011,-0.009012352447031803, ,0.009020545920810648, ,0.005738551116541904, ,5.008544055616675e-05, ,0.20318510192084685,-0.1857085574264768,0.09656971613000001,2.2636029399154403,1.0060545477729381,-0.8898786327763692, ,0.007731703823625968,0.016716036913593586,0.00891870745800672,-0.0011380819276286844,0.01961372716059175,-0.015144399376015085, ,1.172672986984253
0.011110714557797212,0.020677565530389238,-0.08316831654558515, ,0.01134767746710171,0.020445004292969745,-0.0834772309194285, ,0.0004535021939342391, ,0.0016965281788046008,-0.00017024241769237833,-0.00585379681694725,0.01904480528565393,0.011243484250617426,-0.005495696782529152, ,0.006097058923477906, ,0.02211606971386849, ,5.0350128359968194e-05, ,0.20340906117419935,-0.18522202525540063,0.09680952978000001,2.2631835600284713,1.0067377302717653,-0.8904357222948514, ,0.007851358964496877,0.015372904836946507,0.006082020435280642,-0.010236012457610895,0.034150037526210805,-0.027008343650491706, ,1.1850848197937012
0.011127533446334999,0.02067605779269411,-0.08322610342361472, ,0.01137509579810263,0.020445759555960997,-0.08357595587709832, ,0.00048653996245282157, ,0.0017723054832957,-0.00027104286944977084,-0.006267231918567196,0.01717683541102265,0.011622682338213071,-0.007035543785752448, ,0.006518644558825632, ,0.02073958557453433, ,5.06659488947165e-05, ,0.20347856577006737,-0.18506757059791615,0.09686656654,2.2631835600284713,1.007011003271296,-0.8906585581022441, ,0.00765956729242183,0.017479635579014694,0.006348669398166602,-0.009122478004711781,0.034876339870632156,-0.02762012456260192, ,1.1968088150024414
0.011146169963754731,0.02067340845313811,-0.08329268655056961, ,0.011402550796812738,0.020446505569543,-0.08367451450368775, ,0.0005128436759146822, ,0.002412716357733319,6.65502323404937e-05,-0.008293913640739201,0.005570550538038701,0.0045894520309645555,-0.011511131674110945, ,0.00863797618868785, ,0.007217621768641943, ,5.101992852615105e-05, ,0.2035480703659354,-0.18490539320755744,0.09693526991000001,2.262973870084987,1.007011003271296,-0.8906585581022441, ,0.009184955663195023,0.01829514971244858,0.008504437544046985,0.0,0.022341432670048175,-0.01741608767955777, ,1.211777925491333
0.011175923657036041,0.020676918948625927,-0.08339515051562435, ,0.011430042273509694,0.02044724237061365,-0.08377290675919143, ,0.0005099288002062856, ,0.0023977367012740776,0.00036583876263514476,-0.008496130390039644,0.0011538636692412835,0.0012387700814456293,-0.008173008549901736, ,0.00883556511454917, ,0.0016928994099634602, ,5.136189031985806e-05, ,0.20364846589330032,-0.18472004761857605,0.09703897311000001,2.262973870084987,1.007011003271296,-0.8905768793621036, ,0.008183199051142283,0.015017715074928118,0.0087185613136289,0.0,0.01521614265199452,-0.011627411178297535, ,1.2234618663787842
0.011221921141500894,0.020681008468093953,-0.08356700777363496, ,0.011457570038836979,0.02044796999607758,-0.08387113260408928, ,0.00044981023193598727, ,0.002281302777093709,0.00023122840767546716,-0.008811295372949819,-0.009866197370881864,-0.004445980068076761,0.007735582318593994, ,0.009104764416867604, ,0.010821669751668669, ,5.159717086805879e-05, ,0.20379519781791058,-0.18439569283785862,0.09721397226,2.2627641801415024,1.007284276270827,-0.890718036429356, ,0.006562542810955594,0.015847852631675145,0.00892370393277311,-0.014594556099594251,0.007899394628782192,-0.006591812302529854, ,1.2352428436279297
0.01124256660669758,0.020683286185510553,-0.08364809439339918, ,0.011485133903803665,0.020448688482846502,-0.08396919199934745, ,0.00046580966957150336, ,0.0019306818119524006,-2.29580369288376e-06,-0.007738890305261482,0.04887497032824265,0.029519873537807936,-0.01575614351147378, ,0.007976086802849412, ,0.057098035259686784, ,5.1854122585761334e-05, ,0.2038647024137786,-0.1842257927146257,0.09729952740000002,2.2627641801415024,1.0078308222698886,-0.8911637080441416, ,0.007472029997778289,0.01822137894747903,0.008198050190427176,-0.01298716447123525,0.06455914068968027,-0.05281011050807311, ,1.2470808029174805
0.011265976323276344,0.020682801206416752,-0.08373288132782898, ,0.011512733679784035,0.02044939786783715,-0.084067084906416, ,0.0004765063938617578, ,0.001996029248097658,7.578191686400488e-05,-0.006937873782774447,0.021663445680327454,0.012405051958532403,-0.013884615480003614, ,0.007219693087929285, ,0.02496377729359262, ,5.2123473820854475e-05, ,0.20395737520826931,-0.1840404471256443,0.09738637883000001,2.2625544901980175,1.0081040952694196,-0.8913865438515345, ,0.00820031468053214,0.015303490011041896,0.007233792697547686,-0.0025448030955317856,0.03456650434286153,-0.028370972669448928, ,1.2589218616485596
0.01127663941244418,0.020681119099019662,-0.08377344188723324, ,0.011540369178517428,0.02045009818797265,-0.0841648112872298, ,0.000525446532111226, ,0.0020671492959672636,-0.00010544939644812506,-0.007238336380564675,0.008675314360777297,0.005803971229204275,-0.005905818007794114, ,0.007528461950839317, ,0.01043777473496748, ,5.2466547513090125e-05, ,0.20399598887264042,-0.18394777433115359,0.09742656382,2.2623448002545334,1.0081040952694196,-0.8913865438515345, ,0.00817652586034665,0.017316960138407077,0.007422558956197579,-0.0075885415263449085,0.025222814625114096,-0.020760252962534517, ,1.2706289291381836
0.011311941809957204,0.020680331235507554,-0.08389629922518, ,0.011568040212107814,0.020450789480181905,-0.08426237110420683, ,0.0005022792347253784, ,0.0022869995330442538,0.00019634068093135246,-0.008246691008294385,-0.0027004338802133015,-0.0036805352078098353,0.012676459055328508, ,0.00856018861435989, ,0.004564936408730964, ,5.276603625054514e-05, ,0.20413499806437646,-0.18370064687917842,0.09754971137000001,2.261925420367564,1.0081040952694196,-0.8913865438515345, ,0.008676686927231178,0.014646850063045344,0.008423485732416712,-0.02227568857234891,0.014897665385016112,-0.012349840896823162, ,1.2821788787841797
0.011333170020649942,0.020682360148557503,-0.083972380674689, ,0.011595746593023825,0.020451471781401,-0.08435976432024964, ,0.0005218447885105916, ,0.0020635458708246806,-0.00017980957844645215,-0.007904328013106678,-0.021535041234361965,-0.010337452138015209,0.017721959446849577, ,0.008171227226327857, ,0.02388767227706544, ,5.309079664770862e-05, ,0.20420450266024448,-0.18355391495456816,0.09762748877,2.261925420367564,1.008240731769185,-0.8914979617552309, ,0.00623515813585359,0.017576762652059787,0.007866079762962965,-0.02227568857234891,0.0,-0.0002020824752482866, ,1.2939538955688477
0.01135572051000529,0.02068167089971361,-0.08405730847712664, ,0.011623488134098052,0.020452145128570305,-0.08445699089874266, ,0.0005330362260485261, ,0.0022954334298262036,-4.718132576607219e-05,-0.00878024885050138,-0.013394143871662987,-0.006264907772342204,0.014490120337024058, ,0.009075462003942034, ,0.014786889709034499, ,5.351086296295192e-05, ,0.2042740072561125,-0.18335312389983832,0.09771434020000001,2.261925420367564,1.008514004768716,-0.8917207975626238, ,0.007167397584343986,0.01821788089047241,0.008834615374376041,-0.02227568857234891,0.008184711090269527,-0.006876351656669237, ,1.3046889305114746
0.011378222961535154,0.020686081450438636,-0.08414697302920407, ,0.011651264648527155,0.020452809558637736,-0.08455405080355342, ,0.0005428442250858279, ,0.0022389089495828234,0.00036865197933970634,-0.009165411044364156,0.047310907235860664,0.02686986676284096,-0.00841944530607703, ,0.009442106607031379, ,0.05440874579196408, ,5.3939663446240186e-05, ,0.20434351185198052,-0.1831909465094796,0.09780896937000001,2.261925420367564,1.0090605507677777,-0.8921664691774094, ,0.00781885609133679,0.016361541648012203,0.009694955276932442,-0.01953866388739623,0.06264529098059374,-0.051285364808625666, ,1.3142077922821045
0.011402248747411824,0.0206897659347211,-0.08423494981300267, ,0.011679075949871344,0.020453465108555606,-0.0846509439990307, ,0.0005527409368566638, ,0.002515463823664091,0.0002633268298428064,-0.00917914270670235,0.018064888676429105,0.008866694359525844,-0.0007170277328210912, ,0.009521216313974007, ,0.02012357837444903, ,5.437713271923163e-05, ,0.204428461913597,-0.1830287691191209,0.09790100596000001,2.261925420367564,1.0094704602670739,-0.8925007228884987, ,0.009602871890664826,0.016849598998308023,0.009521106706515244,-0.0168828423849051,0.035302980871734994,-0.028989506816791997, ,1.324004888534546
0.011429080789969386,0.0206911975712224,-0.08433319661855215, ,0.01170692185205424,0.020454111815283064,-0.0847476704500056, ,0.0005524435431874158, ,0.0028413973743278533,0.00016914380533459466,-0.009953387656620823,-0.026945950496088077,-0.014576056766367185,0.00364405990367222, ,0.010352394626785246, ,0.030635691297944932, ,5.480743621553724e-05, ,0.2045211347080877,-0.1828434235301395,0.09800082029000001,2.2617157304240796,1.0096070967668394,-0.8925304620520546, ,0.008957807454295754,0.01886244117640047,0.009980458345864663,-0.005531467738383124,-0.007312353714359867,0.005173826250934326, ,1.3331589698791504
0.011455195766331697,0.020692318609247064,-0.08442861507627063, ,0.011734802169362504,0.020454749715784752,-0.08484423012178954, ,0.000554395694263965, ,0.0028609283312132964,0.00030951771796075404,-0.010369968265704167,-0.026234515714071507,-0.014708633550937919,0.008894075237403782, ,0.010761828560508759, ,0.030076462487614454, ,5.523416150196993e-05, ,0.20460608476970416,-0.18266580067403232,0.09809674575,2.261506040480595,1.0096070967668394,-0.8925304620520546, ,0.008512345752585197,0.017754338925813056,0.01042461486910995,-0.011010364200210626,-0.006633519145979773,0.004630947722435785, ,1.3450369834899902
0.011485766459173366,0.02069501522146524,-0.08454149642539037, ,0.011762716716445762,0.02045537884703131,-0.08494062298017517, ,0.0005416909115810137, ,0.0028883832561455575,0.00039221452141467977,-0.010225155059820622,-0.01751140621074699,-0.011959757548716097,0.006318204507759535, ,0.010632515509632038, ,0.02120577837113308, ,5.563524927247019e-05, ,0.2047064802970691,-0.18248817781792517,0.09820952298,2.261086660593626,1.0094704602670739,-0.8923373654082176, ,0.009480450209313065,0.016671985516245744,0.01035683453836151,-0.011706046940866788,0.0,-0.0019749389504917386, ,1.3544549942016602
0.011513067417984376,0.02069774766849026,-0.08463665714650893, ,0.01179066530831596,0.020455999245998394,-0.08503684899143459, ,0.0005437429551165215, ,0.0027393341062861573,6.0264378528120935e-05,-0.009680028907953466,-0.01941963470925745,-0.011208571732500013,0.005597931152848195, ,0.010060345063664404, ,0.02242218115015961, ,5.603340026010762e-05, ,0.20479915309155977,-0.182310554961818,0.09830674473,2.261086660593626,1.0096070967668394,-0.8924487833119139, ,0.009070678344960838,0.019217687638410447,0.009736437359413203,-0.011706046940866788,0.0005519959438088737,-0.0024146995275445534, ,1.3644518852233887
0.011538587759490057,0.020700960955998094,-0.08473318357870188, ,0.011818647760347573,0.020456610949668264,-0.08513290812231983, ,0.0005458207035687408, ,0.002415063028287538,0.0002786079071832664,-0.00905904552423117,0.053654611198099264,0.029511471248931585,-0.018919175060640163, ,0.009379576621929116, ,0.0612351547485931, ,5.6428718269435305e-05, ,0.20489182588605045,-0.18211748663996238,0.09840915164000001,2.261086660593626,1.0102902792656667,-0.8930875515705365, ,0.009755055882137131,0.017691450700684334,0.009636304609800365,-0.011706046940866788,0.06792938619306527,-0.056401533695641666, ,1.3741579055786133
0.011564422702838556,0.02070314226926797,-0.08482361311111837, ,0.011846663888276912,0.020457213995028208,-0.08522880034006206, ,0.0005516497922842521, ,0.002601067223644342,0.00018042401576768836,-0.009224170566778541,0.014427580075273743,0.00709138701876472,-0.0051074243241237514, ,0.009585584289567652, ,0.016076155320842292, ,5.682680719253291e-05, ,0.20498449868054117,-0.1819398637838552,0.09850248452000002,2.261086660593626,1.0105635522651977,-0.8933103873779296, ,0.009880718301092235,0.017884836328396304,0.009532502405745064,-0.011706046940866788,0.03148407623572594,-0.02665861090273775, ,1.3846468925476074
0.011590395136063065,0.020704332715718504,-0.08490961408031476, ,0.011874713508202048,0.020457808419071206,-0.085324525612371, ,0.0005601452891942052, ,0.0026543290929047707,7.883653362092489e-07,-0.0091594521849834,-0.001938844046068022,-0.0004826603427947138,0.00125616532926813, ,0.009536300534481795, ,0.001998002195441728, ,5.7231515774983854e-05, ,0.20507717147503185,-0.18176996366062229,0.09858933595000001,2.261086660593626,1.0105635522651977,-0.8931470298976485, ,0.010068468839911825,0.019303690308883396,0.009342411448680353,-0.011706046940866788,0.018741953512327977,-0.01397779401527735, ,1.3951988220214844
0.011590395136063065,0.020704332715718504,-0.08490961408031476, ,0.011902796436582517,0.02045839425879542,-0.08542008390743452, ,0.000647039211763577, ,0.0026543290929047707,7.883653362092489e-07,-0.0091594521849834,-0.001938844046068022,-0.0004826603427947138,0.00125616532926813, ,0.009536300534481795, ,0.001998002195441728, ,5.775681655065875e-05, ,0.20507717147503185,-0.18176996366062229,0.09858933595000001,2.261086660593626,1.0105635522651977,-0.8931470298976485, ,0.010068468839911825,0.019303690308883396,0.009342411448680353,-0.011706046940866788,0.018741953512327977,-0.01397779401527735, ,1.4050178527832031
0.011638464805536666,0.0207026320561315,-0.08507105434107937, ,0.01193091249023909,0.020458971551205567,-0.0855154751939185, ,0.0005851546670640444, ,0.0024041257263263333,-0.00016795699195264148,-0.008050909521814463,-0.010698557069995758,-0.005446065860581264,0.005826342572351468, ,0.00840387852051496, ,0.012004945768880563, ,5.818509774185926e-05, ,0.20525479433113902,-0.18143788614703063,0.09874618704000002,2.2608769706501417,1.0105635522651977,-0.8931470298976485, ,0.009486613074746146,0.017867998787134395,0.007992379086803815,-0.012899551640453803,0.010142289364401176,-0.006922846639609373, ,1.4146599769592285
0.011664106330803701,0.020700550749298323,-0.08515952911773587, ,0.011959061486353333,0.020459540333310162,-0.08561069944096562, ,0.0005904567934771603, ,0.0029484213053722753,-6.706782112534011e-06,-0.009887742976409125,-0.02241408121650009,-0.011828080989144545,0.004684410116057451, ,0.010317979179201102, ,0.025343528605027876, ,5.861484136419479e-05, ,0.20535518985850393,-0.18122164962655235,0.09884081621000002,2.2606672807066572,1.010700188764963,-0.8932584478013448, ,0.010610929394057667,0.020438712375289853,0.009949288894440977,-0.0080906872599586,0.0,0.001340128544153253, ,1.4238059520721436
0.011727093174296134,0.02070976702075854,-0.0853967823194621, ,0.01198724324246758,0.020460100642124925,-0.0857057566181959, ,0.00047484363307059233, ,0.0032435643254497774,0.0007091011559741743,-0.011564985973450941,0.021981662462050626,0.010989867926782781,-0.011106051975902491, ,0.012032141727425396, ,0.024575810765065285, ,5.887377217081818e-05, ,0.20558687184473068,-0.18081234478421845,0.09908970389,2.260247900819688,1.011929917262852,-0.8942612089346125, ,0.011477617508281421,0.01726968909162344,0.012058146495079488,-0.006239458557260373,0.038153552269191246,-0.02994505061185925, ,1.4379518032073975
0.011759216284687679,0.020714287988751683,-0.08550522035560491, ,0.012015457576484439,0.020460652514669674,-0.08580064669570531, ,0.00046611937930061503, ,0.002809484089913495,0.00014929965624301531,-0.010077568689753425,0.0007683961839422874,0.002382682493284183,-0.004961199308360163, ,0.010462928936752361, ,0.0025034984761784776, ,5.911670076833801e-05, ,0.2056949901049698,-0.18063472192811128,0.09919988854,2.260247900819688,1.011929917262852,-0.8942612089346125, ,0.009279396309627009,0.019729093879099956,0.010303241604139717,-0.006239458557260373,0.020540841166832458,-0.015647280063160535, ,1.4478719234466553
0.011759216284687679,0.020714287988751683,-0.08550522035560491, ,0.012043704306666682,0.020461195987969902,-0.08589536964406544, ,0.0005451655370577868, ,0.002809484089913495,0.00014929965624301531,-0.010077568689753425,0.0007683961839422874,0.002382682493284183,-0.004961199308360163, ,0.010462928936752361, ,0.0025034984761784776, ,5.9467237331843765e-05, ,0.2056949901049698,-0.18063472192811128,0.09919988854,2.260247900819688,1.011929917262852,-0.8942612089346125, ,0.009279396309627009,0.019729093879099956,0.010303241604139717,-0.01563454865396027,0.013712412352390525,-0.010141761758072415, ,1.4579448699951172
0.011786604910453935,0.02071255208047333,-0.08560241144931195, ,0.012071983251636888,0.020461731099057148,-0.085989925434324, ,0.0005426960944348416, ,0.002484145018014895,-0.00011939348495567433,-0.00852107089759705,-0.007260750150912308,-0.0037088299966251217,0.0068681589732979345, ,0.008876591717357144, ,0.008153150788168815, ,5.989297356802738e-05, ,0.20578766289946052,-0.18042620814050722,0.09929711029,2.260038210876204,1.011929917262852,-0.8942612089346125, ,0.009492420964705551,0.018574464975234056,0.008642871144872492,-0.01563454865396027,0.013712412352390525,-0.010141761758072415, ,1.4654088020324707
0.011811267896809204,0.020712283884528115,-0.08567816735869778, ,0.012100294230377095,0.020462257884966556,-0.0860843140380028, ,0.0005576776372268785, ,0.002574824457333482,-9.511930307341257e-05,-0.008563984472249292,-0.010200139261028088,-0.0063567595993934195,0.008044790315311377, ,0.008943187279087184, ,0.012018784775632216, ,6.033478709990901e-05, ,0.20588805842682542,-0.18026403075014852,0.09937359140000002,2.260038210876204,1.011929917262852,-0.8942612089346125, ,0.010269280370185244,0.018281052120684028,0.008680551237057221,-0.01563454865396027,0.010670642128110813,-0.007710328745264163, ,1.476944923400879
0.01183954613960909,0.020712100420269712,-0.0857671120090287, ,0.01212863706222872,0.020462776382739665,-0.0861785354270983, ,0.0005612532994713057, ,0.002816839229227819,-0.00011432619593552832,-0.008600325572550192,-0.021397576494757837,-0.014822439410164475,0.011026366521688223, ,0.009050594106259248, ,0.026030000823384605, ,6.0776657474317396e-05, ,0.2060038994199388,-0.1800709624282929,0.0994643317,2.260038210876204,1.0120665537626174,-0.894372626838309, ,0.012382329622616223,0.018305737183346986,0.008666382763873775,-0.01456618424467347,0.0,0.0009384273960477155, ,1.4846868515014648
0.01186731921139944,0.02071256110912571,-0.08585524132162901, ,0.01215701156689215,0.02046328662942323,-0.08627258957408145, ,0.0005658966256189863, ,0.002736980793355917,-1.3991722694552946e-05,-0.008883151342157019,-0.011101868758533986,-0.007606349601770269,0.005740978388931021, ,0.009295248108532078, ,0.013457636823827317, ,6.122005032558349e-05, ,0.20611974041305217,-0.17989333957218573,0.09954988684,2.260038210876204,1.0124764632619139,-0.8947068805493983, ,0.011140049610340166,0.017874729997828364,0.008893808777219432,-0.012785244991595869,0.009088381778369528,-0.006518398275984912, ,1.4920978546142578
0.011893150340837972,0.020714573219169446,-0.08594624659833118, ,0.012185417564426407,0.020463788662068164,-0.08636647645189582, ,0.0005700053981249128, ,0.002853301160668194,0.00026319206101066135,-0.01058214181699581,0.040487037379804976,0.023855678644545467,-0.014978838767389282, ,0.010963225939907508, ,0.04699248308704782, ,6.166421043053236e-05, ,0.2062278586732913,-0.1796925485174559,0.09965229375000001,2.260038210876204,1.0130230092609755,-0.8951525521641841, ,0.010408392160250917,0.020238204640322194,0.011107957824267782,-0.011372492800967329,0.05897308294093933,-0.04723884230889333, ,1.500234842300415
0.011893150340837972,0.020714573219169446,-0.08594624659833118, ,0.012213854875249164,0.02046428251773123,-0.08646019603395856, ,0.0006554699504935658, ,0.002853301160668194,0.00026319206101066135,-0.01058214181699581,0.040487037379804976,0.023855678644545467,-0.014978838767389282, ,0.010963225939907508, ,0.04699248308704782, ,6.221966302397182e-05, ,0.20632825420065623,-0.17949175746272605,0.09976766356000001,2.25940914104575,1.0131596457607408,-0.8952639700678804, ,0.009738727770634175,0.01990288203826988,0.012076430265352543,-0.016200334821182275,0.029055600884486464,-0.022880834364073902, ,1.5077059268951416
0.011922276620729522,0.020714323751218264,-0.08606053270264567, ,0.012242323320136125,0.020464768233474217,-0.08655374829415932, ,0.00063872487500466, ,0.0031284521250197167,0.00038330694689360924,-0.01174148894994887,0.007851063295441059,0.005338582555513585,0.0011008815744440988, ,0.012157166597355187, ,0.009494179027767728, ,6.274648224411881e-05, ,0.20632825420065623,-0.17949175746272605,0.09976766356000001,2.25940914104575,1.0131596457607408,-0.8952639700678804, ,0.009738727770634175,0.01990288203826988,0.012076430265352543,-0.016200334821182275,0.029055600884486464,-0.022880834364073902, ,1.5154638290405273
0.011932743580562854,0.02071634749485147,-0.08609746429141607, ,0.01227082272022093,0.02046524584636343,-0.0866471332068596, ,0.0006924488855866702, ,0.0031722889782445467,0.000518386004001921,-0.011720290032860223,0.003822137084143921,0.0022026408921609502,0.004000584905179672, ,0.012153079439590594, ,0.004411364600363192, ,6.3339846433111e-05, ,0.20635914513215312,-0.17943769833260648,0.09980525597,2.25940914104575,1.0131596457607408,-0.8953456488080209, ,0.010067572836672055,0.01820041073234959,0.012058146495079488,-0.016200334821182275,0.024217721285235565,-0.018041208926615114, ,1.5238938331604004
0.011996118734539683,0.02072552477782305,-0.08632503142484209, ,0.012299352896994947,0.02046571539347075,-0.08674035074689278, ,0.0005761440902639811, ,0.0037387920844850994,0.0003918851781452917,-0.013724143950968978,-0.025828558821157,-0.01730006288071164,0.03786920071871998, ,0.014229696673885104, ,0.031087073512468557, ,6.37713767867628e-05, ,0.20655993618688295,-0.1790978980861406,0.10003599559000001,2.258989761158781,1.0131596457607408,-0.8953456488080209, ,0.012391870143440948,0.02106948080783099,0.013899486492146597,-0.04419657959464279,0.004357603862022784,-0.0019307791075318286, ,1.5319128036499023
0.012033845026099534,0.0207310480502246,-0.08645680994666592, ,0.012327913672306763,0.020466176911872178,-0.0868334008895631, ,0.0005463092776865896, ,0.003871106355428951,0.0006317369410646372,-0.012797116149861064,-0.01685059429496533,-0.011376346199289355,-0.003875477858867456, ,0.013384720308276261, ,0.02033134126734164, ,6.415864243907601e-05, ,0.20669122264574477,-0.17889710703141076,0.10017080975,2.258780071215296,1.0132962822605063,-0.8954570667117174, ,0.013473937463931673,0.019502043065859183,0.013067113634126335,0.0,0.0029548974346656157,-0.000828115080802157, ,1.5392889976501465
0.012033845026099534,0.0207310480502246,-0.08645680994666592, ,0.012356504868362147,0.020466630438649082,-0.08692628361064558, ,0.0006280378717010018, ,0.003871106355428951,0.0006317369410646372,-0.012797116149861064,-0.01685059429496533,-0.011376346199289355,-0.003875477858867456, ,0.013384720308276261, ,0.02033134126734164, ,6.464991664799758e-05, ,0.20669122264574477,-0.17889710703141076,0.10017080975,2.258780071215296,1.0132962822605063,-0.8954570667117174, ,0.013473937463931673,0.019502043065859183,0.013067113634126335,0.0,0.0029548974346656157,-0.000828115080802157, ,1.5489709377288818
0.012105604056638984,0.020740344183756976,-0.08669136874405574, ,0.01238512630772364,0.020467076010887063,-0.0870189988863852, ,0.0005100487166123626, ,0.003396439811755421,0.0002278885449761767,-0.010925369602992887,0.018210951188217455,0.008879425438230754,-0.01559702546041741, ,0.011443401484952345, ,0.02026037471596774, ,6.498077066118227e-05, ,0.20696151829634263,-0.17848007945620264,0.10041451227,2.258989761158781,1.0139794647593336,-0.8960141562301995, ,0.014054641818493894,0.021046117001213303,0.011353393813257305,-0.0018884567777381663,0.03747776365508541,-0.029053340933207373, ,1.5590407848358154
0.012105604056638984,0.020740344183756976,-0.08669136874405574, ,0.012413777813310302,0.020467513665677096,-0.08711154669349708, ,0.0005881811498963361, ,0.003396439811755421,0.0002278885449761767,-0.010925369602992887,0.018210951188217455,0.008879425438230754,-0.01559702546041741, ,0.011443401484952345, ,0.02026037471596774, ,6.541042781727077e-05, ,0.20696151829634263,-0.17848007945620264,0.10041451227,2.258989761158781,1.0139794647593336,-0.8960141562301995, ,0.014054641818493894,0.021046117001213303,0.011353393813257305,-0.0018884567777381663,0.03747776365508541,-0.029053340933207373, ,1.56642484664917
0.012140841543099598,0.020741673766761313,-0.08680003654910803, ,0.012442459208397597,0.0204679434401146,-0.08720392700916521, ,0.0005736105050215958, ,0.003272885822130177,5.850603780016561e-05,-0.010422649996923487,0.0021745033209574346,0.0006006587245225758,-0.009594483913444002, ,0.010924597819578026, ,0.0022559105922579765, ,6.581663718413602e-05, ,0.20710052748807867,-0.17827156566859859,0.10052469692,2.258989761158781,1.0139794647593336,-0.8960141562301995, ,0.013222368894868438,0.021306003942180237,0.010704846451612904,-0.0023957808871083097,0.022791191738148885,-0.01711280797733495, ,1.5740318298339844
0.012175806088728338,0.020739480163852166,-0.08691225304656093, ,0.012471170316616945,0.020468365371300166,-0.08729613981104298, ,0.0005550786483024193, ,0.003335617022879214,6.5832682808629125e-06,-0.010741998928888092,-0.005510674978079704,-0.0025712204782615375,-0.009580303811454659, ,0.01124797427321808, ,0.0060810007755629425, ,6.619463213176021e-05, ,0.2072395366798147,-0.17803216094949761,0.10063747415,2.258780071215296,1.0139794647593336,-0.8960141562301995, ,0.012724180954474494,0.022397201217481892,0.01096270579490709,-4.2601191243054644e-05,0.016137718735692877,-0.011722623365057253, ,1.5817608833312988
0.01219220289048937,0.0207401027637877,-0.08696639581769963, ,0.012499910961955359,0.02046877949633784,-0.08738818507725096, ,0.0005883933651715035, ,0.0035649689859632103,0.00010209407322967737,-0.011408031023385187,-0.022561441597498552,-0.01285503201941002,-0.003047650484792088, ,0.011952514333862439, ,0.025966715270838096, ,6.661166156042576e-05, ,0.2073013185428085,-0.1779240426892585,0.10069321462000001,2.258780071215296,1.014116101259099,-0.8961255741338958, ,0.013040668071797552,0.022125656693511492,0.011542617043478264,-0.00039579759073344456,0.0,0.0014209376752457711, ,1.592108964920044
0.012236611846093275,0.020735246000065616,-0.08712334821457582, ,0.012528680968755436,0.02046918585233742,-0.08748006278637858, ,0.0005322947119390013, ,0.0028017088314799253,-0.00033956888526687126,-0.009448701897931516,0.02092335686346627,0.011547378413945123,0.0028332962989755304, ,0.009861178781474791, ,0.023898299842444945, ,6.703843913071808e-05, ,0.2074866641317899,-0.17757651970991836,0.10085395458000002,2.2581510013848427,1.0146626472581608,-0.8964895670085411, ,0.012388634668207674,0.022729806361310365,0.009778275948434624,-0.024936160540985526,0.04578317682893345,-0.036121510723482624, ,1.5995018482208252
0.012236611846093275,0.020735246000065616,-0.08712334821457582, ,0.01255748016171488,0.020469584476412613,-0.08757177291748215, ,0.0006120598298337464, ,0.0028017088314799253,-0.00033956888526687126,-0.009448701897931516,0.02092335686346627,0.011547378413945123,0.0028332962989755304, ,0.009861178781474791, ,0.023898299842444945, ,6.756394362233137e-05, ,0.20763339605640016,-0.17733711499081742,0.10095376891,2.2581510013848427,1.0147992837579263,-0.8966009849122374, ,0.01427665737302103,0.02383147703628096,0.00981442484288355,-0.024936160540985526,0.03296896685020803,-0.02570380562758353, ,1.6087679862976074
0.012269946323017002,0.020732063668972196,-0.08722156088692308, ,0.012586308365886393,0.020469975405681906,-0.08766331545008489, ,0.0006032597235000007, ,0.003049209039777854,-0.0004555588682183544,-0.009574658736730496,0.006166713119504473,0.0017859504080414421,0.007463882730982294, ,0.010058792152914036, ,0.0064201159718101156, ,6.807422119256451e-05, ,0.20763339605640016,-0.17733711499081742,0.10095376891,2.2581510013848427,1.0147992837579263,-0.8966009849122374, ,0.01427665737302103,0.02383147703628096,0.00981442484288355,-0.024936160540985526,0.03296896685020803,-0.02570380562758353, ,1.6144578456878662
0.01230363547664395,0.020727153813509397,-0.08732383524807165, ,0.012615165406677151,0.02047035867726749,-0.08775469036417655, ,0.0005904496340736908, ,0.0035952966472525515,-3.852784360519894e-05,-0.010573638744989717,0.004054206756326233,0.0030923430044960286,-0.03503948567504049, ,0.011168235253880804, ,0.005098925917652353, ,6.85643569419249e-05, ,0.20778012798101042,-0.17708998753884223,0.10105617582000001,2.2579413114413582,1.0147992837579263,-0.8966009849122374, ,0.014823014926346575,0.024183726187174,0.010872908887372013,0.023386032033817325,0.022121509569170656,-0.016886515116040182, ,1.619940996170044
0.01230363547664395,0.020727153813509397,-0.08732383524807165, ,0.012644051109848908,0.020470734328297442,-0.08784589764021287, ,0.0006739309289644712, ,0.0035952966472525515,-3.852784360519894e-05,-0.010573638744989717,0.004054206756326233,0.0030923430044960286,-0.03503948567504049, ,0.011168235253880804, ,0.005098925917652353, ,6.915631377901555e-05, ,0.20778012798101042,-0.17708998753884223,0.10105617582000001,2.2579413114413582,1.0147992837579263,-0.8966009849122374, ,0.014823014926346575,0.024183726187174,0.010872908887372013,0.023386032033817325,0.022121509569170656,-0.016886515116040182, ,1.6255738735198975
0.012341382274396063,0.020728752735953017,-0.08743768556305077, ,0.012672965301517385,0.020471102395903103,-0.08793693725911501, ,0.0006523674253254803, ,0.004071650056932704,-2.0745176839260214e-05,-0.012925191354351842,-0.029254999121752046,-0.01952762582753275,0.01569032016045578, ,0.013551359197331234, ,0.035173609188447516, ,6.971663932560047e-05, ,0.2079268599056207,-0.1768583055526155,0.10117284192,2.2581510013848427,1.0149359202576917,-0.8967124028159339, ,0.016086953985162026,0.024926961270940576,0.013056402885245903,-0.020707627503587,0.0,0.0011250367803780016, ,1.6310789585113525
0.012341382274396063,0.020728752735953017,-0.08743768556305077, ,0.012701907808152012,0.020471462917219706,-0.0880278092022688, ,0.0007378499989006957, ,0.004071650056932704,-2.0745176839260214e-05,-0.012925191354351842,-0.029254999121752046,-0.01952762582753275,0.01569032016045578, ,0.013551359197331234, ,0.035173609188447516, ,7.03800020369228e-05, ,0.2079268599056207,-0.1768583055526155,0.10117284192,2.2581510013848427,1.0149359202576917,-0.8967124028159339, ,0.016086953985162026,0.024926961270940576,0.013056402885245903,-0.020707627503587,0.0,0.0011250367803780016, ,1.6382999420166016
0.01237190563434988,0.020731779167708693,-0.08753777526859195, ,0.012730878456575952,0.0204718159293883,-0.08811851345152512, ,0.0007305471986747272, ,0.004542146405535959,0.0005297359284817411,-0.015354399984259182,-0.01429259719345727,-0.011129498529758936,0.008958643968446572, ,0.0160209023778271, ,0.01811472380787279, ,7.102926102762775e-05, ,0.20804270089873406,-0.17668068269650833,0.10127654512,2.2581510013848427,1.0152091932572225,-0.8969352386233267, ,0.01601906508414429,0.02425790939633711,0.01569341036453202,-0.018745680851674527,0.013004888987101207,-0.009498643108142368, ,1.6452858448028564
0.012436104709320727,0.020745685096321426,-0.087762423795495, ,0.012759877073965548,0.02047216146955265,-0.08820904998919873, ,0.0006157261366961242, ,0.0049319065181746505,0.001268127506599168,-0.018068127407401144,0.03253478258468618,0.01596403955354065,-0.010929828869978292, ,0.018772029120132098, ,0.03624031886037134, ,7.15306786535471e-05, ,0.20825121468633812,-0.17636405064866512,0.10150987732000001,2.2581510013848427,1.0157557392562842,-0.8973809102381125, ,0.015430397001377364,0.023111773394659224,0.01885066452071006,-0.014514131190883819,0.054954357485924206,-0.043738712704813824, ,1.6518340110778809
0.012436104709320727,0.020745685096321426,-0.087762423795495, ,0.012788903487850117,0.020472499574861473,-0.08829941879806782, ,0.0006981840302208073, ,0.0049319065181746505,0.001268127506599168,-0.018068127407401144,0.03253478258468618,0.01596403955354065,-0.010929828869978292, ,0.018772029120132098, ,0.03624031886037134, ,7.21306687208674e-05, ,0.20825121468633812,-0.17636405064866512,0.10150987732000001,2.2581510013848427,1.0157557392562842,-0.8973809102381125, ,0.015430397001377364,0.023111773394659224,0.01885066452071006,-0.014514131190883819,0.054954357485924206,-0.043738712704813824, ,1.657486915588379
0.012485737220364434,0.02075438935202009,-0.08793851693902757, ,0.012817957526111715,0.020472830282467516,-0.0883896198613739, ,0.00062700852286674, ,0.004808060766867817,0.0007218446911437335,-0.016879422821406007,-0.0011997772244404187,-2.9563529991609872e-05,-0.01282658516178152, ,0.01756568879605431, ,0.001199570413930994, ,7.26382293101185e-05, ,0.20840566934382262,-0.17611692319668995,0.10169006163000001,2.2579413114413582,1.0158923757560496,-0.8974923281418088, ,0.014726403097217686,0.026500123305911973,0.01733276552774755,-0.0009882043933420572,0.023901524366782567,-0.01844083579608097, ,1.6632838249206543
0.012485737220364434,0.02075438935202009,-0.08793851693902757, ,0.012847039016984993,0.020473153629527948,-0.08847965316282119, ,0.0007088447873466665, ,0.004808060766867817,0.0007218446911437335,-0.016879422821406007,-0.0011997772244404187,-2.9563529991609872e-05,-0.01282658516178152, ,0.01756568879605431, ,0.001199570413930994, ,7.32428230286115e-05, ,0.20840566934382262,-0.17611692319668995,0.10169006163000001,2.2579413114413582,1.0158923757560496,-0.8974923281418088, ,0.015036751950320199,0.026724004944655246,0.015257482298850577,-0.02309052033426697,0.015126328085506418,-0.011310401787372096, ,1.6696538925170898
0.01253580733555308,0.020757204197457108,-0.08811561376788471, ,0.012876147789056453,0.02047346965320293,-0.08856951868657553, ,0.0006343237273709143, ,0.004364219009863715,0.00018456620852422452,-0.01498900495664229,-0.015288491563088664,-0.009596833569524742,0.011743599416748348, ,0.015612518753924108, ,0.018050939926769285, ,7.375152886699811e-05, ,0.20856784673418133,-0.1758234593474694,0.10186894965000001,2.2575219315543893,1.0158923757560496,-0.8974923281418088, ,0.015036751950320199,0.026724004944655246,0.015257482298850577,-0.02309052033426697,0.015126328085506418,-0.011310401787372096, ,1.6752729415893555
0.01253580733555308,0.020757204197457108,-0.08811561376788471, ,0.012905283671264828,0.020473778390657876,-0.08865921641726525, ,0.0007157840393752282, ,0.004364219009863715,0.00018456620852422452,-0.01498900495664229,-0.015288491563088664,-0.009596833569524742,0.011743599416748348, ,0.015612518753924108, ,0.018050939926769285, ,7.435608810021844e-05, ,0.20856784673418133,-0.1758234593474694,0.10186894965000001,2.2575219315543893,1.0158923757560496,-0.8974923281418088, ,0.015036751950320199,0.026724004944655246,0.015257482298850577,-0.02309052033426697,0.015126328085506418,-0.011310401787372096, ,1.681980848312378
0.012588578385749814,0.02075862948014933,-0.0882852029210695, ,0.012934446492900285,0.02047407987906142,-0.08874874633997931, ,0.0006445663070916223, ,0.004418390953952984,3.865892371086952e-05,-0.013739747901050288,-0.020065468434917987,-0.016167636600081216,0.014084840067586835, ,0.014432752527455454, ,0.02576848864574493, ,7.486948401104787e-05, ,0.2087763605217854,-0.17550682729962622,0.10204265251000001,2.257312241610905,1.0161656487555806,-0.8977151639492018, ,0.018252922015478127,0.02565475576060308,0.01398490914837577,-0.023159914567344914,0.009680027021760093,-0.0068953820227105524, ,1.6897778511047363
0.012646067980853702,0.020759324614476177,-0.08845249824473857, ,0.012963636083604433,0.020474374155586367,-0.08883810844026796, ,0.0005751012839512956, ,0.0036951596300836462,-0.0003865105815899267,-0.010813244896219456,0.02900799227625573,0.011503021574340178,-0.0036417673693074472, ,0.011433715944831627, ,0.031205495884588194, ,7.529483938958932e-05, ,0.20904665617238324,-0.1751593043202861,0.10221765166,2.257312241610905,1.016848831254408,-0.8982722534676839, ,0.018968007507189844,0.02591396547200185,0.011297029446808512,-0.023159914567344914,0.055848554846808666,-0.044571519007430394, ,1.69569993019104
0.012646067980853702,0.020759324614476177,-0.08845249824473857, ,0.012992852273369881,0.020474661257409023,-0.08892730270414106, ,0.0006532471561830079, ,0.0036951596300836462,-0.0003865105815899267,-0.010813244896219456,0.02900799227625573,0.011503021574340178,-0.0036417673693074472, ,0.011433715944831627, ,0.031205495884588194, ,7.590338355109518e-05, ,0.20904665617238324,-0.1751593043202861,0.10221765166,2.257312241610905,1.016848831254408,-0.8982722534676839, ,0.018968007507189844,0.02591396547200185,0.011297029446808512,-0.023159914567344914,0.055848554846808666,-0.044571519007430394, ,1.6994438171386719
0.012646067980853702,0.020759324614476177,-0.08845249824473857, ,0.013022094892540184,0.020474941221710244,-0.08901632911806902, ,0.0007349662618883366, ,0.0036951596300836462,-0.0003865105815899267,-0.010813244896219456,0.02900799227625573,0.011503021574340178,-0.0036417673693074472, ,0.011433715944831627, ,0.031205495884588194, ,7.660768245784172e-05, ,0.20904665617238324,-0.1751593043202861,0.10221765166,2.257312241610905,1.016848831254408,-0.8982722534676839, ,0.018968007507189844,0.02591396547200185,0.011297029446808512,-0.023159914567344914,0.055848554846808666,-0.044571519007430394, ,1.7031688690185547
0.012684438285217054,0.020755060236160687,-0.08856515481495046, ,0.01305136377180937,0.020475214085674393,-0.08910518766898119, ,0.0007103405268500325, ,0.004188058194395498,-0.0005607534380206005,-0.012990806867607679,-0.007031115799931988,-0.005079537163173095,0.00412351644504845, ,0.013660722489289432, ,0.008673979317595795, ,7.727891759270237e-05, ,0.2092165562956162,-0.174881285936814,0.10233302147000001,2.257312241610905,1.0171221042539387,-0.8984950892750767, ,0.017901705632610974,0.03116484123430896,0.013218930721991703,-0.020711736214124744,0.026442619994712594,-0.020612115117067207, ,1.7072718143463135
0.012684438285217054,0.020755060236160687,-0.08856515481495046, ,0.013080658742221696,0.020475479886489296,-0.08919387834426591, ,0.0007940082485630864, ,0.004188058194395498,-0.0005607534380206005,-0.012990806867607679,-0.007031115799931988,-0.005079537163173095,0.00412351644504845, ,0.013660722489289432, ,0.008673979317595795, ,7.804748780108901e-05, ,0.2092165562956162,-0.174881285936814,0.10233302147000001,2.257312241610905,1.0171221042539387,-0.8984950892750767, ,0.017901705632610974,0.03116484123430896,0.013218930721991703,-0.020711736214124744,0.026442619994712594,-0.020612115117067207, ,1.7110388278961182
0.012684438285217054,0.020755060236160687,-0.08856515481495046, ,0.013109979635171413,0.020475738661346433,-0.0892824011317697, ,0.0008795159246247118, ,0.004188058194395498,-0.0005607534380206005,-0.012990806867607679,-0.007031115799931988,-0.005079537163173095,0.00412351644504845, ,0.013660722489289432, ,0.008673979317595795, ,7.891489901094816e-05, ,0.20941734735034603,-0.17457237662184505,0.10249116885000001,2.257312241610905,1.0171221042539387,-0.8984950892750767, ,0.020165095953776194,0.03072092637049879,0.017679036093229746,-0.01742164093708207,0.01589389593248923,-0.012029594984106344, ,1.7155869007110596
0.01273593122499474,0.02075495214171321,-0.08872121410182164, ,0.013139326282402572,0.020475990447441608,-0.08937075601979748, ,0.0008139114831599814, ,0.005376814475174738,0.0002466829238584891,-0.017317808887234207,-0.01718102259731816,-0.01325577362402028,0.005057556064888474, ,0.01813497976343343, ,0.021700265303202137, ,7.969968571565879e-05, ,0.20941734735034603,-0.17457237662184505,0.10249116885000001,2.257312241610905,1.0171221042539387,-0.8984950892750767, ,0.020165095953776194,0.03072092637049879,0.017679036093229746,-0.01742164093708207,0.01589389593248923,-0.012029594984106344, ,1.7200648784637451
0.01273593122499474,0.02075495214171321,-0.08872121410182164, ,0.013168698516008614,0.020476235281973617,-0.08945894299711114, ,0.0008995635269505185, ,0.005376814475174738,0.0002466829238584891,-0.017317808887234207,-0.01718102259731816,-0.01325577362402028,0.005057556064888474, ,0.01813497976343343, ,0.021700265303202137, ,8.058293649790128e-05, ,0.20941734735034603,-0.17457237662184505,0.10249116885000001,2.257312241610905,1.0171221042539387,-0.8984950892750767, ,0.020165095953776194,0.03072092637049879,0.017679036093229746,-0.01742164093708207,0.01589389593248923,-0.012029594984106344, ,1.7241737842559814
0.01273593122499474,0.02075495214171321,-0.08872121410182164, ,0.01319809616843207,0.02047647320214478,-0.08954696205292993, ,0.0009864109860930833, ,0.005376814475174738,0.0002466829238584891,-0.017317808887234207,-0.01718102259731816,-0.01325577362402028,0.005057556064888474, ,0.01813497976343343, ,0.021700265303202137, ,8.156537115635043e-05, ,0.20961041567220165,-0.17427119003975028,0.10267653832000001,2.25710255166742,1.0172587407537041,-0.898606507178773, ,0.020126604784405255,0.030328201201173147,0.020137561972187107,-0.007797447915398475,0.0,0.0009127216490136287, ,1.7286570072174072
0.012790660823174978,0.020759145997233774,-0.08890287251661226, ,0.013227519072464482,0.02047670424516114,-0.08963481317692926, ,0.0008979730527757668, ,0.006011392720733039,0.0007277804756098886,-0.019772672925833824,-0.03179543479181619,-0.021313813954970284,0.0019227341764541973, ,0.020679098178972, ,0.03827826167267653, ,8.243810549181725e-05, ,0.20961041567220165,-0.17427119003975028,0.10267653832000001,2.25710255166742,1.0172587407537041,-0.898606507178773, ,0.020126604784405255,0.030328201201173147,0.020137561972187107,-0.007797447915398475,0.0,0.0009127216490136287, ,1.7328519821166992
0.012854192303819501,0.020766612408739296,-0.08913428064233206, ,0.0132569670612461,0.020476928448232762,-0.08972249635924129, ,0.0007695076554614941, ,0.006377035063199321,0.0009294871377194271,-0.022920987256036217,0.01577833440281044,0.0018817826650505316,0.034952146491307186, ,0.023809707669936526, ,0.015889953303280663, ,8.315449345920808e-05, ,0.20983437492555415,-0.17393911252615862,0.10291505568,2.256263791893482,1.0178052867527658,-0.8990521787935588, ,0.022187734757650405,0.03207061221982791,0.023703588571428576,-0.06517765604983801,0.05717110256286017,-0.04572595353442229, ,1.7370989322662354
0.012854192303819501,0.020766612408739296,-0.08913428064233206, ,0.013286439968265375,0.02047714584857255,-0.08981001159045304, ,0.0008527844083484196, ,0.006377035063199321,0.0009294871377194271,-0.022920987256036217,0.01577833440281044,0.0018817826650505316,0.034952146491307186, ,0.023809707669936526, ,0.015889953303280663, ,8.396593012756506e-05, ,0.20983437492555415,-0.17393911252615862,0.10291505568,2.256263791893482,1.0178052867527658,-0.8990521787935588, ,0.022187734757650405,0.03207061221982791,0.023703588571428576,-0.06517765604983801,0.05717110256286017,-0.04572595353442229, ,1.7409029006958008
0.012854192303819501,0.020766612408739296,-0.08913428064233206, ,0.013315937627358753,0.020477356483396103,-0.08989735886160656, ,0.0009376385779646974, ,0.006377035063199321,0.0009294871377194271,-0.022920987256036217,0.01577833440281044,0.0018817826650505316,0.034952146491307186, ,0.023809707669936526, ,0.015889953303280663, ,8.487360314373199e-05, ,0.20983437492555415,-0.17393911252615862,0.10291505568,2.256263791893482,1.0178052867527658,-0.8990521787935588, ,0.022187734757650405,0.03207061221982791,0.023703588571428576,-0.06517765604983801,0.05717110256286017,-0.04572595353442229, ,1.7447068691253662
0.012924859380682736,0.020778255109062303,-0.08937808362188397, ,0.013345459872710805,0.02047756038992397,-0.0899845381641994, ,0.0007969373876955195, ,0.007345293431435004,0.0010925140140672718,-0.02561562160616946,-0.002622232944798782,-0.010625782593434576,0.03617726990047335, ,0.026670339194229817, ,0.010944054670703017, ,8.561147394538854e-05, ,0.2100660569117809,-0.17359158954681853,0.10316653594000001,2.2560541019499976,1.0182151962520622,-0.8993047537645074, ,0.02550993052647064,0.03513400279839718,0.02637220450331126,-0.061767665938818585,0.04154246829988943,-0.034011697810775364, ,1.7484569549560547
0.012924859380682736,0.020778255109062303,-0.08937808362188397, ,0.013375006538853386,0.02047775760537907,-0.09007154949018267, ,0.0008796738737874615, ,0.007345293431435004,0.0010925140140672718,-0.02561562160616946,-0.002622232944798782,-0.010625782593434576,0.03617726990047335, ,0.026670339194229817, ,0.010944054670703017, ,8.644298911662877e-05, ,0.2100660569117809,-0.17359158954681853,0.10316653594000001,2.2560541019499976,1.0182151962520622,-0.8993047537645074, ,0.02550993052647064,0.03513400279839718,0.02637220450331126,-0.061767665938818585,0.04154246829988943,-0.034011697810775364, ,1.7521789073944092
0.013002731858460634,0.020793129252751542,-0.0896368647077162, ,0.013404577460665694,0.020477948166987562,-0.09015839283196121, ,0.0007299387571662624, ,0.007912309961512827,0.0015434695839003781,-0.02483068887069414,-0.011159593470271305,-0.014203876231505246,-0.03399664698042424, ,0.026106513690584855, ,0.018063144439260017, ,8.709527574301401e-05, ,0.2103286298295045,-0.17325951203322687,0.10343227539000001,2.255844412006513,1.0183518327518277,-0.8994161716682039, ,0.027739532756056937,0.03347334799240592,0.025609021736334413,0.02157947432722121,0.0159801339640375,-0.01316732818642958, ,1.756065845489502
0.013002731858460634,0.020793129252751542,-0.0896368647077162, ,0.013434172473373876,0.02047813211197891,-0.09024506818239311, ,0.0008094909940825272, ,0.007912309961512827,0.0015434695839003781,-0.02483068887069414,-0.011159593470271305,-0.014203876231505246,-0.03399664698042424, ,0.026106513690584855, ,0.018063144439260017, ,8.783744915726225e-05, ,0.2103286298295045,-0.17325951203322687,0.10343227539000001,2.255844412006513,1.0183518327518277,-0.8994161716682039, ,0.027739532756056937,0.03347334799240592,0.025609021736334413,0.02157947432722121,0.0159801339640375,-0.01316732818642958, ,1.7600607872009277
0.013002731858460634,0.020793129252751542,-0.0896368647077162, ,0.01346379141255083,0.02047830947758569,-0.09033157553478915, ,0.0008912410092145189, ,0.007912309961512827,0.0015434695839003781,-0.02483068887069414,-0.011159593470271305,-0.014203876231505246,-0.03399664698042424, ,0.026106513690584855, ,0.018063144439260017, ,8.867144229350933e-05, ,0.2103286298295045,-0.17325951203322687,0.10343227539000001,2.255844412006513,1.0183518327518277,-0.8994161716682039, ,0.027739532756056937,0.03347334799240592,0.025609021736334413,0.02157947432722121,0.0159801339640375,-0.01316732818642958, ,1.7637817859649658
0.013074305841932435,0.02080323924272502,-0.08986207412065951, ,0.01349343411411592,0.020478480301043975,-0.0904179148829129, ,0.0007681769533953305, ,0.007682805783218693,0.0008958455444057116,-0.023228378718805856,-0.005821847377711265,-0.011150731325995951,-0.03292643034079235, ,0.024482353274274164, ,0.012578789834201767, ,8.935845865258878e-05, ,0.21059892548010237,-0.172919711786761,0.10366560759000001,2.255844412006513,1.018761742251124,-0.899750425379293, ,0.029498583014756222,0.03709810068743971,0.02395310003007519,0.015936608476932065,0.025383423747249476,-0.020835080487564342, ,1.7675409317016602
0.013074305841932435,0.02080323924272502,-0.08986207412065951, ,0.013523100414334722,0.02047864461959315,-0.09050408622097925, ,0.0008479137777750942, ,0.007682805783218693,0.0008958455444057116,-0.023228378718805856,-0.005821847377711265,-0.011150731325995951,-0.03292643034079235, ,0.024482353274274164, ,0.012578789834201767, ,9.013478911717105e-05, ,0.21059892548010237,-0.172919711786761,0.10366560759000001,2.255844412006513,1.018761742251124,-0.899750425379293, ,0.029498583014756222,0.03709810068743971,0.02395310003007519,0.015936608476932065,0.025383423747249476,-0.020835080487564342, ,1.7714037895202637
0.013074305841932435,0.02080323924272502,-0.08986207412065951, ,0.013552790149818476,0.020478802470474,-0.09059008954365401, ,0.0009296305224118351, ,0.007682805783218693,0.0008958455444057116,-0.023228378718805856,-0.005821847377711265,-0.011150731325995951,-0.03292643034079235, ,0.024482353274274164, ,0.012578789834201767, ,9.100210502478388e-05, ,0.21059892548010237,-0.172919711786761,0.10366560759000001,2.255844412006513,1.018761742251124,-0.899750425379293, ,0.029498583014756222,0.03709810068743971,0.02395310003007519,0.015936608476932065,0.025383423747249476,-0.020835080487564342, ,1.775622844696045
0.013074305841932435,0.02080323924272502,-0.08986207412065951, ,0.013582503157524359,0.020478953890932447,-0.09067592484605523, ,0.001012807239404029, ,0.007682805783218693,0.0008958455444057116,-0.023228378718805856,-0.005821847377711265,-0.011150731325995951,-0.03292643034079235, ,0.024482353274274164, ,0.012578789834201767, ,9.196146187161352e-05, ,0.21059892548010237,-0.172919711786761,0.10366560759000001,2.255844412006513,1.018761742251124,-0.899750425379293, ,0.029498583014756222,0.03709810068743971,0.02395310003007519,0.015936608476932065,0.025383423747249476,-0.020835080487564342, ,1.7801508903503418
0.013192204812979332,0.020816029207928816,-0.09021572239564679, ,0.013612239274754684,0.02047909891821584,-0.09076159212374983, ,0.0007667624986032287, ,0.007312155152408032,0.0004864085597324863,-0.021318455771941306,0.013592186496556672,-0.002648704325758445,-0.025788288605121883, ,0.022542865007804266, ,0.013847698908411397, ,9.263293603619878e-05, ,0.21107001218543006,-0.17234050682119414,0.10403245766000001,2.2560541019499976,1.019444924749951,-0.900307514897775, ,0.031391644577727675,0.03719989869011007,0.022123349333333337,0.0,0.046733102918043314,-0.03824431229520361, ,1.784343957901001
0.013192204812979332,0.020816029207928816,-0.09021572239564679, ,0.013641998339157026,0.020479237589575483,-0.09084709137275603, ,0.000845203878150344, ,0.007312155152408032,0.0004864085597324863,-0.021318455771941306,0.013592186496556672,-0.002648704325758445,-0.025788288605121883, ,0.022542865007804266, ,0.013847698908411397, ,9.339148546847228e-05, ,0.21107001218543006,-0.17234050682119414,0.10403245766000001,2.2560541019499976,1.019444924749951,-0.900307514897775, ,0.031391644577727675,0.03719989869011007,0.022123349333333337,0.0,0.046733102918043314,-0.03824431229520361, ,1.7881758213043213
0.013269825100444124,0.020817829507600853,-0.09043487132288143, ,0.013671780188723462,0.020479369942264385,-0.09093242258954018, ,0.0007236574005115452, ,0.006969642340990656,-0.0002011884503911915,-0.019542992514566516,-0.025293170647123282,-0.021954346472309323,-0.01279990784979157, ,0.02074957704576899, ,0.033492311948948424, ,9.400716715376426e-05, ,0.21140981243189597,-0.17193120197886025,0.10425801212000001,2.2560541019499976,1.019718197749482,-0.9006120294453086, ,0.03028948022932358,0.03988942478287969,0.019960916691729325,0.0,0.013297737966191523,-0.010008855705072138, ,1.792003870010376
0.013269825100444124,0.020817829507600853,-0.09043487132288143, ,0.013701584661790918,0.020479496013539458,-0.09101758577101864, ,0.000800276202373916, ,0.006969642340990656,-0.0002011884503911915,-0.019542992514566516,-0.025293170647123282,-0.021954346472309323,-0.01279990784979157, ,0.02074957704576899, ,0.033492311948948424, ,9.481618093981254e-05, ,0.21140981243189597,-0.17193120197886025,0.10425801212000001,2.2560541019499976,1.019718197749482,-0.9006120294453086, ,0.03028948022932358,0.03988942478287969,0.019960916691729325,0.0,0.013297737966191523,-0.010008855705072138, ,1.7939319610595703
0.013269825100444124,0.020817829507600853,-0.09043487132288143, ,0.013731411597040475,0.020479615840659927,-0.0911025809145561, ,0.0008793672026861563, ,0.006969642340990656,-0.0002011884503911915,-0.019542992514566516,-0.025293170647123282,-0.021954346472309323,-0.01279990784979157, ,0.02074957704576899, ,0.033492311948948424, ,9.571383657110125e-05, ,0.21140981243189597,-0.17193120197886025,0.10425801212000001,2.2560541019499976,1.019718197749482,-0.9006120294453086, ,0.03028948022932358,0.03988942478287969,0.019960916691729325,0.0,0.013297737966191523,-0.010008855705072138, ,1.7958979606628418
0.013269825100444124,0.020817829507600853,-0.09043487132288143, ,0.01376126083349718,0.020479729460887858,-0.09118740801796495, ,0.0009602771468466516, ,0.006969642340990656,-0.0002011884503911915,-0.019542992514566516,-0.025293170647123282,-0.021954346472309323,-0.01279990784979157, ,0.02074957704576899, ,0.033492311948948424, ,9.670190892570188e-05, ,0.21140981243189597,-0.17193120197886025,0.10425801212000001,2.2560541019499976,1.019718197749482,-0.9006120294453086, ,0.03028948022932358,0.03988942478287969,0.019960916691729325,0.0,0.013297737966191523,-0.010008855705072138, ,1.7977910041809082
0.013269825100444124,0.020817829507600853,-0.09043487132288143, ,0.013791132210529647,0.02047983691148744,-0.09127206707950514, ,0.0010425434441604562, ,0.006969642340990656,-0.0002011884503911915,-0.019542992514566516,-0.025293170647123282,-0.021954346472309323,-0.01279990784979157, ,0.02074957704576899, ,0.033492311948948424, ,9.778163670565023e-05, ,0.21140981243189597,-0.17193120197886025,0.10425801212000001,2.2560541019499976,1.019718197749482,-0.9006120294453086, ,0.03028948022932358,0.03988942478287969,0.019960916691729325,0.0,0.013297737966191523,-0.010008855705072138, ,1.7997379302978516
0.013339370085717263,0.020812807021686367,-0.09063500443096545, ,0.013821025567850328,0.02047993822972669,-0.09135655809788437, ,0.0009292111333672637, ,0.007634747303713572,-0.00034660634240767443,-0.022276519827683982,-0.03840677862971007,-0.02651711936756029,-0.010955863949604981, ,0.023551068722700387, ,0.04667154141986387, ,9.872967490024727e-05, ,0.2117109990139907,-0.1715064516707779,0.10446152965000001,2.255844412006513,1.0198548342492475,-0.900723447349005, ,0.030760759014091015,0.04611124468341632,0.02262615272727273,-0.0007217908751439838,0.006849648272309681,-0.004750870922293561, ,1.8016548156738281
0.013339370085717263,0.020812807021686367,-0.09063500443096545, ,0.013850940745514403,0.020480033452874847,-0.09144088107225624, ,0.0010108807788473226, ,0.007634747303713572,-0.00034660634240767443,-0.022276519827683982,-0.03840677862971007,-0.02651711936756029,-0.010955863949604981, ,0.023551068722700387, ,0.04667154141986387, ,9.97685713739911e-05, ,0.2117109990139907,-0.1715064516707779,0.10446152965000001,2.255844412006513,1.0198548342492475,-0.900723447349005, ,0.030760759014091015,0.04611124468341632,0.02262615272727273,-0.0007217908751439838,0.006849648272309681,-0.004750870922293561, ,1.803628921508789
0.013339370085717263,0.020812807021686367,-0.09063500443096545, ,0.013880877583920167,0.02048012261820457,-0.09152503600222071, ,0.0010936477864290325, ,0.007634747303713572,-0.00034660634240767443,-0.022276519827683982,-0.03840677862971007,-0.02651711936756029,-0.010955863949604981, ,0.023551068722700387, ,0.04667154141986387, ,0.00010089926445141436, ,0.2117109990139907,-0.1715064516707779,0.10446152965000001,2.255844412006513,1.0198548342492475,-0.900723447349005, ,0.030760759014091015,0.04611124468341632,0.02262615272727273,-0.0007217908751439838,0.006849648272309681,-0.004750870922293561, ,1.8056199550628662
0.013339370085717263,0.020812807021686367,-0.09063500443096545, ,0.01391083592380874,0.020480205762991536,-0.09160902288782426, ,0.001177246259578935, ,0.007634747303713572,-0.00034660634240767443,-0.022276519827683982,-0.03840677862971007,-0.02651711936756029,-0.010955863949604981, ,0.023551068722700387, ,0.04667154141986387, ,0.000561673123202326, ,0.2117109990139907,-0.1715064516707779,0.10446152965000001,2.255844412006513,1.0198548342492475,-0.900723447349005, ,0.030760759014091015,0.04611124468341632,0.02262615272727273,-0.0007217908751439838,0.006849648272309681,-0.004750870922293561, ,1.807520866394043
0.013339370085717263,0.020812807021686367,-0.09063500443096545, ,0.013940815606263113,0.02048028292451233,-0.09169284172955726, ,0.001261478790815801, ,0.007634747303713572,-0.00034660634240767443,-0.022276519827683982,-0.03840677862971007,-0.02651711936756029,-0.010955863949604981, ,0.023551068722700387, ,0.04667154141986387, ,0.0005660197422558258, ,0.2117109990139907,-0.1715064516707779,0.10446152965000001,2.255844412006513,1.0198548342492475,-0.900723447349005, ,0.030760759014091015,0.04611124468341632,0.02262615272727273,-0.0007217908751439838,0.006849648272309681,-0.004750870922293561, ,1.8094489574432373
0.013339370085717263,0.020812807021686367,-0.09063500443096545, ,0.013970816472708708,0.020480354140047233,-0.09177649252835571, ,0.0013461963209867815, ,0.007634747303713572,-0.00034660634240767443,-0.022276519827683982,-0.03840677862971007,-0.02651711936756029,-0.010955863949604981, ,0.023551068722700387, ,0.04667154141986387, ,0.0005708356470628071, ,0.21202763106183392,-0.17106625589694713,0.10470912104,2.255425032119544,1.0205380167480747,-0.9012805368674871, ,0.0357427275173148,0.0457114362035023,0.02949779911111111,-0.017010760988362655,0.093405152874506,-0.07533138965784499, ,1.81141996383667
