NicholasDascanio/dvrk_moveit_final/test/execution/third_experiment_notsharpbends/thirdexp_600vel3.0/thirdexp_600vel3.0_5.csv
Current Position (x),Current Position (y),Current Position (z), ,Planned Position (x),Planned Position (y),Planned Position (z), ,Position Error,,Cartesian linear Velocity(x),Cartesian linear Velocity(y),Cartesian linear Velocity(z),Cartesian Angular Velocity(x),Cartesian Angular Velocity(y),Cartesian Angular Velocity(z), ,Total Linear Velocity, ,Total Angular Velocity, ,MSE, ,Joint 1 Position,Joint 2 Position,Joint 3 Position,Joint 4 Position,Joint 5 Position,Joint 6 Position, ,Joint 1 Velocity,Joint 2 Velocity,Joint 3 Velocity,Joint 4 Velocity,Joint 5 Velocity,Joint 6 Velocity, ,Time Stamp
0.009892951838525569,0.020421049778713264,-0.07631465105432227, ,0.009919645971026037,0.020345649970886136,-0.07635613559483673, ,9.010368933632175e-05, ,1.5896785516755007e-05,-2.1665204352584107e-05,-5.804723268726637e-07,-0.09975711184265097,0.022862313419757287,0.03953597281610417, ,2.687798016085297e-05, ,0.10234337662052385, ,7.508640778026813e-06, ,0.17864997957943557,-0.24072530642245218,0.08699272561,1.9463420554233553,0.4689364671949916,-1.0712647398316202, ,0.0002098350710304665,0.0002753117402795432,-2.742330099689727e-06,0.0,7.771465545517388e-05,0.10952982461712923, ,0.021507978439331055
0.009874875037182,0.0204243172673841,-0.07630986136491201, ,0.009939920873845607,0.020346067720854552,-0.0764673788175193, ,0.00018752519904066098, ,-0.002341094612778713,0.0009265251380914467,-0.0005666976469627273,-0.23711996982131694,0.36856505756941826,0.22678850040574997, ,0.002580759392227408, ,0.43825344465184846, ,1.2619494926226488e-05, ,0.17865770231230982,-0.24070213822382952,0.08699531819,1.9463420554233553,0.4712592876910041,-1.064827612700122, ,0.00028761219349856236,0.0011371599224634886,0.0016847446064493523,0.0,0.32170709122777014,0.3738689559955244, ,0.0400848388671875
0.009818609675859017,0.020444490105663928,-0.07632243030032008, ,0.009960247727795342,0.020346484348541756,-0.07657845637950869, ,0.0003085706068472786, ,-0.002010781838636847,0.0011047577944279766,-0.0017824202968700156,-0.007977122135632342,0.3023294149704464,0.1299254234476025, ,0.0029052978335508636, ,0.302434636961313, ,1.8318734225758168e-05, ,0.17865770231230982,-0.24065580182658416,0.08703420689000001,1.9463420554233553,0.4789109316778688,-1.0602854216085673, ,0.00028761219349856236,0.0021815135717136057,0.002908840672023375,0.0,0.3084676298213728,0.11593224196613561, ,0.058554887771606445
0.009815910925784276,0.020462279839845998,-0.07640745411734512, ,0.00998062637239727,0.02034689984644335,-0.07668936822122821, ,0.00034629363724838943, ,0.0010138912066541975,0.0008791178593470341,-0.005503926773282266,0.28167587261981175,-0.06548743662852241,-0.11925994724904052, ,0.005665159619570039, ,0.28918834963956674, ,2.220221743982502e-05, ,0.17865770231230982,-0.24054768356634504,0.08712883606,1.9461323654798703,0.48123375217388126,-1.060382593688314, ,0.0002552319178410545,0.006021158419707443,0.005634528305624337,0.0,0.0,-0.31770826227291815, ,0.08016204833984375
0.009867935937192084,0.020467087809726222,-0.07652225001760943, ,0.010001056647414653,0.020347314207136955,-0.07680011428357642, ,0.0003305682829140529, ,0.004026359828778509,-8.621245972539968e-05,-0.006633088857904027,-0.07943391641850137,-0.3434523903679953,-0.12509561841399586, ,0.007759953212221306, ,0.3525184981163838, ,2.4289642603590457e-05, ,0.17865770231230982,-0.24039322890886053,0.08723124297000001,1.9461323654798703,0.4771346571809181,-1.0671682203548511, ,0.0002247648529930205,0.009008305034786595,0.005462555390946503,0.0,-0.3677961246698208,-0.0525561231304314, ,0.09894895553588867
0.009920228115791494,0.02046730075653951,-0.07662077161343676, ,0.01002153839284842,0.020347727423281718,-0.0769106945079269, ,0.00032957068894740396, ,0.0020612847102079697,0.00034221073437895925,-0.006440897334595734,0.04881790601493367,-0.1265930656295383,-0.07364092762608945, ,0.006771348559782148, ,0.135679741310494, ,2.5687614586033998e-05, ,0.17865770231230982,-0.24024649698425027,0.08731550182,1.9461323654798703,0.4726256526886585,-1.0679837602406002, ,0.0002065554366210521,0.011536400395509473,0.006098319877488516,0.0,-0.11513186881823485,-0.1070698402679453, ,0.12211489677429199
0.00993933255983169,0.02047194451063214,-0.07674996982361881, ,0.010042071448939177,0.020348139487618367,-0.07702110883612755, ,0.00031527658835170836, ,0.00032228366266540896,-0.0001560169678275846,-0.0041442810288100365,0.004128011566113308,0.047554628302525916,0.015424718160210144, ,0.004159720339064385, ,0.04773345945203294, ,2.6498731842858558e-05, ,0.17866542504518404,-0.2399144194706586,0.08744513082000001,1.9457129855929016,0.47317219868772026,-1.0673676082335586, ,-2.5737851534840986e-05,0.016002856923856792,0.004181888033604621,-0.004303874447500371,0.054506420620439304,-0.003436511786424651, ,0.14186596870422363
0.009940973836848173,0.020475664118677094,-0.07683772219753955, ,0.010062655656166444,0.020348550392969154,-0.07713135721050031, ,0.00034232423994280957, ,0.00047779093636137826,0.00013006724188984126,-0.004972703891963126,-0.006818257273443566,0.052201769149408585,0.021291382331013513, ,0.004997297836173779, ,0.05264516436990567, ,2.7441865032056412e-05, ,0.17865770231230982,-0.23963640108718653,0.08753716741,1.9457129855929016,0.47494847318467104,-1.0674275023992226, ,0.00026583571117221586,0.01507736599276625,0.005079340408163266,-0.004303874447500371,0.05677299837259957,0.01043884351059439, ,0.1630549430847168
0.009960242869935021,0.020476923905474276,-0.07695263596023887, ,0.01008329085524894,0.020348960132237914,-0.07724143957384044, ,0.00033900304007490855, ,0.0009613138260529391,6.981323872505725e-06,-0.005273839722000216,-0.044849910186302404,0.005382739253421167,0.01297959657260575, ,0.005360742338929458, ,0.04517176464905875, ,2.814386926851668e-05, ,0.17866542504518404,-0.23929660084072066,0.08765124093000001,1.9457129855929016,0.4752217461842019,-1.0666701933249285, ,0.0001975007143405537,0.015559426390960942,0.00518516,-0.004303874447500371,0.0,0.031748730925865526, ,0.18207287788391113
0.00998252123669567,0.02047481288508727,-0.07709937533344409, ,0.010103976887143432,0.020349368698409497,-0.07735135586941673, ,0.0003065646905727991, ,0.0011234329756122526,-0.00011492422373241169,-0.0051173251005899,-0.0009388626122099055,-0.03087608693653961,-0.011601371091024453, ,0.005240450878790958, ,0.030890357783750284, ,2.8390202581140527e-05, ,0.17867314777805826,-0.23883323686826718,0.08779642541,1.9452936057059325,0.47576829218326366,-1.0682593673016822, ,0.00020351740669741537,0.01546308319349369,0.00492846891089109,-0.00842762140295022,-0.025649063636870573,-0.026422091652772386, ,0.20975089073181152
0.010004836731914355,0.02047482385826012,-0.07721714820943999, ,0.010124713593045795,0.020349776084550318,-0.07746110604097053, ,0.0002992036615912117, ,0.0009162629560720331,-0.00018285058541676858,-0.004545884169774802,-0.03751960746390222,-0.009096786292157677,0.00905587375503861, ,0.00464090885778489, ,0.03860663755300633, ,2.852682432917451e-05, ,0.17867314777805826,-0.2384857138889271,0.08791179522,1.9452936057059325,0.4756316556834982,-1.0686380218388292, ,0.00020351740669741537,0.014979785565662315,0.004388102347107439,-0.00842762140295022,-0.012055092292540247,0.019245113015788438, ,0.22922897338867188
0.010015126287405852,0.020474772889559636,-0.07726495166158341, ,0.010145500814389478,0.020350182283807673,-0.07757069003271565, ,0.00035495955813365297, ,0.0008281645568564303,7.438866535724011e-05,-0.004814902525838976,-0.018056249428904995,-0.0007658450918030628,0.007264665449780036, ,0.004886171972014226, ,0.01807248349164083, ,2.9098064614763916e-05, ,0.17868087051093248,-0.23834670469719105,0.08795846166000001,1.9452936057059325,0.47549501918373277,-1.0686082826752734, ,-0.0003592693385564883,0.013037084978495778,0.0047463681525625745,-0.00842762140295022,0.0,0.004157955515941378, ,0.2510058879852295
0.010044685916690152,0.02048105210139758,-0.07743221014977551, ,0.010166338392847574,0.020350587289410204,-0.07768010778933734, ,0.0003054073211670953, ,0.000873823877991048,0.00013059472014195078,-0.005044785809010662,-0.012526270807960638,-0.0008543370164477747,0.0019796476249255074, ,0.005121570756073925, ,0.012555371313686996, ,2.9207357607335556e-05, ,0.17868087051093248,-0.23794512258773137,0.08812438678000001,1.9448742258189633,0.47549501918373277,-1.068689961415414, ,-0.0003487794167963972,0.013170984255165965,0.004988666307547761,-0.0049485349963659525,0.0002645990018535954,-0.00132834455523016, ,0.2719390392303467
0.01006013159117055,0.020481713221419357,-0.07752531451618175, ,0.010187226170329853,0.02035099109466725,-0.07778935925599269, ,0.0003208752578434517, ,0.0007918370878907993,5.639244005732928e-05,-0.004661317445074656,-0.013893303300910542,-0.0032564180068853353,0.011295608005098622, ,0.004728431706687992, ,0.014269832957888723, ,2.9410186352195385e-05, ,0.17868087051093248,-0.23782155886174378,0.08816846064000002,1.944664535875479,0.4756316556834982,-1.0688013793191102, ,-0.0003487794167963972,0.012437344896260914,0.004590435596541787,-0.014479675387926542,0.0,-0.0009338794585852205, ,0.29152798652648926
0.01007551382193123,0.02048700935626657,-0.0776220608120362, ,0.010208163988984574,0.0203513936929692,-0.07789844437830967, ,0.000335224627163505, ,0.0009399518515398085,0.00026913394320730475,-0.0052678505558965754,-0.004850602007410713,0.0007313217606947768,0.007468796279930698, ,0.005357815976856548, ,0.004905422234152269, ,2.9680730849837172e-05, ,0.17868087051093248,-0.237450867683781,0.08831364512,1.944664535875479,0.4759049286830291,-1.0689425363863625, ,0.0006697021593876532,0.012024075123046546,0.0052692065894806486,-0.011147942799491838,0.006198823681168136,-0.0076307088745857544, ,0.31286001205444336
0.010084241294922504,0.020490408068188064,-0.07767617141837525, ,0.010229151691197862,0.02035179507778715,-0.07800736310238705, ,0.0003871698795298223, ,0.0009774354733586522,0.0002959731445648622,-0.005786462141468814,-0.004563214824951104,0.00458284041165878,0.006685978810945546, ,0.005875893491336898, ,0.006467252066377379, ,3.0238524498179457e-05, ,0.17868087051093248,-0.23732730395779342,0.08836808930000001,1.944664535875479,0.4760415651827945,-1.0691356330301995, ,0.0006448585267955449,0.011271332781295008,0.005624580338983051,-0.01034468599856065,0.009684485052912402,-0.007897048188640331, ,0.3319728374481201
0.010111874577620025,0.020498937993990385,-0.07782415527616507, ,0.010250189119594029,0.020352195242673187,-0.07811611537479306, ,0.000358619951954745, ,0.0008623851546799655,0.00026758596606879254,-0.004941418511680943,-0.00016369181575676345,0.006328956738018483,-0.0026837612538883797, ,0.005023238727338415, ,0.006331073009852491, ,3.074421591029133e-05, ,0.17869631597668093,-0.23700294917707598,0.08851586636000001,1.9444548459319944,0.4760415651827945,-1.0692989905104806, ,0.0005516363073151912,0.011674902070243355,0.004959156762141968,0.0,0.009684485052912402,-0.009065645518787808, ,0.3552868366241455
0.010133675472922068,0.0205013250712263,-0.07795319620647766, ,0.010271276117033207,0.020352594181259516,-0.0782247011425667, ,0.00038624103826234734, ,0.0008736582789460228,9.129464970955201e-05,-0.005076391732265512,0.003940842741236931,0.0036663775624842976,-0.0005380411670217022, ,0.005151831375428563, ,0.005382616702935202, ,3.135278866067869e-05, ,0.17871176144242937,-0.2366631489306101,0.08864419907000001,1.9440354660450252,0.4763148381823254,-1.0699302200185763, ,0.0005204755614901899,0.01387990954489846,0.005047151939163498,-0.005596322565736433,0.009961660927050388,-0.01695452511844743, ,0.3731558322906494
0.01014930514040125,0.02050229221293254,-0.07804967398592909, ,0.010292412526615403,0.02035299188725947,-0.07833312035321537, ,0.0003508734164380635, ,0.000842724652064795,3.566570110223697e-05,-0.0045944595202386165,-0.023368012614648027,-0.0010332590692119239,-0.006104212396337743, ,0.004671243428097502, ,0.023390845128280466, ,3.171627182730279e-05, ,0.17871948417530362,-0.23639285328001225,0.08874012453,1.9438257761015407,0.4765881111818563,-1.0704797707865312, ,-0.0005183603974973676,0.013139980830583048,0.0045073037691001705,0.006332504670081961,-0.005796115879702532,0.010669608124440459, ,0.39687490463256836
0.010159138203249252,0.02050076693240706,-0.07810410533984327, ,0.01031359819167508,0.0203533883544662,-0.07844137295471564, ,0.0003991588371839845, ,0.0007767672345808151,-0.0001264878026283275,-0.004264865456066758,-0.024307182768512736,-0.0009536915888781537,-0.006273594059679751, ,0.004336870283889476, ,0.02432588457543899, ,3.229057683103138e-05, ,0.17871948417530362,-0.23621523042390508,0.08879327242000001,1.9438257761015407,0.4765881111818563,-1.0704797707865312, ,-0.0005982569484748682,0.01409430291971941,0.004141656661466459,0.006332504670081961,-0.005796115879702532,0.010669608124440459, ,0.4142310619354248
0.010181428978531913,0.020503472686039262,-0.07822513196677586, ,0.010334832955786594,0.02035378357675388,-0.0785494588955128, ,0.00038875129116203204, ,0.0010466069359387322,0.0002768697971694892,-0.005888082667704378,0.006335901004994526,0.006832303993560402,-0.012152777051024362, ,0.005986782146083189, ,0.009317940347962166, ,3.276466426911229e-05, ,0.17871176144242937,-0.23589859837606186,0.08891253110000001,1.9438257761015407,0.47645147468209087,-1.0702866741426944, ,0.0006926781284008088,0.014548051748960721,0.005899559822222223,0.006332504670081961,0.010752189273023524,-0.0177690554951416, ,0.43498682975769043
0.010199087930897103,0.020509962991622686,-0.07834659847766319, ,0.010356116662758562,0.020354177548076464,-0.07865737812452003, ,0.00038145919303560536, ,0.0008086815811444968,0.0002650755023495383,-0.006397142726100888,0.04072306642175387,0.03227145764437845,0.003950370144617075, ,0.006453500288969834, ,0.05195974505874734, ,3.3165484707138194e-05, ,0.17871948417530362,-0.2355896890610929,0.08903567865,1.9440354660450252,0.4771346571809181,-1.0710071211414576, ,0.0006491283837664986,0.016561420865352665,0.006504210502245815,-0.010770724925383774,0.049986084031847074,-0.047284276955269565, ,0.4540858268737793
0.010221313741364448,0.02051065374006461,-0.07846707137678183, ,0.010377449156638236,0.020354570262468275,-0.07876513059111774, ,0.0003709172618412707, ,0.0010047247815406718,0.000237447868586229,-0.00596561167151494,0.0078120232833095455,0.009591602355162526,0.008927946904252672, ,0.006054285754096297, ,0.012370389483069094, ,3.348738648259165e-05, ,0.1787503751068005,-0.2352730570132497,0.08915493733,1.9434063962145716,0.4772712936806835,-1.0712002177852946, ,0.0012691140059190105,0.014496935771229878,0.005995036326684231,-0.013798060612385197,0.02009681906700818,-0.01989081333373888, ,0.4724879264831543
0.0102436403294359,0.020509381909992346,-0.07858047561514604, ,0.010398830281708531,0.02035496171404367,-0.07887271624515396, ,0.0003651494269893285, ,0.0009637912065192176,6.133027207700151e-05,-0.004684618091513324,0.006599455705577432,0.015712838807920473,-0.04215457031234875, ,0.004783126755101807, ,0.01704247977136557, ,3.375987771612158e-05, ,0.1787812660382974,-0.23494870223253225,0.08926641827000001,1.9429870163276024,0.4772712936806835,-1.0713635752655757, ,0.0018090947437370206,0.015198100826148428,0.004683567044986769,0.04006187579134091,0.011785890487686471,-0.011976529336861094, ,0.49100494384765625
0.010259467151647774,0.020504990012613255,-0.07867962460768235, ,0.010420259882489513,0.02035535189699715,-0.07898013503694301, ,0.00037222625650416965, ,0.0010396876627563614,-6.160190703528769e-06,-0.005265005556601735,-0.0022928231702198662,0.007198385285222438,-0.028290986227103847, ,0.005366681646519051, ,0.007554719369950111, ,3.404130716903958e-05, ,0.1787812660382974,-0.23460117925319215,0.08936364002000001,1.9429870163276024,0.47754456668021433,-1.0716680898131092, ,0.001099987576935753,0.01664274667809028,0.005208898469587967,0.024418846520426505,0.004980324081095992,-0.009118887536478933, ,0.5084168910980225
0.010265264025549484,0.020504801709361392,-0.07871748644150542, ,0.01044173780373721,0.020355740805603068,-0.07908738691726593, ,0.000436106075840441, ,0.0010676971029676802,0.0001239110015662881,-0.0055906184477573645,0.002786507950631051,0.007006855348251703,-0.026703538117764988, ,0.0056930084901043055, ,0.007540599642529293, ,3.4556125864750235e-05, ,0.1787812660382974,-0.23448533826007878,0.08940123243,1.9429870163276024,0.4776812031799798,-1.0719428651970868, ,0.0009121320546939723,0.015919634550993253,0.0055636784910932605,0.021450494826916678,0.00643966520650439,-0.013987229368367795, ,0.5263960361480713
0.010293738667145131,0.020509636149933955,-0.0788670380068266, ,0.010463263890442944,0.020356128434215297,-0.07919447183736965, ,0.0003993949592864568, ,0.0012053609181781112,0.00025076406071264075,-0.006537558788343159,0.0013432000871898395,0.006215485473158911,-0.021002151636854517, ,0.006652477167811938, ,0.006358964868533996, ,3.489478420384489e-05, ,0.1788121569697943,-0.2341069243492418,0.08955030578,1.9429870163276024,0.4778178396797452,-1.0722993193212047, ,0.0006576685684495684,0.016795918859906334,0.006525527046292504,0.01533834187678069,0.006940366642595113,-0.014335356185281999, ,0.543086051940918
0.01031791296590228,0.020513736704325214,-0.07899440798117133, ,0.010484837987836547,0.020356514777268093,-0.07930138974896624, ,0.00038317163654659714, ,0.0011595838388045862,0.00024402773574890816,-0.006403006182257554,0.0018662728882486428,0.006969493065640023,-0.004852562232014799, ,0.006511733439343166, ,0.007215039661897686, ,3.515077893981523e-05, ,0.17883532516841696,-0.23377484683565014,0.08967734220000001,1.9431967062710873,0.4779544761795107,-1.0724924159650417, ,0.001202666114347846,0.015890311714412388,0.0064099845150905445,0.0,0.012438810292160877,-0.014917257314152658, ,0.5603179931640625
0.010341427908028297,0.020517301730288925,-0.07912873281568142, ,0.010506459941381273,0.020356899829274865,-0.07940814060423279, ,0.0003619848811548767, ,0.0010606853508761532,0.00010486580679812786,-0.005628819701164556,-0.005624661541845154,-0.00418581490587422,0.0001805239072039911, ,0.005728844689744778, ,0.00701126652153897, ,3.531431969499996e-05, ,0.1788507706341654,-0.23345821478780693,0.08981086007000001,1.9425676364406337,0.4780911126792762,-1.0727671913490193, ,0.00069910060324771,0.014541364014476064,0.005573412008397481,-0.0069038285209126185,0.0003769756362986788,-0.010760841316425452, ,0.5786788463592529
0.010350287206761222,0.02051783567708349,-0.07918351847499412, ,0.010528129596777657,0.020357283584828866,-0.07951472435581126, ,0.0004087813908459566, ,0.001012342454719548,2.1640496416618603e-05,-0.005652358650893554,-0.004095446830517012,0.0004412744047496971,0.0009812523993964492, ,0.005742339582003484, ,0.004119150649374358, ,3.5630127033857455e-05, ,0.1788507706341654,-0.23330376013032245,0.08986530425000001,1.9425676364406337,0.47822774917904154,-1.0730419667329967, ,0.0005396491952974789,0.01573225158462712,0.005589056673684211,-0.0069038285209126185,0.005568489818480842,-0.011912837028830345, ,0.5964670181274414
0.01037066266822393,0.020520146648562367,-0.07929160247305972, ,0.010549846799959711,0.02035766603860235,-0.0796211409568078, ,0.00040878174366019954, ,0.0010445555241276243,0.00015892770348825886,-0.005698261985528621,0.00010034028735700468,-0.0002836659081707444,0.00023857837774621558, ,0.00579538988452392, ,0.0003008795655612031, ,3.592679572192305e-05, ,0.17888166156566232,-0.232909900753737,0.09001567389000001,1.9425676364406337,0.478364385678807,-1.0734800995972555, ,0.0009198015345786466,0.014956176762564348,0.005802845726775957,-0.0069038285209126185,0.005778044498177561,-0.016990841472338966, ,0.619757890701294
0.010394941280219115,0.02052349302990921,-0.07941776967554437, ,0.0105716113971002,0.02035804718534775,-0.07972739036079184, ,0.00039300079696425735, ,0.001014402756827388,6.684498901760256e-05,-0.0055105149737778095,0.003903370767922037,0.0009709407236448485,-0.0005939428330097459, ,0.005603503946803752, ,0.004022315770742385, ,3.6154441589462106e-05, ,0.17890482976428498,-0.2326936642332587,0.09009863645,1.9425676364406337,0.47850102217857243,-1.073591517500952, ,0.0011393588023013777,0.014818385627493876,0.005475700075627365,-0.0069038285209126185,0.008378286967968536,-0.01875374892581184, ,0.6368899345397949
0.010414560176452415,0.02052491599961762,-0.07952804905786248, ,0.010593423234604816,0.020358427019896132,-0.07983347252179665, ,0.00039114455928962753, ,0.0011235490761161693,0.0001125815252288791,-0.006012221898078372,0.004227999088851684,-5.0793306970185585e-05,0.0005430545142729781, ,0.006117340049236879, ,0.004228303253060551, ,3.647899262950647e-05, ,0.17890482976428498,-0.23240792311691238,0.09020752481000001,1.942357946497149,0.47850102217857243,-1.0738365537213737, ,0.001400462228426168,0.015577304917674128,0.00598377592787378,-0.008825233723430408,0.008378286967968536,-0.020302593808055356, ,0.6529788970947266
0.010424730807332373,0.020526605538344178,-0.0795872022387245, ,0.01061528215911468,0.020358805537157965,-0.07993938739431819, ,0.0004341670667896326, ,0.001302319213985741,0.0002863899328966158,-0.005944890617727579,0.0037387307881815864,-0.0022371591851188177,0.0005026750163952775, ,0.006092600346775288, ,0.004356946373398135, ,3.6921027181536225e-05, ,0.17894344342865612,-0.2321916865964341,0.0902995614,1.9421482565536645,0.4787742951781033,-1.0740593895287665, ,0.0036284699650295515,0.013407310194754277,0.005981528922268119,-0.007573402807739373,0.007457735948049615,-0.017495126514185826, ,0.670896053314209
0.010447340154626984,0.020531904268407924,-0.07970982679678744, ,0.010637188017505891,0.020359182732123,-0.08004513493331465, ,0.0004222635273826811, ,0.0010282169070275186,0.00019473873082775082,-0.005768498875041188,0.0037881774972080024,0.006127434532719732,0.0017186544539633984, ,0.0058626557508123485, ,0.007203869537676762, ,3.730555842374953e-05, ,0.17895888889440456,-0.2319677273430816,0.09039030170000001,1.9421482565536645,0.47904756817763416,-1.074527261556581, ,0.0011999929829721433,0.014115267225713338,0.0057775885092491855,-0.006700902626901793,0.013448711797221645,-0.016045383899084435, ,0.6863389015197754
0.01045833974594755,0.02053345946807049,-0.07976943590154811, ,0.010659140656890633,0.020359558599859873,-0.08015071509420653, ,0.0004646895098388068, ,0.0009811834407004504,0.00014726532074294928,-0.006184807491585808,0.014140736480818112,0.013710734323184233,-0.0001407312652478899, ,0.00626388471533235, ,0.019696310691376954, ,3.7797407661763766e-05, ,0.178974334360153,-0.2318132726855971,0.09044993104000001,1.9421482565536645,0.47918420467739964,-1.074720358200418, ,0.0006137103447070762,0.01614442694087628,0.006197981136186771,-0.006151958134905188,0.02332110420551548,-0.02608766912770619, ,0.7013649940490723
0.010499052776448624,0.02054089812835907,-0.07998344212164932, ,0.010681139924614664,0.020359933135516286,-0.08025612783287583, ,0.0003745150935128527, ,0.0012723744287359549,0.00017126383515638768,-0.006292443373083799,0.008902485643005638,0.0036374754411919296,-0.001173569538485412, ,0.006422080005076224, ,0.009616936536351246, ,3.800589272597978e-05, ,0.1790361162231468,-0.23131901778164674,0.09066381889000001,1.941519186723211,0.47945747767693053,-1.0751882302282325, ,0.002166236296589723,0.01601365871725798,0.006356269561053473,-0.015605700200774422,0.010411434375966703,-0.016339190435916463, ,0.7246639728546143
0.010502985935641983,0.0205413244675634,-0.0800016799949369, ,0.010703185668258192,0.02036030633431859,-0.08036137310566595, ,0.00044969615454101386, ,0.0012387544355524918,0.0001115226339811952,-0.006296440489255725,-0.002736445505962842,0.000562013582545672,0.009948017891620187, ,0.006418108185768603, ,0.0027935610567355385, ,3.8417330615056553e-05, ,0.17904383895602102,-0.23127268138440138,0.09068196695000001,1.941519186723211,0.47945747767693053,-1.075269908968373, ,0.002477717426801983,0.015986681529391977,0.0062810770977918,-0.015605700200774422,0.010411434375966703,-0.013656677297514632, ,0.7407560348510742
0.010530235153563714,0.020539856738527446,-0.08015261337347526, ,0.010725277735636186,0.02036067819157213,-0.0804664508693805, ,0.0004106586591642517, ,0.0012958509766783778,-0.00016020575458088352,-0.005399591868245736,-0.043046438672633205,-0.011953581028732837,-0.01216438412800631, ,0.005555221686052197, ,0.04467531731523949, ,3.870274501904495e-05, ,0.1790978980861406,-0.23082476287769638,0.09083233659,1.9413094967797264,0.48000402367599226,-1.0762056530240023, ,0.0017541331291445667,0.01699139508656594,0.005243190098749178,0.013158065972787486,-0.020142168709549633,0.024479969345719534, ,0.7565369606018066
0.010548596061463876,0.02053808509068794,-0.08023822328499448, ,0.010747415974798195,0.020361048702660832,-0.08057136108128372, ,0.00042644112365061894, ,0.0012155293522507654,-0.00018889466822614683,-0.005453649895579098,-0.03193759447877353,-0.013992589963204797,0.010308396445547933, ,0.00559066096140853, ,0.03486835972833599, ,3.901847248795916e-05, ,0.1791287890176375,-0.23055446722709852,0.09091659544000001,1.941519186723211,0.48000402367599226,-1.0762873317641428, ,0.0018733512836469925,0.016423838968236546,0.00530783456181273,-0.013338630692383287,-0.012394348029020523,0.010493855014646798, ,0.7731750011444092
0.010566709375400113,0.020537380795767897,-0.08032547179766349, ,0.010769600234027583,0.02036141786304729,-0.08067610369910004, ,0.00044166773089194855, ,0.0012654286399949354,-5.199145888018335e-05,-0.006524217649393808,-0.022442793121208202,-0.003442246991818821,0.009299364129460665, ,0.006646008478130132, ,0.022705242029394068, ,3.936111786094402e-05, ,0.17914423448338596,-0.23030733977512333,0.09100215058000001,1.941519186723211,0.47986738717622685,-1.0762575926005868, ,0.0012477879002678416,0.01820041073234959,0.006425498797902381,-0.012060374831410176,0.0,0.0026924901966024805, ,0.7887730598449707
0.010591238869876495,0.02053944277171326,-0.08045669149038182, ,0.010791830361841647,0.020361785668272514,-0.08078067868101287, ,0.0004204363123527304, ,0.0012992933572885976,6.226171178182714e-05,-0.006395188329766752,-0.0029725800104236045,0.0026600864682142463,-0.0034646110371411875, ,0.006526137718607624, ,0.0039890200851375604, ,3.963455664194189e-05, ,0.17918284814775706,-0.22996753952865745,0.09113307587000001,1.9413094967797264,0.48014066017575774,-1.0765621071481202, ,0.0025921653236705834,0.01726968909162344,0.006368977017193124,-0.0018224381875627514,0.009125681591385937,-0.012607083738790437, ,0.8048028945922852
0.010601455998355325,0.02053868535681266,-0.08051992295860792, ,0.010814106206990906,0.020362152113955898,-0.08088508598566464, ,0.00045796084264433266, ,0.0010652468124421552,9.016874891072907e-05,-0.006681362595373672,0.03931806939910626,0.02649396302121853,0.005174548065223246, ,0.006766349629272545, ,0.047411397833518054, ,3.999213123460381e-05, ,0.17921373907925398,-0.22978991667255028,0.09119659408000001,1.9408901168927575,0.4805505696750541,-1.0770597183394908, ,0.0028857510441097855,0.018312802307694092,0.006766699881053527,-0.014280857493591868,0.04721450875057874,-0.04940816150602513, ,0.8250229358673096
0.010610972820342103,0.02053983816202,-0.08056767210945878, ,0.010836427618461123,0.020362517195795415,-0.08098932557215695, ,0.0005099649337582554, ,0.001123066364081082,0.00021727699675337274,-0.006834584642172794,0.03470227270682627,0.02178917800875777,0.005198612369133161, ,0.006929648950882915, ,0.04097579766646921, ,4.046483741341333e-05, ,0.17926007547649933,-0.22941922549458751,0.09135214888000001,1.9408901168927575,0.48082384267458494,-1.077364232887024, ,0.0011641859244981617,0.014563680411060587,0.005834729494505496,-0.014280857493591868,-0.011190942585841097,-0.0014704484358387575, ,0.8404068946838379
0.010636677720525796,0.020544749127635577,-0.08070122049958177, ,0.01085879444547065,0.020362880909566897,-0.0810933974000488, ,0.0004860191452027688, ,0.0013105281085816045,-0.00016621953084711605,-0.006505963664586139,-0.020857695583021384,-0.012503405708344925,0.006882958042073659, ,0.006638725484664403, ,0.024318277235142103, ,4.086069215949982e-05, ,0.17926007547649933,-0.22941922549458751,0.09135214888000001,1.9408901168927575,0.48082384267458494,-1.077364232887024, ,0.0011641859244981617,0.014563680411060587,0.005834729494505496,-0.014280857493591868,-0.011190942585841097,-0.0014704484358387575, ,0.8555629253387451
0.010670401994189206,0.020544291866900384,-0.08086038523903635, ,0.010881206537470486,0.020363243251124753,-0.08119730142935745, ,0.00043672608811792313, ,0.0013561220949463335,5.506398480844437e-05,-0.006463538759108603,-0.014584831974228666,-0.0059912782608413095,0.006769979052630062, ,0.00660450092507555, ,0.015767457868477205, ,4.112346859692069e-05, ,0.17931413460661888,-0.22890952512488869,0.09153492577000001,1.9408901168927575,0.48068720617481947,-1.0773344937234681, ,0.0024483968929284437,0.016619429344740942,0.0064074060820595346,-0.011769341448631078,0.0,-0.004204874549237522, ,0.8714540004730225
0.010696771989715312,0.020551332315907084,-0.08100243207500227, ,0.010903663744145269,0.020363604216401102,-0.08130103762055763, ,0.0004089147945864105, ,0.0015410713056717524,0.0004241984185832386,-0.007659122551807343,-0.0008307865227469425,-0.0003626803154631504,0.004228489747133851, ,0.007824129557407468, ,0.0009064860179043155, ,4.131109077018606e-05, ,0.17937591646961268,-0.2285928930770455,0.09167881396000001,1.9406804269492728,0.48123375217388126,-1.0781885590389568, ,0.002769745034420586,0.016882572773255788,0.007004754406332454,-0.0045921522708090735,0.028056863378142758,-0.03335378813747503, ,0.8868589401245117
0.010710481206955391,0.020551634597412875,-0.08106921915802041, ,0.010926165915413988,0.020363963801406183,-0.08140460593458035, ,0.0004407091002327028, ,0.0011853183898025022,0.00014520446370381635,-0.006712639250399823,0.017784614346537483,0.013930318226443597,0.005135819355772741, ,0.006818034154174633, ,0.022590844599438366, ,4.156505476574185e-05, ,0.17939908466823537,-0.22842299295381255,0.09174492475000001,1.9404707370057885,0.48123375217388126,-1.078351916519238, ,0.0024268240850494754,0.017021872925286237,0.006755221170483461,-0.01229532899938296,0.028056863378142758,-0.03060965710951256, ,0.9028918743133545
0.010724165809838648,0.020552545588659866,-0.08113585187918233, ,0.010948712901426851,0.020364322002228114,-0.08150800633281338, ,0.0004736543594092387, ,0.0012657783297230015,0.00020540393591213474,-0.007019379832424309,0.021286852292805507,0.008577685964298722,-0.0035675908767704616, ,0.007135550349393498, ,0.02295009281020231, ,4.197933815814331e-05, ,0.17942225286685803,-0.22826081556345384,0.09181103554,1.9402610470623036,0.48123375217388126,-1.0784335952593784, ,0.0020337037662132244,0.017172808823465578,0.0070512667197875165,-0.007093037109605438,0.02163136413582191,-0.03589331031207158, ,0.9176030158996582
0.01074669733544049,0.020552453850584296,-0.08124061121094302, ,0.010971304552567994,0.020364678815032962,-0.08161123877710093, ,0.0004723056835971832, ,0.001196988612580167,-5.6832445675059073e-05,-0.005332191154058847,0.0004287210394646145,0.008743621049059555,-0.008024402569110807, ,0.005465187477932612, ,0.008754125111553294, ,4.2377664757451746e-05, ,0.1794685892641034,-0.22798279717998174,0.09191473874000002,1.9400513571188194,0.48123375217388126,-1.0785969527396595, ,0.004073792964794896,0.01601906508414429,0.005330927550200804,0.0053674366556172096,0.015380660317165035,-0.011440078966269713, ,0.931290864944458
0.010774431408949126,0.020549230764465996,-0.08136377132516444, ,0.010993940719454028,0.020365034236064353,-0.08171430322974202, ,0.00045275303930547074, ,0.0016090554900271884,0.00010940948156595745,-0.006739581863526361,-0.01125447162034852,-0.004449944558678088,-0.010258506590844242, ,0.006929862458939328, ,0.012102277641986998, ,4.2720762309107376e-05, ,0.17954581659284563,-0.22761210600201898,0.09203399742000001,1.9400513571188194,0.4813703886736467,-1.078708370643356, ,0.004839996939964554,0.017502202426866613,0.006701224871687001,0.0053674366556172096,0.0,-0.005469251995208573, ,0.9456069469451904
0.01078368681428021,0.020551358870772446,-0.08141208487548549, ,0.011016621252932774,0.020365388261643323,-0.0818171996534916, ,0.0005029527845923381, ,0.0015580573700733386,0.00020775811424180346,-0.007099958620981981,-0.003943589661011221,0.0019506662600865796,-0.010239248100284476, ,0.0072718717413145775, ,0.0043996568310388715, ,4.316212042258916e-05, ,0.17957670752434252,-0.22748854227603138,0.09208584902000001,1.9400513571188194,0.48164366167317757,-1.0790945639310299, ,0.0038173031883443355,0.01745070642855292,0.0071142525770433234,0.0053674366556172096,0.007507529514614277,-0.010928009561276484, ,0.9600698947906494
0.01080266807021836,0.020554516603418886,-0.08151080871493052, ,0.011039346004086372,0.020365740888168917,-0.08191992801155869, ,0.0005089511901171797, ,0.0012839289647346133,0.0001645305439680017,-0.007488976663129596,0.03653402921227031,0.02435898507818445,0.0027868421930605965, ,0.007600020746503434, ,0.043910083363228145, ,4.360309344425026e-05, ,0.17962304392158787,-0.22723369209118197,0.09218566335,1.9402610470623036,0.48205357117247394,-1.0795921751224002, ,0.0033951055085313445,0.019252777755826896,0.007585148342857144,-0.012286644235041718,0.044533758381077905,-0.04794517964369324, ,0.9731190204620361
0.010835332413711663,0.020557569800700993,-0.08167019921612592, ,0.011062114824226765,0.02036609211211719,-0.08202248826760737, ,0.0004606533867650768, ,0.0018546282891149792,0.00012077659883931273,-0.007645354755147286,-0.042576454623580846,-0.01404550549456292,0.014336750042778665, ,0.007868016421542723, ,0.04483336577584524, ,4.3929630697727834e-05, ,0.1797002712503301,-0.22684755544747076,0.09234510702000001,1.939841667175335,0.4823268441720048,-1.0800600471502149, ,0.004779272008725994,0.018358858881499473,0.007585148342857144,-0.01378667549185168,-0.011429842006975846,0.02038844406539222, ,0.9869589805603027
0.010855401680398611,0.020558221181114913,-0.0817500226129394, ,0.011084927564901394,0.020366441930041983,-0.08212488038575479, ,0.000479562052959772, ,0.0020288131551394264,9.588780264575478e-05,-0.008254274047521007,-0.032028524337565534,-0.012610083065135115,0.030303604575755164, ,0.008500489241257932, ,0.03442151257330766, ,4.428585148049321e-05, ,0.1797620531133239,-0.22666220985848937,0.09242418071000001,1.9394222872883657,0.4821902076722393,-1.0799486292465184, ,0.0069134970047193345,0.019786685062233272,0.008231943937984496,-0.032373997483607544,0.0,0.0076318500564173395, ,1.0012009143829346
0.01088437047686489,0.020560792947753787,-0.08187420014582708, ,0.011107784077885083,0.020366790338573908,-0.08222710433057243, ,0.00046053448633103167, ,0.001834740544663318,0.00037601556091736003,-0.007437615355321039,-0.003462262087307826,0.003754171279395046,-0.04297746271943713, ,0.0076697967862252225, ,0.005106959760604825, ,4.4593062757978066e-05, ,0.1798547259078146,-0.2263610232763946,0.09254862455000001,1.939212597344881,0.4823268441720048,-1.0801417258903554, ,0.005192675206048115,0.017701350785015998,0.007495911303529413,0.039263702112329234,0.0017892588464601398,-0.007214154893197807, ,1.0143580436706543
0.010899023365323456,0.020562004420573488,-0.08194488883124218, ,0.011130684215189927,0.02036713733442124,-0.08232916006708375, ,0.0004891874010249374, ,0.0015741159390122903,0.00011721810817369644,-0.007051183446037698,0.00885696215920878,0.013425879045540722,-0.034254904720963035, ,0.007225701977248469, ,0.01608415336300412, ,4.4949271936487305e-05, ,0.17990106230505995,-0.22617567768741323,0.09261992050000001,1.939212597344881,0.48260011717153567,-1.080446240437889, ,0.00447102762374716,0.019574451641598756,0.007085770249110321,0.029368891253890396,0.01686878442923378,-0.019463712714477974, ,1.0273940563201904
0.01092924926600268,0.02056404211401362,-0.08208112707918705, ,0.011153627829053693,0.02036748291436902,-0.0824310475607661, ,0.00045981039782748775, ,0.0015638859210882513,0.00026296109256812323,-0.0076348504083826076,0.019218034912809552,0.01724723905788246,-0.026988551656201967, ,0.007797809209564103, ,0.02582247267570944, ,4.523729871083666e-05, ,0.1799782896338022,-0.2258281547080731,0.09275603095000001,1.939212597344881,0.48273675367130114,-1.0808026945620068, ,0.003979039298066944,0.019217687638410447,0.007713710179176756,0.02034303958151323,0.025024350006068983,-0.029386309094758454, ,1.0416679382324219
0.01092924926600268,0.02056404211401362,-0.08208112707918705, ,0.011176614771949393,0.02036782707527937,-0.0825327667775478, ,0.0005510612053965902, ,0.0015638859210882513,0.00026296109256812323,-0.0076348504083826076,0.019218034912809552,0.01724723905788246,-0.026988551656201967, ,0.007797809209564103, ,0.02582247267570944, ,4.569600734962479e-05, ,0.1799782896338022,-0.2258281547080731,0.09275603095000001,1.939212597344881,0.48273675367130114,-1.0808026945620068, ,0.003979039298066944,0.019217687638410447,0.007713710179176756,0.02034303958151323,0.025024350006068983,-0.029386309094758454, ,1.0554919242858887
0.010974127530809077,0.020566540997993613,-0.08227234431404092, ,0.011199644896580306,0.02036816981409142,-0.08263431768380983, ,0.0004703551097724064, ,0.0015784030455270842,4.075841936679379e-05,-0.007580667782808441,-5.816990560217664e-05,0.006066586735249607,-0.005880445210242864, ,0.007743354664238768, ,0.0060668635488048085, ,4.5986515184229095e-05, ,0.18009413062691557,-0.22533389980412274,0.09294658558,1.9394222872883657,0.48273675367130114,-1.0808843733021476, ,0.0036707383914532984,0.020242521663496323,0.007570727908745247,0.0,0.01454382182179386,-0.016812912782752522, ,1.0689949989318848
0.01099939092070077,0.02056478381664298,-0.08240180239264339, ,0.0112227180558798,0.020368511127820944,-0.08273570024638405, ,0.0004470858468094512, ,0.0015379551121220102,-1.2884857203775742e-05,-0.007235078960778016,0.00020027001915885978,-0.0002853111968113448,0.0035706363144093994, ,0.007396745197391896, ,0.00034855521005236505, ,4.622495373760024e-05, ,0.1801713579556578,-0.2249709313590342,0.09307621458000001,1.9390029074013966,0.4832832996703629,-1.0815750811373548, ,0.003832096200092791,0.0192332674419276,0.007207607022624436,-0.01162510976216801,0.011173435011563046,-0.01942604390828182, ,1.083395004272461
0.011018229628543609,0.020564410668861707,-0.08249302369693265, ,0.011245834103015365,0.02036885101356074,-0.08283691443255298, ,0.0004564079464979636, ,0.001402400925425084,0.00014219786730415357,-0.00684945604430497,0.030417499616594096,0.023860849665005478,-0.03310014425406455, ,0.006992996259970748, ,0.038659596668688775, ,4.647464033597385e-05, ,0.18021769435290316,-0.22473924937280745,0.09316695488000001,1.9385835275144276,0.4834199361701283,-1.081931535261473, ,0.0043519925502647095,0.01884745611886212,0.0069406586143790855,0.025954831881034444,0.03316136934296116,-0.037419467637867854, ,1.1003429889678955
0.01104590956968535,0.020558973689423464,-0.08260907779088658, ,0.011268992891382206,0.02036918946847994,-0.08293796021005032, ,0.0004403951232398385, ,0.0011355890526346633,-0.000318779156122404,-0.0052628044361456554,0.013553760953884244,0.014189114632433433,-0.03145983957769032, ,0.005393356392818501, ,0.01962231907828733, ,4.668813317621136e-05, ,0.1802949216816454,-0.2243685581948447,0.09328102840000001,1.9385835275144276,0.4834199361701283,-1.081931535261473, ,0.0033164289315802606,0.019339095487766612,0.005212307434554975,0.025016499397017507,0.018714418573787292,-0.02457378422629904, ,1.1141338348388672
0.011059360355593724,0.0205543601267692,-0.08266493176640194, ,0.01129219427460685,0.020369526489824485,-0.08303883754705901, ,0.0004776825724244059, ,0.0012396694831026173,-0.0002894030247426305,-0.005574920239932417,0.008576496950268858,0.010666786694324044,-0.027300848557566152, ,0.005718415009395017, ,0.013687097315906154, ,4.696444387253175e-05, ,0.18033353534601654,-0.22416776714011485,0.09333547258000001,1.9385835275144276,0.4834199361701283,-1.081931535261473, ,0.0036449248857591448,0.019526119662236788,0.005521251826689776,0.021010256402423825,0.015423840482783488,-0.021206902320945985, ,1.132145881652832
0.01108437975143594,0.020551937645544263,-0.08278701085116001, ,0.01131543810654674,0.020369862074916582,-0.08313954641221234, ,0.00045915226090305404, ,0.0014154544818141014,-6.935492505892853e-06,-0.006400505835579765,-0.0016591001040601849,0.00557965974632379,-0.02044865945107796, ,0.0065551532737560415, ,0.00582110000759104, ,4.7200250660588405e-05, ,0.18040303994188456,-0.22380479869502629,0.09345732384000001,1.9385835275144276,0.4838298456694246,-1.0825108251929838, ,0.003412909127969678,0.017989941527672186,0.006381735384615385,0.01592443648175251,0.008639560945931598,-0.01160053401627521, ,1.1456279754638672
0.011097664466720648,0.020553220337275743,-0.08285726747296336, ,0.011338724241290427,0.020370196221155008,-0.08324008677459194, ,0.0004880146101263763, ,0.00123970261730365,0.000116463212312736,-0.006878144706436473,0.034965914666129284,0.023547735660864724,-0.0065347575581579, ,0.006989942836808595, ,0.042155794711982546, ,4.756664262152372e-05, ,0.18044165360625566,-0.22361173037317067,0.09352861979,1.9387932174579123,0.484239755168721,-1.0830901151244947, ,0.003497433135894061,0.017925376191626517,0.00697103348796499,-0.0022620588031593575,0.04037899556619066,-0.04435160397482575, ,1.1597349643707275
0.011114452671320607,0.020554760315362432,-0.0829313104441678, ,0.01136205253315532,0.02037052892601472,-0.0833404586037291, ,0.0005124930369029047, ,0.0013528022168413781,0.0002097948044978244,-0.0068534752443851765,0.023253616612995593,0.014916373976711243,-0.005182400477523183, ,0.0069888633284165514, ,0.027626597385078163, ,4.796857745545958e-05, ,0.1804802672706268,-0.22343410751706352,0.09360250832000001,1.9387932174579123,0.484239755168721,-1.0831717938646355, ,0.003854479771009572,0.01642668193845781,0.0069406586143790855,-0.0025566802731924166,0.02896605049772061,-0.03384913191948686, ,1.1715278625488281
0.011146633329369559,0.02055916403207775,-0.08307520985606648, ,0.011385422836689845,0.020370860187046883,-0.08344066186960283, ,0.00047543026939547147, ,0.001934673920325928,0.0005547547702523818,-0.008954351865945214,-0.0013469325259519043,-0.001971330738522411,0.002416698423366579, ,0.009177752087099738, ,0.0023875331502376733, ,4.829715679812633e-05, ,0.18055749459936904,-0.22312519820209453,0.09374639651000001,1.9383738375709432,0.484239755168721,-1.0832534726047758, ,0.0044694504707947945,0.017043272550012714,0.009045321703577514,-0.009360163370204892,0.008618739092412816,-0.015806827275166888, ,1.1833808422088623
0.011170458921048258,0.020566500064376974,-0.08318048932544408, ,0.011408835006672141,0.020371190001878713,-0.08354069654264012, ,0.00047404474264625554, ,0.0017061686418405218,0.00034372179008688997,-0.0077378418770334585,-0.0028764047282116845,-0.002910505363507741,0.001700132178768795, ,0.007931163408816713, ,0.0040920310228474525, ,4.861650134207347e-05, ,0.18061155372948862,-0.22293212988023892,0.09385269229000001,1.9383738375709432,0.484239755168721,-1.0833351513449165, ,0.00417436714946892,0.016199546186150698,0.007785342873900294,-0.008243904793544931,0.006516241335330969,-0.01372264099902602, ,1.1949820518493652
0.011189544802330406,0.02057097856109326,-0.08326907767870285, ,0.011432288898110512,0.020371518368213715,-0.08364056259371566, ,0.000486528628820256, ,0.0019607019405148123,0.0004891052440303971,-0.009135766262868699,-0.012078760620260504,-0.006801429021010116,0.0011677939260972654, ,0.009356591326388393, ,0.013862028394508761, ,4.8950685940302995e-05, ,0.18065789012673394,-0.22274678429125752,0.0939421363,1.9383738375709432,0.4843763916684864,-1.0835282479887536, ,0.0035592597527287656,0.017979716096716707,0.00917558267281106,-0.00750972204222057,0.0,-0.007637405819477329, ,1.2062358856201172
0.011202856041532679,0.0205760848859562,-0.08334643381117393, ,0.011455784366241277,0.020371845283831062,-0.08374025999415105, ,0.0005106717291122151, ,0.0018433039536097187,0.0006398811174993223,-0.009016062089314488,0.01558125704923374,0.00816257244494659,-0.006568065324219673, ,0.009224781455855707, ,0.017589857889576496, ,4.9319052007315555e-05, ,0.18068878105823086,-0.22260005236664726,0.09402120999000001,1.9381641476274587,0.4847863011677827,-1.0841075379202645, ,0.004154347781709239,0.016840628493073787,0.009159753605520415,-0.0015947434300362154,0.020432878323396776,-0.028639977895749742, ,1.2207109928131104
0.011221389285723096,0.020582528631109327,-0.08343191427769704, ,0.0114793212665326,0.020372170746585868,-0.08383978871571424, ,0.0005264417379856405, ,0.0018042225989370584,0.0008020996539163413,-0.0093365424619932,0.039781323798169704,0.022822427442038194,-0.007783703265628793, ,0.009543039777027546, ,0.045863022649357925, ,4.970649305931849e-05, ,0.1807351174554762,-0.22244559770916278,0.09410806142000001,1.9381641476274587,0.4849229376675481,-1.0844639920443826, ,0.004898541949279609,0.016466587117555227,0.009584122454873648,-0.0015947434300362154,0.04165167529959169,-0.04752577422444356, ,1.2327358722686768
0.011247004950678301,0.020588470955318804,-0.08354131433452315, ,0.01150289945468006,0.020372494754409026,-0.0839391487306198, ,0.0005199999262070304, ,0.0018697578379282904,0.0003908374703124064,-0.008226068710395147,0.03126760089959374,0.0024385104380226464,-0.0022267698204614444, ,0.008444936632612263, ,0.035240167676275844, ,5.0075479694678094e-05, ,0.18080462205134423,-0.22223708392155872,0.09421824607000001,1.937954457683974,0.4849229376675481,-1.0847090282648042, ,0.006848943497458654,0.01727912264356715,0.008365972436974792,-0.01238132717268883,0.026325036571169046,-0.05059302466321962, ,1.2443058490753174
0.011283911443063935,0.02058990241516518,-0.08369063900222926, ,0.011526518786609933,0.020372817305307135,-0.0840383400115277, ,0.0004763194935457514, ,0.0016508833615086589,0.0001257249623967708,-0.007208594386275832,0.000812664339373221,0.0030902341509560613,0.008189427379689385, ,0.007396286613248789, ,0.0031953013897423744, ,5.036521052726077e-05, ,0.18092046304445758,-0.22187411547647015,0.09436731942000001,1.9377447677404898,0.4849229376675481,-1.0849540644852258, ,0.005354500557542163,0.017316960138407077,0.007296752872194229,-0.013564599065753325,0.016724938093853697,-0.016643572256477123, ,1.2562718391418457
0.011303255538584913,0.02058977985069894,-0.08376739777517567, ,0.011550179118476044,0.02037313839736228,-0.08413736253154344, ,0.0004947511440758259, ,0.0018179911951089667,-0.00011492077476102217,-0.007602608275901142,-0.002490403622601077,0.00011412898668454463,0.005199843158273541, ,0.007817797091685478, ,0.0024930122804097243, ,5.067933757605728e-05, ,0.18098224490745138,-0.22167332442174031,0.09444380053000001,1.9377447677404898,0.4849229376675481,-1.0848723857450855, ,0.00644174720409823,0.02089320597940792,0.007592379180171592,-0.012076386653615625,0.014064150832934738,-0.017357017285167836, ,1.2679710388183594
0.011322229663693487,0.02059093998117599,-0.08385140872044272, ,0.011573880306661831,0.02037345802873205,-0.08423621626421751, ,0.0005086288347028676, ,0.0019794528145123634,0.00015896028041914893,-0.00843129602787379,-0.019418073134163008,-0.008048007049729888,0.006244161781755244, ,0.008662000607554366, ,0.021019798740951688, ,5.1009794456907886e-05, ,0.18103630403757096,-0.22146481063413626,0.09452805938000002,1.9377447677404898,0.4850595741673136,-1.0851471611290628, ,0.005272015808003181,0.019514073937583958,0.008423485732416712,-0.010880974817572608,0.0,-0.0018620890023204099, ,1.2805118560791016
0.01133915819546734,0.02059351833827433,-0.08393559550318155, ,0.01159762220778061,0.020373776197649494,-0.08433490118354435, ,0.0005239611439767796, ,0.001943481983284465,9.43062570035846e-05,-0.008617778110029204,0.00014904348984218663,-0.004539166873477696,-0.00018241412594847256, ,0.00883471082962877, ,0.00454160790207464, ,5.135843826048442e-05, ,0.18109036316769053,-0.22126401957940642,0.09461361452000001,1.9377447677404898,0.4854694836666099,-1.085726451060574, ,0.005145748035761334,0.020957805114503264,0.008614825051379124,-0.009938984406791133,0.008069953703581857,-0.02201651382437666, ,1.2920899391174316
0.011357901780390542,0.020595150958781668,-0.08402030979424295, ,0.011621404678671628,0.02037409290242298,-0.08443341726396306, ,0.0005375483450092292, ,0.0017315799784313798,0.00010036890475214146,-0.008211769480965534,0.041896347674846374,0.016668455988390132,-0.005047982239612556, ,0.0083929494903319, ,0.04509036855236041, ,5.172198456071631e-05, ,0.18122164962655235,-0.22083154653844986,0.09478342851,1.9375350777970048,0.4858793931659062,-1.0863874197322254, ,0.006460016611872756,0.022038305053058704,0.008287623059313217,0.0,-0.008781717366748956,-0.02598144034354124, ,1.3043389320373535
0.011395870022725633,0.02059353589969661,-0.08417501429981133, ,0.01164522757640557,0.020374408141436113,-0.08453176448035624, ,0.00048730571034652644, ,0.002263549232097098,-7.911717845317831e-05,-0.008430764885239925,-0.008322410966802828,-0.021534179035043614,-0.0027848899547975887, ,0.008729702813054309, ,0.023086432128438545, ,5.199980842725042e-05, ,0.18128343148954615,-0.22065392368234268,0.09485342817,1.9373253878535206,0.4858793931659062,-1.0863874197322254, ,0.007809363028663962,0.021860617728281684,0.008374769463722398,-0.010875485548215647,-0.008034899351108375,-0.019444478031809313, ,1.3182368278503418
0.011415983997773209,0.020591911086652814,-0.08425200652599887, ,0.011669090758278102,0.020374721913147497,-0.08462994280804913, ,0.0005040535711520878, ,0.0019286078712053203,-0.000300752180522353,-0.006992837011536756,-0.014738712362972889,-0.017634569655645922,0.0010948376185692097, ,0.007260148047036119, ,0.02298276903110445, ,5.229849384029643e-05, ,0.18135293608541417,-0.2204376871618644,0.09492990928000002,1.9373253878535206,0.4858793931659062,-1.086469098472366, ,0.0071006043479133005,0.02066121087708922,0.006898575799047208,-0.010875485548215647,-0.006553911711553844,-0.010551343084902493, ,1.3297779560089111
0.011441022716281186,0.020588230838454343,-0.08434281661330557, ,0.011692994081816687,0.020375034216091,-0.08472795222281027, ,0.0005072196827268375, ,0.0019273817228933252,-0.00033630554159029243,-0.007487679924844473,-0.009917765822387,-0.01175101690816684,0.0007510083689141085, ,0.007739073095659875, ,0.015376880494675442, ,5.259653501084351e-05, ,0.18143788614703063,-0.22016739151126655,0.09501935329000001,1.9373253878535206,0.4857427566661408,-1.0865210380489507, ,0.00663909714165201,0.02247145194375344,0.007394991420612815,-0.010757304211082406,0.0004641998907488013,-0.015365552881717908, ,1.3415420055389404
0.011460291261709315,0.020586415883445675,-0.08442075447275847, ,0.011716937404774544,0.02037534504887527,-0.08482579270085046, ,0.0005239027640434819, ,0.002110216475079782,-9.290175209738767e-05,-0.008429081785335994,-0.011856919677083346,-0.010298658977399964,0.001260157972173144, ,0.008689710239767718, ,0.015705059006938284, ,5.299549539156104e-05, ,0.18150739074289865,-0.21994343225791405,0.09509713069,1.9373253878535206,0.4858793931659062,-1.0868774921730688, ,0.006805560388429194,0.022177364234276884,0.008387999747235388,-0.009862541762181647,0.0013558501656355812,-0.012424496848383858, ,1.3513720035552979
0.011467602139524448,0.02058707750546738,-0.08445534809581477, ,0.011740920585131978,0.02037565441018392,-0.08492346421882213, ,0.0005818379521378737, ,0.0019829601942635954,3.65533316710727e-05,-0.008558036745380047,-0.0011520299751975407,-0.003067946884366885,0.0005021672121177341, ,0.008784842640216459, ,0.00327710623003201, ,5.34763155359921e-05, ,0.18153055894152131,-0.21985848219629756,0.09513213052000001,1.9373253878535206,0.4860160296656717,-1.0870705888169057, ,0.005803863262203589,0.02128211293080753,0.008559275400322409,-0.009535777174920447,0.009889053639302736,-0.0202256189569238, ,1.3631229400634766
0.011492255758844496,0.020588215758135145,-0.08456836887681657, ,0.011764943481098864,0.020375962298775314,-0.08502096675381951, ,0.0005694338970820584, ,0.0019829601942635954,3.65533316710727e-05,-0.008558036745380047,-0.0011520299751975407,-0.003067946884366885,0.0005021672121177341, ,0.008784842640216459, ,0.00327710623003201, ,5.3931213607380796e-05, ,0.1816155090031378,-0.21958046381282548,0.09524620404,1.9371156979100361,0.486425939164968,-1.0876498787484166, ,0.007182518939652234,0.021875735721178142,0.009096979737292977,-0.004085159016867327,0.04431617877384401,-0.0659890795084804, ,1.3738510608673096
0.011539899442466034,0.020590920085500914,-0.08476015695566433, ,0.01178900595111224,0.0203762687134825,-0.08511830028337744, ,0.0004862056224939305, ,0.001921312130875008,0.0001842889549857822,-0.008949343562013422,0.05157709233670096,0.018636543206835006,-0.012548980992717233, ,0.009155116215216948, ,0.05484083459615643, ,5.4254905019125226e-05, ,0.1816155090031378,-0.21958046381282548,0.09524620404,1.9371156979100361,0.486425939164968,-1.0876498787484166, ,0.007182518939652234,0.021875735721178142,0.009096979737292977,-0.004085159016867327,0.04431617877384401,-0.0659890795084804, ,1.3838579654693604
0.011563643136668082,0.02059063222182994,-0.08485644966102951, ,0.011813107853834982,0.02037657365321315,-0.08521546478547205, ,0.0004867705573346919, ,0.0021176498992640192,0.00010083076577677001,-0.008843525016050202,0.0013313524619169177,0.0044547902499752455,-0.00384356272092678, ,0.009094093833290141, ,0.007404499070457243, ,5.457463206992502e-05, ,0.18183174552361608,-0.21888541785414528,0.09553398042000001,1.9369060079665514,0.486425939164968,-1.087976593708979, ,0.006454637273661243,0.024674191772873316,0.009875270626162431,-0.0036348258330358763,0.01747654285893057,-0.020396131407506696, ,1.3942389488220215
0.011586077452967433,0.02059332987124187,-0.08495298611266114, ,0.011837249048159887,0.020376877116949445,-0.08531246023851904, ,0.0004890405016290623, ,0.0026438506362300787,0.00048581270328731854,-0.010748184353401465,-0.017179131197243274,-0.011338716584683349,0.0037393217017162, ,0.011079234046813597, ,0.020583704696631597, ,5.489299339728796e-05, ,0.1819012501194841,-0.21867690406654122,0.09563120217000001,1.936696318023067,0.48656257566473343,-1.0880880116126754, ,0.007839834112572207,0.021291662902955075,0.010828559836845685,-0.010256252958476621,0.0,-0.006145182557489289, ,1.4040179252624512
0.011612515528044093,0.02059928543431065,-0.08506779139430917, ,0.011861429393204904,0.020377179103748012,-0.08540928662137387, ,0.00047739744914825706, ,0.0024168692834544785,0.00042891308511418995,-0.010422239121125254,-0.0021874835674441655,-0.004600172363623515,0.0012621331057632544, ,0.010707394261247768, ,0.0050937753347774384, ,5.518967831272922e-05, ,0.18198620018110057,-0.21844522208031447,0.09574786827000001,1.936696318023067,0.4868358486642643,-1.0884742049003493, ,0.006707146367600083,0.021286886845776305,0.010507131609498682,-0.010256252958476621,0.009180285019714239,-0.019482739509654654, ,1.414381980895996
0.011633672019265835,0.0206028700625403,-0.08516855394501203, ,0.011885648748313358,0.02037747961273968,-0.08550594391333168, ,0.0004776244524367902, ,0.0022673808222308657,0.000396441763824923,-0.010258831932647485,0.04314511720903096,0.018177248790750715,-0.005596592059999421, ,0.010513886745035474, ,0.04681787478039521, ,5.548238667393843e-05, ,0.18205570477696859,-0.2182289855598362,0.09585027518000001,1.9364866280795823,0.48724575816356064,-1.0890534948318604, ,0.008362456491587891,0.022344464694718808,0.01045883881812213,-0.008442130040264399,0.044306024210669974,-0.05807039151500819, ,1.4241578578948975
0.011660169359771946,0.02060558145825718,-0.08527581183486012, ,0.011909906973059988,0.020377778643129753,-0.08560243209412646, ,0.00047004658474879046, ,0.0022037776732670798,0.0001781794342373441,-0.010098861367251391,0.0245559801473779,0.009832406490535175,-0.0044619556285206766, ,0.010338055177785532, ,0.026451318934067554, ,5.575995821771234e-05, ,0.18213293210571083,-0.21798958084073525,0.09595786725000001,1.9364866280795823,0.48724575816356064,-1.089135173572001, ,0.006717920129581781,0.023843452652882107,0.010191178195777351,-0.008442130040264399,0.03017866320566602,-0.04410247752000772, ,1.4342658519744873
0.011682698966664082,0.020606979481030012,-0.08536511033590062, ,0.011934203927241569,0.020378076194197497,-0.08569875114393048, ,0.0004764112180675753, ,0.0020259811663925413,5.234966882237133e-05,-0.008404041883427485,0.017526991750704483,0.002349558072907259,-0.0034162295989849027, ,0.008644955763496219, ,0.017683772817057977, ,5.6042664121831106e-05, ,0.18220243670157885,-0.21778106705313116,0.09604731126,1.9364866280795823,0.48724575816356064,-1.089298531052282, ,0.0074344224061945715,0.020728908160434854,0.00846826768740032,-0.008442130040264399,0.020957430872432906,-0.03617609243273203, ,1.444478988647461
0.01170438177553942,0.02060589018700575,-0.08544974432894736, ,0.011958539470884804,0.020378372265296315,-0.0857949010433539, ,0.00048527692743645883, ,0.0019561492510796275,-0.000274196819488528,-0.00795732368289469,0.01541811910113481,-0.0024396200136740757,-0.005906813378431064, ,0.008198823329153624, ,0.015609936275482768, ,5.633394765425625e-05, ,0.18227194129744687,-0.21755710779977866,0.09613157011000001,1.9364866280795823,0.48724575816356064,-1.0893802097924226, ,0.007113129905626886,0.02302206248385997,0.007932675059760957,-0.008442130040264399,0.015799046738189017,-0.038129447876318015, ,1.455103874206543
0.011721341514560776,0.020604006343715543,-0.08551236944584618, ,0.011982913464239549,0.020378666855853596,-0.08589088177344492, ,0.0005123176278373146, ,0.0020770883624613,-0.00029556318271082476,-0.008376945124105502,0.0020757072759610734,-0.0022983465756024734,-0.002130701199894912, ,0.008635673874847363, ,0.003096920474704426, ,5.66592620259996e-05, ,0.18233372316044066,-0.21737948494367149,0.09619379203,1.9364866280795823,0.48724575816356064,-1.089461888532563, ,0.007389132182286853,0.02420222942067605,0.00833969189528796,-0.008442130040264399,0.013390801177507706,-0.025531643630665443, ,1.4672179222106934
0.011745887793843564,0.020600592094828056,-0.08561621457661739, ,0.012007325767785498,0.02037895996537072,-0.08598669331568863, ,0.0005047029929874346, ,0.002026946302567106,-5.913768119668382e-05,-0.008057649598332398,0.001554830593056362,-0.007866268294144836,0.0011283138904128799, ,0.008308894368586835, ,0.008018456278035647, ,5.696935541935735e-05, ,0.18242639595493138,-0.2170937438273252,0.09629749523000002,1.9360672481926136,0.48751903116309153,-1.0899297605603775, ,0.007003814720743492,0.0204035565595508,0.008057061972685887,-0.012082473940325588,0.007287328052340076,-0.02367176518618152, ,1.476531982421875
0.011761638627697529,0.020600380164416947,-0.08569654860240533, ,0.012031776242223867,0.02037925159342257,-0.08608233565200714, ,0.0005202920558037219, ,0.001759964683120827,2.5209789730186623e-05,-0.008860768548217284,0.061632379458641126,0.025313049178154568,-0.003286221182877985, ,0.009033898963593042, ,0.06662807667799618, ,5.729681755942263e-05, ,0.18248817781792517,-0.21688523003972113,0.0963791615,1.9358575582491289,0.48806557716215326,-1.0904571109153038, ,0.006516500315605671,0.0226809133743955,0.00900441578292821,-0.01477707885149423,0.05565964483979289,-0.07614500368190912, ,1.4867548942565918
0.011784544393839379,0.020600681383084813,-0.0857895105184783, ,0.012056264748485843,0.02037954173965804,-0.08617780876475843, ,0.0005229820466214355, ,0.0024074038061238077,6.162273753190133e-05,-0.01016310763813268,0.02688945219460137,0.008288240846304227,0.0008798915390327861, ,0.010444527146395434, ,0.028137829824389452, ,5.762347219868274e-05, ,0.18256540514666741,-0.2166535480534944,0.09647249438000001,1.9358575582491289,0.48820221366191874,-1.0907318862992814, ,0.009207336155199978,0.024874689792521828,0.01027002676982592,-0.01477707885149423,0.03353165681712061,-0.047887236200762094, ,1.4993538856506348
0.011814090264660786,0.020603519488869307,-0.08590164472849766, ,0.01208079114772591,0.02037983040379945,-0.08627311263673687, ,0.0005090722686011467, ,0.0023829040853054536,0.0002151228048778834,-0.009354637026385507,0.014380711867039465,-0.0011081276336200156,0.0015868450326027464, ,0.009655762196552203, ,0.014423340425111134, ,5.792656535040803e-05, ,0.18266580067403232,-0.2164064206015192,0.09658527161000001,1.9358575582491289,0.48820221366191874,-1.0908952437795625, ,0.009394356159453412,0.020833576631936506,0.009470161426872773,-0.013195198546345594,0.019937878046396684,-0.03411640670309628, ,1.5087590217590332
0.011839198238178979,0.020604532022638372,-0.08599332547965734, ,0.012105355301326049,0.020380117585642833,-0.08636824725117179, ,0.0005116324428245652, ,0.002423101458042532,-9.632464844624967e-05,-0.008967263280257399,0.01322798583454326,-0.00708457472572992,-0.0024936845620206014, ,0.009289376182032828, ,0.015005690597252501, ,5.8308456457397025e-05, ,0.18275847346852303,-0.21619018408104093,0.0966773082,1.9358575582491289,0.48820221366191874,-1.090976922519703, ,0.010156511887131089,0.0231795167460847,0.009009508778280545,-0.01195331546551888,0.014586873090119438,-0.03700258371005754, ,1.5168788433074951
0.011865154266264078,0.02060530316654403,-0.08609513687201696, ,0.012129957070890924,0.020380403285057542,-0.08646321259172801, ,0.0005061424873211966, ,0.0025535840269260914,7.842132518902801e-05,-0.010129454735809947,-0.037963567786359516,-0.007295017920401194,0.011324445973007722, ,0.010446664277731867, ,0.038658112458913235, ,5.867875314870179e-05, ,0.18285114626301371,-0.21594305662906574,0.09677971511000001,1.9358575582491289,0.48833885016168416,-1.0912516979036806, ,0.007897665346639715,0.023617954593944942,0.010132831755725191,-0.010863060479003301,0.0,0.01412682935599263, ,1.5247139930725098
0.011865154266264078,0.02060530316654403,-0.08609513687201696, ,0.012154596318253308,0.02038068750198625,-0.0865580086425051, ,0.0005903212465592702, ,0.0025535840269260914,7.842132518902801e-05,-0.010129454735809947,-0.037963567786359516,-0.007295017920401194,0.011324445973007722, ,0.010446664277731867, ,0.038658112458913235, ,5.9158653599396067e-05, ,0.18285114626301371,-0.21594305662906574,0.09677971511000001,1.9358575582491289,0.48833885016168416,-1.0912516979036806, ,0.007897665346639715,0.023617954593944942,0.010132831755725191,-0.010863060479003301,0.0,0.01412682935599263, ,1.5329718589782715
0.01188299999109457,0.020606997875946487,-0.08616212090824539, ,0.012179272905470207,0.020380970236444893,-0.08665263538803578, ,0.0006160118411973338, ,0.0028253609299420737,0.0002982383331357687,-0.010699159747052678,-0.034537145094085064,-0.009572266002937774,0.009989565778791086, ,0.011069942627708015, ,0.03583912007124018, ,5.966788477630848e-05, ,0.1829129281260075,-0.21579632470445548,0.09684712219000001,1.9358575582491289,0.48833885016168416,-1.0912516979036806, ,0.009757060114587343,0.02264843473949183,0.010769987505070995,-0.010291690747617962,0.0,0.011510764328570754, ,1.541126012802124
0.01191579497076177,0.020614403898591652,-0.0863102293711061, ,0.01220398669482126,0.020381251488522767,-0.08674709281328802, ,0.0005729434380917014, ,0.002398520748061697,0.0006876512382823973,-0.011635509169573843,0.037965044983149294,0.03729200510796186,-0.005271422998559894, ,0.011900035278923787, ,0.053216896492337656, ,6.011417569618361e-05, ,0.1830364918519951,-0.21550286085523496,0.09699878812000001,1.9356478683056444,0.48902203266051136,-1.0920538236425845, ,0.007932470180074827,0.022735251930635067,0.01194063832083958,0.0,0.0599443183218733,-0.04573596850204735, ,1.5488560199737549
0.0119429063122874,0.02061968789350782,-0.08642903443202539, ,0.012228737548814508,0.020381531258382064,-0.08684138090366185, ,0.000555380672422147, ,0.002981051505795301,0.0006345111366699015,-0.012664593569673501,0.01626020533018646,0.0122163187167506,0.006682318815138297, ,0.01302617375700854, ,0.020337954532478195, ,6.0532401419473666e-05, ,0.18312144191361157,-0.2152711788690082,0.09711934309,1.9354381783621597,0.4892953056600422,-1.0921949807098368, ,0.010564759043592315,0.024470588333798553,0.012908275137763372,-0.015019783707241172,0.036374550825473195,-0.03480835411459362, ,1.556701898574829
0.011977824008847185,0.02062569766208864,-0.08656379846718665, ,0.012253525330180157,0.020381809546257942,-0.08693549964499105, ,0.0005231198688726811, ,0.003202562243862928,0.0006283367409004401,-0.012975272259704353,-0.0002958537116900579,0.0008295621174875772,0.0035038668218660193, ,0.013379420846928877, ,0.0008805310615349904, ,6.090359067072173e-05, ,0.18323728290672495,-0.2150163286841588,0.09725545354000001,1.9352284884186752,0.4892953056600422,-1.0921949807098368, ,0.010941728232844986,0.024946619757747313,0.013175195632754346,-0.011166744822119466,0.020457847283806226,-0.021829349636183465, ,1.5651469230651855
0.011977824008847185,0.02062569766208864,-0.08656379846718665, ,0.012278349901874694,0.020382086352458646,-0.08702944902354098, ,0.0006053864246848656, ,0.003202562243862928,0.0006283367409004401,-0.012975272259704353,-0.0002958537116900579,0.0008295621174875772,0.0035038668218660193, ,0.013379420846928877, ,0.0008805310615349904, ,6.137898102814877e-05, ,0.18323728290672495,-0.2150163286841588,0.09725545354000001,1.9352284884186752,0.4892953056600422,-1.0921949807098368, ,0.010941728232844986,0.024946619757747313,0.013175195632754346,-0.011166744822119466,0.020457847283806226,-0.021829349636183465, ,1.5730369091033936
0.012012103749949585,0.020632027034289072,-0.08669319248066161, ,0.012303211127077671,0.02038236167736507,-0.08712322902601015, ,0.0005762011157588034, ,0.003096707502487725,0.0004913293954295294,-0.0118611811619937,-0.00499249066760564,-0.004156451200887053,0.0026734855905731335, ,0.012268603037363754, ,0.006496215427697479, ,6.18112492525229e-05, ,0.18335312389983832,-0.21476920123218363,0.09738637883000001,1.9352284884186752,0.4892953056600422,-1.0922766594499773, ,0.011483039464050892,0.023571023735338002,0.012030824410876134,-0.00992162259009856,0.014218163864925634,-0.017075412706201304, ,1.5815889835357666
0.012041151047449777,0.020634410295076906,-0.08680354496661707, ,0.012328108869193256,0.02038263552143094,-0.0872168396395278, ,0.000562625821270781, ,0.003004257456142818,-3.824028870583066e-05,-0.010772865380416888,-0.017630537394087212,-0.015597773949947626,-0.00014979159023471769, ,0.01118399095524736, ,0.023539886488718045, ,6.222136735949387e-05, ,0.18346124216007745,-0.21452207378020843,0.09749785977000001,1.9352284884186752,0.4894319421598077,-1.0926331135740954, ,0.011447296963752063,0.026279961661166095,0.010791877723577238,-0.008966498392280083,0.0,-0.01081441930974987, ,1.58974289894104
0.012070539513677581,0.02063387668849168,-0.0869174591094868, ,0.012353042991850525,0.020382907885182502,-0.08731028085165463, ,0.0005450710747544942, ,0.002921757539806441,6.505733477539955e-06,-0.010494846403563358,-0.0015873496757842429,-0.004257636661874658,-0.008516239069042092, ,0.010893966700902414, ,0.004543899385164618, ,6.260453114386195e-05, ,0.18359252861893927,-0.21423633266386213,0.09761322958000002,1.9350187984751908,0.48984185165910404,-1.0930490460253253, ,0.012091863093587,0.02584339367060751,0.010576900079681276,-0.0006315074785540954,0.013643350265438732,-0.021670528724899333, ,1.5974299907684326
0.012070539513677581,0.02063387668849168,-0.0869174591094868, ,0.012378013358899952,0.020383178769218666,-0.08740355265038222, ,0.0006274364850117455, ,0.002921757539806441,6.505733477539955e-06,-0.010494846403563358,-0.0015873496757842429,-0.004257636661874658,-0.008516239069042092, ,0.010893966700902414, ,0.004543899385164618, ,6.308975425896658e-05, ,0.18359252861893927,-0.21423633266386213,0.09761322958000002,1.9350187984751908,0.48984185165910404,-1.0930490460253253, ,0.012091863093587,0.02584339367060751,0.010576900079681276,-0.0006315074785540954,0.013643350265438732,-0.021670528724899333, ,1.6051199436187744
0.012096503362494229,0.02063418554509422,-0.08702034228029772, ,0.012403019834418725,0.020383448174210807,-0.08749665502413233, ,0.000619431518941216, ,0.0026812592779348354,4.4387685512877265e-05,-0.010578693397905176,0.044687829803663655,0.02900498247672119,-0.010168606408989448, ,0.010913288944631649, ,0.05327561363844732, ,6.355975746243054e-05, ,0.18371609234492686,-0.2139737597461385,0.09771822907000001,1.9350187984751908,0.4903883976581658,-1.0935763963802514, ,0.013105502217714513,0.026905852440734554,0.010813857107942974,-0.0006315074785540954,0.059420810277217156,-0.05801025383420088, ,1.6126539707183838
0.012127968496961367,0.020634238061118103,-0.08713759691477492, ,0.012428062282705085,0.020383716100902532,-0.08758958796175685, ,0.0005975896914640265, ,0.003070950791266547,0.00019338469751318827,-0.012321604166850143,0.010638634777620708,0.006516180162828732,0.005158164045504316, ,0.012700002584572639, ,0.012475611000440893, ,6.399714684028316e-05, ,0.18383965607091446,-0.21369574136266642,0.09783619146000001,1.934809108531706,0.4905250341579312,-1.093687814283948, ,0.011652374945784721,0.027886259641043427,0.012473619044635868,-0.015307639575307995,0.03119925620894735,-0.0341880026095841, ,1.6200909614562988
0.012127968496961367,0.020634238061118103,-0.08713759691477492, ,0.012453140568283233,0.02038398255010987,-0.0876823514525367, ,0.0006819986826745258, ,0.003365590543433403,0.00039421400670770204,-0.013052585081572605,-0.002060147815802016,-0.0027318535724982183,0.0054245007272072905, ,0.013485272770723795, ,0.003421528035997227, ,6.453708358972978e-05, ,0.18394777433115359,-0.21342544571206856,0.09796193159000001,1.934809108531706,0.4905250341579312,-1.093687814283948, ,0.012355608598043064,0.027097927343937973,0.013218930721991703,-0.01453153300938945,0.01919903547114301,-0.023328450599932004, ,1.6286389827728271
0.012160887182480744,0.020637115350151995,-0.08726257909018206, ,0.012478254555899043,0.02038424752272085,-0.08777494548618232, ,0.0006535927719998691, ,0.003365590543433403,0.00039421400670770204,-0.013052585081572605,-0.002060147815802016,-0.0027318535724982183,0.0054245007272072905, ,0.013485272770723795, ,0.003421528035997227, ,6.503575248965532e-05, ,0.18394777433115359,-0.21342544571206856,0.09796193159000001,1.934809108531706,0.4905250341579312,-1.093687814283948, ,0.012355608598043064,0.027097927343937973,0.013218930721991703,-0.01453153300938945,0.01919903547114301,-0.023328450599932004, ,1.6373438835144043
0.01219510494047697,0.02064005860855267,-0.0873886967644883, ,0.012503404110522353,0.020384511019695836,-0.0878673700528322, ,0.0006240841813370836, ,0.0035030630180383293,0.0003686978455549623,-0.013361211736245214,-0.00812658443590146,-0.005302497657916467,-0.0006514384654118942, ,0.013817719336795112, ,0.009703475160113067, ,6.54923913496032e-05, ,0.18407133805714118,-0.21316287279434493,0.09808896801000001,1.9345994185882218,0.4905250341579312,-1.093687814283948, ,0.012656300554610665,0.028192793095208196,0.013510442340966922,-0.007896362229521265,0.01403101557631291,-0.018307150502880284, ,1.6459228992462158
0.012225314136819588,0.020642628059133604,-0.0875062899429282, ,0.012528589097345184,0.020384773042067046,-0.08795962514305358, ,0.0006033056565132816, ,0.003151609385163372,2.1931185624585355e-05,-0.011527800526335098,-0.01929914030120522,-0.011091316759637029,-0.00014493625031158485, ,0.011950870582033951, ,0.02225924347882341, ,6.600092695268379e-05, ,0.18418717905025456,-0.2129002998766213,0.09820822669000001,1.9345994185882218,0.4907983071574621,-1.0939923288314812, ,0.011653825989152527,0.027237928116667847,0.011576171162790699,-0.0070705454900099425,0.004115257457963736,-0.008218964677363536, ,1.6519899368286133
0.012259261836807695,0.020639934473937416,-0.08763074940668245, ,0.01255380938178276,0.020385033590938698,-0.08805171074784135, ,0.0005735339285122267, ,0.003077137857923252,-0.00028286909168470696,-0.011044794595638781,0.012619099847866994,0.012880639090964225,-0.0019650266947693444, ,0.011468926714368118, ,0.018031982142989934, ,6.646858716146856e-05, ,0.18434163370773904,-0.21256049963015541,0.09833396682000001,1.9345994185882218,0.4912082166567584,-1.094408261282711, ,0.014781455071412894,0.03042543813993933,0.011170274558204768,-0.00627054836987091,0.0395451998023627,-0.034462693982203745, ,1.657947063446045
0.012259261836807695,0.020639934473937416,-0.08763074940668245, ,0.012579064829472696,0.020385292667486704,-0.08814362685861722, ,0.000655865599351789, ,0.003077137857923252,-0.00028286909168470696,-0.011044794595638781,0.012619099847866994,0.012880639090964225,-0.0019650266947693444, ,0.011468926714368118, ,0.018031982142989934, ,6.703491450373578e-05, ,0.18434163370773904,-0.21256049963015541,0.09833396682000001,1.9345994185882218,0.4912082166567584,-1.094408261282711, ,0.014781455071412894,0.03042543813993933,0.011170274558204768,-0.00627054836987091,0.0395451998023627,-0.034462693982203745, ,1.6635239124298096
0.01228923607416359,0.020637690128092804,-0.08774300731105983, ,0.012604355306276311,0.02038555027295885,-0.08823537346723051, ,0.0006366310302966503, ,0.0030833967520914403,4.6841054022109425e-05,-0.012136715262426597,0.03899512216046239,0.02660542794601851,-0.005497371805850557, ,0.012522355488340388, ,0.04720665297568603, ,6.757326590890939e-05, ,0.1844883656323493,-0.21225159031518642,0.09844804034000001,1.9345994185882218,0.49175476265582013,-1.0949356116376374, ,0.014161608947690012,0.02992650317201854,0.01237669892773893,-0.005709345411668536,0.058701660985018195,-0.056279170658144514, ,1.6692779064178467
0.012326017470868124,0.020637591544099266,-0.08787827797426888, ,0.012629680678276143,0.02038580640867457,-0.08832695056595662, ,0.0005974229594566563, ,0.003885589125095811,0.0004245205006078714,-0.014575517737703313,0.0037162160766525416,-0.00032984372864824067,0.005537857806919079, ,0.01509051814307922, ,0.0037307373231296784, ,6.805935354650782e-05, ,0.1846350975569596,-0.21194268100021743,0.09858415079,1.9341800387012527,0.4918913991555856,-1.0951287082814742, ,0.015473168361074641,0.030212334147873537,0.014803728178438665,-0.015928922219492783,0.027172411602620048,-0.03061589573484111, ,1.6805338859558105
0.012326017470868124,0.020637591544099266,-0.08787827797426888, ,0.01265504081177773,0.020386061076024743,-0.08841835814749682, ,0.0006805957160804302, ,0.003885589125095811,0.0004245205006078714,-0.014575517737703313,0.0037162160766525416,-0.00032984372864824067,0.005537857806919079, ,0.01509051814307922, ,0.0037307373231296784, ,6.864391508692612e-05, ,0.1846350975569596,-0.21194268100021743,0.09858415079,1.9341800387012527,0.4918913991555856,-1.0951287082814742, ,0.015473168361074641,0.030212334147873537,0.014803728178438665,-0.015928922219492783,0.027172411602620048,-0.03061589573484111, ,1.6863000392913818
0.012364374586321477,0.020643309243563016,-0.088021899792245, ,0.012680435573307511,0.02038631427647177,-0.08850959620497846, ,0.0006354437438498356, ,0.0035719215289009053,0.0007286018339903847,-0.014238527664414375,-0.003173340256138463,-0.004325088992243198,0.009370295162536915, ,0.014697794191354478, ,0.005364317099465743, ,6.916899087982227e-05, ,0.1847663840158214,-0.21167238534961957,0.09872933527000001,1.9339703487577682,0.4918913991555856,-1.0951287082814742, ,0.011866567657680478,0.025585586831617897,0.014467585395095371,-0.018310489614871056,0.0174082252284295,-0.0218503907438187, ,1.691938877105713
0.012394388472656524,0.020645718624134664,-0.08813390022043625, ,0.012705864829614649,0.020386566011549603,-0.088600664731954, ,0.0006180992693459315, ,0.003690531570792044,-2.2055855173448973e-05,-0.013900299165043983,-0.014740637581747283,-0.008649448924540675,0.007788214654397395, ,0.014381892316850473, ,0.01709089945176583, ,6.966910329968398e-05, ,0.1848667795431863,-0.21143298063051863,0.09884211250000001,1.9339703487577682,0.4918913991555856,-1.0951287082814742, ,0.013500774158268712,0.032734371010165846,0.01397264168421053,-0.0176545693940941,0.01345724283821634,-0.01807870270904559, ,1.6977870464324951
0.012394388472656524,0.020645718624134664,-0.08813390022043625, ,0.012731328447671055,0.020386816282863145,-0.08869156372240003, ,0.0007011045218091019, ,0.003690531570792044,-2.2055855173448973e-05,-0.013900299165043983,-0.014740637581747283,-0.008649448924540675,0.007788214654397395, ,0.014381892316850473, ,0.01709089945176583, ,7.026630865394375e-05, ,0.1848667795431863,-0.21143298063051863,0.09884211250000001,1.9339703487577682,0.4918913991555856,-1.0951287082814742, ,0.013500774158268712,0.032734371010165846,0.01397264168421053,-0.0176545693940941,0.01345724283821634,-0.01807870270904559, ,1.703428030014038
0.012437915747894785,0.020648307389868843,-0.08829921238733177, ,0.012756826294668783,0.020387065092088784,-0.08878229317071808, ,0.0006350736321641984, ,0.003980275603590957,0.0004087281487113498,-0.014974513653430712,-0.026348644914633366,-0.013932437207736865,0.008150240909787897, ,0.015499861668314114, ,0.029805421359868606, ,7.077933731924286e-05, ,0.18502895693354504,-0.21106228945255584,0.09900933391000001,1.9339703487577682,0.4921646721551165,-1.0955965803092889, ,0.013618964058333924,0.030376741856104606,0.01511272440227704,-0.015180100145270601,0.004355096016690733,-0.005377588423985992, ,1.709324836730957
0.012437915747894785,0.020648307389868843,-0.08829921238733177, ,0.01278235823802295,0.02038731244097387,-0.08887285307173338, ,0.0007182079275217854, ,0.003891075202367076,0.00048299557028508647,-0.015337874509427633,0.014991964828164426,0.012314354568850399,0.00378704435617148, ,0.015831113208436765, ,0.019401069275072458, ,7.138881914522366e-05, ,0.18516796612528108,-0.21076882560333532,0.09915322210000001,1.9339703487577682,0.4925745816544128,-1.096012512760519, ,0.014958534293579885,0.03148538206983105,0.015616481882352944,-0.013650160384858565,0.04178534322493067,-0.03894182136336706, ,1.7180700302124023
0.01247382809783928,0.02065304124625057,-0.0884403640273092, ,0.012807924145367211,0.020387558331336812,-0.08896324342069492, ,0.0006749105178557424, ,0.003891075202367076,0.00048299557028508647,-0.015337874509427633,0.014991964828164426,0.012314354568850399,0.00378704435617148, ,0.015831113208436765, ,0.019401069275072458, ,7.194193326337501e-05, ,0.18516796612528108,-0.21076882560333532,0.09915322210000001,1.9339703487577682,0.4925745816544128,-1.096012512760519, ,0.014958534293579885,0.03148538206983105,0.015616481882352944,-0.013650160384858565,0.04178534322493067,-0.03894182136336706, ,1.7241630554199219
0.01247382809783928,0.02065304124625057,-0.0884403640273092, ,0.012833523884559916,0.020387802765067027,-0.08905346421327431, ,0.0007586991161953348, ,0.003891075202367076,0.00048299557028508647,-0.015337874509427633,0.014991964828164426,0.012314354568850399,0.00378704435617148, ,0.015831113208436765, ,0.019401069275072458, ,7.259130325907501e-05, ,0.18516796612528108,-0.21076882560333532,0.09915322210000001,1.9339703487577682,0.4925745816544128,-1.096012512760519, ,0.014958534293579885,0.03148538206983105,0.015616481882352944,-0.013650160384858565,0.04178534322493067,-0.03894182136336706, ,1.7297098636627197
0.012554922234156433,0.020659950099829783,-0.08873219026455018, ,0.012859157323676181,0.020388045744124686,-0.08914351544556617, ,0.0005793784366753187, ,0.0037930515919815237,-1.635700932401188e-05,-0.013436965263280757,0.012387815643464056,-0.004249588614567249,-0.015390904261370512, ,0.013962075183073658, ,0.013096432406475345, ,7.302229792760672e-05, ,0.18548459817312427,-0.21015872970627159,0.09944877622000001,1.9337606588142835,0.4928478546539437,-1.0966437422686144, ,0.015797726245791708,0.03228885388175256,0.013579549462915603,0.0,0.02194157595760665,-0.04108266965454039, ,1.737375020980835
0.012554922234156433,0.020659950099829783,-0.08873219026455018, ,0.012884824331017983,0.020388287270540605,-0.08923339711408666, ,0.0006586686514123313, ,0.0037930515919815237,-1.635700932401188e-05,-0.013436965263280757,0.012387815643464056,-0.004249588614567249,-0.015390904261370512, ,0.013962075183073658, ,0.013096432406475345, ,7.354439027633534e-05, ,0.18548459817312427,-0.21015872970627159,0.09944877622000001,1.9337606588142835,0.4928478546539437,-1.0966437422686144, ,0.015797726245791708,0.03228885388175256,0.013579549462915603,0.0,0.02194157595760665,-0.04108266965454039, ,1.7433788776397705
0.012594868401858106,0.020657744993478708,-0.08886796034531674, ,0.012910524775102418,0.020388527346416496,-0.08932310921577438, ,0.0006158551629550004, ,0.0039777377799967255,6.951629200401682e-05,-0.014159173597893877,0.0027832588580899444,-0.012430845668237359,0.0006286253089818694, ,0.014707461621114717, ,0.012738598227333777, ,7.401210861021225e-05, ,0.185646775563483,-0.20982665219267993,0.09958488667000001,1.933550968870799,0.4928478546539437,-1.096725421008755, ,0.016040727105894315,0.03205977755353743,0.014298753608617595,-0.01620174296539637,0.015709491072751595,-0.0356175777186933, ,1.7497498989105225
0.012594868401858106,0.020657744993478708,-0.08886796034531674, ,0.012936258524670239,0.020388765973924472,-0.08941265174798889, ,0.0006968397613935288, ,0.0039777377799967255,6.951629200401682e-05,-0.014159173597893877,0.0027832588580899444,-0.012430845668237359,0.0006286253089818694, ,0.014707461621114717, ,0.012738598227333777, ,7.466006084654413e-05, ,0.185646775563483,-0.20982665219267993,0.09958488667000001,1.933550968870799,0.4928478546539437,-1.096725421008755, ,0.016040727105894315,0.03205977755353743,0.014298753608617595,-0.01620174296539637,0.015709491072751595,-0.0356175777186933, ,1.7534759044647217
0.012594868401858106,0.020657744993478708,-0.08886796034531674, ,0.012962025448680846,0.02038900315530722,-0.08950202470851085, ,0.0007804255821589456, ,0.0039777377799967255,6.951629200401682e-05,-0.014159173597893877,0.0027832588580899444,-0.012430845668237359,0.0006286253089818694, ,0.014707461621114717, ,0.012738598227333777, ,7.54034123900846e-05, ,0.18579350748809326,-0.20951774287771094,0.09972877486000001,1.9333412789273148,0.4929844911537091,-1.096918517652592, ,0.014680838731199068,0.03155867693996368,0.01491461752808989,-0.01151401941383493,0.0,-0.019556545498433386, ,1.7573950290679932
0.01263367512646911,0.020659404961972223,-0.08901047373752069, ,0.012987825416315203,0.02038923889287772,-0.08959122809554143, ,0.000731906931957971, ,0.00410661124989695,0.00022240975624525502,-0.014805381301515699,-0.015358133485298697,-0.02112698027768474,-0.0019317653980389397, ,0.015365970113882297, ,0.026119357733909533, ,7.608625622930647e-05, ,0.18579350748809326,-0.20951774287771094,0.09972877486000001,1.9333412789273148,0.4929844911537091,-1.096918517652592, ,0.014680838731199068,0.03155867693996368,0.01491461752808989,-0.01151401941383493,0.0,-0.019556545498433386, ,1.761847972869873
0.012672056980647071,0.020661927966704664,-0.08915227651933609, ,0.013013658296974009,0.02038947318901932,-0.08968026190770129, ,0.0006853405252332695, ,0.004655607638057218,0.0006445497282765288,-0.016914463986971495,-0.015181397701160547,-0.012927591670385477,-0.00014693917051973463, ,0.01755531881790569, ,0.019939811384831058, ,7.671130665459914e-05, ,0.18594796214557774,-0.2092165562956162,0.09987266305,1.9331315889838299,0.49325776415324,-1.0972230322001253, ,0.017135597970110286,0.03226689614364868,0.017164667586206897,-0.009546893556088714,0.010505287393679289,-0.016508284926969662, ,1.7680509090423584
0.012672056980647071,0.020661927966704664,-0.08915227651933609, ,0.013039523960278366,0.020389706046185594,-0.08976912614403142, ,0.000767880338735927, ,0.004655607638057218,0.0006445497282765288,-0.016914463986971495,-0.015181397701160547,-0.012927591670385477,-0.00014693917051973463, ,0.01755531881790569, ,0.019939811384831058, ,7.742997066094619e-05, ,0.18594796214557774,-0.2092165562956162,0.09987266305,1.9331315889838299,0.49325776415324,-1.0972230322001253, ,0.017135597970110286,0.03226689614364868,0.017164667586206897,-0.009546893556088714,0.010505287393679289,-0.016508284926969662, ,1.7719769477844238
0.012672056980647071,0.020661927966704664,-0.08915227651933609, ,0.013065422276067409,0.020389937466900213,-0.08985782080399171, ,0.0008523542838721561, ,0.004655607638057218,0.0006445497282765288,-0.016914463986971495,-0.015181397701160547,-0.012927591670385477,-0.00014693917051973463, ,0.01755531881790569, ,0.019939811384831058, ,7.824384970709587e-05, ,0.18594796214557774,-0.2092165562956162,0.09987266305,1.9331315889838299,0.49325776415324,-1.0972230322001253, ,0.017135597970110286,0.03226689614364868,0.017164667586206897,-0.009546893556088714,0.010505287393679289,-0.016508284926969662, ,1.7757549285888672
0.012724103448299589,0.02067248162551816,-0.08935489649580189, ,0.01309135311440348,0.02039016745375675,-0.08994634588746053, ,0.0007512562756637243, ,0.004928899633740668,0.0011743670549766083,-0.019047297694102145,0.04380631362829762,0.02818519985891292,-0.04436652216100517, ,0.019709711794621762, ,0.05209026874297541, ,7.893624618701383e-05, ,0.18614875320030758,-0.20885358785052763,0.10008006945,1.9329218990403456,0.4938043101523018,-1.0979137400353327, ,0.01886619116470592,0.03458343351256224,0.019568564520884523,0.032127851373713864,0.05761135835933817,-0.05952172560530564, ,1.779721975326538
0.012724103448299589,0.02067248162551816,-0.08935489649580189, ,0.013117316345564503,0.020390396009418988,-0.09003470139473513, ,0.0008344599319315156, ,0.004928899633740668,0.0011743670549766083,-0.019047297694102145,0.04380631362829762,0.02818519985891292,-0.04436652216100517, ,0.019709711794621762, ,0.05209026874297541, ,7.9722062028544e-05, ,0.18614875320030758,-0.20885358785052763,0.10008006945,1.9329218990403456,0.4938043101523018,-1.0979137400353327, ,0.01886619116470592,0.03458343351256224,0.019568564520884523,0.032127851373713864,0.05761135835933817,-0.05952172560530564, ,1.783581018447876
0.012774731225469942,0.020682105338482443,-0.08954079925724151, ,0.013143311840049897,0.02039062313662032,-0.09012288732653023, ,0.0007480909462457095, ,0.005529495725413552,0.001229192604093981,-0.02101952426359647,-0.001642259504419006,-0.006898490637078154,0.002702036615969256, ,0.02176939681532878, ,0.0070909862662314116, ,8.040415568113801e-05, ,0.18632637605641475,-0.20851378760406175,0.10026932779000002,1.9331315889838299,0.4939409466520672,-1.098025157939029, ,0.018990782781362972,0.03548875899718429,0.021352294262734585,-0.015136738432544589,0.024886496657415668,-0.031970105833715796, ,1.7879068851470947
0.012774731225469942,0.020682105338482443,-0.08954079925724151, ,0.013169339468577932,0.02039084883816401,-0.09021090368397813, ,0.0008304131244377907, ,0.005529495725413552,0.001229192604093981,-0.02101952426359647,-0.001642259504419006,-0.006898490637078154,0.002702036615969256, ,0.02176939681532878, ,0.0070909862662314116, ,8.117826529162993e-05, ,0.18632637605641475,-0.20851378760406175,0.10026932779000002,1.9331315889838299,0.4939409466520672,-1.098025157939029, ,0.018990782781362972,0.03548875899718429,0.021352294262734585,-0.015136738432544589,0.024886496657415668,-0.031970105833715796, ,1.7918519973754883
0.012774731225469942,0.020682105338482443,-0.08954079925724151, ,0.013195399102086737,0.020391073116922922,-0.09029875046862804, ,0.0009144130659857475, ,0.005529495725413552,0.001229192604093981,-0.02101952426359647,-0.001642259504419006,-0.006898490637078154,0.002702036615969256, ,0.02176939681532878, ,0.0070909862662314116, ,8.204568920789578e-05, ,0.18632637605641475,-0.20851378760406175,0.10026932779000002,1.9331315889838299,0.4939409466520672,-1.098025157939029, ,0.018990782781362972,0.03548875899718429,0.021352294262734585,-0.015136738432544589,0.024886496657415668,-0.031970105833715796, ,1.7958228588104248
0.012833399604935968,0.020696340526679808,-0.08975935533174065, ,0.013221490611730393,0.0203912959758396,-0.09038642768244647, ,0.0007980517154744637, ,0.006062562881125244,0.0013845635656862254,-0.023059344204730308,-0.03370507855511208,-0.022617562918718807,0.0028189292986502785, ,0.023883153897826238, ,0.04059039237284084, ,8.277521778909103e-05, ,0.1865271671111446,-0.20815854189184743,0.10049228967000001,1.9331315889838299,0.49407758315183264,-1.098218254582866, ,0.018769173567735515,0.03761273942071771,0.023424722823529417,-0.012510118713884345,0.0,-0.006091868817104774, ,1.7997989654541016
0.012833399604935968,0.020696340526679808,-0.08975935533174065, ,0.013247613868886026,0.020391517417926008,-0.09047393532781493, ,0.0008804062442302104, ,0.006062562881125244,0.0013845635656862254,-0.023059344204730308,-0.03370507855511208,-0.022617562918718807,0.0028189292986502785, ,0.023883153897826238, ,0.04059039237284084, ,8.35959477645813e-05, ,0.1865271671111446,-0.20815854189184743,0.10049228967000001,1.9331315889838299,0.49407758315183264,-1.098218254582866, ,0.018769173567735515,0.03761273942071771,0.023424722823529417,-0.012510118713884345,0.0,-0.006091868817104774, ,1.8042998313903809
0.012898626844139272,0.020712643518209384,-0.09001560684763356, ,0.01327376874514635,0.02039173744626351,-0.09056127340753188, ,0.000735842474646717, ,0.006062562881125244,0.0013845635656862254,-0.023059344204730308,-0.03370507855511208,-0.022617562918718807,0.0028189292986502785, ,0.023883153897826238, ,0.04059039237284084, ,8.424732299839292e-05, ,0.18674340363162287,-0.2077337915837651,0.10075414025000001,1.9331315889838299,0.494487492651129,-1.098797544514377, ,0.02146989628019701,0.037243697628913185,0.024318796213740463,-0.010246731055786374,0.024094813726148412,-0.03246134368086922, ,1.8100509643554688
0.012898626844139272,0.020712643518209384,-0.09001560684763356, ,0.013299955112322926,0.020391956064002792,-0.09064844192481032, ,0.0008150981885847347, ,0.005974227929988527,0.001602945379902269,-0.023314892352788344,0.028168427152565668,0.01282207741710039,-0.004163954423289012, ,0.024121464272977157, ,0.030949298350153212, ,8.498629847563629e-05, ,0.18674340363162287,-0.2077337915837651,0.10075414025000001,1.9331315889838299,0.494487492651129,-1.098797544514377, ,0.02146989628019701,0.037243697628913185,0.024318796213740463,-0.010246731055786374,0.024094813726148412,-0.03246134368086922, ,1.8140909671783447
0.012898626844139272,0.020712643518209384,-0.09001560684763356, ,0.013326172842447907,0.020392173274363667,-0.09073544088327834, ,0.0008964696295652817, ,0.005974227929988527,0.001602945379902269,-0.023314892352788344,0.028168427152565668,0.01282207741710039,-0.004163954423289012, ,0.024121464272977157, ,0.030949298350153212, ,8.581468733836606e-05, ,0.18674340363162287,-0.2077337915837651,0.10075414025000001,1.9331315889838299,0.494487492651129,-1.098797544514377, ,0.02146989628019701,0.037243697628913185,0.024318796213740463,-0.010246731055786374,0.024094813726148412,-0.03246134368086922, ,1.8178889751434326
0.01296066519987479,0.02072487995330697,-0.09025578038836765, ,0.013352421807767112,0.020392389080635315,-0.09082227028697887, ,0.0007648099276721002, ,0.0059318243805136514,0.0009574788800318593,-0.02212559082589186,0.01512218728048288,0.0032075762379428076,0.009528192902765055, ,0.022926950858798326, ,0.015458453708086746, ,8.648952300730277e-05, ,0.18696736288497537,-0.20733220947430542,0.10099913906,1.9325025191533765,0.49489740215042527,-1.0992951557057475, ,0.02298303258863424,0.040416073917577,0.022594058893617024,-0.02466211460621995,0.045419459685747905,-0.04978055846304997, ,1.822396993637085
0.01296066519987479,0.02072487995330697,-0.09025578038836765, ,0.013378701880749225,0.020392603486175692,-0.09090893014036805, ,0.0008436627973923816, ,0.0059318243805136514,0.0009574788800318593,-0.02212559082589186,0.01512218728048288,0.0032075762379428076,0.009528192902765055, ,0.022926950858798326, ,0.015458453708086746, ,8.72507985480267e-05, ,0.18696736288497537,-0.20733220947430542,0.10099913906,1.9325025191533765,0.49489740215042527,-1.0992951557057475, ,0.02298303258863424,0.040416073917577,0.022594058893617024,-0.02466211460621995,0.045419459685747905,-0.04978055846304997, ,1.826197862625122
0.013027858371000223,0.02072936620552632,-0.09048332054759121, ,0.013405012934076817,0.020392816494411912,-0.09099542044831681, ,0.0007195537372732148, ,0.0059318243805136514,0.0009574788800318593,-0.02212559082589186,0.01512218728048288,0.0032075762379428076,0.009528192902765055, ,0.022926950858798326, ,0.015458453708086746, ,8.786807163996006e-05, ,0.18724538126844747,-0.20687656823472617,0.10122987868000001,1.9320831392664073,0.49503403865019074,-1.0994882523495844, ,0.02742686172210138,0.042842863006081616,0.021238415360000002,-0.06128080653495716,0.006847183368030336,-0.017202288972259856, ,1.8301479816436768
0.013027858371000223,0.02072936620552632,-0.09048332054759121, ,0.013431354840653682,0.020393028108839643,-0.09108174121610796, ,0.0007962662951636521, ,0.006377311069297033,0.00022018295099698968,-0.020982095494398615,-0.03551950569855284,-0.037303817178276806,0.04639157341955631, ,0.02193095776163346, ,0.05150928066299893, ,8.8569235653388e-05, ,0.18724538126844747,-0.20687656823472617,0.10122987868000001,1.9320831392664073,0.49503403865019074,-1.0994882523495844, ,0.02742686172210138,0.042842863006081616,0.021238415360000002,-0.06128080653495716,0.006847183368030336,-0.017202288972259856, ,1.8340179920196533
0.013027858371000223,0.02072936620552632,-0.09048332054759121, ,0.013457727473598611,0.020393238333023738,-0.09116789244943833, ,0.0008754473604052033, ,0.006377311069297033,0.00022018295099698968,-0.020982095494398615,-0.03551950569855284,-0.037303817178276806,0.04639157341955631, ,0.02193095776163346, ,0.05150928066299893, ,8.935650610332986e-05, ,0.18724538126844747,-0.20687656823472617,0.10122987868000001,1.9320831392664073,0.49503403865019074,-1.0994882523495844, ,0.02742686172210138,0.042842863006081616,0.021238415360000002,-0.06128080653495716,0.006847183368030336,-0.017202288972259856, ,1.8378360271453857
0.01309074572178029,0.02073365299386405,-0.09069293384170336, ,0.013484130706248938,0.020393447170597316,-0.09125387415441598, ,0.0007649482221798553, ,0.0062684258970566835,0.00023921263441870587,-0.019978202027102845,-0.005392825701551039,-0.008385800137299173,-0.04197060323278497, ,0.020939888780676288, ,0.009970006539137467, ,9.001593828552694e-05, ,0.18753112238479377,-0.2064440951937696,0.10144376653,1.931873449322923,0.49544394814948706,-1.0999858635409547, ,0.027829015119786152,0.04459442742409342,0.020317361632653064,0.029509089688287634,0.02120681335784467,-0.02913536497851001, ,1.8418819904327393
0.01309074572178029,0.02073365299386405,-0.09069293384170336, ,0.013510564412157982,0.020393654625262474,-0.09133968633756168, ,0.0008426953271148065, ,0.0062684258970566835,0.00023921263441870587,-0.019978202027102845,-0.005392825701551039,-0.008385800137299173,-0.04197060323278497, ,0.020939888780676288, ,0.009970006539137467, ,9.07596683085839e-05, ,0.18753112238479377,-0.2064440951937696,0.10144376653,1.931873449322923,0.49544394814948706,-1.0999858635409547, ,0.027829015119786152,0.04459442742409342,0.020317361632653064,0.029509089688287634,0.02120681335784467,-0.02913536497851001, ,1.846031904220581
0.01309074572178029,0.02073365299386405,-0.09069293384170336, ,0.013537028465097118,0.02039386070078945,-0.09142532900580742, ,0.0009225127456129275, ,0.0062684258970566835,0.00023921263441870587,-0.019978202027102845,-0.005392825701551039,-0.008385800137299173,-0.04197060323278497, ,0.020939888780676288, ,0.009970006539137467, ,9.158944816188264e-05, ,0.18769329977515248,-0.20615835407742328,0.10156821037000001,1.931873449322923,0.49571722114901795,-1.1002903780884883, ,0.02691348314193726,0.04730655112585781,0.02055330518709678,0.02319075105853966,0.06448374160311104,-0.07353271683436541, ,1.8524489402770996
0.013127031662599866,0.020733483075717894,-0.09081538483283942, ,0.013563522739055915,0.020394065401017104,-0.0915108021664958, ,0.0008884447566814755, ,0.005880049455729694,8.405001924568622e-05,-0.020134550223789995,0.044545610131946335,0.02167485136822321,-0.04168430096663419, ,0.020975751684311195, ,0.04953894684754281, ,9.248078519602087e-05, ,0.18769329977515248,-0.20615835407742328,0.10156821037000001,1.931873449322923,0.49571722114901795,-1.1002903780884883, ,0.02691348314193726,0.04730655112585781,0.02055330518709678,0.02319075105853966,0.06448374160311104,-0.07353271683436541, ,1.8556749820709229
0.013127031662599866,0.020733483075717894,-0.09081538483283942, ,0.013590047108238515,0.02039426872985254,-0.09159610582738066, ,0.000969007196391378, ,0.005880049455729694,8.405001924568622e-05,-0.020134550223789995,0.044545610131946335,0.02167485136822321,-0.04168430096663419, ,0.020975751684311195, ,0.04953894684754281, ,9.34601443146749e-05, ,0.18769329977515248,-0.20615835407742328,0.10156821037000001,1.931873449322923,0.49571722114901795,-1.1002903780884883, ,0.02691348314193726,0.04730655112585781,0.02055330518709678,0.02319075105853966,0.06448374160311104,-0.07353271683436541, ,1.8577098846435547
0.013127031662599866,0.020733483075717894,-0.09081538483283942, ,0.013616601447066112,0.02039447069127108,-0.09168123999662586, ,0.001050863043087103, ,0.005541662643253911,-0.00030335170262234474,-0.018195062715445617,0.0015098062940444364,-0.001360831865230644,-0.02946006697837362, ,0.01902267999852069, ,0.002032088633702424, ,9.452867433562628e-05, ,0.1880794364188637,-0.20550192178311422,0.10185209788,1.931873449322923,0.49599049414854884,-1.1005948926360216, ,0.02440137350436379,0.0454487268000339,0.018414811005780348,0.015512392494433369,0.030156724540910874,-0.037396994124520994, ,1.8601369857788086
0.013214345976820543,0.02073174930855379,-0.0910957625605641, ,0.0136431856301783,0.020394671289316168,-0.09176620468280464, ,0.0008643018446234782, ,0.005541662643253911,-0.00030335170262234474,-0.018195062715445617,0.0015098062940444364,-0.001360831865230644,-0.02946006697837362, ,0.01902267999852069, ,0.002032088633702424, ,9.538683840506648e-05, ,0.1880794364188637,-0.20550192178311422,0.10185209788,1.931873449322923,0.49599049414854884,-1.1005948926360216, ,0.02440137350436379,0.0454487268000339,0.018414811005780348,0.015512392494433369,0.030156724540910874,-0.037396994124520994, ,1.8623428344726562
0.013214345976820543,0.02073174930855379,-0.0910957625605641, ,0.013669799532428552,0.02039487052809937,-0.0918509998949, ,0.000944091460193995, ,0.005541662643253911,-0.00030335170262234474,-0.018195062715445617,0.0015098062940444364,-0.001360831865230644,-0.02946006697837362, ,0.01902267999852069, ,0.002032088633702424, ,9.633194377454188e-05, ,0.1880794364188637,-0.20550192178311422,0.10185209788,1.931873449322923,0.49599049414854884,-1.1005948926360216, ,0.02440137350436379,0.0454487268000339,0.018414811005780348,0.015512392494433369,0.030156724540910874,-0.037396994124520994, ,1.8644118309020996
0.013214345976820543,0.02073174930855379,-0.0910957625605641, ,0.013696443028887192,0.020395068411800173,-0.0919356256423039, ,0.0010252519641140091, ,0.005541662643253911,-0.00030335170262234474,-0.018195062715445617,0.0015098062940444364,-0.001360831865230644,-0.02946006697837362, ,0.01902267999852069, ,0.002032088633702424, ,9.736522522097067e-05, ,0.1880794364188637,-0.20550192178311422,0.10185209788,1.931873449322923,0.49599049414854884,-1.1005948926360216, ,0.02440137350436379,0.0454487268000339,0.018414811005780348,0.015512392494433369,0.030156724540910874,-0.037396994124520994, ,1.866454839706421
