NicholasDascanio/dvrk_moveit_final/test/execution/third_experiment_notsharpbends/thirdexp_600vel3.0/thirdexp_600vel3.0_3.csv
Current Position (x),Current Position (y),Current Position (z), ,Planned Position (x),Planned Position (y),Planned Position (z), ,Position Error,,Cartesian linear Velocity(x),Cartesian linear Velocity(y),Cartesian linear Velocity(z),Cartesian Angular Velocity(x),Cartesian Angular Velocity(y),Cartesian Angular Velocity(z), ,Total Linear Velocity, ,Total Angular Velocity, ,MSE, ,Joint 1 Position,Joint 2 Position,Joint 3 Position,Joint 4 Position,Joint 5 Position,Joint 6 Position, ,Joint 1 Velocity,Joint 2 Velocity,Joint 3 Velocity,Joint 4 Velocity,Joint 5 Velocity,Joint 6 Velocity, ,Time Stamp
0.00997689685590483,0.020384573400103582,-0.08003312585213271, ,0.01012990975702241,0.020298237583719937,-0.08003029444924611, ,0.00017571237276115377, ,-2.1093503345427597e-05,-2.060909605716093e-05,0.0001059967836238446,0.051477242754482226,-0.011012031992070207,-0.0051682490280601226, ,0.0001100226743097848, ,0.052641916475355176, ,1.4642697730096147e-05, ,0.14461589580272816,-0.24212312107268683,0.08983548958000001,1.838771114415794,0.19047128067302396,-1.1777710268323696, ,-6.653848539649042e-05,-8.04750422463054e-05,-0.00011080289790314886,-0.0005088377613559077,0.0,-0.05452277669387362, ,0.02332019805908203
0.009978542704608026,0.02038400516704546,-0.08003193654448054, ,0.010147066159000573,0.020305850265156414,-0.08005022273162146, ,0.00018666206901734458, ,-4.8460837482396956e-05,-0.00015377850047194414,0.000645022642973964,0.1860201998046353,-0.04028845292897353,-0.019960533958373005, ,0.0006648687764709762, ,0.19033306117111307, ,1.647156553538629e-05, ,0.1446236185356024,-0.24212312107268683,0.08983419329,1.838771114415794,0.19033464417325854,-1.1813351522349984, ,0.0005610507057130577,-7.804451808358358e-05,-0.000664190126538552,-0.0005088377613559077,0.0,-0.1912811928240572, ,0.0421900749206543
0.01000329834862862,0.020380037367538288,-0.0800380157087601, ,0.01016424698214745,0.020313388131012276,-0.08007041334367637, ,0.00017718970091189681, ,0.0013329045068908453,-0.0003829950672531174,0.00033973970052087897,0.10851028305308641,-0.16720220697717447,-0.05329386922616783, ,0.0014278454783834852, ,0.19932651491033207, ,1.686137945907485e-05, ,0.14463906400135085,-0.24212312107268683,0.08983808216000001,1.838771114415794,0.18773855067771517,-1.185262438835168, ,0.0015132967069718024,-7.58959882306236e-05,-0.0004795626858801335,-0.0005088377613559077,-0.1445472288983701,-0.1455537390479105, ,0.061773061752319336
0.010029563657494637,0.02037911129964937,-0.08004959136224744, ,0.010181452223630112,0.020320851464806295,-0.0800908652095706, ,0.00016783287923254945, ,0.0008570396446548003,-0.0001412676676892864,-4.1268005024777454e-05,0.21976333271058102,-0.12134016081260085,-0.04367735868391744, ,0.0008695841274328333, ,0.25103656512565925, ,1.6842786236260585e-05, ,0.14467767766572195,-0.24213856653843527,0.08984845248000001,1.838771114415794,0.18527909368193726,-1.188566034677769, ,0.0026940397044084973,3.692102107374384e-05,0.0,-0.0005088377613559077,-0.072470695355857,-0.2430831991964575, ,0.08141016960144043
0.010055866173585387,0.020374125310067652,-0.08005270702997128, ,0.010198681880558232,0.02032824054963825,-0.08011157725529831, ,0.00016114416163135769, ,0.0016246651262464917,-0.00014482314460279215,-0.00028692647388001597,-0.14712622519467045,-0.11622294253163681,-0.02668873489855593, ,0.0016561513569319048, ,0.1874937292571275, ,1.6702715068351967e-05, ,0.14473173679584153,-0.24213084380556105,0.08984974877000002,1.838771114415794,0.18281963668615933,-1.192032988000651, ,0.0037684671616673186,-0.0010102964580171727,0.00022095953746308013,-0.0005088377613559077,-0.14631275094688936,0.1178045876735676, ,0.10166716575622559
0.010067534082775382,0.020374004012457092,-0.08005749776360818, ,0.010215935949983976,0.020335555668188832,-0.08013254840868796, ,0.00017068681464851973, ,0.00028566533687426275,0.00012724115797806465,-4.240447828903902e-05,-0.12116381406420271,0.0427894460171095,0.017635207755972618, ,0.0003155838030603763, ,0.12849749619753614, ,1.6761741906497128e-05, ,0.14480896412458377,-0.24213084380556105,0.08985493393,1.8385614244723094,0.18227309068709754,-1.188891917961227, ,0.005813973885763588,-0.0006078761685126666,0.00013945771672864383,0.0014139131204772227,0.02237314209167861,0.1306192846903348, ,0.12038302421569824
0.010065599866831747,0.020379154997807642,-0.0800653202074422, ,0.01023321442890434,0.02034279710272325,-0.08015377759940058, ,0.00019297991643130603, ,-6.406541809707201e-05,0.00032533499266866064,-0.00033579512811096976,0.0312908291172152,0.060382704318242525,0.017477781266537075, ,0.0004719169453555707, ,0.06800872714311791, ,1.711399881436289e-05, ,0.14490163691907448,-0.24213084380556105,0.08986530425000001,1.838771114415794,0.1835028191849865,-1.1868725657092938, ,0.0065507501400344946,-0.0007585145067360246,0.0005051027755504164,0.001131985534634605,0.0742814920549053,-0.013774592509635517, ,0.14793920516967773
0.010076820499516498,0.020381850337446814,-0.08007223236984726, ,0.010250517314258228,0.0203499651350872,-0.0801752637589291, ,0.00020445712684342846, ,0.0003001145107978079,0.00018937354491278525,-0.00016295873687713485,0.06889978359012751,-0.007926106102886427,-0.004598643655266369, ,0.00039049533803725946, ,0.06935418759325652, ,1.752030538387264e-05, ,0.14505609157655897,-0.24213084380556105,0.08987437828000001,1.838771114415794,0.1837760921845174,-1.187177080256827, ,0.004561363750638654,-0.0013059992324553917,0.00025587449464400784,0.0010814978595919166,0.01102485640028517,-0.06675262573707073, ,0.16870403289794922
0.01008856249196664,0.020385218255344017,-0.08008315856956397, ,0.010267844602929791,0.020357060046711745,-0.08019700582059636, ,0.00021423388292334648, ,0.0006381860566002361,0.00023963724066008497,-0.0005253463128768979,0.004305930264332656,-0.007297187292255003,-0.0011783456758611118, ,0.0008606370886752968, ,0.008472896660499512, ,1.7944553526096774e-05, ,0.145195100768295,-0.24213084380556105,0.08988734118000001,1.838771114415794,0.18391272868428285,-1.1876152131210858, ,0.006877268681011573,-0.0010432095118661003,0.0006415035348078588,0.0010483575840098058,0.0,-0.003213886350830029, ,0.1886429786682129
0.010101779329978494,0.020388963934764234,-0.08009535945223357, ,0.010285196291744644,0.020364082118608105,-0.08021900271955448, ,0.00022259502283865706, ,0.0005946630053675667,0.00024602754763979783,-0.0006821954587415128,-0.015788828134029795,-0.00248361225974808,0.001663480312590739, ,0.0009378402252398767, ,0.01598297293067075, ,1.8367587718034903e-05, ,0.14533410996003104,-0.24213084380556105,0.08990160037000001,1.8389808043592786,0.18391272868428285,-1.1877785706013668, ,0.006065002198258872,-0.0007021715664370328,0.0007887754716074458,0.00014350125702122723,0.0,0.016965976733487705, ,0.20708703994750977
0.010113976068057903,0.020393937030447423,-0.08011411168991157, ,0.010302572377473306,0.0203710316313728,-0.08024125339278315, ,0.00022860060770033504, ,0.0007320757593065559,0.00034479265157313135,-0.001126622203753214,-0.009126313996273451,-0.0048349244315422585,0.0009347433531956871, ,0.0013871173273854124, ,0.01032792822474507, ,1.876870138339192e-05, ,0.14544995095314442,-0.24213084380556105,0.08992234101,1.8389808043592786,0.18391272868428285,-1.1877785706013668, ,0.006948590051514177,-0.0005338359720289874,0.0012573029833336047,0.00014350125702122723,0.0,0.009945535808584531, ,0.2272930145263672
0.010128327816721051,0.020400464218531617,-0.08013893157325477, ,0.010319972856829984,0.020377908865186083,-0.08026375677908873, ,0.0002298214467241596, ,0.0007720107443912979,0.00037844217601436096,-0.0012951431215903874,-0.0014317846788182368,-0.006693008463496224,0.00011737735839344545, ,0.0015545464854564445, ,0.006844440784701599, ,1.9114065587410286e-05, ,0.14558123741200624,-0.24213084380556105,0.0899495631,1.8389808043592786,0.18391272868428285,-1.1876968918612265, ,0.007130870684036981,-0.00042983377839008304,0.0014326115450358917,0.00014350125702122723,0.0,0.0019298079100576856, ,0.24714899063110352
0.010135105383839558,0.020403572403333625,-0.08015075718046924, ,0.010337397726471912,0.0203847140998108,-0.08028651181910287, ,0.0002443504643130302, ,0.0006267762434120607,0.0003323601763539673,-0.001139240705256582,-0.0012563727252829452,-0.005238076214867936,8.968739671334834e-05, ,0.0013420808957157872, ,0.0053866422617137935, ,1.95171701967961e-05, ,0.14564301927500004,-0.24213084380556105,0.08996252600000001,1.8389808043592786,0.18391272868428285,-1.1876968918612265, ,0.005629800158761139,-0.00039291140243247566,0.0012537024776569099,0.00014337822153474196,0.0,0.0017238909848516358, ,0.26752400398254395
0.010155414593440944,0.02041198034113307,-0.08018107865577351, ,0.010354846983000434,0.020391447614594705,-0.08030951745528095, ,0.00023809955078374261, ,0.000752632896326787,0.00031083482904778606,-0.0010581930298944732,-0.00082154570601941,-0.006815128941126033,-0.0007122562282542988, ,0.0013352329594867182, ,0.00686446792037997, ,1.9819478991273438e-05, ,0.14583608759685565,-0.24213084380556105,0.08999622954000001,1.8391904943027633,0.18391272868428285,-1.1876152131210858, ,0.007307104069738992,-0.0003100126076354069,0.00118588705165447,0.0009227781799843543,0.0,0.0012936967531492903, ,0.28755998611450195
0.010162634273368413,0.020414777707454847,-0.08019157853851663, ,0.010372320622960611,0.02039810968846969,-0.08033277263190164, ,0.0002533415877210147, ,0.000747845424295388,0.00031680777351417074,-0.00109051790808341,0.00041605629780117753,-0.006967063689234344,-0.0008443398092911219, ,0.0013597313160507746, ,0.0069794755742280095, ,2.0182286871591068e-05, ,0.14590559219272367,-0.24213084380556105,0.09000789615,1.8391904943027633,0.18391272868428285,-1.1875335343809452, ,0.007188323215624311,-0.00028887499901664084,0.0012179074818013192,0.0009227781799843543,0.0,0.0, ,0.30903005599975586
0.01018835662982819,0.020423531230365596,-0.08022537353311282, ,0.010389818642841183,0.020404700599951975,-0.08035627629506449, ,0.00024099184304784567, ,0.0008683688242910309,0.0003336454290771832,-0.0011602998579118185,0.00036945854083789815,-0.008309334303918692,-0.0008511290374126204, ,0.0014871716268187985, ,0.008317543879389815, ,2.0550928245526015e-05, ,0.14614499691182462,-0.24213084380556105,0.09004548856000001,1.8391904943027633,0.1837760921845174,-1.1873404377371082, ,0.008530593830308656,-0.00024157081837026617,0.001304041443409186,0.0009227781799843543,0.0,0.0, ,0.326815128326416
0.010197005505262676,0.02042663941516759,-0.0802369581750964, ,0.010407341039075835,0.02041122062714396,-0.08038002739268993, ,0.00025484814464972466, ,0.0008791363832469646,0.00035071740609643654,-0.0012329604904092262,0.00035699980224087376,-0.008307472221662194,-0.0008529432829064453, ,0.001554372880038032, ,0.008315139419735525, ,2.09620446598789e-05, ,0.14622994697344108,-0.24213084380556105,0.09005845146000001,1.8391904943027633,0.1837760921845174,-1.1873404377371082, ,0.008528731748052158,-0.00022890458977120381,0.0013795004265847867,0.0009227781799843543,0.0,0.0, ,0.3457000255584717
0.010213903209763073,0.02043342681626683,-0.08026116766258709, ,0.010424887808041546,0.020417670047732237,-0.08040402487451703, ,0.0002552860346078054, ,0.0009043873998216262,0.0003153296120112599,-0.0010928510331976165,0.0003279365677038694,-0.008861622356210436,-0.0008552951780531642, ,0.0014531595624460486, ,0.008867688152780696, ,2.1334266071436974e-05, ,0.14640756982954825,-0.24213084380556105,0.09008567355000001,1.8391904943027633,0.18391272868428285,-1.1873701769006642, ,0.009084514281162536,-0.00020704484087831815,0.0012392586106674617,0.0009227781799843543,0.0,7.800912479141252e-06, ,0.3640739917755127
0.010233959315951741,0.020440280642827154,-0.08028516630294046, ,0.010442458946059038,0.020424049138988338,-0.08042826769210287, ,0.000253403956267385, ,0.0009684510853354727,0.0003902020343829585,-0.0013739811385557658,0.000579938561302232,-0.008277454366801698,-0.004013329558628155, ,0.001725682271286071, ,0.008297745448281305, ,2.166083820773725e-05, ,0.1466083608842781,-0.24213084380556105,0.09011289564000001,1.8394001842462477,0.18391272868428285,-1.1872884981605236, ,0.009336163756091689,-0.00018918520743723736,0.001536042392788929,0.004229483067687607,0.0,0.00021285858809102506, ,0.38437414169311523
0.010249451028402901,0.020446757417331478,-0.08030828136727924, ,0.010460054449393503,0.020430358177769878,-0.08045275479882087, ,0.000255920511902733, ,0.0009602721132777221,0.00035685344173890296,-0.0012423437735393542,-0.0021836989562210737,-0.0077290862465384386,-0.003663583675814672, ,0.0016102437585880484, ,0.008031644622047916, ,2.197034565968191e-05, ,0.14677053827463682,-0.24213084380556105,0.09013882144,1.8394001842462477,0.1840493651840483,-1.187236558583939, ,0.009480406459368007,-0.00017662335912079394,0.0014005279760646457,0.004188768476418976,0.00011290610809306998,0.0030622666207574317, ,0.4031240940093994
0.010272849513856076,0.02045483869781666,-0.08033827203285768, ,0.010477674314254322,0.020436597440520253,-0.08047748514985975, ,0.0002483268698134938, ,0.0009962308948571596,0.00036967801197498537,-0.0012974793852773673,-0.007892715777755787,-0.006920075163955634,-0.0027905019154289092, ,0.0016770779897265988, ,0.010496780583567214, ,2.2215946430926356e-05, ,0.14700222026086354,-0.24213084380556105,0.09017252498000002,1.8394001842462477,0.1840493651840483,-1.1869915223635172, ,0.009814112216089901,-0.00016113979371038927,0.0014613151196704104,0.0038789290120245443,0.00011448926994738071,0.00733895572193425, ,0.4212172031402588
0.01028865575242883,0.02046221389088343,-0.08036224913981763, ,0.01049531853679511,0.02044276720326918,-0.08050245770222211, ,0.0002504917584926152, ,0.0009458179369097358,0.00038886452156041475,-0.0013380649144865467,-0.0016405230562515053,-0.002550076207904696,0.0006747661305582246, ,0.0016841035898330272, ,0.003032194677115089, ,2.245105452680672e-05, ,0.14709489305535423,-0.24213084380556105,0.09018808046000001,1.8394001842462477,0.18418600168381372,-1.187021261527073, ,0.009469938981765479,-0.0001555566030763422,0.0015430028947968253,0.0037655713801999216,0.0020516054432408214,0.007290875936208015, ,0.4401969909667969
0.010300366064637167,0.02046625453112602,-0.08037723976560603, ,0.010512987113113863,0.0204488677416326,-0.08052767141472363, ,0.00026103580551422185, ,0.000947135645626089,0.0003596227716079911,-0.0012205195179347777,-0.0016464271274739181,-0.0027750273019366096,0.0006737116716074239, ,0.0015862100626128635, ,0.0032266854215846842, ,2.271434164632887e-05, ,0.147396079637449,-0.24213856653843527,0.09023085803000001,1.839609874189732,0.18432263818357916,-1.1869693219504884, ,0.009950045520149633,0.0,0.0013532616421681062,0.0015225085683428612,0.00656819215672236,0.0023676937992192695, ,0.4572169780731201
0.010319952923953905,0.020473092537690418,-0.08040263544566807, ,0.010530680039253558,0.020454899330814087,-0.08055312524799138, ,0.0002595844573588076, ,0.0008820490213430875,0.00036376509049300106,-0.0012813697739060628,-0.0005695626719910585,-0.0021426439787418806,0.0005307918668383774, ,0.0015975744159799738, ,0.002217053191402956, ,2.29510600263368e-05, ,0.14748875243193968,-0.24213084380556105,0.09024511722,1.839609874189732,0.18432263818357916,-1.1869693219504884, ,0.009129203236668939,-4.4294351719931635e-05,0.0014402237045864634,0.0015225085683428612,0.006539202215510716,0.002391333152420126, ,0.47628211975097656
0.010340736088347372,0.02048174963914123,-0.08043124238180324, ,0.010548397311199205,0.02046086224560081,-0.0805788181644623, ,0.0002556131419013205, ,0.0009371645199217578,0.00022213065726764327,-0.0010655004048146168,-0.00444364695588172,-0.005853706440503681,-0.0003985568310452992, ,0.0014362835649545135, ,0.00734927733581594, ,2.315376085966031e-05, ,0.14770498895241796,-0.24213856653843527,0.09027752447000001,1.839609874189732,0.1844592746833446,-1.1870807398541847, ,0.009788397092419838,0.0009022944762958595,0.0011992975797171512,0.0015225085683428612,0.0027994994785564813,0.00453201302272694, ,0.49343109130859375
0.01034993783744602,0.02048487465264959,-0.08044139278382817, ,0.010566138924883874,0.020466756760371806,-0.08060474912838325, ,0.00027158141235419323, ,0.000906800275388481,0.0002361248088350797,-0.0011170352403927519,-0.0038643082496514795,-0.005126479205377052,-0.0017744611825451255, ,0.0014580155668137845, ,0.006419787168570986, ,2.340554398562545e-05, ,0.1479057800071478,-0.24213856653843527,0.09030345027000002,1.8398195641332167,0.1844592746833446,-1.1869990611140442, ,0.010774708250502274,0.0008025721435070939,0.001461016018917215,0.002915242255486467,0.0027994994785564813,0.003371608406130891, ,0.5115129947662354
0.010370357821055373,0.02049202370122791,-0.08046794142485551, ,0.010583904876182175,0.020472583149089726,-0.08063091710580778, ,0.0002693350188939801, ,0.0009324841095744122,0.0003577855158790818,-0.0015268036494680529,0.0009524278790124558,-0.005675896526880555,-0.002203391995680711, ,0.0018244633386315578, ,0.005755251535795635, ,2.3631255997253724e-05, ,0.1479984528016385,-0.24213856653843527,0.09031900575000001,1.8398195641332167,0.1844592746833446,-1.1868357036337631, ,0.008875929625099553,0.0006651023778723871,0.0016758551853174168,0.002915242255486467,0.0027994994785564813,-0.0005678322167453971, ,0.5290160179138184
0.010389700907855761,0.020500676752702365,-0.08049942195129481, ,0.010601695160916122,0.020478341685308155,-0.08065732106459707, ,0.000265278247407819, ,0.0010211963322066821,0.0003490127731520529,-0.0014153559890065278,-0.0012451668829816251,-0.005775201057922239,-0.0017198847824783435, ,0.0017798551739825106, ,0.005907908921117571, ,2.3826783668006642e-05, ,0.14819152112349412,-0.24213856653843527,0.09035400558000001,1.8398195641332167,0.18459591118311003,-1.1868654427973189, ,0.010233163368826579,0.0005040855179070413,0.0015788026458694127,0.002915242255486467,0.0035606878658151287,0.0020342621305186846, ,0.5463061332702637
0.010405452746075888,0.020507464786890823,-0.08052375145905598, ,0.01061950977484858,0.020484032642163752,-0.08068395997441621, ,0.00026839568805670975, ,0.0008515154547116029,0.00033373919180864264,-0.0013214572129204702,0.0029004805347058477,-0.0025324234746504247,-0.0013846707644950785, ,0.0016070810755345639, ,0.0038504488028200576, ,2.4020865089030566e-05, ,0.14835369851385283,-0.24213856653843527,0.09038122767000001,1.8398195641332167,0.18473254768287548,-1.1868951819608748, ,0.008598254835256863,0.00042274386334735617,0.0014675590876097413,0.002915242255486467,0.006081797564442691,-0.0015514607988574044, ,0.5668051242828369
0.010430027276529023,0.020516495996971695,-0.08055601303007683, ,0.010637348713691194,0.020489656292386745,-0.08071083280673566, ,0.00026013786978040495, ,0.0010258681493130655,0.0003749942879408455,-0.0014464206978202394,-0.00266375014603964,-0.003950068816000643,-0.0013546888971255387, ,0.0018125007616125472, ,0.004764305666656571, ,2.4174001270142512e-05, ,0.1485931032329538,-0.24213856653843527,0.09041752379000001,1.8400292540767011,0.18473254768287548,-1.1866501457404532, ,0.01038405825391296,0.000343309500548811,0.0016183107748058262,0.0032085781489913424,0.005139985799189004,0.004072339000733026, ,0.5835981369018555
0.010441184147707635,0.020519909454617943,-0.08057122119745916, ,0.01065521197309791,0.020495212908292287,-0.08073793853482779, ,0.00027241971298162527, ,0.0011018522479636713,0.00046543054334471923,-0.0016877118519899004,-0.005178293879755402,-0.004077535022600636,-0.0011035501583079783, ,0.0020685925800814275, ,0.006590980151081798, ,2.4441891788178058e-05, ,0.14870122149319293,-0.24213084380556105,0.09043437556,1.8400292540767011,0.18473254768287548,-1.1865684670003125, ,0.010833180459973654,0.0,0.0018816270169349594,0.0032085781489913424,0.004841700183597968,0.0069361301800061346, ,0.6010282039642334
0.010461352958036858,0.020530066451559907,-0.08060737984613059, ,0.010673099548668245,0.02050070276178518,-0.08076527613376677, ,0.0002657632077065799, ,0.0009697914854512116,0.00046823332111949013,-0.0016915100481129479,-0.0008643678061499111,-0.0011858072756315138,-0.000809506427949192, ,0.0020052292166052544, ,0.0014674026664148782, ,2.467366760798385e-05, ,0.14890973528079698,-0.24213084380556105,0.09047456055000001,1.8400292540767011,0.18500582068240637,-1.1867096240675648, ,0.009474671839416164,0.0,0.0018733954533324336,0.0032085781489913424,0.007342459355435539,0.0030900890153616823, ,0.6167840957641602
0.010471874405594342,0.0205341070918025,-0.08062250803953, ,0.010691011435946222,0.02050612612435856,-0.08079284458042675, ,0.0002789596920259451, ,0.0009459363641884965,0.00036614588101297754,-0.0012777975437300872,-0.00016496930326370866,-0.0017978201912461176,-0.0008799862863387897, ,0.001631448734726153, ,0.0018053731768432324, ,2.493595169532171e-05, ,0.14901013080816192,-0.24213084380556105,0.09049141232,1.8400292540767011,0.18500582068240637,-1.1867096240675648, ,0.009935930420840903,0.0,0.0014476327134505954,0.0032085781489913424,0.007342459355435539,0.002371252009851609, ,0.6315109729766846
0.010490369493323735,0.020540577893567807,-0.08064789884687376, ,0.010708947630421975,0.020511483267096405,-0.08082064285348162, ,0.0002801131755662024, ,0.0010914811319862182,0.00042171811614273515,-0.0015334171616563535,0.0012210607512799386,-0.0045256691826618175,-0.0014036521369429039, ,0.0019288715412455856, ,0.0046875015627445985, ,2.5188696403797036e-05, ,0.14920319913001753,-0.24212312107268683,0.09051993070000001,1.8400292540767011,0.18514245718217182,-1.1867393632311207, ,0.01109817932480762,0.00010019782577305608,0.001723524293442978,0.003200366874640134,0.0060804833996572155,0.0005470460514113481, ,0.6502480506896973
0.010515003532656757,0.020549609261170335,-0.08068013549831006, ,0.010726908127529649,0.02051677446067029,-0.08084866993340212, ,0.00027273712116967277, ,0.0011024361734565443,0.0003924275916836793,-0.0014209804378655184,-0.0004605269752193614,-0.005492092641079913,-0.0012021785431516419, ,0.001840801547168146, ,0.005511367041607312, ,2.540651765743403e-05, ,0.14944260384911848,-0.24212312107268683,0.09055622682000002,1.8402389440201858,0.18514245718217182,-1.1865760057508394, ,0.011320041387150972,8.97430914276251e-05,0.001608273953664329,0.0028518917679209933,0.0050499260876561616,0.001993679234040662, ,0.6653990745544434
0.010515003532656757,0.020549609261170335,-0.08068013549831006, ,0.01074489292264945,0.02052199997534328,-0.08087692480245612, ,0.00030387075298781617, ,0.0011024361734565443,0.0003924275916836793,-0.0014209804378655184,-0.0004605269752193614,-0.005492092641079913,-0.0012021785431516419, ,0.001840801547168146, ,0.005511367041607312, ,2.5706871722294756e-05, ,0.14944260384911848,-0.24212312107268683,0.09055622682000002,1.8402389440201858,0.18514245718217182,-1.1865760057508394, ,0.011320041387150972,8.97430914276251e-05,0.001608273953664329,0.0028518917679209933,0.0050499260876561616,0.001993679234040662, ,0.6815330982208252
0.010546016158301657,0.020561013832508364,-0.08072398464236961, ,0.010762902011104289,0.020527160080964686,-0.08090540644470627, ,0.0002847795989929529, ,0.0010080145471406796,0.0005139184018047066,-0.0018699072167178102,0.003126188847651778,-0.0009045712707855534,-0.0016529243441670153, ,0.002185579659974461, ,0.00325442865527141, ,2.593755576082127e-05, ,0.1497669586298359,-0.24210767560693838,0.09060548584000001,1.8404486339636703,0.18541573018170268,-1.1867171628180917, ,0.0096971700970519,4.1209436030961125e-05,0.0020633175544041453,0.0040273048247136565,0.008510953667615652,-0.0006528570932570208, ,0.6970741748809814
0.010558561941721006,0.02056629725100812,-0.08074391676830014, ,0.010780935388165281,0.02053225504697803,-0.08093411384600964, ,0.0002945908174196253, ,0.0011788514054976672,0.0005411041384167276,-0.001962833035309841,0.005841771048508437,-0.003778581016135927,-0.00205372755650126, ,0.0023527001188760072, ,0.0069572956994481015, ,2.6185676476869863e-05, ,0.1498827996229493,-0.24210767560693838,0.09062752277000001,1.8404486339636703,0.18541573018170268,-1.1866354840779514, ,0.011549320910311944,4.1209436030961125e-05,0.0021802369997262526,0.0040273048247136565,0.008068681954715351,-0.00354817606686321, ,0.7116580009460449
0.010581317210277837,0.020574934704723626,-0.08078031737996351, ,0.010798993049049016,0.020537285142417608,-0.08096304599401621, ,0.00028668799542393413, ,0.001394081531753268,0.0005138184747031441,-0.002032616006565936,0.000293487417447971,-0.010723692926137555,-0.003448887312539018, ,0.002517737192851918, ,0.010727708273606118, ,2.6400725456282054e-05, ,0.1501067588763018,-0.24209223014118994,0.09066770776000001,1.8404486339636703,0.18555236668146813,-1.1866652232415071, ,0.01335072334812476,0.00045710186232685664,0.0022584448490004256,0.0040273048247136565,0.0017218018998140221,0.00023979743960910653, ,0.7270121574401855
0.01059815087287517,0.020581453138022704,-0.08080745827272218, ,0.010817074988913922,0.020542250635903515,-0.08099220187816665, ,0.00028912766126466913, ,0.0013478865825870823,0.0005550659612740249,-0.0022995766592989043,-0.0002515511572371437,-0.009601854727699009,-0.0034593453623680006, ,0.0027226731851024, ,0.009605149250909063, ,2.6613046594195988e-05, ,0.1502612135337863,-0.24208450740831572,0.09069752243000001,1.8404486339636703,0.18555236668146813,-1.1865835445013666, ,0.012290757875724747,0.0007188161696095565,0.00251958423283771,0.0040273048247136565,0.0017218018998140221,0.0005346099823973575, ,0.7418501377105713
0.0106228802458734,0.02059226377943904,-0.08085247640062404, ,0.010835181202866745,0.020547151795650854,-0.08102158048969266, ,0.00027514174594438207, ,0.0012219414081497525,0.00048706848251054834,-0.002083534440905736,-0.002932941320526971,-0.005691677070409316,-0.0024254489025907957, ,0.0024640398288271453, ,0.006402915946989533, ,2.6779012922704826e-05, ,0.15049289552001302,-0.24206906194256725,0.09074678145000001,1.8404486339636703,0.18568900318123358,-1.1865316049247818, ,0.011417381273430734,0.000916004391889774,0.002283373211009174,0.003953452230265246,0.004280069263788187,0.0036816686385623635, ,0.7570881843566895
0.010629177888810223,0.020595632184138173,-0.08086405952740193, ,0.010853311685958862,0.020551988889464717,-0.08105118082161437, ,0.00029522038368303983, ,0.001118882653716606,0.0004313250761770889,-0.0018085463291389724,0.0016625893221373148,-0.0004726300319741633,-0.0009815573512573822, ,0.0021699722437785096, ,0.001728462432875061, ,2.699047057362232e-05, ,0.15056240011588104,-0.24206906194256725,0.09075974435,1.8404486339636703,0.185825639680999,-1.1865613440883378, ,0.011330243682508095,0.000916004391889774,0.00200173488651399,0.003863111582719507,0.01052097289172049,0.0004119164437986246, ,0.7724690437316895
0.010657278454966113,0.020604276817309138,-0.08090109003158326, ,0.010871466433187319,0.020556762184741735,-0.08108100186874045, ,0.0002837294476641095, ,0.0012169515663443813,0.00037764218902391726,-0.0016264873157587727,0.002046463413727018,-0.005473386154155883,-0.0007120345175811649, ,0.002066166916317023, ,0.005843455183780025, ,2.7163886642868175e-05, ,0.15084814123222734,-0.24204589374394458,0.09080122563000001,1.8406583239071548,0.18596227618076444,-1.1865910832518936, ,0.012486439678746155,0.0009352297491486939,0.0018210605572302715,0.002475281918530532,0.007088713613015966,-0.0010152202676844374, ,0.7884609699249268
0.010670161913936464,0.020607677095362997,-0.08091875003326214, ,0.010889645439495398,0.02056147194847107,-0.08111104262766518, ,0.00029543929233149564, ,0.0011821761988182002,0.00034146023570061183,-0.0017400017553317034,-0.0035435501775529796,-0.0037849666606039104,-0.00033457322170753206, ,0.0021311362617567127, ,0.005184854912798363, ,2.7359696665897124e-05, ,0.15097170495821494,-0.24203044827819614,0.09082066998,1.8406583239071548,0.18596227618076444,-1.186509404511753, ,0.011850267427381466,0.0016600152176677145,0.0019170551835359251,0.002475281918530532,0.007088713613015966,0.003994322748322025, ,0.805462121963501
0.010695103718187608,0.02061479571916895,-0.08095274561940659, ,0.010907848699769853,0.020566118447231062,-0.08114130209676863, ,0.0002884154107306476, ,0.001176258198531946,0.00044114867543267527,-0.0018200371231124558,-0.00180186713004841,-0.0049653636626108225,-0.0006793891586538706, ,0.0022114996344013006, ,0.005282192862472345, ,2.753055130325209e-05, ,0.1512111096773159,-0.24200728007957345,0.09085826239000001,1.8406583239071548,0.18596227618076444,-1.1864277257716123, ,0.011471055373204262,0.0006944074588801365,0.0020157670249876677,0.002475281918530532,0.005678018797972499,0.0028536919700258992, ,0.8205380439758301
0.010706000415504839,0.020619407206127573,-0.08097283872593192, ,0.010926076208845318,0.020570701947194993,-0.08117177927621456, ,0.0003006374886950948, ,0.0011994858189503617,0.0004355459743486608,-0.00203177111229881,-0.005093752062283986,-0.005723310116873523,-0.002413411416397225, ,0.002399283305157248, ,0.00766176146400457, ,2.7791236398837428e-05, ,0.15131922793755503,-0.241991834613825,0.09088029932000001,1.8408680138506395,0.1860989126805299,-1.1864574649351685, ,0.01112875270961973,0.0013334963338667712,0.0022178796324143694,0.0038480690722416198,0.003599259070664826,0.005306810986792473, ,0.8344430923461914
0.010731222790586817,0.02063020119075244,-0.08102047206794175, ,0.010944327961502307,0.02057522271412862,-0.08120247316795001, ,0.000285588597753858, ,0.0012709767346301389,0.0005529638166231366,-0.0024571833317879647,0.0023907415283424462,-0.0034346545172401093,-0.0018431214001626078, ,0.002821152383066558, ,0.00418479349772051, ,2.8007507047203213e-05, ,0.15155090992378178,-0.24196866641520234,0.09093215092000001,1.8408680138506395,0.18623554918029533,-1.1864872040987242, ,0.011670670340350586,0.001331683222526507,0.0026717228312646765,0.0038480690722416198,0.008113716052909207,-0.0013219602209044391, ,0.8536760807037354
0.010744269218443393,0.0206348404133966,-0.0810431809513148, ,0.01096260395246556,0.020579681013388428,-0.08123338277570277, ,0.0002947699942163495, ,0.0011876185341521137,0.00047055794608633615,-0.0021924197338513765,0.0013597949003369067,-0.0034397815202509433,-0.0020166023046699166, ,0.0025374331227970416, ,0.003698802377444298, ,2.8238155282917997e-05, ,0.1517748691771343,-0.24193777548370543,0.09097752107000001,1.8408680138506395,0.18623554918029533,-1.1864055253585837, ,0.011968336682869313,0.0017754357724855964,0.0019901260236324272,0.0038480690722416198,0.006672462721496345,-0.0001170606427385798, ,0.8666961193084717
0.010767209443246653,0.020642204064034192,-0.08107984817722336, ,0.010980904176405766,0.02058407710992396,-0.08126450710498133, ,0.00028834545492308615, ,0.0011723267338696042,0.00030500612031831035,-0.0016928905114110692,-0.005972130925346021,-0.00894976921273733,-0.0034490129262349217, ,0.0020816476618300784, ,0.010759401318699435, ,2.8446611301176987e-05, ,0.15189071017024766,-0.241922330017957,0.09099696542,1.8408680138506395,0.18637218568006078,-1.18651694326228, ,0.011030717521803207,0.0017730378982072118,0.0018519720404604118,0.0038480690722416198,0.00012737561758299068,0.004948127283228146, ,0.8821010589599609
0.010780773809727981,0.020646160238978688,-0.08110109586368232, ,0.01099922862794185,0.02058841126828061,-0.08129584516307338, ,0.0002983031022816405, ,0.001135966866193923,0.0003546178187797466,-0.0016963337779044743,-0.0004972569042578088,-0.006260844992991184,-0.002776254643398435, ,0.002072130016322869, ,0.006280560838097878, ,2.8670993254057986e-05, ,0.1520297193619837,-0.24189916181933432,0.09102029864000001,1.8408680138506395,0.1865088221798262,-1.186546682425836, ,0.01097621125962097,0.001302435305208814,0.0018685907500672664,0.0038480690722416198,0.0039001331256813556,0.0006864584317744942, ,0.8954761028289795
0.010791241991673767,0.020649815678999282,-0.08111878513780893, ,0.011017577301636402,0.020592683752594498,-0.08132739595904367, ,0.0003130658146250376, ,0.00113202001353697,0.0004060792970766841,-0.0019255452299997775,0.005148827043387974,-0.002164914282599264,-0.0017716818819066976, ,0.002270263011049035, ,0.0055854519734086635, ,2.8921257979774316e-05, ,0.15213783762222285,-0.24188371635358588,0.09103974299,1.8408680138506395,0.18664545867959165,-1.1866581003295322, ,0.011083411891647183,0.0015078080581332762,0.0021094969566944777,0.0038480690722416198,0.009449063289307549,-0.004020675784977045, ,0.908872127532959
0.010804204117769323,0.02065447205975377,-0.08114014659186325, ,0.011035950191998949,0.02059689482659637,-0.08135915850373418, ,0.0003240178980245775, ,0.0012044185528616953,0.0004255413050322336,-0.0022186910456200655,0.004136319964584903,-0.0026195312016840497,-0.001084043322476349, ,0.0025601365996135157, ,0.004896027625765285, ,2.9187856866103608e-05, ,0.15236179687557536,-0.24184510268921475,0.09108640943000001,1.8410777037941237,0.18664545867959165,-1.1864130641091106, ,0.011179291272394623,0.002202433051811494,0.002384195707229457,0.003065500281473035,0.009103859409360343,-0.004580919976845084, ,0.9227581024169922
0.010830221388794817,0.020662165760314398,-0.08118461390380192, ,0.011054347293485044,0.020601044753610884,-0.08139113180976176, ,0.00031083411025127297, ,0.0012373783263590838,0.00042044651063328765,-0.002119421097169785,0.001008706390728749,-0.003629694106712562,-0.0010995760663197246, ,0.0024899450150505913, ,0.003767249374309609, ,2.9417919743400686e-05, ,0.15248536060156295,-0.24182193449059208,0.09111103894000001,1.8410777037941237,0.18664545867959165,-1.18633138536897, ,0.011841395253115896,0.0018734253883252877,0.002311203064422519,0.003065500281473035,0.008118953430557393,-0.0005656218474904455, ,0.9367520809173584
0.010854785545786316,0.020671281743847757,-0.08122961234166608, ,0.011072768600496184,0.020605133796556294,-0.08142331489151688, ,0.00029901980016417687, ,0.0014178029844570741,0.00045721799919415883,-0.002423999762791392,0.0024195778933477777,-0.0026259616690525,-0.001394611240514701, ,0.0028451693186057, ,0.003570718665146041, ,2.961599285395467e-05, ,0.15274021078641234,-0.24177559809334673,0.09116029796000001,1.8412873937376086,0.18705536817888796,-1.1865839603399189, ,0.01376315323545624,0.0024789008171901264,0.002641155947604046,0.004038441918818229,0.011261784263669182,-0.0017415105649346459, ,0.949627161026001
0.01086872124614661,0.020676782883424245,-0.08125714996011989, ,0.011091214107381528,0.02060916221794742,-0.08145570676516374, ,0.00030577840428854983, ,0.0013980427339023037,0.0005467066495363493,-0.0028221175084403916,0.004884239165169384,-0.00018264580496406507,-0.0010066388493855025, ,0.003196522935614586, ,0.004887652967799192, ,2.982242147934433e-05, ,0.15287149724527416,-0.24175242989472406,0.09119011263000001,1.8412873937376086,0.18719200467865343,-1.1866953782436154, ,0.01301741310815786,0.0026240373779314293,0.003046826993114002,0.004038441918818229,0.013557365084660225,-0.003881924346084426, ,0.9630022048950195
0.01088288703385922,0.02068076728214441,-0.08128255948287237, ,0.011109683808434358,0.020613130279890823,-0.08148830644863705, ,0.00031359744092213446, ,0.0013651572293821189,0.0004974734920482115,-0.0027545176039065265,0.007463817958806497,-0.000538146396205075,-0.0013525286668572402, ,0.003114241700070156, ,0.007483193162506126, ,3.0039034063159877e-05, ,0.15299506097126175,-0.24172153896322715,0.09121733472000002,1.8412873937376086,0.18719200467865343,-1.1865320207633339, ,0.01273784450449272,0.002985700378600952,0.0029657068553342026,0.004038441918818229,0.013557365084660225,-0.006900682297802631, ,0.9774119853973389
0.010915036487700591,0.02068999403963135,-0.08133658749158656, ,0.011128177697895758,0.0206170382440898,-0.0815211129616424, ,0.00029120675247302645, ,0.0013848657786735613,0.00038791643151914895,-0.0025185922749925765,-0.000269221571488249,-0.0023271251943420977,0.00857854691776154, ,0.002900282646646006, ,0.0023426463291231947, ,3.020386810395602e-05, ,0.15328080208760808,-0.24165975710023335,0.09127566777000001,1.8414970836810929,0.18719200467865343,-1.186368663283053, ,0.013449113032663093,0.003396293774022096,0.0027149840668143858,-0.0057699658159057615,0.013557365084660225,-0.000860535170988606, ,0.9917030334472656
0.010929898568506685,0.020694235165518316,-0.08136161791195465, ,0.011146695769953703,0.020620886371843596,-0.08155412532565408, ,0.0002990655052292714, ,0.0014960738697917465,0.00036201479227267555,-0.002330197975173249,-0.004310284553760737,-0.007283231345797936,0.0076616771013772135, ,0.0027926894451763503, ,0.008463097051440497, ,3.0379848884079673e-05, ,0.15342753401221834,-0.24162886616873647,0.09130288986000001,1.8414970836810929,0.18732864117841885,-1.1864800811867495, ,0.014626532299394387,0.003072495187658518,0.002534820420114577,-0.0057699658159057615,0.008763703369247478,0.0024924764877497898, ,1.0063090324401855
0.010951603435270012,0.020699363493009236,-0.08139763782220846, ,0.011165238018740444,0.020624674924043657,-0.08158734256391403, ,0.0002953066315108562, ,0.0015718934705519787,0.00036608046300885214,-0.002404855311614425,-0.0059788543398130705,-0.009657061947401312,0.007148791607083463, ,0.0028962377419612553, ,0.011358060776039767, ,3.05435076748169e-05, ,0.1536360477998224,-0.2415748070386169,0.09134177856,1.8414970836810929,0.1874652776781843,-1.1865914990904458, ,0.015154414174140972,0.0031996958645714477,0.002614280571147218,-0.0057699658159057615,0.006551030800248361,0.0035560270603558954, ,1.0203921794891357
0.010964455333577568,0.02070235996531429,-0.08141785651317252, ,0.011183804438337688,0.020628404161181325,-0.08162076370143112, ,0.00030782270509342323, ,0.0014637350114864596,0.00024110021936244374,-0.002162577125232023,-0.007511902346046242,-0.00979969004943318,0.006623580570110393, ,0.0026224777067126205, ,0.012347574736530047, ,3.072713687671085e-05, ,0.15376733425868422,-0.24154391610711998,0.09136381549000001,1.8414970836810929,0.18760191417794975,-1.1867029169941423, ,0.014151050038543212,0.0038756810493516826,0.0023349181354441516,-0.005660435140339023,0.005167697550621325,0.004135469247155995, ,1.0332481861114502
0.010995391198062658,0.020708407772413596,-0.08146474460521161, ,0.011202395022771193,0.020632074343340308,-0.0816543877649786, ,0.00029093281678844416, ,0.0016233036240790896,0.00035640870046764646,-0.0026174780004613696,-0.006218675159250123,-0.009670431908866238,-0.0021969752997798827, ,0.0031005375180146737, ,0.011497355083558633, ,3.087326955233988e-05, ,0.15405307537503052,-0.24147441151125196,0.0914143708,1.8412873937376086,0.18760191417794975,-1.1864578807737205, ,0.015041518712707369,0.004024393103047175,0.0028197577482740313,0.0031652109647790274,0.004088514147679368,0.003749975190183153, ,1.0477080345153809
0.01099974507716782,0.02070899818825566,-0.08147209863901082, ,0.01122100976601489,0.020635685730202552,-0.08168821378309479, ,0.0003178655919391305, ,0.0016096530339145903,0.0003407933225338652,-0.0025673800526312446,-0.006312882969117863,-0.009683965192763754,-0.0022288458710759207, ,0.003049354573171662, ,0.011559916657350653, ,3.112589045638767e-05, ,0.15409168903940165,-0.24145896604550351,0.09142214854000001,1.8412873937376086,0.18760191417794975,-1.1864578807737205, ,0.014956176762564348,0.004054119360946003,0.002765898857440528,0.0031652109647790274,0.003973916465034726,0.003789778289822037, ,1.0608410835266113
0.011024632721083404,0.020714319558815548,-0.081509891789694, ,0.011239648661989548,0.02063923858104635,-0.0817222407860801, ,0.00031138578055639715, ,0.0012746665453268998,8.118479589114703e-05,-0.001603714725557282,0.003566365629111903,-0.0008372327098714813,-0.005531247541056287, ,0.0020501869899667126, ,0.003663321225388436, ,3.1360599378832257e-05, ,0.1543619846899995,-0.2413894614496355,0.09146362982,1.8414970836810929,0.18801182367724606,-1.1867104557446693, ,0.013578042861420914,0.004535440832396505,0.001745936985314012,0.008119881344541039,0.01246332042403595,-0.0040948236454405465, ,1.0724539756774902
0.011037863861714924,0.020716387190956323,-0.08152758961969093, ,0.01125831170456144,0.02064273315474539,-0.08175646780599628, ,0.0003262014601933437, ,0.0014200327452691126,0.00025993281339477075,-0.0019133165240942322,0.005860905232916116,-0.003070392264749225,-0.005270797817810072, ,0.0023968392074746876, ,0.006616458175112606, ,3.161765312914948e-05, ,0.1546477258063458,-0.24130451138801903,0.09150770368000001,1.8417067736245774,0.18814846017701148,-1.186576837427944, ,0.014382682867303848,0.00441505195800242,0.0026415939502487567,0.007668313918271636,0.011670812534129103,-0.0024880918413786052, ,1.0848731994628906
0.011070380578970515,0.020723353593178003,-0.08157940606061721, ,0.011276998887545332,0.02064616970977213,-0.08179089387666591, ,0.00030557417042835526, ,0.0015823683624067695,0.0005762682395827788,-0.003186763791669945,2.2033453150493336e-05,-0.001350912513559736,-0.00469429408076613, ,0.0036043637694045698, ,0.0013510920633650813, ,3.183103849131054e-05, ,0.15479445773095607,-0.24127362045652212,0.09153881464000001,1.8417067736245774,0.18814846017701148,-1.1864134799476629, ,0.014204002628120159,0.0033695219012890463,0.003427762324080052,0.007668313918271636,0.011670812534129103,0.0004814344999404868, ,1.097419023513794
0.011087307890016081,0.020728210661143005,-0.08161363800265695, ,0.011295710204702087,0.0206495485041953,-0.08182551803366997, ,0.0003074287027006916, ,0.0017020059943028765,0.0005713047046683282,-0.0035410376046844955,-0.0023396178334132646,-0.002968383379422037,-0.005105592600405529, ,0.003970158786246313, ,0.003779564913705548, ,3.204313771126105e-05, ,0.1549334669226921,-0.2412272840592768,0.09157511076000001,1.8417067736245774,0.18814846017701148,-1.1864134799476629, ,0.014827647118511058,0.004420629498385544,0.0037808714740090203,0.007668313918271636,0.010371369931152613,0.0015364817269350696, ,1.109037160873413
0.011102431415215906,0.02073422426409703,-0.08164738621363443, ,0.01131444564973852,0.020652869795679634,-0.08186033931434739, ,0.0003113159300051128, ,0.0015221257182997901,0.0005081289060022381,-0.0032260485062394068,-0.0012571384282989901,-0.001553392528879996,-0.004750813480493439, ,0.0036031167968904633, ,0.001998355580786575, ,3.225765501529267e-05, ,0.15508019884730237,-0.24118867039490566,0.09161140688000001,1.8417067736245774,0.1884217331765424,-1.1866363157550557, ,0.01326487860755812,0.004190453235868716,0.0034396051651911044,0.007285375213310535,0.010514761778614117,0.0006331548032308208, ,1.1210081577301025
0.011131702085443111,0.02074260651415345,-0.08170557936258956, ,0.01133320521631102,0.02065613384149113,-0.08189535675779382, ,0.0002899939561395171, ,0.0014592213041782368,0.0003823991891949794,-0.002779647173763717,-0.0029416887290541534,-0.001313915179819613,-0.0037148567998591523, ,0.0031625929812540265, ,0.00322178607490716, ,3.2429576630351063e-05, ,0.15535049449790023,-0.2411037203332892,0.0916736288,1.8417067736245774,0.18869500617607327,-1.1866957940821674, ,0.01335824064730726,0.004344274164751939,0.0029723477365180074,0.0063975191768589155,0.01076069682194566,0.002130589181379614, ,1.1358380317687988
0.011139598827657981,0.020744100891813375,-0.08171896011570973, ,0.011351988898020512,0.020659340898490006,-0.08193056940485977, ,0.0003115642625709233, ,0.0014973005505136481,0.000408017182137609,-0.0026662843423421166,0.002107767631683635,-0.0029937581773482958,-0.0038853831931365914, ,0.0030850379501242316, ,0.0036613211111376086, ,3.263590256119554e-05, ,0.15541999909376825,-0.24108055213466653,0.09168788799000001,1.8417067736245774,0.18869500617607327,-1.1866141153420269, ,0.014023487743234933,0.003745772153576271,0.0028747178343259345,0.006212630074713573,0.01076069682194566,-0.0024798818821005235, ,1.1504120826721191
0.01116288555883547,0.020748598405644133,-0.08175645331576192, ,0.011370796688416552,0.020662491223136927,-0.08196597629814975, ,0.00030747579552169716, ,0.0014233416719557726,0.00025781410481113696,-0.002340168655159383,-0.004514004495729266,-0.0015765807489871867,-0.002957993515885809, ,0.002751137757793291, ,0.00478140600402825, ,3.283077233458913e-05, ,0.15562851288137233,-0.24101877027167273,0.09172807298,1.8417067736245774,0.18869500617607327,-1.1865324366018863, ,0.013739241574992149,0.004512682875882569,0.002515207882520133,0.005712525063453991,0.01076069682194566,0.0034708741589726698, ,1.1618211269378662
0.011175441988532488,0.02075060589128879,-0.08177828944031255, ,0.011389628580996021,0.020665585071490956,-0.0820015764820214, ,0.0003208762053897485, ,0.0013611870482162988,0.00020464367691373417,-0.0022794060084101392,-0.003807544364635878,-0.001175568060981962,-0.002842495161910699, ,0.002662780683028329, ,0.003984890750464593, ,3.304474741469658e-05, ,0.1557520766073599,-0.24097243387442738,0.09175140620000001,1.8417067736245774,0.1888316426758387,-1.186562175765442, ,0.013112745828170621,0.004922007341886968,0.0024359705643064696,0.005435451983436838,0.010852144272992383,0.0023082410148735997, ,1.1730730533599854
0.011189108655404336,0.0207535651949201,-0.08180242836753036, ,0.011408484569202912,0.02066862269920987,-0.08203736900258349, ,0.0003324727374261045, ,0.001428037497308441,0.00025235876283220035,-0.0025835703683455423,-0.0066813944364070114,-0.004720683406304006,0.00021317845302587035, ,0.0029627372288291575, ,0.008180824122440087, ,3.327415639407764e-05, ,0.15588336306622172,-0.24092609747718202,0.091777332,1.841916463568062,0.18896827917560413,-1.1866735936691386, ,0.013020985394960317,0.005080636336865117,0.0027439813126614995,0.0014706450375239631,0.007654866012165524,0.003737314817723588, ,1.1873500347137451
0.011216506153961194,0.02076101685751491,-0.08185569903258029, ,0.01142736464642572,0.020671604361546327,-0.08207335290769455, ,0.0003159574459195374, ,0.001405160807831106,0.0003618484504231232,-0.0028322705198882787,-0.0010559100289562176,-0.0032772853739615132,-0.006036042846547246, ,0.003182321086057534, ,0.0034431882361235797, ,3.347096266743648e-05, ,0.15613821325107113,-0.24084114741556556,0.09183436876,1.8421261535115465,0.18924155217513502,-1.1868147507363909, ,0.012238450033333863,0.0046313758313084675,0.0030071382895978855,0.007655297906123205,0.007761824174453663,-0.0006017531174837094, ,1.1999790668487549
0.011232015909215846,0.02076399707193755,-0.08188383951395115, ,0.011446268806005914,0.020674530313359907,-0.08210952724696349, ,0.00032379554892798926, ,0.0012481340232540097,0.00025213531038454,-0.0022625895995010245,-0.0037333300968918825,-0.00567900701886972,0.007833551699505715, ,0.0025962901321919234, ,0.006796239715712934, ,3.36769421865711e-05, ,0.15626949970993295,-0.24078708828544598,0.09186418343000001,1.8423358434550308,0.18924155217513502,-1.18673307199625, ,0.011504054013634475,0.003963442583915935,0.002412359763743753,-0.006573318014041673,0.007761824174453663,0.000620436618539554, ,1.2118589878082275
0.011246009198326322,0.02076604038799325,-0.08190702859550006, ,0.011465197041228704,0.02067740080910443,-0.08214589107174569, ,0.00033608863113765436, ,0.00140833262435096,0.00016495567875800905,-0.002507478595236975,-0.0019441368191425537,-0.007883539808350075,0.007220948335611379, ,0.002880635357405962, ,0.008119720917756987, ,3.3899209148458706e-05, ,0.15639306343592055,-0.24074075188820063,0.09188881294000001,1.8423358434550308,0.18924155217513502,-1.1866513932561098, ,0.01294991014717123,0.005694580016299782,0.002647741276595745,-0.006573318014041673,0.007761824174453663,-0.0029773675326657946, ,1.2243430614471436
0.011264448972529295,0.020770398181629873,-0.08194476817397894, ,0.011484149345326794,0.020680216102833566,-0.08218244343514314, ,0.00033599195066675544, ,0.0014441533476703522,0.0003680961429354736,-0.002854121132238835,-0.003426786868026865,-0.0046569607966195255,0.008016189981192266, ,0.003219795195276207, ,0.005781881346996008, ,3.411693771295132e-05, ,0.15657068629202772,-0.2406712472923326,0.09192899793,1.8423358434550308,0.18951482517466592,-1.186792550323362, ,0.012978246930863071,0.004430005628990513,0.003039269513451632,-0.006130107396318232,0.01034182340458176,0.0005059500943031068, ,1.2401161193847656
0.011276165824241605,0.02077483474797436,-0.08197261898896485, ,0.011503125711482003,0.02068297644820296,-0.08221918339200351, ,0.00034748056420306225, ,0.0014607255146624836,0.0004938495527631692,-0.003393573997435874,-0.00033473249861011063,-0.002930677609669385,0.007446683571182392, ,0.0037274590388122653, ,0.002949731622939015, ,3.440504174493553e-05, ,0.15683325920975133,-0.24057857449784192,0.09200288646,1.8423358434550308,0.18978809817419678,-1.1868520286504736, ,0.012295466142458836,0.004548362734342607,0.003593235172569366,-0.005399123167734299,0.011905372039636335,-0.002312400202406418, ,1.250765085220337
0.011295054940789974,0.020780863909094848,-0.08201435183501504, ,0.01152212613282227,0.020685682098466423,-0.08225610999891826, ,0.0003450621873508145, ,0.0014607255146624836,0.0004938495527631692,-0.003393573997435874,-0.00033473249861011063,-0.002930677609669385,0.007446683571182392, ,0.0037274590388122653, ,0.002949731622939015, ,3.4684584521391333e-05, ,0.15683325920975133,-0.24057857449784192,0.09200288646,1.8423358434550308,0.18978809817419678,-1.1868520286504736, ,0.012295466142458836,0.004548362734342607,0.003593235172569366,-0.005399123167734299,0.011905372039636335,-0.002312400202406418, ,1.2603371143341064
0.011323481269285856,0.020787304519926386,-0.08207467693545269, ,0.011541150602425233,0.02068833330648083,-0.08229322231422156, ,0.00032394030663296505, ,0.001394704471499286,0.00027395192350441674,-0.0027900514740451846,0.005079167785131409,-0.002798890396177539,0.006732923140239308, ,0.0031312357699530675, ,0.0057992872553671365, ,3.4925798277843264e-05, ,0.1570726639288523,-0.24047045623760277,0.09206640467,1.8423358434550308,0.18992473467396223,-1.1868817678140298, ,0.0128221782946184,0.005411937847197482,0.00295415643916914,-0.004852344256250342,0.013801233069140212,-0.008223904574453744, ,1.271639108657837
0.011338793961004434,0.020788977058891066,-0.08210181451571061, ,0.011560199113313113,0.02069093032469963,-0.08233051939798876, ,0.0003330755570922268, ,0.001394704471499286,0.00027395192350441674,-0.0027900514740451846,0.005079167785131409,-0.002798890396177539,0.006732923140239308, ,0.0031312357699530675, ,0.0057992872553671365, ,3.5177700608054724e-05, ,0.15720395038771412,-0.240408674374609,0.09209492305000001,1.8423358434550308,0.18992473467396223,-1.186800089073889, ,0.013096458950934416,0.005597976522691755,0.00302714015963512,-0.004621632672476318,0.011340778228375733,-0.003769158586058255, ,1.2811760902404785
0.011353315354145615,0.020792713284300598,-0.08213484368758658, ,0.011579271658460255,0.02069347340518285,-0.08236800031203598, ,0.00033950967083644487, ,0.0016089657247814009,0.0003623395373934811,-0.0034916737835933597,-0.007033023368518427,-0.005826320635592963,0.005825119723493181, ,0.0038615860025270742, ,0.009132876290187091, ,3.54357781597837e-05, ,0.15734295957945016,-0.2403468925116152,0.09212992288,1.8423358434550308,0.1901980076734931,-1.1868595674010007, ,0.013510384618233314,0.00628934161993033,0.003671078939847892,-0.004406863015447135,0.008830430364319344,0.0022330812152826177, ,1.2909929752349854
0.011368241219241931,0.02079706210360377,-0.08217035745613491, ,0.01159836823078467,0.020695962799586295,-0.08240566411991768, ,0.0003443090715258415, ,0.0015523127175181167,0.0004499711203658542,-0.003714998406287656,0.018555939154209847,0.0027766946039746963,0.007420879199778231, ,0.004051340758422032, ,0.018762540076196283, ,3.5697327738386086e-05, ,0.1574819687711862,-0.2402851106486214,0.09216751529000002,1.8423358434550308,0.19047128067302396,-1.187000724468253, ,0.013928803986271948,0.006292565688141413,0.003922386486087171,-0.0042116676850073535,0.023559402002807643,-0.020576142244486763, ,1.301285982131958
0.011374891784513976,0.020798742250531816,-0.08218767662239623, ,0.011617488823155424,0.0206983987591712,-0.08244350988692674, ,0.0003665689548452975, ,0.001410369886757446,0.0004941397821730796,-0.003703353242890623,0.035530702192164434,0.016255780410170142,0.006514084507846465, ,0.0039935125620719865, ,0.039072767937725655, ,3.5989381024338515e-05, ,0.15754375063418,-0.2402542197171245,0.09218566335,1.8421261535115465,0.1906079171727894,-1.187030463631809, ,0.013914507559893076,0.006229765996239066,0.003928190263871764,0.0,0.039776823341739174,-0.033491371097684464, ,1.3151931762695312
0.011409485105348964,0.020808515162449595,-0.08226517035416776, ,0.011636633428387956,0.020700781534798457,-0.082481536680092, ,0.00033168853187931464, ,0.0017497155471465284,0.00045631524803832046,-0.0039851648458133606,-0.0010848389217523052,0.001543222934880109,-0.004319413665720937, ,0.004376216053832943, ,0.0018863752298356093, ,3.622318938606059e-05, ,0.15782176901765207,-0.2401306559911369,0.09226732962,1.8423358434550308,0.19074455367255488,-1.1872235602756458, ,0.014765355773840172,0.007202639654303318,0.00419289589892077,0.007670180104404422,0.016023704898018087,-0.0012058420604419834, ,1.324925184249878
0.011409485105348964,0.020808515162449595,-0.08226517035416776, ,0.011655802039247092,0.020703111376932558,-0.0825197435681777, ,0.0003695801823930066, ,0.0017497155471465284,0.00045631524803832046,-0.0039851648458133606,-0.0010848389217523052,0.001543222934880109,-0.004319413665720937, ,0.004376216053832943, ,0.0018863752298356093, ,3.651136099991794e-05, ,0.15782176901765207,-0.2401306559911369,0.09226732962,1.8423358434550308,0.19074455367255488,-1.1872235602756458, ,0.014765355773840172,0.007202639654303318,0.00419289589892077,0.007670180104404422,0.016023704898018087,-0.0012058420604419834, ,1.3340849876403809
0.01142907978813213,0.020812328630522528,-0.08230195292504473, ,0.01167499464844332,0.02070538853563712,-0.08255812962168177, ,0.0003708595452672558, ,0.0017435469183473338,0.0002566235521588157,-0.003331584514068725,0.0012171884850895303,-0.003047439802438099,-0.007015684940810638, ,0.0037689875136943125, ,0.0032815296352881316, ,3.679710112172016e-05, ,0.1579839464080108,-0.24006115139526887,0.09230621832000001,1.8425455333985155,0.19074455367255488,-1.1871418815355055, ,0.01562604010513268,0.007429363109415533,0.003515517881262415,0.00905173257446233,0.012159329696989863,-0.004508026078908141, ,1.343358039855957
0.011447622199555304,0.02081389829352807,-0.08233674835387592, ,0.011694211248638536,0.020707613260582347,-0.08259669391283544, ,0.0003737303318956441, ,0.001799829172236794,0.0002179752996940773,-0.0035899815297262497,-0.0022810845691965814,-0.004786577866755218,-0.00760866091611124, ,0.004021798809523785, ,0.00530232721453918, ,3.708286140227294e-05, ,0.1581384010654953,-0.2399762013336524,0.09234251444000001,1.8425455333985155,0.19074455367255488,-1.1871418815355055, ,0.015546681120326145,0.008527333711940588,0.003758568079282681,0.009016274356928136,0.009792713932800375,-0.0025881366240671604, ,1.3554329872131348
0.01146540030422225,0.02081724447301961,-0.08237345633046952, ,0.011713451832439669,0.02070978580103708,-0.08263543551560054, ,0.00037644391385325686, ,0.0017075331397825202,0.0003693724744847837,-0.0031114768957066934,0.004539160475985802,-0.0018552970327566452,-0.00535255421944506, ,0.003568388140446485, ,0.00490368276042372, ,3.736840640502614e-05, ,0.1583083011887282,-0.23989897400491017,0.09238140314000001,1.8425455333985155,0.19101782667208575,-1.187201359862617, ,0.017671683716661224,0.007059920712648252,0.0037889656327307333,0.008428768641714319,0.009054093959540006,-0.0013593421599154784, ,1.364645004272461
0.011488739691442549,0.020821382409604725,-0.0824197568888781, ,0.011732716392404832,0.02071190640587673,-0.08267435350566991, ,0.0003692276578027785, ,0.001609485630464129,0.0002521599674286427,-0.0035525234023805322,0.030554672271407724,0.018793734662085053,-0.0001636017843492099, ,0.0039082542353722945, ,0.035871889545940575, ,3.763900822368734e-05, ,0.15853998317495496,-0.23979857847754524,0.09243066216000001,1.8425455333985155,0.19142773617138206,-1.1875356135737065, ,0.01671898195180951,0.008825344140258033,0.003756795169811321,0.007735067014102413,0.042550400313394306,-0.02913134849508187, ,1.3740391731262207
0.011511301155089953,0.02082416331478967,-0.08245907201314184, ,0.011752004921038827,0.02071397532357787,-0.08271344696046505, ,0.00036713255123313015, ,0.001976159574110347,0.00040875261113944143,-0.003987652885821136,0.018184893075153457,0.005147916016732522,-0.0025718639019311654, ,0.004469190183608092, ,0.018899507254471013, ,3.7902539166418845e-05, ,0.15873305149681058,-0.23971362841592878,0.09247214344000002,1.8425455333985155,0.19142773617138206,-1.187372256093425, ,0.018717345475043546,0.007968576828728226,0.004239768836837903,0.007300678143717787,0.027943366712448875,-0.019052231596993315, ,1.3835570812225342
0.011511301155089953,0.02082416331478967,-0.08245907201314184, ,0.01177131741079576,0.020715992802221694,-0.08275271495913508, ,0.00040686053231061187, ,0.001976159574110347,0.00040875261113944143,-0.003987652885821136,0.018184893075153457,0.005147916016732522,-0.0025718639019311654, ,0.004469190183608092, ,0.018899507254471013, ,3.822029916127048e-05, ,0.1589261198186662,-0.2396286783543123,0.09251880988000001,1.8425455333985155,0.19142773617138206,-1.187208898613144, ,0.017942322094624843,0.008688988132291981,0.004303920972710079,0.006894279777448461,0.02087236102617451,-0.006814785182413801, ,1.3959650993347168
0.011511301155089953,0.02082416331478967,-0.08245907201314184, ,0.011790653854077023,0.020717959089491464,-0.08279215658255584, ,0.0004475070929988282, ,0.001976159574110347,0.00040875261113944143,-0.003987652885821136,0.018184893075153457,0.005147916016732522,-0.0025718639019311654, ,0.004469190183608092, ,0.018899507254471013, ,3.864853447573813e-05, ,0.1589261198186662,-0.2396286783543123,0.09251880988000001,1.8425455333985155,0.19142773617138206,-1.187208898613144, ,0.017942322094624843,0.008688988132291981,0.004303920972710079,0.006894279777448461,0.02087236102617451,-0.006814785182413801, ,1.4052979946136475
0.011539333071841877,0.020828391710350024,-0.08251209070531752, ,0.01181001424323415,0.02071987443267645,-0.0828317709133278, ,0.0004327120653430776, ,0.0022097155431557557,0.000584473738735962,-0.0050400935208684905,-0.0062778506902401695,-0.005861205315171794,0.0021881868227131528, ,0.005534166155080336, ,0.008588663096386378, ,3.905043899516028e-05, ,0.15935859285962276,-0.23942788729958248,0.09263936485,1.842755223342,0.19197428217044385,-1.1875728914877892, ,0.0178713637586574,0.008358897517713126,0.00530253379494008,-3.9690367210205454e-05,0.012633468121543047,0.0009367566224620146, ,1.413351058959961
0.011584847525567007,0.020841422561938213,-0.08261755223780282, ,0.011829398570565645,0.020721739078668353,-0.08287155703577602, ,0.00037235438384815696, ,0.0022097155431557557,0.000584473738735962,-0.0050400935208684905,-0.0062778506902401695,-0.005861205315171794,0.0021881868227131528, ,0.005534166155080336, ,0.008588663096386378, ,3.936100311565958e-05, ,0.15935859285962276,-0.23942788729958248,0.09263936485,1.842755223342,0.19197428217044385,-1.1875728914877892, ,0.0178713637586574,0.008358897517713126,0.00530253379494008,-3.9690367210205454e-05,0.012633468121543047,0.0009367566224620146, ,1.4208509922027588
0.01160522454309572,0.020845924454858368,-0.08266167631793389, ,0.011848806828320449,0.020723553273965162,-0.08291151403594806, ,0.00036976468318516314, ,0.0020686992566351127,0.0003431260696749115,-0.0040259601564140235,0.01629616235110887,0.005253981280731536,0.005261735446738168, ,0.004539339962497461, ,0.017122185188062664, ,3.96643183595489e-05, ,0.15954393844860415,-0.239342937237966,0.09268603129000001,1.842755223342,0.19224755516997472,-1.1877140485550415, ,0.020020451805584552,0.008760810166517299,0.004279637700161204,-3.9690367210205454e-05,0.031146294715795747,-0.018317745122619716, ,1.4288051128387451
0.011628740067216549,0.02084832764406524,-0.08270228122041778, ,0.011868239008694818,0.020725317264668176,-0.08295164100161284, ,0.000366976289269849, ,0.0021763501054665136,0.00024618402333331183,-0.004162351864990167,0.004274791682401619,-0.0033891581377287357,0.0028365294830954278, ,0.0047034327254565685, ,0.005455294268972544, ,3.996022605249159e-05, ,0.15972928403758554,-0.23925798717634952,0.09272491999000002,1.842755223342,0.19224755516997472,-1.1877140485550415, ,0.019823885848855395,0.009774444524510867,0.004358087967168263,-3.9690367210205454e-05,0.020308909395744024,-0.010197620263884702, ,1.4383211135864258
0.011653112141787438,0.020851030026782392,-0.08274403448401205, ,0.011887695103834396,0.020727031296484216,-0.08299193702225952, ,0.0003631260382674618, ,0.0023218434713680766,0.00029683509708209525,-0.004128711328663582,-0.0031314636723292523,-0.008181284954783007,0.002170325390443939, ,0.004746085272709425, ,0.0087601077072589, ,4.024735194805302e-05, ,0.15995324329093805,-0.23915759164898462,0.09277288272,1.842755223342,0.19224755516997472,-1.187632369814901, ,0.021046117001213303,0.009184586445568934,0.004376047120879121,-3.9690367210205454e-05,0.014371583776081042,-0.0027269126508513916, ,1.4461860656738281
0.011676197979652468,0.020854369825430593,-0.08278580374487289, ,0.011907175105834032,0.02072869561472592,-0.08303240118909648, ,0.00036049235713526945, ,0.0023081846461663886,0.0004128633866609876,-0.0045750094265561555,-0.005547453411688329,-0.009217990970468059,0.0015839915566046056, ,0.005140903013082538, ,0.010758512670541216, ,4.052755271960226e-05, ,0.16014631161279366,-0.23907264158736816,0.09281695658000001,1.842755223342,0.19224755516997472,-1.187632369814901, ,0.019704514443204067,0.008996038774973694,0.004826912581818183,-3.9690367210205454e-05,0.011385552313920853,-0.0007549360854407772, ,1.45359206199646
0.011676197979652468,0.020854369825430593,-0.08278580374487289, ,0.011926679006736648,0.020730310464310214,-0.08307303259504904, ,0.00040078907468175484, ,0.0023081846461663886,0.0004128633866609876,-0.0045750094265561555,-0.005547453411688329,-0.009217990970468059,0.0015839915566046056, ,0.005140903013082538, ,0.010758512670541216, ,4.086090308804269e-05, ,0.16014631161279366,-0.23907264158736816,0.09281695658000001,1.842755223342,0.19224755516997472,-1.187632369814901, ,0.019704514443204067,0.008996038774973694,0.004826912581818183,-3.9690367210205454e-05,0.011385552313920853,-0.0007549360854407772, ,1.461780071258545
0.011698636477805497,0.02085900590162833,-0.08283746002410548, ,0.011946206798533721,0.020731876089759342,-0.08311383033475943, ,0.00039221626863540274, ,0.002509473398174309,0.0004449291216654921,-0.005372481547250545,-0.002461869960734157,-0.01009723115407738,0.0011328024511556023, ,0.005946341449580419, ,0.010393020552591767, ,4.117864288843607e-05, ,0.16035482540039772,-0.238964523327129,0.09287140076000001,1.842755223342,0.19265746466927103,-1.1878849447858497, ,0.02065221796702302,0.010901504507072512,0.005630544899257689,-3.9690367210205454e-05,0.012546842272297283,-0.005586664842842995, ,1.469353199005127
0.011720716631906712,0.020864925774287685,-0.08289018768365805, ,0.01196575847316794,0.020733392735204206,-0.08315479350458574, ,0.00038387847661472895, ,0.0020302724548899075,0.0005481297089461636,-0.005171697134439604,0.04016110790182439,0.02637558760939398,0.0040118269274915935, ,0.005582911755462817, ,0.04804774922869028, ,4.148135546448715e-05, ,0.16055561645512756,-0.2388641277997641,0.09292454865000001,1.8429649132854846,0.19306737416856737,-1.1881375197567983, ,0.019815606923881974,0.010313564261896148,0.005449473664043792,0.006119456685955789,0.057968086536428376,-0.03889752796546543, ,1.4800901412963867
0.011743707729224527,0.02086874165933032,-0.08293836097572692, ,0.011985334022530133,0.020734860644380893,-0.0831959212025991, ,0.00037768328298581417, ,0.002364961987634479,0.00042548090183485896,-0.005181189531694995,0.008442355831607993,0.0012194109977513843,-0.0022779637586019487, ,0.0057112874349071275, ,0.008529966672569942, ,4.17722316473551e-05, ,0.16074868477698318,-0.23876373227239917,0.09297769654000002,1.8429649132854846,0.19320401066833282,-1.1880855801802137, ,0.020460746347233886,0.010970138450031449,0.005442026484455074,0.006119456685955789,0.02456084938360409,-0.013050841879954157, ,1.4878129959106445
0.01177195625845226,0.020873135916326172,-0.08299530465095636, ,0.012004933438458314,0.0207362800606293,-0.08323721252858331, ,0.00036266694486824754, ,0.002464614841869498,0.0002766971784523499,-0.004933778772626708,-0.002101513418891009,-0.006251346326935476,-0.0038721061597513447, ,0.005522052211320426, ,0.006595125974960639, ,4.203941473243546e-05, ,0.16097264403033568,-0.2386478912792858,0.09303732588000001,1.8429649132854846,0.19320401066833282,-1.1879222226999324, ,0.021158738363092705,0.011749033249779718,0.005168335989617133,0.0059227523463111385,0.015592064468070906,-0.005144128122897309, ,1.495361089706421
0.01177195625845226,0.020873135916326172,-0.08299530465095636, ,0.012024556712742588,0.02073765122689976,-0.08327866658403434, ,0.00040305964284995935, ,0.002464614841869498,0.0002766971784523499,-0.004933778772626708,-0.002101513418891009,-0.006251346326935476,-0.0038721061597513447, ,0.005522052211320426, ,0.006595125974960639, ,4.235857503667489e-05, ,0.16097264403033568,-0.2386478912792858,0.09303732588000001,1.8429649132854846,0.19320401066833282,-1.1879222226999324, ,0.021158738363092705,0.011749033249779718,0.005168335989617133,0.0059227523463111385,0.015592064468070906,-0.005144128122897309, ,1.5028049945831299
0.01179842863682718,0.02087438345601156,-0.08304519177385618, ,0.012044203837121095,0.02073897438574813,-0.08332028247215775, ,0.00039295795917778384, ,0.002498353842624462,0.00020116179608819324,-0.004801432977081913,-0.010024078560308023,-0.008906379918224839,-0.004065178426880071, ,0.005416271468877048, ,0.013409166703383931, ,4.2660634035365546e-05, ,0.16118888055081396,-0.23851660482042397,0.09308917748000001,1.8429649132854846,0.19320401066833282,-1.1878405439597919, ,0.02136837233921882,0.01212210149867949,0.005021693417402271,0.005590034629733119,0.011539977748980081,0.001615051677314773, ,1.5103251934051514
0.011821673023781317,0.020877664605368804,-0.0830970501286715, ,0.01206387480328048,0.020740249779336386,-0.0833620592978682, ,0.0003844143547845363, ,0.0026276096250561504,0.0002559224637249994,-0.005270172024805274,-0.010378969374962726,-0.00932988446887447,-0.0038387236739345146, ,0.005894450086324161, ,0.013955993172231266, ,4.294796174859548e-05, ,0.16140511707129226,-0.2383930410944364,0.09314362166000001,1.8429649132854846,0.1936139201676291,-1.188174797670881, ,0.022002536878847852,0.012814855785637085,0.0055040813821700075,0.005307095045466349,0.01190381097231762,0.0013183700797257687, ,1.520158052444458
0.011844433033651366,0.020879627937958098,-0.0831450320792912, ,0.012083569602857629,0.020741477649435097,-0.08340399616778812, ,0.0003785950344124576, ,0.0020440266983028856,6.81208608709821e-05,-0.004093264397132434,0.03015131499592862,0.020882039419974553,0.0038280907816514776, ,0.004575751197332821, ,0.0366764415554727, ,4.322443659808488e-05, ,0.161636799057519,-0.23826175463557459,0.09319417697000001,1.8429649132854846,0.1941604661666909,-1.1886204692856668, ,0.02135875344552572,0.012562475715974422,0.004309743376623377,0.005037778739348095,0.050834592174697,-0.030972038488476798, ,1.5282180309295654
0.011844433033651366,0.020879627937958098,-0.0831450320792912, ,0.012103288227439732,0.020742658237423543,-0.08344609219024633, ,0.0004200046435743906, ,0.0020440266983028856,6.81208608709821e-05,-0.004093264397132434,0.03015131499592862,0.020882039419974553,0.0038280907816514776, ,0.004575751197332821, ,0.0366764415554727, ,4.36110295858081e-05, ,0.1618298673793746,-0.238138190909587,0.09323176938000001,1.843174603228969,0.1941604661666909,-1.188457111805386, ,0.020016228972467996,0.013051429178719678,0.003920455702682747,0.0015296861694894435,0.028303861766922064,-0.015029595954154994, ,1.533972978591919
0.01186687156691092,0.020878464993816497,-0.08318124499479863, ,0.012123030668563099,0.020743791784288642,-0.08348834647527702, ,0.0004219782909532191, ,0.0020727701353705696,-0.00011471795887291756,-0.0037664464173194166,0.00846014457867801,0.0036643703691276457,0.0025872712333040275, ,0.004300657491443647, ,0.009219634251763649, ,4.3997163806226916e-05, ,0.1618298673793746,-0.238138190909587,0.09323176938000001,1.843174603228969,0.1941604661666909,-1.188457111805386, ,0.020016228972467996,0.013051429178719678,0.003920455702682747,0.0015296861694894435,0.028303861766922064,-0.015029595954154994, ,1.5402750968933105
0.011893311979631314,0.020877140176609656,-0.08322636453464655, ,0.012142796917711947,0.02074487853062341,-0.08353075813461794, ,0.00041520036251384973, ,0.002484144132980813,-4.385496318102882e-05,-0.004849765288446475,-0.008045656687954386,-0.004594497090641253,0.0008668056562852321, ,0.005449139260859363, ,0.009265095378539905, ,4.437128384730376e-05, ,0.16203065843410444,-0.23799918171785095,0.09327454695000001,1.843174603228969,0.1941604661666909,-1.1882937543251044, ,0.021695688513596427,0.015147157471423906,0.004956070790292471,0.0014872101562445157,0.018955061787316832,-0.002731538275037991, ,1.546684980392456
0.011893311979631314,0.020877140176609656,-0.08322636453464655, ,0.012162586966321305,0.02074591871663085,-0.08357332628170945, ,0.00045837816695476176, ,0.002484144132980813,-4.385496318102882e-05,-0.004849765288446475,-0.008045656687954386,-0.004594497090641253,0.0008668056562852321, ,0.005449139260859363, ,0.009265095378539905, ,4.479926320968909e-05, ,0.16203065843410444,-0.23799918171785095,0.09327454695000001,1.843174603228969,0.1941604661666909,-1.1882937543251044, ,0.021695688513596427,0.015147157471423906,0.004956070790292471,0.0014872101562445157,0.018955061787316832,-0.002731538275037991, ,1.5522141456604004
0.011916549746436873,0.020878279359855006,-0.0832751408314974, ,0.012182400805777352,0.020746912582124362,-0.08361605003169424, ,0.0004518330430841029, ,0.0027298426211432186,0.00022859573873922957,-0.005668596769253861,-0.02292256349270593,-0.018722874857812093,-0.002688506130633069, ,0.006295814965544582, ,0.029597127464763135, ,4.521529892850304e-05, ,0.16224689495458272,-0.2378601725261149,0.09332899113000001,1.843174603228969,0.19429710266645633,-1.1883234934886606, ,0.021135176293646054,0.013777140179801218,0.005877790228782289,0.0014439570157770403,0.0,0.009818569220107399, ,1.5620510578155518
0.011928414847470169,0.02087941370269143,-0.08330261061271355, ,0.01220223842741289,0.020747860366522826,-0.08365892850141413, ,0.00046823933089583223, ,0.0028310946708681975,0.00031786708177051386,-0.0062629754553556296,-0.014045611030856449,-0.012893683115723215,-0.0011380541679963103, ,0.006880479494299701, ,0.01906636420198283, ,4.564949401219798e-05, ,0.16234729048194765,-0.2377906679302469,0.09335750951,1.843174603228969,0.19443373916622175,-1.1884349113923567, ,0.02208960464582653,0.014651372789635755,0.0064989031089351295,0.0014239806305221723,0.009031110559170616,0.0019291989017370067, ,1.568331003189087
0.011928414847470169,0.02087941370269143,-0.08330261061271355, ,0.012222099822514055,0.020748762308858273,-0.08370196080941039, ,0.0005126414252466185, ,0.0028310946708681975,0.00031786708177051386,-0.0062629754553556296,-0.014045611030856449,-0.012893683115723215,-0.0011380541679963103, ,0.006880479494299701, ,0.01906636420198283, ,4.613804140258812e-05, ,0.16234729048194765,-0.2377906679302469,0.09335750951,1.843174603228969,0.19443373916622175,-1.1884349113923567, ,0.02208960464582653,0.014651372789635755,0.0064989031089351295,0.0014239806305221723,0.009031110559170616,0.0019291989017370067, ,1.5739250183105469
0.011978680517934758,0.02089023099533739,-0.08343568086619764, ,0.012241984982314297,0.020749618647769363,-0.08374514607592215, ,0.00042996486982150423, ,0.002656581090402758,0.0006201061594456002,-0.0073588509670165945,0.030586109788405744,0.015011408965128186,0.005443160233529714, ,0.007848225423216955, ,0.0340712854105449, ,4.651569780882354e-05, ,0.16276431805715577,-0.23751264954677478,0.09349621254000001,1.843174603228969,0.19525355816481438,-1.1890217400743948, ,0.021735442409177914,0.015127840197428789,0.007661766002886004,0.0013499280255239894,0.04691912924581337,-0.03552946414349401, ,1.5794970989227295
0.011978680517934758,0.02089023099533739,-0.08343568086619764, ,0.012261893897997317,0.020750429621504994,-0.0837884834228842, ,0.00047352284715360517, ,0.002656581090402758,0.0006201061594456002,-0.0073588509670165945,0.030586109788405744,0.015011408965128186,0.005443160233529714, ,0.007848225423216955, ,0.0340712854105449, ,4.694663426524565e-05, ,0.16276431805715577,-0.23751264954677478,0.09349621254000001,1.843174603228969,0.19525355816481438,-1.1890217400743948, ,0.021735442409177914,0.015127840197428789,0.007661766002886004,0.0013499280255239894,0.04691912924581337,-0.03552946414349401, ,1.5851531028747559
0.012010351797155233,0.020892980661355795,-0.08350732986223465, ,0.012281826560697902,0.020751195467924963,-0.08383197197392733, ,0.00044631165008439004, ,0.002936574789314276,0.00023990579413044944,-0.007028414144278343,-0.004300809475718574,-0.0019363760705250004,0.002909209607340917, ,0.007620999387664679, ,0.004716619264053459, ,4.733927147255754e-05, ,0.1629960000433825,-0.23733502669066764,0.09357010107000001,1.8433842931724536,0.19525355816481438,-1.1889400613342542, ,0.023344881072194533,0.017945715120739555,0.007256861740318907,1.787454775150884e-05,0.024664113132511926,-0.007974175347777663, ,1.590867042541504
0.012010351797155233,0.020892980661355795,-0.08350732986223465, ,0.012301782961501173,0.020751916424500076,-0.08387561085437623, ,0.0004903693828579634, ,0.002936574789314276,0.00023990579413044944,-0.007028414144278343,-0.004300809475718574,-0.0019363760705250004,0.002909209607340917, ,0.007620999387664679, ,0.004716619264053459, ,4.77853042106373e-05, ,0.1629960000433825,-0.23733502669066764,0.09357010107000001,1.8433842931724536,0.19525355816481438,-1.1889400613342542, ,0.023344881072194533,0.017945715120739555,0.007256861740318907,1.787454775150884e-05,0.024664113132511926,-0.007974175347777663, ,1.5968241691589355
0.012042642084419498,0.0208971857994172,-0.08358233895852753, ,0.012321763091439392,0.0207525927283078,-0.08391939919124718, ,0.00046089618489815253, ,0.0033377618035892844,0.0004003887042879385,-0.007492693656145142,-0.027153110749139106,-0.022295793367583878,-0.0017394578877729717, ,0.008212272718124905, ,0.035133940878158056, ,4.819033006811975e-05, ,0.1632431274953577,-0.2371651265674347,0.09364787847000001,1.8433842931724536,0.19539019466457985,-1.1890514792379507, ,0.02458469988561419,0.016849598998308023,0.007758797622990745,1.787454775150884e-05,0.0,0.010823158443248975, ,1.604574203491211
0.012042642084419498,0.0208971857994172,-0.08358233895852753, ,0.012341766941499327,0.020753224616041815,-0.0839633361132496, ,0.0005053309156861345, ,0.0033377618035892844,0.0004003887042879385,-0.007492693656145142,-0.027153110749139106,-0.022295793367583878,-0.0017394578877729717, ,0.008212272718124905, ,0.035133940878158056, ,4.8648728956914897e-05, ,0.1632431274953577,-0.2371651265674347,0.09364787847000001,1.8433842931724536,0.19539019466457985,-1.1890514792379507, ,0.02458469988561419,0.016849598998308023,0.007758797622990745,1.787454775150884e-05,0.0,0.010823158443248975, ,1.6160061359405518
0.012106458105735199,0.020910000646077422,-0.083742578946056, ,0.012361794502614999,0.020753812324002897,-0.08400742075078163, ,0.0003996656715985821, ,0.002976885075751807,0.0005525264736619142,-0.007994794046330068,0.03795653164900531,0.0228545793297226,0.017973858884204726, ,0.008548909994938876, ,0.044306095049090076, ,4.896989286163368e-05, ,0.16376055059793074,-0.2368253263209688,0.09381509988,1.8438036730594225,0.19621001366317248,-1.189556629179848, ,0.025850433549024998,0.017864635082543445,0.008330968368200839,-0.008261146629541645,0.06390462260169918,-0.04342367832265632, ,1.621603012084961
0.012106458105735199,0.020910000646077422,-0.083742578946056, ,0.012381845765671607,0.02075435608810433,-0.08405165223593111, ,0.00044225545806255193, ,0.002976885075751807,0.0005525264736619142,-0.007994794046330068,0.03795653164900531,0.0228545793297226,0.017973858884204726, ,0.008548909994938876, ,0.044306095049090076, ,4.9342333945464255e-05, ,0.16376055059793074,-0.2368253263209688,0.09381509988,1.8438036730594225,0.19621001366317248,-1.189556629179848, ,0.025850433549024998,0.017864635082543445,0.008330968368200839,-0.008261146629541645,0.06390462260169918,-0.04342367832265632, ,1.6272311210632324
0.012137326245129768,0.020911818885403624,-0.08381544071442817, ,0.012401920721505045,0.020754856143871427,-0.08409602970247361, ,0.0004163865023868715, ,0.002705792325398556,-1.0675587076677123e-05,-0.006191639646107179,0.00982372110329411,0.00533317147755367,0.01293321646752372, ,0.006757057612866075, ,0.011178023314726582, ,4.9741958894515755e-05, ,0.1640076780499059,-0.2366322579991132,0.0938902847,1.8438036730594225,0.19648328666270337,-1.1896161075069598, ,0.02345450854139169,0.01849482392486275,0.006384293194388779,-0.008261146629541645,0.03763669553616527,-0.021335974096508403, ,1.6319301128387451
0.012137326245129768,0.020911818885403624,-0.08381544071442817, ,0.012422019360900913,0.020755312726440107,-0.08414055228587022, ,0.00045961057629967026, ,0.002705792325398556,-1.0675587076677123e-05,-0.006191639646107179,0.00982372110329411,0.00533317147755367,0.01293321646752372, ,0.006757057612866075, ,0.011178023314726582, ,5.0193811665545415e-05, ,0.1640076780499059,-0.2366322579991132,0.0938902847,1.8438036730594225,0.19648328666270337,-1.1896161075069598, ,0.02345450854139169,0.01849482392486275,0.006384293194388779,-0.008261146629541645,0.03763669553616527,-0.021335974096508403, ,1.6356761455535889
0.012166470688500563,0.02090883156631924,-0.08387131160994926, ,0.012442141674594731,0.020755726070557805,-0.08418521912326801, ,0.0004449423696665087, ,0.002870191892555025,-0.00030236389515239746,-0.0057460167537904255,-0.014610670277075563,-0.006600775206799481,0.010238647158781648, ,0.006430095952629369, ,0.01603252671952764, ,5.062504413905658e-05, ,0.16423936003613265,-0.23643918967725758,0.09394732146000001,1.8438036730594225,0.19648328666270337,-1.1893710712865382, ,0.024571968295823608,0.020165095953776194,0.0058843042186922795,-0.008261146629541645,0.02164348492770606,-0.0016829323389849849, ,1.6395549774169922
0.012166470688500563,0.02090883156631924,-0.08387131160994926, ,0.012462287653275343,0.02075609641058748,-0.08423002935349812, ,0.000489401802184822, ,0.002870191892555025,-0.00030236389515239746,-0.0057460167537904255,-0.014610670277075563,-0.006600775206799481,0.010238647158781648, ,0.006430095952629369, ,0.01603252671952764, ,5.110962805154934e-05, ,0.16423936003613265,-0.23643918967725758,0.09394732146000001,1.8438036730594225,0.19648328666270337,-1.1893710712865382, ,0.024571968295823608,0.020165095953776194,0.0058843042186922795,-0.008261146629541645,0.02164348492770606,-0.0016829323389849849, ,1.643326997756958
0.012166470688500563,0.02090883156631924,-0.08387131160994926, ,0.012482457287578913,0.020756423980500892,-0.0842749821170738, ,0.0005348135014509787, ,0.002870191892555025,-0.00030236389515239746,-0.0057460167537904255,-0.014610670277075563,-0.006600775206799481,0.010238647158781648, ,0.006430095952629369, ,0.01603252671952764, ,5.164835064849564e-05, ,0.16423936003613265,-0.23643918967725758,0.09394732146000001,1.8438036730594225,0.19648328666270337,-1.1893710712865382, ,0.024571968295823608,0.020165095953776194,0.0058843042186922795,-0.008261146629541645,0.02164348492770606,-0.0016829323389849849, ,1.648285150527954
0.012195202861872775,0.02090587004298731,-0.08392452965275403, ,0.012502650568094725,0.02075670901388517,-0.08432007655618999, ,0.0005227145085816218, ,0.003201849766200174,-0.0001522860686440457,-0.006549313016656986,-0.02402049274671632,-0.012363363977162999,0.00925719124981856, ,0.007291675662162422, ,0.02701549238080057, ,5.216936655816599e-05, ,0.16447104202235938,-0.2362538440882762,0.09400176564000001,1.8438036730594225,0.19648328666270337,-1.1892893925463977, ,0.02622186834995048,0.020562717564132346,0.0067295359188846654,-0.008261146629541645,0.015483161312894083,0.006133381570706401, ,1.6533780097961426
0.012195202861872775,0.02090587004298731,-0.08392452965275403, ,0.012522867485361272,0.020756951743938913,-0.08436531181472173, ,0.0005690603479300327, ,0.003201849766200174,-0.0001522860686440457,-0.006549313016656986,-0.02402049274671632,-0.012363363977162999,0.00925719124981856, ,0.007291675662162422, ,0.02701549238080057, ,5.2745229773548526e-05, ,0.16447104202235938,-0.2362538440882762,0.09400176564000001,1.8438036730594225,0.19648328666270337,-1.1892893925463977, ,0.02622186834995048,0.020562717564132346,0.0067295359188846654,-0.008261146629541645,0.015483161312894083,0.006133381570706401, ,1.6572442054748535
0.012233026378161,0.020909274770572882,-0.08401528128733611, ,0.012543108029868853,0.020757152403475008,-0.08441068703822319, ,0.0005250119552275958, ,0.0032546020891520834,0.0006025390999207566,-0.008755687440454409,0.05910654148898123,0.042984331958693556,0.024020833672688403, ,0.009360424706207378, ,0.07308376009255421, ,5.326379775337609e-05, ,0.16481856500169947,-0.23601443936917524,0.09409639481000001,1.8438036730594225,0.197303105661296,-1.1899578999685763, ,0.030474290802334866,0.020118071138111253,0.009165023889528194,-0.008261146629541645,0.09413667397600832,-0.06034518578641142, ,1.6610710620880127
0.012233026378161,0.020909274770572882,-0.08401528128733611, ,0.012563372192056723,0.020757311224917783,-0.08445620137392568, ,0.0005715171027402832, ,0.0032546020891520834,0.0006025390999207566,-0.008755687440454409,0.05910654148898123,0.042984331958693556,0.024020833672688403, ,0.009360424706207378, ,0.07308376009255421, ,5.383715102986626e-05, ,0.16481856500169947,-0.23601443936917524,0.09409639481000001,1.8438036730594225,0.197303105661296,-1.1899578999685763, ,0.030474290802334866,0.020118071138111253,0.009165023889528194,-0.008261146629541645,0.09413667397600832,-0.06034518578641142, ,1.6648991107940674
0.012268181954533358,0.020916419292124518,-0.08411356748984694, ,0.012583659962318281,0.020757428440309058,-0.0845018539707376, ,0.0005249484313715053, ,0.0035098952761327016,0.0008865382475895561,-0.010651692029135145,0.0648477797254606,0.042218921518651906,0.022952411657436757, ,0.011250060355278054, ,0.07738004737916881, ,5.435040334144286e-05, ,0.16511975158379424,-0.23579820284869696,0.09419880172,1.8438036730594225,0.19812292465988865,-1.1905447286506141, ,0.029711002366459228,0.022028073713665455,0.011092487130919221,-0.008261146629541645,0.09424817158125413,-0.06816302484460128, ,1.6686320304870605
0.012268181954533358,0.020916419292124518,-0.08411356748984694, ,0.0126039713309951,0.020757504281301468,-0.08454764397924194, ,0.0005713413031235749, ,0.0035098952761327016,0.0008865382475895561,-0.010651692029135145,0.0648477797254606,0.042218921518651906,0.022952411657436757, ,0.011250060355278054, ,0.07738004737916881, ,5.4918060392290336e-05, ,0.16511975158379424,-0.23579820284869696,0.09419880172,1.8438036730594225,0.19812292465988865,-1.1905447286506141, ,0.029711002366459228,0.022028073713665455,0.011092487130919221,-0.008261146629541645,0.09424817158125413,-0.06816302484460128, ,1.6724610328674316
0.012268181954533358,0.020916419292124518,-0.08411356748984694, ,0.012624306288380793,0.020757538979163104,-0.08459357055169589, ,0.0006184419410012248, ,0.0035098952761327016,0.0008865382475895561,-0.010651692029135145,0.0648477797254606,0.042218921518651906,0.022952411657436757, ,0.011250060355278054, ,0.07738004737916881, ,5.554058893600716e-05, ,0.16511975158379424,-0.23579820284869696,0.09419880172,1.8438036730594225,0.19812292465988865,-1.1905447286506141, ,0.029711002366459228,0.022028073713665455,0.011092487130919221,-0.008261146629541645,0.09424817158125413,-0.06816302484460128, ,1.676159143447876
0.012310077542444262,0.02092616619988012,-0.08423359587633793, ,0.012644664824719477,0.020757532764775783,-0.08463963284202922, ,0.000552496065509241, ,0.0043848811338133694,0.0010978994121112013,-0.012707251080931051,-0.0025334075981930364,-0.004508500604197897,0.010868528291501181, ,0.013487282740070734, ,0.005171498857072135, ,5.607955705278033e-05, ,0.16542866089876324,-0.235558798129596,0.09432324556,1.8438036730594225,0.1986694706589504,-1.1907453640449779, ,0.02951693361072186,0.023706455547956723,0.01314258376237624,-0.007990339686922523,0.032121003249203806,-0.015186812981425667, ,1.6807692050933838
0.012310077542444262,0.02092616619988012,-0.08423359587633793, ,0.01266504693020745,0.02075748586863746,-0.08468583000584311, ,0.0005991427444995173, ,0.0043848811338133694,0.0010978994121112013,-0.012707251080931051,-0.0025334075981930364,-0.004508500604197897,0.010868528291501181, ,0.013487282740070734, ,0.005171498857072135, ,5.667271616410061e-05, ,0.16542866089876324,-0.235558798129596,0.09432324556,1.8438036730594225,0.1986694706589504,-1.1907453640449779, ,0.02951693361072186,0.023706455547956723,0.01314258376237624,-0.007990339686922523,0.032121003249203806,-0.015186812981425667, ,1.68448805809021
0.012310077542444262,0.02092616619988012,-0.08423359587633793, ,0.012685452594991754,0.020757398520860407,-0.08473216120040915, ,0.0006464954307054102, ,0.0043848811338133694,0.0010978994121112013,-0.012707251080931051,-0.0025334075981930364,-0.004508500604197897,0.010868528291501181, ,0.013487282740070734, ,0.005171498857072135, ,5.73205290418372e-05, ,0.16542866089876324,-0.235558798129596,0.09432324556,1.8438036730594225,0.1986694706589504,-1.1907453640449779, ,0.02951693361072186,0.023706455547956723,0.013923786293706296,0.005221287326836375,0.0,0.03468188042255257, ,1.6891460418701172
0.012358793591893149,0.020937024219772143,-0.08436920946804967, ,0.012705881809171525,0.02075727095117329,-0.08477862558466752, ,0.0005660415397229198, ,0.004966565595744279,0.0011033717005957885,-0.013486006508102085,-0.05779906833044067,-0.02280132251991404,-0.005898183104584306, ,0.014413763369192591, ,0.06213398556699792, ,5.786768114079387e-05, ,0.16574529294660642,-0.23530394794474657,0.09446324488,1.8435939831159383,0.19880610715871586,-1.1904483882479715, ,0.031329462383120094,0.025238548286827336,0.013923786293706296,0.005221287326836375,0.0,0.03468188042255257, ,1.693176031112671
0.012358793591893149,0.020937024219772143,-0.08436920946804967, ,0.012726334562794539,0.020757103388917165,-0.08482522231922597, ,0.0006127035099496511, ,0.004966565595744279,0.0011033717005957885,-0.013486006508102085,-0.05779906833044067,-0.02280132251991404,-0.005898183104584306, ,0.014413763369192591, ,0.06213398556699792, ,5.846860997715186e-05, ,0.16574529294660642,-0.23530394794474657,0.09446324488,1.8435939831159383,0.19880610715871586,-1.1904483882479715, ,0.031329462383120094,0.025238548286827336,0.013923786293706296,0.005221287326836375,0.0,0.03468188042255257, ,1.697580099105835
0.012396457380386961,0.0209470585717566,-0.08447673135101279, ,0.012746810845863649,0.020756896063053087,-0.08487195056635918, ,0.0005613444207141988, ,0.004848689693125659,0.0011477125230298399,-0.013208552520855253,-0.037338875244392083,-0.008465904296922585,-0.0019303676004381143, ,0.01411711356729605, ,0.03828658692067714, ,5.900468621449794e-05, ,0.16600014313145584,-0.23511087962289098,0.09457472582000001,1.8435939831159383,0.19907938015824675,-1.190589545315224, ,0.03243231085388612,0.024451672650984486,0.013684545979381443,0.005221287326836375,0.01998242481049229,0.01914900599464791, ,1.7041091918945312
0.012396457380386961,0.0209470585717566,-0.08447673135101279, ,0.012767310648329947,0.02075664920215433,-0.08491880949000635, ,0.0006076355448394545, ,0.004848689693125659,0.0011477125230298399,-0.013208552520855253,-0.037338875244392083,-0.008465904296922585,-0.0019303676004381143, ,0.01411711356729605, ,0.03828658692067714, ,5.959388738466696e-05, ,0.16600014313145584,-0.23511087962289098,0.09457472582000001,1.8435939831159383,0.19907938015824675,-1.190589545315224, ,0.03243231085388612,0.024451672650984486,0.013684545979381443,0.005221287326836375,0.01998242481049229,0.01914900599464791, ,1.7078959941864014
0.012446021691190119,0.020959436935577183,-0.08462368800324159, ,0.012787833960098732,0.020756363034413847,-0.08496579825577132, ,0.0005245131660846114, ,0.004103872896370054,0.0008025458093701959,-0.011990809530648504,0.09002946835810856,0.0616788744197026,0.005926397352526432, ,0.012699030109657564, ,0.10913106099843675, ,6.008047248828674e-05, ,0.1663940025080413,-0.234801970307922,0.09472768804000001,1.8442230529463917,0.20017247215637027,-1.1913175310645143, ,0.03620638746984769,0.027602368108921114,0.012493185505882354,0.013763620819014137,0.12132526616166098,-0.08966282133247805, ,1.7118170261383057
0.012446021691190119,0.020959436935577183,-0.08462368800324159, ,0.012808380771023737,0.02075603778763707,-0.08501291603091933, ,0.0005693626029610075, ,0.004103872896370054,0.0008025458093701959,-0.011990809530648504,0.09002946835810856,0.0616788744197026,0.005926397352526432, ,0.012699030109657564, ,0.10913106099843675, ,6.061843854575312e-05, ,0.1663940025080413,-0.234801970307922,0.09472768804000001,1.8442230529463917,0.20017247215637027,-1.1913175310645143, ,0.03620638746984769,0.027602368108921114,0.012493185505882354,0.013763620819014137,0.12132526616166098,-0.08966282133247805, ,1.7156171798706055
0.012495059569376169,0.020964420908346795,-0.08473973631973933, ,0.012828951070912979,0.020755673689249805,-0.08506016198437832, ,0.0005076726729287032, ,0.0047002636310829,5.868080012659104e-05,-0.00971803037663258,-0.016063386937806838,-0.009706096004849927,-0.029494574914510335, ,0.01079518578066805, ,0.01876807429904794, ,6.108013005810342e-05, ,0.16678786188462674,-0.2345162291915757,0.09484824301000001,1.8444327428898761,0.20071901815543203,-1.1915998451990188, ,0.037287599826511114,0.027723325024385268,0.01005606787878788,0.03187345195091461,0.021805699134138046,-0.0011590682505254945, ,1.7193660736083984
0.012495059569376169,0.020964420908346795,-0.08473973631973933, ,0.012849544849525876,0.020755270966294086,-0.08510753528673605, ,0.0005519778910674984, ,0.0047002636310829,5.868080012659104e-05,-0.00971803037663258,-0.016063386937806838,-0.009706096004849927,-0.029494574914510335, ,0.01079518578066805, ,0.01876807429904794, ,6.159242759201438e-05, ,0.16678786188462674,-0.2345162291915757,0.09484824301000001,1.8444327428898761,0.20071901815543203,-1.1915998451990188, ,0.037287599826511114,0.027723325024385268,0.01005606787878788,0.03187345195091461,0.021805699134138046,-0.0011590682505254945, ,1.7232470512390137
0.012495059569376169,0.020964420908346795,-0.08473973631973933, ,0.012870162096572,0.020754829845427716,-0.08515503511023864, ,0.0005975812956865706, ,0.0047002636310829,5.868080012659104e-05,-0.00971803037663258,-0.016063386937806838,-0.009706096004849927,-0.029494574914510335, ,0.01079518578066805, ,0.01876807429904794, ,6.223050957784123e-05, ,0.16678786188462674,-0.2345162291915757,0.09484824301000001,1.8444327428898761,0.20071901815543203,-1.1915998451990188, ,0.037287599826511114,0.027723325024385268,0.01005606787878788,0.03187345195091461,0.021805699134138046,-0.0011590682505254945, ,1.7251861095428467
0.012495059569376169,0.020964420908346795,-0.08473973631973933, ,0.012890802801714321,0.02075435055292764,-0.08520266062879044, ,0.0006442368943780113, ,0.0047002636310829,5.868080012659104e-05,-0.00971803037663258,-0.016063386937806838,-0.009706096004849927,-0.029494574914510335, ,0.01079518578066805, ,0.01876807429904794, ,6.29225504634538e-05, ,0.16678786188462674,-0.2345162291915757,0.09484824301000001,1.8444327428898761,0.20071901815543203,-1.1915998451990188, ,0.037287599826511114,0.027723325024385268,0.01005606787878788,0.03187345195091461,0.021805699134138046,-0.0011590682505254945, ,1.7271311283111572
0.012543368480235918,0.02096064413967151,-0.084830642309637, ,0.012911466954568025,0.020753833314689163,-0.0852504110179522, ,0.000595376328565484, ,0.00474177660276323,-0.000625317746790241,-0.009061009171028096,-0.051677829386232915,-0.033024019059322604,0.04177720805959316, ,0.01024584573534166, ,0.06132849112627325, ,6.355491837093839e-05, ,0.16715083032971528,-0.23422276534235514,0.09493898331000002,1.8446424328333608,0.20071901815543203,-1.191354808978597, ,0.03852900591086918,0.03180192411476903,0.009266324328097734,-0.04440063253620862,0.01314130905552418,0.016517909115559094, ,1.7292871475219727
0.012543368480235918,0.02096064413967151,-0.084830642309637, ,0.01293215454469796,0.020753278356222867,-0.08529828545493923, ,0.0006425303754791034, ,0.00474177660276323,-0.000625317746790241,-0.009061009171028096,-0.051677829386232915,-0.033024019059322604,0.04177720805959316, ,0.01024584573534166, ,0.06132849112627325, ,6.424172199740122e-05, ,0.16715083032971528,-0.23422276534235514,0.09493898331000002,1.8446424328333608,0.20071901815543203,-1.191354808978597, ,0.03852900591086918,0.03180192411476903,0.009266324328097734,-0.04440063253620862,0.01314130905552418,0.016517909115559094, ,1.7311620712280273
0.012543368480235918,0.02096064413967151,-0.084830642309637, ,0.012952865561623755,0.020752685902660883,-0.08534628311862166, ,0.0006905214927111894, ,0.00474177660276323,-0.000625317746790241,-0.009061009171028096,-0.051677829386232915,-0.033024019059322604,0.04177720805959316, ,0.01024584573534166, ,0.06132849112627325, ,6.498375964042703e-05, ,0.16715083032971528,-0.23422276534235514,0.09493898331000002,1.8446424328333608,0.20071901815543203,-1.191354808978597, ,0.03852900591086918,0.03180192411476903,0.009266324328097734,-0.04440063253620862,0.01314130905552418,0.016517909115559094, ,1.7330560684204102
0.012543368480235918,0.02096064413967151,-0.084830642309637, ,0.012973599994813246,0.020752056178749603,-0.08539440318952081, ,0.0007392120286253698, ,0.00474177660276323,-0.000625317746790241,-0.009061009171028096,-0.051677829386232915,-0.033024019059322604,0.04177720805959316, ,0.01024584573534166, ,0.06132849112627325, ,6.578166291733229e-05, ,0.16715083032971528,-0.23422276534235514,0.09493898331000002,1.8446424328333608,0.20071901815543203,-1.191354808978597, ,0.03852900591086918,0.03180192411476903,0.009266324328097734,-0.04440063253620862,0.01314130905552418,0.016517909115559094, ,1.7350170612335205
0.012584727348330067,0.020956964960883104,-0.0849115109117243, ,0.01299435783369124,0.020751389408859545,-0.08544264484981098, ,0.0007884960675086805, ,0.005527660686884013,-0.00039824889039956346,-0.011099488740950854,-0.04336976411351502,-0.04918370992367806,0.027061522820612725, ,0.012076493606991727, ,0.0655741838885657, ,6.663593526318495e-05, ,0.16749835330905538,-0.23394474695888307,0.09502453845000002,1.8446424328333608,0.20085565465519745,-1.1912211906618717, ,0.04213896161566198,0.03465921897679722,0.011361491811697575,-0.03386305064329022,0.0,0.00380742317199945, ,1.7402851581573486
0.012584727348330067,0.020956964960883104,-0.0849115109117243, ,0.013015139067630336,0.020750685816975332,-0.08549100728331552, ,0.000750747213121514, ,0.005527660686884013,-0.00039824889039956346,-0.011099488740950854,-0.04336976411351502,-0.04918370992367806,0.027061522820612725, ,0.012406139010930125, ,0.0655741838885657, ,0.00037093992497257134, ,0.16749835330905538,-0.23394474695888307,0.09502453845000002,1.8446424328333608,0.20085565465519745,-1.1912211906618717, ,0.04213896161566198,0.03465921897679722,0.011361491811697575,-0.03386305064329022,0.0,0.00380742317199945, ,1.742246150970459
0.012584727348330067,0.020956964960883104,-0.0849115109117243, ,0.013035943685959313,0.020749945626705495,-0.08553948967550759, ,0.0008005064121102822, ,0.005527660686884013,-0.00039824889039956346,-0.011099488740950854,-0.04336976411351502,-0.04918370992367806,0.027061522820612725, ,0.012406139010930125, ,0.0655741838885657, ,0.00037371132166378235, ,0.16749835330905538,-0.23394474695888307,0.09502453845000002,1.8446424328333608,0.20085565465519745,-1.1912211906618717, ,0.04213896161566198,0.03465921897679722,0.011361491811697575,-0.03386305064329022,0.0,0.00380742317199945, ,1.744352102279663
0.012584727348330067,0.020956964960883104,-0.0849115109117243, ,0.013056771677956252,0.020749169061274553,-0.08558809121350713, ,0.0008507443151657895, ,0.005527660686884013,-0.00039824889039956346,-0.011099488740950854,-0.04336976411351502,-0.04918370992367806,0.027061522820612725, ,0.012406139010930125, ,0.0655741838885657, ,0.0003767692254682824, ,0.16749835330905538,-0.23394474695888307,0.09502453845000002,1.8446424328333608,0.20085565465519745,-1.1912211906618717, ,0.04213896161566198,0.03465921897679722,0.011361491811697575,-0.03386305064329022,0.0,0.00380742317199945, ,1.7465710639953613
0.012584727348330067,0.020956964960883104,-0.0849115109117243, ,0.013077623032853116,0.020748356343528594,-0.085636811086081, ,0.0009014011615134832, ,0.005527660686884013,-0.00039824889039956346,-0.011099488740950854,-0.04336976411351502,-0.04918370992367806,0.027061522820612725, ,0.012406139010930125, ,0.0655741838885657, ,0.00038011083015646843, ,0.16749835330905538,-0.23394474695888307,0.09502453845000002,1.8446424328333608,0.20085565465519745,-1.1912211906618717, ,0.04213896161566198,0.03465921897679722,0.011361491811697575,-0.03386305064329022,0.0,0.00380742317199945, ,1.7485120296478271
0.012646889275358389,0.020962173058820067,-0.08507557560998537, ,0.013098497739832142,0.02074750769593152,-0.08568564848364071, ,0.0007888094411063456, ,0.005448536755888383,0.0011845749384727048,-0.0163493381124653,0.1101330879408298,0.05282115014312945,0.043758820621846585, ,0.017273987011713156, ,0.12214487215462418, ,0.0003826975302257714, ,0.16801577641162843,-0.23351999665080073,0.09519435244,1.8446424328333608,0.2020853831530864,-1.1922239517951396, ,0.04453164784536405,0.03453309372578995,0.016999798847385277,-0.025633260765222286,0.13737214805903125,-0.12011134859354601, ,1.7513270378112793
0.012646889275358389,0.020962173058820067,-0.08507557560998537, ,0.013119395788031243,0.02074662334057086,-0.08573460259824217, ,0.0008390713061512759, ,0.005448536755888383,0.0011845749384727048,-0.0163493381124653,0.1101330879408298,0.05282115014312945,0.043758820621846585, ,0.017273987011713156, ,0.12214487215462418, ,0.0003855678055460576, ,0.16801577641162843,-0.23351999665080073,0.09519435244,1.8446424328333608,0.2020853831530864,-1.1922239517951396, ,0.04453164784536405,0.03453309372578995,0.016999798847385277,-0.025633260765222286,0.13737214805903125,-0.12011134859354601, ,1.753283977508545
0.012646889275358389,0.020962173058820067,-0.08507557560998537, ,0.01314031716653875,0.020745703499152373,-0.08578367262358369, ,0.0008897929729573537, ,0.005448536755888383,0.0011845749384727048,-0.0163493381124653,0.1101330879408298,0.05282115014312945,0.043758820621846585, ,0.017273987011713156, ,0.12214487215462418, ,0.0003887192128423782, ,0.16801577641162843,-0.23351999665080073,0.09519435244,1.8446424328333608,0.2020853831530864,-1.1922239517951396, ,0.04453164784536405,0.03453309372578995,0.016999798847385277,-0.025633260765222286,0.13737214805903125,-0.12011134859354601, ,1.7552120685577393
