NicholasDascanio/dvrk_moveit_final/test/execution/third_experiment_notsharpbends/thirdexp_600vel3.0/thirdexp_600vel3.0_7.csv
Current Position (x),Current Position (y),Current Position (z), ,Planned Position (x),Planned Position (y),Planned Position (z), ,Position Error,,Cartesian linear Velocity(x),Cartesian linear Velocity(y),Cartesian linear Velocity(z),Cartesian Angular Velocity(x),Cartesian Angular Velocity(y),Cartesian Angular Velocity(z), ,Total Linear Velocity, ,Total Angular Velocity, ,MSE, ,Joint 1 Position,Joint 2 Position,Joint 3 Position,Joint 4 Position,Joint 5 Position,Joint 6 Position, ,Joint 1 Velocity,Joint 2 Velocity,Joint 3 Velocity,Joint 4 Velocity,Joint 5 Velocity,Joint 6 Velocity, ,Time Stamp
0.009391264264523516,0.020354043665063087,-0.07853631942547955, ,0.009550195762325436,0.020251111354575985,-0.07861651368819009, ,0.00020563414431329718, ,-2.607494835782468e-05,-0.00010545725527545716,-3.0449075368951703e-05,0.09033263692134401,-0.019900746958858934,-0.03948294173216592, ,0.00011281968716904095, ,0.09249878389840537, ,1.7136178692774766e-05, ,0.16830924026084895,-0.23375940136990167,0.0890810488,1.9383738375709432,0.4768613841813871,-1.0706209278537837, ,-0.0004177548861993696,0.0014051054500315286,0.0,0.0014625536927406462,0.0,-0.10113093629226433, ,0.02322697639465332
0.009398059293673065,0.020353918451555243,-0.0785444052999268, ,0.009576746200723624,0.02026267763107144,-0.07869705078573605, ,0.00025210026261746207, ,0.000797610612025356,-0.0003028885585037753,8.213690985862566e-05,0.053583674480934186,-0.1020293367206539,-0.06040162784700969, ,0.0008571293013595335, ,0.11524407022721513, ,2.0806109405943605e-05, ,0.16832468572659742,-0.23375167863702745,0.08908753025,1.9383738375709432,0.4763148381823254,-1.0746675869467288, ,0.0014489067607702673,0.0005876626928982077,-0.0004031731834731937,0.0014351895332913765,-0.09056315660328698,-0.09144634380668926, ,0.042207956314086914
0.00941674367973375,0.020353655991240983,-0.07856449862309024, ,0.009603298598040832,0.020274147718452817,-0.07877738495511113, ,0.0002940151243518417, ,0.0014884511812572683,-0.00012304048095649738,-0.0012768462177393846,0.20145200838497157,-0.1930123112553907,-0.144540599028796, ,0.00196493311405135, ,0.278992229243904, ,2.349217285258128e-05, ,0.16833240845947164,-0.23375167863702745,0.08910178944000001,1.9383738375709432,0.4744019271856092,-1.0773550307822881, ,0.001588061165529766,0.0004848939672267166,0.0008124152613447499,0.0014181327844757065,-0.14903531197096334,-0.2751680342430275, ,0.06179690361022949
0.009451902476638243,0.020360036792294763,-0.07862360681801153, ,0.009629852940298094,0.02028552195268276,-0.07885751676263436, ,0.0003032040419133845, ,0.0012121924557203484,0.00019326373015709358,-0.0021002464328091818,0.17874406878585736,-0.13677393837612734,-0.11008591792057035, ,0.002432652153027073, ,0.22507010540051545, ,2.5117942218952034e-05, ,0.16836329939096853,-0.23372851043840479,0.08915364104000001,1.9387932174579123,0.471532560690535,-1.0827747351180168, ,0.0015451299345765035,0.0006188261802540521,0.0018543435995343424,-0.0019717010294339186,-0.09569113991485413,-0.23196045800333565, ,0.08352899551391602
0.009486662904320967,0.020369492626502225,-0.07869512741146978, ,0.00965640921352895,0.020296800669248542,-0.07893744677376725, ,0.00030465817481787325, ,0.0022006844489474648,0.0008641078074821738,-0.005496081023795217,-0.12969014903679785,-0.10880991797438186,-0.0017495598090898692, ,0.005983026071054074, ,0.16929008536167617, ,2.6146379769497283e-05, ,0.16840963578821389,-0.23371306497265634,0.08921975183000001,1.9387932174579123,0.4690731036947571,-1.0851798648190716, ,0.0026240197728606145,0.0010705435458951715,0.005251833669634027,-0.001959024068412254,-0.13777428277578727,0.09313570103103663, ,0.10850191116333008
0.009511076944774696,0.020388689869523496,-0.0787887195808815, ,0.009682967403787577,0.020307984203153547,-0.079017175553111, ,0.00029707215576556413, ,0.0006707709383088549,0.0006684191233043063,-0.003071493219093705,-0.1263102925389087,0.04766563931471546,0.0616688553625827, ,0.0032141543788401406, ,0.13500482647769255, ,2.672070812547456e-05, ,0.16850230858270457,-0.2336744513082852,0.08931697358000001,1.9387932174579123,0.4689364671949916,-1.081556261089331, ,0.0042029916507099144,0.00167331891347729,0.0032917568753874768,-0.001902049840263212,0.024319037902665434,0.1456807778902109, ,0.12728285789489746
0.009517965904349264,0.020402642574104457,-0.07884820584254788, ,0.009709527497138756,0.020319072888928306,-0.07909670366441149, ,0.0003247012528208729, ,0.000584102297911523,0.0006022433540891323,-0.0028679848238325014,-0.049534499327273246,0.037233332474736966,0.03336343386984705, ,0.002988178291485231, ,0.061967634056690424, ,2.7519238286115217e-05, ,0.1685795359114468,-0.23362811491103988,0.08938308437,1.9387932174579123,0.4701661956928806,-1.0804353749789442, ,0.004258904884191395,0.002114331628766976,0.0030971828738090615,-0.0018562980198837105,0.031769785930951394,0.06317450617160732, ,0.15189194679260254
0.009546514102557658,0.020422261165255962,-0.0789562902830319, ,0.009736089479671499,0.020330067060616186,-0.07917603167055343, ,0.0003045075597223651, ,0.0008546318761397085,0.0005686515018815351,-0.0032184880553679596,0.014889783245159651,-0.003226415028518196,-0.0036585253605801193, ,0.003378228165303882, ,0.015235333887996519, ,2.7876740442959278e-05, ,0.16871854510318288,-0.2335431648494234,0.0894958616,1.9387932174579123,0.470302832192646,-1.0808735078432026, ,0.004384215399929927,0.002686269312998848,0.003361217877189281,-0.0017882083392242783,0.00575812215702632,-0.017648068164536422, ,0.1718158721923828
0.009566282718619042,0.020431435489772477,-0.07901749908218955, ,0.009762653337484158,0.020340967051789408,-0.07925516013356816, ,0.000321292286815217, ,0.0010209982611865552,0.0005041371369536817,-0.0030287399988569445,0.004224884295646933,-0.0047973455682431025,-0.0001798307472954617, ,0.003235715945950415, ,0.006392509018990975, ,2.8338967425411714e-05, ,0.16883438609629622,-0.23347366025355537,0.08955937981,1.9387932174579123,0.470302832192646,-1.0809551865833433, ,0.006676450040015106,0.002913972356335151,0.00317560038277512,-0.001748524243888242,0.004049903717275164,-0.006722710098483972, ,0.19260597229003906
0.009589381592074873,0.020444213923350517,-0.07909083408218841, ,0.00978921905669461,0.02035177319553881,-0.07933408961462927, ,0.00032810601104992366, ,0.0011538968812850135,0.0006615625667687123,-0.0042792738609600724,-0.00037169576535874883,-0.0039540583650028195,0.0003275303828092472, ,0.004481219456742217, ,0.0039714901310263055, ,2.8777362884194132e-05, ,0.16896567255515804,-0.23341187839056157,0.08963586092,1.9387932174579123,0.470302832192646,-1.0809551865833433, ,0.005575776462532948,0.004557962641854981,0.004430823788595272,-0.0017092043447630514,0.003082996700974714,-0.003772210633620925, ,0.2116858959197998
0.009614301848391241,0.02045994912386908,-0.07918203059777287, ,0.009815786623438355,0.020362485824475734,-0.07941282067405411, ,0.00032149536328588524, ,0.0012747013846970128,0.0008278039988357628,-0.004824329123999293,-0.0010313773797883342,-0.0045392212585951336,0.0005737911924772116, ,0.005058090012772088, ,0.004654918508497101, ,2.9078449798872202e-05, ,0.16908151354827142,-0.23333465106181933,0.08973049009,1.9387932174579123,0.470302832192646,-1.0809551865833433, ,0.0058505190362514396,0.004128034263342123,0.005009060226415094,-0.0016729159595553873,0.0025038630894216726,-0.0027738650644601607, ,0.23104190826416016
0.009637521342014878,0.020470859167576846,-0.07925582782452623, ,0.00984235602386571,0.02037310527073577,-0.07949135387130517, ,0.00032708651752688233, ,0.001158259746627031,0.0005823891981825799,-0.0036093543966960497,-0.0008451157907260362,-0.005765958598864407,0.0007025060438132775, ,0.0038351247671706023, ,0.005827563697720884, ,2.9376007336070236e-05, ,0.16921280000713323,-0.23324970100020287,0.0898069712,1.9387932174579123,0.470302832192646,-1.0809551865833433, ,0.007089665600890607,0.00491466396971534,0.0033740333658123286,-0.0016381616097381668,0.00210658628111689,-0.0022241046750800285, ,0.25046586990356445
0.00965051177482168,0.020477607091763692,-0.0792977544342626, ,0.009868927244145172,0.020383631865974746,-0.07956968976498974, ,0.000361227745888331, ,0.0011484889307749103,0.0004864738582138993,-0.003402181099245376,-0.0038785582266938584,-0.007495023587672754,0.0007124603245794228, ,0.0036236059210268006, ,0.008439110856115834, ,2.988712606734015e-05, ,0.1692977500687497,-0.2332033646029575,0.08985104506000001,1.9387932174579123,0.47043946869241143,-1.0810666044870398, ,0.0070337326003018195,0.004054452576055778,0.003531104305032144,-0.0016171997663878303,0.0,-0.0004225022744895003, ,0.27553296089172363
0.009682244376701826,0.020492521124348913,-0.07940529987108406, ,0.009895500270458078,0.02039406594137532,-0.0796478289128622, ,0.00033762676935036553, ,0.0011624967867082446,0.0005623096683859868,-0.004020754040862024,-0.004286428158564981,-0.005988841777182018,0.0005557840100756614, ,0.004223038479504496, ,0.007364760087050845, ,3.016005218478356e-05, ,0.16947537292485687,-0.23306435541122147,0.08996252600000001,1.9387932174579123,0.4705761051921769,-1.0811780223907361, ,0.00592892373308536,0.004929380044441376,0.004160044794985636,-0.0015699276420378767,0.0004942306171641454,-0.0007050444957177622, ,0.29540491104125977
0.009706402344917351,0.020503970990693343,-0.07948421930338975, ,0.00992207508900845,0.02040440782763654,-0.079725771871821, ,0.0003387848864654321, ,0.0011483810491783643,0.0005196257212397672,-0.0037888052814279163,-0.004194322999423967,-0.006286354329837107,0.0005708216049844068, ,0.003992973251207929, ,0.00755715524539556, ,3.0404686162530907e-05, ,0.1696066593837187,-0.2329716826167308,0.09004419227,1.9387932174579123,0.4705761051921769,-1.0811780223907361, ,0.006229306552050077,0.004739525761299954,0.003913712904176904,-0.0015390105994226245,0.00047437307415112057,-0.0006386066756456044, ,0.31819677352905273
0.009727721048606947,0.02051540444127821,-0.07955622676456506, ,0.00994865168600863,0.020414657854989207,-0.07980351919791405, ,0.00034657433370529153, ,0.0010788385920464702,0.0005116752671287571,-0.0035219937434538993,-0.004040642731173113,-0.006272033037220876,0.0006848860440628082, ,0.003718890186010943, ,0.00746091090678897, ,3.0667201422283884e-05, ,0.16973022310970629,-0.23289445528798855,0.09011937709000001,1.9387932174579123,0.4707127416919423,-1.0812894402944326, ,0.0058788855471026144,0.0040463750871030145,0.0036450369610983987,-0.0015095625371912742,0.0,-0.0002158407732788416, ,0.3375358581542969
0.009748102807778122,0.020525372401911997,-0.07962386688531006, ,0.009975230047695564,0.020424816353179234,-0.07988107144633437, ,0.0003575646630484726, ,0.0011345871795226117,0.0006212771985368284,-0.003970398911349327,-0.004027257708576586,-0.005989775113464113,0.0006739240735256331, ,0.004175804226805031, ,0.007217770401896718, ,3.096308891545617e-05, ,0.1698383413699454,-0.23281722795924628,0.09018937675000001,1.9387932174579123,0.4707127416919423,-1.0812894402944326, ,0.0056081837548254765,0.0040135768977641924,0.004110661037419356,-0.0014829607440454346,0.0,-0.00019021260055268228, ,0.3585829734802246
0.009774039465839334,0.0205410803339515,-0.07971708977623429, ,0.010001810160316371,0.02043488365148271,-0.0799584291714243, ,0.0003484277949598891, ,0.0012967141269554575,0.000690436804248975,-0.004209485392820336,-0.0031217106447001012,-0.006680643744851913,-0.0007546767925323185, ,0.004458468097909322, ,0.007374013620351264, ,3.117625872757335e-05, ,0.16996962782880723,-0.23274000063050404,0.09028530221000002,1.9387932174579123,0.4708493781917078,-1.0814008581981291, ,0.007182762888494836,0.004000381394268037,0.004395367417218543,-0.0014530570944390356,0.0006336106204930332,-0.0006835965905359856, ,0.3776538372039795
0.009798639781469907,0.02055362660329822,-0.07978892804081116, ,0.010028392010138403,0.02044486007869602,-0.08003559292667427, ,0.00035420306233860193, ,0.0011831318960219756,0.0005116540441099022,-0.0034541942384480936,-0.003660219399888963,-0.006582618430352908,-0.0010201105554287157, ,0.0036868752055319934, ,0.0075318039647356266, ,3.156168665317776e-05, ,0.1701240824862917,-0.23267049603463602,0.09036178332000001,1.9387932174579123,0.4708493781917078,-1.0814825369382697, ,0.007288152445535118,0.003991425473095221,0.0035948570345294526,0.0005470263185073723,0.0006336106204930332,1.9969011540844016e-05, ,0.3966188430786133
0.009822853984318173,0.02056697202299244,-0.0798681542340079, ,0.010054975583444144,0.020454745963141206,-0.08011256326472324, ,0.0003552617339170473, ,0.0012826867087020043,0.0007125080745860042,-0.004139113110878485,0.0012367870336743628,-0.0030386613769596855,-0.0040289447985533255, ,0.004391492945875834, ,0.003280716981942044, ,3.191771942337e-05, ,0.17026309167802778,-0.23258554597301956,0.09044474588000001,1.9390029074013966,0.4709860146914732,-1.081593954841966, ,0.007368786466627928,0.0038304274809144805,0.00433083510603589,0.0035869705481588396,0.004603897947773998,-0.003258986292730562, ,0.4138309955596924
0.009835513337750795,0.02057458237516947,-0.07991123140698864, ,0.01008156086653125,0.02046454163266617,-0.08018934073736055, ,0.00038728949258862925, ,0.0014296997046604266,0.0008249166259216385,-0.004672181887955525,0.0013780468211615623,-0.003520838135797523,-0.004021905219490904, ,0.004955180347814568, ,0.0037809141743000013, ,3.239633194862502e-05, ,0.17034031900677002,-0.23254693230864842,0.09049011603000001,1.9390029074013966,0.47112265119123864,-1.0817053727456625, ,0.008069680086217631,0.0040374897391027295,0.004890639091188211,0.0035267026075039725,0.004923932210425514,-0.0035382263035386875, ,0.43054986000061035
0.009853352909313044,0.020583675182399615,-0.07996728059385379, ,0.010108147845716372,0.020474247414641177,-0.08026592589552464, ,0.000407533939915986, ,0.0015177992256407984,0.0007818773682989435,-0.004589425388480879,0.0010890705843403592,-0.004789836495760173,-0.0039895103040189185, ,0.004896720545921194, ,0.004912087779928904, ,3.2928290445773464e-05, ,0.17044071453413492,-0.23249287317852887,0.09054844908000001,1.9390029074013966,0.47112265119123864,-1.081623694005522, ,0.009312796211985285,0.004333468508682027,0.004810876327393537,0.003432974962516669,0.004923932210425514,-0.0035577892338197045, ,0.44799184799194336
0.00989517432366319,0.020596913752022047,-0.08007450204751249, ,0.010134736507331281,0.020483863635962885,-0.08034231928930499, ,0.0003766914434735148, ,0.0015608660352312142,0.00052853373953195,-0.004308533891842107,-1.6114378158498888e-05,-0.00617971960291968,-0.00459243851355247, ,0.004612929111845762, ,0.006179740492865612, ,3.328219718348956e-05, ,0.17072645565048122,-0.23233841852104437,0.09065993002000002,1.9390029074013966,0.47112265119123864,-1.0814603365252409, ,0.010405672031633943,0.006515950706468263,0.004483200540388405,0.003219260591208708,0.004923932210425514,-0.004748342030691857, ,0.4650859832763672
0.0099173559877377,0.020607617118339274,-0.08014199883567363, ,0.010161326837724142,0.020493390623053453,-0.08041852146794215, ,0.00038604952276242744, ,0.001567968324590108,0.0007758966610375783,-0.00443085762553313,0.0050500563752696416,-0.004388830172079557,-0.004166577009137324, ,0.004763721191807122, ,0.00669065751364914, ,3.3648763912773554e-05, ,0.17088091030796573,-0.23226119119230212,0.09073122597000001,1.9390029074013966,0.47139592419076953,-1.0816014935924931, ,0.011301471230027414,0.00528671817152444,0.005188537954397395,0.00311858050146879,0.007435909312314085,-0.006240497247403924, ,0.4824647903442383
0.009942888187533116,0.020619787302573973,-0.08022269320856877, ,0.010187918823259602,0.02050282870186083,-0.08049453297982855, ,0.0003842085214618078, ,0.001719140727096806,0.0008932386193969226,-0.005422298996405303,0.005823302508461977,-0.0022202428940941827,-0.004101658358440684, ,0.005758007161958294, ,0.006232200729003681, ,3.398088491786272e-05, ,0.17103536496545022,-0.23216851839781144,0.09081548482000001,1.9390029074013966,0.471532560690535,-1.0816312327560489, ,0.010449275474011095,0.005516103321864192,0.005684800685224841,0.0030267981823935393,0.010190720223120779,-0.008287456322696115, ,0.49918198585510254
0.009975474009150977,0.020632522557553976,-0.0803123169224567, ,0.010214512450317225,0.02051217819786012,-0.08057035437250872, ,0.00037175995870273427, ,0.001643142242863922,0.0005598869532746727,-0.004356081798513777,0.002301133706327148,-0.004556495792558987,-0.0038040495707020055, ,0.004689225785358826, ,0.005104592899881295, ,3.4240459699130315e-05, ,0.17124387875305427,-0.2320604001375723,0.0909088177,1.9390029074013966,0.471532560690535,-1.0817129114961896, ,0.01157498150271909,0.006378849497417275,0.004560209424563414,0.0029177242211339163,0.008362941165732178,-0.006001093302403108, ,0.5166189670562744
0.010013981349379262,0.020645179811918657,-0.08040660215532046, ,0.010241107705295086,0.020521439436050823,-0.08064598619267992, ,0.00035242414717784137, ,0.001646462446111531,0.0005746647946210129,-0.004150770795614392,0.001557823689106504,-0.005953969148743302,-0.003518913136520015, ,0.004502219054017442, ,0.0061543937181849735, ,3.440874871010244e-05, ,0.17151417440365213,-0.2319368364115847,0.09100733574000001,1.9390029074013966,0.471532560690535,-1.0817129114961896, ,0.011887378373853286,0.0055790705924429924,0.004361667995618839,0.002800866700154374,0.006931334972335884,-0.004834850217810399, ,0.5344438552856445
0.010028659501543956,0.02064997027365482,-0.08044609809750673, ,0.01026770457460818,0.020530612740958305,-0.08072142898619201, ,0.0003836611341169536, ,0.0016255363632683576,0.0004488809571673851,-0.003956074322931595,-0.0067296573559956965,-0.01051997392078553,-0.00329686910238143, ,0.004300510043073252, ,0.012488320081344734, ,3.468074281203638e-05, ,0.17162229266389128,-0.2318750545485909,0.09104881702,1.9390029074013966,0.4716691971903004,-1.0817426506597454, ,0.01138500864139198,0.006262030656115677,0.004114908685094291,0.0027511485844775928,0.0,0.0011211714956860651, ,0.5508639812469482
0.010058015097745055,0.020660162043846464,-0.08052492828481536, ,0.010294303044685347,0.020539698436637333,-0.08079668329804958, ,0.00037972919528135303, ,0.0016510991404629885,0.0006423260969166731,-0.004333301738431154,-0.0016924399440354657,-0.007615258839126317,-0.0031159211401022885, ,0.004681475744111924, ,0.007801058814235363, ,3.492132113934252e-05, ,0.17183852918436957,-0.23175921355547754,0.09113177958,1.9390029074013966,0.47194247018983126,-1.0819654864671382, ,0.011228966232942119,0.005160485809003327,0.0045433004905875655,0.002655518036602751,0.003750957016490321,-0.0019374824390251666, ,0.5684409141540527
0.010091957623097326,0.02067345284632571,-0.08061421500632107, ,0.010320903101973025,0.020548696846668543,-0.0808717496724112, ,0.0003664753688670461, ,0.0016609276025170783,0.0007263728214140842,-0.004647929175135222,-0.002061804584535652,-0.0073725247096423484,-0.002996614213620673, ,0.004988942131711428, ,0.007655400483966182, ,3.5101264169042396e-05, ,0.17206248843772207,-0.2316588180281126,0.09122511246000001,1.9390029074013966,0.47194247018983126,-1.0819654864671382, ,0.01061652922643278,0.005013504769025072,0.004866731292392301,0.002569368695909385,0.0032776476231270034,-0.0015515303654657995, ,0.5850138664245605
0.010110593793070548,0.020680935990055237,-0.08066651058411037, ,0.010347504732934727,0.020557608294159077,-0.08094662865259007, ,0.00038704346821924864, ,0.0017285217977642696,0.000733353521978159,-0.004680711521458866,-0.002404711659674298,-0.008318568456064903,-0.002946447198933443, ,0.0050432782335165455, ,0.008659169537411634, ,3.533916413793158e-05, ,0.17217832943083544,-0.2315970361651188,0.09127955664000001,1.9390029074013966,0.47194247018983126,-1.0819654864671382, ,0.011325780550419363,0.005025746048289343,0.004907212421441775,0.002522651061147458,0.002971832585951699,-0.0013021587084092437, ,0.6020629405975342
0.010143946283445612,0.020696658513867684,-0.08076225439069633, ,0.010374107924050335,0.020566433101743935,-0.08102132078105455, ,0.0003702005313095809, ,0.0016034093056576876,0.0007372950453509298,-0.004829782418854175,0.004264037787648982,-0.0018083940381227437,-0.00048539126442086254, ,0.005142112756332904, ,0.0046316632675034615, ,3.550847600178936e-05, ,0.17240228868418794,-0.2314889179048797,0.09138066726,1.939212597344881,0.47221574318936216,-1.0821066435343902, ,0.010247637042089083,0.005481010254406438,0.0050664158778625954,0.0,0.010860840949054942,-0.006845344940340701, ,0.619844913482666
0.010175508124004086,0.020710387542650574,-0.08085791159561088, ,0.010400712661814021,0.020575171591587893,-0.08109582659943, ,0.0003544065269069156, ,0.0014663040684953187,0.0005458466376761445,-0.004038468680423698,-0.0032023903620536863,-0.004352593630918951,0.0006694875653833096, ,0.0043309612623425075, ,0.005403737065466306, ,3.561835058504113e-05, ,0.17259535700604356,-0.2313730769117663,0.09148048159000001,1.939212597344881,0.47235237968912763,-1.0819730252176651, ,0.009783417547786834,0.005330410468873954,0.004222908674443267,0.0,0.00601507948690049,-0.00014964923756173023, ,0.6370899677276611
0.01020640746737174,0.020719899167511706,-0.0809385689796419, ,0.010427318932737606,0.020583824085382528,-0.0811701466484974, ,0.0003477736623424816, ,0.0012268217075553146,0.0003711639906919977,-0.003265309697256748,-0.006647434514014062,-0.004339707513650342,0.001241623050162395, ,0.0035078628292899796, ,0.00793860482395532, ,3.570181226319178e-05, ,0.17281159352652187,-0.23124951318577872,0.09156474044000001,1.939212597344881,0.4724890161888931,-1.0819210856410806, ,0.008277437648853971,0.005086256302172302,0.0033977840273037544,0.0,0.0036319616196520176,0.0030777599564615825, ,0.6589958667755127
0.010217774915168759,0.020723178349487656,-0.08096942458095631, ,0.010453926723348618,0.020592390904348678,-0.08124428146819533, ,0.00038525230794288884, ,0.0012203787478007135,0.0002625329993132594,-0.003229526921620239,0.002153788982729064,0.0015272102694425423,0.0005583101341418892, ,0.0034623824169611813, ,0.0026402988160249205, ,3.5892665987293764e-05, ,0.17289654358813833,-0.23119545405565914,0.09159714769,1.939212597344881,0.4726256526886585,-1.0819508248046363, ,0.00912478349286327,0.006552125112107296,0.003370463715615743,0.0,0.01286954762650704,-0.004978175672137659, ,0.6756889820098877
0.010241518037608274,0.020728801598363992,-0.08103446855337229, ,0.010480536020194331,0.020600872369232397,-0.0813182315976184, ,0.00039244993176905277, ,0.0013941479112751008,0.0003235765820192528,-0.0035498027568670897,-0.005921458556229263,-0.005066555075749039,0.0006670585770760457, ,0.003827459969170831, ,0.00779317978780639, ,3.609445650439669e-05, ,0.17305872097849703,-0.23107189032967154,0.09166455477,1.939212597344881,0.47276228918842395,-1.0820622427083328, ,0.00979728397296116,0.006493988693571094,0.0036855186302637674,0.0,0.004933656199501322,0.0012051264855340396, ,0.6929628849029541
0.01027481883591723,0.020740009703127994,-0.0811297148094899, ,0.010507146809831431,0.02060926880031563,-0.0813919975750219, ,0.0003739809089063035, ,0.0016190154339728467,0.0005899595710309169,-0.004789001291833951,-0.005506520269058693,-0.006129037144401158,-4.393940266546586e-05, ,0.005089577255930056, ,0.008239348231020644, ,3.623363724197951e-05, ,0.17325951203322687,-0.2309328811379355,0.09176307281000001,1.939212597344881,0.47276228918842395,-1.0819805639681923, ,0.009786624013101087,0.006792321476922055,0.004968437779164068,0.0,0.0040050697796920245,9.837372359702357e-05, ,0.7107498645782471
0.010290953744921415,0.020748014473812377,-0.08118029449552029, ,0.01053375907884335,0.020617580517399287,-0.08146557993781559, ,0.00039668026261982845, ,0.001662468498336499,0.0007454862672176699,-0.005122969302304202,-0.0058803064497622865,-0.006722646160696333,0.00014698350385335948, ,0.005437312365031326, ,0.008931515650570713, ,3.652951304442824e-05, ,0.1733599075605918,-0.23087882200781595,0.0918162207,1.939212597344881,0.47289892568818936,-1.0820919818718886, ,0.009480419566657215,0.005863685062487387,0.0053291440347942465,0.0,0.0027867944912428615,0.001091795532536622, ,0.7257709503173828
0.010324657998223047,0.020761259500841935,-0.08127981227272296, ,0.01056037281381792,0.020625807839825518,-0.0815389792225735, ,0.00037560103122576984, ,0.0012483735651464703,0.0004225068119974475,-0.0035637534234215897,0.0016353362119536866,-0.0006523642206027368,4.102421892984572e-05, ,0.0037996430131381886, ,0.0017606541476454772, ,3.675543425545898e-05, ,0.17356842134819586,-0.23074753554895414,0.0919199239,1.939212597344881,0.47303556218795484,-1.082203399775585, ,0.008383110396163795,0.005462779990499966,0.003723424852734923,0.0,0.009519218297753582,-0.004398044653687415, ,0.7458899021148682
0.010351968573803997,0.02076938134261259,-0.08135182408196504, ,0.010586988001364829,0.020633951086460624,-0.08161219596502646, ,0.00037599069549838684, ,0.001583170794434471,0.00048386600385854207,-0.004011835389652308,-0.007524435901235459,-0.00865970318604396,-0.00242288063936872, ,0.0043399745699378225, ,0.011472035297319381, ,3.697280089061738e-05, ,0.17375376693717726,-0.23062397182296654,0.09199510872000001,1.9394222872883657,0.47317219868772026,-1.0823148176792814, ,0.01059556265484082,0.005898001949434285,0.004178596935991606,0.002723865063655879,0.0008303609144677052,0.0026871359300130065, ,0.7610149383544922
0.01038257437715776,0.020780549012883835,-0.08143556456137417, ,0.010613604628113744,0.02064201057569787,-0.0816852307000645, ,0.00036728879133898806, ,0.0015768400430895523,0.0006164616955615502,-0.004463962981447688,0.003990547322376623,-0.00038679915563943727,-0.0026258967071142846, ,0.004774244971021136, ,0.004009249274660101, ,3.715853175870581e-05, ,0.17397000345765554,-0.23050813082985316,0.09208325644000001,1.9394222872883657,0.47344547168725115,-1.0824559747465337, ,0.010566626932009542,0.005943253430787338,0.004687702036492054,0.002706213255785318,0.011940382629925321,-0.0061628485785386825, ,0.7796719074249268
0.010399059784964887,0.020786438085411987,-0.08148177518144246, ,0.010640222680706222,0.020649986625464814,-0.08175808396173981, ,0.00039131200502088697, ,0.0015223547044995772,0.0005977058016110794,-0.004571719873981885,0.002785029779196083,0.0003780710618756523,-0.0024742620478340406, ,0.00485545452844041, ,0.0028105740697844683, ,3.7397828834917624e-05, ,0.17407039898502044,-0.23044634896685937,0.09213121917000001,1.9394222872883657,0.47344547168725115,-1.0823742960063933, ,0.009645361324140038,0.006409177518992153,0.004779121368136814,0.002640982477347521,0.011624310676805846,-0.005462369051890114, ,0.7949237823486328
0.010432935960906223,0.020797860207162913,-0.08157551258244353, ,0.010666842145798732,0.02065787955322096,-0.08183075628326675, ,0.0003734381255561882, ,0.0017234582842037532,0.0006442923438265585,-0.004890751094002923,0.00039622088399010575,-0.003070727937189005,-0.0025527071993423508, ,0.005225405950277438, ,0.003096184467202988, ,3.75830046326155e-05, ,0.1742789127726245,-0.23031506250799755,0.09222844092000002,1.9394222872883657,0.47344547168725115,-1.082210938526112, ,0.011135612859514253,0.006694498130406846,0.005113583152487962,0.0025221113050844265,0.00916781948042768,-0.004021354335866392, ,0.8108329772949219
0.010437886916460703,0.020800062421676084,-0.08159128813046965, ,0.010693463010067511,0.020665689675953464,-0.08190324819701965, ,0.0004250814716477694, ,0.0018033107386376604,0.0006541955087574966,-0.004829590361433671,-0.006929969490160838,-0.008962738321217514,-0.0022699598017183967, ,0.005196618558545298, ,0.011329393307747244, ,3.78872037391848e-05, ,0.17431752643699563,-0.23029189430937488,0.09224529269000001,1.9394222872883657,0.47358210818701657,-1.0823223564298086, ,0.011535174714315392,0.006192576005933375,0.00503916846567542,0.0025029677351080474,0.00174645785076132,0.001994047309315447, ,0.8294658660888672
0.010484860126155193,0.02081343884547979,-0.08170870093370629, ,0.01072008526020301,0.02067341731018268,-0.08197556023453645, ,0.0003822967178440525, ,0.001665597981624934,0.00035352281037412197,-0.0040186584687562765,-0.0019508363527223063,-0.005428133354501972,-0.002662834538279073, ,0.004364494346697497, ,0.0057680493358893015, ,3.8077129609521915e-05, ,0.1746573266834615,-0.2301065487203935,0.09236844024000002,1.9394222872883657,0.47385538118654746,-1.0825451922372014, ,0.012086829041111552,0.007595468695835831,0.004189587459231984,0.0023505781122413424,0.007439767710522509,-0.0030489764966193135, ,0.8442997932434082
0.01050140748973687,0.020817769029507625,-0.08175125037202423, ,0.01074670888291407,0.020681062771958227,-0.08204769292651674, ,0.0004083375594552699, ,0.0016362692486630393,0.0005345370819180774,-0.004440345463623227,-0.001792812042979968,-0.004797944769788468,-0.0024737587147684132, ,0.0047623287142305884, ,0.005121957370890897, ,3.832117789794331e-05, ,0.17476544494370067,-0.23003704412452547,0.09241251410000001,1.9394222872883657,0.47385538118654746,-1.0825451922372014, ,0.010751760726995078,0.006594995168766641,0.004633162164048867,0.0023031220966976945,0.006540944468013785,-0.0024606329622612966, ,0.8603088855743408
0.010538126824214388,0.020830723211748427,-0.0818539129695744, ,0.010773333864922064,0.020688626376865082,-0.0821196468028253, ,0.0003822673575085186, ,0.0016399278498723142,0.0005496856308280528,-0.004611972539777979,0.004117230221344726,-0.002331233256673059,-0.003378150391825244, ,0.004925627711590859, ,0.004731408997962437, ,3.8495999917169575e-05, ,0.17501257239567583,-0.2298903121999152,0.09252010617,1.9394222872883657,0.47412865418607836,-1.082604670564313, ,0.010776884059104949,0.006994367097020593,0.004818152304900182,0.0022044866570328143,0.010580792146728676,-0.008010189311336685, ,0.880605936050415
0.01056983779944996,0.020836882521874364,-0.0819344267970021, ,0.010799960192969837,0.020696108440015234,-0.08219142239248836, ,0.0003725860896785328, ,0.0014092396759145182,0.000260276930585946,-0.003795105283465665,0.0016596300981054342,-0.0022178735014038893,-0.003445636154571808, ,0.004056664227830041, ,0.0027700783641451854, ,3.8642526199122354e-05, ,0.1752210861832799,-0.22973585754243073,0.09260306873000002,1.9394222872883657,0.47412865418607836,-1.082604670564313, ,0.009599522710903636,0.007990910038409977,0.00392722177514793,0.0021205172129547165,0.009174477903191022,-0.0068904630163863405, ,0.8961207866668701
0.01057355276972964,0.020837969335825296,-0.08194444200532239, ,0.0108265878538105,0.02070350927605861,-0.08226302022369932, ,0.00042848377177261544, ,0.0014520490616557662,0.00021428614023983824,-0.0037694799643835345,0.0007600211848528863,-0.0029455293473268935,-0.003456711484582011, ,0.004045163065840878, ,0.0030420017383870255, ,3.890832477858703e-05, ,0.17524425438190258,-0.22972041207668226,0.09261343905000001,1.9394222872883657,0.47412865418607836,-1.0825229918241726, ,0.01013505063995199,0.008451711138656797,0.003895527395451211,0.0021105735823087396,0.008877156773759167,-0.006504994657380599, ,0.9125609397888184
0.01061732012325968,0.020850239964283007,-0.08205927765730836, ,0.010853216834217859,0.02071082919917345,-0.08233444082381469, ,0.00038832639347733, ,0.001820293086530826,0.0006247738288064654,-0.0048885229705050385,0.006629033521493267,-0.004306769972575555,-0.004094435945161765, ,0.005253709745616788, ,0.007905210321929087, ,3.907694577475471e-05, ,0.17556088642974577,-0.22952734375482664,0.09273399402000002,1.9394222872883657,0.47453856368537467,-1.0826938880549806, ,0.012298722337800775,0.006891302361612192,0.005126749765046669,0.0020064243682863274,0.01073561152713691,-0.010647621224843822, ,0.9275000095367432
0.010633258813851493,0.020856891680419404,-0.08210749823488646, ,0.010879847120978949,0.020718068523073657,-0.08240568471935772, ,0.0004110873894304666, ,0.0016140462234913479,0.0005964921821062813,-0.005021718936038387,0.006974063762549219,-0.0009720499578065599,-0.004196159393307518, ,0.00530835277722262, ,0.007041480191771473, ,3.928871313654488e-05, ,0.1756612819571107,-0.22946556189183287,0.09278454933000001,1.9394222872883657,0.47467520018514014,-1.082805305958677, ,0.009632184964177082,0.007517736957082871,0.0052259880314960636,0.001972615273425506,0.011650340995800652,-0.011393521771350895, ,0.9430389404296875
0.010669908874037563,0.020871621592682316,-0.08221883166809224, ,0.010906478700901551,0.020725227561001956,-0.08247675243601585, ,0.00037936739187809944, ,0.0017243771632331215,0.0008543572446674096,-0.005634361654677783,0.001702421170083614,0.000520825214184861,-0.0012708884820134994, ,0.005953942740596265, ,0.0017803064527520897, ,3.9426255814738836e-05, ,0.17586207301184054,-0.2293265527000968,0.09289991914000001,1.9394222872883657,0.47467520018514014,-1.082805305958677, ,0.009624745734862298,0.006212959760541608,0.005893012031076582,0.00190412590279891,0.011650340995800652,-0.0041807652170455, ,0.958514928817749
0.010688140709448022,0.02087882738855351,-0.08227387476835896, ,0.01093311156080353,0.020732306625740195,-0.08254764449864553, ,0.00039551095708010675, ,0.0017068907207775752,0.0005712493466795217,-0.004513390685523288,-0.004339442016300896,-0.003909168563783216,0.0014224264710606662, ,0.0048590634106715205, ,0.005840578224800032, ,3.95927857743276e-05, ,0.17596246853920544,-0.22925704810422878,0.09295695590000001,1.9394222872883657,0.47467520018514014,-1.0827236272185365, ,0.01013964542776694,0.006728892242608934,0.0053291440347942465,0.0018720692860026689,0.011650340995800652,-0.0018822532287594155, ,0.9742507934570312
0.010716628158187882,0.020889382053091335,-0.08235259015112885, ,0.010959745687524402,0.020739306029598777,-0.08261836143126851, ,0.00039020932747066124, ,0.0016187936895158972,0.00041830650029107746,-0.004184871417405773,-0.002374401548696613,-0.0018590567917368028,0.0011567493690672476, ,0.004506508861371745, ,0.0030156050115709952, ,3.974302512254036e-05, ,0.17615553686106106,-0.22914120711111544,0.09303991846000001,1.9396319772318502,0.47494847318467104,-1.0829464630259293, ,0.011351230585061295,0.007182613508960802,0.0043748452403185945,0.0,0.010771659232937714,-0.0014034507648095084, ,0.9911108016967773
0.010752755509728977,0.02089836114539683,-0.08244066245572532, ,0.010986381067916707,0.020746226084424932,-0.08268890375707488, ,0.0003732957566209105, ,0.0015487786115744749,0.00030450351423897564,-0.003870964613865682,-0.0022047296957821714,-0.0036592328059431274,4.067034881817446e-05, ,0.004180407231317869, ,0.004272097481378628, ,3.985439646185744e-05, ,0.17641038704591047,-0.22899447518650518,0.09313195505,1.9396319772318502,0.4750851096844364,-1.0830578809296256, ,0.010967293143926945,0.0075428461636865346,0.004028530986342944,0.0,0.008668489601477144,-0.002717731907885406, ,1.0065929889678955
0.010768824822791321,0.020901066537390874,-0.08247961647429564, ,0.01101301768884918,0.02075306710160007,-0.08275927199842337, ,0.0003996763703336796, ,0.001436837104936135,0.00030697847639305745,-0.003594765787699597,-0.0024202878883096365,-0.003614556355826034,0.00017862990839414292, ,0.0038834363287564484, ,0.004350035690826215, ,4.001447804332045e-05, ,0.17651850530614963,-0.2289172478577629,0.09317214004,1.9396319772318502,0.4750851096844364,-1.082976202189485, ,0.010117437707874337,0.00670797013199591,0.003745311902186692,0.0,0.00760519854161151,-0.001946783733752505, ,1.0220859050750732
0.010781334014163393,0.020903838492782694,-0.0825117501389409, ,0.011039655537207559,0.020759829392039394,-0.08282946667684127, ,0.00043406500529315917, ,0.0015998432621347506,0.0002893910927771314,-0.0038202439438617076,-0.003374953174023357,-0.010939694025535001,-0.0024652743789237027, ,0.004151807974676666, ,0.011448459000472207, ,4.031518831478513e-05, ,0.1766111781006403,-0.2288554659947691,0.09320584358,1.9396319772318502,0.4752217461842019,-1.0829242626129005, ,0.010955546243185265,0.007329789068138293,0.003953539717051378,0.0,0.0009149215873034642,-0.0039117004407196185, ,1.0379328727722168
0.010812309935921659,0.02090944525081951,-0.08258733470927118, ,0.011066294599895233,0.020766513266191385,-0.08289948831302381, ,0.0004270569447968923, ,0.0015583125445144687,0.00017009546937315806,-0.0034343818263992036,-0.0026974169915141913,-0.0052399348291770845,-0.00023670231633836564, ,0.0037752150911694506, ,0.005893468839515158, ,4.0594283934425584e-05, ,0.17684286008686706,-0.22870101133728463,0.09328491727,1.9396319772318502,0.47549501918373277,-1.0832287771604339, ,0.011898083271386584,0.007877923738774642,0.0035746884021543987,0.0,0.007967618382436429,-0.002783599739214894, ,1.0512518882751465
0.010830384521176675,0.02091236581800654,-0.08263000290327217, ,0.011092934863827902,0.020773119034043015,-0.08296933742683817, ,0.0004510767874256231, ,0.0019191414347029133,0.00045063846739382086,-0.004913368132418775,-0.006752614643455156,-0.006594172597846123,0.0005082496506382428, ,0.005294087766495467, ,0.009438268586435442, ,4.091161625359791e-05, ,0.17696642381285463,-0.22861606127566816,0.09332899113000001,1.9396319772318502,0.47549501918373277,-1.0831470984202933, ,0.012925216774512499,0.008651144642083474,0.005108663091725466,0.0,0.006863432137046856,0.0004594362698985004, ,1.0644209384918213
0.010871317597751793,0.020927623491265233,-0.0827462546812656, ,0.011119576315941281,0.020779647005113165,-0.08303901453732024, ,0.00041138517830389867, ,0.0020212007150174722,0.0008362581536067362,-0.006096592369788319,0.0029474398252252367,-0.0004072060444876139,0.000256538058224044, ,0.0064771149868766455, ,0.0029754343991411445, ,4.1146145080105815e-05, ,0.17722899673057826,-0.22846160661818368,0.09345084239000001,1.9396319772318502,0.47576829218326366,-1.0832882554875456, ,0.012289166220988187,0.007644358415242274,0.006384293194388779,0.0,0.014556770348095683,-0.006443525809451924, ,1.0805180072784424
0.010911413912335818,0.020939712602113834,-0.08286259634000809, ,0.011146218943186572,0.02078609748845691,-0.08310852016267715, ,0.00041847370785699816, ,0.0018693198849383465,0.00046677703241958506,-0.005058334719110374,0.0012515737227024564,-0.008367238333731857,-0.003159854831616064, ,0.005452734314667193, ,0.008460325691439518, ,4.138772043621e-05, ,0.17735256045656586,-0.22836893382369297,0.09351695318000001,1.9396319772318502,0.47576829218326366,-1.083206576747405, ,0.012093404047211775,0.009806674040225942,0.0059905270853704414,0.0,0.013386800235502044,-0.0022020919805500767, ,1.0948939323425293
0.010929983772829052,0.020943377735727665,-0.0829098473188895, ,0.011172862732529428,0.02079247079266642,-0.08317785482028735, ,0.00039190702383950837, ,0.0019488890487103473,0.000311307090537592,-0.004553652460549776,-0.002463434710636702,-0.011981292544550997,-0.002953945826687745, ,0.004962945834912279, ,0.012231920521886286, ,4.157454489834169e-05, ,0.17759968790854105,-0.22818358823471158,0.09362065638000001,1.9396319772318502,0.4760415651827945,-1.0831843763343763, ,0.013620918840027384,0.00912650555246831,0.004719647857777778,0.0,0.003196122163457086,-0.00606440136965429, ,1.1090548038482666
0.010948091424259166,0.020947093107146243,-0.0829544512079532, ,0.011199507670950815,0.020798767225870915,-0.08324701902670269, ,0.00041328758113988207, ,0.0018470958502554242,0.00031768304367881537,-0.00456682645556035,0.0007443762940371329,-0.0012596126739283773,0.00018851271730373236, ,0.004936455152381895, ,0.0014631193283593672, ,4.179524122839853e-05, ,0.17773097436740287,-0.22809863817309511,0.09366732282000001,1.9396319772318502,0.47617820168256,-1.083377472978213, ,0.013420582881978614,0.009424573758748642,0.004764825462159737,0.0,0.014734672775751287,-0.00588463171267847, ,1.1226568222045898
0.01098778916929428,0.020953976081094686,-0.08304790415904113, ,0.011226153745450313,0.020804987095733744,-0.08331601329764547, ,0.00038845578786792336, ,0.0019132250020434925,0.0002600412917192884,-0.004642856704898012,-0.0002806487740080461,-0.00664021102172504,-0.001967958858859569, ,0.005028336679664538, ,0.006646139028790486, ,4.1966166539038695e-05, ,0.17800899275087495,-0.2279055698512395,0.09376454457000001,1.939841667175335,0.4763148381823254,-1.0833255334016285, ,0.013512308352338144,0.010096093156191734,0.004812329764350453,0.0,0.009262566039906533,-0.007395910692474899, ,1.137265920639038
0.011006702689821337,0.020956406829906106,-0.08309459998959177, ,0.011252800943046004,0.020811130709452813,-0.08338483814801097, ,0.00040731767702464916, ,0.00189662147125564,0.0002725760855806611,-0.004789235544738751,-0.0025736309743476845,-0.006352936278084559,-0.0014810649649175753, ,0.005158318314203522, ,0.00685444186100723, ,4.2166086453213657e-05, ,0.17813255647686255,-0.2278051743238746,0.09381250730000001,1.939841667175335,0.4763148381823254,-1.083243854661488, ,0.012919937584543332,0.010291965601364342,0.00495144902704383,0.0,0.008459862222745316,-0.005362720580202637, ,1.1524808406829834
0.011045299613431757,0.02096604115487431,-0.08319637452937431, ,0.011279449250764788,0.020817198373769268,-0.08345349409186975, ,0.00037827330803021173, ,0.0020170725631829716,0.000577631142907877,-0.005348354980334688,-0.0014420129915853534,-0.0019015175708503398,0.0011061118569309482, ,0.005745184110024103, ,0.002386454726977574, ,4.2310626806009684e-05, ,0.17839512939458618,-0.22762755146776742,0.09391880308000002,1.939841667175335,0.4765881111818563,-1.0835483692090213, ,0.013572217042115385,0.00848714122485733,0.005598879268892795,0.0,0.013507535390614386,-0.0028860497819496954, ,1.1673858165740967
0.011065724703096929,0.020971105262511128,-0.08324973819922853, ,0.01130609865565456,0.020823190394957322,-0.0835219816424658, ,0.0003921414763797935, ,0.0018417415336409023,0.000330411084175979,-0.004580934905662004,-0.007119250945414324,-0.0030168123429051407,0.0018021222711019462, ,0.004948348004253221, ,0.007732068851141137, ,4.247551871105732e-05, ,0.17853413858632222,-0.22753487867327674,0.09397454355000001,1.939841667175335,0.4767247476816217,-1.0835781083725773, ,0.012846479160480682,0.009114187254516092,0.004766251202872532,0.0,0.01044657088326755,0.0016172647991946785, ,1.1815447807312012
0.011083473078161668,0.02097417669381811,-0.0832918402877638, ,0.01133274914478014,0.020829107078827902,-0.08359030131221633, ,0.0004150454597986037, ,0.0018662669137186985,0.0003149605811479234,-0.0043600219870858015,-0.006678625646792628,-0.0038156032206726046,0.0012356068855583942, ,0.004753098367253699, ,0.008263855659917031, ,4.2675377503623034e-05, ,0.17874265237392628,-0.2273958694815407,0.09404713579000001,1.939841667175335,0.4768613841813871,-1.083607847536133, ,0.012375709645079652,0.009003843737889526,0.004848953278538814,0.0,0.009204965037084784,0.0009384653568427969, ,1.2000648975372314
0.01111480601704496,0.0209808805902968,-0.0833689106666109, ,0.011359400705219944,0.020834948730731724,-0.08365845361271533, ,0.0004061499559994734, ,0.0018486028142155983,0.0005455610193763464,-0.0043175086403140755,0.008597369138895982,-0.0033529956908316676,-0.0013533444928156648, ,0.0047281973361711, ,0.009228073185281873, ,4.285561628461986e-05, ,0.17888166156566232,-0.2273109194199242,0.09409898739000001,1.939841667175335,0.4769980206811526,-1.0836375866996888, ,0.0137671466064806,0.00610859553681993,0.004579876802760207,0.0,0.014030126352153453,-0.011184318776304537, ,1.213244915008545
0.011152823749137867,0.020986066588875668,-0.08345353991511753, ,0.011386053324067658,0.020840715655558336,-0.08372643905473223, ,0.00038729429229023634, ,0.0018096378583624551,0.00021134279739215686,-0.004115833187886685,-0.007893724155073657,-0.011442805115296686,-0.001394755589069953, ,0.0045010596293470345, ,0.013901390893070645, ,4.3000400659906594e-05, ,0.17915195721626018,-0.22714101929669128,0.09418454253000001,1.939841667175335,0.4771346571809181,-1.0835856471231042, ,0.012437344896260914,0.008814462191296155,0.004184084980299449,0.0,0.0013536993478313658,-0.00048120430676519945, ,1.2264959812164307
0.011169051882284342,0.020991829282209377,-0.08350000351085916, ,0.011412706988437207,0.020846408157732005,-0.08379425814821143, ,0.00040877977665478824, ,0.001783513812947566,0.0006990142262903606,-0.005299757103886652,0.0014208134407656006,0.0016435230199145516,0.0013532088380470023, ,0.005635332090456437, ,0.002172527231003676, ,4.317708422062043e-05, ,0.17927552094224777,-0.22706379196794904,0.09423639413000001,1.939841667175335,0.4774079301804489,-1.0838901616706376, ,0.010944518292420522,0.006894341275102305,0.0055578546824843,0.0,0.01474383665540159,-0.003881277276832882, ,1.2412309646606445
0.011186614607272903,0.020999985868115814,-0.0835537620724612, ,0.011439361685455243,0.020852026541218396,-0.08386191140227534, ,0.00042512240285657953, ,0.0016195751218612859,0.0008169855801774914,-0.0051985211671441035,0.029158398237767776,0.019673818564469085,0.0007480319920890747, ,0.005505916030854016, ,0.03517486774535578, ,4.337624599260136e-05, ,0.17939136193536115,-0.22700201010495524,0.09429343089000002,1.939841667175335,0.4776812031799798,-1.0841129974780306, ,0.011485952742492226,0.006069067341433721,0.0055636784910932605,0.0,0.039965419697754336,-0.024721866483520177, ,1.2542879581451416
0.011228411986797915,0.021015910727839253,-0.08367474610239382, ,0.011466017402263665,0.020857571109522847,-0.08392939932522381, ,0.00038259120753741114, ,0.0019418646845595004,0.0009986443631500694,-0.005937609661900321,0.011372305633717179,0.006382076608797698,0.0013738328846737752, ,0.006326400043807127, ,0.013040714316601167, ,4.350278042463534e-05, ,0.17962304392158787,-0.22685527818034498,0.09441917102000001,1.939841667175335,0.4776812031799798,-1.0837862825174682, ,0.012110435790956891,0.00546233517166972,0.006295972932806325,0.0,0.022758085396294446,-0.010488929946341813, ,1.2678937911987305
0.011244723307763667,0.021022136802928304,-0.08372080454458324, ,0.011492674126025402,0.020863042165685176,-0.08399672242453232, ,0.0004036352169370071, ,0.0019075413628195155,0.0007460832571681707,-0.005738307647207615,0.0038934658148744375,0.004257407455876188,0.0016303655736247544, ,0.006092908084937389, ,0.005769279684250165, ,4.365985768923844e-05, ,0.17971571671607856,-0.2268012190502254,0.09446713375000002,1.939841667175335,0.4776812031799798,-1.0837046037773277, ,0.011784142276342887,0.007640690936482997,0.006024512677760969,0.0,0.019011967369579462,-0.005921698386116224, ,1.284179925918579
0.011288512539249663,0.021037895691601544,-0.08384612430770903, ,0.011519331843913627,0.020868440012290025,-0.08406388120685752, ,0.00035973718988068306, ,0.0018120262817156946,0.0004111122066099188,-0.0041137646485234205,-0.00427660311406917,-0.0037729346600218396,0.001856844059479984, ,0.004513924243437533, ,0.005703014024699519, ,4.374468243227295e-05, ,0.1800091805652991,-0.22662359619411823,0.09459935533000001,1.939841667175335,0.47822774917904154,-1.0841502753921133, ,0.013296474927626561,0.00689034212767909,0.0043343704816326545,0.0,0.010286212757073237,0.0008395737541971983, ,1.2977938652038574
0.01130482442337436,0.02104036349698071,-0.08388315661504057, ,0.011545990543119136,0.02087376495145994,-0.08413087617803405, ,0.0003837722691545951, ,0.0013479221682457384,0.00014164819521613413,-0.0033646180816806403,0.0165903172456381,0.013201132786600353,0.0007380400151815831, ,0.0036273424457071313, ,0.02120161627634015, ,4.393304295177754e-05, ,0.1801327442912867,-0.226546368865376,0.09463824403000001,1.939841667175335,0.478364385678807,-1.0842616932958098, ,0.011298600018867814,0.008489283909238851,0.003565885721961048,0.0,0.03079345431840078,-0.01670983138124019, ,1.3095738887786865
0.011318716143452031,0.021041181607958044,-0.08391204240859504, ,0.011572650210852234,0.020879017284854837,-0.08419770784307427, ,0.00041519214675875293, ,0.0015125243193577019,8.113699229327673e-05,-0.0035070725823262735,0.007788859698551836,0.00707976307948272,0.0009421898578530501, ,0.0038201925508894907, ,0.010525653430299932, ,4.416626431954383e-05, ,0.1802331398186516,-0.22647686426950797,0.09466805870000002,1.939841667175335,0.478364385678807,-1.0841800145556693, ,0.012269751794601972,0.009350125947311464,0.00368296220115607,0.0,0.023685475591394146,-0.010432333344980529, ,1.3254878520965576
0.011340524870697886,0.02104483538996147,-0.08396068675549072, ,0.011599310834334967,0.02088419731367815,-0.08426437670617243, ,0.00043011899826982526, ,0.001787516036670814,0.0005041181167363305,-0.004525696153956519,0.006940673770916878,0.001740075516547839,-0.0009373698026521614, ,0.004891960173071112, ,0.007155474358769739, ,4.441797378959347e-05, ,0.18037987174326187,-0.22637646874214304,0.09471861401000001,1.9400513571188194,0.478364385678807,-1.0840983358155287, ,0.01273784450449272,0.007170483374157485,0.004779121368136814,0.0012229258974143333,0.01769554618959743,-0.008990898508333987, ,1.3368628025054932
0.011379816007459902,0.021052739077631936,-0.08405786178366689, ,0.011625972400809745,0.020889305338670276,-0.08433088327070146, ,0.000402298756399464, ,0.0023164251397076218,0.0004254267824148456,-0.005838931532927307,-0.017161492504821244,-0.012704352998495191,-0.0005174916270233275, ,0.006296025319300912, ,0.02135222244443375, ,4.462309601566885e-05, ,0.1806424446609855,-0.2261988458860359,0.09481972463,1.9400513571188194,0.47850102217857243,-1.0841280749790845, ,0.014490294939451944,0.010986178235466552,0.006026792099886493,0.0012229258974143333,0.0,0.007234404456240217, ,1.3486309051513672
0.01139871547040675,0.02105808849026601,-0.08411292413037812, ,0.01165263489753059,0.020894341660115976,-0.08439722803921729, ,0.0004148696330611757, ,0.0020422458372660332,0.0004192162385143242,-0.005161502236624348,0.004230383303131637,-0.0031435064843521408,-0.002800098616153828, ,0.005566652104554648, ,0.005270462242081851, ,4.484335208897298e-05, ,0.18078145385272154,-0.22609845035867096,0.09487805768,1.9400513571188194,0.4789109316778688,-1.0843806499500332, ,0.01396159210805808,0.009674506680708659,0.005390460751269035,0.0012229258974143333,0.01390919097430463,-0.010042991414050703, ,1.360055923461914
0.01141979549013125,0.02106181919813697,-0.08416109516770243, ,0.011679298311766643,0.020899306577841986,-0.08446341151345735, ,0.00043028739128921995, ,0.001969648646889615,0.0005067862510091427,-0.005253522902089592,0.03257156338612832,0.013470823041625689,-0.004332369287743257, ,0.005633458172311733, ,0.03524726671436509, ,4.5082561701369695e-05, ,0.18093590851020605,-0.22600577756418028,0.09492861299000001,1.9400513571188194,0.47904756817763416,-1.084410389113589, ,0.01510135925500808,0.009698980933268937,0.005585137279102384,0.0012229258974143333,0.03863611211937335,-0.03264133546829559, ,1.3716609477996826
0.011444353808058865,0.02106687320232803,-0.08422246183580827, ,0.011705962630809249,0.020904200391210857,-0.08452943419433867, ,0.0004348949856221876, ,0.0023055853919446666,0.000614790430015543,-0.006406710460743436,0.013852222372653804,0.0048511507395162055,-0.002629383139344241, ,0.006836638808668095, ,0.014677115430667274, ,4.532432584168435e-05, ,0.18109036316769053,-0.22589765930394112,0.09499213120000001,1.9400513571188194,0.47904756817763416,-1.0843287103734485, ,0.015415357628081671,0.011121661981279228,0.006718182842682413,0.0012229258974143333,0.026119769746426144,-0.017938948562631334, ,1.3827970027923584
0.011467184146482132,0.021073044014880235,-0.08428727847199874, ,0.011732627841962174,0.020909023399129974,-0.08459529658196252, ,0.0004384498533776196, ,0.002451274209439813,0.000703589910632162,-0.006670505751193678,-0.014239226460792512,-0.012865311163107138,-0.0011208843146427337, ,0.007141388589687308, ,0.019190408758507933, ,4.5567042894639906e-05, ,0.18122937235942657,-0.225789541043702,0.09505953828000001,1.9400513571188194,0.47918420467739964,-1.0845218070172855, ,0.014204002628120159,0.009989855698093839,0.006913546666666667,0.0012229258974143333,0.0,0.005097140475284551, ,1.3939638137817383
0.011489055306574982,0.021079170267332182,-0.0843446964423823, ,0.011759293932543416,0.020913775900049846,-0.084660999175614, ,0.00044769591325349026, ,0.0025361794990780067,0.0006333493450105855,-0.0066699274666581175,-0.014774201161160763,-0.013884848645426868,-0.001365848526251755, ,0.007163886532801122, ,0.020274763344016993, ,4.581891233956137e-05, ,0.181553727140144,-0.22556558179034947,0.09519953760000001,1.9400513571188194,0.47945747767693053,-1.0846629640845378, ,0.01618849224811852,0.011403141259128908,0.00615012027799228,0.0012229258974143333,0.00937109298923596,0.0021982973190662514, ,1.408371925354004
0.011539222326742121,0.0210902028132261,-0.08447698044471122, ,0.011785960889889624,0.02091845819196094,-0.0847265424737605, ,0.00039071388485796527, ,0.002142290681379141,0.0003796019217014721,-0.0053724781635502965,0.01139504950812902,0.0053851020660764986,-0.0015232578618638477, ,0.005796294385235115, ,0.012603431004252206, ,4.598481550692613e-05, ,0.1817081817976285,-0.22545746353011034,0.09525657436000001,1.9400513571188194,0.4797307506764614,-1.08480412115179, ,0.015641493581419284,0.011005481944150805,0.005630544899257689,0.0012229258974143333,0.02628911489375706,-0.015038773267779661, ,1.420973777770996
0.011563419801411743,0.021093080790562692,-0.08453218793200212, ,0.011812628701352504,0.020923070572396976,-0.08479192697405434, ,0.00039808657356992427, ,0.0021607871595893512,0.0003323269388503414,-0.00540897428700547,0.013872236286878887,0.004454503221168005,-0.002910421755009545, ,0.0058340762062916345, ,0.014569884485350725, ,4.615836334858574e-05, ,0.1818703591879872,-0.22534162253699697,0.09531231483000001,1.9400513571188194,0.4797307506764614,-1.0847224424116495, ,0.015745303062629962,0.011611179017152296,0.005670634218583126,0.0012229258974143333,0.02628911489375706,-0.018572821256195138, ,1.4319159984588623
0.011581765471980246,0.021094736729382724,-0.08457368882656181, ,0.011839297354298827,0.02092761333843487,-0.08485715317333252, ,0.000417857552405845, ,0.00214518266169738,0.00025266516886692913,-0.005015553461467397,0.008837158374774008,0.0005007484352729536,-0.0027477560235499654, ,0.0054608996387448105, ,0.008851334021624017, ,4.63568244363524e-05, ,0.1819939229139748,-0.22524894974250628,0.09535768498000001,1.9400513571188194,0.4797307506764614,-1.0847224424116495, ,0.015935674485049667,0.011322586300667192,0.005253565804749341,0.0012229258974143333,0.021089146123565272,-0.014389676446483332, ,1.444154977798462
0.011610755127873552,0.02109669143161893,-0.0846365382430447, ,0.011865966836112156,0.02093208678669389,-0.0849222215676174, ,0.00041694444125311595, ,0.002223305875810004,0.00037026659544606654,-0.005340696606311567,0.004617583818940486,-0.002928029950307492,-0.0026341167253755154, ,0.0057968290133298215, ,0.005467671841820899, ,4.655068406573089e-05, ,0.18219471396870462,-0.22510221781789602,0.09542249948,1.9400513571188194,0.4797307506764614,-1.0847224424116495, ,0.015690631871440274,0.010690790532877342,0.005587096289021397,0.0012229258974143333,0.01621391262896348,-0.01076084363781057, ,1.4573819637298584
0.011636357900504418,0.021101593697785956,-0.08470152585788876, ,0.01189263713419398,0.02093649121333513,-0.08498713265211594, ,0.0004177428837228354, ,0.0022245921034353354,0.0002965370586655734,-0.005418970999610372,-0.002251835195803057,-0.006694602657961809,-0.0027279852989483175, ,0.005865321043936736, ,0.0070631764684292025, ,4.674242752740465e-05, ,0.18238778229056024,-0.2249709313590342,0.09549120285000001,1.9400513571188194,0.48014066017575774,-1.0850566961227388, ,0.01498688274770543,0.011496730327642792,0.00562259495940699,0.0012229258974143333,0.01023688296153217,-0.006156972897641617, ,1.4690167903900146
0.011658407415705998,0.021105804185501332,-0.08475963329055425, ,0.011919308235959747,0.02094082691406434,-0.0850518869212223, ,0.0004250869590313626, ,0.0022341528854052787,0.0005915754847304671,-0.005960531678976099,0.027039020095608466,0.010567887584311377,-0.0037280605151146584, ,0.006392913151731099, ,0.029030825827071696, ,4.6941098398100984e-05, ,0.18254223694804472,-0.22485509036592083,0.09555212848000001,1.9400513571188194,0.48041393317528863,-1.085197853189991, ,0.016160923289930306,0.010395738386592057,0.006313440951248514,0.0012133670619482281,0.03562123903712571,-0.028357179413132018, ,1.4803109169006348
0.011705190010141078,0.021115210213162972,-0.08487469767399494, ,0.011945980128837236,0.020945094184134323,-0.08511648486851929, ,0.00038128780734524037, ,0.002323491588876466,0.0004578659043622472,-0.005653985410266302,0.006692664289206653,0.0021803925084382635,-0.0007832162813799663, ,0.00612991071464025, ,0.007038882084601965, ,4.707684937488114e-05, ,0.18283570079726527,-0.224654299311191,0.09567138716000001,1.9400513571188194,0.48041393317528863,-1.0849528169695692, ,0.01667784561660295,0.01070024263530476,0.005950247112439298,0.0011831810173451231,0.022918147641136945,-0.010721848806719754, ,1.4930779933929443
0.011734717762391732,0.02112015591882867,-0.08493804711972343, ,0.011972652800276637,0.020949293318336604,-0.08518092698677392, ,0.0003805229826418711, ,0.0021875396631573867,0.00028037249163113866,-0.004857924021437846,0.0005499747060857838,-0.001523834847353996,-0.00022981792186346805, ,0.005335106775877408, ,0.0016200438616922742, ,4.720936543757382e-05, ,0.1830364918519951,-0.2245307355852034,0.09573749795000001,1.9402610470623036,0.48041393317528863,-1.084871138229429, ,0.016291320439222448,0.010418363059638548,0.005102117719410635,0.0009961227941021422,0.017300023823513047,-0.00564715676481812, ,1.505964994430542
0.01175496067308013,0.021123503498614048,-0.08498798297967745, ,0.011999326237742101,0.02095342461100844,-0.08524521376794238, ,0.00039345779396667013, ,0.0021886554273672833,0.00031384470832836035,-0.005219538121456328,-0.004410052637755679,-0.0032000597292166965,-3.457541183408432e-05, ,0.005668535020799097, ,0.005448756065775338, ,4.735708876376849e-05, ,0.1831986692423538,-0.22442261732496424,0.09579064584000001,1.9402610470623036,0.48082384267458494,-1.0851237132003775, ,0.015171373550514913,0.010815450137908912,0.0054438863704716345,0.0009961227941021422,0.01338068788738584,-0.001984686555083633, ,1.5169658660888672
0.011772287780558423,0.02112718506113508,-0.08503499958175559, ,0.012026000428711948,0.020957488356033203,-0.08530934570316977, ,0.00041040574300381236, ,0.001618424174195603,0.0004689612406808992,-0.004729371600310041,0.06280758920746952,0.04046442653259828,-0.002553713550114462, ,0.005020575384027297, ,0.07471387471079433, ,4.752499196911584e-05, ,0.18334540116696407,-0.22432222179759934,0.09584120115000001,1.9402610470623036,0.4813703886736467,-1.0854877060750225, ,0.014888130147234196,0.009585115392840581,0.0051616369151004544,0.0009961227941021422,0.07302168587246792,-0.053844213225053825, ,1.5296359062194824
0.011793006076952387,0.021130912849220446,-0.08508530981046011, ,0.012052675360681274,0.020961484846838588,-0.08537332328279, ,0.00042318523739244313, ,0.0020744456334385823,0.0003273654241776327,-0.0049066648934082985,0.009888009045208623,0.010030264415753849,0.0014677691136673668, ,0.005337213990767549, ,0.01408470533181471, ,4.7770117831132836e-05, ,0.18349985582444858,-0.2242218262702344,0.09589434904000001,1.9402610470623036,0.48164366167317757,-1.0855471844021343, ,0.016032596985719003,0.010387240948944634,0.005198698276762404,0.0009961227941021422,0.030979343287006703,-0.011119969724590166, ,1.540820837020874
0.011811743292120131,0.021133935057838334,-0.08512638445403144, ,0.0120793510211611,0.020965414376396985,-0.08543714699632615, ,0.0004433807330155377, ,0.002096756272831786,0.00031770836001239217,-0.005122235085407742,-0.002709787048050697,0.002349895351415089,0.004941263919320268, ,0.005543881108020198, ,0.0035867743840757456, ,4.803853009341613e-05, ,0.18362341955043618,-0.22413687620861794,0.09593712661,1.9404707370057885,0.48164366167317757,-1.0854655056619937, ,0.014906839704440901,0.010531438694610132,0.005365042613674639,-0.00225534974642746,0.01996638641270201,-0.0018821863160498244, ,1.551947832107544
0.011841356485583019,0.021137637510263128,-0.08519135370770041, ,0.012106027399856539,0.020969277235499878,-0.08550081733153439, ,0.00044063999983795954, ,0.0023274946390392597,0.0004655664370008855,-0.0054192717187193365,-0.008595657163649725,-0.004308060534056644,0.005116924017989149, ,0.005916290168959719, ,0.00961481684515768, ,4.829986953197009e-05, ,0.18382421060516602,-0.22400558974975612,0.09600453369,1.9404707370057885,0.48164366167317757,-1.0853021481817127, ,0.01627734846629001,0.009481459510559925,0.005690893719185424,-0.00225534974642746,0.012959665099532516,0.003287290001135936, ,1.561896800994873
0.011863751937684821,0.021142511904374068,-0.08524840967395439, ,0.012132704479938129,0.020973073719682784,-0.08556433477823872, ,0.00044816675460486476, ,0.00228868498263292,0.00032680797768826577,-0.005429076091975649,-0.02183264674763322,-0.012619654970222457,0.004626626939787644, ,0.005900826180838725, ,0.02521745726392321, ,4.856757342697658e-05, ,0.18397094252977628,-0.22390519422239122,0.09606416303000001,1.9404707370057885,0.48178029817294304,-1.0853318873452686, ,0.014658162119010006,0.010593170694365018,0.005612689048625793,-0.00225534974642746,0.0,0.012131857501898505, ,1.5719249248504639
0.011882749742898366,0.021146456346037682,-0.08529834692055722, ,0.012159382251158476,0.020976804118810352,-0.08562769982257154, ,0.00046236431187400773, ,0.002339072918269405,0.0004150986087499231,-0.005554012686326586,0.011459482985323533,-0.008823558926596139,-0.003363134539932128, ,0.006040747130268254, ,0.014462881356671762, ,4.885010424388665e-05, ,0.18411767445438654,-0.22380479869502629,0.09611731092,1.9404707370057885,0.4821902076722393,-1.0855844623162172, ,0.01609240996412935,0.010355912313648104,0.005811313943816127,-0.00225534974642746,0.013080034858646446,-0.01970632557764762, ,1.5819308757781982
0.011912068666186632,0.021154109109536523,-0.0853784856621793, ,0.012186060701092101,0.020980468724038276,-0.08569091295081929, ,0.00045037032468242874, ,0.002117162434193131,0.0006230154846493272,-0.0060195591114992585,0.03434070309689494,0.018013450176486707,0.00021272293066832478, ,0.006411366232224234, ,0.038778451084929715, ,4.91136845552204e-05, ,0.18434163370773904,-0.22365806677041603,0.09620286606,1.9404707370057885,0.48287339017106656,-1.0861415518346993, ,0.015315839502658291,0.010146933694065672,0.006402255434083603,-0.00225534974642746,0.044922791768438504,-0.033558327022485, ,1.5913949012756348
0.011939048109059828,0.02116057696177863,-0.08544526350709827, ,0.012212739817329371,0.020984067826069097,-0.08575397464846103, ,0.0004487373340451222, ,0.0026691946065624714,0.000529583214357884,-0.0063538906959806985,-0.01866736994154486,-0.01568404692503286,0.003274812929698752, ,0.006912089785665541, ,0.024381550773586294, ,4.93718407321823e-05, ,0.1845192565638462,-0.22354994851017687,0.09627286572,1.9404707370057885,0.483010026670832,-1.0860896122581145, ,0.016957995274923296,0.010742300489372785,0.006603984875621892,-0.00225534974642746,0.0,0.00848573612586177, ,1.6007428169250488
0.01196701918737125,0.02116584374477928,-0.0855132854904649, ,0.012239419587476546,0.02098760171515197,-0.08581688540016816, ,0.0004451349281678707, ,0.002719715494572812,0.0006293878813794377,-0.007095706675486058,-0.018002754849110406,-0.00997513967316583,0.004704643382300647, ,0.007625092438861586, ,0.020581607703688408, ,4.962218886918604e-05, ,0.18468143395420492,-0.22343410751706352,0.09634286538,1.9404707370057885,0.48287339017106656,-1.0858148368741372, ,0.016418155978974183,0.011662399110049255,0.007371037260527535,-0.00225534974642746,0.005628915848210687,0.008723353893725099, ,1.6108307838439941
0.011992725039843154,0.021172281183244653,-0.08558023951587816, ,0.01226609999915569,0.020991070681083027,-0.08587964568980577, ,0.00044408914809840783, ,0.002872413837522321,0.000697837076472611,-0.007158609497245813,-0.02033588915038353,-0.015194007937274047,0.004126015766246933, ,0.007744896885908004, ,0.025385157985233428, ,4.9868083729603204e-05, ,0.18484361134456365,-0.22332598925682437,0.09641286504,1.9404707370057885,0.483010026670832,-1.085844576037693, ,0.017573507696013107,0.010947547476203226,0.007450332797006549,-0.00225534974642746,0.0007801616171996375,0.010372598729373659, ,1.621579885482788
0.01200558495567212,0.02117591136925024,-0.0856146855446827, ,0.012292781040004693,0.020994475013205994,-0.08594225600043218, ,0.0004719143414121877, ,0.002753497885231854,0.0006913190024393262,-0.006996676789797031,-0.00820852696259664,-0.006895607141029815,0.003740553418494076, ,0.007550705839058656, ,0.010720508195601303, ,5.0145607324072246e-05, ,0.1849285614061801,-0.2232719301267048,0.09644916116,1.9404707370057885,0.4831466631705974,-1.0859559939413894, ,0.017528064565657697,0.010928026327995402,0.007320225882352943,-0.00225534974642746,0.012020528352293433,0.0009638675295920206, ,1.6344819068908691
0.01204418740243024,0.0211845558045984,-0.08571263784418245, ,0.012319462697677374,0.020997815000411896,-0.08600471681430055, ,0.0004426722725751724, ,0.002094677992659846,0.00038622331692540627,-0.005559761537226124,0.04442177433067937,0.013691701099632346,-0.0050982859685854975, ,0.005953804892191995, ,0.04648394032754968, ,5.0383456439257886e-05, ,0.1852065797896522,-0.22309430727059765,0.09655286436,1.9404707370057885,0.4836932091696592,-1.086238308075894, ,0.015805619846514123,0.011484562696172186,0.005897375609033692,-0.00225534974642746,0.043687401540142445,-0.04654623576538487, ,1.6449179649353027
0.012069048523754764,0.021186076141803435,-0.08576745015906193, ,0.012346144959843215,0.02100109093113987,-0.08606702861285818, ,0.0004480504581362707, ,0.0023453099773433693,4.4277316806213326e-05,-0.0049525732407872565,-0.02631403365323032,-0.015798073332181743,0.004368294021868943, ,0.0054800019229898, ,0.03069214044560518, ,5.062499975938102e-05, ,0.18536875718001092,-0.22297846627748427,0.09660601225000001,1.9404707370057885,0.4838298456694246,-1.0864314047197308, ,0.01583991680161422,0.012329081662786902,0.005061586120114395,-0.00225534974642746,-0.0026166109220236277,0.007811206717642702, ,1.6551778316497803
0.012093372325636632,0.02118734845996044,-0.08581541006326963, ,0.01237282781418768,0.021004303093376926,-0.08612919187674861, ,0.0004583230332190973, ,0.00249157204310965,0.00019487500758533292,-0.005293714970832283,-0.011053848152026544,-0.008258749614360291,0.0037190150755582255, ,0.005854000829091231, ,0.013798351350923747, ,5.08761601442307e-05, ,0.18554638003611806,-0.22285490255149668,0.09665916014,1.9404707370057885,0.4836932091696592,-1.086238308075894, ,0.017969502283368827,0.011983479217965743,0.005523166269070736,-0.00225534974642746,0.010656717397940293,0.00247724620651701, ,1.6664597988128662
0.01214242973236188,0.021190799773808035,-0.0859209637741043, ,0.012399511248411928,0.021007451774658764,-0.08619120708581052, ,0.0004156186259163293, ,0.0025781745700387453,0.000307253184285809,-0.005576304113700309,-0.00814052988626775,-0.009142620619950631,0.0028564995534766015, ,0.006151142674440192, ,0.012241557631191538, ,5.1072313216244304e-05, ,0.1859016257483324,-0.22260777509952148,0.09676934479,1.9404707370057885,0.4839664821691901,-1.086461143883287, ,0.018302206665085977,0.011449779300705239,0.005834729494505496,-0.00225534974642746,0.010654846817239008,-0.00015481539423073875, ,1.6774649620056152
0.01214242973236188,0.021190799773808035,-0.0859209637741043, ,0.012426195250232966,0.021010537262069685,-0.08625307471907942, ,0.0004725622943519018, ,0.0025781745700387453,0.000307253184285809,-0.005576304113700309,-0.00814052988626775,-0.009142620619950631,0.0028564995534766015, ,0.006151142674440192, ,0.012241557631191538, ,5.1334950130719124e-05, ,0.1859016257483324,-0.22260777509952148,0.09676934479,1.9404707370057885,0.4839664821691901,-1.086461143883287, ,0.018302206665085977,0.011449779300705239,0.005834729494505496,-0.00225534974642746,0.03926343411467702,-0.0274694338836358, ,1.6875479221343994
0.012167381861611563,0.021195456631348586,-0.08598329894121878, ,0.0124528798073836,0.021013559842242777,-0.08631479525478776, ,0.00047379882316957823, ,0.002511482588880146,0.00044566534842008774,-0.007152748598395118,0.00867470044790809,0.0031742460593241024,0.0019102687147754026, ,0.006986551497116711, ,0.026706869593921306, ,5.1595916564031605e-05, ,0.18626459419342095,-0.22234520218179785,0.09691064040000001,1.9404707370057885,0.4845130281682518,-1.0867434580177913, ,0.017814331060347435,0.012535923587644751,0.007506508727615459,-0.0022410835998195864,0.026881829760344745,-0.014181645135453625, ,1.6977179050445557
0.012195651614319238,0.021200237309297626,-0.08605564518067192, ,0.0124795649076124,0.021016519801360677,-0.08637636917036541, ,0.0004660716236760628, ,0.0027130311868755388,0.0006094277125970032,-0.007152748598395118,0.00867470044790809,0.0031742460593241024,0.0019102687147754026, ,0.007674226532340822, ,0.009237220749962067, ,5.184453310029911e-05, ,0.18626459419342095,-0.22234520218179785,0.09691064040000001,1.9404707370057885,0.4845130281682518,-1.0867434580177913, ,0.017814331060347435,0.012535923587644751,0.007506508727615459,-0.0022410835998195864,0.026881829760344745,-0.014181645135453625, ,1.7121779918670654
0.012263337198534624,0.021212642396103768,-0.08621528381028747, ,0.01250625053868374,0.021019417425155337,-0.08643779694244036, ,0.0003819095104876462, ,0.002597744350517914,0.0003045831488859283,-0.0055385791579044275,-0.0033180898308218386,-0.008875107301130575,0.001545865621931952, ,0.006125104545524617, ,0.009475085462418554, ,5.1990241942325415e-05, ,0.1866893445015033,-0.22206718379832577,0.09707656552,1.9404707370057885,0.4845130281682518,-1.0864984217973697, ,0.018629160101780676,0.011381052453138646,0.005809194573304159,-0.002161644128419119,0.012347961965666732,-0.004782412793517191, ,1.7215359210968018
0.012263337198534624,0.021212642396103768,-0.08621528381028747, ,0.012532936688377768,0.021022252998908426,-0.08649907904683907, ,0.00043528352114164434, ,0.002597744350517914,0.0003045831488859283,-0.0055385791579044275,-0.0033180898308218386,-0.008875107301130575,0.001545865621931952, ,0.006125104545524617, ,0.009475085462418554, ,5.225894472408942e-05, ,0.1866893445015033,-0.22206718379832577,0.09707656552,1.9404707370057885,0.4845130281682518,-1.0864984217973697, ,0.018629160101780676,0.011381052453138646,0.005809194573304159,-0.002161644128419119,0.012347961965666732,-0.004782412793517191, ,1.7288768291473389
0.012284215345471293,0.021214474589252984,-0.08626271746210816, ,0.012559623344490336,0.02102502680745188,-0.08656021595858725, ,0.00044748785833846914, ,0.002406280721299949,5.696793767184295e-05,-0.0051985200972468615,-0.002723920894514692,-0.006147263836031053,0.0010064956231028445, ,0.005728703470865105, ,0.0067237336289234255, ,5.25394765822566e-05, ,0.18685924462473624,-0.22195134280521242,0.09712712083000001,1.9404707370057885,0.4849229376675481,-1.0868326755084587, ,0.017345447186706414,0.013235277762687694,0.005405093831014592,-0.0021303195822847567,0.014374990820634476,-0.006730023131899186, ,1.7367439270019531
0.012307953938874312,0.021216818666582225,-0.08631983309291001, ,0.01258631049483318,0.02102773913516784,-0.08662120815190995, ,0.00045173041477454393, ,0.0022461934821106297,0.00024995173136768386,-0.005551852430350966,0.03511907342071512,0.019450321792838374,-7.272239760280387e-05, ,0.005994241105885207, ,0.04014553935993316, ,5.2822348372005455e-05, ,0.18704459021371764,-0.22181233361347638,0.09718675017000002,1.9404707370057885,0.4854694836666099,-1.0872783471232446, ,0.017800964464166343,0.013040668071797552,0.005910505202226346,-0.0020972437940139574,0.04970682889357088,-0.03585149919886566, ,1.745243787765503
0.012340422526231097,0.021220154440034885,-0.0863919048976367, ,0.012612998127233637,0.021030390265989064,-0.08668205610023258, ,0.0004410165760841876, ,0.0026980853519309993,0.000533139731473108,-0.006672493850991934,0.009695513445614576,0.00016637234579578515,0.0006273827033007809, ,0.007217068430540549, ,0.009696940110424587, ,5.309009567106858e-05, ,0.18727627219994436,-0.22165787895599187,0.09726323128000001,1.9404707370057885,0.48560612016637533,-1.08722640754666, ,0.01829162327649784,0.012021244065387113,0.007017097585903085,-0.0020595086879529093,0.02437374885126181,-0.015591500387359099, ,1.7542707920074463
0.012340422526231097,0.021220154440034885,-0.0863919048976367, ,0.012639686229534933,0.021032980483399223,-0.0867427602761813, ,0.0004976870008463618, ,0.0026980853519309993,0.000533139731473108,-0.006672493850991934,0.009695513445614576,0.00016637234579578515,0.0006273827033007809, ,0.007217068430540549, ,0.009696940110424587, ,5.34211010285652e-05, ,0.18727627219994436,-0.22165787895599187,0.09726323128000001,1.9404707370057885,0.48560612016637533,-1.08722640754666, ,0.01829162327649784,0.012021244065387113,0.007017097585903085,-0.0020595086879529093,0.02437374885126181,-0.015591500387359099, ,1.761579990386963
0.012369453813481344,0.02122533284057565,-0.08646186453266667, ,0.012666374789595893,0.021035510070433097,-0.08680332115158342, ,0.0004907008994524689, ,0.002944110434923384,0.0005271592208405929,-0.007202883521045954,-0.005079474310173948,-0.005957116117043757,0.0024572354415037163, ,0.00779918034891471, ,0.00782868266771023, ,5.3740981508170526e-05, ,0.18745389505605153,-0.22153431523000428,0.09733582352,1.9404707370057885,0.48560612016637533,-1.0870630500663787, ,0.019163356534424632,0.013170984255165965,0.007527793724007564,-0.0020303543485098497,0.015822895971309307,-0.0035426363766839055, ,1.7691519260406494
0.012399517638621547,0.02122958432727346,-0.0865353874511332, ,0.012693063795291181,0.021037979309676966,-0.08686373919746791, ,0.0004803089611746987, ,0.0030379463560304587,0.0005284054792110881,-0.0074723478021201635,-0.021569912442773828,-0.016818879254398587,0.002672738360565177, ,0.008083582874470273, ,0.027352071198846205, ,5.404597580143721e-05, ,0.18764696337790715,-0.22138758330539401,0.09741230463000002,1.9404707370057885,0.4857427566661408,-1.0870927892299345, ,0.01824941183816746,0.013322608670289313,0.007739947288629739,-0.002000549075998025,0.0,0.008937839035785645, ,1.7769179344177246
0.012425505422290317,0.021236772687851267,-0.08660926347512958, ,0.012719753234511147,0.021040388483268745,-0.08692401488406627, ,0.0004735155543737579, ,0.002700774489202468,0.0007579989743423318,-0.008009459058433756,0.06302798066208048,0.040736797674757415,-1.7265151672132134e-06, ,0.008469051281029871, ,0.07504673875773371, ,5.4340405608265594e-05, ,0.18784003169976274,-0.2212562968465322,0.09749137832000002,1.9404707370057885,0.486425939164968,-1.0876498787484166, ,0.0201994341333484,0.01453245659394652,0.008577712180936998,-0.0019736802635742907,0.08064845368793816,-0.05739735306963805, ,1.7851629257202148
0.012430245045993781,0.021238030280685032,-0.08662522443639403, ,0.012746443095161838,0.021042737872898322,-0.08698414868081257, ,0.0005166690856517678, ,0.002693278546172145,0.0007244551692554928,-0.008021839140721864,0.061926020407834716,0.04030496288811103,-0.00010190246605806634, ,0.008492849216791115, ,0.07388722490218357, ,5.468130249120262e-05, ,0.18787092263125965,-0.2212254059150353,0.09750823009000001,1.9404707370057885,0.48656257566473343,-1.087761296652113, ,0.020012007920386078,0.014892803132214496,0.008577712180936998,-0.001968373817544356,0.07983955986352807,-0.056856710686405645, ,1.7947700023651123
0.012430245045993781,0.021238030280685032,-0.08662522443639403, ,0.012773133365164979,0.021045027759807874,-0.08704414105634459, ,0.00057472907265927, ,0.002693278546172145,0.0007244551692554928,-0.008021839140721864,0.061926020407834716,0.04030496288811103,-0.00010190246605806634, ,0.008492849216791115, ,0.07388722490218357, ,5.508493498858863e-05, ,0.18787092263125965,-0.2212254059150353,0.09750823009000001,1.9404707370057885,0.48656257566473343,-1.087761296652113, ,0.020012007920386078,0.014892803132214496,0.008577712180936998,-0.001968373817544356,0.07983955986352807,-0.056856710686405645, ,1.8025059700012207
0.012488972517123866,0.021248919571997024,-0.08676591858210529, ,0.012799824032458093,0.021047258424792065,-0.08710399247850335, ,0.0005015873227099869, ,0.0029770660963504563,0.00039413059240282766,-0.006708651108618626,-0.004043762022343054,-0.0063219510392879714,0.0023168671574796936, ,0.007350119806035617, ,0.007504602764161273, ,5.540237018357241e-05, ,0.1882647820078451,-0.2209705557301859,0.09765600715000002,1.9404707370057885,0.48697248516402974,-1.08776883540264, ,0.020558262902614987,0.013388394689400503,0.00703258786754967,-0.0019172262330860352,0.017130428926775625,-0.004441800697258815, ,1.8098948001861572
0.01252091895925867,0.0212519703989894,-0.08683594943720815, ,0.012826515084994296,0.02104943014819842,-0.08716370341433485, ,0.0004917664229870382, ,0.003480322938199232,0.0004242147660540657,-0.007939023066219469,-0.017310324683215535,-0.011547977927564644,0.0039946315015824355, ,0.008678749516368059, ,0.020808726614470578, ,5.5705917309699096e-05, ,0.18847329579544916,-0.22082382380557564,0.09772859939,1.9404707370057885,0.48697248516402974,-1.087605477922359, ,0.023083663721350227,0.01601365871725798,0.008274707283116885,-0.0018934001357768084,0.01187170375769437,0.005498496048843432, ,1.8175089359283447
0.01252091895925867,0.0212519703989894,-0.08683594943720815, ,0.012853206510742458,0.02105154320992741,-0.08722327433009018, ,0.0005482760688124682, ,0.003480322938199232,0.0004242147660540657,-0.007939023066219469,-0.017310324683215535,-0.011547977927564644,0.0039946315015824355, ,0.008678749516368059, ,0.020808726614470578, ,5.606995802510589e-05, ,0.18847329579544916,-0.22082382380557564,0.09772859939,1.9404707370057885,0.48697248516402974,-1.087605477922359, ,0.023083663721350227,0.01601365871725798,0.008274707283116885,-0.0018934001357768084,0.01187170375769437,0.005498496048843432, ,1.826103925704956
0.01256792384901442,0.021259327612425445,-0.08694685832582574, ,0.012879898297687067,0.021053597889433024,-0.08728270569122526, ,0.0005024402734583851, ,0.003393879529177639,0.00041615150246835557,-0.007575296033734273,-0.012637993784049124,-0.010064743050914881,0.003475468194410164, ,0.008311239999560108, ,0.016156048855483468, ,5.637971352773169e-05, ,0.1887976505761666,-0.22060758728509736,0.09784526549000001,1.9404707370057885,0.4873823946633261,-1.0878580528933077, ,0.023033238242347275,0.015234699238797684,0.007920841133764296,-0.0018584777852839293,0.014234894945418155,0.002026608699276989, ,1.8361408710479736
0.012581322641678615,0.02126168764683843,-0.08698093188939315, ,0.012906590433828352,0.021055594465722693,-0.08734199796240248, ,0.0005278657452333369, ,0.0027651564324935977,0.0004289950751107572,-0.007070914957531749,0.04075402020831301,0.028611330741810402,0.0019146959210820597, ,0.007604470080635219, ,0.049794561874577134, ,5.671490963762349e-05, ,0.1888980461035315,-0.22053808268922934,0.09788156161000001,1.9404707370057885,0.487655667662857,-1.0880808887007005, ,0.021339541614227745,0.015227365461885554,0.007545623647560399,-0.001846823992303047,0.06436561653159342,-0.03928339912356837, ,1.8438878059387207
0.012625459316817793,0.021269803947849872,-0.08709815900650351, ,0.01293328290718215,0.02105753321735786,-0.08740115160749082, ,0.0004812678485640472, ,0.0031406232767937923,0.0004169785591470105,-0.007945464069887848,0.025507096913840364,0.013687380099400053,-3.061818656229691e-05, ,0.008553816982576028, ,0.028947475456268527, ,5.699571340143536e-05, ,0.1892455690828716,-0.22029095523725414,0.09800730174000001,1.9404707370057885,0.48888539616074594,-1.089001971093828, ,0.022099893236718855,0.01699139508656594,0.008370368638991068,-0.001809936644189623,0.04676797353123452,-0.030538114508297, ,1.8515708446502686
0.012659409104520354,0.021272255586968516,-0.08717419085283633, ,0.012959975705779942,0.021059414422454112,-0.08746016708956611, ,0.0004662875197544062, ,0.0035734444006106907,0.00020324404088201218,-0.007185869896551915,-0.026742604627076373,-0.021844633966681175,0.0006860091441857905, ,0.008027922470638401, ,0.03453049255684536, ,5.725758666093939e-05, ,0.18947725106909835,-0.2201287778468954,0.09808637543000001,1.9402610470623036,0.48902203266051136,-1.0888683527771026, ,0.024489533305411815,0.016249476294258696,0.007467797243319269,0.0006455438187265162,0.0,0.012008009871771823, ,1.8595788478851318
0.012659409104520354,0.021272255586968516,-0.08717419085283633, ,0.012986668817668913,0.021061238358681435,-0.08751904487091175, ,0.0005201456375543321, ,0.0035734444006106907,0.00020324404088201218,-0.007185869896551915,-0.026742604627076373,-0.021844633966681175,0.0006860091441857905, ,0.008027922470638401, ,0.03453049255684536, ,5.757609354377372e-05, ,0.18947725106909835,-0.21995115499078827,0.09815767138,1.9402610470623036,0.48902203266051136,-1.0885416378165402, ,0.024881211735309595,0.018072165598642314,0.006883669628349179,0.0006455438187265162,0.0,0.015110394780028982, ,1.8679587841033936
0.012694786061877267,0.021272180478968353,-0.08724309867282923, ,0.013013362230911868,0.021063005303264545,-0.08757778541301967, ,0.0005072082843041736, ,0.0035110145995646295,-8.721786239900844e-05,-0.006658210809646248,-0.031349718777528936,-0.021588090359492787,0.0014621962628723123, ,0.007527722209245475, ,0.03806376885851366, ,5.787773179010169e-05, ,0.18972437852107352,-0.21995115499078827,0.09815767138,1.9402610470623036,0.48902203266051136,-1.0885416378165402, ,0.024881211735309595,0.018072165598642314,0.006883669628349179,0.0006455438187265162,0.0,0.015110394780028982, ,1.8755309581756592
0.012730728851258186,0.021271672669809418,-0.08731122557368168, ,0.013040055933587227,0.02106471553298312,-0.08763638917659018, ,0.0004942123723683732, ,0.0034800661747039757,-3.6356392502592035e-05,-0.006961993061522695,-0.04645731402250249,-0.016613526689298184,0.005746840816300103, ,0.007783413759802617, ,0.04933853746196552, ,5.822580907240144e-05, ,0.1899637832401745,-0.21976580940180687,0.09822767104,1.9404707370057885,0.48888539616074594,-1.0882668624325627, ,0.02381353615018087,0.01829162327649784,0.007184849580514209,0.0024729625369297385,0.0,0.031880754824716195, ,1.8839688301086426
0.012768355110725202,0.021272366486149347,-0.08738252886282612, ,0.013066749913789064,0.021066369324172142,-0.08769485662153276, ,0.0004785633898418239, ,0.003595772018589163,-3.422923391290791e-05,-0.006982233945253126,-0.01130192134525389,-0.016160984387914124,-0.005391261801896307, ,0.00785381047112598, ,0.019720822140212896, ,5.855468998433285e-05, ,0.1902495243565208,-0.21957274107995126,0.09830285586000001,1.9406804269492728,0.48915866916027684,-1.0883263407596744, ,0.025892753494807852,0.018709964818310488,0.007263479945280439,0.0036242224757082634,0.010597879920926062,-0.0033549558601706463, ,1.8906338214874268
0.012768355110725202,0.021272366486149347,-0.08738252886282612, ,0.01309344415962703,0.021067966952722107,-0.08775318820696675, ,0.0005337137888231192, ,0.003595772018589163,-3.422923391290791e-05,-0.006982233945253126,-0.01130192134525389,-0.016160984387914124,-0.005391261801896307, ,0.00785381047112598, ,0.019720822140212896, ,5.894093563575692e-05, ,0.1902495243565208,-0.21957274107995126,0.09830285586000001,1.9406804269492728,0.48915866916027684,-1.0883263407596744, ,0.025892753494807852,0.018709964818310488,0.007263479945280439,0.0036242224757082634,0.010597879920926062,-0.0033549558601706463, ,1.8964250087738037
0.012800465753895745,0.021274521580427995,-0.08745371853879597, ,0.013120138659226455,0.021069508694079336,-0.08781138439122169, ,0.000521676060369845, ,0.0033009395598180484,0.00037101428807692757,-0.007786388905206554,0.045745500791959465,0.01899675351978075,-0.008696868118404638, ,0.008465323724622274, ,0.04953309457703761, ,5.931174558571668e-05, ,0.19048892907562176,-0.21940284095671833,0.09837804068000001,1.9406804269492728,0.4895685786595731,-1.0885789157306232, ,0.02490733374238078,0.01762573208738313,0.008279008066528067,0.0036242224757082634,0.05847758433436365,-0.048316143751421285, ,1.9024529457092285
0.012838900979314878,0.021278854385586594,-0.08754846234627918, ,0.01314683340072816,0.021070994823246217,-0.08786944563183807, ,0.0004909768257483876, ,0.003737516135544535,0.0005073494891089949,-0.009201816104487717,0.027818179139961305,0.007316834771476507,-0.008453121811890039, ,0.009944840370180128, ,0.02876433722099009, ,5.964726711732573e-05, ,0.19074377926047117,-0.2192020499019885,0.09847396614000001,1.9406804269492728,0.4901151246586349,-1.0890245873454087, ,0.025178281124561098,0.019268414529638737,0.00960724458383595,0.0036242224757082634,0.043217629423350334,-0.03555427597319917, ,1.9089758396148682
0.012838900979314878,0.021278854385586594,-0.08754846234627918, ,0.013173528372288724,0.02107242561478149,-0.08792737238556761, ,0.0005460413422243222, ,0.003737516135544535,0.0005073494891089949,-0.009201816104487717,0.027818179139961305,0.007316834771476507,-0.008453121811890039, ,0.009944840370180128, ,0.02876433722099009, ,6.0039467481505586e-05, ,0.19074377926047117,-0.2192020499019885,0.09847396614000001,1.9406804269492728,0.4901151246586349,-1.0890245873454087, ,0.025178281124561098,0.019268414529638737,0.00960724458383595,0.0036242224757082634,0.043217629423350334,-0.03555427597319917, ,1.914564847946167
0.012877495531681105,0.02128385334646965,-0.08764197901529033, ,0.013200223562080154,0.021073801342800517,-0.0879851651083739, ,0.000515802210480556, ,0.004084349077066355,0.0006454601602436608,-0.010364593638719933,-7.821044407067953e-06,-0.009551534323849295,-0.00723892894594758, ,0.011159002083411772, ,0.00955153126467609, ,6.0396958224887955e-05, ,0.19099862944532056,-0.21900898158013288,0.09857507676,1.9406804269492728,0.4902517611584003,-1.0891360052491053, ,0.024616586655893846,0.019749623633396624,0.010784571103588356,0.0036085402106331974,0.018911278706738574,-0.014018724314851416, ,1.9207508563995361
0.012877495531681105,0.02128385334646965,-0.08764197901529033, ,0.013226918958290146,0.02107512228097552,-0.08804282425543293, ,0.0005712637703464973, ,0.004084349077066355,0.0006454601602436608,-0.010364593638719933,-7.821044407067953e-06,-0.009551534323849295,-0.00723892894594758, ,0.011159002083411772, ,0.00955153126467609, ,6.081104834768183e-05, ,0.19099862944532056,-0.21900898158013288,0.09857507676,1.9406804269492728,0.4902517611584003,-1.0891360052491053, ,0.024616586655893846,0.019749623633396624,0.010784571103588356,0.0036085402106331974,0.018911278706738574,-0.014018724314851416, ,1.926630973815918
0.012922548958366174,0.02129098471786971,-0.08775420663713548, ,0.013253614549121917,0.02107638870253611,-0.08810035028113353, ,0.0005248535962149363, ,0.004533616970135973,0.0005149955649652537,-0.010278144033250744,-0.020636000857688824,-0.027075917567563047,-0.006786184458589417, ,0.01124540564106456, ,0.03404335072846592, ,6.117339803146161e-05, ,0.19126892509591842,-0.21880046779252882,0.09869174286000001,1.9406804269492728,0.4903883976581658,-1.0892474231528015, ,0.02811761231362097,0.020460746347233886,0.010661855100401608,0.0035237350437326617,0.0,0.0013240613324544941, ,1.9326298236846924
0.012965452906949962,0.021294694540070006,-0.08785141512035034, ,0.013280310322794303,0.021077600880268988,-0.08815774363907823, ,0.0004900020518569273, ,0.004284539444199657,0.0003050024527950141,-0.009195826320431207,-0.013714348963540558,-0.02246546365501982,-0.006861979291801926, ,0.010149557944100275, ,0.026320721095175078, ,6.149669113036725e-05, ,0.19154694347939052,-0.21859195400492476,0.09879285348000001,1.9406804269492728,0.4905250341579312,-1.0892771623163575, ,0.028150976433838855,0.020220954945337904,0.009561111356542617,0.0034448373804705466,0.006311293281543957,-0.003853777276829003, ,1.942802906036377
0.012965452906949962,0.021294694540070006,-0.08785141512035034, ,0.013307006267541634,0.02107875908651891,-0.08821500478208354, ,0.0005435846395466311, ,0.0034105920560327796,0.0002837194010265418,-0.008326851403459448,0.056029441677593064,0.028648863750207657,-0.00863583528114167, ,0.010149557944100275, ,0.026320721095175078, ,6.187428794020481e-05, ,0.19181723912998838,-0.21839888568306914,0.09888489007000001,1.9406804269492728,0.491071580156993,-1.089722833931143, ,0.025857477263888495,0.020105284228489572,0.0088542587659811,0.0033712986281040276,0.07229887892977382,-0.057558528884544526, ,1.9497559070587158
0.013002594835351138,0.02129854823844157,-0.08793833989304298, ,0.013333702371613866,0.021079863593188482,-0.08827213416218006, ,0.0005185304125586111, ,0.0034105920560327796,0.0002837194010265418,-0.008326851403459448,0.056029441677593064,0.028648863750207657,-0.00863583528114167, ,0.009002726762847317, ,0.06292897336560531, ,6.222324763489873e-05, ,0.19181723912998838,-0.21839888568306914,0.09888489007000001,1.9406804269492728,0.491071580156993,-1.089722833931143, ,0.025857477263888495,0.020105284228489572,0.0088542587659811,0.0033712986281040276,0.07229887892977382,-0.057558528884544526, ,1.9554789066314697
0.01303696357372728,0.021299154453112104,-0.08801433496250093, ,0.013360398623276397,0.021080914671738584,-0.08832913223061406, ,0.0005013343729112279, ,0.003858382603062953,-9.698801329569105e-05,-0.007419880575586058,0.01026201941916653,-0.007238574960934817,-0.00796100175959941, ,0.008363680454339537, ,0.012558104456273492, ,6.255205080104976e-05, ,0.19207981204771202,-0.2181980946283393,0.09896526005,1.9406804269492728,0.49161812615605477,-1.0900051480656479, ,0.02901159937587,0.020806170041322247,0.007785342873900294,0.0033025974097517213,0.0284602186831156,-0.023202231941831474, ,1.9686617851257324
0.013080761314897282,0.02129815598645644,-0.08809556921460084, ,0.013387095010810292,0.02108191259318865,-0.08838599943784702, ,0.0004742902623484052, ,0.0038107293454408145,7.823390352807488e-06,-0.007377322622380625,-0.013263829135237958,-0.011508850572791357,-0.002147188152584514, ,0.008303409445783661, ,0.01756083093089538, ,6.28506279989094e-05, ,0.19238872136268098,-0.217981858107861,0.09904951890000001,1.9406804269492728,0.49161812615605477,-1.089760111845226, ,0.027538288322249208,0.019171099304741573,0.007717447441860466,0.0032291313648473317,0.016753661693304993,0.0003834026352788882, ,1.9745159149169922
0.013118203786177455,0.021295823111943828,-0.08816190386352232, ,0.013413791522512047,0.021082857628116923,-0.0884427362335566, ,0.0004599926382368574, ,0.0036055204742899,-0.0003343896467559444,-0.006337422609309307,-0.02227251785892679,-0.01429361698133556,-0.0011117867770272026, ,0.007298939625409023, ,0.026464552290992767, ,6.313249794100714e-05, ,0.1926435715475304,-0.21780423525175385,0.0991143334,1.9406804269492728,0.49161812615605477,-1.089596754364945, ,0.027113411873848796,0.020028902819432415,0.006648084941569284,0.0031693389443205756,0.0117844312513197,0.007230314940173092, ,1.9810378551483154
0.013118203786177455,0.021295823111943828,-0.08816190386352232, ,0.013440488146693711,0.021083750046660753,-0.08849934306663729, ,0.00051254990961934, ,0.0036055204742899,-0.0003343896467559444,-0.006337422609309307,-0.02227251785892679,-0.01429361698133556,-0.0011117867770272026, ,0.007298939625409023, ,0.026464552290992767, ,6.34670242513553e-05, ,0.1926435715475304,-0.21780423525175385,0.0991143334,1.9406804269492728,0.49161812615605477,-1.089596754364945, ,0.027113411873848796,0.020028902819432415,0.006648084941569284,0.0031693389443205756,0.0117844312513197,0.007230314940173092, ,1.9866209030151367
0.013151113837747013,0.021292156490302343,-0.0882208251723441, ,0.013467184871682858,0.021084590118516877,-0.0885558203852006, ,0.000505179660938788, ,0.003780697737119835,-0.00033822782609793526,-0.0065315525975270326,-0.017792370025829528,-0.012629817081607861,-0.0013518381905767963, ,0.0075544194201852535, ,0.02181927356177653, ,6.37918731555707e-05, ,0.1929293126638767,-0.21758799873127557,0.09918044419000001,1.9406804269492728,0.492028035655351,-1.0898493293358937, ,0.028905556368708736,0.02080160928506593,0.006818840547945207,0.0031052428337919854,0.016350285193182098,0.003444504330146543, ,1.9935050010681152
0.013151113837747013,0.021292156490302343,-0.0882208251723441, ,0.013493881685822575,0.021085378112941658,-0.08861216863657574, ,0.0005598185438292409, ,0.003780697737119835,-0.00033822782609793526,-0.0065315525975270326,-0.017792370025829528,-0.012629817081607861,-0.0013518381905767963, ,0.0075544194201852535, ,0.02181927356177653, ,6.417092966211651e-05, ,0.1929293126638767,-0.21758799873127557,0.09918044419000001,1.9406804269492728,0.492028035655351,-1.0898493293358937, ,0.028905556368708736,0.02080160928506593,0.006818840547945207,0.0031052428337919854,0.016350285193182098,0.003444504330146543, ,1.9992609024047852
0.013183570956413327,0.02129107211029182,-0.08828962170507969, ,0.013520578577471418,0.02108611429875139,-0.08866838826731026, ,0.0005468509393122036, ,0.003271838494150757,1.7511102420559883e-05,-0.007284122813276971,0.06004923431723505,0.042762468863250566,-0.0035607975602183987, ,0.00798521627317737, ,0.07371932762078355, ,6.453435340604046e-05, ,0.19320733104734877,-0.21737948494367149,0.09925433272,1.9406804269492728,0.4928478546539437,-1.0905178367580723, ,0.027796409361004918,0.020819864317347694,0.007842841713441656,0.0030446579612461618,0.08980103035041477,-0.05673704334597077, ,2.0070929527282715
0.013229959394284098,0.021292843383943848,-0.08838826173328275, ,0.013547275535003499,0.021086798944322475,-0.08872447972317071, ,0.0005061485759974465, ,0.004492730258646188,0.00046946432602217123,-0.009789853315341929,-0.018520079335536278,-0.017362921842255827,-0.002295144808688561, ,0.010781755416734042, ,0.025386301494501787, ,6.492031028340522e-05, ,0.19353940856094043,-0.21714008022457054,0.09935803592,1.9406804269492728,0.49325776415324,-1.0906070542487398, ,0.029199058941067932,0.01980320149383781,0.010230450558766861,0.002976791943371352,0.011468878745725816,0.0036026711975221722, ,2.011492967605591
0.013229959394284098,0.021292843383943848,-0.08838826173328275, ,0.013573972546808304,0.021087432317591862,-0.0887804434491423, ,0.0005606650100942969, ,0.004492730258646188,0.00046946432602217123,-0.009789853315341929,-0.018520079335536278,-0.017362921842255827,-0.002295144808688561, ,0.010781755416734042, ,0.025386301494501787, ,6.536037605411767e-05, ,0.19353940856094043,-0.21714008022457054,0.09935803592,1.9406804269492728,0.49325776415324,-1.0906070542487398, ,0.029199058941067932,0.01980320149383781,0.010230450558766861,0.002976791943371352,0.011468878745725816,0.0036026711975221722, ,2.0153088569641113
0.013229959394284098,0.021292843383943848,-0.08838826173328275, ,0.013600669601290938,0.021088014686057192,-0.08883627988943074, ,0.0006165234150421568, ,0.004492730258646188,0.00046946432602217123,-0.009789853315341929,-0.018520079335536278,-0.017362921842255827,-0.002295144808688561, ,0.010781755416734042, ,0.025386301494501787, ,6.585558773906561e-05, ,0.19353940856094043,-0.21714008022457054,0.09935803592,1.9406804269492728,0.49325776415324,-1.0906070542487398, ,0.029199058941067932,0.01980320149383781,0.010230450558766861,0.002976791943371352,0.011468878745725816,0.0036026711975221722, ,2.019178867340088
0.013275555265963739,0.021298745690166015,-0.08848981661988223, ,0.013627366686871836,0.021088546316777187,-0.08889198948746213, ,0.00057419340632915, ,0.0048651888370777295,0.0006875616619969227,-0.01078499833238402,-0.04990460435833467,-0.03670860936619262,-0.00011092323872331344, ,0.011851539667444051, ,0.061951524532060404, ,6.63057222567167e-05, ,0.19383287241016098,-0.21694701190271493,0.0994643317,1.9406804269492728,0.49339440065300544,-1.0904734359320145, ,0.028765365734607695,0.019028863356420848,0.011185963146067417,0.002921372337766168,-0.016156685234205118,0.029374952984827486, ,2.022948980331421
0.013275555265963739,0.021298745690166015,-0.08848981661988223, ,0.013654063791987022,0.021089027476371747,-0.08894757268588281, ,0.0006299135253586065, ,0.0048651888370777295,0.0006875616619969227,-0.01078499833238402,-0.04990460435833467,-0.03670860936619262,-0.00011092323872331344, ,0.011851539667444051, ,0.061951524532060404, ,6.681059746569657e-05, ,0.19383287241016098,-0.21694701190271493,0.0994643317,1.9406804269492728,0.49339440065300544,-1.0904734359320145, ,0.028765365734607695,0.019028863356420848,0.011185963146067417,0.002921372337766168,-0.016156685234205118,0.029374952984827486, ,2.0266659259796143
0.013275555265963739,0.021298745690166015,-0.08848981661988223, ,0.013680760905087913,0.021089458431022414,-0.0890030299265613, ,0.0006865716750422611, ,0.0048651888370777295,0.0006875616619969227,-0.01078499833238402,-0.04990460435833467,-0.03670860936619262,-0.00011092323872331344, ,0.011851539667444051, ,0.061951524532060404, ,6.737083098151304e-05, ,0.19413405899225572,-0.21673849811511087,0.09958359038,1.9406804269492728,0.4935310371527709,-1.09042149635543, ,0.030671280400281442,0.02283921577821198,0.012814812164119069,0.0028680126473429528,0.03063288524406188,0.004170821280501263, ,2.030409812927246
0.0133244029543147,0.021306012648446317,-0.08860399947439548, ,0.013707458014641382,0.02108983944647251,-0.08905836165058775, ,0.000632382020338704, ,0.004976627204874098,0.0007810054760042729,-0.01224427073388931,-0.01597647228541775,-0.0012897162794106264,0.002521512102939096, ,0.01324005112129934, ,0.016028435967300098, ,6.787400626804051e-05, ,0.19413405899225572,-0.21673849811511087,0.09958359038,1.9406804269492728,0.4935310371527709,-1.09042149635543, ,0.030671280400281442,0.02283921577821198,0.012814812164119069,0.0028680126473429528,0.03063288524406188,0.004170821280501263, ,2.0346648693084717
0.0133244029543147,0.021306012648446317,-0.08860399947439548, ,0.013734155109129738,0.021090170788027465,-0.08911356829827483, ,0.0006885818203775163, ,0.004976627204874098,0.0007810054760042729,-0.01224427073388931,-0.01597647228541775,-0.0012897162794106264,0.002521512102939096, ,0.01324005112129934, ,0.016028435967300098, ,6.843186076636688e-05, ,0.19413405899225572,-0.21673849811511087,0.09958359038,1.9406804269492728,0.4935310371527709,-1.09042149635543, ,0.030671280400281442,0.02283921577821198,0.012814812164119069,0.0028680126473429528,0.03063288524406188,0.004170821280501263, ,2.038447856903076
0.013370871288591735,0.02131593005449464,-0.08872855319122426, ,0.013760852177050757,0.021090452720555132,-0.08916865030915833, ,0.0006297702713669707, ,0.004974466661453702,0.0014371526723098017,-0.014006750671046973,0.07680191533611933,0.05428180608523811,-0.0024556624977550776, ,0.014933177516199169, ,0.09404811604731864, ,6.892824198472966e-05, ,0.1944429683072247,-0.21651453886175837,0.09971581196000001,1.9406804269492728,0.49435085615136354,-1.0910083250374678, ,0.033508807047482624,0.022370801876112865,0.014984770950141113,0.00281919809586514,0.11164395035633647,-0.06931602499953336, ,2.0433149337768555
0.013370871288591735,0.02131593005449464,-0.08872855319122426, ,0.01378754920691755,0.02109068550848594,-0.08922360812199748, ,0.0006851532511853655, ,0.004974466661453702,0.0014371526723098017,-0.014006750671046973,0.07680191533611933,0.05428180608523811,-0.0024556624977550776, ,0.014933177516199169, ,0.09404811604731864, ,6.947828898695671e-05, ,0.1944429683072247,-0.21651453886175837,0.09971581196000001,1.9406804269492728,0.49435085615136354,-1.0910083250374678, ,0.033508807047482624,0.022370801876112865,0.014984770950141113,0.00281919809586514,0.11164395035633647,-0.06931602499953336, ,2.0528337955474854
