NicholasDascanio/dvrk_moveit_final/test/execution/third_experiment_notsharpbends/thirdexp_600vel3.0/thirdexp_600vel3.0_23.csv
Current Position (x),Current Position (y),Current Position (z), ,Planned Position (x),Planned Position (y),Planned Position (z), ,Position Error,,Cartesian linear Velocity(x),Cartesian linear Velocity(y),Cartesian linear Velocity(z),Cartesian Angular Velocity(x),Cartesian Angular Velocity(y),Cartesian Angular Velocity(z), ,Total Linear Velocity, ,Total Angular Velocity, ,MSE, ,Joint 1 Position,Joint 2 Position,Joint 3 Position,Joint 4 Position,Joint 5 Position,Joint 6 Position, ,Joint 1 Velocity,Joint 2 Velocity,Joint 3 Velocity,Joint 4 Velocity,Joint 5 Velocity,Joint 6 Velocity, ,Time Stamp
0.009901327625161176,0.020293733906367344,-0.07988656168152818, ,0.009972221385020071,0.02015895350813841,-0.07991768866003741, ,0.0001554367064910833, ,-3.9544300071191114e-05,-4.203622495691536e-07,0.00011893122520892137,0.004414562405802741,-0.0008163980450323808,-0.006321628270441, ,0.0001253338130842449, ,0.004489417223054635, ,1.2953058874256942e-05, ,0.19704552928583838,-0.18868180958305322,0.09337695386000001,2.2591994511022655,1.004141636776222,-0.8844798813380129, ,-0.0002463171187475887,-0.0003786303639830581,0.00044498849219529326,0.0013185879264346555,0.0,-0.135523792689912, ,0.018564939498901367
0.009911555462276216,0.02029749206174463,-0.07990157466684289, ,0.009986704877933279,0.020176545030835488,-0.07996859725911555, ,0.00015737740255285248, ,0.001059194317270677,1.2146562167533487e-05,-0.002173981134757106,0.021609572054306254,-0.1494625606382913,-0.19531699587856996, ,0.00241831224513932, ,0.1510166568192946, ,1.4218823138360717e-05, ,0.19703780655296413,-0.18868180958305322,0.09338343531000001,2.2596188309892344,1.0029119082783329,-0.8886228808336005, ,0.0002856270971264269,-0.0003786303639830581,0.0011299622056736235,0.0028266931840679396,-0.1525427046438313,-0.1915523461464934, ,0.042550086975097656
0.009942194602087803,0.02029207192925041,-0.0799512624858108, ,0.010001263957971183,0.020193982389429464,-0.08001945281466373, ,0.00013326915463014296, ,0.0016767361647286444,-0.00033256470755886874,-0.0026082105016160834,-0.03550596304156285,-0.26111579673498353,-0.2634499745692345, ,0.003118462036254901, ,0.2635187521144053, ,1.3940101989814962e-05, ,0.19704552928583838,-0.18868953231592744,0.09339639821000001,2.2596188309892344,0.9977197212872461,-0.8940270918297228, ,0.00022158249278877808,-0.00027794894732993767,0.0005601962255793535,0.0028266931840679396,-0.28933126126447223,-0.23228537167268393, ,0.06233501434326172
0.009963897479572319,0.02028955999244495,-0.079989663762758, ,0.01001589835919673,0.02021126615538294,-0.08007025553211895, ,0.00012381053950425404, ,0.0005453256417834604,0.00023720305358635807,-0.0016738661339405075,0.14415550880121522,-0.08432100534414502,-0.24040468663678266, ,0.0017763651591297823, ,0.16700551685489745, ,1.356890007567459e-05, ,0.19706097475158682,-0.18868953231592744,0.09341195369000001,2.2596188309892344,0.9944404452928756,-0.8963354652895831, ,0.0004004125937952962,-0.0002601986893878644,0.0014395039681407778,0.0028266931840679396,-0.04209003332165481,-0.2871035134274562, ,0.08120012283325195
0.00997661395096474,0.020291333688490017,-0.08002125359072824, ,0.01003060781615709,0.02022839689923598,-0.08012100561639046, ,0.00012971832385492936, ,0.0012747588260425848,-0.00032335006611719936,-0.0017223744789454218,-0.2514222906703503,-0.1342641952530609,0.09511647758910324, ,0.0021670577231707464, ,0.2850263889061205, ,1.3454079366024271e-05, ,0.19706097475158682,-0.18869725504880167,0.09343269433000001,2.2596188309892344,0.9928008072956902,-0.9006342835149248, ,0.0004004125937952962,-0.00019765734875214368,0.00012061033702221039,0.0028266931840679396,-0.22587801628464252,0.20047533194449396, ,0.1000359058380127
0.00998368379533643,0.020296991506898922,-0.08004343779768489, ,0.010045392063886037,0.02024537519060882,-0.08017170327185998, ,0.00015140735246384538, ,-0.0007687553270867002,0.0007200805013979154,0.00017135052094561164,0.01599559311829507,0.19963384106787924,0.20138441553697942, ,0.0010671746260317405, ,0.20027363655439354, ,1.3726120637050122e-05, ,0.19706097475158682,-0.1887127005145501,0.09345343497000001,2.259828520932719,0.992390897796394,-0.8934390156320283, ,0.0007474194684890547,-0.00041392951462015747,0.001456916965588189,0.009190224116161497,0.21484188216477698,0.1940724741803189, ,0.12099909782409668
0.00997231935804187,0.020306293287341258,-0.08004266898690589, ,0.010060250837901326,0.020262201598200438,-0.08022234870238208, ,0.00020484340935253607, ,-0.0010796097152817557,0.000990926850864247,9.944882499502287e-05,0.26361007907698136,0.20003262898921356,-0.04294241717078034, ,0.0014688033326103866, ,0.33091286836765466, ,1.466476234513394e-05, ,0.19706097475158682,-0.18872042324742436,0.09347417561000002,2.259828520932719,0.9952602642914682,-0.8936551443659985, ,0.0006791719222005537,-0.0005334357167467132,0.002150507833130823,0.008777443486286344,0.29727147824322453,-0.1441617143057015, ,0.1430199146270752
0.009978903535726636,0.02032208409101696,-0.08009443269171868, ,0.010075183874205505,0.020278876689790476,-0.08027294211128451, ,0.00020737019065449758, ,0.00055590797197641,0.0005517708176249951,-0.00249598546238018,0.029099763135950134,-0.00831396107420638,-0.015743291783837873, ,0.002615994674479037, ,0.030264139888900636, ,1.5405281457367577e-05, ,0.19706097475158682,-0.18872814598029858,0.09353769382,2.260038210876204,0.9964899927893571,-0.8938411180978607, ,0.00044872843386638804,-0.00046038203130851943,0.002614280571147218,0.004185020066283542,0.0,-0.04757257935624935, ,0.1629951000213623
0.009987794544208176,0.020329168996532806,-0.0801284349633895, ,0.010090190909285705,0.020295401032239608,-0.08032348370136923, ,0.000222866105949468, ,0.0007791568917237583,0.0006437590999967233,-0.003350460129107814,-0.006402484352816042,-0.01519212209524062,-0.011020387402872318, ,0.0034995848778805708, ,0.016486126871480412, ,1.61532520158001e-05, ,0.19706097475158682,-0.18872814598029858,0.09357139736,2.260247900819688,0.9962167197898263,-0.8937816397707491, ,0.00040607173703778257,-0.00046038203130851943,0.0033583832005060093,0.001182203702483295,-0.018248524606989027,-0.006465941592424288, ,0.18410205841064453
0.010008852361182229,0.02034915529925719,-0.08021967748719361, ,0.010105271680112158,0.020311775191489564,-0.08037397367491225, ,0.0001857451777681937, ,0.0005688440941681971,0.0005030921277176411,-0.0025232365611089036,-0.00857895254511749,-0.005159915300549607,0.002278026612749292, ,0.0026350347314140258, ,0.010011151411198614, ,1.6390631011978462e-05, ,0.19707642021733526,-0.18874359144604702,0.09366602653000002,2.2604575907631723,0.9960800832900608,-0.8937519006071931, ,0.00032139565776678893,-0.00034538000315539245,0.0025699921781219756,0.0012015106386406398,-0.008388791411147224,0.007093146320736694, ,0.20455002784729004
0.010019875032236326,0.02035940051802397,-0.08026533596723659, ,0.010120425924138853,0.02032799973256448,-0.08042441223366498, ,0.00019079242576858728, ,0.0005815978789602832,0.0005052042948025979,-0.0023334502851412482,-0.007546201405826364,-0.0037586583824974957,0.004086159024623893, ,0.0024573314195533054, ,0.008430460748051233, ,1.6630685615985628e-05, ,0.19709958841595793,-0.18875903691179546,0.09371398926,2.2604575907631723,0.9960800832900608,-0.8939152580874742, ,0.001053910090707325,-0.0006999212396565455,0.0024065284061036414,0.0012015106386406398,-0.0059002653470928415,0.008454722248530042, ,0.22560906410217285
0.010030313030172166,0.020370284288321407,-0.0803065552261442, ,0.010135653379303633,0.02034407521957172,-0.08047479957885378, ,0.00020022404116022466, ,0.0005009547896069795,0.0005248690883664572,-0.0019881861400653177,0.0007663133248405632,0.0010626996871755238,-0.004509988718701719, ,0.0021164421534028838, ,0.00131017811990781, ,1.6908695329103402e-05, ,0.19710731114883215,-0.18878220511041813,0.09375676683,2.2606672807066572,0.9959434467902953,-0.8938038401837778, ,0.0008250831212955423,-0.0010754636743611358,0.002110363489535462,0.007261640768662122,0.0,0.0028785480949724833, ,0.24559402465820312
0.01003682364259377,0.020376029672227812,-0.08032810493823017, ,0.010150953784025172,0.020360002215700584,-0.08052513591118074, ,0.00022826250863365946, ,0.0004651756777996638,0.0005838229326599854,-0.0022670797221536264,-0.004852766898625942,-0.0008508293241619163,-0.006337725509699984, ,0.0023868154714003858, ,0.004926789730784771, ,1.7356994990789956e-05, ,0.19710731114883215,-0.18880537330904082,0.09380472956000001,2.2608769706501417,0.9956701737907646,-0.8934993256362445, ,0.0004511558601520765,-0.0009646884910633827,0.0027298734395886895,0.010792177724251171,-0.005612523885960418,0.0062450454388703345, ,0.26660990715026855
0.010055626769782736,0.02039484245090039,-0.0804132187644628, ,0.010166326877205948,0.02037578128322564,-0.08057542143082512, ,0.00019730065096619425, ,0.0007478261427254634,0.0006910849707036505,-0.0029529392260812734,-0.0014508458351264904,-0.0022187059534505733,-0.008847531735441248, ,0.003123570464933612, ,0.002650963885203238, ,1.752411260387654e-05, ,0.19713047934745484,-0.18882081877478926,0.09386695148000002,2.2608769706501417,0.9956701737907646,-0.8933359681559634, ,0.0010961492553844105,-0.0007695984395425382,0.003080412206536453,0.010072169206447299,-0.004563913942710528,0.002431151248212641, ,0.28647804260253906
0.010067990746583799,0.02040849720229195,-0.08046991780006717, ,0.010181772398229321,0.02039141298350492,-0.080625656337442, ,0.00019363012887047506, ,0.0006417922014032565,0.0006167856180649917,-0.0026735288109237835,-0.0045000892829294824,-0.0019346959477532855,0.0007625425589396404, ,0.0028178144068184106, ,0.0048983519501969285, ,1.7645092885664104e-05, ,0.19713047934745484,-0.1888362642405377,0.09392658082000001,2.261086660593626,0.9956701737907646,-0.8934176468961039, ,0.0008990250730293919,-0.0009761950449951119,0.002784270498164657,0.003739184611799909,-0.0038850438477992825,0.006594750657874897, ,0.3091120719909668
0.010080724125533994,0.020420693388825552,-0.08051889141060051, ,0.010197290086962598,0.020406897876983434,-0.08067584083016492, ,0.00019598739707534115, ,0.0005000828186661427,0.0004997515524911099,-0.0018861299220313574,-0.00257788645351478,-0.000516376125885624,-0.0050726329124211175, ,0.002014279157049579, ,0.0026290954426816363, ,1.787603425898314e-05, ,0.1971536475460775,-0.18885170970628615,0.09397843242000001,2.2612963505371106,0.9956701737907646,-0.8934176468961039, ,0.0007829735352205767,-0.0009865046478563094,0.0019816884200049767,0.009234234139350633,-0.003316288377459411,0.005713416529431602, ,0.3279910087585449
0.010091828880948126,0.020430129625052286,-0.0805590520607218, ,0.010212879683753463,0.020422236523191434,-0.0807259751076044, ,0.00020634655678584954, ,0.0005600900247787811,0.0005596489147988199,-0.002028600331488227,-0.00018212832518920232,0.001402509256786606,-0.004381037541659295, ,0.002177642543808863, ,0.0014142852993133791, ,1.814345924989491e-05, ,0.19718453847757442,-0.18887487790490884,0.09401991370000001,2.2612963505371106,0.9955335372909991,-0.8930611927719858, ,0.0013201632780746805,-0.0012317635035953337,0.002165123218703276,0.009234234139350633,0.0,0.005408925734717678, ,0.3454561233520508
0.0100985100939512,0.020435152169989656,-0.08058344598993371, ,0.01022854092942626,0.020437429480742706,-0.08077605936784991, ,0.0002324072237924181, ,0.0006464080954068788,0.0006270009066340887,-0.0024397733412967696,0.006505935798146262,0.00554268248380157,-0.006382784017433484, ,0.002600666745207836, ,0.008546843255810609, ,1.8529582660751693e-05, ,0.19719226121044864,-0.18888260063778306,0.09404195063000001,2.2612963505371106,0.9953969007912337,-0.8928680961281487, ,0.0015944738009698264,-0.0008134018797201572,0.002549425659411012,0.009234234139350633,0.00714769365077521,0.0005641156917803956, ,0.36316490173339844
0.010114668259294102,0.02045162420696612,-0.08064432081280493, ,0.01024427356529205,0.02045247730734205,-0.08082609380846933, ,0.00022324803487575444, ,0.0008121671106958459,0.0007943638965776348,-0.0034844799398845005,0.006749457882090223,0.004239066707412387,-0.005708163177391442, ,0.00366500066402989, ,0.007970248913197458, ,1.8830017718884615e-05, ,0.19722315214194552,-0.18890576883640572,0.09410935771000001,2.2617157304240796,0.9953969007912337,-0.8927864173880081, ,0.0013283115411796404,-0.0006463833701469668,0.003705236454989533,0.006171205282805128,0.006305758156225136,-0.001991999983656841, ,0.3799910545349121
0.010130696260547292,0.02046553551212898,-0.08070854408702363, ,0.010260077333140088,0.02046738055978098,-0.08087607862651057, ,0.00021168535156500774, ,0.0009156703329038641,0.0008144928738050558,-0.0034025669620198896,0.004741130409081945,0.002897880759524097,-0.0031438799422740505, ,0.0036165332476100305, ,0.0055566203753963156, ,1.9044308034087894e-05, ,0.19726176580631666,-0.18892121430215417,0.09417676479,2.2617157304240796,0.9953969007912337,-0.8927047386478676, ,0.0027403105123384158,-0.0010629657614880583,0.0036383763179534036,0.006171205282805128,0.0055797874580031095,0.0013964803242506392, ,0.3992741107940674
0.01014853849785826,0.02048070294497722,-0.08077222055228071, ,0.010275951975234674,0.020482139793935785,-0.08092601401850043, ,0.00019972152864414577, ,0.0006954266030142107,0.0006355263850676667,-0.0025634172703463674,0.004278204134386829,0.003015798940849309,-0.0034776252926884284, ,0.002731047426942103, ,0.005234316933127511, ,1.9181797142521654e-05, ,0.19732354766931046,-0.18895210523365108,0.09424417187,2.2617157304240796,0.9953969007912337,-0.8926230599077271, ,0.0020690724825878624,-0.0009212601317837116,0.0027520406910850038,0.006171205282805128,0.0048857388870199485,0.0012430030321330275, ,0.41666293144226074
0.010156658083988144,0.020488623086687065,-0.08079602419907252, ,0.010291897234327,0.020496755564776738,-0.08097590018044695, ,0.00022519132678607164, ,0.0006642047977160231,0.0007002281089198634,-0.002546318476728512,0.006172259817236167,0.0032963427457316564,-0.006470311771059823, ,0.0027230911117256946, ,0.006997332823423625, ,1.9426239712304802e-05, ,0.1973389931350589,-0.1889598279665253,0.09427009767000001,2.262135110311049,0.9953969007912337,-0.8925413811675865, ,0.0016157249371920306,-0.0016119835372846137,0.0027458733873470093,0.007923208338207442,0.004645877811518534,-0.0005004778364680988, ,0.43491101264953613
0.010169546975052231,0.020500732869383743,-0.08084768151536703, ,0.010307912853642938,0.020511228426360856,-0.08102573730783881, ,0.00022574130837574077, ,0.0006054436330804182,0.0006429262015871268,-0.002458696027903372,0.003880880054608393,0.003969427916593116,-0.004542011326008337, ,0.0026124896652719386, ,0.005551359103267843, ,1.9653494850541396e-05, ,0.19736988406655578,-0.18898299616514797,0.09432454185000001,2.262135110311049,0.9953969007912337,-0.8923780236873053, ,0.0010947995060678571,-0.0011665899929370995,0.002636783896705844,0.007923208338207442,0.004191890793454827,0.002204869513488041, ,0.4529299736022949
0.010184019277714392,0.02051405637938497,-0.08089883154465988, ,0.010323998576887441,0.020525558931835018,-0.08107552559564571, ,0.00022571508714223739, ,0.0008171542032971709,0.0007021270651991645,-0.002631414016101087,0.0018753344194811848,0.002566788963316874,-0.002783826270539305, ,0.002843424543008778, ,0.0031788810359824893, ,1.9863081260358413e-05, ,0.19740849773092692,-0.18900616436377066,0.09437898603000001,2.2623448002545334,0.9953969007912337,-0.8921329874668837, ,0.0031409838855826007,-0.0013430922399861418,0.0028413862861220124,0.009114207595672958,0.003837882073670965,0.005958938631554216, ,0.4712390899658203
0.010201537835208937,0.02052885052353806,-0.0809639830019194, ,0.010340154148244136,0.020539747633437706,-0.08112526523831928, ,0.00021294409834927473, ,0.0008922979900678999,0.0008188058184767133,-0.0034308455706999327,0.0031865409847933244,0.002497404490795898,-0.004796521396150098, ,0.0036383155445125813, ,0.004048588910110966, ,2.0004305917408203e-05, ,0.1974625568610465,-0.18902933256239332,0.0944476894,2.2623448002545334,0.9953969007912337,-0.8920513087267431, ,0.0021551298217241817,-0.0009819725379542018,0.0036492122611683857,0.00818929899117254,0.0035149052996730876,0.002481011137963564, ,0.4891231060028076
0.010217235094188745,0.020545244282366183,-0.08102761622421223, ,0.010356379312374217,0.020553795082498,-0.0811749564297937, ,0.00020283827503242272, ,0.0006640596954932279,0.000761436819580192,-0.002917801007713488,0.002981947407592572,0.0024028621688536303,0.0006044127478105647, ,0.0030877700740185956, ,0.0038295896297999904, ,2.0095140665518757e-05, ,0.19748572505966916,-0.18906022349389023,0.09451509648,2.2625544901980175,0.9953969007912337,-0.8920513087267431, ,0.0009656626600112736,-0.0019246962532938157,0.003109881202655213,0.0025535269344810585,0.0032621446412837347,0.002297922205733304, ,0.5076439380645752
0.010232553271561484,0.020559055422882517,-0.0810745092345281, ,0.010372673814418382,0.020567701829438425,-0.08122459936348611, ,0.0002055129526026914, ,0.0005934581418200347,0.0005395766076689743,-0.001906252953333353,0.0015339388601529219,0.002619789358085842,-0.0028308033921873627, ,0.002068123739945987, ,0.003035830147135368, ,2.0189974075568844e-05, ,0.19753206145691452,-0.1890833916925129,0.09456565179000001,2.262973870084987,0.9953969007912337,-0.8918062725063214, ,0.0021947850878792116,-0.001200291364706628,0.002068025340254894,0.00830957781463153,0.003034586268111823,0.005223845082876702, ,0.5258090496063232
0.01023995038871766,0.020565423490086422,-0.08109342863262195, ,0.010389037399990985,0.020581468423771707,-0.08127419423229677, ,0.00023486289373414476, ,0.0006156292007846051,0.0005316931718434945,-0.0021427201022228455,-0.0029022791651887926,-0.002732772437013231,0.021247621919417217, ,0.0022919307097540205, ,0.003986385518238366, ,2.0387569343427672e-05, ,0.1975629523884114,-0.18909883715826134,0.09458639243000001,2.2631835600284713,0.9953969007912337,-0.8916429150260403, ,0.003297957551437551,-0.002250403516452213,0.0022549280181200456,-0.015311389833235102,0.002939372012773603,0.006675579630910304, ,0.5436229705810547
0.010254831483706085,0.020578908959765288,-0.08114850889947306, ,0.010405469815186752,0.020595095414105972,-0.08132374122860953, ,0.0002316468808121384, ,0.0006562722732530893,0.0005881097257887809,-0.0029188840104802352,-0.0035422598763605144,-0.0016515409667661627,0.020271693223883745, ,0.0030490080703148878, ,0.003908349061266577, ,2.0560802281274038e-05, ,0.19760928878565676,-0.18912972808975825,0.09464472548000001,2.2631835600284713,0.9953969007912337,-0.8914795575457592, ,0.0019062491214392773,-0.0011752777920797728,0.0030638221811886903,-0.015311389833235102,0.002742844378689905,0.005776679035072381, ,0.5615239143371582
0.010271042495354923,0.020592750765583957,-0.08121540643339326, ,0.010421970806574147,0.02060858334814133,-0.08137324054429305, ,0.0002189557771821811, ,0.0009369255013578684,0.0007873336481435905,-0.003065092988486998,0.00013879657511969655,0.0026926318666245304,-0.004768349459877456, ,0.0033003815986437004, ,0.0026962067034808535, ,2.0678950562286982e-05, ,0.1976556251829021,-0.18915289628838092,0.09471472514000001,2.262973870084987,0.9953969007912337,-0.8913162000654781, ,0.0032327451266892875,-0.0011113756236085003,0.0032870019645068103,0.01285829184706918,0.0025795229213075644,0.008492837449019753, ,0.579524040222168
0.010277688373472545,0.02059993086040249,-0.08124425774204498, ,0.010438540121199628,0.02062193277267353,-0.0814226923707007, ,0.00024123906315922993, ,0.0009011867976929113,0.0007094728050338422,-0.002991094487018344,-0.00464643514217922,3.1662756980635086e-05,-0.002460144262206738, ,0.003203456810336316, ,0.004646542996814193, ,2.0935924998425744e-05, ,0.19767879338152478,-0.18916061902125514,0.09474713239000002,2.262973870084987,0.9956701737907646,-0.891539035872871, ,0.0028752802770188246,-0.0006420667476594997,0.003161733132195316,0.011300027927362663,-0.0016448975401596538,0.011059754789663138, ,0.5956740379333496
0.010297618025178461,0.020616668338556635,-0.08129921494539555, ,0.010455177506583863,0.020635144233592605,-0.08147209689867074, ,0.00023463699334581872, ,0.0008822449421865207,0.000757282967827876,-0.0028617609067246074,-0.0036495380508471346,0.00100824372216754,-0.00562712583308568, ,0.0030889333302344256, ,0.003786249225279658, ,2.1157540818090473e-05, ,0.1977482979773928,-0.1891837872198778,0.09480676173000001,2.2636029399154403,0.9956701737907646,-0.8912123209123087, ,0.002724221040492857,-0.0012202014149481687,0.0030462443144004597,0.015147487905821497,-0.0016448975401596538,0.011596364940641968, ,0.6113901138305664
0.010306571279324162,0.020624269645574587,-0.08133104131333783, ,0.010471882710724845,0.020648218275884922,-0.08152145431852795, ,0.00025329531932314486, ,0.0008642813666586035,0.0006693733717097986,-0.002561222525874565,-0.011104380332740985,0.0027330676673933043,0.003897234242912501, ,0.002784762793947573, ,0.011435773753380288, ,2.1427749798085396e-05, ,0.19780235710751237,-0.1892069554185005,0.09486768736000001,2.2636029399154403,0.9956701737907646,-0.8908039272116058, ,0.003226992633114166,-0.0008658200560803962,0.0027322146689536878,0.015147487905821497,-0.0016448975401596538,0.02374245652944857, ,0.6276850700378418
0.010330026610630389,0.020642988433521692,-0.08141591008916524, ,0.010488655482093137,0.020661155443632062,-0.08157076482008287, ,0.000222425598359241, ,0.0008352962181054253,0.0007314899380046424,-0.002853814838185301,-0.00870462669848987,0.0028311331704861846,0.0014274996225706368, ,0.003062197974009822, ,0.009153460591481194, ,2.1587635691422565e-05, ,0.19785641623763195,-0.18922240088424894,0.09492990928000002,2.2636029399154403,0.9956701737907646,-0.8908039272116058, ,0.0022205925217962455,-0.0010034147963981796,0.0030265649857495725,0.014349031263890371,-0.0016448975401596538,0.019608612681124127, ,0.6488010883331299
0.01033776665220092,0.020648741250651317,-0.08144164897516093, ,0.010505495569635951,0.02067395628001344,-0.0816200285926332, ,0.0002461464510798705, ,0.0008376434284313032,0.0005978057153051031,-0.0024601601464758088,-0.004267957679808173,-0.00019531204795709313,-0.004317899693187005, ,0.002666721982650885, ,0.004272424307415129, ,2.1812239255791036e-05, ,0.19788730716912883,-0.18923012361712316,0.09495713137,2.2636029399154403,0.9956701737907646,-0.8907222484714653, ,0.0032864739812708396,-0.00043007852826303935,0.0026138515786019037,0.012763021695865918,-0.0016448975401596538,0.010543895091484479, ,0.6642539501190186
0.01034575861911854,0.020654738329811205,-0.08146863567063463, ,0.010522402722773558,0.020686621327305192,-0.08166924582496358, ,0.00026919156544211084, ,0.0009227406631814514,0.0007104473774572207,-0.002907434579600471,-0.004420009606979266,-0.00035774384635027415,-0.0026421476541294486, ,0.0031319900450481886, ,0.004434463369747948, ,2.209490687189785e-05, ,0.19791819810062575,-0.18923784634999738,0.09498564975000001,2.2636029399154403,0.9956701737907646,-0.8906405697313248, ,0.003304382587601718,-0.0008137686062225221,0.0030839906137463697,0.011504255061580286,-0.0016418606758490445,0.011034435385920907, ,0.6795430183410645
0.010368646578600302,0.020673444671939364,-0.08154015813619012, ,0.01053937669140009,0.02069915112688158,-0.0817184167053469, ,0.0002481646846756125, ,0.0010137834966169419,0.0008819768015090804,-0.0035361590521565244,-0.0002876859463221125,-0.0006575400509607242,-0.008089716649976134, ,0.003782864113150457, ,0.000717719701145886, ,2.2303085967234382e-05, ,0.19798770269649377,-0.18926101454862007,0.09506083457000002,2.2640223198024096,0.9956701737907646,-0.8904772122510436, ,0.002738274141522912,-0.001311172588198582,0.0037532543638077293,0.012554042576188681,-0.0015419733804033844,0.005264796896713159, ,0.6957740783691406
0.010389805152769658,0.02069047208813888,-0.08161199955265198, ,0.010556417225884828,0.020711546219216503,-0.08176754142154402, ,0.00022890385511572156, ,0.0009234285313990643,0.0007734808799952619,-0.0032264970880081243,-0.0004164474376994587,-0.0006954542613291894,0.0013533815176323882, ,0.003444020380782463, ,0.0008106076414017894, ,2.2446901258909155e-05, ,0.1980572072923618,-0.18928418274724274,0.09513731568000001,2.2642320097458937,0.9955335372909991,-0.8901207581269255, ,0.0031452359786105794,-0.0013024593019441224,0.003427762324080052,0.003423483103197583,0.0011309582533734087,0.005179964413309028, ,0.7106459140777588
0.0103988091058594,0.020697447719194743,-0.08164397605682688, ,0.010573524077068156,0.020723807143881938,-0.08181662016080488, ,0.0002470346677547112, ,0.0009399423197311411,0.0007612338757403245,-0.0032024562079486416,-0.000426500131943866,-0.0010312420771994473,0.0013852606862096311, ,0.003423257855000845, ,0.0011159579954015775, ,2.2634810611787814e-05, ,0.19808809822385867,-0.18929190548011696,0.09517101922000001,2.2642320097458937,0.9955335372909991,-0.8901207581269255, ,0.00340948950945352,-0.001221922839930494,0.003403592205128205,0.0032229935854819276,0.0011309582533734087,0.004995940230834227, ,0.7282869815826416
0.01041641987904818,0.020711059213637802,-0.08170269720201265, ,0.010590696996264087,0.02073593443955017,-0.08186565310986837, ,0.00023988730344551987, ,0.0009112907203321449,0.0006542681235553933,-0.002831940409254237,-0.0004254834128206873,-0.0018604810575182373,0.001035011802927825, ,0.0030460472806624703, ,0.0019085140077618856, ,2.279505262418895e-05, ,0.1981576028197267,-0.18931507367873962,0.09523324114000001,2.2642320097458937,0.9955335372909991,-0.8899574006466444, ,0.003972290875843797,-0.0008364866456565843,0.003015678061340402,0.0028120328757476796,0.0010829974848479945,0.004163655925177659, ,0.7434160709381104
0.010425559651658084,0.02071754867293471,-0.08173209496500305, ,0.010607935735258648,0.02074792864399391,-0.08191464045496322, ,0.0002598207736418186, ,0.0009557112834995753,0.0006985611856443935,-0.002982744657014269,2.7288170633592908e-05,-0.0021891004922926635,0.0007905317577635234, ,0.0032090711236188695, ,0.0021892705117278204, ,2.3001613564584433e-05, ,0.19819621648409783,-0.18932279641161384,0.0952643521,2.2642320097458937,0.9955335372909991,-0.8899574006466444, ,0.004147013326205311,-0.0010168479228436853,0.003177500801915021,0.0026405266901543727,0.0010568786930121791,0.003608832353113818, ,0.7583620548248291
0.010450078952719682,0.020737474950664157,-0.08180309430542199, ,0.010625240046312327,0.020759790294088375,-0.08196358238180915, ,0.0002386122501531784, ,0.0009745814216200466,0.0008042185692035591,-0.0032414513081141425,-0.001173292545915774,0.0012016618782157134,-0.0035929102944095397, ,0.0034790204134632, ,0.0016794660788510517, ,2.3144170592355984e-05, ,0.1982811665457143,-0.18934596461023653,0.09534083321,2.2648610795763475,0.9955335372909991,-0.8897123644262228, ,0.0032335546978952993,-0.0010640998336200744,0.003455273648590022,0.011217314247810906,0.0010028122577884044,0.00852151963588996, ,0.7757580280303955
0.010467736887957716,0.02075205416673483,-0.08186457054370254, ,0.010642609682151938,0.02077151992580728,-0.08201247907561549, ,0.00022986157516689153, ,0.0009698978307163482,0.0007439132446921909,-0.002961279127445112,-0.0024507994639296547,0.0001709067215866035,-0.0025527592284663838, ,0.003203635870116769, ,0.002456751288218589, ,2.3258513841532563e-05, ,0.1983506711415823,-0.1893691328088592,0.09540694400000001,2.2648610795763475,0.9956701737907646,-0.889497067369357, ,0.0038245907809354735,-0.0010347224168114348,0.0031636169851042705,0.010905360670696758,0.00020338809904383727,0.009735876008865801, ,0.7922039031982422
0.010477139462745576,0.020758790600008258,-0.08189521268926268, ,0.010660044395982303,0.02078311807423079,-0.08206133072108383, ,0.0002482765415831952, ,0.0009892447506046147,0.0007158468119366167,-0.002960693040065913,-0.002919122979522307,-0.00034491262505175835,-0.001485480879060685, ,0.0032026153550267855, ,0.0029394291046056674, ,2.341442469579556e-05, ,0.19838928480595344,-0.18937685554173342,0.09543935125000001,2.2648610795763475,0.9956701737907646,-0.889497067369357, ,0.004122157083177748,-0.0007858615048003288,0.0031585983581201666,0.009745902388690804,0.00020338809904383727,0.009735876008865801, ,0.8107240200042725
0.010496934884326035,0.02077265736563343,-0.08195492736798243, ,0.01067754394147285,0.02079458527353811,-0.08211013750240714, ,0.00023914566794461126, ,0.001113231057016362,0.0007592307607430582,-0.00321319104917733,-0.004785862716827088,-0.001119048796911958,0.0022115699678343084, ,0.003484294972139638, ,0.004914951862599284, ,2.354177179746201e-05, ,0.19848195760044413,-0.1894000237403561,0.09550286946000001,2.2648610795763475,0.9956701737907646,-0.8893337098890758, ,0.005082995938677158,-0.0008083207639840454,0.0034285001119242365,0.008114778115273644,0.00020338809904383727,0.012423312755614497, ,0.8262279033660889
0.010508866783511933,0.020780615837772964,-0.08199164542442534, ,0.010695108072769091,0.020805922057015508,-0.08215889960327066, ,0.00025159527598455066, ,0.0011140489252213434,0.0008171310606480279,-0.003459181360351257,-0.0031229767410380902,-0.001214530721360181,0.0007106853628726985, ,0.003724881724546992, ,0.003350830957075345, ,2.375144057379611e-05, ,0.1985360167305637,-0.18940774647323033,0.09554175816,2.2648610795763475,0.9956701737907646,-0.8892520311489353, ,0.004540133949217677,-0.0009823020099464425,0.0036804093160813316,0.0074327627962794225,0.00020338809904383727,0.009647983129840512, ,0.8398768901824951
0.010530575345730757,0.020795885451971093,-0.08205880982845809, ,0.010712736544482945,0.020817128957051,-0.08220761720685238, ,0.0002361728703799306, ,0.001155864668274088,0.0007390034311633696,-0.0036513946567369136,-0.0038105841470196336,-0.0035520973078498807,0.005550177534485455, ,0.0039006194561739143, ,0.005209409388489085, ,2.3917504199362283e-05, ,0.19862096679218016,-0.18941546920610455,0.09561175782,2.265070769519832,0.9956701737907646,-0.8891703524087947, ,0.0050056504645335535,-0.00015690332419727125,0.0037701329041420124,6.799063481496849e-05,0.00020338809904383727,0.0070364355848653165, ,0.8538720607757568
0.010544467426027366,0.020805624396824728,-0.08209482351847949, ,0.010730429111697429,0.020828206505138218,-0.08225629049582368, ,0.0002473121204587489, ,0.0010957460959856867,0.0007119103279214739,-0.003260389220703754,-0.0006237473600576497,-0.0022937064828502155,-0.0043633487127009265, ,0.0035124939419663584, ,0.00237700438161661, ,2.4104162122407172e-05, ,0.19867502592229974,-0.18941546920610455,0.09565194281000002,2.2654901494068014,0.9956701737907646,-0.8890069949285135, ,0.00474694224848654,-0.0001621625205639324,0.0034612802086049547,0.00808659860565612,0.00020338809904383727,0.004224163188204274, ,0.8673439025878906
0.010554020385808344,0.020811875977746336,-0.08212288239180013, ,0.010748185529964127,0.020839155231875836,-0.0823049196523497, ,0.0002675477997279973, ,0.001027032770010769,0.0005966521691359526,-0.002613885481199558,-0.0045662048831453484,-0.001814696767629435,0.0013173698270220182, ,0.0028710951622049163, ,0.004913588431206327, ,2.4331331466938544e-05, ,0.19872136231954507,-0.18942319193897877,0.09568175748,2.2654901494068014,0.9956701737907646,-0.8888436374482325, ,0.005487289107039702,-0.00029022895782888073,0.0027994396344463977,0.007848438624940243,0.00020338809904383727,0.011095624621657516, ,0.8802869319915771
0.01057685679400899,0.020826411870863176,-0.08219040873180548, ,0.010766005555306813,0.02084997566697012,-0.08235350485808991, ,0.0002508642118686064, ,0.001296589061368862,0.0008220189115855329,-0.0037485489232264415,-0.006065506285711647,-0.00031176006428165477,0.006571091946332303, ,0.00405073787289276, ,0.006073512994926818, ,2.451355972847709e-05, ,0.19883720331265844,-0.189430914671853,0.09575434972,2.2654901494068014,0.9958068102905301,-0.8886283403913666, ,0.006136829594431869,-0.0003295940001063633,0.003999199477780568,0.006567077421866177,0.002313853626250556,0.015459180191330553, ,0.8951270580291748
0.010579000463616487,0.020827876447520627,-0.08219781512890048, ,0.010783888944214119,0.02086066833923176,-0.08240204629419806, ,0.00029114423662921483, ,0.0012757138978677248,0.0008124106795496214,-0.003709548307200211,-0.006115102209000619,-0.00019390198902643867,0.006686778642862747, ,0.004006021181285877, ,0.006118175570007717, ,2.4779816562619348e-05, ,0.19884492604553267,-0.189430914671853,0.09576212746000001,2.2654901494068014,0.9958068102905301,-0.8886283403913666, ,0.005987716282796748,-0.0003190532779562102,0.00395648572280179,0.0064507374843924305,0.0022983912337008606,0.015471788735657844, ,0.909095048904419
0.01060206614754649,0.02084291711927399,-0.08227022615770725, ,0.010801835453645547,0.02087123377658047,-0.08245054414132388, ,0.00027059967471502956, ,0.001322583052745333,0.0008926538601764689,-0.004143400299948171,-0.005172705036465671,-0.0003415353576866284,0.0058713034494150065, ,0.004440025100279019, ,0.00518396784072143, ,2.4992844980989293e-05, ,0.1989453215728976,-0.18943863740472722,0.09583860857000001,2.2654901494068014,0.9958068102905301,-0.888546661651226, ,0.005538088081574904,-0.0003358337700287364,0.004400224176795581,0.005658078521147969,0.002183227693192882,0.013508251026023613, ,0.92215895652771
0.010615422910980023,0.020851611939834147,-0.08231059617698926, ,0.010819844841027378,0.020881672506042587,-0.08249899857961221, ,0.0002796201502738294, ,0.0011981236033351706,0.0007901570435313126,-0.0035991607126645664,-0.003291019014311427,-0.000907010994388919,0.0036583237394333967, ,0.003874765303589252, ,0.0034137185725458515, ,2.5218914603898372e-05, ,0.1990071034358914,-0.18944636013760144,0.09588138614000001,2.2654901494068014,0.9958068102905301,-0.8884649829110854, ,0.005378254318027881,-0.00041460918897343605,0.003833648981949459,0.0052656511994999015,0.0021189387187234288,0.010229528523949746, ,0.939284086227417
0.010650802924325787,0.02087416912355306,-0.08239862608457714, ,0.010837916864254001,0.02089198505375376,-0.08254740978870478, ,0.00023971988757363885, ,0.0011620384558038578,0.0006571082555031811,-0.002850442416160178,-0.001183755003185911,-0.0031803393134325728,-0.0046977516520395205, ,0.0031475620089304866, ,0.0033934987649854374, ,2.5353356062082097e-05, ,0.19918472629199854,-0.18945408287047566,0.0959773116,2.266119219237255,0.9959434467902953,-0.8883313645943601, ,0.006361212291970182,-0.00027661168050740234,0.0030602903976945247,0.009971610853945252,0.0002506274517540324,0.006053047794231263, ,0.9536950588226318
0.010662193376259555,0.02088027226367694,-0.08242916557569802, ,0.010856051281687765,0.02090217194495871,-0.0825957779477393, ,0.00025655441148902307, ,0.001260610277625112,0.0007139830047759805,-0.0031697060050672075,-0.0002714700032055543,-0.004168085014027429,-0.005255407172292448, ,0.0034851034649952817, ,0.004176916126383318, ,2.5519144152342994e-05, ,0.19924650815499234,-0.18945408287047566,0.09600971885000001,2.266119219237255,0.9959434467902953,-0.888168007114079, ,0.0068172091472550435,-0.00027014611348924315,0.003394887365728901,0.00899729949720452,0.0002506274517540324,0.004160659643350977, ,0.9675359725952148
0.010672827856678061,0.020887244693101895,-0.08245856406620493, ,0.010874247852155463,0.020912233704010783,-0.08264410323535128, ,0.0002749895425863284, ,0.0011720364892733102,0.0007442595936341864,-0.003284916378788253,-0.0002757824437620463,-0.0007575873091335373,-0.0018307697697558826, ,0.0035662680059883275, ,0.0008062221187465847, ,2.571822583316929e-05, ,0.19930829001798614,-0.1894618056033499,0.09604212610000001,2.266119219237255,0.9960800832900608,-0.8881977462776348, ,0.005652941861961307,-0.00035024013669926983,0.0035209574535809023,0.008227784840067694,0.002810232456880133,0.006668341776972873, ,0.9809999465942383
0.010696147263198223,0.020902121474258926,-0.08253129958199516, ,0.010892506334953901,0.02092217085437535,-0.08269238582967389, ,0.00025476978214658276, ,0.0011459904421938175,0.000775150285176406,-0.003448333857144097,0.0017308525603560126,0.0006844998991363076,-0.0022004338101635833, ,0.0037155293631641415, ,0.0018612872454373752, ,2.5870450275764802e-05, ,0.1994164082782253,-0.1894618056033499,0.0961199035,2.266119219237255,0.9962167197898263,-0.8881458067010503, ,0.005612113590687799,-0.00029767306450312586,0.004001208620949511,0.006936259046085903,0.004570899262662444,0.009351395790520979, ,0.9941821098327637
0.010710531376496413,0.020911385736063687,-0.08257138715136178, ,0.010910826489842863,0.02093198391862711,-0.08274062590833837, ,0.0002630288471220717, ,0.0012348841345325003,0.0007517348262893012,-0.0035844293523162674,0.0004835631721760483,-0.0019922335840208954,0.004679623150150961, ,0.0038649939012271035, ,0.0020500798528563886, ,2.603497978418191e-05, ,0.1994781901412191,-0.1894618056033499,0.09616268107,2.2663289091807393,0.9962167197898263,-0.8880641279609097, ,0.00623016613914078,-0.00026790556749989113,0.003832726544754572,0.0,0.004570899262662444,0.004303556947724768, ,1.0071589946746826
0.01072260884078989,0.020918450182966595,-0.08260459988840205, ,0.010929208077049777,0.020941673418453356,-0.08278882364847462, ,0.0002777786112444917, ,0.0012739170432432352,0.0007573266701461484,-0.0036006766264070167,-0.0013486950021492788,-0.0008775117272544278,0.00827520848738674, ,0.003893748898726529, ,0.001609038357237416, ,2.6224155532212047e-05, ,0.1995476947370871,-0.1894618056033499,0.09619897719,2.2663289091807393,0.9963533562895918,-0.8880938671244656, ,0.006695095321933598,-0.0002461183965795067,0.0038624664209505337,0.0,0.005644059273113147,0.008496513627539413, ,1.0204720497131348
0.010737136517607604,0.020927226069342126,-0.08264210600915813, ,0.01094765085726791,0.020951239874653665,-0.08283697922671224, ,0.000287868930188805, ,0.0014487000211958478,0.0008960624119675407,-0.003916027813754991,0.001412858458988325,0.0008258351083390787,-0.004279652561796636, ,0.004270472273139896, ,0.0016365120623953794, ,2.6427866160070093e-05, ,0.19961719933295513,-0.1894618056033499,0.09623916218,2.2665385991242237,0.9963533562895918,-0.8880121883843249, ,0.007256504778079217,-0.0002270309215150713,0.004222908674443267,0.012576182333761673,0.005644059273113147,0.007932461803482784, ,1.0338990688323975
0.010753065876335325,0.020936734150581823,-0.08268327083960882, ,0.010966154591653355,0.020960683807139172,-0.08288509281918005, ,0.0002944698593797937, ,0.001462358935039117,0.0008736057957231183,-0.004067248703116789,0.0026593889024263953,-0.0019257333371581282,-0.00017269417085233183, ,0.004409556979359146, ,0.0032834124180749985, ,2.6690226512231044e-05, ,0.1997639312575654,-0.1894618056033499,0.09632601361000001,2.266748289067708,0.9964899927893571,-0.8879602488077402, ,0.006270639066545182,-0.00019563594538678567,0.0041524534723670495,0.0041166533795934865,0.006137581110406323,0.006796449415348979, ,1.0468120574951172
0.010791556307679487,0.02096102767270092,-0.08279760655303031, ,0.010984719041828725,0.02097000573493555,-0.08293316460150713, ,0.000236153407708507, ,0.0012191189744705944,0.0007473113191271546,-0.0035010842438283835,0.0028450129285739973,0.00218653848134535,0.0033054756751312777, ,0.0037818403144491922, ,0.003588181791398597, ,2.683528767374845e-05, ,0.199887494983553,-0.18946952833622413,0.09640638359,2.266748289067708,0.9966266292891226,-0.887826630491015, ,0.006197524315311836,0.0,0.0037808714740090203,0.0035254527853220514,0.008914215541357259,0.005446682956907179, ,1.0648550987243652
0.010804138722950857,0.020967619594949558,-0.08283054483682505, ,0.011003343969881327,0.020979206176182413,-0.08298119474882348, ,0.0002500247492838102, ,0.001125686505577237,0.0006024532140930089,-0.0027768457857193707,0.004230253124103952,0.00021275476734579504,0.0006020195432620561, ,0.0030563037319083844, ,0.004235599830002257, ,2.7003236774203768e-05, ,0.1999492768465468,-0.18946952833622413,0.09644008713,2.266748289067708,0.9966266292891226,-0.8876632730107338, ,0.0066310898655544325,0.0,0.0030644116044632554,0.0032907617167728656,0.008033406992860426,0.001991542116757435, ,1.0767579078674316
0.01081333439075247,0.020972486893217762,-0.08285260177114989, ,0.01102202913836066,0.020988285648133344,-0.08302918343576035, ,0.00027383239876378746, ,0.0011718401526391068,0.0005531191593257387,-0.0026218924260699395,0.007260003797465534,-0.007320630760377507,-0.010123288841810395, ,0.0029246316078496743, ,0.010310154690648365, ,2.721184307666378e-05, ,0.2000187814424148,-0.18946952833622413,0.09646601293000001,2.266748289067708,0.9967632657888881,-0.8876113334341492, ,0.007424275990412847,0.0,0.0028267633575865133,0.0031021464509443123,0.0017077134416453711,-0.009619864656428997, ,1.0885329246520996
0.010829261221045747,0.020981005479944442,-0.08288192904119172, ,0.011040774310279803,0.020997244667156873,-0.08307713083645045, ,0.0002882797928937851, ,0.0013928088260804162,0.0006655574452457019,-0.002865224768840309,-0.004813928066711734,-0.0024448000760479,-0.0008424787195849976, ,0.003254596152352162, ,0.005399162032224426, ,2.744248649812836e-05, ,0.2001114542369055,-0.18946952833622413,0.09649842018000002,2.2671676689546776,0.9967632657888881,-0.8876113334341491, ,0.008760785041615026,0.0,0.0031074544518142804,0.013131621943366178,0.0017077134416453711,0.014441710565400626, ,1.100532054901123
0.010843169480465886,0.020988558482326905,-0.08291745679038612, ,0.011059579249117732,0.02100608374873898,-0.08312503712452879, ,0.000300382952335086, ,0.001430405235171627,0.000856810629848675,-0.003782722851964419,0.0014837554995964033,0.0016740372097414718,-0.004109229079220785, ,0.0041339056311195475, ,0.0022369466215534637, ,2.7690165391096087e-05, ,0.20018868156564773,-0.18946952833622413,0.0965347163,2.2671676689546776,0.9967632657888881,-0.8876113334341491, ,0.007706044705978123,0.0,0.004084310646153846,0.013131621943366178,0.0017077134416453711,0.012694070618477906, ,1.1122829914093018
0.010857677586193569,0.020996371130917887,-0.08295654375619983, ,0.011078443718813611,0.02101480340748067,-0.0831729024731333, ,0.0003096587291267513, ,0.0014604837970402793,0.0008433363649300626,-0.0037231262594800453,0.0026237389715778477,0.0006807865719979571,-0.005313014700223242, ,0.004087284953347456, ,0.002710622775711473, ,2.79492226777029e-05, ,0.20027363162726422,-0.18946952833622413,0.09657879016000001,2.2671676689546776,0.9968999022886535,-0.8877227513378455, ,0.007829353822043703,0.0,0.004032610511392406,0.012654103052949615,0.006555507295381268,0.006459984295186925, ,1.1236960887908936
0.010889059815826791,0.021015156856943294,-0.08304434582391518, ,0.011097367483770864,0.021023404157100738,-0.08322072705490487, ,0.0002730758889569402, ,0.0015811174305017026,0.000999854058084919,-0.004765283235418315,0.004927447141017196,-0.0014522593166771344,-0.0035495800847994544, ,0.005119332454555382, ,0.005137002043330001, ,2.813740223643633e-05, ,0.20042036355187448,-0.18946952833622413,0.09667212304000002,2.2673773588981616,0.9968999022886535,-0.887641072597705, ,0.007165490548250098,0.0,0.005090703585810164,0.005299918778544237,0.006304369016003323,-0.00018554243862658505, ,1.1373910903930664
0.010904347310654653,0.021023701941339686,-0.0830871701904366, ,0.011116350308852252,0.02103188651043461,-0.08326851104198797, ,0.00027909991554534325, ,0.0014122529053735419,0.0008100329581286435,-0.003805023479945822,0.004946025347463593,-0.0023240247117075324,-0.004130943324476149, ,0.004138697300471449, ,0.005464819923911196, ,2.8332235279063053e-05, ,0.20049759088061672,-0.18946952833622413,0.09671749319,2.2673773588981616,0.9968999022886535,-0.8874777151174239, ,0.007445259075458609,0.0,0.004091654641664527,0.005183822228896909,0.0057126978117295404,-0.000861980904162017, ,1.1491999626159668
0.010918017306690342,0.021030624562106262,-0.0831252459004381, ,0.011135391959385997,0.021040250979437496,-0.0833162546060315, ,0.0002895319207922616, ,0.0014451191924590968,0.000784969185157078,-0.003696173192553244,0.0012186657515729732,-0.0023526010068167435,0.0006368713265287937, ,0.004045521273137621, ,0.00264950505216939, ,2.8541218686611798e-05, ,0.20056709547648474,-0.1894618056033499,0.09675767818000001,2.2673773588981616,0.9968999022886535,-0.8873960363772834, ,0.008084553347963225,1.3133888358385607e-05,0.003981207578105475,0.004780078790640695,0.005229099459050567,0.0048524570785686396, ,1.1607849597930908
0.010935056034817182,0.02103988808826848,-0.08316497103490363, ,0.011154492201157983,0.02104849807518192,-0.08336395791818893, ,0.0002963480094291108, ,0.0016318599191516387,0.0008552984667242973,-0.004064520391032828,0.0007191981389364771,-0.0040347788206489075,0.0012427282287946024, ,0.004462603306595398, ,0.004098375896048704, ,2.8757655879188687e-05, ,0.20065976827097542,-0.1894618056033499,0.09680045575000001,2.2675870488416465,0.9968999022886535,-0.8873143576371428, ,0.009398506729840743,1.3133888358385607e-05,0.0043748452403185945,0.00423961187919935,0.004814733445064121,0.005102055228141392, ,1.1729419231414795
0.010968515048233703,0.021057766394910013,-0.08324901363689384, ,0.011173650800418811,0.021056628307861633,-0.0834116211491189, ,0.0002617693165722518, ,0.0016556230841131662,0.000953529129850643,-0.004390910646907574,0.0004552094981318587,-0.003875612652326464,-0.009191437671978109, ,0.004788569922977883, ,0.003902254154442512, ,2.8910435641683757e-05, ,0.20084511385995682,-0.18945408287047566,0.09689119605,2.267796738785131,0.997036538788419,-0.8873440968006987, ,0.00815681895517288,0.00012618618094826912,0.004690462756183746,0.013712033364628897,0.0011005050225012178,0.004728232149730025, ,1.1858479976654053
0.010982499975906362,0.021067500593957296,-0.08329369204266715, ,0.0111928675238774,0.021064642186789485,-0.08345924446898582, ,0.0002677130583122234, ,0.0015378377926978518,0.0009809194727320608,-0.0044930440442632665,0.0067571752103956755,0.0005737286305310448,-0.010579721832374945, ,0.004849184763681866, ,0.006781488002969074, ,2.9070182157721247e-05, ,0.20091461845582484,-0.18945408287047566,0.09694045507000001,2.267796738785131,0.9973098117879499,-0.8875669326080915, ,0.006862104013580745,0.00012618618094826912,0.0048225284650317895,0.012467598607533742,0.006883788654785479,-0.0005220833254036806, ,1.197443962097168
0.010998726095744314,0.021076289115735662,-0.08333766745771226, ,0.011212142138701968,0.02107254022039846,-0.08350682804746029, ,0.0002723522842420341, ,0.0015962000404940052,0.0009003361269878321,-0.004093500668956296,0.004596663201299663,-0.0006912311253367215,-0.006933660217645831, ,0.004484998042093012, ,0.004648345071679644, ,2.9234496237076457e-05, ,0.2009995685174413,-0.18945408287047566,0.09698712151000001,2.267796738785131,0.9973098117879499,-0.8874035751278103, ,0.008547580342276448,0.00012229807902178495,0.004424669866666667,0.011429393246235028,0.006883788654785479,0.002828562979648484, ,1.2092139720916748
0.011015159014847412,0.021085552215268262,-0.08337746607254327, ,0.011231474412523016,0.021080322916244,-0.08355437205371949, ,0.0002794913648321879, ,0.0014335064575529792,0.0007751270932764328,-0.0038081191504846955,0.003660000942859759,-0.002600129452329336,0.0021084236295955128, ,0.004142165404575913, ,0.004489574508764954, ,2.940739389058099e-05, ,0.2010845185790578,-0.18945408287047566,0.09702989908000001,2.2680064287286155,0.9973098117879499,-0.8873218963876697, ,0.007969325363838034,0.0001174721529764846,0.004097970547980449,0.00029609760645827996,0.006883788654785479,0.0007094607150293971, ,1.2205479145050049
0.011028275662202828,0.02109286209801243,-0.08340745347070519, ,0.011250864113431463,0.021087990781004262,-0.08360187665644761, ,0.000295583699658808, ,0.001572796287843389,0.0008397900080040994,-0.003780650716001739,0.003589958943438625,-0.001073418483128939,-0.005803111773966129, ,0.004179982686208393, ,0.003747003026835536, ,2.965211667510472e-05, ,0.2011540231749258,-0.18945408287047566,0.09706230633000001,2.2682161186721,0.9973098117879499,-0.8870768601672481, ,0.008994336322424473,0.00011388666352751946,0.004103248717156105,0.011382997284504846,0.006626020339386108,0.004288595556797067, ,1.2342619895935059
0.011046710117252721,0.021101894745395748,-0.08345241429722687, ,0.011270311009972772,0.021095544320477336,-0.0836493420238367, ,0.0002980238524507112, ,0.0014972649176437705,0.0007493270605987776,-0.0033234224472980076,0.0029847591205344713,-0.0016152433043493605,-0.0056244687194743894, ,0.0037213478795399776, ,0.0033937880803636042, ,2.9896827899083788e-05, ,0.20126214143516494,-0.18945408287047566,0.09711026906,2.2682161186721,0.9973098117879499,-0.8870768601672481, ,0.009164301031340659,0.00010873363799164747,0.0036259529979512867,0.011382997284504846,0.006027126856533878,0.004717763262129742, ,1.2435040473937988
0.01106250516521556,0.021108325576310955,-0.08348763831747377, ,0.011289814871155357,0.02110298403958689,-0.08369676832358694, ,0.0003089232815536968, ,0.0015536363119165717,0.0007692782040209834,-0.003392476341266293,0.002796374663606716,-0.0023937719708620317,-0.005706980640122789, ,0.003809786145040035, ,0.0036810127761795256, ,3.0155238177946473e-05, ,0.20135481422965565,-0.18945408287047566,0.0971439726,2.2682161186721,0.9973098117879499,-0.8869951814271075, ,0.009588469265856655,0.00010505904974925796,0.0036685424965453716,0.011382997284504846,0.005634196840780918,0.004764508366819304, ,1.2535700798034668
0.011079101712980951,0.021117099697684563,-0.08352484790183572, ,0.01130937546644424,0.021110310442379186,-0.08374415572290737, ,0.0003180691998683171, ,0.0017026915483823576,0.0009322949424843517,-0.0043043559039843094,0.0023361364722751217,-0.0028039956390160147,-0.003905627761037416, ,0.004721844143645488, ,0.0036496470628225633, ,3.0424197999455453e-05, ,0.20145520975702055,-0.18944636013760144,0.09718804646000001,2.2684258086155844,0.9973098117879499,-0.8869951814271075, ,0.009302470771094948,3.250950458081965e-05,0.004638558974956319,0.009157305575074482,0.005260609707926644,0.004424045458771535, ,1.2640008926391602
0.011085248841412263,0.02112051731850903,-0.0835419683972202, ,0.011328992565762428,0.02111752403202511,-0.08379150438851568, ,0.0003488383205381602, ,0.0017770299336381985,0.0009852440627008447,-0.00457444450967409,0.002318661009259897,-0.0031317438241009058,-0.007453782298487233, ,0.005005405460122174, ,0.0038966660432485306, ,3.073794174832448e-05, ,0.2016560008117504,-0.18943863740472722,0.09729304595,2.2684258086155844,0.9975830847874807,-0.8871363384943599, ,0.009375012850441405,0.00020283171551539945,0.0053416537625754525,0.008139984655124114,0.00863410019758757,-0.002422660702490291, ,1.2759549617767334
0.01113207397169211,0.021146429638378247,-0.08366848151228724, ,0.011348665939492082,0.021124625310821078,-0.0838388144866398, ,0.00027640700310858956, ,0.0016689150450977573,0.0008488048940207927,-0.0040077403986876915,0.004063818714841677,-0.004433765711468479,-0.005568229237858355, ,0.004423542729435387, ,0.00601439106621318, ,3.093211468244943e-05, ,0.2017486736062411,-0.18943863740472722,0.09734360126000001,2.2684258086155844,0.9977197212872461,-0.8871660776579157, ,0.009671220666558476,0.00020283171551539945,0.004326130233568713,0.007444931496098056,0.005008365625683953,0.00035847673325863257, ,1.2860219478607178
0.01114944316682951,0.021155515324616438,-0.08370416078561099, ,0.011368395358471738,0.021131614780188875,-0.0838860861830169, ,0.0002856713994612835, ,0.0016374924632517039,0.0008235566378528467,-0.0037054604924354573,0.0027376244728696776,-0.002356137323606981,-0.009376890303073171, ,0.004134013130598116, ,0.003611920561637151, ,3.113778316918261e-05, ,0.20184134640073179,-0.189430914671853,0.09738248996000001,2.2688451885025533,0.9977197212872461,-0.8870027201776345, ,0.009573891930346386,0.0003216325163490319,0.004022427151515152,0.014820441734212002,0.004748484563590526,0.0046416956229233496, ,1.2964160442352295
0.011169296143900758,0.02116550900338799,-0.08374733545253107, ,0.011388180593996905,0.02113849294067654,-0.0839333196428961, ,0.00028849677503233417, ,0.0018106714491492525,0.0008646911879812817,-0.0040278964679433685,0.0019485859068120075,-0.0049410836559323395,-0.006116521652847743, ,0.004500019100382508, ,0.0053114304731342425, ,3.1344648993460525e-05, ,0.20195718739384516,-0.189430914671853,0.09742915640000001,2.269054878446038,0.9977197212872461,-0.8868393626973534, ,0.011012999596367234,0.0003216325163490319,0.0043628626458504524,0.010964265842508864,0.004292269943575143,0.004227410537637245, ,1.3065071105957031
0.011187429492027123,0.021173564175003982,-0.0837871984730633, ,0.011408021417818695,0.02114526029195839,-0.08398051503103643, ,0.00029467473442164983, ,0.00200821450339036,0.0009548134457485826,-0.004480100279236243,-0.00242008323873834,-0.005076172089577165,-0.000590693658015459, ,0.005001589019483942, ,0.0056235508498265205, ,3.1557866133266314e-05, ,0.2020730283869585,-0.189430914671853,0.09747193397000001,2.269054878446038,0.9977197212872461,-0.8865943264769317, ,0.012205144022084509,0.0003216325163490319,0.0048445290510948915,0.010964265842508864,0.003955816138107665,0.01134273958587769, ,1.316145896911621
0.011187429492027123,0.021173564175003982,-0.0837871984730633, ,0.01142791760214578,0.021151917332836858,-0.08402767251170926, ,0.00034077981182421423, ,0.00200821450339036,0.0009548134457485826,-0.004480100279236243,-0.00242008323873834,-0.005076172089577165,0.004771827347778324, ,0.005001589019483942, ,0.0056235508498265205, ,3.183852638044099e-05, ,0.20218886938007188,-0.189430914671853,0.09752508186000002,2.269054878446038,0.9977197212872461,-0.8865126477367912, ,0.01219284871623677,0.0003062516845890502,0.005750473472924188,0.010964265842508864,0.0036596050340239232,0.01823474827346104, ,1.3262970447540283
0.011229735665297166,0.021195338397157655,-0.0838948706383532, ,0.011447868919642416,0.02115846456124249,-0.08407479224869785, ,0.0002851553651877519, ,0.0020876010638259434,0.0011450210842120778,-0.005271349419444574,0.0030603456649567788,0.0007232412782739007,8.468608087054528e-05, ,0.005784140055950933, ,0.0031446445690223937, ,3.2030250479810155e-05, ,0.2023201558389337,-0.18942319193897877,0.09758860007,2.269054878446038,0.997992994286777,-0.886735483544184, ,0.011536119953818327,0.0001581435661041161,0.005717448499641064,0.010964265842508864,0.011185442938378433,0.009678191258372427, ,1.3365960121154785
0.01124929306223299,0.021205882936089472,-0.08394663922977953, ,0.011467875143428596,0.021164902474234446,-0.08412187440529803, ,0.0002831340516657306, ,0.0019368884371318675,0.0009959104848926224,-0.004695238628320767,0.0029755680328725333,-0.0001400114408477859,-0.0005274106032387364, ,0.00517577436609148, ,0.0029788598557106702, ,3.221602510105892e-05, ,0.20243599683204708,-0.18941546920610455,0.09764563683000001,2.269054878446038,0.998266267286308,-0.8869583193515769, ,0.011164346065702446,0.0004513574365384163,0.005098851318822024,0.009886303037670461,0.010228283385904856,0.007989690145640809, ,1.3483500480651855
0.011268815718630398,0.021213852039890787,-0.08399304541333326, ,0.011487936047079095,0.021171231568001325,-0.08416891914431882, ,0.0002841861928636315, ,0.0018118247782483738,0.0008722289916653418,-0.004198541192103283,0.003905354786070201,-0.0005273254727145454,-0.001427287501645263, ,0.00465523797273183, ,0.003940795205870362, ,3.240059191868761e-05, ,0.20255183782516045,-0.1894000237403561,0.09769489585,2.269054878446038,0.998266267286308,-0.8869583193515769, ,0.010941873869141238,0.0006749790799230112,0.004573302187769164,0.0088902671129457,0.010228283385904856,0.005692566109403292, ,1.3577039241790771
0.011288990672194021,0.021224088579709564,-0.08403744621054847, ,0.011508051404623397,0.021177452337861332,-0.08421592662808305, ,0.00028638750494660404, ,0.0018118247782483738,0.0008722289916653418,-0.004198541192103283,0.003905354786070201,-0.0005273254727145454,-0.001427287501645263, ,0.00465523797273183, ,0.003940795205870362, ,3.258568796832029e-05, ,0.2026676788182738,-0.1894000237403561,0.09774285858000001,2.2692645683895227,0.998266267286308,-0.8867949618712957, ,0.012089064021292322,0.0006749790799230112,0.0045278031608868684,0.004682104474132481,0.010228283385904856,-0.005698298940786493, ,1.3676550388336182
0.011309797086502205,0.02123390110867912,-0.08407649439760292, ,0.011528220990543297,0.021183565278262605,-0.08426289701842724, ,0.0002915281028141959, ,0.0019170400285851374,0.0007863218134277406,-0.0038103766485810143,0.007860941387464085,-0.0030875949412773147,-0.009362132510228736, ,0.004337316528629364, ,0.008445569324522638, ,3.277564315734924e-05, ,0.2027912425442614,-0.1893923010074819,0.09778563615000001,2.2696839482764917,0.998266267286308,-0.8866316043910146, ,0.012886602601639159,0.0010412651267967066,0.004191792505263158,0.01184879557745051,0.010228283385904856,-0.0006629876601556431, ,1.378338098526001
0.011309797086502205,0.02123390110867912,-0.08407649439760292, ,0.011548444579779663,0.02118957088278638,-0.0843098304767029, ,0.0003366949966736466, ,0.0019170400285851374,0.0007863218134277406,-0.0038103766485810143,0.007860941387464085,-0.0030875949412773147,-0.009362132510228736, ,0.004337316528629364, ,0.008445569324522638, ,3.3077540990013334e-05, ,0.2027912425442614,-0.1893923010074819,0.09778563615000001,2.2696839482764917,0.998266267286308,-0.8866316043910146, ,0.012886602601639159,0.0010412651267967066,0.004191792505263158,0.01184879557745051,0.010228283385904856,-0.0006629876601556431, ,1.3861160278320312
0.011330498009823784,0.021241788821213508,-0.08411872657660181, ,0.01156872194772299,0.021195469644144135,-0.08435672716377626, ,0.00033991232729627704, ,0.0019730473736223964,0.0008843885006047159,-0.004162277389526172,0.006526314434401756,-0.0023788309895684838,-0.0070056516865302, ,0.004690374401465292, ,0.006946338296134559, ,3.338060984159906e-05, ,0.20293025173599744,-0.18938457827460764,0.09783100630000001,2.2696839482764917,0.998266267286308,-0.8863865681705929, ,0.012686756892843688,0.0007030787108061985,0.004562821976511029,0.011789443356943366,0.010228283385904856,0.002162768399285386, ,1.3937079906463623
0.011350971076856679,0.02124999763668843,-0.08416627863004987, ,0.011589052870216514,0.021201262054179302,-0.08440358724002958, ,0.0003396667097353554, ,0.0022650908990247695,0.001101156954774747,-0.005409683712743205,-0.0018436745123590482,-0.001039657136150602,0.004228244567654661, ,0.005967232297456899, ,0.0021166053092871386, ,3.367980326738855e-05, ,0.20305381546198503,-0.1893691328088592,0.09788156161000001,2.2696839482764917,0.998266267286308,-0.8862232106903118, ,0.013127257097588987,0.0009199874530875737,0.005854028489525911,0.010579987088697472,0.009717419171493392,0.015153605687918369, ,1.401494026184082
0.011375591904455026,0.021262504582481544,-0.08422996649321798, ,0.011609437123559375,0.021206948603869766,-0.08445041086536094, ,0.0003261376618346541, ,0.002520226275896866,0.001270181568389005,-0.006535369824451164,-0.00568597301907964,-0.002969054832772289,0.006593460923709229, ,0.007118704969356644, ,0.0064144807936155485, ,3.395602036517369e-05, ,0.20319282465372107,-0.18936141007598498,0.09795026498,2.2696839482764917,0.9984029037860733,-0.8862529498538676, ,0.013316999938039682,0.001333102097364935,0.006995525480895917,0.009507107831467028,0.007007109861646734,0.01787825763894186, ,1.4088408946990967
0.011375591904455026,0.021262504582481544,-0.08422996649321798, ,0.011629874484501309,0.02121252978332616,-0.08449719819918522, ,0.0003722497760103751, ,0.002520226275896866,0.001270181568389005,-0.006535369824451164,-0.00568597301907964,-0.002969054832772289,0.006593460923709229, ,0.007118704969356644, ,0.0064144807936155485, ,3.429522509193077e-05, ,0.20319282465372107,-0.18936141007598498,0.09795026498,2.2696839482764917,0.9984029037860733,-0.8862529498538676, ,0.013316999938039682,0.001333102097364935,0.006995525480895917,0.009507107831467028,0.007007109861646734,0.01787825763894186, ,1.416445016860962
0.011398019093176583,0.021275300240657578,-0.08429451735836754, ,0.011650364730245097,0.02121800608179362,-0.08454394940043396, ,0.0003594124160304752, ,0.0025283001106505233,0.0013455828452507725,-0.006869402560100268,-0.003836439772570904,-0.0014242954182482888,0.0068226381794509496, ,0.007442552396568044, ,0.00409229425511039, ,3.4612245799010296e-05, ,0.20331638837970867,-0.18934596461023653,0.09802156093000002,2.2696839482764917,0.9988128132853697,-0.8865055248248164, ,0.012722475071520417,0.0012098686594748955,0.00735062829718505,0.008686085311639018,0.008816617173022361,0.016511159989983287, ,1.4246959686279297
0.011422884536541514,0.02128884260881679,-0.08436059155654646, ,0.011670907638444939,0.021223377987652007,-0.08459066462755678, ,0.0003445790093812522, ,0.0021430969229029955,0.001185781329309729,-0.006015203671606454,0.02105811792246887,0.010852116308233836,0.0023682146371514444, ,0.00649473763848884, ,0.023689929314563585, ,3.4904628814875844e-05, ,0.20343995210569626,-0.1893305191444881,0.09809285688000001,2.269893638219976,0.9989494497851351,-0.8866169427285128, ,0.011714231833445518,0.001357187068243901,0.006598513471416737,0.0012333100623380094,0.031138645867614972,-0.0058443035933556636, ,1.432516098022461
0.011447055807233554,0.0213013914767572,-0.0844192685976971, ,0.011691502987204864,0.02122864598841596,-0.08463734403852112, ,0.00033556404420098353, ,0.002714421680659812,0.001116075653099065,-0.006140857539315287,-0.0365922773927988,-0.024684249845568433,0.005322369074973528, ,0.0068061620052744815, ,0.044139630112828857, ,3.5180997685033084e-05, ,0.2035789612974323,-0.18931507367873962,0.09815767138,2.2701033281634606,0.999222722784666,-0.8865947423154839, ,0.014450577365383094,0.0015896449821348577,0.006356269561053473,0.017472714470882836,-0.027227276902404902,0.03779082034230619, ,1.441809892654419
0.011471769327110495,0.021311618356914273,-0.08448050014880872, ,0.011712150555083517,0.02123381057073764,-0.08468398779081288, ,0.0003244139435966648, ,0.0026950015723667246,0.0010345781711677444,-0.006175078435022027,-0.028064387319754806,-0.020464643991969483,0.00261417734312137, ,0.006816522511221539, ,0.034733434618139755, ,3.543862735243355e-05, ,0.20371797048916834,-0.18929190548011696,0.09822248588000002,2.2701033281634606,0.999222722784666,-0.8865130635753433, ,0.014615268990985796,0.002731381551813668,0.00642809181598063,0.015432486967239634,-0.01880274033062976,0.029277692264973572, ,1.4500229358673096
0.01148499391045938,0.02131687658543637,-0.08450693030831322, ,0.011732850121086701,0.02123887222040448,-0.0847305960414375, ,0.00034284652876263134, ,0.0026950015723667246,0.0010345781711677444,-0.006175078435022027,-0.028064387319754806,-0.020464643991969483,0.00261417734312137, ,0.006816522511221539, ,0.034733434618139755, ,3.571909041987134e-05, ,0.20379519781791058,-0.1892764600143685,0.09825100426000001,2.270313018106945,0.999222722784666,-0.8864313848352028, ,0.015734860148975426,0.0021509315825041344,0.0062514958869701745,0.005223603168838524,-0.016396044410331247,0.019856126880373783, ,1.4617071151733398
0.011523662469032908,0.021329944374049854,-0.08459074370620111, ,0.01175360146467362,0.021243831422342305,-0.08477716894691951, ,0.00030828842427986465, ,0.0022857901018349335,0.0007434875951820363,-0.004862395903786499,-0.009736174666410514,-0.011191586781558197,0.005422985179917935, ,0.005424067119698635, ,0.014833904041282885, ,3.594851075634898e-05, ,0.20403460253701156,-0.18923784634999738,0.09833915198000001,2.270313018106945,0.9990860862849005,-0.8860749307110847, ,0.014452778184354368,0.0030007201534119573,0.00517337171809029,0.004499719599741391,0.0,0.013127034776530457, ,1.4702811241149902
0.011523662469032908,0.021329944374049854,-0.08459074370620111, ,0.011774404365750809,0.021248688660613926,-0.08482370666330374, ,0.00035177511156657523, ,0.0022603465574523264,0.0007427701913682625,-0.0045899077785746915,-0.009218664574514986,-0.011625594023572374,0.005919113626670646, ,0.005424067119698635, ,0.014833904041282885, ,3.623538119571613e-05, ,0.20418133446162182,-0.18921467815137472,0.09838970729,2.270313018106945,0.9990860862849005,-0.8860749307110847, ,0.01481375921924302,0.0023922921908948337,0.004907212421441775,0.0041105736667422805,0.0,0.013127034776530457, ,1.4779949188232422
0.011546242799235659,0.021337480121228852,-0.08463815730819212, ,0.011795258604674437,0.02125344441842056,-0.08487020934615518, ,0.0003505980875983448, ,0.0022603465574523264,0.0007427701913682625,-0.0045899077785746915,-0.009218664574514986,-0.011625594023572374,0.005919113626670646, ,0.0051699252927670325, ,0.01483705533120384, ,3.65174889636386e-05, ,0.20418133446162182,-0.18921467815137472,0.09838970729,2.270313018106945,0.9990860862849005,-0.8860749307110847, ,0.01481375921924302,0.0023922921908948337,0.004907212421441775,0.0041105736667422805,0.0,0.013127034776530457, ,1.4853980541229248
0.011567174092864344,0.021346189367714204,-0.08468076453173658, ,0.011816163962253969,0.02125809917810425,-0.08491667715056066, ,0.00035413359101420434, ,0.002048359740707539,0.0006844631949196987,-0.004466576713910843,0.0019884974803055814,-0.004223743671548531,0.005272933355753293, ,0.004961307794705114, ,0.004668418474640465, ,3.6801341126202923e-05, ,0.20432034365335786,-0.18919150995275205,0.09843767002,2.2705227080504296,0.9993593592844314,-0.886216087778337, ,0.013395954483126875,0.002844867111469161,0.00482837572597757,-4.8983600615603625e-06,0.011351633199894066,0.003501195586744151, ,1.4957621097564697
0.011595354576872604,0.02135885585661289,-0.08474018780884891, ,0.01183712021974107,0.02126265342114413,-0.08496311023112786, ,0.00034263674790722303, ,0.002572946031333477,0.001132701024358272,-0.0058521631479355905,0.020272199843376304,0.0032099730567948428,-0.01698587685096486, ,0.006492370630269992, ,0.02052476569052759, ,3.706651260978828e-05, ,0.20449024377659078,-0.18916061902125514,0.09850378081000001,2.270942087937399,0.9996326322839623,-0.8862755661054487, ,0.015690631871440274,0.002446801864706733,0.006430686927735164,0.01620431677039197,0.023356508012988383,-0.009186420206816245, ,1.5039350986480713
0.011622256612519692,0.021369796218563455,-0.08480495035928992, ,0.011858127158843079,0.021267107628162505,-0.08500950874198678, ,0.00032867003689563735, ,0.0026150358397439006,0.0012108262243789932,-0.006280432034116937,0.020466473098940945,0.0036955481092682254,-0.01731140486188314, ,0.006910017302724443, ,0.020797441841880364, ,3.736039166258055e-05, ,0.2046446984340753,-0.18913745082263247,0.09857248418,2.270942087937399,0.9996326322839623,-0.8862755661054487, ,0.01513025216174598,0.0024929881598579526,0.006868827736093144,0.01620431677039197,0.023356508012988383,-0.009590465085904765, ,1.510016918182373
0.011622256612519692,0.021369796218563455,-0.08480495035928992, ,0.01187918456170867,0.021271462278919864,-0.0850558728367899, ,0.00037234879410978866, ,0.0026150358397439006,0.0012108262243789932,-0.006280432034116937,0.020466473098940945,0.0036955481092682254,-0.01731140486188314, ,0.006910017302724443, ,0.020797441841880364, ,3.771068455507321e-05, ,0.2046446984340753,-0.18913745082263247,0.09857248418,2.270942087937399,0.9996326322839623,-0.8862755661054487, ,0.01513025216174598,0.0024929881598579526,0.006868827736093144,0.01620431677039197,0.023356508012988383,-0.009590465085904765, ,1.5157289505004883
0.011650005573983362,0.021379586050749685,-0.08486719575227557, ,0.01190029221093849,0.021275717852320103,-0.08510220266871284, ,0.00035869242263625913, ,0.002717229062521047,0.001079621542690905,-0.005928270652225786,0.016074657236257388,-0.0013339081320076279,-0.015668022340157284, ,0.006610091480432994, ,0.01612990727951103, ,3.803985395047675e-05, ,0.20481459855730821,-0.18910655989113556,0.09863859497000001,2.270942087937399,0.9996326322839623,-0.8861122086251676, ,0.01701576861367595,0.0029834352159394,0.006480395248169244,0.014673781770556693,0.019113386885254546,-0.007788618515919526, ,1.5221071243286133
0.011650005573983362,0.021379586050749685,-0.08486719575227557, ,0.011921449889578425,0.021279874826408328,-0.08514849839045474, ,0.0004034296952073404, ,0.002717229062521047,0.001079621542690905,-0.005928270652225786,0.016074657236257388,-0.0013339081320076279,-0.015668022340157284, ,0.006610091480432994, ,0.01612990727951103, ,3.842611581076501e-05, ,0.20481459855730821,-0.18910655989113556,0.09863859497000001,2.270942087937399,0.9996326322839623,-0.8861122086251676, ,0.01701576861367595,0.0029834352159394,0.006480395248169244,0.014673781770556693,0.019113386885254546,-0.007788618515919526, ,1.5276648998260498
0.011673113215260766,0.02138676226547199,-0.08491998492958779, ,0.011942657381126667,0.021283933678374597,-0.08519476015423856, ,0.0003984083329433182, ,0.0027709677992554505,0.0009833628014825357,-0.006187035250981915,0.012121650878637528,-0.003630160837093685,-0.014651918327664964, ,0.006850158402602309, ,0.012653555969007304, ,3.880261845107223e-05, ,0.20495360774904425,-0.18906794622676446,0.09869433544000002,2.270942087937399,0.9996326322839623,-0.8860305298850271, ,0.016951936684257016,0.004410319509868468,0.006692777949579833,0.013144265985909061,0.016156923017374262,-0.006980188038931807, ,1.5350689888000488
0.011705910434173945,0.021399695756759804,-0.08499583452270265, ,0.011963914469517948,0.02128789488454837,-0.08524098811181209, ,0.0003730493258729559, ,0.0031022467016315926,0.0013376472010452089,-0.007187297619138168,-0.00016670885011587744,-0.012963207328435186,-0.007990980583589553, ,0.007941692621747418, ,0.012964278495219321, ,3.914254092858181e-05, ,0.2051543988037741,-0.18903705529526754,0.09877600171,2.270942087937399,0.9997692687837277,-0.8860602690485828, ,0.017831067560779925,0.002086761791981489,0.0076913623949782725,0.01154073487127539,0.0027274260266350603,0.0035363804065824994, ,1.5407559871673584
0.011705910434173945,0.021399695756759804,-0.08499583452270265, ,0.01198522093914288,0.021291758920406908,-0.08528718241444813, ,0.00041778979505537126, ,0.0031022467016315926,0.0013376472010452089,-0.007187297619138168,-0.00016670885011587744,-0.012963207328435186,-0.007990980583589553, ,0.007941692621747418, ,0.012964278495219321, ,3.953879709252591e-05, ,0.2051543988037741,-0.18903705529526754,0.09877600171,2.270942087937399,0.9997692687837277,-0.8860602690485828, ,0.017831067560779925,0.002086761791981489,0.0076913623949782725,0.01154073487127539,0.0027274260266350603,0.0035363804065824994, ,1.546389102935791
0.011736850913133612,0.021412924908708678,-0.0850705163646439, ,0.012006576574833686,0.02129552626057038,-0.08533334321294438, ,0.00039447728369553214, ,0.0033339374776635506,0.0013623198325096453,-0.008544103589666422,-0.002375812144420304,-0.012905943722129255,0.0007180248739320837, ,0.009272149728189755, ,0.013122797764603634, ,3.990129498006593e-05, ,0.20532429892700704,-0.18899844163089644,0.09885637169000001,2.2711517778808834,0.9999059052834932,-0.8860083294719981, ,0.017851192919200672,0.004221867440061528,0.009055606321773737,0.0024294926413695886,0.0052007132897625655,0.0031691533822544083, ,1.5528929233551025
0.011736850913133612,0.021412924908708678,-0.0850705163646439, ,0.01202798116186753,0.02129919737880402,-0.08537947065762544, ,0.00043948097562671864, ,0.0033339374776635506,0.0013623198325096453,-0.008544103589666422,-0.002375812144420304,-0.012905943722129255,0.0007180248739320837, ,0.009272149728189755, ,0.013122797764603634, ,4.0319851381488074e-05, ,0.20532429892700704,-0.18899844163089644,0.09885637169000001,2.2711517778808834,0.9999059052834932,-0.8860083294719981, ,0.017851192919200672,0.004221867440061528,0.009055606321773737,0.0024294926413695886,0.0052007132897625655,0.0031691533822544083, ,1.5584180355072021
0.011770842046768926,0.021430489574315842,-0.08515641185626772, ,0.012049434485969027,0.021302772748019876,-0.08542556489834194, ,0.00040788318788150495, ,0.0032842814417011856,0.0015582593112071397,-0.008670855538970899,0.02959015424429525,0.005889648154390756,-0.01861618661389166, ,0.009402042993252525, ,0.03017060050066746, ,4.0693936953505075e-05, ,0.20550192178311422,-0.1889598279665253,0.09895100086000001,2.2715711577678523,1.0003158147827895,-0.8862609044429468, ,0.017596317737524715,0.003921487272062755,0.009419758438793615,0.012191413878832455,0.03290589188932999,-0.01907112872146483, ,1.564094066619873
0.011770842046768926,0.021430489574315842,-0.08515641185626772, ,0.01207093633330689,0.021306252840275933,-0.08547162608447159, ,0.000452605077920909, ,0.0031133443029091558,0.0015188454957910872,-0.00835222258279457,0.053014171965689125,0.019322312251089675,-0.02707400066333324, ,0.009042091929475467, ,0.05642565142992124, ,4.11231879496874e-05, ,0.20557142637898224,-0.18894438250077686,0.09898988956000002,2.2715711577678523,1.0005890877823205,-0.8864020615101992, ,0.01735179037456039,0.004411446490192208,0.009239449837587009,0.012191413878832455,0.054919298310537844,-0.03725209521178064, ,1.571362018585205
0.011783167897106532,0.02143692638116781,-0.08519134752844694, ,0.012092486490491671,0.02130963812677654,-0.08551765436491965, ,0.0004672862542901998, ,0.0031133443029091558,0.0015188454957910872,-0.00835222258279457,0.053014171965689125,0.019322312251089675,-0.02707400066333324, ,0.009042091929475467, ,0.05642565142992124, ,4.156809958027102e-05, ,0.20557142637898224,-0.18894438250077686,0.09898988956000002,2.2715711577678523,1.0005890877823205,-0.8864020615101992, ,0.01735179037456039,0.004411446490192208,0.009239449837587009,0.012191413878832455,0.054919298310537844,-0.03725209521178064, ,1.5781989097595215
0.0118331977611833,0.021455824916428147,-0.08531600964590795, ,0.012114084744581675,0.021312929077875097,-0.08556364988811949, ,0.00040080220518480953, ,0.003111310852188776,0.0009422671534564052,-0.007045758874245264,-0.04103870825540976,-0.01695995872458475,0.024607485533994226, ,0.007759564467251778, ,0.04440513211160047, ,4.1923895851461744e-05, ,0.20585716749532854,-0.18886715517203462,0.09912340743,2.2715711577678523,1.0008623607818512,-0.8859714673964675, ,0.017479635579014694,0.005482924926584279,0.0073404661382488485,0.010219865114170074,-0.014073870806745494,0.049910508981267615, ,1.5841279029846191
0.011864523384578506,0.0214641447698269,-0.08538046449917391, ,0.012135730883077369,0.021316126163072602,-0.08560961280203237, ,0.0003846712361100146, ,0.0030031064280591335,0.0006207088732182043,-0.005885269007329115,-0.01862109692829793,-0.010557191012350638,0.02005604429052689, ,0.006636288044695658, ,0.02140559566617772, ,4.2256244437540857e-05, ,0.20604251308430993,-0.18880537330904082,0.09919081451000002,2.271780847711337,1.000725724282086,-0.8854516557920683, ,0.02033796432886215,0.006706035628484588,0.0062736555809373784,0.001745311961111669,0.005919691190502201,0.027242621317045877, ,1.5906109809875488
0.011864523384578506,0.0214641447698269,-0.08538046449917391, ,0.012157424693921382,0.02131922985101866,-0.08565554325414952, ,0.0004271531717626601, ,0.0030031064280591335,0.0006207088732182043,-0.005885269007329115,-0.01862109692829793,-0.010557191012350638,0.02005604429052689, ,0.006636288044695658, ,0.02140559566617772, ,4.264036776036699e-05, ,0.20604251308430993,-0.18880537330904082,0.09919081451000002,2.271780847711337,1.000725724282086,-0.8854516557920683, ,0.02033796432886215,0.006706035628484588,0.0062736555809373784,0.001745311961111669,0.005919691190502201,0.027242621317045877, ,1.596308946609497
0.011864523384578506,0.0214641447698269,-0.08538046449917391, ,0.012179165965500342,0.021322240609512773,-0.08570144139149093, ,0.00047134160631658495, ,0.0030031064280591335,0.0006207088732182043,-0.005885269007329115,-0.01862109692829793,-0.010557191012350638,0.02005604429052689, ,0.006636288044695658, ,0.02140559566617772, ,4.313279234046374e-05, ,0.20626647233766243,-0.18874359144604702,0.09925822159000001,2.271780847711337,1.0011356337813822,-0.885704230763017, ,0.021406934707527806,0.006376968925367344,0.007142964807174889,0.001745311961111669,0.029622311917870254,-0.004767852310353982, ,1.6000969409942627
0.011895289809437751,0.02147216454141017,-0.08544096648752479, ,0.012200954486646376,0.02132515890550552,-0.08574730736060666, ,0.0004570407885532172, ,0.0031440757956473597,0.000850938309537411,-0.0065304137732365135,0.014734866706638981,0.0002802922921919869,0.0013242597768928083, ,0.007297644323005275, ,0.014737531976371392, ,4.3604516518418305e-05, ,0.20626647233766243,-0.18874359144604702,0.09925822159000001,2.271780847711337,1.0011356337813822,-0.885704230763017, ,0.021406934707527806,0.006376968925367344,0.007142964807174889,0.001745311961111669,0.029622311917870254,-0.004767852310353982, ,1.6045210361480713
0.011895289809437751,0.02147216454141017,-0.08544096648752479, ,0.012222790046627565,0.021327985205096194,-0.08579314130757743, ,0.0005020669181079627, ,0.0031440757956473597,0.000850938309537411,-0.0065304137732365135,0.014734866706638981,0.0002802922921919869,0.0013242597768928083, ,0.007297644323005275, ,0.014737531976371392, ,4.413098591571669e-05, ,0.20626647233766243,-0.18874359144604702,0.09925822159000001,2.271780847711337,1.0011356337813822,-0.885704230763017, ,0.021406934707527806,0.006376968925367344,0.007142964807174889,0.001745311961111669,0.029622311917870254,-0.004767852310353982, ,1.6082499027252197
0.011930618364337472,0.021482288844284127,-0.08551405153694469, ,0.012244672435157793,0.0213307199735367,-0.08583894337801506, ,0.0004766107325402593, ,0.0035849706896485963,0.0010313243834371756,-0.007603558212257345,0.06048198135871273,0.020126026633958467,-0.03800784045710436, ,0.008469341315397422, ,0.06374266225795575, ,4.46225666254747e-05, ,0.20649815432388915,-0.18865864138443056,0.09933729528000002,2.2719905376548213,1.0016821797804438,-0.886068223637662, ,0.02424551393931292,0.009184557350892726,0.008445817348886534,0.019495325057414133,0.06536967772023337,-0.04464950306861506, ,1.6126480102539062
0.011930618364337472,0.021482288844284127,-0.08551405153694469, ,0.012266601442394161,0.0213333636752316,-0.08588471371706244, ,0.0005219710590515655, ,0.0035849706896485963,0.0010313243834371756,-0.007603558212257345,0.06048198135871273,0.020126026633958467,-0.03800784045710436, ,0.008469341315397422, ,0.06374266225795575, ,4.516893774390982e-05, ,0.20649815432388915,-0.18865864138443056,0.09933729528000002,2.2719905376548213,1.0016821797804438,-0.886068223637662, ,0.02424551393931292,0.009184557350892726,0.008445817348886534,0.019495325057414133,0.06536967772023337,-0.04464950306861506, ,1.6175119876861572
0.011969462898615835,0.021494144824870578,-0.08560271607327306, ,0.01228857685893027,0.02133591677373639,-0.08593045246939485, ,0.0004840258063122049, ,0.004145490206163601,0.001313696313249159,-0.010192713956388521,0.023035582318463255,-0.0018494800326430854,-0.017470090181608697, ,0.011081620136496292, ,0.023109706167053087, ,4.5664766372152115e-05, ,0.2067298363101159,-0.18857369132281407,0.09943451703000002,2.2722002275983058,1.0018188162802093,-0.8860162840610774, ,0.023665072707848074,0.009746029743489506,0.010940117802197802,0.008733461488138207,0.03176769576899962,-0.019936670857700158, ,1.6215019226074219
0.011969462898615835,0.021494144824870578,-0.08560271607327306, ,0.012310598475803965,0.02133837973176109,-0.08597615977921962, ,0.0005292413889389046, ,0.004145490206163601,0.001313696313249159,-0.010192713956388521,0.023035582318463255,-0.0018494800326430854,-0.017470090181608697, ,0.011081620136496292, ,0.023109706167053087, ,4.6214906895009646e-05, ,0.2067298363101159,-0.18857369132281407,0.09943451703000002,2.2722002275983058,1.0018188162802093,-0.8860162840610774, ,0.023665072707848074,0.009746029743489506,0.010940117802197802,0.008733461488138207,0.03176769576899962,-0.019936670857700158, ,1.6255841255187988
0.011969462898615835,0.021494144824870578,-0.08560271607327306, ,0.012332666084491658,0.0213407530111688,-0.08602183579027739, ,0.0005754189255862684, ,0.004145490206163601,0.001313696313249159,-0.010192713956388521,0.023035582318463255,-0.0018494800326430854,-0.017470090181608697, ,0.011081620136496292, ,0.023109706167053087, ,4.682015640853878e-05, ,0.2067298363101159,-0.18857369132281407,0.09943451703000002,2.2722002275983058,1.0018188162802093,-0.8860162840610774, ,0.023665072707848074,0.009746029743489506,0.010940117802197802,0.008733461488138207,0.03176769576899962,-0.019936670857700158, ,1.6294920444488525
0.012015736907385156,0.02150861376466827,-0.08571757635781488, ,0.012354779476909815,0.021343037072977154,-0.08606748064584219, ,0.0005145857708498707, ,0.004344776403254328,0.0014509575927865413,-0.011295902756400172,-0.00013707911902214362,-0.005341353519292763,-1.729114156682381e-05, ,0.012189330539959508, ,0.005343095001326047, ,4.734633823107977e-05, ,0.20696924102921685,-0.18846557306257494,0.09955507200000001,2.2724099175417907,1.0018188162802093,-0.8856078903603745, ,0.022713485294033216,0.01012767067617727,0.011976550015037595,0.008537137510079094,0.019483542553442944,0.006283363836579677, ,1.6333770751953125
0.012015736907385156,0.02150861376466827,-0.08571757635781488, ,0.012376938445416832,0.021345232377359503,-0.08611309448872166, ,0.0005599951970074214, ,0.004344776403254328,0.0014509575927865413,-0.011295902756400172,-0.00013707911902214362,-0.005341353519292763,-1.729114156682381e-05, ,0.012189330539959508, ,0.005343095001326047, ,4.792651593749531e-05, ,0.20696924102921685,-0.18846557306257494,0.09955507200000001,2.2724099175417907,1.0018188162802093,-0.8856078903603745, ,0.022713485294033216,0.01012767067617727,0.011976550015037595,0.008537137510079094,0.019483542553442944,0.006283363836579677, ,1.6373100280761719
0.012061600730413388,0.021523528064613794,-0.08583268853491151, ,0.012399142782806889,0.02134733938364381,-0.08615867746125844, ,0.0005012443202040125, ,0.004821592565024323,0.001438010081379817,-0.011812162601079338,-0.02716550628943324,-0.014332090733311742,0.002464662762123715, ,0.012839112631782043, ,0.03071438306057733, ,4.8430733957805044e-05, ,0.20720864574831782,-0.1883574548023358,0.09967692326000001,2.272619607485275,1.0019554527799748,-0.8853109145633682, ,0.02511830110070693,0.011772353499376104,0.012395962272373542,0.023459385667293487,0.0,0.034775193234446916, ,1.6410679817199707
0.012061600730413388,0.021523528064613794,-0.08583268853491151, ,0.012421392282315952,0.021349358550315212,-0.08620422970532965, ,0.0005457360367862295, ,0.004821592565024323,0.001438010081379817,-0.011812162601079338,-0.02716550628943324,-0.014332090733311742,0.002464662762123715, ,0.012839112631782043, ,0.03071438306057733, ,4.8987650296354204e-05, ,0.20720864574831782,-0.1883574548023358,0.09967692326000001,2.272619607485275,1.0019554527799748,-0.8853109145633682, ,0.02511830110070693,0.011772353499376104,0.012395962272373542,0.023459385667293487,0.0,0.034775193234446916, ,1.6448020935058594
0.012061600730413388,0.021523528064613794,-0.08583268853491151, ,0.012443686737616795,0.021351290335015143,-0.08624975136234797, ,0.0005912672445072838, ,0.004821592565024323,0.001438010081379817,-0.011812162601079338,-0.02716550628943324,-0.014332090733311742,0.002464662762123715, ,0.012839112631782043, ,0.03071438306057733, ,4.959816012793164e-05, ,0.20720864574831782,-0.1883574548023358,0.09967692326000001,2.272619607485275,1.0019554527799748,-0.8853109145633682, ,0.02511830110070693,0.011772353499376104,0.012395962272373542,0.023459385667293487,0.0,0.034775193234446916, ,1.6485419273376465
0.01211052236646859,0.021537941173603747,-0.08595649882966905, ,0.012466025942820936,0.021353135194542697,-0.0862952425732624, ,0.0005246745338966464, ,0.005103619013100731,0.0015167622086031266,-0.013000344105282119,0.03756533129198533,0.014720276418864617,-0.023826446498364795, ,0.0140483608112859, ,0.04034650271810745, ,5.0123441873167174e-05, ,0.20747894139891568,-0.18821072287772553,0.09981044113000001,2.272829297428759,1.0025019987790367,-0.8856749074380135, ,0.028067714155122974,0.015164100600586573,0.01403419517180617,0.01903437694844905,0.05808647045976899,-0.022952762030139427, ,1.6530249118804932
0.01211052236646859,0.021537941173603747,-0.08595649882966905, ,0.012488409692478889,0.02135489358485533,-0.08634070347855775, ,0.0005691383514871556, ,0.005103619013100731,0.0015167622086031266,-0.013000344105282119,0.03756533129198533,0.014720276418864617,-0.023826446498364795, ,0.0140483608112859, ,0.04034650271810745, ,5.070089441964602e-05, ,0.20747894139891568,-0.18821072287772553,0.09981044113000001,2.272829297428759,1.0025019987790367,-0.8856749074380135, ,0.028067714155122974,0.015164100600586573,0.01403419517180617,0.01903437694844905,0.05808647045976899,-0.022952762030139427, ,1.6568710803985596
0.012155439594395662,0.02155256209377622,-0.0860717168237102, ,0.01251083778157497,0.021356565961068524,-0.08638613421825624, ,0.0005134010649383449, ,0.005391606962954013,0.0017869314154140385,-0.013106629119401662,0.06591645029121504,0.02156564699701128,-0.03715708171254255, ,0.014284476763253017, ,0.0693545612243485, ,5.1207036036475324e-05, ,0.20774151431663931,-0.18809488188461215,0.09993618126,2.272829297428759,1.0031851812778638,-0.8861503182163549, ,0.03194107760298579,0.013160025177987904,0.01437618368231047,0.01903437694844905,0.07820236564587048,-0.047490721191013704, ,1.6618430614471436
0.012155439594395662,0.02155256209377622,-0.0860717168237102, ,0.012533310005534133,0.021358152777457715,-0.08643153493191709, ,0.000556821426382793, ,0.005391606962954013,0.0017869314154140385,-0.013106629119401662,0.06591645029121504,0.02156564699701128,-0.03715708171254255, ,0.014284476763253017, ,0.0693545612243485, ,5.1763907794207975e-05, ,0.20774151431663931,-0.18809488188461215,0.09993618126,2.272829297428759,1.0031851812778638,-0.8861503182163549, ,0.03194107760298579,0.013160025177987904,0.01437618368231047,0.01903437694844905,0.07820236564587048,-0.047490721191013704, ,1.6659259796142578
0.012155439594395662,0.02155256209377622,-0.0860717168237102, ,0.012555826160218048,0.02135965448745852,-0.08647690575863781, ,0.000601415679587786, ,0.005391606962954013,0.0017869314154140385,-0.013106629119401662,0.06591645029121504,0.02156564699701128,-0.03715708171254255, ,0.014284476763253017, ,0.0693545612243485, ,5.237257266462285e-05, ,0.20774151431663931,-0.18809488188461215,0.09993618126,2.272829297428759,1.0031851812778638,-0.8861503182163549, ,0.03194107760298579,0.013160025177987904,0.01437618368231047,0.01903437694844905,0.07820236564587048,-0.047490721191013704, ,1.669801950454712
0.012220255941356301,0.021568309082158916,-0.08621646847716273, ,0.01257838604192112,0.021361071543666076,-0.08652224683705441, ,0.0005144948704012345, ,0.005421002478392197,0.001058666614120957,-0.011828363611641073,-0.002299524869871974,-0.013772602063490185,-0.00739306575591437, ,0.013054433292938584, ,0.013963242842830289, ,5.2872267451296005e-05, ,0.20812765096035055,-0.18792498176137923,0.10009043977000001,2.273038987372244,1.0034584542773946,-0.8859647603230449, ,0.03307666140065207,0.016127964234954245,0.0125621541955836,0.013393441718346583,0.021490810684749426,0.0037323416361465, ,1.673509120941162
0.012220255941356301,0.021568309082158916,-0.08621646847716273, ,0.012600989447379021,0.021362404397838018,-0.08656755830534128, ,0.0005573318662018946, ,0.005421002478392197,0.001058666614120957,-0.011828363611641073,-0.002299524869871974,-0.013772602063490185,-0.00739306575591437, ,0.013054433292938584, ,0.013963242842830289, ,5.3421643766745284e-05, ,0.20812765096035055,-0.18792498176137923,0.10009043977000001,2.273038987372244,1.0034584542773946,-0.8859647603230449, ,0.03307666140065207,0.016127964234954245,0.0125621541955836,0.013393441718346583,0.021490810684749426,0.0037323416361465, ,1.6772499084472656
0.012274492516956045,0.021576585066045074,-0.08633167998666628, ,0.012623636173758305,0.021363653500892574,-0.08661284030121266, ,0.0004962784168179852, ,0.005453420810811737,0.000653353907759795,-0.011284131069239412,-0.03112452298174682,-0.013176805361534684,0.014508101310225313, ,0.013054433292938584, ,0.013963244582580407, ,5.389425921490608e-05, ,0.20845200574106795,-0.18774735890527205,0.10021099474,2.2732486773157285,1.0034584542773946,-0.8854746878822015, ,0.03403764044421476,0.019434147359916196,0.011887172776119406,0.017904909960123776,0.013404308294610132,0.040652793650364935, ,1.6819510459899902
0.012274492516956045,0.021576585066045074,-0.08633167998666628, ,0.01264632601866184,0.021364819302910804,-0.08665809296192258, ,0.0005381917147655631, ,0.005453420810811737,0.000653353907759795,-0.011284131069239412,-0.03112452298174682,-0.013176805361534684,0.014508101310225313, ,0.012549832025025425, ,0.03379887494316346, ,5.441532845986462e-05, ,0.20845200574106795,-0.18774735890527205,0.10021099474,2.2732486773157285,1.0034584542773946,-0.8854746878822015, ,0.03403764044421476,0.019434147359916196,0.011887172776119406,0.017904909960123776,0.013404308294610132,0.040652793650364935, ,1.6858019828796387
0.012274492516956045,0.021576585066045074,-0.08633167998666628, ,0.01266905878012921,0.02136590225313694,-0.08670331642426546, ,0.0005815354034284783, ,0.005453420810811737,0.000653353907759795,-0.011284131069239412,-0.03112452298174682,-0.013176805361534684,0.014508101310225313, ,0.012549832025025425, ,0.03379887494316346, ,5.505271670045545e-05, ,0.20845200574106795,-0.18774735890527205,0.10021099474,2.2732486773157285,1.0034584542773946,-0.8854746878822015, ,0.03403764044421476,0.019434147359916196,0.011887172776119406,0.017904909960123776,0.013404308294610132,0.040652793650364935, ,1.6877250671386719
0.012274492516956045,0.021576585066045074,-0.08633167998666628, ,0.012691834256632057,0.02136690279997851,-0.08674851082457655, ,0.0006260101659011457, ,0.005453420810811737,0.000653353907759795,-0.011284131069239412,-0.03112452298174682,-0.013176805361534684,0.014508101310225313, ,0.012549832025025425, ,0.03379887494316346, ,5.574227883717125e-05, ,0.20845200574106795,-0.18774735890527205,0.10021099474,2.2732486773157285,1.0034584542773946,-0.8854746878822015, ,0.03403764044421476,0.019434147359916196,0.011887172776119406,0.017904909960123776,0.013404308294610132,0.040652793650364935, ,1.6896510124206543
0.01232900532056851,0.021582518553075324,-0.08643895734293472, ,0.012714652247078505,0.021367821391007742,-0.08679367629873255, ,0.0005662543253069106, ,0.005440400368647597,0.0004610057200689511,-0.010411662544288675,-0.019240477026372556,-0.014496718933372198,0.0012474675901841038, ,0.011756410990657861, ,0.024090468938701957, ,5.635809553978855e-05, ,0.20881497418615652,-0.18754656785054222,0.10032636455,2.273458367259213,1.003868363776691,-0.8854822266327285, ,0.035959432193433415,0.01995309957074659,0.011031032908587259,0.019609242769653104,0.017730448034438667,0.024568847961514064, ,1.6915390491485596
0.01232900532056851,0.021582518553075324,-0.08643895734293472, ,0.012737512550809212,0.021368658472961377,-0.08683881298215208, ,0.000610326816745914, ,0.005440400368647597,0.0004610057200689511,-0.010411662544288675,-0.019240477026372556,-0.014496718933372198,0.0012474675901841038, ,0.011756410990657861, ,0.024090468938701957, ,5.70255277340128e-05, ,0.20881497418615652,-0.18754656785054222,0.10032636455,2.273458367259213,1.003868363776691,-0.8854822266327285, ,0.035959432193433415,0.01995309957074659,0.011031032908587259,0.019609242769653104,0.017730448034438667,0.024568847961514064, ,1.6934340000152588
0.01232900532056851,0.021582518553075324,-0.08643895734293472, ,0.012760414967596403,0.021369414491741196,-0.08688392100979621, ,0.0006553779744030568, ,0.005440400368647597,0.0004610057200689511,-0.010411662544288675,-0.019240477026372556,-0.014496718933372198,0.0012474675901841038, ,0.011756410990657861, ,0.024090468938701957, ,5.774556677934257e-05, ,0.20881497418615652,-0.18754656785054222,0.10032636455,2.273458367259213,1.003868363776691,-0.8854822266327285, ,0.035959432193433415,0.01995309957074659,0.011031032908587259,0.019609242769653104,0.017730448034438667,0.024568847961514064, ,1.6955609321594238
0.01232900532056851,0.021582518553075324,-0.08643895734293472, ,0.012783359297650159,0.021370089892416292,-0.08692900051616861, ,0.0007012173585932162, ,0.005440400368647597,0.0004610057200689511,-0.010411662544288675,-0.019240477026372556,-0.014496718933372198,0.0012474675901841038, ,0.011756410990657861, ,0.024090468938701957, ,5.851897037527271e-05, ,0.20881497418615652,-0.18754656785054222,0.10032636455,2.273458367259213,1.003868363776691,-0.8854822266327285, ,0.035959432193433415,0.01995309957074659,0.011031032908587259,0.019609242769653104,0.017730448034438667,0.024568847961514064, ,1.697901964187622
0.01232900532056851,0.021582518553075324,-0.08643895734293472, ,0.012806345341608323,0.0213706851192211,-0.08697405163531677, ,0.0007476983356438663, ,0.005440400368647597,0.0004610057200689511,-0.010411662544288675,-0.019240477026372556,-0.014496718933372198,0.0012474675901841038, ,0.011756410990657861, ,0.024090468938701957, ,5.934631655206573e-05, ,0.20881497418615652,-0.18754656785054222,0.10032636455,2.273458367259213,1.003868363776691,-0.8854822266327285, ,0.035959432193433415,0.01995309957074659,0.011031032908587259,0.019609242769653104,0.017730448034438667,0.024568847961514064, ,1.7007989883422852
0.01232900532056851,0.021582518553075324,-0.08643895734293472, ,0.012829372900541584,0.021371200615557643,-0.08701907450083173, ,0.0007947068029728557, ,0.005440400368647597,0.0004610057200689511,-0.010411662544288675,-0.019240477026372556,-0.014496718933372198,0.0012474675901841038, ,0.011756410990657861, ,0.024090468938701957, ,0.0003326502549062491, ,0.20881497418615652,-0.18754656785054222,0.10032636455,2.273458367259213,1.003868363776691,-0.8854822266327285, ,0.035959432193433415,0.01995309957074659,0.011031032908587259,0.019609242769653104,0.017730448034438667,0.024568847961514064, ,1.7029430866241455
0.012397129645047827,0.021589340554292562,-0.08657755635668368, ,0.012852441775956217,0.021371636823996714,-0.0870640692458488, ,0.00070099846081204, ,0.006144196285309575,0.0007995985188550261,-0.013519219367901614,0.06443202244031615,0.0200347827054227,-0.04198563199619, ,0.014871442367881243, ,0.06747501450313738, ,0.00033507359836615564, ,0.20927833815861,-0.18726854946707014,0.10047803048000001,2.2736680572026975,1.004824819275049,-0.8859354369980412, ,0.03940902888640813,0.02513826266449557,0.014721637264325326,0.018272786940397367,0.08817831399398282,-0.05485124876639152, ,1.7049310207366943
0.012397129645047827,0.021589340554292562,-0.08657755635668368, ,0.012875551769785738,0.021371994186276392,-0.08710903600304834, ,0.0007473939975865864, ,0.006144196285309575,0.0007995985188550261,-0.013519219367901614,0.06443202244031615,0.0200347827054227,-0.04198563199619, ,0.014871442367881243, ,0.06747501450313738, ,0.0003377685029362238, ,0.20927833815861,-0.18726854946707014,0.10047803048000001,2.2736680572026975,1.004824819275049,-0.8859354369980412, ,0.03940902888640813,0.02513826266449557,0.014721637264325326,0.018272786940397367,0.08817831399398282,-0.05485124876639152, ,1.7069909572601318
0.012397129645047827,0.021589340554292562,-0.08657755635668368, ,0.012898702684398435,0.021372273143305098,-0.08715397490465614, ,0.0007943249443161656, ,0.006144196285309575,0.0007995985188550261,-0.013519219367901614,0.06443202244031615,0.0200347827054227,-0.04198563199619, ,0.014871442367881243, ,0.06747501450313738, ,0.0003407331551529767, ,0.20927833815861,-0.18726854946707014,0.10047803048000001,2.2736680572026975,1.004824819275049,-0.8859354369980412, ,0.03940902888640813,0.02513826266449557,0.014721637264325326,0.018272786940397367,0.08817831399398282,-0.05485124876639152, ,1.7090508937835693
0.012397129645047827,0.021589340554292562,-0.08657755635668368, ,0.012921894322589835,0.021372474135159865,-0.08719888608244368, ,0.0008417004447285265, ,0.006144196285309575,0.0007995985188550261,-0.013519219367901614,0.06443202244031615,0.0200347827054227,-0.04198563199619, ,0.014871442367881243, ,0.06747501450313738, ,0.00034396520218249634, ,0.20927833815861,-0.18726854946707014,0.10047803048000001,2.2736680572026975,1.004824819275049,-0.8859354369980412, ,0.03940902888640813,0.02513826266449557,0.014721637264325326,0.018272786940397367,0.08817831399398282,-0.05485124876639152, ,1.7109529972076416
0.012397129645047827,0.021589340554292562,-0.08657755635668368, ,0.012945126487588825,0.021372597601088797,-0.08724376966772904, ,0.0008894482688793132, ,0.007256975855658914,0.0013642257251903532,-0.016711760399836007,-0.011199493691918359,-0.001896205681784429,0.0010764237239739819, ,0.0182704062916076, ,0.011358827027605033, ,0.00034746188850747595, ,0.20967219753519545,-0.18702914474796917,0.10063488157000001,2.273877747146182,1.0053713652741108,-0.8859727149121241, ,0.04104538994743546,0.024559249885732604,0.017465802105263162,0.027551932043011425,0.04193917110692344,0.023096395234196695, ,1.7134439945220947
0.012462437779100291,0.02159973430912611,-0.08672409456332975, ,0.012968398983051872,0.021372643979510553,-0.0872886257913768, ,0.0007913673389452948, ,0.007256975855658914,0.0013642257251903532,-0.016711760399836007,-0.011199493691918359,-0.001896205681784429,0.0010764237239739819, ,0.0182704062916076, ,0.011358827027605033, ,0.00035028931175867226, ,0.20967219753519545,-0.18702914474796917,0.10063488157000001,2.273877747146182,1.0053713652741108,-0.8859727149121241, ,0.04104538994743546,0.024559249885732604,0.017465802105263162,0.027551932043011425,0.04193917110692344,0.023096395234196695, ,1.7154760360717773
0.012462437779100291,0.02159973430912611,-0.08672409456332975, ,0.012991711613067742,0.021372613708015784,-0.08733345458379903, ,0.0008384713431702031, ,0.007256975855658914,0.0013642257251903532,-0.016711760399836007,-0.011199493691918359,-0.001896205681784429,0.0010764237239739819, ,0.0182704062916076, ,0.011358827027605033, ,0.0003533790714511503, ,0.20967219753519545,-0.18702914474796917,0.10063488157000001,2.273877747146182,1.0053713652741108,-0.8859727149121241, ,0.04104538994743546,0.024559249885732604,0.017465802105263162,0.027551932043011425,0.04193917110692344,0.023096395234196695, ,1.7173810005187988
0.012462437779100291,0.02159973430912611,-0.08672409456332975, ,0.013015064182152477,0.021372507223367063,-0.0873782561749557, ,0.0008859771464197128, ,0.007256975855658914,0.0013642257251903532,-0.016711760399836007,-0.011199493691918359,-0.001896205681784429,0.0010764237239739819, ,0.0182704062916076, ,0.011358827027605033, ,0.0003567287448786255, ,0.20967219753519545,-0.18702914474796917,0.10063488157000001,2.273877747146182,1.0053713652741108,-0.8859727149121241, ,0.04104538994743546,0.024559249885732604,0.017465802105263162,0.027551932043011425,0.04193917110692344,0.023096395234196695, ,1.7193078994750977
0.012462437779100291,0.02159973430912611,-0.08672409456332975, ,0.01303845649525311,0.02137232496149997,-0.08742303069435516, ,0.0009338224070982962, ,0.007256975855658914,0.0013642257251903532,-0.016711760399836007,-0.011199493691918359,-0.001896205681784429,0.0010764237239739819, ,0.0182704062916076, ,0.011358827027605033, ,0.0003603355802674985, ,0.20967219753519545,-0.18702914474796917,0.10063488157000001,2.273877747146182,1.0053713652741108,-0.8859727149121241, ,0.04104538994743546,0.024559249885732604,0.017465802105263162,0.027551932043011425,0.04193917110692344,0.023096395234196695, ,1.7212390899658203
