NicholasDascanio/dvrk_moveit_final/test/execution/third_experiment_notsharpbends/thirdexp_600vel3.0/thirdexp_600vel3.0_11.csv
Current Position (x),Current Position (y),Current Position (z), ,Planned Position (x),Planned Position (y),Planned Position (z), ,Position Error,,Cartesian linear Velocity(x),Cartesian linear Velocity(y),Cartesian linear Velocity(z),Cartesian Angular Velocity(x),Cartesian Angular Velocity(y),Cartesian Angular Velocity(z), ,Total Linear Velocity, ,Total Angular Velocity, ,MSE, ,Joint 1 Position,Joint 2 Position,Joint 3 Position,Joint 4 Position,Joint 5 Position,Joint 6 Position, ,Joint 1 Velocity,Joint 2 Velocity,Joint 3 Velocity,Joint 4 Velocity,Joint 5 Velocity,Joint 6 Velocity, ,Time Stamp
0.010140231533129571,0.02058822056724116,-0.07976018925151795, ,0.010255994094199966,0.02045417483486579,-0.07979747204694027, ,0.00018099512631043017, ,-9.345033146623341e-06,-9.801196042234827e-05,-2.6487558254562968e-05,0.048629374896999894,-0.01358093297319773,-0.03799389617705114, ,0.00010195717126633281, ,0.05049017571068111, ,1.5082927192535847e-05, ,0.19359346769106,-0.2146379147733218,0.09169177686,2.0824308287448114,0.7475382902167248,-0.9455936880613945, ,-0.00012099578127946975,0.001122864162413358,0.0,-0.0015054846490568277,0.0,-0.06495226365142148, ,0.021183013916015625
0.010145036561920805,0.02058829969859133,-0.07976816304866499, ,0.010269606484455006,0.020458577267785945,-0.07982482844097039, ,0.0001885644222523419, ,0.00017346357804026437,9.224093085237014e-05,-0.0006801079157809169,0.28566130668644885,-0.07758013907149432,-0.2232329007493377, ,0.0007079157996110169, ,0.2960085473701083, ,1.679816129830782e-05, ,0.19359346769106,-0.2146379147733218,0.09169696202000001,2.0824308287448114,0.7469917442176629,-0.9501304195951831, ,0.0005442713983045838,0.000614615949678828,0.0006996139985945187,-0.0014171043697703977,0.0,-0.3719896752213505, ,0.03974199295043945
0.010156208668570045,0.020586835166481198,-0.07978055291597076, ,0.010283271563695582,0.020462925743507072,-0.07985240539420027, ,0.00019147141574445565, ,0.0013236446200136692,-0.00042035787263477363,-0.0009316162184819681,0.1421078881167925,-0.22054925841162043,-0.2269752921520377, ,0.001672317134910662, ,0.2623673517245044, ,1.7532217634600866e-05, ,0.19360119042393423,-0.2146379147733218,0.09170214718000001,2.0824308287448114,0.7456253792200086,-0.9535085712659499, ,0.00043259185336258596,0.00048544144475705104,-0.00010469616422902124,-0.0013815571254779224,-0.18683655518493503,-0.2930812312119202, ,0.06049203872680664
0.010190621179833534,0.020580700644408444,-0.07981688417087933, ,0.010296989225693502,0.020467220480015088,-0.07988020196028361, ,0.0001679316865450253, ,0.0007266283845043503,-3.978328748882365e-05,-0.0009413677567348477,0.1713290839695797,-0.12379602015984642,-0.18042204733089834, ,0.0011898507354079417, ,0.2113743352946891, ,1.735625359172031e-05, ,0.19361663588968267,-0.2146301920404476,0.09171511008000001,2.0824308287448114,0.7412530112275144,-0.9590912172434074, ,0.0009631475164591418,0.0,0.0005443764273451989,-0.0012840939462009954,-0.07833033580667602,-0.26705708943900364, ,0.08064103126525879
0.010197850788772077,0.020580796210416495,-0.07982880878068475, ,0.010310759364335904,0.02047146169497463,-0.07990821719445546, ,0.00017609110960051044, ,0.0006464916549952916,-0.00016575640446654284,-0.0004488761194930875,0.007546049989373501,-0.08433987827287678,-0.0566389611528694, ,0.0008043111439308794, ,0.08467678511567252, ,1.7404880008706992e-05, ,0.19361663588968267,-0.2146301920404476,0.09172288782000002,2.0824308287448114,0.7404331922289218,-0.9614448232064297, ,0.0007821563141645147,9.671447555462014e-07,0.0,-0.001254519615447386,-0.08348755447812704,-0.058080662018015095, ,0.10011816024780273
0.010207696189783243,0.020578351138853833,-0.07983377671447699, ,0.010324581873625211,0.02047564960573042,-0.07993645015352996, ,0.0001864180867836287, ,-4.337697610719183e-05,5.9258680230820857e-05,0.00021259845808618488,-0.21947405101081738,0.09040883783341001,0.19203614279800696, ,0.00022492500443375762, ,0.23736599803991873, ,1.7604384632845037e-05, ,0.1936552495540538,-0.21462246930757334,0.09172288782000002,2.0824308287448114,0.7394767367305638,-0.956907675834089, ,0.0025568645953989158,9.401382622358204e-06,0.0,-0.0011973544342531092,0.03469389381768603,0.30330091030595807, ,0.12262415885925293
0.01019803714323023,0.020583601736629466,-0.07983536689810855, ,0.010338456647678997,0.020479784429306893,-0.07996489989590025, ,0.00021742692576185409, ,-0.00037613845780319535,0.00018716070087218073,-7.665403330988649e-06,0.051920599907555764,0.06410063243416696,0.011089723251717094, ,0.000420199983100617, ,0.08249024047255928, ,1.8179149624975644e-05, ,0.19366297228692803,-0.21461474657469912,0.09173455443,2.0824308287448114,0.7412530112275144,-0.9542721715751142, ,0.0014318870225124348,0.0008002683137741522,0.00047273580437723063,-0.0011402523514385014,0.08237712124950722,-0.02107133773432869, ,0.14165997505187988
0.010200287933543419,0.020586053988042006,-0.07984226190948489, ,0.010352383580729959,0.02048386638240724,-0.07999356548153669, ,0.0002376303085763535, ,8.414699827023961e-05,4.056214986811471e-05,-0.00029529117673911183,0.04151097962894844,-0.0012213629182420555,-0.026530617452365325, ,0.0003097141978982954, ,0.04152894360723647, ,1.8860110750909754e-05, ,0.19369386321842494,-0.21461474657469912,0.09174362846,2.0824308287448114,0.7415262842270453,-0.9545766861226476, ,0.001121910449363169,0.0008002683137741522,0.00036956718640586097,0.0008384804933143533,0.011432098557087378,-0.04794794533925875, ,0.16221213340759277
0.010205366411444795,0.02059174804129711,-0.07985279581409511, ,0.010366362567125887,0.020487895681415607,-0.08002244597198621, ,0.0002559028152825241, ,9.509653777238532e-05,2.1806021236479617e-06,-0.0007725320837557119,0.009043407838578077,-0.008844830199343836,0.011295590969002667, ,0.0007783661907828851, ,0.012649673774046704, ,1.9591651052794825e-05, ,0.1937170314170476,-0.2146070238418249,0.09175659136000001,2.083059898575265,0.7416629207268107,-0.955259855207328, ,0.00017625484844468466,0.0004744174331835906,0.0007566902280691214,-0.023086611277068052,0.0,-0.017929335877485235, ,0.18131113052368164
0.010212640510360874,0.02059444040926131,-0.07986731425055303, ,0.010380393501329634,0.020491872542395793,-0.08005154043037155, ,0.000269444834099361, ,0.0003288445207089619,6.618914709029556e-05,-0.0009159210458178845,-0.007347765217873648,-0.006409582698296595,0.02300672993022307, ,0.0009754132889011585, ,0.009750507887420646, ,2.0312516970161617e-05, ,0.19377109054716718,-0.21459930110895067,0.09177214684000001,2.083059898575265,0.7416629207268107,-0.955259855207328, ,0.0026311746626032258,0.0002594235528462819,0.0009395723346267722,-0.02159615140010385,0.0,0.003921805534517786, ,0.20276212692260742
0.010223376493677896,0.02059899632402636,-0.07989301593848264, ,0.010394476277918924,0.02049579718109245,-0.0800808479213895, ,0.00027423722043578425, ,0.0004314822539483001,0.00021601255422441475,-0.0014441280019038725,-0.003137971377411364,-0.005593699494703324,0.014439925131633814, ,0.0015226109302568837, ,0.006413761641674579, ,2.094744599457383e-05, ,0.1938405951430352,-0.21458385564320223,0.09179936893000001,2.083059898575265,0.7416629207268107,-0.9551781764671875, ,0.0023738178534354277,0.0002976001710269569,0.0014984648904140178,-0.015120759706265474,0.0,0.0, ,0.22261404991149902
0.01023595370682676,0.02060493150314744,-0.0799248517518862, ,0.010408610791586462,0.020499669812930187,-0.08011036751131054, ,0.0002744204608623449, ,0.0005510415487957925,0.0002525558252242862,-0.0017314651633485044,-0.0029902130483804535,-0.005553479502542292,0.011106570023958515, ,0.001834503432878622, ,0.006307337682754903, ,2.1479790264382083e-05, ,0.19391782247177744,-0.2145684101774538,0.09183307247000001,2.083059898575265,0.7416629207268107,-0.9551781764671875, ,0.0030179892472732943,0.0008544053024712534,0.0017992057803068171,-0.011815029577344994,0.0,-9.424209542168467e-05, ,0.24257612228393555
0.010249916659820158,0.020611072466894746,-0.07996049175673782, ,0.010422796937139765,0.020503490653014007,-0.08014009826797694, ,0.0002715141540389048, ,0.00045807444266161455,0.00012855594043765996,-0.001197237645904801,-0.0027439607229354027,-0.00516348694027119,0.008859709435519952, ,0.0012883077293927992, ,0.005847300046081397, ,2.190945883555696e-05, ,0.1940027725333939,-0.2145452419788311,0.09187066488000001,2.083059898575265,0.7416629207268107,-0.9550964977270469, ,0.003074438712764946,0.0010666453692746586,0.0012420236562484775,-0.009556361155288573,-2.7343507767825496e-05,-0.00014881455460135392, ,0.2639122009277344
0.010261687187088194,0.020614728082195492,-0.07998494514437517, ,0.010437034609501078,0.020507259916130293,-0.08017003926080306, ,0.0002766874720699899, ,0.00042399698888855286,0.00017054980104391732,-0.0013488074539120586,-0.002522858408454101,-0.004101293210654384,0.007621697939596315, ,0.0014241285858206097, ,0.004815124146312641, ,2.2315042523686682e-05, ,0.19408772259501036,-0.21452207378020843,0.09189659068000001,2.083059898575265,0.7416629207268107,-0.9550964977270469, ,0.0022394364526208263,0.001029131445285112,0.001393939649473941,-0.008253335660099293,-9.605586881917553e-05,-0.00011010009450819536, ,0.28346920013427734
0.010272341414277103,0.020619210303101328,-0.08001336366826065, ,0.010451323703707563,0.020510977816748103,-0.08020018956077361, ,0.000280451145737073, ,0.000438327198945338,0.00020572156442066463,-0.0014088609638437655,-0.0021839079549368728,-0.003903871177216732,0.006715361315412815, ,0.0014897453845693685, ,0.004473216305790443, ,2.2692020948030144e-05, ,0.19414950445800416,-0.21449890558158577,0.09192640535,2.083059898575265,0.7416629207268107,-0.9550964977270469, ,0.0022285624511390297,0.0008353743041821293,0.0014621354315041027,-0.007261959646252569,-0.00013189122667486513,-8.211985960304246e-05, ,0.30321598052978516
0.010283212947804508,0.020624588919373552,-0.08004286792169857, ,0.010465664114910848,0.02051464456901407,-0.0802305482404414, ,0.0002839015508901727, ,0.0005448182734992901,0.00023814843404533536,-0.0015687341250489085,-0.0021734367834990703,-0.004641760210446872,0.0059971345868359465, ,0.0016776377388667547, ,0.005125403915171376, ,2.3043757623399722e-05, ,0.19421128632099796,-0.2144834601158373,0.09195751631000001,2.083059898575265,0.7416629207268107,-0.9550964977270469, ,0.0031123099301307504,0.0009425648189998125,0.0016373479767562012,-0.006527467365270596,-0.00014902930686149537,-6.295556211224089e-05, ,0.3225240707397461
0.01029522640593991,0.020629896261487694,-0.08007493366441605, ,0.010480055738377346,0.020518260386760107,-0.08026111437392884, ,0.00028510999149477, ,0.0005426415214399229,0.00023621590111193487,-0.0015946867825921613,-0.002200903261382922,-0.004408022937097718,0.005422169276180495, ,0.0017062881472991636, ,0.004926930217654069, ,2.3498238166582018e-05, ,0.19427306818399176,-0.21446029191721463,0.09198992356,2.083059898575265,0.7416629207268107,-0.9550964977270469, ,0.0030817606603934173,0.0010673325539331709,0.0016675679073112177,-0.005966095103928738,-0.00015669933732859054,-4.94486242840748e-05, ,0.3409249782562256
0.01030066562859367,0.020632584605498196,-0.0800896850083565, ,0.010494498469487926,0.020521825483497996,-0.08029188703692496, ,0.0003012049363350304, ,0.0005740422925630485,0.00021428140275526163,-0.0014743760358925555,-0.002136247853425773,-0.005012937617010818,0.005180950668692695, ,0.0015966295025559465, ,0.005449137402960343, ,2.3996687015669755e-05, ,0.1943116818483629,-0.2144525691843404,0.09200677533000001,2.083059898575265,0.7416629207268107,-0.9550148189869063, ,0.0036582866708004444,0.0010456931941166497,0.001544118668476797,-0.005687610263359698,-0.00015870242995315198,-4.3336327188698166e-05, ,0.35804319381713867
0.01031185308457313,0.02063699147802493,-0.08012074255518366, ,0.010508992203737999,0.020525340072420736,-0.08032286530668466, ,0.00030361731728086066, ,0.0005868473472628107,0.0002084411358713153,-0.0016612532209797815,-0.002754158886578213,-0.004574751900816337,0.004760380774065981, ,0.0017741476207825608, ,0.0053398264123366256, ,2.4460428466145057e-05, ,0.1943734637113567,-0.2144216782528435,0.09203918258,2.083059898575265,0.7416629207268107,-0.9550964977270469, ,0.0033475054114983993,0.0016209311601610927,0.001724360297516744,-0.005256795713043807,-0.00015959724156721709,0.00013014084905333843, ,0.3760251998901367
0.010323632673660332,0.02064201910432351,-0.08015156323699947, ,0.010523536836737447,0.020528804366405223,-0.08035404826202862, ,0.00030623428393718844, ,0.0005409493189720436,0.00020209239345550734,-0.0014960274257456287,-0.0023506247977252287,-0.004313172774726772,0.00446018926878871, ,0.0016036101645262749, ,0.004912117294693937, ,2.489522860625558e-05, ,0.1944429683072247,-0.21439851005422084,0.09207158983000001,2.083059898575265,0.7416629207268107,-0.9550964977270469, ,0.003168004039176903,0.0012841302024470802,0.0015579283356120385,-0.004876280892241776,-0.0001581321408119221,0.00012894615762652908, ,0.3937251567840576
0.010336801208259907,0.020647249565838414,-0.08018618775026513, ,0.010538132264210513,0.020532218578008393,-0.0803854349833408, ,0.00030572173972363614, ,0.0006560638388766093,0.00024368262751857644,-0.0018922612190116804,-0.002853706116937728,-0.004680988681102217,0.004049016816087172, ,0.0020175364939974297, ,0.005482270844293818, ,2.5289743979527732e-05, ,0.19448158197159582,-0.2143830645884724,0.09208844160000001,2.083059898575265,0.7416629207268107,-0.9550148189869063, ,0.004053709359692122,0.0013932752484715548,0.0017635822127967601,-0.004724720645693016,-0.00015696858912171734,0.00012799735924258634, ,0.4115471839904785
0.0103417886394567,0.02064876099035653,-0.08019860854215333, ,0.010552778381995797,0.020535582919471856,-0.08041702455256916, ,0.00032408563805244486, ,0.0007498835184621198,0.0002820667725523491,-0.0018675639305791643,-0.002366320090324987,-0.00585454678652685,0.004047468709427361, ,0.0020321619005973725, ,0.0063146804212714635, ,2.5736401119512435e-05, ,0.19455108656746384,-0.21435217365697548,0.09212084885,2.083059898575265,0.7416629207268107,-0.9550148189869063, ,0.004799369024518706,0.0013827419587197861,0.0019618109293526014,-0.004466726655409597,-0.00015424379361856605,0.0001257754712149823, ,0.42998313903808594
0.010361730756190436,0.0206549518420344,-0.08024825366179399, ,0.010567475086046212,0.02053889760271876,-0.08044881605322313, ,0.0003098783448172995, ,0.0006578339368708493,0.00019100055257874815,-0.0015875786763610894,-0.0017485095827180703,-0.004381233985101547,-0.0006433626945111697, ,0.0017290554511700358, ,0.004717255238269464, ,2.608418216280882e-05, ,0.19468237302632566,-0.21430583725973015,0.09217270045,2.0828502086317804,0.7416629207268107,-0.9548514615066251, ,0.004179076411936605,0.001998481880408059,0.001658111188242415,0.0,-0.0001488280832463897,-0.0003600963877350131, ,0.4473280906677246
0.010368973158043755,0.02065694049778201,-0.08026564074493986, ,0.010582222272428745,0.02054216283935446,-0.08048080857037283, ,0.0003239541460788059, ,0.0006868926675590273,0.0002602643512371434,-0.001750383180911883,-0.0027299441851972974,-0.0039708412075858115,0.0004899187100361601, ,0.001898262455323407, ,0.004818731693477342, ,2.646536381500338e-05, ,0.194728709423571,-0.21428266906110746,0.09219084851,2.0828502086317804,0.7416629207268107,-0.9547697827664846, ,0.004140246974426657,0.0016078708748646687,0.001835820647656365,0.0,-0.00014672186809965186,0.001406065369769617, ,0.4659690856933594
0.010389018913815735,0.02066533065823074,-0.08031146846453817, ,0.010597019837324759,0.020545378840668618,-0.08051300119064914, ,0.00031347769045146065, ,0.0008120045250763824,0.0003068770507266299,-0.001982908036807314,-0.00233112685034222,-0.004132789580348465,-0.0022553107408763793, ,0.0021645898353827298, ,0.0047449027468608315, ,2.6775196803136833e-05, ,0.19483682768381017,-0.21423633266386213,0.09223881124000001,2.0832695885187493,0.7415262842270453,-0.9546583648627881, ,0.005003546281988823,0.001876925003706307,0.0020879291545418802,0.0027960018972502635,0.0,0.0013174692525806568, ,0.4831371307373047
0.010396202278831625,0.020667228700786557,-0.08032942907713501, ,0.01061186767702956,0.02054854581763261,-0.0805453930022411, ,0.0003274715372071834, ,0.0008433165462421307,0.0002175335869910169,-0.0020079004303347695,-0.0033835188833313927,-0.004431331064190811,-0.0023907872788169037, ,0.0021886451966395756, ,0.005575382946640126, ,2.711843000146601e-05, ,0.19489088681392971,-0.21420544173236522,0.09225825559,2.0832695885187493,0.7416629207268107,-0.9547697827664846, ,0.00532921221773335,0.0029932397594306325,0.0020941696088789,0.002705370681766309,6.45144858488386e-05,0.0012773605361744095, ,0.5000081062316895
0.010419574096933532,0.02067290543676565,-0.08038010015728718, ,0.010626765687952606,0.020551663980902732,-0.0805779830948962, ,0.00031110368529727923, ,0.0007686136889062241,0.00020092609359616758,-0.0018727352644234373,-0.005600481587581087,-0.0032566650928671495,-0.000299199293175507, ,0.00203427521945212, ,0.00647852309688709, ,2.7375279868454842e-05, ,0.19499900507416887,-0.21415910533511986,0.09229455171,2.0832695885187493,0.7416629207268107,-0.9548514615066251, ,0.005851291273984382,0.0023430045266123367,0.001510591717613994,0.002544640798571237,6.743017778964865e-05,0.0018448628127979451, ,0.5208051204681396
0.010427450326703981,0.020674887869301297,-0.08039740377749117, ,0.010641713766617308,0.020554733540818257,-0.08061077055991843, ,0.0003253786535408579, ,0.0008099394661733474,0.000208206069366066,-0.0016882673034402445,-0.005033846415901869,-0.004226411461518396,-0.00016253529172667635, ,0.0018840377368968563, ,0.006572835276136687, ,2.7667876663731745e-05, ,0.19510712333440802,-0.21411276893787454,0.09232955154000001,2.0832695885187493,0.7416629207268107,-0.9547697827664846, ,0.005691841319827665,0.0022584481226361687,0.0017799191814496249,0.002399633089146258,6.971898838113461e-05,0.0042724528495856826, ,0.5385010242462158
0.010444321175287949,0.020679401000653203,-0.0804344141906424, ,0.010656711809660987,0.020557754707401583,-0.08064375449016753, ,0.0003220729160244799, ,0.0008914010728001227,0.0002352150452092233,-0.002069199449616333,-0.00562728199751999,-0.004347974694889714,-0.00023302133498497067, ,0.002265283283029856, ,0.0071113421088484655, ,2.7929747724846063e-05, ,0.19522296432752137,-0.21406643254062918,0.09236844024000002,2.0832695885187493,0.7416629207268107,-0.9547697827664846, ,0.005765684900632128,0.002922508766540067,0.002163946681157452,0.00227287103575134,7.117694280742248e-05,0.004167252512257254, ,0.5608651638031006
0.01045986361729586,0.020684446742197278,-0.08047200197097056, ,0.010671759713834885,0.02056072769035938,-0.08067693398005833, ,0.0003196928023351425, ,0.0007817417940033975,0.00025488448176779794,-0.0017590985806206787,-0.004519999197669341,-0.003872594064530279,-3.078351695657048e-05, ,0.0019417811791958887, ,0.005952090180661111, ,2.81669875609972e-05, ,0.19533108258776052,-0.21402009614338383,0.09240862523000001,2.0832695885187493,0.7417995572265762,-0.9548812006701811, ,0.00517375156632905,0.0018602706447461961,0.0018559816437768403,0.0021610867056066773,0.0,0.004014890849011942, ,0.578606128692627
0.010475552882241057,0.02068695082372833,-0.08050295179735353, ,0.010686857376004083,0.020563652699083314,-0.08071030812555952, ,0.0003207002704590282, ,0.000773304039426711,0.0001600050887212368,-0.0014469841568038877,-0.004706111790889288,-0.004677819265327893,-0.00015958099164108683, ,0.0016484428761263815, ,0.006635471442262155, ,2.8393241373825665e-05, ,0.1954469235808739,-0.21396603701326428,0.09244103248,2.0832695885187493,0.7417995572265762,-0.9548812006701811, ,0.005811082251433206,0.0021658363591422402,0.001530155773862348,0.0020523731113590757,-0.00011151991470577472,0.0037771434090776365, ,0.5956439971923828
0.01049062761444881,0.02068945142089065,-0.08053398058457163, ,0.010702004693147388,0.020566529942648265,-0.08074387602419174, ,0.00032225153961735423, ,0.0007314915898496107,4.552039787420663e-05,-0.0014442423363447091,-0.0056960309985896835,-0.004181910849113594,-0.0005045333508886969, ,0.0016195641323312148, ,0.007066339043701844, ,2.8611255645894046e-05, ,0.19555504184111303,-0.2139119778831447,0.09247343973000001,2.0832695885187493,0.7417995572265762,-0.9548812006701811, ,0.0053184955223912235,0.003480457583481977,0.0014946456765330617,0.0019618485175574756,0.0,0.0034317334826957594, ,0.6179220676422119
0.010504711176759923,0.020692223651864836,-0.0805664123966003, ,0.010717201562357313,0.020569359629814342,-0.08077763677502808, ,0.0003238262959179749, ,0.0008322502298554652,0.0001338952666522673,-0.0019635227410755088,-0.005158374374645858,-0.004477469508029091,-0.001186220156166067, ,0.0021368177138555914, ,0.006830560691125362, ,2.891360039350813e-05, ,0.19564771463560374,-0.21385791875302512,0.09250714327000001,2.0832695885187493,0.7417995572265762,-0.9547995219300405, ,0.005285693041689273,0.003779604792081554,0.0020291315658884338,0.0018749524045591484,-8.226690029648096e-05,0.00228875041807156, ,0.6332290172576904
0.010513674883788265,0.020695844706162585,-0.08058583915040887, ,0.010732447880840068,0.020572141969025872,-0.0808115894786917, ,0.00033782717790898286, ,0.0007718647767043551,0.00027664290530563315,-0.0020878416340302146,-0.0027747692015155294,-0.0042532978758378194,-7.748747940509917e-05, ,0.0022430758389681703, ,0.005078374435054322, ,2.924440279959794e-05, ,0.1957017737657233,-0.21383475055440246,0.09252788391000001,2.0834792784622342,0.7417995572265762,-0.9547178431898998, ,0.004324550173823268,0.0022830932446511356,0.0021767293633477686,0.0,-7.618020168143444e-05,0.0006481376603998127, ,0.6491210460662842
0.010528272096145616,0.02070189782238295,-0.08063135621827291, ,0.010747743545915508,0.020574877168412685,-0.08084573323735611, ,0.00033205341454369767, ,0.0008661496136539074,0.00033943044849817864,-0.0024422923651185777,-0.003631331139408288,-0.004028016701405613,0.0006207619798717357, ,0.0026134689933720247, ,0.00542323559362353, ,2.9541670048527978e-05, ,0.19577900109446555,-0.21378069142428288,0.09257584664000001,2.0834792784622342,0.7419361937263417,-0.9547475823534557, ,0.004636522331230092,0.0024854587871107996,0.002547794548944338,0.0,0.00029257328573762634,0.0017111945571261582, ,0.6654629707336426
0.010537931894086928,0.020705165957905218,-0.08065750824571181, ,0.010763088455016837,0.020577565435788817,-0.08088006715474239, ,0.0003413353749072015, ,0.0009256085515999529,0.0002665963707682138,-0.002435943011359817,-0.004467251900616531,-0.0047584882356531905,0.0004547237683116096, ,0.002619473834626809, ,0.006526833056440296, ,2.985232689621726e-05, ,0.1958330602245851,-0.21374980049278597,0.09260306873000002,2.0834792784622342,0.7419361937263417,-0.9547475823534557, ,0.005367034496687052,0.0033376389103183346,0.0025311952200858102,0.0,0.00029257328573762634,0.0017111945571261582, ,0.6805920600891113
0.010554904068909549,0.02071176089680423,-0.08070526419889185, ,0.01077848250569093,0.02058020697865448,-0.08091459033611993, ,0.0003333334404181331, ,0.0009400394779626557,0.0003516558738897943,-0.002532960874196198,-0.0012435402218794582,-0.0025622540739552047,0.0005172865407698586, ,0.0027245599395091798, ,0.00284807621363371, ,3.012549113103921e-05, ,0.19593345575195004,-0.21369574136266642,0.09265362404000001,2.0834792784622342,0.742072830226107,-0.9547773215170116, ,0.005529271494311043,0.002711445936229492,0.002665463775100402,0.0,0.003446355855487694,0.00015271156119562364, ,0.6967201232910156
0.010564980057967861,0.020714122114773546,-0.08073024750973187, ,0.010793925595598048,0.020582802004194607,-0.08094930188830442, ,0.00034299541019530217, ,0.0008528922999318383,0.0002585037803759446,-0.0020390240829836854,-0.0016111662507342238,-0.0026118637622068166,0.0009308843768029653, ,0.0022252794635144444, ,0.0030688253395375837, ,3.0413602659703017e-05, ,0.1960492967450634,-0.21363395949967262,0.09270158677000001,2.0834792784622342,0.742072830226107,-0.954695642776871, ,0.005648364702804525,0.0025208397225602096,0.002155163241780544,0.0,0.0033629253972201397,0.0008215657391714194, ,0.7116379737854004
0.010582974263116707,0.02071844550064073,-0.08077252478623903, ,0.010809417622511756,0.020585350719281015,-0.08098420091965698, ,0.0003373390005589024, ,0.0008725910510835789,0.00011152437823655015,-0.0020885317525950317,-0.0014325506479546668,-0.0033797070172860203,-0.001037141280972201, ,0.0022662342577434197, ,0.003670779323510167, ,3.0673354536170633e-05, ,0.1961110786080572,-0.2135953458353015,0.09272362370000001,2.0834792784622342,0.742072830226107,-0.9546139640367304, ,0.0057550718913195265,0.004358774358623364,0.002168365303566567,0.0,0.003236278945338977,-0.0018124288500435879, ,0.7279679775238037
0.010599957031741146,0.02072293245384235,-0.08081463083265925, ,0.010824958484318963,0.020587853330470068,-0.08101928654008302, ,0.0003328002130622441, ,0.0009932420831307936,0.00018807147017549884,-0.002197375684607666,0.00038806837280304656,-0.003533000464658863,-0.0009885412792699675, ,0.0024187518708832, ,0.003554249469862811, ,3.0909606905827065e-05, ,0.19623464233404478,-0.21352584123943347,0.09276899385000001,2.0834792784622342,0.742346103225638,-0.9546734423638422, ,0.007053383389800496,0.0038349301943374865,0.0023162442227715576,0.0,0.004778335704911118,-0.0026145870278185355, ,0.7444159984588623
0.010610177866242475,0.020724735651096376,-0.0808370441662238, ,0.010840548079019886,0.020590310044004294,-0.08105455786103136, ,0.0003441698508091916, ,0.001040824621097952,0.0002508630843981107,-0.0022945817760394852,0.0008528810406881746,-0.003869581419447684,-0.0008962297354166766, ,0.0025320651069690027, ,0.003962457112410332, ,3.116593758191854e-05, ,0.1963041469299128,-0.21348722757506233,0.09279232707000001,2.0834792784622342,0.742346103225638,-0.9546734423638422, ,0.007389923981641116,0.0033611123262121084,0.0024315083987177535,0.0,0.004778335704911118,-0.0026145870278185355, ,0.7597301006317139
0.010634443859841409,0.020730258866242038,-0.08088491056675762, ,0.010856186304727867,0.020592721065812933,-0.08109001399549333, ,0.0003318942224417975, ,0.0011007050535758755,0.0002853019996647023,-0.002519587838015033,-0.002159262665084054,-0.0023505077927213234,-0.0015729354031492693, ,0.0027642850286201345, ,0.003191755322534473, ,3.137984100623576e-05, ,0.19647404705314575,-0.2134100002463201,0.09284288238,2.0836889684057187,0.742346103225638,-0.9547551211039829, ,0.00744155415418781,0.003749215889517624,0.0026645720173971233,0.003248219453627327,0.004778335704911118,0.0015890666805245474, ,0.7785680294036865
0.01065651494792158,0.020736035798923497,-0.08093219379770235, ,0.010871873059669464,0.020595086601512255,-0.08112565405800187, ,0.00032198239837240636, ,0.0009527431694115057,0.00016777490474107826,-0.002103790033560229,-0.004171146570840055,-0.00286981827681756,0.004314111252584371, ,0.002315556190384614, ,0.005063034723974937, ,3.1559901083196476e-05, ,0.19662850171063023,-0.21333277291757785,0.09289343769000001,2.0838986583492027,0.7424827397254035,-0.9547848602675386, ,0.006829983228576115,0.0036615442535802714,0.002214795817575084,-0.002199041290779129,0.004505768666523041,0.0028012922016730597, ,0.7948970794677734
0.010666852026950108,0.020737910202454888,-0.08095187841287259, ,0.010887608242184241,0.020597406856403273,-0.08116147716462935, ,0.00033527023958918636, ,0.0010794289647012715,0.00015073249102117196,-0.0019520629614394821,-0.004026001794344981,-0.004741049497983895,0.004289502980496036, ,0.0022357184480853993, ,0.006219826425396277, ,3.1765848921314916e-05, ,0.19670572903937247,-0.21330188198608097,0.09291417833000001,2.0838986583492027,0.7424827397254035,-0.9547848602675386, ,0.008576425753731262,0.003523579858736375,0.0020791093933205567,-0.002147998958895942,0.004505768666523041,0.0028012922016730597, ,0.8103070259094238
0.01068813501503704,0.020740932016770873,-0.08099189337886861, ,0.010903391750724873,0.02059968203547604,-0.08119748243298801, ,0.0003294751563448749, ,0.0010637847755893422,0.00015400341652914613,-0.0019586180194540595,-0.0027496762939643077,-0.004166206609964337,0.003663906669913606, ,0.0022341753841649183, ,0.004991792985458851, ,3.1949625421252366e-05, ,0.19687562916260543,-0.21322465465733872,0.09295695590000001,2.0838986583492027,0.7426193762251688,-0.9548145994310944, ,0.008549253174834187,0.0035298450634510033,0.002090120918514631,-0.0020253516215143017,0.005254614414537426,0.001603863145226567, ,0.8265180587768555
0.010697639696148592,0.020741898299279537,-0.08101057241506565, ,0.010919223483856938,0.020601912343406067,-0.08123366898222859, ,0.0003441911112984638, ,0.0009485041020085597,0.00012826008984869911,-0.001956419634321164,-0.0016517416018999116,-0.0031323795016582195,0.0025274336562264637, ,0.0021780010256499923, ,0.003541193532298573, ,3.216157304787544e-05, ,0.19694513375847345,-0.2131860409929676,0.09297640025000001,2.0838986583492027,0.7426193762251688,-0.9547329206909538, ,0.007162192388234196,0.003787310201909064,0.0020670661199065667,-0.001972825625084284,0.005254614414537426,-0.00012879510289759291, ,0.8446540832519531
0.010720271679990703,0.020745745553093362,-0.08105637698736974, ,0.010935103340258911,0.02060409798455582,-0.08127003593303793, ,0.00033446497722517126, ,0.0009656029256831303,0.00019673681668042596,-0.0022593275882942846,-0.001285132881374798,-0.0026620341328139597,0.0021864164002080963, ,0.0024648844874259395, ,0.0029560095040758903, ,3.234272889961762e-05, ,0.19709958841595793,-0.21310881366422535,0.09302177040000001,2.0838986583492027,0.7426193762251688,-0.9547329206909538, ,0.006686487660414439,0.0037571032301238123,0.002365782195158177,-0.0018702212817607367,0.005254614414537426,-0.0005239925418700055, ,0.8628551959991455
0.010739741977613824,0.02075010871797134,-0.08110085770808874, ,0.010951031218722287,0.020606239162976898,-0.08130658240764047, ,0.00032812230077843945, ,0.0009121206161743886,0.00015037254598926852,-0.0022941076883936182,-0.003198778202317791,-0.0029560610860538492,0.0020773608480080803, ,0.0024733592555438344, ,0.004355511344097512, ,3.2502591732754716e-05, ,0.19725404307344244,-0.2130315863354831,0.09307232571000001,2.0838986583492027,0.7428926492246997,-0.9549557564983466, ,0.005777025185595111,0.004306102231618231,0.0023845526227544915,-0.0017717796031445645,0.0036667103596802774,0.0003482222479837629, ,0.8776299953460693
0.010749349075105944,0.0207525195715991,-0.08112318590523102, ,0.010967007018151152,0.020608336082406295,-0.08134330752979431, ,0.0003414928818099517, ,0.00102003560137103,0.0002758050409730671,-0.0023295670880965694,-0.0009974860217939459,-0.004394085133429692,0.001611628443073277, ,0.0025580117018171055, ,0.004505880874467714, ,3.268691785933371e-05, ,0.19731582493643623,-0.2130006954039862,0.09309565893,2.0838986583492027,0.7428926492246997,-0.9548740777582061, ,0.006982750066623917,0.002974940335771204,0.0024634722424992273,-0.0017291338914791762,0.0036667103596802774,-0.0007992113261519266, ,0.8930320739746094
0.01076901298136283,0.020755801110824833,-0.08116682913914018, ,0.010983030637562462,0.020610388946270868,-0.08138021042479276, ,0.0003353801243845605, ,0.0008963444152234667,0.00017499133464421473,-0.0019998786039812236,-0.00010419510153953108,-0.003994554705831195,0.0005632026676881854, ,0.002198538084401712, ,0.003995913398094694, ,3.2924271310044674e-05, ,0.19744711139529805,-0.21292346807524395,0.09314102908,2.0838986583492027,0.7428926492246997,-0.9547923990180656, ,0.006278983446644177,0.0032836456451685297,0.002105314766058684,-0.0016498423720727698,0.0036667103596802774,-0.0023252262125528786, ,0.9099881649017334
0.010780474411259634,0.02075686164275184,-0.08119194518594582, ,0.01099910197608587,0.020612397957684003,-0.08141729021946165, ,0.0003456127204480188, ,0.0007594462256197978,5.311837316709781e-05,-0.0016873489507663536,-0.0026868925990136227,-0.0025391447655677035,0.001954092073794642, ,0.0018511419753299287, ,0.0036968429727898895, ,3.317677749705719e-05, ,0.1975243387240403,-0.21286940894512438,0.09316695488000001,2.0838986583492027,0.7428926492246997,-0.954710720277925, ,0.005381131375917035,0.0038744632529348344,0.0017567448897317162,-0.0016016235878433536,0.0036667103596802774,0.0002752536131176526, ,0.923314094543457
0.010788167797433745,0.02075780091698204,-0.08120871562863036, ,0.011015220932963546,0.020614363319447077,-0.08145454604215858, ,0.00036408798793145504, ,0.0008789352462337391,8.156673870506244e-05,-0.0018285266364344397,-0.0032539423011916074,-0.0032637140565542682,0.0024458533687892357, ,0.002030440829003689, ,0.00460868418553418, ,3.3461551893281926e-05, ,0.1975861205870341,-0.21283079528075327,0.09318510294000001,2.0838986583492027,0.7430292857244651,-0.954740459441481, ,0.0064311839074229615,0.003945695691029977,0.0019165127542932023,-0.0015662910796293357,0.003911620192849248,0.0010726056916523117, ,0.9369611740112305
0.010806211326960784,0.02076123332692105,-0.08125226755896556, ,0.011031387407550407,0.02061628523405103,-0.08149197702277287, ,0.0003594090203864549, ,0.0009733789534629029,0.00025711065170751137,-0.0024637448376089795,0.0035402633890854783,0.0007246534748547454,0.001026781145639705, ,0.0026615054197034606, ,0.003613666757178983, ,3.372788839782125e-05, ,0.1977174070458959,-0.21274584521913678,0.09323176938000001,2.0838986583492027,0.743302558723996,-0.9549632952488738, ,0.00651099056740577,0.003748949832904526,0.0026177175875102716,-0.0014992015997960016,0.009862323874814963,-0.0040233326822908845, ,0.9534780979156494
0.010827773595121066,0.020767229208911143,-0.08130841003406886, ,0.011047601299313693,0.020618163903673978,-0.08152958229272296, ,0.000345632540068507, ,0.000951288170599297,0.0002747207721634711,-0.0027062478267019818,0.002079377561342391,0.0008634396857807829,0.0010594021587181628, ,0.0028817005371324497, ,0.00225151926228458, ,3.395752638793395e-05, ,0.19777918890888968,-0.21270723155476567,0.09326028776,2.0838986583492027,0.743302558723996,-0.9548816165087332, ,0.005958085286531087,0.0042555051032282685,0.0029361864552995397,-0.0014685796702872845,0.009606605702097643,-0.003860382624479593, ,0.9678201675415039
0.010838498605413565,0.02076882235426286,-0.0813361736091692, ,0.011063862507833302,0.020619999530183866,-0.08156736098495675, ,0.00035550629277726343, ,0.0010298678572312901,0.00025040115052524486,-0.0027937777154403895,0.00253453653315061,-0.0007770847831304105,-0.0002460350152440237, ,0.0029880633297896912, ,0.002650987745699341, ,3.4200922272359e-05, ,0.19790275263487728,-0.21261455876027496,0.09331862081,2.0838986583492027,0.743302558723996,-0.9547999377685925, ,0.006243838849692413,0.004591108829507265,0.0029307840883164675,-0.0014106777223065324,0.007969384140394631,-0.004857521174342074, ,0.9816181659698486
0.010849360062864816,0.020771853646324064,-0.08136543765912707, ,0.011080170932801376,0.020621792315136524,-0.08160531223394976, ,0.0003651463712609156, ,0.001199636802616057,0.00027721026363857826,-0.002933952758198869,-0.006376372860866475,-0.005780557275594955,0.0027711791473717167, ,0.0031818316699348185, ,0.008606565694853277, ,3.4457011712999323e-05, ,0.1979722572307453,-0.21257594509590386,0.09334843548,2.0838986583492027,0.7434391952237615,-0.9548296769321484, ,0.007476227951369057,0.004326199933525208,0.003054422151486098,-0.0013838647101105273,0.001552007144712943,0.003163516804637472, ,0.9961521625518799
0.010867463814504626,0.020775991018577286,-0.08140825142404153, ,0.011096526474022511,0.02062354245977834,-0.08164343517570449, ,0.0003619691452479773, ,0.001133990262949337,0.00025852509112029535,-0.0027279044534963375,0.007936463522513723,-0.00213901004854444,-0.003327081441993923, ,0.0029655070134140325, ,0.00821966039936604, ,3.469952188018202e-05, ,0.1980958209567329,-0.21249871776716162,0.09339510192000001,2.0838986583492027,0.7435758317235269,-0.9548594160957043, ,0.007745535231268185,0.004425161160703817,0.0028919410893246188,-0.00134282465438922,0.009558773249625601,-0.010696553109333552, ,1.0108611583709717
0.010880837720148012,0.02077839377075126,-0.08143948753711877, ,0.011112929031413527,0.020625250165042745,-0.0816817289477491, ,0.0003687821060714874, ,0.0010014460055158712,0.00012944608297072856,-0.00246165405413784,0.006478061318290686,-0.0015260220990348525,-0.0033260059896707225, ,0.002660712512206725, ,0.006655375406382703, ,3.49488000047567e-05, ,0.19818077101834936,-0.21244465863704204,0.09342750917,2.0838986583492027,0.7435758317235269,-0.9547777373555638, ,0.006750099894537484,0.005190160397117664,0.0025833297956535843,-0.001313223934658891,0.008959712114478272,-0.010118037002484807, ,1.0245671272277832
0.010893749526462281,0.020779613115396764,-0.08146839511649334, ,0.011129378505003498,0.020626915631554523,-0.08172019268913662, ,0.00037714659575445653, ,0.0010231704878778415,6.314810077562001e-05,-0.002180631043321177,0.005015789951937395,-0.003003504202301965,-0.0029051084999401643, ,0.0024095678610472366, ,0.005846296801043753, ,3.520759882452459e-05, ,0.19826572107996585,-0.21238287677404824,0.09345732384000001,2.0838986583492027,0.7435758317235269,-0.9547777373555638, ,0.0076038725058245596,0.0052265133626377466,0.0022932351742009794,-0.0012844533482548439,0.007912029807174228,-0.008869792564578923, ,1.0377001762390137
0.010915851425437911,0.020781920243484072,-0.08151571110055009, ,0.011145874794933732,0.0206285390596277,-0.0817588255404435, ,0.00036815916253718625, ,0.0011728393357509845,0.00020861488479233443,-0.0026370725317277845,0.0012895526183736513,-0.005810765738013824,-0.0017401807939587289, ,0.0028936523314377137, ,0.005952137791592217, ,3.544209973158724e-05, ,0.19843562120319877,-0.2122747585138091,0.09350787915000001,2.0838986583492027,0.7438491047230578,-0.9550005731629565, ,0.008021994300079625,0.004581758869663221,0.002767340430854761,-0.0012396018453477797,0.004224718961075383,-0.0053487088191567864, ,1.052659034729004
0.010921592599638784,0.020782749701838292,-0.08152818475616302, ,0.01116241780145755,0.02063012064926532,-0.0817976266437693, ,0.0003922898626235521, ,0.0012253037258702054,0.00023704193825731365,-0.0028132319356732357,0.0005693459506438226,-0.005845890918291546,-0.0013105103592368484, ,0.0030776341603601905, ,0.005873550481937587, ,3.571623502531812e-05, ,0.1984742348675699,-0.21225159031518642,0.09352084205000001,2.0838986583492027,0.7438491047230578,-0.954918894422816, ,0.008222478840622896,0.0047056078837048225,0.0029508728269729534,-0.001229852092219113,0.004224718961075383,-0.004572596214979597, ,1.0671560764312744
0.010954999784672955,0.020787886975103503,-0.08160500595097646, ,0.011179007424940442,0.020631660600161583,-0.08183659514273492, ,0.00035807772461441686, ,0.0012785874704945067,0.00010158629273596456,-0.0031503572803585353,-0.001974123084686352,-0.0035286186706726132,-0.0003385693713338024, ,0.0034014492041606922, ,0.004043304510694016, ,3.591898189105393e-05, ,0.1986981941209224,-0.21210485839057616,0.09360121203,2.0838986583492027,0.7439857412228232,-0.955111991066653, ,0.008194166511091363,0.007200913380136863,0.003262763523146252,-0.0011769336845381278,0.006536248990430369,-0.003104809677008729, ,1.0806360244750977
0.010968660690674304,0.020790538892755814,-0.08163747629471006, ,0.011195643565859826,0.02063315911169993,-0.0818757301824822, ,0.0003647664131347962, ,0.0013288236890902517,0.00036354616125617775,-0.003192240219879922,-0.0022163542162544477,-0.0031738828655421773,0.0026029477119325333, ,0.00347682841530475, ,0.0038711442913685673, ,3.612885881678989e-05, ,0.19877542144966465,-0.21205079926045659,0.09363361928000001,2.0838986583492027,0.7439857412228232,-0.9550303123265125, ,0.008548041985299728,0.004294968079154934,0.0033804778268251277,-0.0011585839556976208,0.006536248990430369,0.0008926879947468232, ,1.093677043914795
0.010981470281944853,0.02079244874652211,-0.08166890326711654, ,0.011212326124805152,0.020634616382955547,-0.08191503090967253, ,0.00037253763783263224, ,0.0013581276004313496,0.0002706671520912126,-0.003202392666095732,-0.0032876076684607816,-0.0034181527055415868,0.0012038464331753037, ,0.003488995568088087, ,0.004742587032762052, ,3.6347571113161194e-05, ,0.19886809424415536,-0.21200446286321123,0.09366732282000001,2.0836889684057187,0.7439857412228232,-0.9549486335863719, ,0.008940572947488044,0.005460845137026154,0.0033633470270270274,0.0,0.006254476627031817,0.000925275602189286, ,1.1115272045135498
0.011011424068863261,0.02079816953745528,-0.08173634265244034, ,0.011229055002477617,0.02063603261269201,-0.08195449647248518, ,0.0003481992171698569, ,0.0009520980680404958,9.613572081243276e-06,-0.0020991507370519817,-0.0009595182871018758,-0.0003044416939867211,-0.0025392064334480726, ,0.002304998257873633, ,0.001006657860229546, ,3.65168242167311e-05, ,0.19908433076463364,-0.2118654536714752,0.09373991506000001,2.0838986583492027,0.7443956507221196,-0.9552012085573207, ,0.006705086073821922,0.005815997385124481,0.002189226432105553,0.0026950370505358875,0.007177215565130126,-0.0013266045749406787, ,1.1248571872711182
0.011021970590193645,0.02079808086426435,-0.08175647028308743, ,0.011245830099690452,0.020637407999366027,-0.08199412602061786, ,0.0003638806110359802, ,0.0010720479957222009,9.891140810628794e-05,-0.002062668754211466,0.00029160324997772795,-0.0018685670761577323,-0.002472721918706249, ,0.0023267300576959586, ,0.0018911835807664309, ,3.6775359334116085e-05, ,0.19916155809337588,-0.21181139454135564,0.09376065570000001,2.0838986583492027,0.7443956507221196,-0.9552012085573207, ,0.008217212762080178,0.004734516296544674,0.0021916361474958726,0.0026950370505358875,0.007177215565130126,-0.001572996829337361, ,1.136059045791626
0.01103235866151608,0.020799170778862192,-0.08177900927837449, ,0.011262651317368534,0.020638742741124292,-0.08203391870528416, ,0.0003791446670591943, ,0.0011075991527026816,4.956703704502843e-05,-0.002538697613640245,-0.001270015974086049,-0.001184844974247337,-0.0029363656900392534, ,0.002770237958683657, ,0.00173689322699494, ,3.705538143845265e-05, ,0.1992310626892439,-0.21176505814411029,0.09378398892,2.0838986583492027,0.7443956507221196,-0.9552012085573207, ,0.007491993568260295,0.0064831106570858625,0.0026429088302638132,0.0026950370505358875,0.007177215565130126,-0.0017695210266495493, ,1.1529350280761719
0.011045582675493684,0.020800620640334364,-0.08180914536788463, ,0.011279518556548537,0.020640037035804075,-0.08207387367921361, ,0.0003880646457846236, ,0.0012139118475424139,0.0002439545536593432,-0.0032586141885391205,-0.0010787253296620273,-0.0009402951929042094,-0.002857902279390563, ,0.0034859234397220254, ,0.0014310146816967262, ,3.734512332158886e-05, ,0.19939324007960263,-0.2116492171509969,0.09384880342000002,2.0838986583492027,0.7443956507221196,-0.9551195298171801, ,0.006991137419362299,0.006028416723401841,0.0033963350788912584,0.0026950370505358875,0.006842745761165348,-0.00163235798261173, ,1.1640880107879639
0.011070881243475522,0.020806949864579358,-0.08187730939397092, ,0.011296431718378698,0.020641291080935206,-0.08211399009664933, ,0.0003665154899152986, ,0.0013757560979627118,0.00044717974379868304,-0.003926718710859117,-0.00033069435321390536,-0.0028332225820533663,-0.0038298257035280377, ,0.004184709595486469, ,0.002852456488910962, ,3.759156752571648e-05, ,0.19946274467547065,-0.21159515802087733,0.09388639583000001,2.0838986583492027,0.7445322872218849,-0.9551492689807359, ,0.007180554304059832,0.005313619603361357,0.004101135818743564,0.0026950370505358875,0.005104879112123701,-0.0026919067613326887, ,1.176084041595459
0.011085921929752707,0.020811644023789835,-0.08192036505602665, ,0.011313390704118994,0.02064250507373828,-0.08215426711334875, ,0.000367505374322272, ,0.0013759666958073939,0.00036783896372332076,-0.0038334775949041837,0.004007145709513041,-0.00011848949157164564,-0.0050116556403806654, ,0.004089515903115738, ,0.004008897063907592, ,3.783464281538766e-05, ,0.1995476947370871,-0.21153337615788353,0.09393176598000001,2.0838986583492027,0.7446689237216504,-0.9552606868844322, ,0.00773906424831758,0.006173291093854438,0.004019382165026495,0.0026950370505358875,0.00991807096584462,-0.006616741979966692, ,1.192608118057251
0.011101765381934827,0.020815151073105012,-0.08196092112084508, ,0.011330395415140852,0.020643679211125456,-0.08219470388658112, ,0.00036922712940643893, ,0.001147715369091006,0.00025994760974575894,-0.002719593748823061,-0.0004284373366238167,-0.0010297760789436086,-0.001782392008209698, ,0.0029632774907014207, ,0.001115346213247768, ,3.807569242981836e-05, ,0.19964809026445202,-0.21146387156201552,0.09397454355000001,2.0838986583492027,0.7448055602214159,-0.9552904260479882, ,0.0074919229065995435,0.004493263916597094,0.0028736805917373267,0.0026950370505358875,0.007026652880740781,-0.0004224193466451048, ,1.2041091918945312
0.011114766920757156,0.02081630803958225,-0.08198980935641162, ,0.011347445752927267,0.020644813689701447,-0.08223529957512707, ,0.00037922974364630856, ,0.001315539763827668,9.480055722649317e-05,-0.002996262298574365,-0.0038361958065299523,-0.002862982899204499,-0.0021449054195033846, ,0.003273716508453404, ,0.004786759771044019, ,3.832867160610595e-05, ,0.1997330403260685,-0.21140208969902172,0.09400435822000001,2.0838986583492027,0.7448055602214159,-0.9552904260479882, ,0.008755144278885905,0.007089393945563294,0.003117184250489237,0.0026950370505358875,0.006199413456918253,0.0002174563784589803, ,1.2157831192016602
0.01113788955398698,0.020819511000948913,-0.08204694101449904, ,0.011364541619072653,0.02064590870576326,-0.08227605333927739, ,0.0003660619795426252, ,0.001199260846223318,8.448430829482067e-05,-0.002786592548658256,-0.0072370963661112855,-0.004456067302186811,-0.0014078393589844246, ,0.0030348743314789887, ,0.00849894696100506, ,3.8554734645816894e-05, ,0.19987977225067877,-0.21128624870590837,0.09406398756,2.0838986583492027,0.7449421967211813,-0.9553201652115442, ,0.007589078621455164,0.006499151356002595,0.002875236736462094,0.0026950370505358875,0.0022505710954570587,0.003088623781096261, ,1.2286171913146973
0.01113788955398698,0.020819511000948913,-0.08204694101449904, ,0.011381682915282753,0.020646964455299486,-0.08231696434083265, ,0.00040264141638895925, ,0.001199260846223318,8.448430829482067e-05,-0.002786592548658256,-0.0072370963661112855,-0.004456067302186811,-0.0014078393589844246, ,0.0030348743314789887, ,0.00849894696100506, ,3.883649946245186e-05, ,0.19987977225067877,-0.21128624870590837,0.09406398756,2.0838986583492027,0.7449421967211813,-0.9553201652115442, ,0.007589078621455164,0.006499151356002595,0.002875236736462094,0.0026950370505358875,0.0022505710954570587,0.003088623781096261, ,1.2405900955200195
0.011144444154001194,0.02081974959002129,-0.08206401952718109, ,0.011398869543374684,0.020647981133990835,-0.0823580317431005, ,0.000425064541399041, ,0.0011566985629263503,0.00015896641573503653,-0.003120743638757232,0.003427185716381217,0.0029994769064067357,-0.003668739484709229, ,0.0033320058141682856, ,0.004554389459701004, ,3.914927722242634e-05, ,0.1999261086479241,-0.211239912308663,0.09408213562000001,2.0838986583492027,0.7450788332209468,-0.9554315831152405, ,0.006991628501254914,0.006824764022096311,0.0032674485169230773,0.0026950370505358875,0.012371168933483636,-0.005281648700332382, ,1.252089023590088
0.011170510231893683,0.020822752910703783,-0.08212832874793399, ,0.011416101405276907,0.020648958937212768,-0.08239925471089712, ,0.0004048706547442586, ,0.0011635707091247798,0.00011269604951195922,-0.0029381574049981013,0.0010826454932190155,0.0009075705685067153,-0.0033603931065438325, ,0.0031621774351313563, ,0.00141272976249591, ,3.9423430434377464e-05, ,0.2000805633054086,-0.2111086258498012,0.09414824641000001,2.0838986583492027,0.7450788332209468,-0.9554315831152405, ,0.007327054969884067,0.006808835026859695,0.0030673621259387643,0.0026812995767297935,0.00990974449729792,-0.0036501233935173527, ,1.2630441188812256
0.011184436656981215,0.020824134473117328,-0.08216563780270571, ,0.011433378403028932,0.02064989806003141,-0.08244063241054397, ,0.0004098199054590378, ,0.0015782290376264343,0.00020712010420208152,-0.003967948132107999,-0.007085214728517797,-0.007206063009446052,-0.003399816088772412, ,0.004275314960546334, ,0.01010582064266363, ,3.970023446449371e-05, ,0.20016551336702507,-0.21102367578818473,0.09418713511000001,2.0838986583492027,0.7452154697207122,-0.9554613222787963, ,0.00916884583401605,0.008051695386335865,0.004089553663671374,0.0026312142833632914,0.0015331721962487039,0.0005007926117375548, ,1.2806751728057861
0.01122052246007524,0.020833574523608487,-0.08226219126239744, ,0.011450700438781587,0.0206507986972065,-0.0824821640098677, ,0.0003671197546140579, ,0.0015651579742035288,0.0003915966995937589,-0.004367644172047757,0.005503998497186698,0.000431797408545915,-0.005596967467526964, ,0.0046561124420452255, ,0.005520909967536988, ,3.9904219192068226e-05, ,0.20038947262037757,-0.21086922113070022,0.09428954202,2.0838986583492027,0.7456253792200086,-0.9557138972497451, ,0.008795025845987521,0.0072898395191005405,0.004579876802760207,0.002523491863206008,0.012339862078456361,-0.008611955890151641, ,1.2920200824737549
0.011235908591494533,0.020835855677630445,-0.08230256489912534, ,0.011468067414796706,0.020651661043192156,-0.08252384867819895, ,0.00036985388124772216, ,0.0013424554992721314,7.646471885612311e-05,-0.0033214215088127465,0.004526120328946775,0.0005518101249188667,-0.005741351105019994, ,0.0035832770559865554, ,0.0045596336740845985, ,4.010865268124583e-05, ,0.20047442268199406,-0.21079199380195798,0.09433102330000001,2.0838986583492027,0.7456253792200086,-0.9557138972497451, ,0.008668046722285131,0.008268750861586216,0.003465798851174935,0.0024789507985538252,0.012339862078456361,-0.008598374885088352, ,1.3038320541381836
0.011249029006761283,0.02083569022488944,-0.08233175747877637, ,0.011485479233447131,0.020652485292134537,-0.08256568558637192, ,0.0003797303208972834, ,0.001159373247268896,7.578312619860349e-05,-0.002754697489139382,0.00582462988076572,0.001377919831485963,-0.005334050890552029, ,0.002989690228998662, ,0.00598539690841693, ,4.032461293716168e-05, ,0.20055937274361052,-0.21071476647321574,0.09436083797000001,2.0838986583492027,0.7456253792200086,-0.9556322185096046, ,0.00786072525729969,0.00682990193104994,0.0028956210725322672,0.00243614700447339,0.012339862078456361,-0.008464355769971017, ,1.314871072769165
0.011277779851382183,0.02083659231223546,-0.08239674718274519, ,0.011502935797216833,0.020653271637874393,-0.08260767390672205, ,0.00035887567830727226, ,0.001420608092578403,7.959122599520904e-05,-0.003060744136500986,-0.004305899355979868,-0.003471174033784013,-0.0014910513920626104, ,0.003375295066372692, ,0.005530806285527112, ,4.0504502168983687e-05, ,0.20075244106546614,-0.21055258908285704,0.09442824505000001,2.0838986583492027,0.745762015719774,-0.9554986001928791, ,0.009803429955664772,0.007388753174414317,0.0031940668778824947,0.0023520968012044514,0.0066950976012155146,0.0006476828240203941, ,1.3330140113830566
0.011291227058470115,0.020836674373145653,-0.08242502004614133, ,0.011520437008700599,0.020654020273946146,-0.08264981281308648, ,0.00036936636190901273, ,0.001227578867019121,-1.0265538840693498e-05,-0.002729737160667598,-0.0009441038544606694,3.92305644691553e-05,-0.002245257012823683, ,0.00299307871970806, ,0.000944918501051405, ,4.069709263986038e-05, ,0.20085283659283104,-0.2104753617541148,0.09445805972000001,2.0838986583492027,0.7458986522195394,-0.9556100180965756, ,0.008549026095442688,0.007666941770830777,0.0028469725683646116,0.002313924742778487,0.010040545084646146,-0.0021333730802639817, ,1.34433913230896
0.011303185796459298,0.02083583976538559,-0.08245238148380174, ,0.01153798277060409,0.020654731393577867,-0.08269210148080176, ,0.0003813076689080428, ,0.0012538923918718216,-0.00011090835043702017,-0.002792892380847053,-0.004042623547529891,-0.00130297172507275,-0.002167906540770447, ,0.0030634612195332613, ,0.004247415719405371, ,4.096611261823972e-05, ,0.20093778665444753,-0.2103904116924983,0.09448657810000001,2.0838986583492027,0.7460352887193048,-0.9557214360002719, ,0.008571579861337516,0.008901358643522251,0.002876275102925244,0.0022771236426705273,0.008165845621386482,-0.0007797679030606087, ,1.3540120124816895
0.011313305011487109,0.02083574224953793,-0.08247711682840603, ,0.011555572985743827,0.020655405189691615,-0.0827345390867032, ,0.00039683931958827003, ,0.0012612923450334196,-3.1782601037475162e-06,-0.0029905284446017396,-0.004165605767121388,-0.0015110059161994984,-0.0018672561899020527, ,0.0032456322741415563, ,0.004431186076737998, ,4.12544140544215e-05, ,0.20100729125031555,-0.2103209070966303,0.0945125039,2.0838986583492027,0.7461719252190703,-0.9558328539039684, ,0.008114821234109084,0.008110182177711723,0.0030887747760325775,0.00224662210563172,0.00723959373521976,-0.0001591967585184346, ,1.3654570579528809
0.011330744130899767,0.02083605803703565,-0.08251769274379563, ,0.011573207557047032,0.020656041854904324,-0.08277712480912426, ,0.0003981197500362047, ,0.001555676852178711,0.00014544684933572862,-0.0035166800666974474,-0.0037156601276076,-0.003753387934435439,-0.0018606655734580207, ,0.0038481585136131693, ,0.0052814818595167574, ,4.154032713901778e-05, ,0.20111540951055468,-0.21022051156926538,0.09455398518000001,2.0838986583492027,0.7461719252190703,-0.9558328539039684, ,0.010313823364389817,0.007773693743527132,0.003671078939847892,0.002206011048050324,0.00723959373521976,-0.00032425933048143944, ,1.3754119873046875
0.011349018984864635,0.020837920321443573,-0.08255910594071961, ,0.011590886387551768,0.02065664158152818,-0.08281985782789558, ,0.00039919089254862144, ,0.0016470719761060772,0.00016722086887283158,-0.0039845138931333636,-0.0029064833445742377,-0.004167429916483358,-0.0033163800306586695, ,0.00431476069765559, ,0.005080857854413688, ,4.1823595270457915e-05, ,0.20123125050366805,-0.21013556150764892,0.09459676275000001,2.0838986583492027,0.7461719252190703,-0.9557511751638279, ,0.010256911106622435,0.008676807304256151,0.0041395040332640335,0.002169215753370555,0.00723959373521976,-0.0025202691546219818, ,1.388395071029663
0.011372064074931786,0.02084071042738156,-0.08261496131770835, ,0.011608609380406604,0.020657204561569224,-0.08286273732434282, ,0.00038861424805768243, ,0.001583890350999796,0.00023970049706885106,-0.003955523381571213,0.00125071295561377,-0.0016599553721766288,-0.0038214894863925803, ,0.004267590677940174, ,0.0020783969223024325, ,4.2087172761948944e-05, ,0.2013779824282783,-0.21001972051453555,0.0946550958,2.0838986583492027,0.7463085617188358,-0.9558625930675244, ,0.009782191926221805,0.007858798417792003,0.004138428558067031,0.0021250929251792824,0.010279344431886233,-0.005118216902526174, ,1.3976600170135498
0.011388590717857767,0.020843247594992148,-0.0826588590014087, ,0.011626376438870708,0.0206577309867281,-0.08290576248128662, ,0.00038976889233912373, ,0.0016454117789482417,0.00015543129591902923,-0.004029826159965999,-0.0024876254379401497,-0.003836773294440892,-0.003543598182526131, ,0.004355575471691312, ,0.004572647872914625, ,4.23485911708839e-05, ,0.20148610068851747,-0.20993477045291908,0.09470046595,2.0838986583492027,0.7465818347183666,-0.9560854288749172, ,0.010134398576177551,0.008840193368774901,0.00417203025667889,0.0020915188200850607,0.007655873573283755,-0.003132934309026588, ,1.4071881771087646
0.011388590717857767,0.020843247594992148,-0.0826588590014087, ,0.011644187466313835,0.02065822104840192,-0.08294893248304173, ,0.0004286107155813244, ,0.0016454117789482417,0.00015543129591902923,-0.004029826159965999,-0.0024876254379401497,-0.003836773294440892,-0.003543598182526131, ,0.004355575471691312, ,0.004572647872914625, ,4.2662437422297655e-05, ,0.20157877348300815,-0.2098498203913026,0.09474194723000001,2.0838986583492027,0.7467184712181321,-0.956115168038473, ,0.010318793154388013,0.00843780263054838,0.0044933177771509175,0.0020632251429364406,0.009774905258302241,-0.00619158258140113, ,1.4179801940917969
0.01142070162426959,0.02084808348397326,-0.0827403819409363, ,0.0116620423662162,0.020658674937681684,-0.08299224651541492, ,0.0003969341444231352, ,0.001530693540470363,0.0002969515513208138,-0.004038590496933887,0.011203106693650823,0.0037523895376185765,-0.006266664446689055, ,0.0043291357267466486, ,0.011814822290538061, ,4.2926262073607494e-05, ,0.2016868917432473,-0.20976487032968613,0.09478731738000001,2.0838986583492027,0.7468551077178975,-0.9562265859421695, ,0.0094886875407588,0.007658565377520198,0.004271604054706356,0.0020324971764041416,0.018293239728527345,-0.013137713163542277, ,1.4274861812591553
0.01143943718895725,0.020850342121425856,-0.08278699947533363, ,0.011679941042168462,0.02065909284535576,-0.08303570376570549, ,0.00039531280406298946, ,0.001840929171567409,0.00028528719829142945,-0.004703957535970345,0.008037942409961928,0.002083973416420886,-0.005549225610186911, ,0.005059409599987833, ,0.008303701649450768, ,4.3184010281446225e-05, ,0.2016868917432473,-0.20976487032968613,0.09478731738000001,2.0838986583492027,0.7468551077178975,-0.9562265859421695, ,0.0094886875407588,0.007658565377520198,0.004271604054706356,0.0020324971764041416,0.018293239728527345,-0.013137713163542277, ,1.4367949962615967
0.01143943718895725,0.020850342121425856,-0.08278699947533363, ,0.011697883397871561,0.020659474961905802,-0.08307930342270223, ,0.00043435735648506723, ,0.001840929171567409,0.00028528719829142945,-0.004703957535970345,0.008037942409961928,0.002083973416420886,-0.005549225610186911, ,0.005059409599987833, ,0.008303701649450768, ,4.349341156342616e-05, ,0.20179501000348643,-0.20967219753519545,0.09483528011,2.0838986583492027,0.7468551077178975,-0.9561449072020289, ,0.011523961989138092,0.009484338774931053,0.00495144902704383,0.0020039638415294235,0.018293239728527345,-0.011366693377825034, ,1.4461071491241455
0.011457739246636699,0.020850763624952758,-0.08283144621832716, ,0.011715869337136814,0.020659821477511824,-0.08312304467668416, ,0.00043372768900213086, ,0.0015828420916618258,-1.314790016949236e-05,-0.0038000621978682247,0.0023935062612311948,0.0011429915525120612,-0.004238714289620816, ,0.004116556165301566, ,0.0026524142058227513, ,4.379757560166104e-05, ,0.20190312826372558,-0.2095640792749563,0.09488065026,2.0838986583492027,0.7468551077178975,-0.9560632284618884, ,0.010417162789857957,0.010483812751897392,0.003954521231380338,0.001975458892843652,0.014891625127376873,-0.007302358254544247, ,1.4562060832977295
0.011475540203735361,0.020851918621806954,-0.08287093053814397, ,0.011733898763885805,0.0206601325820487,-0.08316692671941912, ,0.00043720106356073677, ,0.0019248307754977758,0.00021698099199609863,-0.004160574188731828,-0.008845305003164283,-0.00897938232640862,-0.0008271985094507905, ,0.004589382512401041, ,0.012604313797907047, ,4.410234262058902e-05, ,0.20202669198971318,-0.2094714064804656,0.09492213154000001,2.0838986583492027,0.7469917442176629,-0.9560929676254442, ,0.012736134956176457,0.008398425342545542,0.004336730607133134,0.0019485349043685191,0.003163639548925089,0.003106656500067583, ,1.4660680294036865
0.01149222473734481,0.020854512324968343,-0.082912086486333, ,0.011751971582150222,0.020660408465087356,-0.08321094874416167, ,0.00044098002331343294, ,0.0019597765216483,0.000192265223881799,-0.004881087218629571,-0.0005412078700092223,-0.0016982069115198278,-0.00341553174193981, ,0.005263335669229846, ,0.0017823607665778975, ,4.440812391075613e-05, ,0.20214253298282653,-0.20938645641884912,0.0949662054,2.0838986583492027,0.7472650172171938,-0.9563158034328371, ,0.01208397793992113,0.01077334048346654,0.0050858274329501916,0.0019250651380361863,0.012956014159789392,-0.005003250947143597, ,1.476384162902832
0.011513298825996159,0.02085705451020575,-0.0829642144172924, ,0.01177008769607197,0.020660649315895733,-0.08325510994565329, ,0.0004348973816512623, ,0.0018779763399261662,0.0003909005241585547,-0.00470530202996435,0.004303857464058471,0.0002780497318611737,-0.0032058414670894883, ,0.005081285816237515, ,0.004312829514124629, ,4.470131504312181e-05, ,0.20227381944168835,-0.20927833815861,0.09502064958,2.0838986583492027,0.7474016537169593,-0.9563455425963929, ,0.011690398434814385,0.008138141004290509,0.0049668885313376996,0.0018967799600448341,0.015223087253302948,-0.006631275700936006, ,1.4857511520385742
0.01153378083917867,0.020859699431305008,-0.08301585908777621, ,0.011788247009902985,0.020660855323438584,-0.08329940952012091, ,0.0004297590708282421, ,0.0019364393030202392,0.00013712987666707243,-0.00512182436955255,0.0006880335246643607,0.0005491943019930024,-0.004113299467144479, ,0.005477379542253632, ,0.0008803414040549727, ,4.498346619991064e-05, ,0.20238966043480172,-0.20917794263124506,0.09507379747000001,2.0838986583492027,0.7474016537169593,-0.9563455425963929, ,0.011360525303644628,0.012023751649144836,0.00531491875875876,0.0018715082885567285,0.015223087253302948,-0.006882783400271309, ,1.4953851699829102
0.01155283432808879,0.020861411723234153,-0.08306443384052166, ,0.01180644942800527,0.020661026676377498,-0.08334384666527592, ,0.00042725438856323455, ,0.0019744823496745715,0.00023809008077140914,-0.004797138450998437,0.0026728234862170926,-0.000802224419245545,-0.0038562724867382213, ,0.005193053509620889, ,0.002790617649706595, ,4.525838068029607e-05, ,0.2025055014279151,-0.20906982437100594,0.09512435278,2.0838986583492027,0.7475382902167248,-0.9564569605000894, ,0.012564138959151434,0.010095670064224339,0.005031210208464941,0.0018487798916434538,0.015104148906536146,-0.007080463466258728, ,1.5050280094146729
0.011574788408518263,0.020862850711068942,-0.0831134794800761, ,0.011824694854850782,0.02066116356307101,-0.08338842058031261, ,0.0004227570770375737, ,0.0019257449594206064,0.00011532959853574739,-0.004412561299207586,0.0017742552565499993,-0.0030607537498964785,-0.004898011604230643, ,0.004815858364227174, ,0.003537823279936852, ,4.558503413207498e-05, ,0.20264451061965114,-0.20896170611076678,0.09517490809000001,2.0838986583492027,0.7475382902167248,-0.9563752817599489, ,0.012744687289614663,0.010456031843880212,0.004611699918934569,0.0018237907547995333,0.01282359807120394,-0.007689919580121425, ,1.5141081809997559
0.011574788408518263,0.020862850711068942,-0.0831134794800761, ,0.011842983195021308,0.020661266171573846,-0.08343313046590789, ,0.00046340211783515, ,0.0019257449594206064,0.00011532959853574739,-0.004412561299207586,0.0017742552565499993,-0.0030607537498964785,-0.004898011604230643, ,0.004815858364227174, ,0.003537823279936852, ,4.596280561232612e-05, ,0.20264451061965114,-0.20896170611076678,0.09517490809000001,2.0838986583492027,0.7475382902167248,-0.9563752817599489, ,0.012744687289614663,0.010456031843880212,0.004611699918934569,0.0018237907547995333,0.01282359807120394,-0.007689919580121425, ,1.5224781036376953
0.01161841042176609,0.020865773874122112,-0.08321857482034291, ,0.01186131435320861,0.020661334689639977,-0.08347797552422008, ,0.00040998344507299907, ,0.001992761487291837,0.0001778312474934613,-0.004838194907966142,-0.0017396563141380997,-0.004849797827446622,-0.00434935914747971, ,0.005235537438056208, ,0.005152372308692701, ,4.6265121417972774e-05, ,0.20293025173599744,-0.2087145786587916,0.09528509274000001,2.0838986583492027,0.747948199716021,-0.956709535471038, ,0.01224634682648997,0.010634356679254648,0.00502803393939394,0.0017739488646246022,0.009551931494634092,-0.005268534296589818, ,1.5305020809173584
0.01161841042176609,0.020865773874122112,-0.08321857482034291, ,0.01187968823421419,0.02066136930472034,-0.08352295495888766, ,0.00045021616142749764, ,0.001992761487291837,0.0001778312474934613,-0.004838194907966142,-0.0017396563141380997,-0.004849797827446622,-0.00434935914747971, ,0.005235537438056208, ,0.005152372308692701, ,4.6617722050626515e-05, ,0.20293025173599744,-0.2087145786587916,0.09528509274000001,2.0838986583492027,0.747948199716021,-0.956709535471038, ,0.01224634682648997,0.010634356679254648,0.00502803393939394,0.0017739488646246022,0.009551931494634092,-0.005268534296589818, ,1.5382070541381836
0.011640821729991997,0.020868704025111633,-0.08327039635345196, ,0.011898104742949233,0.020661370203962828,-0.08356806797502807, ,0.00044473616497904566, ,0.002084461277797628,0.00014099725490234285,-0.005225746599829442,0.007133382292998979,0.000592931132823398,-0.004739775363215654, ,0.005627902501834648, ,0.007157982003975769, ,4.695934278710342e-05, ,0.20306926092773347,-0.20859873766567824,0.09533953692000001,2.0841083482926877,0.7480848362157865,-0.9568209533747345, ,0.013141800520491728,0.012224261439967896,0.005462555390946503,-0.00041465222346783766,0.019572686079990638,-0.01353686353244625, ,1.546234130859375
0.01166167275251413,0.020870135481871444,-0.08332415281167513, ,0.011916563784434748,0.020661337574215042,-0.08361331377923745, ,0.00043838347317938964, ,0.002186540586692487,0.00021021354846297415,-0.00572951169035291,-0.00019716443637291157,-0.0023157716197180407,-0.002659844596508973, ,0.0061361595222990725, ,0.0023241484107855907, ,4.7289008710828385e-05, ,0.20319282465372107,-0.20847517393969064,0.09539527739,2.0841083482926877,0.7482214727155518,-0.9568506925382901, ,0.012731009063384865,0.012456936408305431,0.005948025212845408,-0.00041465222346783766,0.014172723610749066,-0.007467072578737084, ,1.5550270080566406
0.011685713951749317,0.02087225039526762,-0.08338616827962826, ,0.011935065263801165,0.02066127160202107,-0.08365869157958855, ,0.0004253904994742995, ,0.002406129591958767,0.0002757128723902486,-0.006182290522622164,2.2821530377015327e-06,-0.004667909006666827,-0.0036683369193396074, ,0.00663974346698765, ,0.00466790859716755, ,4.7598216125266854e-05, ,0.2033241111125829,-0.20834388748082883,0.09545879560000001,2.0841083482926877,0.7482214727155518,-0.9567690137981496, ,0.014125772783338908,0.012815252067315432,0.006425498797902381,-0.00041465222346783766,0.013343802220119,-0.008652332048353837, ,1.5625431537628174
0.011685713951749317,0.02087225039526762,-0.08338616827962826, ,0.01195360908628873,0.020661172473624367,-0.08370420058563054, ,0.00046633275649073775, ,0.002406129591958767,0.0002757128723902486,-0.006182290522622164,2.2821530377015327e-06,-0.004667909006666827,-0.0036683369193396074, ,0.00663974346698765, ,0.00466790859716755, ,4.7957512859628404e-05, ,0.2033241111125829,-0.20834388748082883,0.09545879560000001,2.0841083482926877,0.7482214727155518,-0.9567690137981496, ,0.014125772783338908,0.012815252067315432,0.006425498797902381,-0.00041465222346783766,0.013343802220119,-0.008652332048353837, ,1.5726242065429688
0.011732954276403907,0.02087855308829233,-0.08351192369651415, ,0.011972195157247002,0.020661040374966622,-0.08374984000838755, ,0.0004014376053390222, ,0.0022412665383442984,0.00022364492452224527,-0.0058252711809113926,0.016744190564332715,0.0032182949136642662,-0.008903043524886845, ,0.006245564592518694, ,0.01705066957917478, ,4.822902523514719e-05, ,0.2036098522289292,-0.2080813145631052,0.09559101718000002,2.0841083482926877,0.7487680187146137,-0.9570513279326543, ,0.013888034766350178,0.012930500280483823,0.006119405117172494,-0.000410529383469707,0.02592011618328305,-0.023193056344710517, ,1.5813109874725342
0.011750714624090913,0.02087935236034429,-0.08355684037800422, ,0.011990823382135033,0.02066087549168871,-0.08379560906035777, ,0.00040298243323982165, ,0.0016751277619228397,6.208575101463148e-06,-0.004340916701123938,0.033661480209349545,0.015507021178344363,-0.01191615507039439, ,0.004652918371438096, ,0.03706161024791935, ,4.8499729271615275e-05, ,0.20371797048916834,-0.20797319630286604,0.09563768362000001,2.0841083482926877,0.7489046552143791,-0.9570810670962101, ,0.011897101105405577,0.012232139927619332,0.00464667780630105,-0.0004085408581168962,0.04104498142760264,-0.03546928759478566, ,1.5938611030578613
0.011771171399614071,0.02087478458384645,-0.08359867958329348, ,0.012009493666521362,0.020660678009129546,-0.08384150695551251, ,0.000402000324551656, ,0.0019902480454001567,-0.0006001674296855897,-0.003546972312588178,-0.032155829813092944,-0.019078456534049187,0.004191068567861066, ,0.004111240787419496, ,0.03738963618609814, ,4.87663977427245e-05, ,0.2038647024137786,-0.20781101891250733,0.09568046119000001,2.0841083482926877,0.7490412917141446,-0.9571108062597661, ,0.013939033718929314,0.015410351016315488,0.0034870428021015762,-0.0004060136734349859,-0.009952403510709348,0.016213748614678107, ,1.6015121936798096
0.011771171399614071,0.02087478458384645,-0.08359867958329348, ,0.012028205916083761,0.020660448112328502,-0.08388753290929482, ,0.00044208948146456673, ,0.0019902480454001567,-0.0006001674296855897,-0.003546972312588178,-0.032155829813092944,-0.019078456534049187,0.004191068567861066, ,0.004111240787419496, ,0.03738963618609814, ,4.9081479235701124e-05, ,0.2038647024137786,-0.20781101891250733,0.09568046119000001,2.0841083482926877,0.7490412917141446,-0.9571108062597661, ,0.013939033718929314,0.015410351016315488,0.0034870428021015762,-0.0004060136734349859,-0.009952403510709348,0.016213748614678107, ,1.6090590953826904
0.011798828518925907,0.02086718477956573,-0.0836512920589863, ,0.012046960036609416,0.02066018598602313,-0.08393368613861887, ,0.0004291435270483985, ,0.001974839462553928,-0.0003054770527664314,-0.004185587995682465,-0.007419289812921864,-0.0038747188659019856,-0.00021051249710724788, ,0.004638152002924042, ,0.008370143746272232, ,4.9376933055632075e-05, ,0.20405777073563422,-0.2076102278577775,0.09573231279000001,2.0838986583492027,0.7489046552143791,-0.9569993883560696, ,0.013727316875230839,0.014380503342699013,0.004298114279546681,-0.0004450472761987804,0.012104249128443555,-0.001771972651844967, ,1.6238441467285156
0.011833224086223997,0.02086658652333459,-0.08373345733304996, ,0.012065755933994608,0.020659891814651665,-0.08397996586186877, ,0.00039693855646126216, ,0.001992096798904667,2.532158617095338e-06,-0.005196871684657458,0.01437296039899103,0.00512546151137056,-0.007860250639128194, ,0.005565602516783599, ,0.01525950007519538, ,4.962873965189311e-05, ,0.2042971754547352,-0.20737854587155075,0.09581916422,2.0838986583492027,0.7494512012134408,-0.9572000237504334, ,0.01242111426890975,0.01377914063575879,0.005429042781186094,-0.0004450472761987804,0.025945532921022148,-0.02120162340149482, ,1.6314361095428467
0.011833224086223997,0.02086658652333459,-0.08373345733304996, ,0.012084593514244837,0.020659565782350252,-0.08402637129889717, ,0.00043799859352465015, ,0.001992096798904667,2.532158617095338e-06,-0.005196871684657458,0.01437296039899103,0.00512546151137056,-0.007860250639128194, ,0.005565602516783599, ,0.01525950007519538, ,4.992959848972863e-05, ,0.2042971754547352,-0.20737854587155075,0.09581916422,2.0838986583492027,0.7494512012134408,-0.9572000237504334, ,0.01242111426890975,0.01377914063575879,0.005429042781186094,-0.0004450472761987804,0.025945532921022148,-0.02120162340149482, ,1.6391301155090332
0.011853757002178361,0.020864174315349947,-0.08378817848031622, ,0.012103472683474776,0.020659208072957003,-0.08407290167102496, ,0.0004306232429089045, ,0.0019234377814606807,-0.00014338163244923918,-0.005037003051666119,0.015338781885560027,0.016682302400373692,-0.005199820240283467, ,0.005393660253869166, ,0.022662247017185642, ,5.021822955091612e-05, ,0.20442073918072276,-0.20722409121406626,0.09587490469000001,2.0836889684057187,0.7495878377132063,-0.9573931203942706, ,0.01272588729495384,0.015633763024459766,0.005300769224625625,0.0024491621233084914,0.03812848607830879,-0.017071397577087206, ,1.6469810009002686
0.011875296756798437,0.020862710023157864,-0.08384063796467676, ,0.012122393347908085,0.020658818870009213,-0.08411955620103943, ,0.0004247631225117791, ,0.0019153820317525793,-0.00010606851272136793,-0.005000103945759949,0.00483389222387123,0.008811219981602923,-0.0036987981808484756, ,0.005355462475394238, ,0.0100500800231081, ,5.055958501026734e-05, ,0.20454430290671036,-0.207077359289456,0.09592805258,2.0836889684057187,0.7495878377132063,-0.9573931203942706, ,0.01186925125714073,0.014660426627293492,0.005203793374714146,0.0024491621233084914,0.025957519415319232,-0.009258369800017825, ,1.6529500484466553
0.011875296756798437,0.020862710023157864,-0.08384063796467676, ,0.012141355413877428,0.020658398356743764,-0.08416633411319412, ,0.0004675558225480883, ,0.0019153820317525793,-0.00010606851272136793,-0.005000103945759949,0.00483389222387123,0.008811219981602923,-0.0036987981808484756, ,0.005355462475394238, ,0.0100500800231081, ,5.0951492041926504e-05, ,0.20454430290671036,-0.207077359289456,0.09592805258,2.0836889684057187,0.7495878377132063,-0.9573931203942706, ,0.01186925125714073,0.014660426627293492,0.005203793374714146,0.0024491621233084914,0.025957519415319232,-0.009258369800017825, ,1.6587140560150146
0.011893941738348755,0.02086093794827722,-0.08388551007865301, ,0.012160358787824465,0.020657946716098895,-0.08421323463320672, ,0.00046860096910916104, ,0.0021459120140698298,-9.587406418556477e-05,-0.005199821586216153,-0.00018279998241233636,0.0030442842973654053,-0.003385591693857481, ,0.005626035436858905, ,0.003049767026408314, ,5.134178436947086e-05, ,0.2046524211669495,-0.20694607283059419,0.09597342273000001,2.0836889684057187,0.7495878377132063,-0.9573931203942706, ,0.01367391088738772,0.014876460504541587,0.0053995971254237295,0.0024462107868325348,0.020543789520966003,-0.006159703717064836, ,1.6658110618591309
0.01192140477724267,0.02086265578578215,-0.08395487925035655, ,0.01217940337629974,0.020657464130714308,-0.08426025698825915, ,0.00044935782538128453, ,0.0027132937043270362,0.000266085484426254,-0.00694278846050314,-0.011899803368900418,-0.007003542251660992,-0.0015453300838814553, ,0.007458892398892657, ,0.013807784331962294, ,5.17054943106936e-05, ,0.20482232129018244,-0.20678389544023548,0.09604601497000001,2.0836889684057187,0.7498611107127372,-0.9576159562016634, ,0.015198100826148428,0.01460627082629995,0.007175140324324325,0.0024016759459940056,0.008446251120560366,0.002358234498519471, ,1.671584129333496
0.01192140477724267,0.02086265578578215,-0.08395487925035655, ,0.012198489085962508,0.020656950782928084,-0.08430740040699548, ,0.0004933167625532221, ,0.0027132937043270362,0.000266085484426254,-0.00694278846050314,-0.011899803368900418,-0.007003542251660992,-0.0015453300838814553, ,0.007458892398892657, ,0.013807784331962294, ,5.21204639789404e-05, ,0.20482232129018244,-0.20678389544023548,0.09604601497000001,2.0836889684057187,0.7498611107127372,-0.9576159562016634, ,0.015198100826148428,0.01460627082629995,0.007175140324324325,0.0024016759459940056,0.008446251120560366,0.002358234498519471, ,1.6772501468658447
0.01194691311149123,0.020865004397377342,-0.08402436276998386, ,0.012217615823581024,0.020656406854782233,-0.08435466411952174, ,0.00047528083762763947, ,0.002828948047400019,0.00035388670211079104,-0.007577730520034016,-0.007697801950570964,-0.004618487386817196,-0.002987200189546569, ,0.008096306731286447, ,0.008977001483037553, ,5.2510341051912064e-05, ,0.20496905321479272,-0.20662944078275097,0.09611860721000001,2.0836889684057187,0.750134383712268,-0.9578387920090562, ,0.015249388005539254,0.015256743015831315,0.00784670518226601,0.0023657274234775766,0.012313109349103794,-0.0016785689362050008, ,1.6829240322113037
0.01194691311149123,0.020865004397377342,-0.08402436276998386, ,0.012236783496032032,0.020655832528017722,-0.08440204735740463, ,0.0005200224594576918, ,0.002828948047400019,0.00035388670211079104,-0.007577730520034016,-0.007697801950570964,-0.004618487386817196,-0.002987200189546569, ,0.008096306731286447, ,0.008977001483037553, ,5.295186533486207e-05, ,0.20496905321479272,-0.20662944078275097,0.09611860721000001,2.0836889684057187,0.750134383712268,-0.9578387920090562, ,0.015249388005539254,0.015256743015831315,0.00784670518226601,0.0023657274234775766,0.012313109349103794,-0.0016785689362050008, ,1.6885449886322021
0.01197800961425301,0.02087105142634985,-0.08411095550819836, ,0.012255992010301094,0.020655227984078355,-0.08444954935367008, ,0.0004883643751727557, ,0.0028447251629865515,0.0005922804673995936,-0.008372697964113215,0.020715292044955248,0.011077985956312264,-0.010056998084603069, ,0.00886258024523657, ,0.02349138259468959, ,5.335175462996908e-05, ,0.20513895333802565,-0.2064749861252665,0.09620934751000002,2.0836889684057187,0.750407656711799,-0.9579799490763086, ,0.01513025216174598,0.015286234142794905,0.00881018336283186,0.002326743773626827,0.036285766590426836,-0.024655630830813006, ,1.6943130493164062
0.01197800961425301,0.02087105142634985,-0.08411095550819836, ,0.012275241273482286,0.020654593404108804,-0.08449716934280233, ,0.0005332559054339597, ,0.0028447251629865515,0.0005922804673995936,-0.008372697964113215,0.020715292044955248,0.011077985956312264,-0.010056998084603069, ,0.00886258024523657, ,0.02349138259468959, ,5.3803025055052576e-05, ,0.20513895333802565,-0.2064749861252665,0.09620934751000002,2.0836889684057187,0.750407656711799,-0.9579799490763086, ,0.01513025216174598,0.015286234142794905,0.00881018336283186,0.002326743773626827,0.022981468359431285,-0.014227896940337477, ,1.7018160820007324
0.01200813716237341,0.02087549929280071,-0.08420104610415169, ,0.012294531192778322,0.020653928968956053,-0.08454490656074416, ,0.000499354546057388, ,0.002873450494525856,0.0005163885466297293,-0.008916843502915201,0.0051503596969130535,0.0038416370935526216,-0.007797253106482705, ,0.009382615463241702, ,0.006425287868659885, ,5.421018827299502e-05, ,0.20527023979688747,-0.20630508600203354,0.09630138410000001,2.0836889684057187,0.750407656711799,-0.9579799490763086, ,0.013216844228199272,0.016891588031055674,0.009244812257690076,0.0022911451698477596,0.022981468359431285,-0.014227896940337477, ,1.7077581882476807
0.012024832918685793,0.020878375108734533,-0.08424905655916476, ,0.012313861675500274,0.02065323485916835,-0.08459276024489322, ,0.0005023524438317942, ,0.0029916506762229607,0.0005531099303350065,-0.008786710117546701,0.005383162434527476,-0.0010952840967702211,-0.009499191254245575, ,0.009298504129879067, ,0.005493453619832072, ,5.461801765956502e-05, ,0.2053474671256297,-0.20622013594041708,0.09635064312000001,2.0836889684057187,0.750407656711799,-0.9578982703361679, ,0.01461752026470591,0.01605972949034875,0.009123030652920965,0.0022728309107984974,0.019193638520290848,-0.015651125225754545, ,1.7145521640777588
0.012024832918685793,0.020878375108734533,-0.08424905655916476, ,0.012333232629067794,0.020652511254997216,-0.08464072963410421, ,0.0005472957695993089, ,0.0029916506762229607,0.0005531099303350065,-0.008786710117546701,0.005383162434527476,-0.0010952840967702211,-0.009499191254245575, ,0.009298504129879067, ,0.005493453619832072, ,5.50766800000203e-05, ,0.2053474671256297,-0.20622013594041708,0.09635064312000001,2.0836889684057187,0.750407656711799,-0.9578982703361679, ,0.01461752026470591,0.01605972949034875,0.009123030652920965,0.0022728309107984974,0.019193638520290848,-0.015651125225754545, ,1.7204179763793945
0.012065612752776612,0.020887099758387394,-0.08436639238137522, ,0.0123526439610088,0.020651758336395307,-0.08468881396868473, ,0.0004916586004207305, ,0.002842204599104366,0.0003653109270636808,-0.008027867598407033,-0.003195476470103132,-0.006524230117228065,-0.0050503803008117645, ,0.008523980128681417, ,0.0072647515546514045, ,5.5465748606004414e-05, ,0.20555598091323377,-0.2060038994199388,0.09647379067,2.0838986583492027,0.7508175662110952,-0.9582325240472571, ,0.014259495350634227,0.015847852631675145,0.008283313322932919,-0.0006530382055594777,0.011569635249237984,-0.009434261769111595, ,1.726140022277832
0.012065612752776612,0.020887099758387394,-0.08436639238137522, ,0.012372095578959616,0.02065097628301937,-0.0847370124903969, ,0.0005357660716919646, ,0.002842204599104366,0.0003653109270636808,-0.008027867598407033,-0.003195476470103132,-0.006524230117228065,-0.0050503803008117645, ,0.008523980128681417, ,0.0072647515546514045, ,5.590442892176921e-05, ,0.20555598091323377,-0.2060038994199388,0.09647379067,2.0838986583492027,0.7508175662110952,-0.9582325240472571, ,0.014259495350634227,0.015847852631675145,0.008283313322932919,-0.0006530382055594777,0.011569635249237984,-0.009434261769111595, ,1.7318081855773926
0.01210256228393531,0.020887469772728887,-0.0844642822031615, ,0.012391587390664798,0.0206501652742274,-0.08478532444245443, ,0.0004928661651394331, ,0.0030083211408604535,-2.7552508346562893e-05,-0.007322197969758752,0.013339883645419687,0.00044005485606222463,-0.004874080709244874, ,0.007916144158338915, ,0.013347139127987287, ,5.62892252275374e-05, ,0.20577221743371207,-0.20577221743371207,0.09657490129000001,2.0836889684057187,0.7510908392106261,-0.95845535985465, ,0.019311546918695723,0.019002190940823144,0.007643383646833014,-0.005740387354062204,0.03075578417181758,-0.02507927973013124, ,1.73757004737854
0.01210256228393531,0.020887469772728887,-0.0844642822031615, ,0.012411119303977038,0.020649325489080755,-0.0848337490695222, ,0.0005370529767068622, ,0.0030083211408604535,-2.7552508346562893e-05,-0.007322197969758752,0.013339883645419687,0.00044005485606222463,-0.004874080709244874, ,0.007916144158338915, ,0.013347139127987287, ,5.672340600704713e-05, ,0.20594984028981922,-0.20558687184473068,0.09664619724000001,2.0834792784622342,0.7512274757103916,-0.958485099018206, ,0.01744429072766007,0.018534558898138823,0.007070045059920108,-0.010133795991750636,0.02267094823239239,-0.01727529092369208, ,1.7433459758758545
0.012131087592531396,0.020885393343551464,-0.08453385593240459, ,0.012430691226857358,0.020648457106345244,-0.08488228561771628, ,0.0005170148584027087, ,0.002781350214185043,-0.00014638774960649102,-0.006836620967277492,0.0032780691172545518,-0.003828565019628107,0.001856154545791308, ,0.0073821896912366234, ,0.005040201614215386, ,5.7130979027472004e-05, ,0.20594984028981922,-0.20558687184473068,0.09664619724000001,2.0834792784622342,0.7512274757103916,-0.958485099018206, ,0.01744429072766007,0.018534558898138823,0.007070045059920108,-0.010133795991750636,0.02267094823239239,-0.01727529092369208, ,1.751772165298462
0.01214923963179457,0.020884775942393134,-0.08457631131125382, ,0.012450303067374657,0.020647560304487937,-0.08493093333460072, ,0.0005221754786972557, ,0.0030182823358092673,-0.0002007198530788784,-0.007183190200831281,-0.007223126540782347,-0.011034791320017385,0.0034579131184131534, ,0.007794134857660393, ,0.013188637434402725, ,5.7609189485434854e-05, ,0.2060656812829326,-0.2054710308516173,0.09669027110000002,2.0834792784622342,0.751364112210157,-0.9585965169219023, ,0.018721037987467107,0.019684078315384938,0.007374449777777778,-0.010133795991750636,0.013956058047261183,-0.0101688823356595, ,1.7586700916290283
0.01214923963179457,0.020884775942393134,-0.08457631131125382, ,0.012469954733706072,0.020646635261680885,-0.08497969146918855, ,0.0005677012526141235, ,0.0030182823358092673,-0.0002007198530788784,-0.007183190200831281,-0.007223126540782347,-0.011034791320017385,0.0034579131184131534, ,0.007794134857660393, ,0.013188637434402725, ,5.8138409220690115e-05, ,0.2060656812829326,-0.2054710308516173,0.09669027110000002,2.0834792784622342,0.751364112210157,-0.9585965169219023, ,0.018721037987467107,0.019684078315384938,0.007374449777777778,-0.010133795991750636,0.013956058047261183,-0.0101688823356595, ,1.762408971786499
0.012192983773269009,0.020884310539685914,-0.08468631588678963, ,0.012489646134136553,0.0206456821557991,-0.08502855927193952, ,0.000511940032260413, ,0.0030677319161540833,3.319662079818552e-05,-0.008018525534558254,-0.004709889860096728,-0.008446808630373073,0.003021767467379962, ,0.00858538484130942, ,0.009671173940283714, ,5.860009325081734e-05, ,0.2063128087349078,-0.20519301246814522,0.09680304833000002,2.0834792784622342,0.7515007487099225,-0.9586262560854583, ,0.01728856650728198,0.0191982483428021,0.008223444254001034,-0.0099780449011919,0.013927333483864768,-0.010145459380272635, ,1.766226053237915
0.012192983773269009,0.020884310539685914,-0.08468631588678963, ,0.012509377177059057,0.0206447011644217,-0.08507753599475958, ,0.0005572886250017837, ,0.0030677319161540833,3.319662079818552e-05,-0.008018525534558254,-0.004709889860096728,-0.008446808630373073,0.003021767467379962, ,0.00858538484130942, ,0.009671173940283714, ,5.9112419721713906e-05, ,0.2063128087349078,-0.20519301246814522,0.09680304833000002,2.0834792784622342,0.7515007487099225,-0.9586262560854583, ,0.01728856650728198,0.0191982483428021,0.008223444254001034,-0.0099780449011919,0.013927333483864768,-0.010145459380272635, ,1.7700121402740479
0.012225474026200313,0.0208844475692147,-0.084768724589228, ,0.012529147770974499,0.020643692464832337,-0.08512662089100004, ,0.0005275135319339579, ,0.0035135759586129604,1.053994105714275e-05,-0.009079967751670089,-0.0057828506491908105,-0.008222547223132938,0.002610514865755373, ,0.009736074233420225, ,0.010052441631172061, ,5.9587784056778396e-05, ,0.20650587705676338,-0.20498449868054117,0.09688860347000001,2.0834792784622342,0.7517740217094534,-0.9587674131527105, ,0.02007551122455485,0.022002536878847852,0.009353383159130946,-0.009329228013132919,0.019055214480289896,-0.011830577880821886, ,1.7740600109100342
0.012225474026200313,0.0208844475692147,-0.084768724589228, ,0.012548957824491369,0.020642656234018487,-0.08517581321545567, ,0.0005734334897237036, ,0.0035135759586129604,1.053994105714275e-05,-0.009079967751670089,-0.0057828506491908105,-0.008222547223132938,0.002610514865755373, ,0.009736074233420225, ,0.010052441631172061, ,6.0114154765480766e-05, ,0.20650587705676338,-0.20498449868054117,0.09688860347000001,2.0834792784622342,0.7517740217094534,-0.9587674131527105, ,0.02007551122455485,0.022002536878847852,0.009353383159130946,-0.009329228013132919,0.019055214480289896,-0.011830577880821886, ,1.7778429985046387
0.012225474026200313,0.0208844475692147,-0.084768724589228, ,0.012568807246326148,0.02064159264867159,-0.08522511222436463, ,0.000620601229437695, ,0.0035135759586129604,1.053994105714275e-05,-0.009079967751670089,-0.0057828506491908105,-0.008222547223132938,0.002610514865755373, ,0.009736074233420225, ,0.010052441631172061, ,6.0692620568841154e-05, ,0.20650587705676338,-0.20498449868054117,0.09688860347000001,2.0834792784622342,0.7517740217094534,-0.9587674131527105, ,0.02007551122455485,0.022002536878847852,0.009353383159130946,-0.009329228013132919,0.019055214480289896,-0.011830577880821886, ,1.7816951274871826
0.012261974972808766,0.020886252448587446,-0.08487136361670405, ,0.012588695945302854,0.020640501885189032,-0.0852745171754068, ,0.0005741713378189513, ,0.003908142468205883,0.0005326359222278974,-0.01165610098917431,0.035096528819924595,0.017814310693237946,-0.006565265005941042, ,0.012305363417927657, ,0.03935880823298066, ,6.121486520169153e-05, ,0.20671439084436746,-0.20473737122856597,0.09699619554000001,2.0834792784622342,0.7523205677085151,-0.9591314060273557, ,0.021008842496894126,0.023635601882558102,0.012243513850883937,-0.008776970351459678,0.05849200733432311,-0.04392388054441733, ,1.7866740226745605
0.012261974972808766,0.020886252448587446,-0.08487136361670405, ,0.012608623830353292,0.020639384119672397,-0.08532402732770333, ,0.0006213001187138733, ,0.003908142468205883,0.0005326359222278974,-0.01165610098917431,0.035096528819924595,0.017814310693237946,-0.006565265005941042, ,0.012305363417927657, ,0.03935880823298066, ,6.178893929641015e-05, ,0.20671439084436746,-0.20473737122856597,0.09699619554000001,2.0834792784622342,0.7523205677085151,-0.9591314060273557, ,0.021008842496894126,0.023635601882558102,0.012243513850883937,-0.008776970351459678,0.05849200733432311,-0.04392388054441733, ,1.7910370826721191
0.012261974972808766,0.020886252448587446,-0.08487136361670405, ,0.01262859081051667,0.02063823952792727,-0.08537364194181472, ,0.000669478227538908, ,0.003908142468205883,0.0005326359222278974,-0.01165610098917431,0.035096528819924595,0.017814310693237946,-0.006565265005941042, ,0.012305363417927657, ,0.03935880823298066, ,6.241569055811634e-05, ,0.20671439084436746,-0.20473737122856597,0.09699619554000001,2.0834792784622342,0.7523205677085151,-0.9591314060273557, ,0.021008842496894126,0.023635601882558102,0.012243513850883937,-0.008776970351459678,0.05849200733432311,-0.04392388054441733, ,1.7968029975891113
0.012261974972808766,0.020886252448587446,-0.08487136361670405, ,0.012648596794939937,0.02063706828546661,-0.08542336027974085, ,0.0007185189604332029, ,0.003908142468205883,0.0005326359222278974,-0.01165610098917431,0.035096528819924595,0.017814310693237946,-0.006565265005941042, ,0.012305363417927657, ,0.03935880823298066, ,6.309574505905215e-05, ,0.20671439084436746,-0.20473737122856597,0.09699619554000001,2.0834792784622342,0.7523205677085151,-0.9591314060273557, ,0.021008842496894126,0.023635601882558102,0.012243513850883937,-0.008776970351459678,0.05849200733432311,-0.04392388054441733, ,1.8010749816894531
0.012301810511073416,0.020893487004839745,-0.08499018099499278, ,0.012668641692877314,0.020635870567507184,-0.0854731816049191, ,0.0006589544247645344, ,0.0042465287324615604,0.0008544348426610619,-0.012015039405748662,0.04514968691905396,0.02068600191248918,-0.013307652736190303, ,0.012772009908298222, ,0.04966291024111353, ,6.370461698436235e-05, ,0.20693835009771996,-0.2045211347080877,0.09712193567,2.0832695885187493,0.7530037502073423,-0.9596068168056973, ,0.02417756472827281,0.021567486717834268,0.012753251817453966,-0.002421882384321347,0.0652384248428624,-0.04879789062804938, ,1.8055050373077393
0.012301810511073416,0.020893487004839745,-0.08499018099499278, ,0.01268872541369053,0.02063464654897131,-0.08552310518222346, ,0.0007076084459620805, ,0.0042465287324615604,0.0008544348426610619,-0.012015039405748662,0.04514968691905396,0.02068600191248918,-0.013307652736190303, ,0.012772009908298222, ,0.04966291024111353, ,6.436618963201726e-05, ,0.20693835009771996,-0.2045211347080877,0.09712193567,2.0832695885187493,0.7530037502073423,-0.9596068168056973, ,0.02417756472827281,0.021567486717834268,0.012753251817453966,-0.002421882384321347,0.0652384248428624,-0.04879789062804938, ,1.809581995010376
0.012301810511073416,0.020893487004839745,-0.08499018099499278, ,0.01270884786684873,0.02063339640448836,-0.08557313027796419, ,0.0007570709318845783, ,0.0042465287324615604,0.0008544348426610619,-0.012015039405748662,0.04514968691905396,0.02068600191248918,-0.013307652736190303, ,0.012772009908298222, ,0.04966291024111353, ,6.508102302521469e-05, ,0.20693835009771996,-0.2045211347080877,0.09712193567,2.0832695885187493,0.7530037502073423,-0.9596068168056973, ,0.02417756472827281,0.021567486717834268,0.012753251817453966,-0.002421882384321347,0.0652384248428624,-0.04879789062804938, ,1.8134310245513916
0.012397319690686458,0.020902452365021234,-0.08524276306918008, ,0.012729008961928242,0.020632120308392676,-0.08562325615988588, ,0.0005726012448229424, ,0.004368835221946746,0.00016230453258183047,-0.011406625980204008,-0.01888523185496989,-0.01061095231493342,0.0012494517991043061, ,0.012215734943509709, ,0.02166204279711635, ,6.558322415889518e-05, ,0.20744032773454454,-0.20400371160551464,0.09738248996000001,2.0832695885187493,0.7532770232068732,-0.9595029376525277, ,0.02354762817828059,0.02597781044578997,0.011738254620486369,-0.002421882384321347,0.0157460596310746,-5.343543378495859e-05, ,1.817655086517334
0.012397319690686458,0.020902452365021234,-0.08524276306918008, ,0.012749208608612618,0.020630818434724564,-0.08567348209716642, ,0.0006189747036165228, ,0.004368835221946746,0.00016230453258183047,-0.011406625980204008,-0.01888523185496989,-0.01061095231493342,0.0012494517991043061, ,0.012215734943509709, ,0.02166204279711635, ,6.613566838913157e-05, ,0.20744032773454454,-0.20400371160551464,0.09738248996000001,2.0832695885187493,0.7532770232068732,-0.9595029376525277, ,0.02354762817828059,0.02597781044578997,0.011738254620486369,-0.002421882384321347,0.0157460596310746,-5.343543378495859e-05, ,1.8213720321655273
0.012443080359464682,0.020902402063395616,-0.085358711291618, ,0.012769446716692867,0.02062949095723207,-0.0857238073604176, ,0.0005606162773686886, ,0.0045353319252795146,-1.7049576551256707e-05,-0.011085478490653595,-0.016907320318838962,-0.01041234480187046,0.0008969812584637554, ,0.011977368647881875, ,0.01985633997569546, ,6.661967397171963e-05, ,0.2077106233851424,-0.20371024775629412,0.09750304493,2.0832695885187493,0.7536869327061696,-0.9597555126234765, ,0.02641161746687191,0.027363593298290304,0.011434896999282127,-0.002421882384321347,0.01982107751301283,-0.0020231700949514177, ,1.8257431983947754
0.012443080359464682,0.020902402063395616,-0.085358711291618, ,0.012789723196066815,0.02062813804936828,-0.0857742312216813, ,0.0006066620293357533, ,0.0045353319252795146,-1.7049576551256707e-05,-0.011085478490653595,-0.016907320318838962,-0.01041234480187046,0.0008969812584637554, ,0.011977368647881875, ,0.01985633997569546, ,6.715340867452945e-05, ,0.2077106233851424,-0.20371024775629412,0.09750304493,2.0832695885187493,0.7536869327061696,-0.9597555126234765, ,0.02641161746687191,0.027363593298290304,0.011434896999282127,-0.002421882384321347,0.01982107751301283,-0.0020231700949514177, ,1.8295230865478516
0.012443080359464682,0.020902402063395616,-0.085358711291618, ,0.012810037956739422,0.020626759884293574,-0.0858247529544308, ,0.0006540881596353019, ,0.0045353319252795146,-1.7049576551256707e-05,-0.011085478490653595,-0.016907320318838962,-0.01041234480187046,0.0008969812584637554, ,0.011977368647881875, ,0.01985633997569546, ,6.773808959948585e-05, ,0.2077106233851424,-0.20371024775629412,0.09750304493,2.0832695885187493,0.7536869327061696,-0.9597555126234765, ,0.02641161746687191,0.027363593298290304,0.011434896999282127,-0.002421882384321347,0.01982107751301283,-0.0020231700949514177, ,1.8334040641784668
0.012486149177196289,0.02090393144059295,-0.08547675603629853, ,0.012830390908822839,0.02062535663487587,-0.08587537183356893, ,0.0006216976257457778, ,0.004280316510412492,0.0002180414381288561,-0.011776646297247121,0.06616889199257528,0.04166126721377833,-0.010229465586085555, ,0.012532280299630844, ,0.07819196395322282, ,6.828379268202997e-05, ,0.2079886417686145,-0.20342450663994782,0.09762878506000001,2.083059898575265,0.7546433882045276,-0.9604537592092108, ,0.02734782177477544,0.028635166432851772,0.012581999620853082,-0.008729625023499799,0.09947591233752023,-0.06694029439080892, ,1.838003158569336
0.012486149177196289,0.02090393144059295,-0.08547675603629853, ,0.012850781962535994,0.020623928473689178,-0.08592608713542674, ,0.0006428508118243812, ,0.004280316510412492,0.0002180414381288561,-0.011776646297247121,0.06616889199257528,0.04166126721377833,-0.010229465586085555, ,0.012532280299630844, ,0.07819196395322282, ,6.885073918422517e-05, ,0.2079886417686145,-0.20342450663994782,0.09762878506000001,2.083059898575265,0.7546433882045276,-0.9604537592092108, ,0.02734782177477544,0.028635166432851772,0.012581999620853082,-0.008729625023499799,0.09947591233752023,-0.06694029439080892, ,1.8421080112457275
0.012510548966947914,0.020904225401433676,-0.08553870919515275, ,0.012871211028204814,0.020622475573015792,-0.0859768981377628, ,0.0006336163173950764, ,0.004771855308873884,-1.5911661946457246e-06,-0.012022467243680888,0.012391100801995248,0.009228051014709852,0.0014493390534660523, ,0.012934849216207264, ,0.015449791372220925, ,6.940483397643369e-05, ,0.20813537369322477,-0.2032700519824633,0.09769359956000001,2.083059898575265,0.7549166612040585,-0.9605949162764632, ,0.02920804603215475,0.030087806454810014,0.012572069076558801,-0.008729625023499799,0.053448338870528155,-0.02569649622871157, ,1.847175121307373
0.012510548966947914,0.020904225401433676,-0.08553870919515275, ,0.012891678016262056,0.020620998104844364,-0.08602780411976203, ,0.0006816824033543457, ,0.004771855308873884,-1.5911661946457246e-06,-0.012022467243680888,0.012391100801995248,0.009228051014709852,0.0014493390534660523, ,0.012934849216207264, ,0.015449791372220925, ,7.0010043268966e-05, ,0.20813537369322477,-0.2032700519824633,0.09769359956000001,2.083059898575265,0.7549166612040585,-0.9605949162764632, ,0.02920804603215475,0.030087806454810014,0.012572069076558801,-0.008729625023499799,0.053448338870528155,-0.02569649622871157, ,1.851140022277832
0.012510548966947914,0.020904225401433676,-0.08553870919515275, ,0.012912182837247245,0.020619496240872642,-0.08607880436203501, ,0.0007308099957820705, ,0.004771855308873884,-1.5911661946457246e-06,-0.012022467243680888,0.012391100801995248,0.009228051014709852,0.0014493390534660523, ,0.012934849216207264, ,0.015449791372220925, ,7.066720668303065e-05, ,0.20813537369322477,-0.2032700519824633,0.09769359956000001,2.083059898575265,0.7549166612040585,-0.9605949162764632, ,0.02920804603215475,0.030087806454810014,0.012572069076558801,-0.008729625023499799,0.053448338870528155,-0.02569649622871157, ,1.8549649715423584
0.012590072251918046,0.020903718723185652,-0.08573528425207592, ,0.012932725401806663,0.02061797015250531,-0.08612989814661641, ,0.0005956370980209838, ,0.005357489982368939,-7.530277033791387e-05,-0.013400290001021053,-0.04913556917443942,-0.03192545743903398,0.01122021631190741, ,0.014431775411565583, ,0.058596403974142515, ,7.125050656229506e-05, ,0.20859101493280402,-0.20279896527713562,0.0978958208,2.0828502086317804,0.7551899342035894,-0.9605727158634343, ,0.028454855040021224,0.031876701900729186,0.013626014987168523,-0.00963887680081019,-0.006045478390572194,0.017184839353849995, ,1.8568949699401855
0.012590072251918046,0.020903718723185652,-0.08573528425207592, ,0.012953305620693214,0.020616420010854907,-0.0861810847569643, ,0.0006428196640251394, ,0.005357489982368939,-7.530277033791387e-05,-0.013400290001021053,-0.04913556917443942,-0.03192545743903398,0.01122021631190741, ,0.014431775411565583, ,0.058596403974142515, ,7.188487854616059e-05, ,0.20859101493280402,-0.20279896527713562,0.0978958208,2.0828502086317804,0.7551899342035894,-0.9605727158634343, ,0.028454855040021224,0.031876701900729186,0.013626014987168523,-0.00963887680081019,-0.006045478390572194,0.017184839353849995, ,1.85880708694458
0.012590072251918046,0.020903718723185652,-0.08573528425207592, ,0.012973923404766576,0.0206148459867436,-0.08623236347795935, ,0.0006912864255918277, ,0.005357489982368939,-7.530277033791387e-05,-0.013400290001021053,-0.04913556917443942,-0.03192545743903398,0.01122021631190741, ,0.014431775411565583, ,0.058596403974142515, ,7.257157649188749e-05, ,0.20859101493280402,-0.20279896527713562,0.0978958208,2.0828502086317804,0.7551899342035894,-0.9605727158634343, ,0.028454855040021224,0.031876701900729186,0.013626014987168523,-0.00963887680081019,-0.006045478390572194,0.017184839353849995, ,1.8607761859893799
0.012590072251918046,0.020903718723185652,-0.08573528425207592, ,0.01299457866499282,0.020613248250700468,-0.08628373359590268, ,0.0007408071384296853, ,0.005357489982368939,-7.530277033791387e-05,-0.013400290001021053,-0.04913556917443942,-0.03192545743903398,0.01122021631190741, ,0.014431775411565583, ,0.058596403974142515, ,7.331159372548417e-05, ,0.20859101493280402,-0.20279896527713562,0.0978958208,2.0828502086317804,0.7551899342035894,-0.9605727158634343, ,0.028454855040021224,0.031876701900729186,0.013626014987168523,-0.00963887680081019,-0.006045478390572194,0.017184839353849995, ,1.8628640174865723
