NicholasDascanio/dvrk_moveit_final/test/execution/third_experiment_notsharpbends/thirdexp_600vel3.0/thirdexp_600vel3.0_29.csv
Current Position (x),Current Position (y),Current Position (z), ,Planned Position (x),Planned Position (y),Planned Position (z), ,Position Error,,Cartesian linear Velocity(x),Cartesian linear Velocity(y),Cartesian linear Velocity(z),Cartesian Angular Velocity(x),Cartesian Angular Velocity(y),Cartesian Angular Velocity(z), ,Total Linear Velocity, ,Total Angular Velocity, ,MSE, ,Joint 1 Position,Joint 2 Position,Joint 3 Position,Joint 4 Position,Joint 5 Position,Joint 6 Position, ,Joint 1 Velocity,Joint 2 Velocity,Joint 3 Velocity,Joint 4 Velocity,Joint 5 Velocity,Joint 6 Velocity, ,Time Stamp
0.009569951207606908,0.01992537674436532,-0.07912441985335446, ,0.009667639207167905,0.01981087864935249,-0.07922411136872522, ,0.0001805302114791737, ,-2.238933810482364e-05,3.111706523144275e-05,5.128054972582641e-06,0.030279069453382837,-0.00853335598544711,-0.04160746079352461, ,3.867623504416893e-05, ,0.031458547508382326, ,1.5044184289931142e-05, ,0.19512256880015647,-0.18644221704952813,0.09250843956,2.254166892458637,1.0040050002764564,-0.8893508665828908, ,-0.00032698202158692335,-0.00031532279407266666,0.0,0.0010351733120897036,0.0,-0.051209841282857216, ,0.019443988800048828
0.009581844756205531,0.01993451591992195,-0.07914185631217416, ,0.009695707399914658,0.019833735113815445,-0.07928128038448248, ,0.0002063020708838034, ,0.0005796026203098562,0.00024423937746006054,6.172962205257921e-05,0.05288027290534159,-0.05179335397510675,-0.17694466742201342, ,0.0006319830830100468, ,0.07401942163063766, ,1.7583285561953506e-05, ,0.1951302915330307,-0.18645766251527657,0.09252399504000001,2.2552153421760597,1.003321817777629,-0.8929593928115772, ,0.0006723896968811558,-6.034054940164206e-05,-0.00032378918514643464,0.06626762680076356,-0.054258171505417174,-0.12440867762179852, ,0.03840899467468262
0.009610515227485452,0.019932819443176,-0.07918911369353657, ,0.009723779745864787,0.01985642849146278,-0.07933849581907541, ,0.00020243381154801685, ,0.0014878393087829837,-0.0004199484914459559,-0.0023621494371011847,-0.08777519993924685,-0.23236920180025059,-0.15279998696653166, ,0.002823078551408905, ,0.2483947094235036, ,1.841456543471856e-05, ,0.19515345973165335,-0.1864653852481508,0.09254214310000002,2.255425032119544,0.9990860862849005,-0.8976733118110446, ,0.0009037908937332561,-0.0007381693203938591,0.0004229534528070397,-0.019870533870235678,-0.268939501700742,-0.12786783106653313, ,0.06153297424316406
0.009638304645810003,0.019930795281146656,-0.07924312412224083, ,0.009751856191943478,0.019878959323354015,-0.07939575721318375, ,0.00019717449277320976, ,0.0007649466940670946,8.500361717947045e-05,-0.0012551964911346458,0.04524695684968657,-0.08197948710575237,-0.13308353881737972, ,0.0014723747114965327, ,0.09363719031600906, ,1.872477587343342e-05, ,0.1951997961288987,-0.1864653852481508,0.09257066148000001,2.2552153421760597,0.9953969007912337,-0.9001375040006587, ,0.003056360614741778,-0.0005642530284261139,0.0008319091394037032,0.0,-0.06871584338705011,-0.14575618598656503, ,0.08070993423461914
0.009658475322354566,0.019938808821562237,-0.07928228463529986, ,0.009779936685240104,0.019901328149745264,-0.07945306410842236, ,0.00021289267689110624, ,0.0010522621901887027,5.231692828225939e-05,-0.0018488725099822256,-0.18553951590546391,-0.036735723947989046,0.13333260499447186, ,0.0021279855112414634, ,0.18914128416714093, ,1.921794737644827e-05, ,0.1952615779918925,-0.18648855344677345,0.09260306873000002,2.255634722063028,0.9940305357935793,-0.9026171895298793, ,0.0028868020108872676,0.0009571531836556135,0.0012086661025077767,0.012303101043289561,-0.09997158746807948,0.21770356482258624, ,0.10026001930236816
0.00967840041894918,0.019955627834440486,-0.07934897853765387, ,0.009808021173008332,0.01992353551009083,-0.0795104160473428, ,0.00020950782013946456, ,0.0009279372093851671,0.0013812879073031139,-0.003888275398995984,-0.009820439280861733,0.09573982608368756,0.08358633166391898, ,0.004229386400633161, ,0.09624217020264594, ,1.949743683410927e-05, ,0.19533880532063475,-0.18648855344677345,0.09267695726000001,2.2560541019499976,0.9944404452928756,-0.8978056826121132, ,0.003919521336884949,-0.0011899257895166245,0.00486079082087275,0.04009820440596255,0.09128672608959848,0.12411922821567209, ,0.11902785301208496
0.009693428622264726,0.01998163587055713,-0.0794285591856455, ,0.009836109602666142,0.019945581943044213,-0.07956781257343137, ,0.00020260615456412027, ,0.0006365906478415964,0.0011653894525384114,-0.0030351121947916203,0.10014891369352151,0.08220561478768545,-0.029011196780782646, ,0.0033128969594570803, ,0.12956684767468948, ,1.960343386498465e-05, ,0.19545464631374812,-0.18651172164539614,0.09277936417,2.2560541019499976,0.9968999022886535,-0.897524200154713, ,0.0043673381381677855,-0.0009464514383966697,0.0019896960315954376,0.022383383909844404,0.027474719467500876,0.03168801991476, ,0.14397096633911133
0.00970246848461659,0.019986851091608242,-0.07944726166452312, ,0.009864201921794895,0.01996746798645604,-0.07962525323110854, ,0.00024127661975910933, ,0.000814629613466384,0.0004347814841773173,-0.0017516798480337247,-0.007253014659604824,-0.013356345085773358,-0.00020659812215127423, ,0.0019801612651820237, ,0.015198624137934743, ,2.0155169000463468e-05, ,0.19550098271099348,-0.1865271671111446,0.09280010481,2.256263791893482,0.9968999022886535,-0.8975242001547131, ,0.0051976238743168144,-0.0014716160476756725,0.001813705458417713,0.0,-0.011494050866335379,0.003213229350460499, ,0.1625359058380127
0.009727372942185931,0.020004841949575213,-0.07949232410501175, ,0.009892298078140335,0.019989194177378298,-0.07968273756572884, ,0.0002523934215992244, ,0.001461411680041116,0.0009876560826407037,-0.002967289673484811,-0.018904620875377667,-0.00794068885325194,-0.037315867261179636, ,0.003451955480956754, ,0.020504614838515903, ,2.0707796517795965e-05, ,0.19560137823835838,-0.18655805804264147,0.09284806754000001,2.2575219315543893,0.9964899927893571,-0.8978433763647483, ,0.0061568689437567345,-0.0014798413874775684,0.003115355274789752,0.056924636195971934,-0.023372571103588546,0.029654500495965568, ,0.18175792694091797
0.009755132815699383,0.02002103791242223,-0.07956831107684953, ,0.009920398019611481,0.0200107610520617,-0.07974026512357954, ,0.00023871823489168988, ,0.001009247461994009,0.0007954782476498235,-0.0033407058568208086,0.025253596035675646,0.009864468219655233,0.003819617482692033, ,0.003579340959425664, ,0.02711183958298638, ,2.1017995240479597e-05, ,0.19572494196434598,-0.18657350350838994,0.09292584494000002,2.2577316214978738,0.9960800832900608,-0.8973457651733779, ,0.006137278991360807,-0.001393213146852389,0.0037400355764263915,-0.009498859060856762,0.027287529088156803,-0.01621691605582291, ,0.20373201370239258
0.009780927077552789,0.020038918396170936,-0.07964643050507358, ,0.009948501694280888,0.020032169145957315,-0.07979783545188038, ,0.0002259430513815006, ,0.0010070752939999792,0.0006371714854145428,-0.0025849116179301732,0.012137458770358343,0.001710563869150884,-0.0014312699564927823, ,0.002846393546599083, ,0.012257403233849619, ,2.1158737195628747e-05, ,0.19586395115608202,-0.18661983990563527,0.09300880750000001,2.2575219315543893,0.9960800832900608,-0.8973457651733779, ,0.0066556219807921355,-0.0010605601104559624,0.0028643789821974465,0.0,0.012516182657257178,-0.0062583991100953005, ,0.22295880317687988
0.009806481483549012,0.02005648420468476,-0.07969918785515508, ,0.00997660905038461,0.02005341899371811,-0.07985544809878291, ,0.0002310195841358484, ,0.0012478208621550578,0.0009812613284821844,-0.002861434873864545,0.016386175933675688,0.0016721514228716823,-0.022590390141557417, ,0.003272268362492939, ,0.016471273536631977, ,2.1318017623330067e-05, ,0.19601068308069228,-0.1866584535700064,0.09306714055000001,2.2581510013848427,0.9960800832900608,-0.8971824076930967, ,0.00749419391635197,-0.003121640817004033,0.0032172917632801463,0.020620281353759488,0.008751332466841207,-0.007136124825209412, ,0.24270200729370117
0.009833821763316,0.020075117815550977,-0.07976083550767958, ,0.010004720036321782,0.02007451112919759,-0.0799131026133691, ,0.0002288926806600747, ,0.0009544842670495414,0.0005844843807810769,-0.0029669996162471593,0.0012980578565899021,-0.005552288501143056,0.0240385174831862, ,0.003171080088902349, ,0.005702005048143548, ,2.1437051747775324e-05, ,0.19615741500530254,-0.1866893445015033,0.09313454763000001,2.258780071215296,0.9960800832900608,-0.8968556927325345, ,0.006191584778399664,-0.001488887675962498,0.003173070023904383,-0.023271380709961324,0.0066678316160040975,-0.0005609521204595711, ,0.2626838684082031
0.009847223351821578,0.020083837726239194,-0.07979854370091483, ,0.010032834600654572,0.02009544608545148,-0.07997079854565195, ,0.00025349165909819605, ,0.0009016722953750125,0.0006531398114255642,-0.002147597954311557,0.007079346924974216,-0.0006563797023667695,-0.0039228823403334445, ,0.002419045579330627, ,0.007109710764309396, ,2.1866542480883253e-05, ,0.19624236506691903,-0.1867202354330002,0.09317473262,2.2585703812718116,0.9960800832900608,-0.8966923352522533, ,0.005762383550244797,-0.0021294987218919816,0.002384195707229457,0.005220931861126955,0.0056971560623602915,-0.0010294389642651898, ,0.2823970317840576
0.009862448875856022,0.020094016641237958,-0.07983699915769867, ,0.010060952692108181,0.020116224394738275,-0.08002853544657343, ,0.00027673651609088116, ,0.0009351035241886292,0.000624748742794863,-0.0022737667510482652,-0.0020806715070761836,0.001258056367994753,0.0066601559736239385, ,0.0025366798833803095, ,0.0024314398377576984, ,2.2399460039302798e-05, ,0.1963350378614097,-0.1867511263644971,0.09321621390000001,2.2585703812718116,0.9960800832900608,-0.8965289777719722, ,0.005818929324613187,-0.0015225397129940285,0.00249785346087502,0.005276388729478359,0.004931161755952993,0.012843176656747227, ,0.2993278503417969
0.009890315478352802,0.02011477197356707,-0.07989267657347698, ,0.0100890742595704,0.02013684658851878,-0.08008631286800502, ,0.00027836550845052646, ,0.001472902915997075,0.000993021462627523,-0.003169830035091325,0.006398033133515159,0.0025114352673015544,-0.025807305183803288, ,0.003633642398002129, ,0.006873291406552017, ,2.2882292543056266e-05, ,0.1964894925188942,-0.18680518549461667,0.09327843582,2.25940914104575,0.9960800832900608,-0.8963656202916911, ,0.008408371579476924,-0.0016757957412561525,0.0035131917776797536,0.03433747168022155,0.004196906201985812,0.007400645217684092, ,0.31667399406433105
0.009924132418758648,0.02013925035570366,-0.07998421220925536, ,0.010117199252091832,0.020157313197458244,-0.08014413036274606, ,0.0002513461441944757, ,0.001322976036569162,0.0009649014025202822,-0.003725716873923466,0.0008936691001301615,-0.0014559915722245358,0.00109819572811318, ,0.0040696764655878855, ,0.0017083779444375426, ,2.315256344369299e-05, ,0.19666711537500137,-0.18686696735761046,0.09337695386000001,2.2596188309892344,0.9960800832900608,-0.8960389053311288, ,0.006845683079901035,-0.002149962493265517,0.004021411643524363,0.006738993601790463,0.003544718590559528,0.007892297684627183, ,0.33663082122802734
0.009936790398191963,0.020148718651395225,-0.0800191372467683, ,0.010145327618885364,0.02017762475142474,-0.0802019874845234, ,0.0002788503980282942, ,0.0013508225615723804,0.0010439450058927244,-0.0036611422555057863,-0.0021747715386601437,-0.0008656659208948489,0.006770106640210213, ,0.004039616984719136, ,0.002340728107700971, ,2.355074043259162e-05, ,0.1967366199708694,-0.18689785828910735,0.09341454627000001,2.2596188309892344,0.9960800832900608,-0.8957121903705666, ,0.007334032200856176,-0.00323885311460016,0.003980212773613194,0.0066120159663219215,0.00334677880866003,0.014715859300691452, ,0.357327938079834
0.00998003237801419,0.02018090904333274,-0.08010620891032863, ,0.01017345930932623,0.020197781779491396,-0.08025988378799101, ,0.0002476179214168881, ,0.0008572962819930576,0.00037973698765702716,-0.0020909510358124144,-0.011353590720348491,-0.012049201825554223,0.053835732337710156, ,0.0022915569661430984, ,0.016555581742667757, ,2.3742467623578522e-05, ,0.19697602468997033,-0.18698280835072384,0.09351176802000001,2.2608769706501417,0.9960800832900608,-0.8953854754100042, ,0.008185179076043691,-0.002691630979164527,0.0022378212306827763,-0.044537729202095686,0.0028653087419128935,0.012197903699464026, ,0.3742678165435791
0.009991634557408228,0.02018624953231057,-0.08012621163787284, ,0.010201594272951977,0.020217784809936728,-0.08031781882872915, ,0.00028599103390494296, ,0.001081919429022243,0.0004383157502724302,-0.0022345646135371808,-0.008906415989311108,-0.011290720234520981,0.03962589725289903, ,0.0025211008230345074, ,0.01438070266479229, ,2.4113282112259224e-05, ,0.19706869748446104,-0.18699825381647228,0.09353380495000001,2.2608769706501417,0.9960800832900608,-0.8953037966698637, ,0.00972588814114403,-0.0020135327333257805,0.0024171185918057665,-0.03071830638370941,0.002733013050847317,0.011279656102878762, ,0.39130592346191406
0.010019135252080456,0.020202788255512995,-0.0801896786768672, ,0.010229732459461934,0.020237634370243895,-0.08037579216324331, ,0.00028320251637262335, ,0.0015162227742101363,0.0009067332004358219,-0.0036664358374127897,-0.00521938420921424,-0.005025499812246455,0.012812490732089303, ,0.004069870802331555, ,0.007245524082061379, ,2.443770847187829e-05, ,0.19726176580631666,-0.18706003567946608,0.09360250832000001,2.2606672807066572,0.9960800832900608,-0.8948954029691609, ,0.009649682981166184,-0.00204627793492815,0.003966337529880478,0.0,0.00249199318137996,0.014880581932415368, ,0.4093668460845947
0.01003530102762163,0.020214066898940463,-0.08023040729454807, ,0.010257873818717322,0.02025733098710216,-0.08043380334896368, ,0.0003045987255594242, ,0.0015912967163841931,0.001096974550819278,-0.0041892276926583484,-0.01177425105826588,-0.0012208807633253028,0.019905980696502647, ,0.004613589390664915, ,0.011837378786331667, ,2.4835170205739885e-05, ,0.19734671586793312,-0.18708320387808874,0.09364658218000001,2.2608769706501417,0.9960800832900608,-0.8946503667487392, ,0.009035577846603948,-0.0028255192116000707,0.004526516487638534,0.004009453351683062,0.0023884649120095506,0.02859759736006422, ,0.4268929958343506
0.010080384190781014,0.020243659621739064,-0.08033161119118785, ,0.010286018300741526,0.020276875186409055,-0.08049185194424564, ,0.0002628036526689189, ,0.0016547491474700562,0.0010980449998355874,-0.0031333184966940673,-0.005011337211835675,0.001982021882013931,-0.016671919019095018, ,0.0037096606804992265, ,0.005389054749165204, ,2.5012139218430245e-05, ,0.19761701151853098,-0.18714498574108254,0.09375806312000001,2.261506040480595,0.9962167197898263,-0.8941900334714519, ,0.01011155477447744,-0.0027307033344654806,0.003496994845225028,0.039222393444811925,0.0,0.026062122425624258, ,0.44568586349487305
0.010110676950188616,0.020260087422540648,-0.08039071828605206, ,0.010314165855718838,0.020296267493266486,-0.08054993750836661, ,0.0002608974759288921, ,0.001622412289896441,0.0010469758458494561,-0.002904145014795548,-0.004235183378972845,-0.002501605563474761,-0.006266799401184305, ,0.003487468756442275, ,0.004918821855094388, ,2.516706659056453e-05, ,0.19784097077188348,-0.18719904487120212,0.09382287762000001,2.261506040480595,0.9962167197898263,-0.8939449972510302, ,0.011118757121203205,-0.0036630671894557557,0.0032594253161448744,0.0249521751686101,0.0,0.02159724991892052, ,0.4628410339355469
0.010147325787408894,0.02028378577594984,-0.08046059690431752, ,0.010342316433995241,0.02031550843198499,-0.08060805960152778, ,0.0002465216546890189, ,0.001715014467736104,0.0010876469546982947,-0.004040811571555662,-0.0012593793887427035,-0.0055389209083676234,-0.004518788965309569, ,0.004522433933119064, ,0.005680288742363916, ,2.5250475154622605e-05, ,0.198064930025236,-0.1872531040013217,0.09390065502000002,2.2623448002545334,0.9962167197898263,-0.893781639770749, ,0.010116892357018771,-0.0023682570583530055,0.004379656728072588,0.013969452216811127,0.0,0.010730866039057162, ,0.4813878536224365
0.01016429131083629,0.02029459508409051,-0.08049864896585052, ,0.010370469986078084,0.020334598526083773,-0.0806662177848518, ,0.0002686805363201003, ,0.001827246500741421,0.0013218854309502643,-0.0038914733417549936,0.006137634374697016,0.0007286311054975876,-0.03645843846505365, ,0.004497752287156343, ,0.006180732813586024, ,2.5416845676423798e-05, ,0.1981653255526009,-0.18727627219994436,0.0939421363,2.2625544901980175,0.9962167197898263,-0.8936999610306084, ,0.009853074671434484,-0.003085190348965003,0.004306248045417681,0.04679157954673799,0.0,0.010143103648882809, ,0.4982600212097168
0.010209116945373867,0.020320446233514478,-0.08058839684580192, ,0.01039862646263564,0.020353538298289366,-0.0807244116203835, ,0.00023560339723428092, ,0.0014214204900941346,0.0007861201779893562,-0.0019233229791682943,0.003201439123106725,-0.005116044140669799,-0.01721127952805277, ,0.002517457532134012, ,0.006035157005573396, ,2.5443402987069018e-05, ,0.19848968033331835,-0.18736894499443504,0.09404065434000002,2.2625544901980175,0.9962167197898263,-0.8933732460700462, ,0.01104446751924132,-0.0028400672523518824,0.0022243836782572268,0.024510556335890128,0.0,0.007395558354053882, ,0.524298906326294
0.010222600348256741,0.020327054649292423,-0.08060782372857493, ,0.010426785814497304,0.0203723282705385,-0.08078264067108774, ,0.000272584608505574, ,0.0013864323244864509,0.0008282386834376544,-0.0018173501571191284,0.0022405070229080636,-0.005485287501432267,-0.01174789939432816, ,0.0024312415554001133, ,0.005925221571658339, ,2.570294202695256e-05, ,0.19860552132643172,-0.18739983592593196,0.09406269127000001,2.2625544901980175,0.9962167197898263,-0.8932098885897651, ,0.011099057492218803,-0.003847416315982606,0.0021280977314629256,0.020755254653012208,0.0,0.009482422849832339, ,0.5387859344482422
0.010254809472136882,0.02034826218225825,-0.08066142941265209, ,0.010454947992653084,0.02039096896397645,-0.08084090450084948, ,0.0002721958924792988, ,0.0015932154101405281,0.0011326836257879017,-0.0034466118232737773,-0.009007773627464136,-0.001690544703574138,0.006693637546290577, ,0.003962378149491524, ,0.00916503827771911, ,2.59459068308346e-05, ,0.19881403511403578,-0.18746161778892576,0.09412361690000001,2.263393249971956,0.9962167197898263,-0.8927198161489218, ,0.009870390556876597,-0.004051203024165525,0.0038025331869181197,0.01652870064627336,0.0,0.02763698043694761, ,0.5548708438873291
0.010287836578846049,0.020372739937956987,-0.08074661870675555, ,0.010483112948253787,0.020409460898959154,-0.08089920267447383, ,0.00025052576041326114, ,0.001883526955397969,0.0014058996340370546,-0.004502438838279347,-0.006469950305751123,0.0028534469234133804,-0.012581296881143334, ,0.005078994296624337, ,0.007071238537437362, ,2.6098241957666457e-05, ,0.19899938070301718,-0.18753112238479377,0.09421694978,2.2636029399154403,0.9963533562895918,-0.8925045190920559, ,0.00951954895176732,-0.0033324357606169413,0.004925421001855288,0.037586557596780125,0.0,0.029088555745034782, ,0.5712950229644775
0.010303639097856771,0.02038394965523888,-0.08079006986513512, ,0.010511280632610615,0.02042780459505266,-0.08095753475768354, ,0.0002703382195274182, ,0.001708427532609975,0.0013555313374257179,-0.004409792502569505,0.0007041703788123071,0.00012890777223189404,-0.01636705122423922, ,0.00491959955246778, ,0.0007158711256523276, ,2.63104912123771e-05, ,0.19908433076463364,-0.18756201331629066,0.09426361622000001,2.2636029399154403,0.9963533562895918,-0.8924228403519153, ,0.008096652860001047,-0.0035535975448114723,0.004802174109134761,0.029681723564288966,0.0,0.014590623458818444, ,0.5871899127960205
0.010336449648211166,0.020406994874926948,-0.08086759109659741, ,0.010539450997195277,0.020446000571034895,-0.08101590031711993, ,0.00025441426239546864, ,0.0014597316106508764,0.0008743590085978887,-0.0032887941401247983,-0.01007150490379637,-0.006192944753786176,0.01681149058950092, ,0.0037029025030601193, ,0.011823188037322581, ,2.6457908436190697e-05, ,0.19928512181936348,-0.18763151791215868,0.09434917136000001,2.263812629858925,0.9964899927893571,-0.8918808283344872, ,0.009559705048183079,-0.002583958941973489,0.0035666841737572778,0.0,-0.0006358617900103345,0.020868341069599186, ,0.603259801864624
0.01035570237987049,0.020420308606140324,-0.08090034977338148, ,0.010567623993639422,0.020464049344894066,-0.08107429892034154, ,0.0002776370442453324, ,0.0015639681860680273,0.0011203146818921075,-0.0032970728033061177,-0.007307142499441423,-0.002245093380602757,0.006806239057671809, ,0.0038173014740516356, ,0.00764426421607391, ,2.667350901382405e-05, ,0.19939324007960263,-0.18767013157652981,0.09438546748000001,2.2644416996893786,0.9963533562895918,-0.8913610167300879, ,0.009967823052924249,-0.004346073758540283,0.00365591267385816,0.014525230798857388,0.0005027098854889355,0.02508725672345074, ,0.6179838180541992
0.010374065368700653,0.02043274000684273,-0.08093645085285538, ,0.01059579957373471,0.020481951433830657,-0.0811327301358233, ,0.00030018890577547064, ,0.0019168508025491852,0.0013896498837589566,-0.003728054469292546,0.018665984358591438,0.002488660912023464,-0.06867944674937149, ,0.004416314518314662, ,0.01883115515548855, ,2.6949944789826847e-05, ,0.19950135833984176,-0.1877010225080267,0.09442565247000001,2.2648610795763475,0.9963533562895918,-0.8911976592498069, ,0.009913321671016771,-0.002615496690770768,0.004181888033604621,0.06857092106219524,0.0005027098854889355,-0.004183986305318679, ,0.6340579986572266
0.010414685537302962,0.020462147220170566,-0.08103952563907636, ,0.010623977689433035,0.020499707354258937,-0.08119119353295633, ,0.0002611840704368431, ,0.0014454632835021377,0.0008756045963527275,-0.0037421071407737192,-0.005455187289406999,-0.0069283372185389575,0.024507231071201358, ,0.004106021598352408, ,0.008818215479477358, ,2.7091511597647433e-05, ,0.1997330403260685,-0.18777824983676894,0.09453713341000002,2.265070769519832,0.9964899927893571,-0.8910640409330817, ,0.009269612856746845,-0.0022366963405583305,0.004045926217932436,-0.013997157659972356,0.0035150955936571623,0.012535484806369441, ,0.648918867111206
0.010429978666569542,0.020470086579671056,-0.08107580773872902, ,0.010652158292845722,0.020517317621804962,-0.08124968868204727, ,0.0002860579314099158, ,0.0015844049554987175,0.00095395514344787,-0.0033581857492839735,-0.006748526427522224,-0.004614223565702291,0.01765653143304842, ,0.0038337685122361654, ,0.008175186091469364, ,2.730158989652239e-05, ,0.19984115858630763,-0.18780914076826585,0.09457731840000001,2.2648610795763475,0.9964899927893571,-0.8909006834528005, ,0.011033245152711403,-0.003156607264359823,0.00369921307942406,0.0,0.0035150955936571623,0.02038960899997036, ,0.6644618511199951
0.01046403362224434,0.020491678538254003,-0.08113440171476984, ,0.01068034133624364,0.02053478275130872,-0.0813082151543163, ,0.00028081686574285645, ,0.0018185980602810287,0.0013586075918292414,-0.003153013713272439,0.004592601862710927,0.0034645797997212282,-0.027501326700803224, ,0.0038851781129721746, ,0.0057528518794063704, ,2.7486217549098355e-05, ,0.2000573951067859,-0.18786319989838543,0.09464342919,2.2656998393502854,0.9964899927893571,-0.8905739684922382, ,0.011530612583046268,-0.004974683420221033,0.003629257580314423,0.046653408873791505,0.0035150955936571623,0.019626378443608004, ,0.6802158355712891
0.010483907652874092,0.02050276802109038,-0.08117331808283326, ,0.010708526772057213,0.02055210325682431,-0.08136677252189854, ,0.0003005201061186845, ,0.002024932244226553,0.0011791128268034629,-0.0036349487956087697,-0.006117347430073204,0.008004384995218557,-0.02766286378960556, ,0.004324755530517127, ,0.010074329659948384, ,2.771925328819055e-05, ,0.20018868156564773,-0.1878863680970081,0.09468620676000002,2.2659095292937703,0.9964899927893571,-0.890247253531676, ,0.012101297798422091,-0.0009001656245844948,0.004076992966470438,0.058669644513262224,0.0035150955936571623,0.03510854219134312, ,0.6948919296264648
0.010520899536454232,0.020525091600277375,-0.08125984033349924, ,0.01073671455287608,0.020569279651620573,-0.0814253603578418, ,0.0002755459737558008, ,0.001929769923928915,0.0011013838406482926,-0.004479260590199383,-0.011471171590156716,-0.001683038735357214,0.019953334257608497, ,0.00500008337517037, ,0.011593980991548255, ,2.7871207942004888e-05, ,0.2004280862847487,-0.18794042722712767,0.09478083593000002,2.2659095292937703,0.9966266292891226,-0.8897869202543884, ,0.012138263182203988,-0.001837092112765671,0.004874177331701347,0.005520486811397657,0.005189318253019839,0.02979865683344193, ,0.7113649845123291
0.010538400669822322,0.020536649183366822,-0.08130361443595784, ,0.010764904631448857,0.02058631244818076,-0.08148397823610642, ,0.0002937713139646792, ,0.0019073897458786002,0.001198877538391607,-0.004778307525714903,-0.003895976503065616,-0.001088564099041464,0.012417755330803143, ,0.005282770656109011, ,0.004045194954409483, ,2.8066792611697262e-05, ,0.20065976827097542,-0.18799448635724725,0.09487676139000001,2.2663289091807393,0.997036538788419,-0.8896311015246343, ,0.01142884496262372,-0.0018494217083505856,0.003944727964338782,0.014114599893383005,0.009442129084793792,0.03411136330263401, ,0.727043867111206
0.010573457250458109,0.020560407274913754,-0.0813732161307281, ,0.010793096960683162,0.020603202158204124,-0.08154262573156454, ,0.00028066459911992004, ,0.0016160027488491698,0.000987463775328725,-0.0027185301977132744,0.02001672046046955,0.010006224160423644,-0.0152545797883955, ,0.0033131489594875607, ,0.02237841861688947, ,2.8218496012308998e-05, ,0.2007756092640888,-0.1880176545558699,0.09491046493000001,2.2665385991242237,0.9973098117879499,-0.8896089011116055, ,0.012340310492034141,-0.002486255695886947,0.003236247769199513,0.02431507067897423,0.023161585184869143,0.0018235755352668925, ,0.7456138134002686
0.010584195944631544,0.02056627242279255,-0.08138912754408095, ,0.010821291493645534,0.020619949292606365,-0.08160130241999959, ,0.0003226665208637925, ,0.0017189334152857083,0.001108875900398989,-0.002717076001536617,0.016657456923275023,0.012437207622540854,-0.014711555875823977, ,0.003401005711079837, ,0.02078833818391617, ,2.8550424523655493e-05, ,0.20085283659283104,-0.18803310002161835,0.09492861299000001,2.266748289067708,0.9973098117879499,-0.8894455436313243, ,0.013116370636969008,-0.0033407031185991253,0.003277533234567902,0.03189154637835583,0.023161585184869143,0.011533617159011397, ,0.7599020004272461
0.01062868281146383,0.020588527299538747,-0.08147064169037797, ,0.010849488183560877,0.02063655436151869,-0.08166000787810491, ,0.0002948239543924069, ,0.00201378775617215,0.0011723941672434248,-0.003936119679334239,-0.0327823760474064,-0.0049218531073936525,0.021183526162687632, ,0.004574154275965945, ,0.03314979360990837, ,2.879774479117325e-05, ,0.20119263683929692,-0.18809488188461215,0.09501935329000001,2.266748289067708,0.9974464482877153,-0.8888218528737557, ,0.012575794004568085,-0.0030905802792869598,0.004268170289389067,0.02395933523880775,-0.010171577053747613,0.05874865285345199, ,0.7735400199890137
0.010650592836370239,0.020599835189740633,-0.08151963035415283, ,0.010877686983812942,0.020653017874290885,-0.08171874168348456, ,0.0003066683407313973, ,0.0019311266988186935,0.0009766404449447195,-0.004709417391301777,-0.0002202778113977494,-0.009007519892782789,-0.0029138839842369852, ,0.005182826357412318, ,0.009010212795298045, ,2.9066502149723593e-05, ,0.20131620056528451,-0.18810260461748637,0.09507120489000001,2.2669579790111927,0.9973098117879499,-0.8883020412693565, ,0.011278457518239932,0.0,0.0050359821435346196,0.0058276612461922485,0.0007963785913758342,0.0031447123145230335, ,0.7881278991699219
0.010675871878004953,0.02062039430239275,-0.08157819478746658, ,0.010905887847943357,0.02066934033948881,-0.08177750341465048, ,0.00030826448034770957, ,0.0018425750165921976,0.0014186516939438463,-0.0045557240683401275,0.02651616917065152,0.017736034480069742,-0.006634164227933894, ,0.005114907341032974, ,0.03190100538544882, ,2.932981613288853e-05, ,0.20146293248989477,-0.1881412182818575,0.09513990826,2.2675870488416465,0.9978563577870115,-0.8885026766637205, ,0.011371280026547147,-0.003423630384240993,0.005222561154098361,0.01805364221696007,0.03385890127745533,0.0012040860403416329, ,0.801692008972168
0.010719605902852928,0.020647045761708796,-0.08167107471043004, ,0.010934090729651989,0.020685522264896512,-0.08183629265102355, ,0.00027346142345591466, ,0.0018994901420924834,0.0008704201962563138,-0.0045941257752103335,-0.04148842008166137,-0.013996249141771106,0.07720110676229255, ,0.005046948162643376, ,0.04378565962577723, ,2.9498094430482844e-05, ,0.20173322814049263,-0.18817983194622862,0.09524361146000002,2.2682161186721,0.9981296307865425,-0.8882354400302701, ,0.013270443512581566,-0.0021497968616828837,0.0048460028962579865,-0.035179939636537115,-0.0060600174101463474,0.05642447775663115, ,0.8151369094848633
0.010741836012809477,0.02065778609119434,-0.08172015443978162, ,0.010962295582797125,0.020701564157518403,-0.08189510897293277, ,0.0002848298259669285, ,0.0018985835407297948,0.0009945872134342131,-0.004467279357646826,-0.00731255198473221,-0.007070954867862716,0.04040249232572322, ,0.004954836833389608, ,0.01017210978576225, ,2.968824774347689e-05, ,0.20187223733222867,-0.18819527741197709,0.09529546306000002,2.2682161186721,0.997992994286777,-0.8877156284258707, ,0.013572217042115385,-0.002450614190259645,0.0048682186797066014,-0.02330070710372398,0.009809615001907307,0.01880857090230151, ,0.8285548686981201
0.010758706297276596,0.020665852269445194,-0.0817601966344554, ,0.010990502361394369,0.020717466523575645,-0.0819539519616132, ,0.00030648747669678354, ,0.0020355567745980042,0.0010828225381312138,-0.004685149436095527,-0.007423344371559927,-0.0029902160646350473,0.02060794653815839, ,0.005221745040716081, ,0.008002963920606329, ,2.992373638904359e-05, ,0.20198807832534205,-0.18821072287772553,0.09533824063000002,2.2680064287286155,0.997992994286777,-0.8873072347251679, ,0.013178300452502538,-0.0013939184719147747,0.005103752489586671,0.0,0.007872302841216976,0.02307181717255862, ,0.8428158760070801
0.010804715719360059,0.02069556623886823,-0.08186304434645583, ,0.011018711019617097,0.020733229868509832,-0.08201282119920651, ,0.0002639046099441585, ,0.0020486168848928787,0.0012384569122482606,-0.004639985306591946,0.016501244513476867,0.0025056441931848757,-0.01847535834165046, ,0.005221117726115056, ,0.01669039607575793, ,3.0051526190031506e-05, ,0.20226609670881412,-0.18825705927497088,0.09545361044,2.2686354985590693,0.9984029037860733,-0.8873147734756949, ,0.012463559952849094,-0.0015137144280712818,0.005153287453898416,0.021495506858003506,0.015225840224476386,-0.002785290557511753, ,0.8558669090270996
0.010826420812134255,0.020708472249741643,-0.08190793127754216, ,0.011046921511796435,0.02074885469698319,-0.0820717162687605, ,0.00027762713114016764, ,0.002307307654847962,0.0014967544576109562,-0.004193585796050102,0.020345413104523,0.012262836484176485,-0.060996366622010176, ,0.005014987971005657, ,0.023755272924855714, ,3.0206875954026763e-05, ,0.20238966043480172,-0.18827250474071933,0.09550286946000001,2.269054878446038,0.9984029037860733,-0.8871514159954139, ,0.013431980404596006,-0.0017998219771250947,0.004809423768115943,0.07380677671035903,0.013954283987925075,0.007476419669356233, ,0.8693828582763672
0.010868994660424201,0.02073018170884458,-0.08199615974196277, ,0.01107513379242083,0.02076434151287829,-0.08213063675422753, ,0.00024848400507799883, ,0.0018585806495220302,0.0009379144971801337,-0.00417812132896536,-0.0022125043059429894,-0.005514303271543813,0.02449625040898457, ,0.004668051357296068, ,0.005941608755307761, ,3.0291048393571792e-05, ,0.2026676788182738,-0.1883033956722162,0.09559879492000001,2.2692645683895227,0.9984029037860733,-0.8868247010348517, ,0.013040668071797552,-0.0016300262708928012,0.004571989529276694,-0.012002389089714243,0.009894669290041711,0.012606255522026556, ,0.8880529403686523
0.010887268231974813,0.020738577810904064,-0.08203892899637644, ,0.011103347816135612,0.020779690819297775,-0.08218958224046369, ,0.0002666028246367581, ,0.0018360283233688046,0.0008735543528520629,-0.00382197595552802,-0.010992331158134543,-0.008626204244004487,0.016630939274787673, ,0.004329156663396876, ,0.013972928938982224, ,3.041311883178601e-05, ,0.20279896527713562,-0.18831111840509043,0.09564546136,2.269054878446038,0.9985395402858388,-0.8868544401984074, ,0.012460207662614336,-0.0011971465803329617,0.004138428558067031,0.0,0.0,0.020768039974896558, ,0.901425838470459
0.010921194767501504,0.020755663882856004,-0.08209487367024486, ,0.011131563537743656,0.02079490311856774,-0.08224855231322943, ,0.0002634613110534755, ,0.0016105538161086904,0.0006648640041192993,-0.002703190393202895,-0.0027354960957936348,-0.002360665477922816,0.01533811678621911, ,0.0032160792963576374, ,0.0036132644858105733, ,3.0524505349915906e-05, ,0.202914806270249,-0.1883265638708389,0.09567786861000001,2.269054878446038,0.9986761767856043,-0.8868025006218229, ,0.012925216774512499,-0.0008994023148079126,0.0030497437334865026,0.0005299115657442875,0.009868891451228132,0.016474920592157327, ,0.9156458377838135
0.010943617153767297,0.020766724543233202,-0.0821334027308636, ,0.011159780912204067,0.020809978912233917,-0.08230754655918739, ,0.00028093377127434254, ,0.00217760889195541,0.0011881852734226444,-0.003869255539790223,0.009719002463822868,-0.0004686870382842158,-0.026475809279128255, ,0.0045961835431691635, ,0.009730296787067447, ,3.067041041244287e-05, ,0.20319282465372107,-0.18834973206946157,0.09575175714,2.269893638219976,0.9986761767856043,-0.8866391431415417, ,0.014590550670121582,-0.0018256665428640878,0.004364057950684932,0.03589299851928032,0.008133147256028891,0.0069576803108868344, ,0.9303560256958008
0.010963528268784398,0.02077697494017826,-0.08217112554858336, ,0.011187999894633326,0.020824918701066866,-0.08236656456590263, ,0.00030146728597002005, ,0.0017627195163427139,0.0008206117525807295,-0.004313582199994715,-0.004246109188398163,-0.011435163367582681,0.03673239404663661, ,0.004731551028772737, ,0.012198049146878168, ,3.085582582501321e-05, ,0.2033241111125829,-0.18836517753521,0.09579323842000001,2.2701033281634606,0.9986761767856043,-0.8864757856612606, ,0.012481251525773781,-0.0013675202452214832,0.004643968373177843,-0.03031181041199173,0.007282129547317693,0.0067485740280090615, ,0.9450488090515137
0.011003247034982469,0.020797591656695247,-0.08227072002827293, ,0.01121622044030406,0.02083972298505897,-0.08242560592184184, ,0.00026668775793164, ,0.001884355107986359,0.0011517989949111605,-0.0043917510445815764,0.001284690053462664,-9.412998661373112e-05,-0.00663583982005289, ,0.004915781965797101, ,0.001288133282733059, ,3.1027878151978536e-05, ,0.20356351583168386,-0.1883883457338327,0.09589953420000001,2.269893638219976,0.9986761767856043,-0.8861490707006983, ,0.01066561843219282,-0.0015518506333411007,0.0048065212794206405,0.019674852497098053,0.005927365856539015,0.0131502006262765, ,0.957597017288208
0.011023070040038836,0.020808331424576214,-0.08231101000244824, ,0.011244442504645347,0.020854392263426096,-0.08248467021637187, ,0.00028510566262618874, ,0.0019654237121868065,0.0009247914908247272,-0.004100289892075671,-0.00980989461356455,-0.004971994660271005,0.020491419019547107, ,0.004640097721922019, ,0.010997943538318174, ,3.123399980555003e-05, ,0.20368707955767143,-0.18840379119958114,0.09594360806,2.2701033281634606,0.9986761767856043,-0.8859857132204172, ,0.013470112357483433,-0.0009313205184776457,0.004476900370994942,0.0,0.005433975109924783,0.023871809180382942, ,0.9687798023223877
0.011044669605056106,0.0208207508267236,-0.08235095721587209, ,0.011272666043242743,0.020868927034609255,-0.08254375703976075, ,0.0003024484996218913, ,0.0023276898486075284,0.0012552928193622823,-0.0046208728658595965,-0.0034832621230663904,-0.004541317205491846,-0.015888905879338555, ,0.0053241305521268475, ,0.005723344727700825, ,3.147071688536194e-05, ,0.2038260887494075,-0.1884192366653296,0.09598897821,2.2705227080504296,0.9988128132853697,-0.8859337736438324, ,0.014270216775709891,-0.0014197184885867806,0.005068027846007001,0.032753626324654665,0.0,0.019432451993972928, ,0.9801750183105469
0.01106934390258222,0.020835678435429064,-0.08240059798392027, ,0.011300891011837629,0.020883327796273016,-0.08260286598317465, ,0.000311121951838412, ,0.0025346888378825583,0.0015981538594981505,-0.004978649009947117,0.0074086328975713255,0.005204320423007145,-0.05246085212055062, ,0.005810825176148623, ,0.009053882560396938, ,3.171928934578113e-05, ,0.20396509794114354,-0.1884269593982038,0.09604471868000002,2.2711517778808834,0.9989494497851351,-0.885636797846826, ,0.013737252686518642,-0.001796727464039224,0.00554817538140021,0.07034043782661573,0.003322985013090402,0.01766464685880608, ,0.9941728115081787
0.011111584684653616,0.020860392909592795,-0.08250346882073001, ,0.011329117366327293,0.02089759504530697,-0.0826619966386792, ,0.00027172695037770467, ,0.0020160327622260063,0.0010982388583781785,-0.005376764103690478,-0.0117642958181525,-0.005263240074183505,0.031904967345011616, ,0.005846375707663244, ,0.012887992383679582, ,3.188276567972293e-05, ,0.2042122253931187,-0.18845012759682647,0.09615490333000001,2.271361467824368,0.999222722784666,-0.8856145974337972, ,0.011622139890421417,-0.0009649284688967581,0.005719501443447038,-0.012235859429869331,0.005722076901887303,0.02361357057417572, ,1.0065839290618896
0.011133978584837834,0.020872604552969857,-0.08255780169869308, ,0.011357345062764992,0.020911729277827105,-0.08272114859923789, ,0.0002794736793945661, ,0.00209839349962198,0.0010754153751893144,-0.005187110586255484,-0.013020339485933407,-0.005533145533923179,0.03180161344721499, ,0.005697884672621329, ,0.014147258959720025, ,3.205772021408053e-05, ,0.20434351185198052,-0.18846557306257494,0.09621582896000001,2.271361467824368,0.999222722784666,-0.8855329186936566, ,0.012891854579333078,-0.0009055292208155392,0.0055831796424816,-0.009657460069386007,0.005722076901887303,0.0263335110300965, ,1.0185558795928955
0.011151471171510358,0.02088102748298438,-0.08260300678082153, ,0.011385574057359535,0.020925730989175093,-0.08278032145871139, ,0.0002970573339001126, ,0.0021108741749854853,0.00107581380154702,-0.00485622569397951,-0.005236265761445307,-0.0059271109808761,0.014694306897869554, ,0.0054033409210493535, ,0.00790880022527404, ,3.226303592509157e-05, ,0.20445163011221967,-0.18847329579544916,0.09626379169,2.2711517778808834,0.999222722784666,-0.8853695612133754, ,0.013259318367817631,-0.0009571601851923138,0.0052657228165289265,0.0,0.005722076901887303,0.016412807132939827, ,1.0304968357086182
0.011178151363596352,0.020894766935199198,-0.08265502648365725, ,0.011413804306474883,0.020939600673918573,-0.08283951481185699, ,0.0003026190953274516, ,0.0022997947567310905,0.0011540198640746604,-0.0047997925489376425,-0.00592952921532218,-0.003709073792925244,0.005906063389839142, ,0.005445991762994508, ,0.006994036214464078, ,3.2474355459542925e-05, ,0.20461380750257838,-0.18848101852832339,0.09632082845,2.2715711577678523,0.999222722784666,-0.8850428462528133, ,0.014769951993536307,-0.0009512820037718507,0.005255299082810954,0.014017090076836389,0.005722076901887303,0.02236319948136136, ,1.0427899360656738
0.011203244830052323,0.020908496320897193,-0.08270054336072853, ,0.011442035766630517,0.020953338825852628,-0.08289872825432781, ,0.00031354300134675013, ,0.0024123643778743526,0.0013529921744624047,-0.004322032512212573,0.0028777363229859744,0.005578716444001846,-0.038340765840594856, ,0.0051312819794293255, ,0.0062772161026266, ,3.270174409668754e-05, ,0.20476053942718864,-0.1884887412611976,0.09637138376000001,2.2722002275983058,0.999222722784666,-0.8848794887725322, ,0.01446158816800835,-0.0010016246449527375,0.004857826020128088,0.060889844929706075,0.005722076901887303,0.023405381691835953, ,1.0540828704833984
0.011226159664628959,0.020919573882527562,-0.08274567901450616, ,0.011470268394501024,0.0209669459380005,-0.08295796138267306, ,0.0003269510475193938, ,0.0020010428874739565,0.000791516865584322,-0.004417176243316105,-0.029273233440119926,-0.006353248697990621,0.06460811049715524, ,0.0049134628878755885, ,0.029954731902934323, ,3.2949358837102826e-05, ,0.20490727135179893,-0.18849646399407183,0.09642064278000001,2.2724099175417907,0.999222722784666,-0.8846344525521105, ,0.014550282361004412,-0.0004962726236674455,0.004759131018822828,-0.026343112029945305,0.005722076901887303,0.04768788416329993, ,1.0664818286895752
0.011271710051484234,0.020941637770819747,-0.08285340806992698, ,0.011498502146915912,0.02098042250261277,-0.08301721379433513, ,0.0002824380026119468, ,0.002239067443776151,0.0011437555356166034,-0.005202130779045578,-0.008884309489895343,0.0005758834598386196,0.019721280211245595, ,0.005777868498445187, ,0.008902954176099287, ,3.310805143933004e-05, ,0.2052161806667679,-0.18849646399407183,0.09653990146000001,2.2722002275983058,0.9997692687837277,-0.8844266942457717, ,0.013689691511608594,-0.0003551536040546756,0.005668616199288257,0.005965994173090972,0.01047949377837289,0.02856936433915313, ,1.0807878971099854
0.011294719282642137,0.020953676121658837,-0.08290128704043222, ,0.011526736980859573,0.020993769011169283,-0.0830764850876514, ,0.0002934859584798413, ,0.0021276075576018537,0.0010001294186180092,-0.0045215495129371985,0.019043815727772972,0.00496989576643958,0.00446592517072448, ,0.005096212590845513, ,0.019681635590386222, ,3.328367671681867e-05, ,0.20536291259137815,-0.18850418672694605,0.09659304935000002,2.2724099175417907,0.9999059052834932,-0.8843747546691868, ,0.015159255840011309,0.0,0.00508745177898435,0.0,0.02779361999874666,-0.003912650874360978, ,1.0917530059814453
0.01131912515843277,0.02096603168235571,-0.08294754873028135, ,0.011554972853470657,0.02100698595437763,-0.08313577486185153, ,0.00030451677171776023, ,0.002411555810744279,0.0011177903305063192,-0.004896402615694235,-0.03310887469427867,-0.00661230701130215,0.015711719204474818, ,0.005571338728374471, ,0.03376270404927253, ,3.347564505274696e-05, ,0.20551736724886266,-0.18850418672694605,0.09664490095000002,2.272829297428759,1.0000425417832586,-0.8841594576123211, ,0.014304633940076994,-1.660861020509295e-05,0.005243190098749178,0.026220485558535622,-0.009934139740623215,0.055288289659845925, ,1.1037578582763672
0.011338089839413971,0.020975970248141133,-0.08298409267637871, ,0.011583209722042647,0.021020073822176126,-0.08319508271705829, ,0.0003264133566025233, ,0.0026899723836803476,0.0013913993515332853,-0.005176419735094942,-0.018412962499000846,-0.0021160443994962565,-0.026922979021315935, ,0.005997271450775808, ,0.01853415302013117, ,3.370310789022167e-05, ,0.20562548550910179,-0.18850418672694605,0.09668508594000001,2.2732486773157285,1.0000425417832586,-0.88399610013204, ,0.014860153704740177,-3.1371042300826445e-05,0.005624580338983051,0.06092108800200314,-0.0088949781578484,0.04318169391464574, ,1.1178979873657227
0.011357656942960242,0.020983756164777215,-0.08302480543471082, ,0.011611447544023238,0.02103303310373291,-0.08325440825428602, ,0.0003457677553758392, ,0.0024983288472614096,0.0012530827221683854,-0.0044533970988496615,0.00101292279776575,0.0034876509414425837,-0.03139000509546309, ,0.005257814095011162, ,0.0036317654015491562, ,3.402133448972747e-05, ,0.20574904923508938,-0.18850418672694605,0.09672786351000001,2.2732486773157285,0.9999059052834932,-0.8837213247480624, ,0.015495908157816913,-4.018236797431018e-05,0.004977753600000001,0.053362762453457606,0.006279325766755079,0.023078330730955728, ,1.1277320384979248
0.011389999005293033,0.02099807729475817,-0.08308930482528455, ,0.01163968627701425,0.021045864287446803,-0.0833137510754401, ,0.0003391215851854568, ,0.0020277031983476144,0.0008100963192233102,-0.0043810399839405495,-0.017162565973778326,-0.00796380608366731,0.039078465842168925, ,0.00489503295677303, ,0.018920250435145274, ,3.432207276861861e-05, ,0.20595756302269344,-0.18850418672694605,0.09679786317000001,2.273458367259213,0.9999059052834932,-0.8834762885276407, ,0.014142614241202797,-4.799293767002272e-05,0.004728053285841497,-0.015359374565106611,0.004880707593307748,0.02912387343157353, ,1.1370348930358887
0.011413764577553496,0.021008278101029013,-0.0831442461064471, ,0.01166792587877136,0.021058567860947015,-0.08337311078331634, ,0.00034569649594380934, ,0.002597573928275022,0.001276524515647779,-0.00624233445451417,-0.008191046099853338,-0.011028584765390318,0.009264189552851552, ,0.006880671812687962, ,0.013737645673801572, ,3.462910298396379e-05, ,0.20611974041305217,-0.18850418672694605,0.09685749251,2.2732486773157285,1.0000425417832586,-0.8835060276911966, ,0.014930292882075327,-4.9543324613351556e-05,0.006681548456375841,0.0033962150924104068,0.0004749382501422549,0.015709287368033616, ,1.1471598148345947
0.011441276003762884,0.021025639454758358,-0.08321061646564568, ,0.011696166307204138,0.02107114431109463,-0.08343248698160019, ,0.00034097842246758286, ,0.0027618397954117246,0.0015135306150141712,-0.006780263363887384,0.0070278302340182315,-0.0009889360024558974,-0.009975514561977483, ,0.0074759952689778045, ,0.007097068259892635, ,3.4922517157998346e-05, ,0.20626647233766243,-0.18851190945982027,0.09693138104000001,2.2736680572026975,1.0003158147827895,-0.8835655060183083, ,0.01506539792958736,0.0,0.007364221692094315,0.01970720657996793,0.012073878362023123,0.007205371015654177, ,1.1576218605041504
0.011466925671824743,0.021039949702417102,-0.08326930719443189, ,0.011724407520375978,0.021083594123983494,-0.08349187927486632, ,0.0003431327277543416, ,0.003039273915697758,0.0017752021781408972,-0.0071917532149727665,0.00350531494282167,0.007016213709237591,-0.02548349451141418, ,0.008006862245161214, ,0.007843115989416704, ,3.521457979571819e-05, ,0.20639775879652425,-0.18851190945982027,0.09699489925000002,2.274087437089667,1.0003158147827895,-0.8833204697978866, ,0.015541588856611657,0.0,0.0078621971964462,0.04905001027501469,0.012073878362023123,0.023307247174437377, ,1.16849684715271
0.011500029658343503,0.021058562955344726,-0.08335275235660929, ,0.01175264947650342,0.021095917784938887,-0.08355128726857712, ,0.00032346293001089696, ,0.0027937212556654956,0.0016393477503616066,-0.006496911757459071,0.008192265125963785,0.006347634519360961,-0.03652960068272488, ,0.007259628219487743, ,0.010363670214267548, ,3.5467827271718717e-05, ,0.20656765891975717,-0.18851963219269452,0.09708434326000001,2.274297127033151,1.0003158147827895,-0.8830754335774649, ,0.014042163592552647,0.00017622085656683693,0.0071142525770433234,0.05287653022077276,0.01037770423538226,0.014596856802612537, ,1.177706003189087
0.011527202790627277,0.02107215558359404,-0.08341409401269538, ,0.011780892133956541,0.021108115778519666,-0.08361071056908345, ,0.0003229697954667367, ,0.0024553767995713948,0.001071633874512499,-0.0057778443064576655,-0.021059181751741166,-0.0050610012987277984,0.049313653617901, ,0.006368732936663415, ,0.02165878260104739, ,3.571592038774622e-05, ,0.20672211357724168,-0.18851963219269452,0.09715045405000002,2.274506816976636,1.0003158147827895,-0.8828303973570433, ,0.015874362923799058,0.0001731476108775366,0.006227056888193902,-0.016721102332539962,0.008937740307843564,0.03909853259235143, ,1.1874089241027832
0.011551671019423613,0.02108261360491186,-0.08347256681354015, ,0.011809135451258548,0.021120188588518378,-0.08367014878362257, ,0.0003267085060949071, ,0.0025027714269063926,0.0012053052486069775,-0.0056805052617414295,0.0011244288562364314,-0.005923820705027261,0.00069229100698377, ,0.006323350819488877, ,0.006029592530454948, ,3.5966138131253276e-05, ,0.20687656823472617,-0.18851963219269452,0.09721267597000001,2.274297127033151,1.0003158147827895,-0.8826670398767621, ,0.015089353086098073,0.00016068216181610732,0.006164400743034057,0.008772256122565937,0.007837259173661012,0.00890310688111362, ,1.1975469589233398
0.011577751216654678,0.021095465099327713,-0.08352784165276904, ,0.011837379387085716,0.021132136697961698,-0.08372960152031798, ,0.00033084533725157505, ,0.0027848480535339324,0.0012043319638935007,-0.005844284022407283,-0.010080692376497198,-0.012557862840219843,0.01002135674605366, ,0.006584941145909534, ,0.016103424203732255, ,3.621909398819684e-05, ,0.20703874562508487,-0.18851963219269452,0.09727360160000001,2.274506816976636,1.000452451282555,-0.8825334215600368, ,0.017800964464166343,0.00015018452040958151,0.006308440205940595,0.005853374686823893,0.000670936159020111,0.019650245559872846, ,1.2075839042663574
0.011607784612544067,0.021111681150069766,-0.08358472181376453, ,0.011865623900266789,0.02114396058910956,-0.08378906838817883, ,0.0003305761379061472, ,0.0026491077793296264,0.0012704091137880709,-0.0048645247600602225,0.0006280983429095637,0.0024607915930674154,-0.021492355859234404, ,0.005682896487192029, ,0.0025396850334063956, ,3.646740074561405e-05, ,0.20722409121406626,-0.18851963219269452,0.0973384161,2.2751358868070892,1.000725724282086,-0.882511221147008, ,0.016724875142486918,0.00014009734662204449,0.005421651300204222,0.04377132523137101,0.008964370128300612,0.023031063784781577, ,1.2174389362335205
0.011632248846376116,0.021123305184520557,-0.08363143577605177, ,0.011893868949783677,0.021155660743458968,-0.08384854899709898, ,0.0003415115099886033, ,0.0026066010436450156,0.0013537744921052752,-0.004683845698683524,0.0277381356176756,0.014475062210328201,-0.04280396937910685, ,0.005528606054448294, ,0.031287882499190144, ,3.672963222215529e-05, ,0.20739399133729922,-0.18851963219269452,0.09739156399000001,2.2753455767505737,1.0009989972816167,-0.8824073419938385, ,0.01698835330441654,0.00013190206651032504,0.005405093831014592,0.0529228787325704,0.028708364024414068,0.00032227110535100467, ,1.2272419929504395
0.011659795579364064,0.021135274543874795,-0.08368774057457484, ,0.011922114494770611,0.021167237641741474,-0.0839080429578568, ,0.0003440435918383172, ,0.002384451284598596,0.0010864657676500934,-0.0058035590230043396,-0.003321988040495221,0.0020995827996581166,0.04900099380112499, ,0.006367677215939458, ,0.003929865887035236, ,3.699171625929179e-05, ,0.20756389146053214,-0.18851190945982027,0.09745248962000001,2.275555266694058,1.0009989972816167,-0.8820806270332763, ,0.0160896815121178,4.1177346003947304e-05,0.006363887942469038,-0.02527129874804607,0.025016084628835096,0.022674576491758358, ,1.2410979270935059
0.011717204160181627,0.02116055112284832,-0.0838198355036035, ,0.011950360494513805,0.02117869176392373,-0.0839675498821135, ,0.000276605308547105, ,0.002875352051754069,0.0014023590078633113,-0.006470815019014534,-0.023393233748501874,0.0069292830373175384,0.042594052269003924, ,0.007218428306686004, ,0.024397916658570537, ,3.714025228400921e-05, ,0.2079191371727465,-0.18851190945982027,0.09759378523000001,2.2753455767505737,1.0009989972816167,-0.8811821608917302, ,0.017684856794347892,4.1177346003947304e-05,0.007085770249110321,0.008898629264537385,0.015957817936722424,0.05934343475115627, ,1.253675937652588
0.011743118650104786,0.02117434834285721,-0.0838755095466141, ,0.011978606908452294,0.021190023589210814,-0.08402706938241382, ,0.00028048318487108203, ,0.0025209551137554955,0.001050873649615217,-0.004968792458445917,0.011053683644515776,-0.007439355809606389,0.0009823616944132502, ,0.005669960194581141, ,0.013323960895554807, ,3.729263479759608e-05, ,0.2080890372959794,-0.18851190945982027,0.09765730344000001,2.275555266694058,1.001408906780913,-0.8811080209021166, ,0.017691450700684334,4.153813577059571e-05,0.005494588313211453,0.0,0.014647599745072739,-0.003823519563129641, ,1.2631080150604248
0.011743118650104786,0.02117434834285721,-0.0838755095466141, ,0.012006853696176508,0.02120123359604312,-0.08408660107218383, ,0.0003388784790049038, ,0.0025209551137554955,0.001050873649615217,-0.004968792458445917,0.011053683644515776,-0.007439355809606389,0.0009823616944132502, ,0.005669960194581141, ,0.013323960895554807, ,3.7595682624775826e-05, ,0.2080890372959794,-0.18851190945982027,0.09765730344000001,2.275555266694058,1.001408906780913,-0.8811080209021166, ,0.017691450700684334,4.153813577059571e-05,0.005494588313211453,0.0,0.014647599745072739,-0.003823519563129641, ,1.2706899642944336
0.011767232100369718,0.021187378526204247,-0.08391613452638252, ,0.012035100817429074,0.021212322262099525,-0.08414614456573156, ,0.0003539497955088909, ,0.0023402575041627095,0.0012115540095789955,-0.0042714175834874584,0.05149832970116151,0.032912208039730495,-0.013238567833856931, ,0.00501893180631523, ,0.061117030348652936, ,3.791880495018819e-05, ,0.2082743828849608,-0.18851190945982027,0.09770785875000002,2.275974646581027,1.0020920892797403,-0.8815017529403176, ,0.018224878348083496,4.1623958133767494e-05,0.005207195658711998,0.022402402641458197,0.0657937414233999,-0.012299659576034142, ,1.278169870376587
0.011790219714993656,0.021197146196008376,-0.08395914836323781, ,0.012063348232104233,0.02122329006429668,-0.08420569947824535, ,0.00036887686430509827, ,0.0027536109245163663,0.0013281706053011062,-0.005218946391588531,0.018463673193923693,0.012085526605994832,-0.011609252824108126, ,0.006048455316746312, ,0.022067332808575077, ,3.826139429483226e-05, ,0.2084288375424453,-0.18850418672694605,0.09775582148,2.276184336524512,1.0022287257795057,-0.8813681346235924, ,0.018709964818310488,0.00012142120454622714,0.005954695895327104,0.029681436607406547,0.03109822946612147,0.010681322972788159, ,1.28926682472229
0.011823388647257002,0.021212182007944953,-0.08402493532769549, ,0.012091595900247812,0.021234137478790212,-0.08426526542579368, ,0.0003607987379534476, ,0.003136194949338176,0.0014529470663227188,-0.006114317375256118,-0.014084676976457964,-0.005388646789788461,-0.006640621507268284, ,0.007023649400642727, ,0.01508030607151974, ,3.858702620827132e-05, ,0.20864507406292357,-0.18850418672694605,0.09782841372000001,2.2763940264679965,1.0023653622792712,-0.8812345163068671, ,0.019109331767714614,0.00012142120454622714,0.006675947829002515,0.03700427354341491,0.0,0.036686542905955, ,1.2967519760131836
0.011854394695394569,0.02122578531442406,-0.08409240794004753, ,0.012119843782056714,0.021244864980973766,-0.08432484202532432, ,0.0003533452352641434, ,0.0031067038730491175,0.0014977165540875112,-0.006927748682063086,-0.009832203309848197,-0.009976020890884668,4.3783767082395796e-05, ,0.007738763831067141, ,0.014006898257080782, ,3.8896990585889786e-05, ,0.20883814238477919,-0.18850418672694605,0.09790100596000001,2.2763940264679965,1.0023653622792712,-0.8810711588265859, ,0.01780764525398213,0.00012142120454622714,0.007467797243319269,0.01893623812606483,0.0,0.02315420972962742, ,1.3046259880065918
0.011854394695394569,0.02122578531442406,-0.08409240794004753, ,0.012148091837879207,0.02125547304548104,-0.08438442889466344, ,0.00041522958807596675, ,0.0031067038730491175,0.0014977165540875112,-0.006927748682063086,-0.009832203309848197,-0.009976020890884668,4.3783767082395796e-05, ,0.007738763831067141, ,0.014006898257080782, ,3.9298912607147386e-05, ,0.20901576524088636,-0.18850418672694605,0.09798267223000001,2.2763940264679965,1.0023653622792712,-0.8809078013463048, ,0.018724731957077894,0.00012142120454622714,0.008888845714285717,0.01630006419441083,0.0,0.016135539575509977, ,1.312088966369629
0.011885976860707692,0.02124108903421306,-0.08416877455935304, ,0.012176340028214768,0.021265962146186153,-0.08444402565251563, ,0.0004008648213939091, ,0.003463940696549009,0.0017488850586640904,-0.008287036308576377,-0.006255150576216521,-0.012685432685624725,-0.002960910628265315, ,0.009150543966196224, ,0.014143799774774446, ,3.967378825478634e-05, ,0.20901576524088636,-0.18850418672694605,0.09798267223000001,2.2763940264679965,1.0023653622792712,-0.8809078013463048, ,0.018724731957077894,0.00012142120454622714,0.008888845714285717,0.01630006419441083,0.0,0.016135539575509977, ,1.3202638626098633
0.011919966829770989,0.021259113211364117,-0.08424513505976408, ,0.012204588313713328,0.021276332756202925,-0.084503631918462, ,0.00038487209278237534, ,0.00347566849964253,0.0019468778543955405,-0.008521260678959395,-0.012887814886615008,-0.001815874761170822,-0.012554877757721404, ,0.009406513087118025, ,0.013015111554331299, ,4.0019624554118496e-05, ,0.20917794263124506,-0.18849646399407183,0.09806433850000001,2.27702309629845,1.0022287257795057,-0.8805513472221868, ,0.016680777211895023,0.00020588919949708262,0.009165023889528194,0.04309310629193276,0.0,0.036636894389822955, ,1.328577995300293
0.011960389095405501,0.021280705776675044,-0.08434016118736093, ,0.012232836655175806,0.0212865853478869,-0.08456324731296078, ,0.0003521784513816541, ,0.0038386113880783303,0.002054444864435886,-0.008140190989654565,0.0027195424873607483,-0.0030180511694044817,-0.05296948854998716, ,0.009231380743840273, ,0.004062574117500839, ,4.031156977169475e-05, ,0.20938645641884912,-0.18849646399407183,0.09816674541,2.277442476185419,1.0022287257795057,-0.8804696684820462, ,0.020088260279100503,0.00020588919949708262,0.008873989704735376,0.07140834743115965,0.0,0.019888681632287478, ,1.3372998237609863
0.011994908817932717,0.021297039926584743,-0.08442287527782401, ,0.01226108501355349,0.02129672039283461,-0.08462287145734557, ,0.00033293894491360544, ,0.00359542665134465,0.0018179266090357024,-0.0077527033191001115,-0.004440591098669024,-0.007104528587996395,-0.025045614673927317, ,0.008737068084605117, ,0.008378135100145267, ,4.05709242517957e-05, ,0.20958724747357896,-0.1884887412611976,0.09825618942000001,2.277442476185419,1.0023653622792712,-0.8803360501653209, ,0.01975373471242106,0.00017422930777325813,0.008410143357972546,0.044834698515813926,0.0,0.02291137802213556, ,1.3448638916015625
0.012027264402047239,0.021311659925386653,-0.08449454236997954, ,0.0122893333499482,0.02130673836188495,-0.08468250397382529, ,0.00032254289600219913, ,0.00359542665134465,0.0018179266090357024,-0.0077527033191001115,-0.004440591098669024,-0.007104528587996395,-0.025045614673927317, ,0.008737068084605117, ,0.008378135100145267, ,4.081155367971615e-05, ,0.20979576126118302,-0.18848101852832339,0.09833526311000002,2.277442476185419,1.002638635278802,-0.8803955284924325, ,0.02200763950799415,0.00034259969919531223,0.007636055378715245,0.03300330272486442,0.012283055924310683,0.012695071124459107, ,1.3522210121154785
0.012027264402047239,0.021311659925386653,-0.08449454236997954, ,0.012317581625611862,0.021316639725119567,-0.08474214448548369, ,0.0003815962477616632, ,0.003510903459809078,0.0016114263589961373,-0.00692113106051982,0.0064088731275167765,-0.004295682604655814,-0.018394929453957164, ,0.007926234488801042, ,0.007715343668513686, ,4.113744925142181e-05, ,0.20979576126118302,-0.18848101852832339,0.09833526311000002,2.277442476185419,1.002638635278802,-0.8803955284924325, ,0.02200763950799415,0.00034259969919531223,0.007636055378715245,0.03300330272486442,0.012283055924310683,0.012695071124459107, ,1.359618902206421
0.012059473179648537,0.021326207811781402,-0.08456220921023004, ,0.012345829801946276,0.021326424951862176,-0.08480179261627739, ,0.00037336359053452724, ,0.0032576853263152654,0.0015822766315082765,-0.006750450419378262,0.02170454054008949,0.005899944230044103,-0.016223869049993355, ,0.0076605935728500255, ,0.02249214102651721, ,4.14472620014646e-05, ,0.21001199778166132,-0.18848101852832339,0.09841044793,2.277442476185419,1.0029119082783329,-0.8803733280794038, ,0.020611846559181315,0.00034259969919531223,0.00754919977251185,0.025931665292027877,0.0287095043991709,0.001106762786939136, ,1.3686139583587646
0.012093579864601956,0.02134179683557365,-0.0846300450577129, ,0.012374077840503261,0.021336094510680585,-0.0848614479910369, ,0.0003636742340953834, ,0.00332102897931303,0.0015405052298504416,-0.007036920033771508,0.0019345532085431746,0.005593126350991098,0.01606953520637866, ,0.007932252732126499, ,0.00591823801818671, ,4.173912805764384e-05, ,0.21021278883639116,-0.18847329579544916,0.09848433646000002,2.2778618560723882,1.0029119082783329,-0.8801282918589821, ,0.021239243858207427,0.00046434566361983824,0.007804415247427732,0.01294067610178892,0.025928740842624327,0.027227936808950304, ,1.3768699169158936
0.012133720818624181,0.021362387571300705,-0.08470650559136245, ,0.012402325702984413,0.021345648869387043,-0.08492111023546448, ,0.0003442149347632756, ,0.003878325728871396,0.0021469526075900804,-0.007647850098837489,0.024346266343257227,0.013719261492900554,-0.07744459915461797, ,0.008839707409906297, ,0.027945639992740256, ,4.206071036394391e-05, ,0.21043674808974366,-0.18847329579544916,0.09856859531,2.278700615846326,1.0029119082783329,-0.8797198981582793, ,0.02098561290545572,0.00046434566361983824,0.008573095543595265,0.09556313917709969,0.019659134468480242,0.011470672383276596, ,1.3830349445343018
0.012133720818624181,0.021362387571300705,-0.08470650559136245, ,0.012430573351240613,0.021355088495037,-0.08498077897613433, ,0.00040422839117177376, ,0.003878325728871396,0.0021469526075900804,-0.007647850098837489,0.024346266343257227,0.013719261492900554,-0.07744459915461797, ,0.008839707409906297, ,0.027945639992740256, ,4.246721074417774e-05, ,0.21043674808974366,-0.18847329579544916,0.09856859531,2.278700615846326,1.0029119082783329,-0.8797198981582793, ,0.02098561290545572,0.00046434566361983824,0.008573095543595265,0.09556313917709969,0.019659134468480242,0.011470672383276596, ,1.3886020183563232
0.012171739171629066,0.02138088666777195,-0.08478916777718455, ,0.01245882074727222,0.02136441385393205,-0.08504045384049144, ,0.0003818793923241146, ,0.0034380598674559576,0.0015177094492763701,-0.008423896171869175,-0.0067476103156028575,-0.01120598680408606,0.04482499198781279, ,0.009224192340745405, ,0.01308068586906404, ,4.283762960893987e-05, ,0.21064526187734772,-0.18846557306257494,0.09865803932000002,2.279119995733295,1.0029119082783329,-0.8793931831977171, ,0.021064803897551783,0.0005858247602761883,0.00908142047890536,-0.02807753308261643,0.01597845061559283,0.017222477522055753, ,1.3941199779510498
0.012171739171629066,0.02138088666777195,-0.08478916777718455, ,0.012487067853229103,0.02137362541161948,-0.08510013445685152, ,0.00044292796157347083, ,0.0034380598674559576,0.0015177094492763701,-0.008423896171869175,-0.0067476103156028575,-0.01120598680408606,0.04482499198781279, ,0.009224192340745405, ,0.01308068586906404, ,4.329330362741328e-05, ,0.21064526187734772,-0.18846557306257494,0.09865803932000002,2.279119995733295,1.0029119082783329,-0.8793931831977171, ,0.021064803897551783,0.0005858247602761883,0.00908142047890536,-0.02807753308261643,0.01597845061559283,0.017222477522055753, ,1.399749994277954
0.012204129531234321,0.02139598843606,-0.08486336647564081, ,0.0125153146314095,0.021382723632891152,-0.08515982045439915, ,0.00042999660823754766, ,0.003694140270808711,0.0015988728848316972,-0.008664337816521905,0.006960738911228756,-0.019380214991398626,0.016116009023569453, ,0.009553733125908022, ,0.0205923425203213, ,4.3726372454765815e-05, ,0.21084605293207756,-0.18845785032970072,0.09873970559,2.279119995733295,1.0031851812778638,-0.8793709827846883, ,0.022713485294033216,0.0006325911570504803,0.009336935240328255,-0.02022811720102305,0.011555538906128116,-0.008068880051880788, ,1.4074418544769287
0.012245501416049399,0.021415934137888767,-0.08496391810187114, ,0.01254356104426106,0.021391708981786363,-0.08521951146318824, ,0.00039338831516357107, ,0.00367178334595969,0.0018603529188392204,-0.008683752954269403,0.04304047451857461,0.018915345636236657,0.006039503151684041, ,0.009609915259412183, ,0.047013537390244685, ,4.410310980792569e-05, ,0.2111086258498012,-0.18845012759682647,0.09885118653000001,2.2789103057898106,1.0037317272769255,-0.8795716181790522, ,0.02326475644973542,0.0008168265020105762,0.00976628541998774,0.0,0.059755762375831425,-0.012994412453911482, ,1.4132978916168213
0.012245501416049399,0.021415934137888767,-0.08496391810187114, ,0.012571807054379935,0.021400581921591645,-0.08527920711414086, ,0.00045400244647969724, ,0.00367178334595969,0.0018603529188392204,-0.008683752954269403,0.04304047451857461,0.018915345636236657,0.006039503151684041, ,0.009609915259412183, ,0.047013537390244685, ,4.456332885950784e-05, ,0.2111086258498012,-0.18845012759682647,0.09885118653000001,2.2789103057898106,1.0037317272769255,-0.8795716181790522, ,0.02326475644973542,0.0008168265020105762,0.00976628541998774,0.0,0.059755762375831425,-0.012994412453911482, ,1.418888807296753
0.01228414935698914,0.021434484721988372,-0.08505246821734957, ,0.012600052624510681,0.021409342914839802,-0.08533890703904617, ,0.0004271699702371626, ,0.0041309548375411415,0.001947945839516778,-0.009656117064643133,0.02003810656938912,0.002554175651821737,0.009959902195302824, ,0.010681754426571865, ,0.020200233765927514, ,4.498139151429223e-05, ,0.2113325851031537,-0.18843468213107803,0.09894840828000001,2.279119995733295,1.0040050002764564,-0.8795494177660232, ,0.024992610365675735,0.0012650013826783837,0.010619207680000001,0.001060828487957308,0.036265741167028014,0.0015855675911159214, ,1.4248478412628174
0.01228414935698914,0.021434484721988372,-0.08505246821734957, ,0.012628297717546784,0.02141799242331376,-0.08539861087056111, ,0.0004883900350768909, ,0.0041309548375411415,0.001947945839516778,-0.009656117064643133,0.02003810656938912,0.002554175651821737,0.009959902195302824, ,0.010681754426571865, ,0.020200233765927514, ,4.5482733160439764e-05, ,0.2113325851031537,-0.18843468213107803,0.09894840828000001,2.279119995733295,1.0040050002764564,-0.8795494177660232, ,0.024992610365675735,0.0012650013826783837,0.010619207680000001,0.001060828487957308,0.036265741167028014,0.0015855675911159214, ,1.4304218292236328
0.012336091214534137,0.021458437577620122,-0.0851626432116176, ,0.012656542296529062,0.021426530908042276,-0.08545831824220727, ,0.0004371849210911499, ,0.00488112785940603,0.0023178099141522566,-0.01063739771120463,0.009353133099441158,0.0012516677649706005,-0.03029897404347814, ,0.011931130794872449, ,0.009436505432084843, ,4.5907502541244606e-05, ,0.21161832621950002,-0.18841151393245537,0.09906766696000001,2.279749065563749,1.0040050002764564,-0.8790593453251798, ,0.02734782177477544,0.0023334638854267363,0.01164386807017544,0.052971678508481626,0.020162510451300273,0.0196607427308327, ,1.436784029006958
0.012381652731716047,0.02147990504405852,-0.08526359766975503, ,0.012684786324647151,0.021434958829305274,-0.08551802878837292, ,0.0003983030648954606, ,0.004922792921648128,0.002485425472092682,-0.010473978958825741,-0.0003224674859538452,0.005211721118007218,-0.03617784484589524, ,0.011837037853985278, ,0.005221675615819279, ,4.62740012153258e-05, ,0.21161832621950002,-0.18841151393245537,0.09906766696000001,2.279749065563749,1.0040050002764564,-0.8790593453251798, ,0.02734782177477544,0.0023334638854267363,0.01164386807017544,0.052971678508481626,0.020162510451300273,0.0196607427308327, ,1.443336009979248
0.012381652731716047,0.02147990504405852,-0.08526359766975503, ,0.012713029765237943,0.021443276646630524,-0.08557774214431013, ,0.0004580820109297228, ,0.004922792921648128,0.002485425472092682,-0.010473978958825741,-0.0003224674859538452,0.005211721118007218,-0.03617784484589524, ,0.011837037853985278, ,0.005221675615819279, ,4.672114408266998e-05, ,0.2118654536714752,-0.18839606846670692,0.09917655532000001,2.280168445450718,1.0040050002764564,-0.8787326303646176, ,0.026693935740779398,0.0013246212323664997,0.011492649004329005,0.07382708190923941,0.014466233613546568,0.03932443782206742, ,1.4490418434143066
0.012430574851783761,0.021502150338934954,-0.08537390476592888, ,0.012741272581786355,0.02145148481879636,-0.08563745794613564, ,0.0004105610224519356, ,0.004779410058000875,0.0019115216247404749,-0.010950147053705658,-0.009084291121903697,-0.01849183547770362,0.01567620207872102, ,0.012099685777827005, ,0.020602722322244495, ,4.709826763943974e-05, ,0.21215119478782152,-0.18837290026808423,0.09929711029,2.2803781353942023,1.0042782732759874,-0.8786287512114483, ,0.02773142652205458,0.0029314864537197207,0.011755580457564578,0.0,0.008061851230507537,0.018774074027267343, ,1.45517897605896
0.012430574851783761,0.021502150338934954,-0.08537390476592888, ,0.012769514737924877,0.021459583803832248,-0.08569717583082895, ,0.00047031514724663954, ,0.004779410058000875,0.0019115216247404749,-0.010950147053705658,-0.009084291121903697,-0.01849183547770362,0.01567620207872102, ,0.012099685777827005, ,0.020602722322244495, ,4.755524033989574e-05, ,0.21215119478782152,-0.18837290026808423,0.09929711029,2.2803781353942023,1.0042782732759874,-0.8786287512114483, ,0.02773142652205458,0.0029314864537197207,0.011755580457564578,0.0,0.008061851230507537,0.018774074027267343, ,1.4607298374176025
0.01248031284738393,0.021523726360486283,-0.08549295127917175, ,0.01279775619743327,0.02146757405901767,-0.08575689543623263, ,0.000416641187951153, ,0.004515062899414327,0.002192697663651392,-0.01054185421306774,0.04511509596000489,0.02160896952282331,-0.0015195076826775454, ,0.011675804309743465, ,0.050023187794527225, ,4.800057372946826e-05, ,0.21246010410279048,-0.18834200933658735,0.09942803558,2.280168445450718,1.004824819275049,-0.8787477078656718, ,0.02749042339469026,0.0022804567119732227,0.011799119644444446,0.012323482540819556,0.0650357638798569,-0.009091469420587361, ,1.4652528762817383
0.01248031284738393,0.021523726360486283,-0.08549295127917175, ,0.012825996924238508,0.0214754560408842,-0.08581661640105115, ,0.00047601115098965164, ,0.004515062899414327,0.002192697663651392,-0.01054185421306774,0.04511509596000489,0.02160896952282331,-0.0015195076826775454, ,0.011675804309743465, ,0.050023187794527225, ,4.852544942495267e-05, ,0.21246010410279048,-0.18834200933658735,0.09942803558,2.280168445450718,1.004824819275049,-0.8787477078656718, ,0.02749042339469026,0.0022804567119732227,0.011799119644444446,0.012323482540819556,0.0650357638798569,-0.009091469420587361, ,1.4690299034118652
0.01248031284738393,0.021523726360486283,-0.08549295127917175, ,0.012854236882414391,0.021483230205214282,-0.08587633836484952, ,0.000537070554052043, ,0.004515062899414327,0.002192697663651392,-0.01054185421306774,0.04511509596000489,0.02160896952282331,-0.0015195076826775454, ,0.011675804309743465, ,0.050023187794527225, ,4.913153710429445e-05, ,0.21246010410279048,-0.18834200933658735,0.09942803558,2.280168445450718,1.004824819275049,-0.8787477078656718, ,0.02749042339469026,0.0022804567119732227,0.011799119644444446,0.012323482540819556,0.0650357638798569,-0.009091469420587361, ,1.4728989601135254
0.01252260526109399,0.02154213777832218,-0.0855876820905739, ,0.01288247603618207,0.0214908970070445,-0.08593606096805435, ,0.0005034882656807134, ,0.004610860796980136,0.0018733759542490726,-0.010418288901282194,0.026433077765214533,0.003004865821521406,0.004142742935572574, ,0.011546008764316208, ,0.026603321146210217, ,4.9688165114558354e-05, ,0.21270723155476567,-0.18831111840509043,0.09953173878,2.2803781353942023,1.00509809227458,-0.8787255074526429, ,0.028480474657404192,0.004128120142501237,0.011459576633093526,0.00199191481952326,0.043338957455497984,-0.006403741177161321, ,1.4784770011901855
0.01252260526109399,0.02154213777832218,-0.0855876820905739, ,0.012910714349908871,0.02149845690066276,-0.08599578385195102, ,0.0005648749698233447, ,0.004610860796980136,0.0018733759542490726,-0.010418288901282194,0.026433077765214533,0.003004865821521406,0.004142742935572574, ,0.011546008764316208, ,0.026603321146210217, ,5.032583448386552e-05, ,0.21270723155476567,-0.18831111840509043,0.09953173878,2.2803781353942023,1.00509809227458,-0.8787255074526429, ,0.028480474657404192,0.004128120142501237,0.011459576633093526,0.00199191481952326,0.043338957455497984,-0.006403741177161321, ,1.4827919006347656
0.012571984021397597,0.021561646559726606,-0.08569256305093498, ,0.012938951788108825,0.021505910339610818,-0.08605550665868475, ,0.0005191338271045745, ,0.0051713669589651306,0.0021877811374107683,-0.011109820941797275,0.0020148913890431983,-0.00023645740615575056,-0.008173510000112148, ,0.012448194402735036, ,0.002028676948650649, ,5.089753142121094e-05, ,0.21298524993823775,-0.1882647820078451,0.09964451601,2.2807975152811713,1.00509809227458,-0.8783171137519401, ,0.030164317087880095,0.003922947073038479,0.012140862439024392,0.037458382314592135,0.02381536083079221,0.02794449938680033, ,1.4874498844146729
0.012571984021397597,0.021561646559726606,-0.08569256305093498, ,0.012967188315442706,0.021513257776685744,-0.0861152290312592, ,0.000580667236271609, ,0.0051713669589651306,0.0021877811374107683,-0.011109820941797275,0.0020148913890431983,-0.00023645740615575056,-0.008173510000112148, ,0.012448194402735036, ,0.002028676948650649, ,5.154994582642781e-05, ,0.21298524993823775,-0.1882647820078451,0.09964451601,2.2807975152811713,1.00509809227458,-0.8783171137519401, ,0.030164317087880095,0.003922947073038479,0.012140862439024392,0.037458382314592135,0.02381536083079221,0.02794449938680033, ,1.4912359714508057
0.012635925388277198,0.021587923617076125,-0.08582887678505366, ,0.012995423896716863,0.021520499663936998,-0.08617495061353538, ,0.0005035397320840169, ,0.005697368165613106,0.002329809485496673,-0.012047204397714924,-0.014891433898814005,-0.015393394867940481,-0.022402383102573326, ,0.013528604882011068, ,0.021417543168119803, ,5.2094021696578846e-05, ,0.21334049565045207,-0.18821844561059975,0.09978710791,2.2812168951681406,1.0052347287743453,-0.8779384592147931, ,0.0317912702038428,0.004587920280059185,0.012939733160032494,0.05205792445675428,0.0,0.03696221105382472, ,1.495844841003418
0.012635925388277198,0.021587923617076125,-0.08582887678505366, ,0.013023658496883982,0.02152763645266987,-0.08623467105023158, ,0.0005644824987130401, ,0.005697368165613106,0.002329809485496673,-0.012047204397714924,-0.014891433898814005,-0.015393394867940481,-0.022402383102573326, ,0.013528604882011068, ,0.021417543168119803, ,5.271772692058953e-05, ,0.21334049565045207,-0.18821844561059975,0.09978710791,2.2812168951681406,1.0052347287743453,-0.8779384592147931, ,0.0317912702038428,0.004587920280059185,0.012939733160032494,0.05205792445675428,0.0,0.03696221105382472, ,1.499621868133545
0.01269134568920486,0.021610550577666674,-0.08595586803542392, ,0.013051892081042734,0.02153466859344547,-0.08629438998692243, ,0.0005003487662051532, ,0.00627120775496528,0.0026129899606957816,-0.013852562316635052,-0.007301978637552174,-0.008076613619700749,-0.006853159232660741, ,0.015428844609266473, ,0.010888070053540056, ,5.325139355891922e-05, ,0.21368801862979217,-0.1881721092133544,0.09993099610000002,2.2812168951681406,1.0056446382736417,-0.8778643192251796, ,0.03519916229913605,0.005236723821724727,0.014998880903954804,0.040548738819947076,0.017281791895330977,0.036017687675735, ,1.5038089752197266
0.01269134568920486,0.021610550577666674,-0.08595586803542392, ,0.013080124614437007,0.021541596536079483,-0.08635410707003777, ,0.0005608012493263913, ,0.00627120775496528,0.0026129899606957816,-0.013852562316635052,-0.007301978637552174,-0.008076613619700749,-0.006853159232660741, ,0.015428844609266473, ,0.010888070053540056, ,5.3863655637367404e-05, ,0.21368801862979217,-0.1881721092133544,0.09993099610000002,2.2812168951681406,1.0056446382736417,-0.8778643192251796, ,0.03519916229913605,0.005236723821724727,0.014998880903954804,0.040548738819947076,0.017281791895330977,0.036017687675735, ,1.507814884185791
0.01269134568920486,0.021610550577666674,-0.08595586803542392, ,0.013108356062457038,0.02154842072964632,-0.08641382194686353, ,0.0006224785573959926, ,0.00627120775496528,0.0026129899606957816,-0.013852562316635052,-0.007301978637552174,-0.008076613619700749,-0.006853159232660741, ,0.015428844609266473, ,0.010888070053540056, ,5.4555525591831466e-05, ,0.21368801862979217,-0.1881721092133544,0.09993099610000002,2.2812168951681406,1.0056446382736417,-0.8778643192251796, ,0.03519916229913605,0.005236723821724727,0.014998880903954804,0.040548738819947076,0.017281791895330977,0.036017687675735, ,1.5116798877716064
0.012750002170200178,0.021635192684272234,-0.08609158922757612, ,0.01313658639063758,0.021555141622475033,-0.08647353426553879, ,0.000549306420871227, ,0.006078643884817254,0.0025617323066487005,-0.014777429954431778,0.05515336900862601,0.010045443626799181,-0.012730914825480529, ,0.01618285574141633, ,0.056060720169978616, ,5.5145599813932756e-05, ,0.21402781887625807,-0.1881103273503606,0.10008006945,2.2814265851116247,1.0061911842727036,-0.8779832758794031, ,0.034952832986545404,0.0069746939620648285,0.016220785661914462,0.0034125015477942614,0.06802307905041291,-0.034009795569689166, ,1.5158159732818604
0.012750002170200178,0.021635192684272234,-0.08609158922757612, ,0.01316481556465885,0.021561759662152628,-0.08653324367505653, ,0.00061034515803697, ,0.006078643884817254,0.0025617323066487005,-0.014777429954431778,0.05515336900862601,0.010045443626799181,-0.012730914825480529, ,0.01618285574141633, ,0.056060720169978616, ,5.5814121148704287e-05, ,0.21402781887625807,-0.1881103273503606,0.10008006945,2.2814265851116247,1.0061911842727036,-0.8779832758794031, ,0.034952832986545404,0.0069746939620648285,0.016220785661914462,0.0034125015477942614,0.06802307905041291,-0.034009795569689166, ,1.5196638107299805
0.012750002170200178,0.021635192684272234,-0.08609158922757612, ,0.013193043550346452,0.021568275295525033,-0.08659294982526292, ,0.0006724031903192604, ,0.006078643884817254,0.0025617323066487005,-0.014777429954431778,0.05515336900862601,0.010045443626799181,-0.012730914825480529, ,0.01618285574141633, ,0.056060720169978616, ,5.656182107940009e-05, ,0.21402781887625807,-0.1881103273503606,0.10008006945,2.2814265851116247,1.0061911842727036,-0.8779832758794031, ,0.034952832986545404,0.0069746939620648285,0.016220785661914462,0.0034125015477942614,0.06802307905041291,-0.034009795569689166, ,1.5239338874816895
0.012796111030713462,0.021654411224301316,-0.08619997581235214, ,0.013221270313670224,0.02157468896869521,-0.08665265236685583, ,0.0006261246816094757, ,0.006679403472896986,0.0028328608332679325,-0.01591486269234494,0.007111538462491312,0.0009350009683304576,0.00820465938964935, ,0.017490637088757078, ,0.0071726693176771975, ,5.724400331271216e-05, ,0.21427494632823324,-0.18806399095311527,0.10019673555000001,2.2816362750551096,1.0063278207724689,-0.8778496575626779, ,0.0365550622336174,0.006689092677507622,0.017257650617551468,0.02141220971399863,0.03886788346831404,0.024611017245828565, ,1.5286498069763184
0.012796111030713462,0.021654411224301316,-0.08619997581235214, ,0.013249495820745302,0.02158100112702631,-0.08671235095138487, ,0.0006880952647075445, ,0.006679403472896986,0.0028328608332679325,-0.01591486269234494,0.007111538462491312,0.0009350009683304576,0.00820465938964935, ,0.017490637088757078, ,0.0071726693176771975, ,5.800475564438606e-05, ,0.21427494632823324,-0.18806399095311527,0.10019673555000001,2.2816362750551096,1.0063278207724689,-0.8778496575626779, ,0.0365550622336174,0.006689092677507622,0.017257650617551468,0.02141220971399863,0.03886788346831404,0.024611017245828565, ,1.5325849056243896
0.012892873368763963,0.02169714173001616,-0.08641464832154772, ,0.013277720037830973,0.021587212215139998,-0.08677204523125069, ,0.0005365855085614197, ,0.00737383512129278,0.003296028949797209,-0.015865563797010183,0.008411466593931502,-0.004725621446668689,-0.08426344360909206, ,0.017803184148654765, ,0.009647966783733022, ,5.8561073101095913e-05, ,0.21476920123218363,-0.18797131815862456,0.10042877146000001,2.282894414716017,1.0064644572722343,-0.8773893242853902, ,0.03795877662338831,0.006537076458924438,0.01722033677837838,0.11015373262136037,0.010721351202412608,0.025214784840007814, ,1.536322832107544
0.012892873368763963,0.02169714173001616,-0.08641464832154772, ,0.013305942931330634,0.021593322676917343,-0.08683173485970329, ,0.0005961258588720634, ,0.00737383512129278,0.003296028949797209,-0.015865563797010183,0.008411466593931502,-0.004725621446668689,-0.08426344360909206, ,0.017803184148654765, ,0.009647966783733022, ,5.9193004120449317e-05, ,0.21476920123218363,-0.18797131815862456,0.10042877146000001,2.282894414716017,1.0064644572722343,-0.8773893242853902, ,0.03795877662338831,0.006537076458924438,0.01722033677837838,0.11015373262136037,0.010721351202412608,0.025214784840007814, ,1.5401058197021484
0.012964111776965825,0.021723126670012385,-0.08657405863273235, ,0.01333416446779267,0.021599332955501694,-0.0868914194908428, ,0.000502972953548341, ,0.00737383512129278,0.003296028949797209,-0.015865563797010183,0.008411466593931502,-0.004725621446668689,-0.08426344360909206, ,0.017803184148654765, ,0.009647966783733022, ,5.969903957480121e-05, ,0.2151707833416433,-0.1878863680970081,0.10059988174000001,2.283104104659501,1.0066010937719998,-0.8770106697482434, ,0.04097449980935698,0.009631895137266238,0.016506540435233162,0.0478269808451127,0.0,0.030653994434850246, ,1.5440969467163086
0.012964111776965825,0.021723126670012385,-0.08657405863273235, ,0.013362384613908743,0.02160524349329538,-0.08695109877961774, ,0.0005609607547438656, ,0.007278142640545822,0.0025153467687036545,-0.015413173988677732,-0.01735850066020196,-0.026354530582548583,-0.02379186266649115, ,0.017229749332715524, ,0.031557534084820385, ,6.0278518151696565e-05, ,0.2151707833416433,-0.1878863680970081,0.10059988174000001,2.283104104659501,1.0066010937719998,-0.8770106697482434, ,0.04097449980935698,0.009631895137266238,0.016506540435233162,0.0478269808451127,0.0,0.030653994434850246, ,1.5479388236999512
0.012964111776965825,0.021723126670012385,-0.08657405863273235, ,0.01339060333651455,0.02161105473196277,-0.08701077238182453, ,0.0006206239346904449, ,0.007278142640545822,0.0025153467687036545,-0.015413173988677732,-0.01735850066020196,-0.026354530582548583,-0.02379186266649115, ,0.017229749332715524, ,0.031557534084820385, ,6.101291581426374e-05, ,0.2151707833416433,-0.1878863680970081,0.10059988174000001,2.283104104659501,1.0066010937719998,-0.8770106697482434, ,0.04097449980935698,0.009631895137266238,0.016506540435233162,0.0478269808451127,0.0,0.030653994434850246, ,1.5498809814453125
0.012964111776965825,0.021723126670012385,-0.08657405863273235, ,0.013418820602589648,0.021616767112430362,-0.0870704399541069, ,0.0006815180759149311, ,0.007278142640545822,0.0025153467687036545,-0.015413173988677732,-0.01735850066020196,-0.026354530582548583,-0.02379186266649115, ,0.017229749332715524, ,0.031557534084820385, ,6.182509534319131e-05, ,0.2151707833416433,-0.1878863680970081,0.10059988174000001,2.283104104659501,1.0066010937719998,-0.8770106697482434, ,0.04097449980935698,0.009631895137266238,0.016506540435233162,0.0478269808451127,0.0,0.030653994434850246, ,1.5517969131469727
0.012964111776965825,0.021723126670012385,-0.08657405863273235, ,0.01344703637925694,0.021622381074886815,-0.08713010115395567, ,0.0007433364862857363, ,0.007278142640545822,0.0025153467687036545,-0.015413173988677732,-0.01735850066020196,-0.026354530582548583,-0.02379186266649115, ,0.017229749332715524, ,0.031557534084820385, ,6.27159599065149e-05, ,0.21558781091685142,-0.1877936953025174,0.10076710315000001,2.283313794602986,1.0071476397710615,-0.8771296264024667, ,0.04118790866253071,0.009498637581248501,0.016909566369426754,-0.00338822221642048,0.07108102866627856,-0.0011924439244734072, ,1.5537109375
0.013038289807951506,0.021750105494957726,-0.08673669761527923, ,0.013475250633782403,0.021627897058782597,-0.08718975563970653, ,0.0006411951642683823, ,0.006695903620511532,0.002420691163794987,-0.015208822240619289,0.051271494588524764,0.019813461410180654,0.01402960508451525, ,0.016792949263080933, ,0.05496670443703491, ,6.347115469027712e-05, ,0.21558781091685142,-0.1877936953025174,0.10076710315000001,2.283313794602986,1.0071476397710615,-0.8771296264024667, ,0.04118790866253071,0.009498637581248501,0.016909566369426754,-0.00338822221642048,0.07108102866627856,-0.0011924439244734072, ,1.556041955947876
0.013038289807951506,0.021750105494957726,-0.08673669761527923, ,0.013503463333576075,0.021633315502834306,-0.08724940307054176, ,0.0007020635263693256, ,0.006695903620511532,0.002420691163794987,-0.015208822240619289,0.051271494588524764,0.019813461410180654,0.01402960508451525, ,0.016792949263080933, ,0.05496670443703491, ,6.430373926873742e-05, ,0.21558781091685142,-0.1877936953025174,0.10076710315000001,2.283313794602986,1.0071476397710615,-0.8771296264024667, ,0.04118790866253071,0.009498637581248501,0.016909566369426754,-0.00338822221642048,0.07108102866627856,-0.0011924439244734072, ,1.5579228401184082
0.013038289807951506,0.021750105494957726,-0.08673669761527923, ,0.013531674446189964,0.021638636845019394,-0.08730904310648704, ,0.000763827874900282, ,0.006695903620511532,0.002420691163794987,-0.015208822240619289,0.051271494588524764,0.019813461410180654,0.01402960508451525, ,0.016792949263080933, ,0.05496670443703491, ,6.521457798700766e-05, ,0.21558781091685142,-0.1877936953025174,0.10076710315000001,2.283313794602986,1.0071476397710615,-0.8771296264024667, ,0.04118790866253071,0.009498637581248501,0.016909566369426754,-0.00338822221642048,0.07108102866627856,-0.0011924439244734072, ,1.5598130226135254
0.013038289807951506,0.021750105494957726,-0.08673669761527923, ,0.013559883939319568,0.021643861522581437,-0.08736867540841231, ,0.0008262833355195142, ,0.006695903620511532,0.002420691163794987,-0.015208822240619289,0.051271494588524764,0.019813461410180654,0.01402960508451525, ,0.016792949263080933, ,0.05496670443703491, ,0.0003636505659252957, ,0.21558781091685142,-0.1877936953025174,0.10076710315000001,2.283313794602986,1.0071476397710615,-0.8771296264024667, ,0.04118790866253071,0.009498637581248501,0.016909566369426754,-0.00338822221642048,0.07108102866627856,-0.0011924439244734072, ,1.5618019104003906
0.013038289807951506,0.021750105494957726,-0.08673669761527923, ,0.013588091780802738,0.021648989972028014,-0.0874282996380306, ,0.0008892805610167373, ,0.006695903620511532,0.002420691163794987,-0.015208822240619289,0.051271494588524764,0.019813461410180654,0.01402960508451525, ,0.016792949263080933, ,0.05496670443703491, ,0.0003673784382309088, ,0.21558781091685142,-0.1877936953025174,0.10076710315000001,2.283313794602986,1.0071476397710615,-0.8771296264024667, ,0.04118790866253071,0.009498637581248501,0.016909566369426754,-0.00338822221642048,0.07108102866627856,-0.0011924439244734072, ,1.5637938976287842
0.013038289807951506,0.021750105494957726,-0.08673669761527923, ,0.013616297938619787,0.021654022629132165,-0.0874879154578969, ,0.0009527085405784069, ,0.006695903620511532,0.002420691163794987,-0.015208822240619289,0.051271494588524764,0.019813461410180654,0.01402960508451525, ,0.016792949263080933, ,0.05496670443703491, ,0.0003715004812051869, ,0.21558781091685142,-0.1877936953025174,0.10076710315000001,2.283313794602986,1.0071476397710615,-0.8771296264024667, ,0.04118790866253071,0.009498637581248501,0.016909566369426754,-0.00338822221642048,0.07108102866627856,-0.0011924439244734072, ,1.5658469200134277
0.013092515567731906,0.021768032518878242,-0.08686255250826645, ,0.01364450238089377,0.02165895992893341,-0.08754752253140918, ,0.0008864368022515864, ,0.007570231646596702,0.002634788977833009,-0.01735290380671708,0.045317482696152385,0.005718329370193501,0.001510934979229046, ,0.01911475322011824, ,0.04567682076528146, ,0.0003751014344992177, ,0.21595077936193996,-0.1877010225080267,0.10091617650000001,2.283104104659501,1.0078308222698886,-0.877278322220246, ,0.04501752445847759,0.011767973903580208,0.018985472610250298,0.0,0.07339587658264199,-0.020761746071900358, ,1.568267822265625
0.013092515567731906,0.021768032518878242,-0.08686255250826645, ,0.013672705075889425,0.02166380230573667,-0.08760712052280493, ,0.0009496659049272958, ,0.007570231646596702,0.002634788977833009,-0.01735290380671708,0.045317482696152385,0.005718329370193501,0.001510934979229046, ,0.01911475322011824, ,0.04567682076528146, ,0.0003790914655438571, ,0.21595077936193996,-0.1877010225080267,0.10091617650000001,2.283104104659501,1.0078308222698886,-0.877278322220246, ,0.04501752445847759,0.011767973903580208,0.018985472610250298,0.0,0.07339587658264199,-0.020761746071900358, ,1.5701708793640137
0.013092515567731906,0.021768032518878242,-0.08686255250826645, ,0.013700905992013892,0.02166855019311486,-0.08766670909716319, ,0.0010132637667277676, ,0.007570231646596702,0.002634788977833009,-0.01735290380671708,0.045317482696152385,0.005718329370193501,0.001510934979229046, ,0.01911475322011824, ,0.04567682076528146, ,0.0003834650676209875, ,0.21595077936193996,-0.1877010225080267,0.10091617650000001,2.283104104659501,1.0078308222698886,-0.877278322220246, ,0.04501752445847759,0.011767973903580208,0.018985472610250298,0.0,0.07339587658264199,-0.020761746071900358, ,1.572077989578247
0.013193873657553843,0.021804947698595745,-0.08709192632912865, ,0.013729105097815757,0.021673204023906864,-0.08772628792040167, ,0.0008403830786895978, ,0.00947470975464569,0.003609131414374067,-0.022683086934192045,-0.02694323177965604,-0.010188079739870216,0.01335152613659, ,0.02484589276651402, ,0.028805011760959124, ,0.0003865946430392657, ,0.2164990933960099,-0.18754656785054222,0.10116376789,2.2837331744899547,1.008240731769185,-0.876714109789789, ,0.04841680691758713,0.01371343086105069,0.024281724878048784,0.042908735269939255,0.0247005222593856,0.06416695996768358, ,1.5741658210754395
0.013193873657553843,0.021804947698595745,-0.08709192632912865, ,0.013757302361985668,0.02167776423022071,-0.08778585665927788, ,0.0009028659051634622, ,0.00947470975464569,0.003609131414374067,-0.022683086934192045,-0.02694323177965604,-0.010188079739870216,0.01335152613659, ,0.02484589276651402, ,0.028805011760959124, ,0.00039010669244147106, ,0.2164990933960099,-0.18754656785054222,0.10116376789,2.2837331744899547,1.008240731769185,-0.876714109789789, ,0.04841680691758713,0.01371343086105069,0.024281724878048784,0.042908735269939255,0.0247005222593856,0.06416695996768358, ,1.5763299465179443
0.013193873657553843,0.021804947698595745,-0.08709192632912865, ,0.013785497753355053,0.02168223124343091,-0.08784541498138664, ,0.0009658279081608532, ,0.00947470975464569,0.003609131414374067,-0.022683086934192045,-0.02694323177965604,-0.010188079739870216,0.01335152613659, ,0.02484589276651402, ,0.028805011760959124, ,0.0003939967006557912, ,0.2164990933960099,-0.18754656785054222,0.10116376789,2.2837331744899547,1.008240731769185,-0.876714109789789, ,0.04841680691758713,0.01371343086105069,0.024281724878048784,0.042908735269939255,0.0247005222593856,0.06416695996768358, ,1.5782849788665771
0.013193873657553843,0.021804947698595745,-0.08709192632912865, ,0.01381369124089755,0.021686605494182963,-0.08790496255516131, ,0.0010291776420077974, ,0.00947470975464569,0.003609131414374067,-0.022683086934192045,-0.02694323177965604,-0.010188079739870216,0.01335152613659, ,0.02484589276651402, ,0.028805011760959124, ,0.0003982596599937242, ,0.2164990933960099,-0.18754656785054222,0.10116376789,2.2837331744899547,1.008240731769185,-0.876714109789789, ,0.04841680691758713,0.01371343086105069,0.024281724878048784,0.042908735269939255,0.0247005222593856,0.06416695996768358, ,1.5801808834075928
0.013193873657553843,0.021804947698595745,-0.08709192632912865, ,0.013841882793727568,0.02169088741239081,-0.0879644990498716, ,0.0010928443358678786, ,0.00947470975464569,0.003609131414374067,-0.022683086934192045,-0.02694323177965604,-0.010188079739870216,0.01335152613659, ,0.02484589276651402, ,0.028805011760959124, ,0.00040289022449955186, ,0.2164990933960099,-0.18754656785054222,0.10116376789,2.2837331744899547,1.008240731769185,-0.876714109789789, ,0.04841680691758713,0.01371343086105069,0.024281724878048784,0.042908735269939255,0.0247005222593856,0.06416695996768358, ,1.582063913345337
0.013193873657553843,0.021804947698595745,-0.08709192632912865, ,0.013870072381100105,0.021695077427237162,-0.08802402413562314, ,0.0011567724543426166, ,0.00947470975464569,0.003609131414374067,-0.022683086934192045,-0.02694323177965604,-0.010188079739870216,0.01335152613659, ,0.02484589276651402, ,0.028805011760959124, ,0.00040788282204818146, ,0.2170319619643314,-0.18737666772730927,0.10144506282000001,2.2847816242073775,1.0089239142680122,-0.8763727331667249, ,0.05588748030534204,0.018780316952002926,0.031171842504892373,0.09913632166229046,0.07542916020482517,0.026832838577352264, ,1.58394193649292
0.013301857749851848,0.02184956328936315,-0.08735123765934451, ,0.013898259972411679,0.021699175967176708,-0.08808353748335754, ,0.0009563341413952709, ,0.011627788376637705,0.004845033891864136,-0.028811032359773853,0.032853073269336834,0.023556249804600977,-0.05699016117735538, ,0.03144448125794285, ,0.04042525790346722, ,0.000411491054412307, ,0.2170319619643314,-0.18737666772730927,0.10144506282000001,2.2847816242073775,1.0089239142680122,-0.8763727331667249, ,0.05588748030534204,0.018780316952002926,0.031171842504892373,0.09913632166229046,0.07542916020482517,0.026832838577352264, ,1.5862109661102295
0.013301857749851848,0.02184956328936315,-0.08735123765934451, ,0.01392644553719888,0.02170318345993373,-0.08814303876485075, ,0.0010190613078945483, ,0.011627788376637705,0.004845033891864136,-0.028811032359773853,0.032853073269336834,0.023556249804600977,-0.05699016117735538, ,0.03144448125794285, ,0.04042525790346722, ,0.00041546210182068764, ,0.2170319619643314,-0.18737666772730927,0.10144506282000001,2.2847816242073775,1.0089239142680122,-0.8763727331667249, ,0.05588748030534204,0.018780316952002926,0.031171842504892373,0.09913632166229046,0.07542916020482517,0.026832838577352264, ,1.5880968570709229
0.013301857749851848,0.02184956328936315,-0.08735123765934451, ,0.013954629045138937,0.021707100332504135,-0.0882025276527128, ,0.0010821740667918407, ,0.011627788376637705,0.004845033891864136,-0.028811032359773853,0.032853073269336834,0.023556249804600977,-0.05699016117735538, ,0.03144448125794285, ,0.04042525790346722, ,0.0004197914002945263, ,0.2170319619643314,-0.18737666772730927,0.10144506282000001,2.2847816242073775,1.0089239142680122,-0.8763727331667249, ,0.05588748030534204,0.018780316952002926,0.031171842504892373,0.09913632166229046,0.07542916020482517,0.026832838577352264, ,1.589953899383545
0.013301857749851848,0.02184956328936315,-0.08735123765934451, ,0.013982810466049628,0.02171092701115607,-0.08826200382038762, ,0.0011456053506480588, ,0.011627788376637705,0.004845033891864136,-0.028811032359773853,0.032853073269336834,0.023556249804600977,-0.05699016117735538, ,0.03144448125794285, ,0.04042525790346722, ,0.0004244740709419685, ,0.2170319619643314,-0.18737666772730927,0.10144506282000001,2.2847816242073775,1.0089239142680122,-0.8763727331667249, ,0.05588748030534204,0.018780316952002926,0.031171842504892373,0.09913632166229046,0.07542916020482517,0.026832838577352264, ,1.5918378829956055
0.013301857749851848,0.02184956328936315,-0.08735123765934451, ,0.014010989769888611,0.02171466392142947,-0.08832146694215098, ,0.0012093018326809462, ,0.011627788376637705,0.004845033891864136,-0.028811032359773853,0.032853073269336834,0.023556249804600977,-0.05699016117735538, ,0.03144448125794285, ,0.04042525790346722, ,0.00042950501813260295, ,0.21758799873127557,-0.18718359940545368,0.10177172790000001,2.284991314150862,1.0098803697663703,-0.8761725136109133, ,0.05931058847404423,0.020558262902614987,0.03595668514672686,0.03747941424533433,0.12331385973542851,-0.007826844813018548, ,1.593966007232666
0.013416504900570458,0.02189614172853958,-0.08765402170390121, ,0.014039166926753588,0.021718311488137354,-0.08838091669311142, ,0.0009735029114444903, ,0.012440931928497335,0.005294088368064777,-0.03317357354720221,0.06758717852199149,0.03776880368693972,-0.012200873365500062, ,0.03582303924557515, ,0.07742395660909128, ,0.0004329699728670736, ,0.21758799873127557,-0.18718359940545368,0.10177172790000001,2.284991314150862,1.0098803697663703,-0.8761725136109133, ,0.05931058847404423,0.020558262902614987,0.03595668514672686,0.03747941424533433,0.12331385973542851,-0.007826844813018548, ,1.5963740348815918
0.013416504900570458,0.02189614172853958,-0.08765402170390121, ,0.014067341906881702,0.021721870135364803,-0.08844035274920807, ,0.0010355075614331515, ,0.012440931928497335,0.005294088368064777,-0.03317357354720221,0.06758717852199149,0.03776880368693972,-0.012200873365500062, ,0.03582303924557515, ,0.07742395660909128, ,0.0004367835019086311, ,0.21758799873127557,-0.18718359940545368,0.10177172790000001,2.284991314150862,1.0098803697663703,-0.8761725136109133, ,0.05931058847404423,0.020558262902614987,0.03595668514672686,0.03747941424533433,0.12331385973542851,-0.007826844813018548, ,1.598376989364624
0.013416504900570458,0.02189614172853958,-0.08765402170390121, ,0.014095514680650453,0.021725340286472744,-0.08849977478721108, ,0.0010979643400331974, ,0.012440931928497335,0.005294088368064777,-0.03317357354720221,0.06758717852199149,0.03776880368693972,-0.012200873365500062, ,0.03582303924557515, ,0.07742395660909128, ,0.000440941871959729, ,0.21758799873127557,-0.18718359940545368,0.10177172790000001,2.284991314150862,1.0098803697663703,-0.8761725136109133, ,0.05931058847404423,0.020558262902614987,0.03595668514672686,0.03747941424533433,0.12331385973542851,-0.007826844813018548, ,1.6026239395141602
0.013473769794686802,0.021919991166075042,-0.0878104360264801, ,0.014123685218576269,0.02172872236409504,-0.08855918248472046, ,0.0010097500044802018, ,0.012440931928497335,0.005294088368064777,-0.03317357354720221,0.06758717852199149,0.03776880368693972,-0.012200873365500062, ,0.03582303924557515, ,0.07742395660909128, ,0.00044449692278798194, ,0.21786601711474765,-0.18708320387808874,0.10194154189000001,2.284991314150862,1.0105635522651977,-0.8763212094286925, ,0.06146174971403549,0.023518448961207132,0.037043747720930234,0.029067349460722758,0.1157621933086613,0.011736850796184653, ,1.6046268939971924
0.013473769794686802,0.021919991166075042,-0.0878104360264801, ,0.014151853491315047,0.021732016790140692,-0.08861857552016528, ,0.0010715508886164318, ,0.012440931928497335,0.005294088368064777,-0.03317357354720221,0.06758717852199149,0.03776880368693972,-0.012200873365500062, ,0.03582303924557515, ,0.07742395660909128, ,0.00044839166791735117, ,0.21786601711474765,-0.18708320387808874,0.10194154189000001,2.284991314150862,1.0105635522651977,-0.8763212094286925, ,0.06146174971403549,0.023518448961207132,0.037043747720930234,0.029067349460722758,0.1157621933086613,0.011736850796184653, ,1.606740951538086
0.013473769794686802,0.021919991166075042,-0.0878104360264801, ,0.01418001946966164,0.021735223985793483,-0.08867795357280275, ,0.0011338051893905478, ,0.012440931928497335,0.005294088368064777,-0.03317357354720221,0.06758717852199149,0.03776880368693972,-0.012200873365500062, ,0.03582303924557515, ,0.07742395660909128, ,0.00045262261558076596, ,0.21786601711474765,-0.18708320387808874,0.10194154189000001,2.284991314150862,1.0105635522651977,-0.8763212094286925, ,0.06146174971403549,0.023518448961207132,0.037043747720930234,0.029067349460722758,0.1157621933086613,0.011736850796184653, ,1.6089718341827393
