NicholasDascanio/dvrk_moveit_final/test/execution/third_experiment_notsharpbends/thirdexp_600vel3.0/thirdexp_600vel3.0_28.csv
Current Position (x),Current Position (y),Current Position (z), ,Planned Position (x),Planned Position (y),Planned Position (z), ,Position Error,,Cartesian linear Velocity(x),Cartesian linear Velocity(y),Cartesian linear Velocity(z),Cartesian Angular Velocity(x),Cartesian Angular Velocity(y),Cartesian Angular Velocity(z), ,Total Linear Velocity, ,Total Angular Velocity, ,MSE, ,Joint 1 Position,Joint 2 Position,Joint 3 Position,Joint 4 Position,Joint 5 Position,Joint 6 Position, ,Joint 1 Velocity,Joint 2 Velocity,Joint 3 Velocity,Joint 4 Velocity,Joint 5 Velocity,Joint 6 Velocity, ,Time Stamp
0.009821596760190409,0.020708240827603197,-0.07788937745298287, ,0.009901292424318888,0.020567634710068547,-0.07794575638111104, ,0.00017117261085211106, ,-4.415759617171431e-05,1.0573561599442225e-06,1.515360892976537e-05,0.0034564835127983045,0.0001649721490198392,-0.006484599144127427, ,4.669735715551186e-05, ,0.0034604181949872376, ,1.4264384237675922e-05, ,0.20003422690816325,-0.19738532953230425,0.09152585174000001,2.2732486773157285,1.0018188162802093,-0.8670668163484669, ,-0.0006593915347703564,0.00010519090615738153,-1.9697302742713197e-05,0.00229276952236544,0.0,-0.00536012813113107, ,0.022320032119750977
0.009837102069852537,0.0207061222070008,-0.0779224898997796, ,0.009917350436335808,0.02056797894334297,-0.07801778664263521, ,0.0001860237372384492, ,0.0018029097596954057,-6.348295447102751e-05,-0.003683310120879092,0.009080517393284117,-0.24861038476918035,-0.3035908614345364, ,0.004101376248734523, ,0.24877616286640425, ,1.623619764048001e-05, ,0.20002650417528903,-0.19736988406655578,0.09154140722000001,2.2732486773157285,0.9993593592844314,-0.8735558830565499, ,0.00043200659900575236,0.00017615914447400183,0.0018571541937740471,0.0021855372315899976,-0.2636603814569303,-0.2885168119238677, ,0.04791593551635742
0.00987346279180493,0.020696314752970076,-0.07797938154799951, ,0.009933492547339471,0.020568291381926652,-0.07808983970969798, ,0.0001794284274262682, ,0.0007826862549925196,3.480962354654259e-05,-0.0022243387732344766,0.06064091965510172,-0.09366853576759403,-0.1692828073206941, ,0.0023582816756613115, ,0.11158456761312065, ,1.676952423490089e-05, ,0.20003422690816325,-0.19734671586793312,0.09155307383000001,2.2732486773157285,0.9930740802952212,-0.8795389681456309, ,0.0004130233613590482,0.001241984744209803,0.00017806367352939798,0.0021161342672764544,-0.24951542712404998,-0.13377560007815803, ,0.07546710968017578
0.009889503159233447,0.020694876273278852,-0.0780245417331086, ,0.009949718459963432,0.02056857218959719,-0.07816191505820831, ,0.00019608680334386836, ,5.3627302981604154e-05,-0.00020363360442463108,-5.041167741929942e-05,-0.05008762287101276,0.0007066235422757573,0.049639338145651676, ,0.00021652683366334854, ,0.05009260705632418, ,1.7445513782397543e-05, ,0.20003422690816325,-0.19728493400493932,0.09158548108,2.2732486773157285,0.9912978057982704,-0.8853599432700875, ,-6.384212848636485e-05,0.0018893637693803789,-0.00010320236558124286,-0.0018344742755359211,-0.014873916510062032,0.06633514862723267, ,0.09995603561401367
0.00989199558840951,0.02069451770828004,-0.07803945000558622, ,0.009966027877344704,0.020568821529882927,-0.07823401216519364, ,0.00024317636196745477, ,-0.00023101868298541336,0.0001689332334592727,-0.00015761189003207364,-0.15069130854402527,0.119229489608703,0.2878014686406162, ,0.00032672553792870634, ,0.19215499385408238, ,1.8767075785156764e-05, ,0.20003422690816325,-0.19723859760769397,0.09160103656000002,2.2732486773157285,0.9914344422980359,-0.8789370619625391, ,0.0006444293093523602,0.001204457304403302,0.0007292372802065581,-0.0018344742755359211,0.07869652667312745,0.33535746975105857, ,0.12224507331848145
0.009895247290390504,0.020707419873414304,-0.078099415650824, ,0.009982420503123866,0.02056903956606453,-0.07830613050879932, ,0.00026358928466125735, ,0.0007138403061126056,0.0006367161038811802,-0.003682043192122727,-0.04259667738537018,0.008796309167862178,0.052409410239640714, ,0.003804263062437966, ,0.04349542480046779, ,1.9991568153054984e-05, ,0.20004194964103747,-0.1971536475460775,0.09168011025000002,2.2732486773157285,0.9938938992938139,-0.8785739007649982, ,-0.0005060369708649734,0.0010615428093777642,0.0037665669236226066,-0.0018344742755359211,-0.004407928048566327,0.06587255807681383, ,0.1507730484008789
0.009912645673416647,0.020715190875593256,-0.0781930158904208, ,0.00999889604144452,0.02056922646117462,-0.07837826956828736, ,0.0002511247925327327, ,0.000628455190768065,0.00017041219580250186,-0.002991458813958188,0.008831310236949918,-0.005672934608380304,-0.017153831279011694, ,0.0030615065047929725, ,0.010496391157567201, ,2.0702805805863078e-05, ,0.20004194964103747,-0.1970532520187126,0.09177344313000001,2.272829297428759,0.9937572627940484,-0.879360949002848, ,0.0004946633655125773,0.005055505038821084,0.003003169592760181,-0.00353399398353089,0.0,-0.024732133844969615, ,0.17946505546569824
0.009923640378862217,0.02071987570844546,-0.07824418492788633, ,0.010015454196952808,0.02056938237799727,-0.07845042882403647, ,0.0002713200405442775, ,0.0003563912800509512,-8.736661230260187e-05,-0.0017978293786169283,-0.009702142464456873,0.0003975367996407798,0.00762473333960987, ,0.001834894586634262, ,0.009710283409298819, ,2.148685437276121e-05, ,0.2000496723739117,-0.19693741102559922,0.09184344279000001,2.272829297428759,0.9937572627940484,-0.8796059852232696, ,0.00011977180283198331,0.0037241149741970487,0.001796479765377261,-0.00353399398353089,0.0,0.005105177395807894, ,0.20491600036621094
0.009937418507545846,0.020720631614540762,-0.07830647018921362, ,0.010032094674797348,0.020569507479069403,-0.07852260775754015, ,0.000280209795348959, ,0.0004208111220860692,1.987533020519444e-05,-0.0023301123626955533,-0.008024401380740462,0.0004227817674001958,0.005369569416422548, ,0.002367889493200381, ,0.008035531212893578, ,2.2197085368645415e-05, ,0.2000573951067859,-0.19684473823110854,0.09188622036,2.272829297428759,0.9936206262942829,-0.8794945673195733, ,-0.000422261208422024,0.00521097745731666,0.002302184061280532,-0.00353399398353089,0.0,0.003807412201080948, ,0.2292470932006836
0.00994654586084002,0.020720367692641694,-0.07836187246679585, ,0.010048817180628701,0.020569601926679965,-0.07859480585140648, ,0.0002957155739955322, ,0.0005285507351755527,0.00014625063980053645,-0.0029290005390867706,-0.008014735686660147,-0.0005993362592318372,0.008755045612070843, ,0.0029798992075684835, ,0.008037113403646814, ,2.2920072822655984e-05, ,0.2000573951067859,-0.1967366199708694,0.09194066454000001,2.2724099175417907,0.9936206262942829,-0.8794945673195733, ,-0.00033753175459657275,0.004849042245154612,0.00292486439955931,-0.007614646144521525,0.0,0.0030374742013349384, ,0.2551250457763672
0.009964360021136875,0.020727011957031735,-0.07845233231163257, ,0.010065621420598999,0.020569665882870465,-0.07866702258935741, ,0.00028478689124424836, ,0.0006311647365614988,0.00020094258804226512,-0.0032408440360396653,-0.006246101433486533,-0.0014153412502345307,0.0065052594211109085, ,0.003307841730539981, ,0.006404449516898851, ,2.3416377849599632e-05, ,0.2000573951067859,-0.19658988804625913,0.09203270113,2.2724099175417907,0.9937572627940484,-0.8795243064831291, ,0.00016617250662833054,0.004965974145708161,0.0032540983697650666,-0.007614646144521525,0.00028921553681197985,0.00011863698583209091, ,0.28214406967163086
0.009980734441736328,0.02073000210956054,-0.07853216164445925, ,0.010082507101361847,0.02056969950943536,-0.07873925745622769, ,0.00028096845571375437, ,0.00043404089865729963,-4.161194580402282e-05,-0.0022261010003601753,-0.0017293189414946673,0.0011513556918195237,0.004258569025079307, ,0.0022684022393626327, ,0.0020775379360749506, ,2.380002274482716e-05, ,0.20007284057253438,-0.19641998792302617,0.09211436740000001,2.2724099175417907,0.9940305357935793,-0.8798288210306624, ,0.0004738067070158337,0.005604017894512427,0.0022237626022616223,-0.007240540124148908,0.004960291774497765,-0.003730804209611059, ,0.30800795555114746
0.009990557544270248,0.020728760347074944,-0.0785796561057681, ,0.010099473930071531,0.02056970296792139,-0.0788115099379636, ,0.0003015264971158405, ,0.00041135800359122114,7.653320836197876e-06,-0.0023705392140375204,-0.0016661119463525975,0.0028251685603142788,0.0019307894815528207, ,0.002405978001921049, ,0.0032798637680717052, ,2.4281282363520864e-05, ,0.20008828603828283,-0.1963041469299128,0.09216103384,2.2722002275983058,0.9940305357935793,-0.8799104997708029, ,-0.00037541017211995567,0.005578121484122358,0.002372830555638314,-0.003972937273028194,0.004960291774497765,-0.0027081428792145998, ,0.3328380584716797
0.010004029525030121,0.020732326537560426,-0.07866169814742781, ,0.010116521614383152,0.02056967641962866,-0.0788837795216234, ,0.0002973712625571428, ,0.000591970048524649,0.00021019297899937673,-0.003135293512515721,0.0077212222190258875,0.006998033970376247,-0.0007438617864991396, ,0.0031976045778667, ,0.010420640657039999, ,2.4665496722126035e-05, ,0.20008828603828283,-0.1961419695395541,0.09224658898000002,2.2719905376548213,0.994577081792641,-0.8803561713855887, ,0.0003800829453986341,0.005288392487079617,0.003244157132382892,-0.004537828531793529,0.013390366453768754,-0.00977432611799599, ,0.3607370853424072
0.010014138663704868,0.020736931203049716,-0.07871935515288661, ,0.01013364986245194,0.020569620025610223,-0.07895606569537499, ,0.0003135408069889667, ,0.0005435513291012672,2.8996244080079924e-05,-0.0024211330907705254,-0.0066603863050743485,-0.0016491041284934214,0.004159080603466322, ,0.002481566898707859, ,0.006861507857332944, ,2.510553514165042e-05, ,0.20008828603828283,-0.1960415740121892,0.09230751461000002,2.2719905376548213,0.9949869912919374,-0.880690425096678, ,0.0009310890332928365,0.00523090351412646,0.002407619637243047,-0.004537828531793529,-3.758262400049931e-05,0.0010712515289380878, ,0.38526105880737305
0.01003117110471509,0.020738673480737435,-0.0787997736574927, ,0.010150858382933057,0.020569533946672398,-0.07902836794849608, ,0.00030852645985441496, ,0.0006046680676667014,0.00016031845360912499,-0.002895558580683265,-0.006271709194677001,-0.0015478040819119753,0.005394043955545621, ,0.0029623613845700674, ,0.006459878752347739, ,2.5618433548976885e-05, ,0.20010373150403127,-0.19588711935470468,0.0923865883,2.271780847711337,0.9948503547921719,-0.8805790071929815, ,0.0005775228152633668,0.004695350467856983,0.002906187104542967,-0.005833260155650866,0.0,0.0009106171833137898, ,0.40900611877441406
0.010043171506385257,0.020741742403249074,-0.078863656199926, ,0.010168146884981175,0.0205694183433749,-0.07910068577137316, ,0.000318586635951884, ,0.0007349509284091236,0.0002427899031496823,-0.003400517997324648,-0.005922000819611848,-0.0007782598075187948,0.0010212458513669692, ,0.003487495154744978, ,0.0059729206909837785, ,2.6136202572571546e-05, ,0.2001114542369055,-0.19577900109446555,0.09245140280000001,2.2715711577678523,0.9949869912919374,-0.880690425096678, ,0.0006491370378481175,0.005248697770270137,0.0034299766408268737,-0.0014519532775810165,0.0,0.0008460317817233026, ,0.4306070804595947
0.010055845764147376,0.020745165466768797,-0.07893037498608131, ,0.010185515078250077,0.020569273376030515,-0.07917301865550039, ,0.00032653959777231156, ,0.0006109899169573517,0.00019257805103598457,-0.0032717823539535605,0.004876381978279434,0.004639040245191725,0.004956711847135614, ,0.003333909830215309, ,0.006730512255370408, ,2.664633539167304e-05, ,0.20012689970265393,-0.19566316010135218,0.09252010617,2.271361467824368,0.9952602642914682,-0.8809132609040708, ,0.0005283107009920469,0.005321661880605476,0.003361217877189281,-0.01008461924678428,0.011599525670526054,-0.008672190141123698, ,0.45298290252685547
0.010069116999027555,0.020749745907309155,-0.07899434953602981, ,0.010202962672892705,0.02056909920470709,-0.07924536609347903, ,0.0003369825035325607, ,0.0009051469212533107,0.00011401189614628708,-0.0035320417931285486,-0.03822158373632629,-0.020243890079582615,0.01862414873410679, ,0.003647959551574545, ,0.043251642145906107, ,2.7163173077883162e-05, ,0.20015006790127662,-0.1955473191082388,0.09258751325,2.271361467824368,0.9956701737907646,-0.8812475146151602, ,0.0015281268009873536,0.005506066154749723,0.0033414750409062307,-0.008942052066171359,-0.02840612014243452,0.02389807591508224, ,0.4749159812927246
0.010084605117960062,0.020753021911276422,-0.07906143192340148, ,0.010220489379560195,0.020568895989224886,-0.07931772757901658, ,0.0003435903823000761, ,0.0007968959162192692,6.725188878679421e-05,-0.0035013936951538574,-0.02586309767229182,-0.011998183116753247,0.012931654225654824, ,0.003591562852895035, ,0.028510633433569726, ,2.76663295479295e-05, ,0.2001732360998993,-0.1954237553822512,0.09265492033000002,2.271361467824368,0.9956701737907646,-0.8812475146151602, ,0.0007839791312255089,0.0064871018667236515,0.0033740333658123286,-0.00794490734776675,-0.01626517924886754,0.013954726986958172, ,0.49663710594177246
0.010098911947157388,0.02075262017538549,-0.07912526593389581, ,0.010238094909401817,0.020568663889158283,-0.07939010260692583, ,0.00035121257893653684, ,0.0007031936881569746,1.7376479290668722e-05,-0.0030229061781497754,-0.007364631737148207,-0.0010137463677148929,-0.0008003244104168945, ,0.0031036663910595204, ,0.007434075737403138, ,2.8162521844071108e-05, ,0.20021184976427042,-0.19520751886177293,0.09274954950000001,2.270942087937399,0.9956701737907646,-0.8812475146151602, ,0.0014745020718975415,0.007327938884272452,0.0030839906137463697,-0.010109025547494398,0.000992608136100089,-0.0001759714839211671, ,0.5176379680633545
0.010119760331035108,0.02075351194569379,-0.07922553189759007, ,0.010255778974064902,0.02056840306383685,-0.07946249067312446, ,0.00033002398503252173, ,0.0007142511095241413,4.317666511640219e-05,-0.0034242236309480695,-0.0008042028703685181,0.0017556702083891262,0.005747918142179184, ,0.00349818900956055, ,0.001931092868445769, ,2.8518620860051955e-05, ,0.20023501796289309,-0.19505306420428845,0.09281954916000001,2.270942087937399,0.9959434467902953,-0.881470350422553, ,0.0012440386937329312,0.007312116973850481,0.0034582743204515853,-0.010109025547494398,0.008049433444797667,-0.005966209533269581, ,0.5421710014343262
0.010135862526608308,0.020755381144945753,-0.07929558265866535, ,0.010273541285694007,0.02056811367234344,-0.07953489127463327, ,0.0003336062959158878, ,0.0007607999646751094,8.693708065403221e-05,-0.003715323856963118,-0.0008616352692242125,0.0020805997122924635,0.005032683154237436, ,0.0037934161390970004, ,0.0022519568805916042, ,2.886209723583508e-05, ,0.20025818616151575,-0.19490633227967818,0.09288954882000001,2.270942087937399,0.9959434467902953,-0.881470350422553, ,0.0010459856410690428,0.0075222018902280415,0.003755909342136289,-0.009432107026655076,0.008049433444797667,-0.005994241293268283, ,0.566741943359375
0.010150637154751844,0.020754408331430507,-0.07936116576338456, ,0.01029138155693086,0.0205677958735157,-0.0796073039095766, ,0.00033943656727669543, ,0.0005869750580403309,-8.055372741414696e-05,-0.0026174610380004944,-0.0035178666932640635,0.0006062821247879089,0.0019297535235642323, ,0.0026836786147399223, ,0.0035697288361382063, ,2.9204061579844434e-05, ,0.20029679982588688,-0.19467465029345143,0.09298547428000001,2.2705227080504296,0.9960800832900608,-0.8815817683262492, ,0.0011761632116512792,0.007078228154924356,0.002607006795417349,-0.004702160232981557,0.00430677661287303,-0.002984259641135501, ,0.5904190540313721
0.01016743181843003,0.02075366756011809,-0.07944757050402959, ,0.010309299500913905,0.020567449825945654,-0.07967972807718048, ,0.00032969777467397384, ,0.0006255089618090238,-4.5102900647536845e-05,-0.003152993060832209,-0.0024906907348528707,0.0024406250525596737,0.0010799729295660459, ,0.003214756752011929, ,0.00348714649423439, ,2.9480347614783996e-05, ,0.20031224529163533,-0.1945356411017154,0.09304251104000001,2.2705227080504296,0.9963533562895918,-0.8818046041336423, ,0.00039665638569711146,0.007974761360056905,0.0031498539687561796,-0.004702160232981557,0.006061698592197694,-0.004438378719307083, ,0.6121940612792969
0.010182076326251756,0.020755358445115023,-0.07951816939119138, ,0.010327294831278042,0.020567075687980323,-0.0797521632777723, ,0.0003336044810753581, ,0.0008351923876086407,0.0002016228266631606,-0.003795830863127749,-0.00530722809073384,-0.0013662106339176942,0.005834109129575927, ,0.0038918543176773993, ,0.005480255533758399, ,2.9752384875908703e-05, ,0.20033541349025802,-0.19439663190997936,0.09311380699,2.270313018106945,0.9964899927893571,-0.8819160220373385, ,0.0013896249579914664,0.006219935794650297,0.003831804551359154,-0.007894269903177578,0.002422280335039429,-0.0014922125296501368, ,0.633275032043457
0.010195808096509301,0.02075698096503162,-0.07958217879804907, ,0.01034536726215431,0.02056667361772182,-0.07982460901277971, ,0.0003425744291141226, ,0.0005254501101368094,-1.4646149755763178e-05,-0.0026173195647997654,0.0032487328836741996,0.004045124140435178,0.002206418684862989, ,0.002669583119558012, ,0.005188187982154595, ,3.0040088588335412e-05, ,0.20035085895600646,-0.19425762271824332,0.09317862149000002,2.270313018106945,0.9966266292891226,-0.882027439941035, ,0.0008542074135985665,0.006294206809419378,0.002659233976627713,-0.007195920252374769,0.010287194971775776,-0.007925377872765309, ,0.655850887298584
0.01020741816679517,0.020755356932278143,-0.07963418849393017, ,0.010363516508169253,0.020566243773026592,-0.07989706478473023, ,0.00035949189621831454, ,0.0006340201174233035,-6.432252052677149e-05,-0.0026421890372523038,-0.0005364067625555373,0.002132701281352607,-0.0019256637175712008, ,0.002717955445646715, ,0.0021991241078272413, ,3.0371430963514954e-05, ,0.2003971953532518,-0.19405683166351348,0.09325510260000001,2.2701033281634606,0.9968999022886535,-0.8822502757484278, ,0.0016062060871523155,0.0072171949027515754,0.002657902806607709,-0.001688482221001286,0.006605393447153086,-0.00494937966938203, ,0.6813321113586426
0.010227643284162685,0.020753823859088496,-0.07972339177251409, ,0.010381742284444858,0.02056578631150656,-0.07996953009724986, ,0.0003459605412360304, ,0.0006240682055620773,-0.00013723681674365475,-0.0028421487957610648,-0.0037743131895881486,-3.8671709361743495e-06,0.007006200434906179, ,0.0029130919735410815, ,0.0037743151461764597, ,3.0632645577055946e-05, ,0.2004280862847487,-0.193902377006029,0.09331991710000001,2.269893638219976,0.9968999022886535,-0.8822502757484278, ,0.0015087952370466205,0.007849341649962642,0.0028257604257583826,-0.010819273199300827,0.005822480121266678,-0.004328035674559061, ,0.705207109451294
0.01023928156463267,0.020754587773172184,-0.07977912635658423, ,0.010400044306598213,0.020565301390529346,-0.08004200445506289, ,0.0003616336385322149, ,0.0006387004609593885,-9.790290384289162e-05,-0.003055949070272922,0.001780731625691903,0.0034483876261041067,0.0034446134704065696, ,0.0031235153237198217, ,0.0038810284817412484, ,3.093208748764379e-05, ,0.20045125448337137,-0.19376336781429296,0.09337825015000001,2.269893638219976,0.9973098117879499,-0.8825028507193766, ,0.001302724439353472,0.008163925340038316,0.0030798166125290028,-0.009380419676138098,0.010831911761885712,-0.008726950818283837, ,0.7273728847503662
0.010260454190012785,0.02075359340513532,-0.07987241358201526, ,0.010418422290740881,0.02056478916721743,-0.08011448736399035, ,0.0003452545105036574, ,0.0007106980944396241,4.577495934974618e-05,-0.003185639451583953,0.003725617854288918,0.004631561473040894,-0.003916965797416379, ,0.003264274167993812, ,0.005944038168338975, ,3.1157985200869684e-05, ,0.20049759088061672,-0.19353940856094043,0.09347158303000001,2.2696839482764917,0.9974464482877153,-0.8825325898829325, ,0.0013493875396110185,0.00731359485950822,0.003246802185079495,-0.0014592766558453856,0.0103711671285942,-0.008456991377390873, ,0.7526099681854248
0.01027374710101504,0.020752538259412118,-0.07993312472858365, ,0.010436875953478891,0.020564249798449293,-0.08018697833094982, ,0.0003556757209484554, ,0.0006410513870154469,-5.623788794999158e-05,-0.0029565489116266143,0.0018386781174722137,0.002846705394919707,0.0034078839461537174, ,0.003025771149256999, ,0.0033888742377419954, ,3.150802414607198e-05, ,0.20051303634636516,-0.1934621812321982,0.09350658286,2.269474258333007,0.9974464482877153,-0.8825325898829325, ,0.0015135586033562416,0.007417480801599752,0.0029896418018018024,-0.008985135171033722,0.01008056758589176,-0.008220026935835163, ,0.7714591026306152
0.010287887415957594,0.020754714404882846,-0.08000057940175553, ,0.010455405011912161,0.02056368344085905,-0.08025947686395406, ,0.0003627435321313045, ,0.0006834511431730281,9.129365142897055e-05,-0.0034480696465901514,0.02727129110534579,0.016851045656802035,-0.005550653219209421, ,0.0035163367705087754, ,0.03205746493085106, ,3.186276561710637e-05, ,0.20055937274361052,-0.1932382219788457,0.09360380461000001,2.269474258333007,0.9981296307865425,-0.8830896794014146, ,0.0019289690841451667,0.007696627215718469,0.0036778599676749024,-0.008985135171033722,0.03394203943180342,-0.027677457247256943, ,0.7920229434967041
0.010296954134116267,0.02075501057097412,-0.08004099490105678, ,0.010474009183634257,0.020563090250836854,-0.08033198247211079, ,0.00039096760268508715, ,0.0008440381227046442,0.00016997971901390972,-0.004119768766688414,0.01416903087613984,0.010337069028679459,-0.0033556069578916667, ,0.004208775136359295, ,0.01753899743103706, ,3.2287970235069604e-05, ,0.2005902636751074,-0.19310693551998387,0.09367121169,2.2692645683895227,0.9981296307865425,-0.8830896794014146, ,0.0014964497345419034,0.008056529278793995,0.004277339291084856,-0.00658585685124521,0.02167516651051724,-0.017674644908340486, ,0.811974048614502
0.010322238104433485,0.020757526295716443,-0.08015802807608126, ,0.010492688186731958,0.020562470384528717,-0.08040449466562129, ,0.00035755533670233893, ,0.0007234662251250643,4.6809218884812055e-05,-0.0034124938863826634,0.006912844250308833,0.006731824344790566,-0.003964118465601952, ,0.0034886543260214775, ,0.00964908670161995, ,3.259056649977016e-05, ,0.2006134318737301,-0.1929293126638767,0.09376065570000001,2.269054878446038,0.9981296307865425,-0.8830896794014146, ,0.0011973421509969026,0.007808577850987625,0.003494693181219834,-0.0029476406026811073,0.014055137330835766,-0.011461022056736882, ,0.8342850208282471
0.01033954722508092,0.02075706735270156,-0.08022643909778873, ,0.01051144173978502,0.020561823997837212,-0.08047701295577983, ,0.0003611854788229819, ,0.000818766694121689,-5.1228773503307796e-05,-0.0032324476082519877,-0.004006220852000517,-0.0003183160784493605,-0.0003957700132039827, ,0.003334924410947212, ,0.004018846885351369, ,3.288955741293926e-05, ,0.20066749100384965,-0.19275168980776955,0.09383065536000001,2.269054878446038,0.9984029037860733,-0.8833125152088074, ,0.002338502526308716,0.008201027216961915,0.003238221492173206,-0.0029476406026811073,0.004276740537956846,-0.0034873951412006244, ,0.8571751117706299
0.010353567913777265,0.020755850123131036,-0.08029578938670989, ,0.010530269561865604,0.02056115124642053,-0.08054953685497299, ,0.0003654023846109902, ,0.0006717426236120196,2.587979095004106e-05,-0.003529377452414109,0.020159569635139717,0.013846858634099507,-0.0032042475691473073, ,0.0035928280111307697, ,0.024456977355330506, ,3.318690021906565e-05, ,0.20069838193534656,-0.19257406695166238,0.09390195131000001,2.2688451885025533,0.9988128132853697,-0.8836467689198967, ,0.0013117113746055537,0.008350454895627591,0.0036966376235785573,-0.00927152073022316,0.028002038557465362,-0.022833784828029384, ,0.8771378993988037
0.01036991137474571,0.020755644625703226,-0.0803636016017752, ,0.010549171372538376,0.020560452285694402,-0.08062206587667829, ,0.0003701864095397418, ,0.0006000864454530762,-9.041681487439177e-05,-0.0028544576166363218,0.009720547166579826,0.0077027643118673175,-0.00030774325177097806, ,0.002918254140338303, ,0.012402484229878143, ,3.3484318423006604e-05, ,0.20072927286684344,-0.19241188956130367,0.09396935839000001,2.2688451885025533,0.9988128132853697,-0.8834834114396156, ,0.0015498651739079905,0.007853041313367202,0.0029340231202799783,-0.008000201031424051,0.017759564740603667,-0.01423357351789601, ,0.9062891006469727
0.010386567944886927,0.020744829137086966,-0.08042502604321076, ,0.010568146891859496,0.0205597272708301,-0.08069459953546423, ,0.0003740367396408712, ,0.0005711021970910562,-0.0003522076762219704,-0.0018280022905011752,-0.008632765739662318,-0.002785677804190496,5.968336121051467e-05, ,0.00194725456496819, ,0.009071088420042832, ,3.377921340149776e-05, ,0.20079877746271146,-0.19214931664358004,0.09402898773000001,2.2686354985590693,0.9989494497851351,-0.8835131506031715, ,0.0025104015337890067,0.008364184657712525,0.0017472799146133163,-0.0016313903172490536,0.0,0.0002006800976375354, ,0.9272520542144775
0.010399276079866397,0.020745137956310174,-0.0804904294513049, ,0.010587195840376963,0.020558976356756714,-0.08076713734698869, ,0.0003828018248028651, ,0.000827453754352142,0.0003021406120132541,-0.004402295584731216,0.0169530422333905,0.012303264708680633,-0.0034915012899788505, ,0.004489562905268525, ,0.020946979777655764, ,3.4085105025386035e-05, ,0.20082966839420838,-0.19199486198609553,0.0940976911,2.2684258086155844,0.9994959957841969,-0.8839588222179572, ,0.000680210443341124,0.007092730848986203,0.004595733271783036,-0.0068359077526649915,0.023553117755069686,-0.01901058286327776, ,0.9469881057739258
0.01041018494033899,0.020748870404089768,-0.08054346200846976, ,0.01060631793912987,0.020558199698159838,-0.08083967882799861, ,0.00040319706780470006, ,0.0009335114299012205,0.0004751308159477777,-0.0051497541268794985,0.028189558868444514,0.01878895352016266,-0.007375478308704413, ,0.005255203178691747, ,0.03387736707535674, ,3.4432222651986066e-05, ,0.2008373911270826,-0.19190991192447907,0.09415213528000001,2.2684258086155844,0.9996326322839623,-0.883988561381513, ,0.0006133473904298073,0.00717220552534765,0.005449473664043792,-0.0068359077526649915,0.03412510891753586,-0.027519794268032995, ,0.9645590782165527
0.010435111877615061,0.020757403820814545,-0.08065223009503862, ,0.010625512909647973,0.020557397449482,-0.08091222349632818, ,0.00037927782730727045, ,0.0012330147489873656,0.000418225180218839,-0.004944497697487356,0.012425542373982678,0.006725441646709236,-0.003203054817828525, ,0.005113051452219821, ,0.014128894708205829, ,3.470258735534904e-05, ,0.20088372752432795,-0.19177090273274303,0.09426231993,2.2682161186721,0.9996326322839623,-0.8840702401216536, ,0.003934263752505174,0.007003762500709289,0.005166659591307169,-0.005179740392967903,0.019107479456392164,-0.015127741829649653, ,0.981482982635498
0.010458174876011896,0.020760948776364058,-0.08074236747860718, ,0.010644780473951492,0.02055656976492281,-0.08098477087090003, ,0.00036790193543277146, ,0.0009513500529905012,0.00010503768013932885,-0.003637448086345557,0.005249265289997094,0.0026646914002132547,0.002745765706421846, ,0.003761266863496, ,0.005886880812991432, ,3.493289663236429e-05, ,0.20095323212019597,-0.19161644807525854,0.09435306023000001,2.2680064287286155,0.9996326322839623,-0.8840702401216536, ,0.0037069755403365576,0.007123673150519518,0.0037506031363315285,-0.009125380949180598,0.013263707350356545,-0.010372656799258135, ,0.9992239475250244
0.01047457383683037,0.020763521359750164,-0.08081174578603724, ,0.010664120354551042,0.020555716798440173,-0.08105732047172189, ,0.0003733865883108064, ,0.0008462520628878137,-8.608314004093776e-05,-0.003724268508082728,-0.003894372779825582,0.0004945396716581131,0.004753810569773417, ,0.003820173920286606, ,0.003925647477628211, ,3.516770517049402e-05, ,0.2009995685174413,-0.19146971615064826,0.09442565247000001,2.2680064287286155,1.0000425417832586,-0.8844044938327429, ,0.0019176742450926838,0.009274318782221631,0.003726909574169397,-0.009125380949180598,0.006722638515596847,-0.005048358251929603, ,1.0171029567718506
0.01048040154779242,0.020763231628393605,-0.08084695765727062, ,0.01068353227444678,0.020554838703748628,-0.08112987181988814, ,0.00040586959305026, ,0.0007345053257925029,0.00016983256599374316,-0.0037538921339455708,0.03701813498097588,0.02278961152132796,-0.01075597250027905, ,0.0038288441241957085, ,0.04347077995639554, ,3.547292073835262e-05, ,0.20101501398318977,-0.1913847660890318,0.09446324488,2.267796738785131,1.000452451282555,-0.884738747543832, ,0.0020376703104230966,0.007807903568574837,0.004066584508552465,-0.006820586293230183,0.04299159599057323,-0.03462770135698684, ,1.0347108840942383
0.010502199416910097,0.02076491213685496,-0.08093503934257225, ,0.010703015957128206,0.020553935634320578,-0.08120242443757676, ,0.0003953898790780878, ,0.000910054340759834,-1.4878607862984301e-05,-0.003621655841162933,0.012246722281572623,0.00870733926861048,-0.0019253281953390798, ,0.0037342752051686477, ,0.015026641779106363, ,3.574120562578355e-05, ,0.2010613503804351,-0.1911994205000504,0.0945513926,2.267796738785131,1.000452451282555,-0.8846570688036914, ,0.003486819004713271,0.008920685214167222,0.003762118923004252,-0.006820586293230183,0.02173102792058714,-0.01590967464689496, ,1.0511980056762695
0.01052031114188708,0.020761549768586567,-0.08100070966161961, ,0.010722571126574267,0.020553007743387045,-0.08127497784805046, ,0.000399527115184999, ,0.0010611284064022297,-8.30055669637388e-05,-0.003779425619675332,0.0030352175490298006,0.0028064309686120356,0.0015188277352513125, ,0.003926441319271049, ,0.004133835940188077, ,3.600912418752584e-05, ,0.20113085497630312,-0.19102179764394325,0.09461620710000002,2.2675870488416465,1.000452451282555,-0.8846570688036914, ,0.0046041640925676575,0.00976358493427758,0.003861530065454546,-0.007603469995584618,0.014077472282478139,-0.009676333374382907, ,1.0687940120697021
0.010532233645601036,0.02076085746176672,-0.08104801348617033, ,0.010742197507252105,0.020552055183935485,-0.08134753157565446, ,0.0004211820275785314, ,0.0012012072193475266,5.3483174792229304e-05,-0.004657447502847863,-0.012474529931804272,-0.005536851184006994,0.010473550031493929, ,0.00481015347734168, ,0.013648099349793311, ,3.6401509705544054e-05, ,0.20117719137354848,-0.1909136793837041,0.09466416983,2.2673773588981616,1.0005890877823205,-0.884768486707388, ,0.0037061132426299166,0.009385332176700806,0.004658909482304768,-0.011356686148846122,0.0,0.0017985734112840653, ,1.0826239585876465
0.010554797169414248,0.020765267955380445,-0.08114629219795846, ,0.010761894824117749,0.020551078108713376,-0.08142008514581664, ,0.0004046347826075056, ,0.0010891252126910185,0.00018161827059300258,-0.005279930626066878,0.037285387747497636,0.02435388141662271,-0.009176430458774677, ,0.00539414926945959, ,0.04453438756099374, ,3.674357412259587e-05, ,0.20123897323654227,-0.19071288832897426,0.09476787303,2.2673773588981616,1.0012722702811476,-0.88532557622587, ,0.0029273780512888968,0.011089017584654607,0.0056206109809456605,-0.009815842158472251,0.04753274273998075,-0.036968577114748914, ,1.097670078277588
0.01056993211488396,0.020767194078782726,-0.08120727528529999, ,0.010781662802614765,0.02055007667022477,-0.0814926380850458, ,0.0004164153944136181, ,0.001198652491468864,0.00015381086917665707,-0.00551695518005286,0.023062216703526765,0.016568124360661934,-0.005202945886900033, ,0.005647762392088878, ,0.028396629711990286, ,3.7101350247439574e-05, ,0.2012775869009134,-0.19058932460298667,0.09483009495000001,2.2673773588981616,1.001408906780913,-0.8854369941295663, ,0.003009179675110667,0.011540754360984697,0.005762956410998553,-0.008994583515083449,0.034569024777368916,-0.026401529154625656, ,1.113434076309204
0.010593122995307833,0.02076175440737829,-0.08129965543234871, ,0.010801501168674753,0.02054905102073304,-0.08156518992093167, ,0.0003989646080206988, ,0.0010021784811061235,-0.0002836844678680965,-0.0039542699667750834,0.001899548379242865,0.003689873768282396,0.0051166968099106095, ,0.004089142887628311, ,0.004150114637471354, ,3.74094368763967e-05, ,0.20135481422965565,-0.1903421971510115,0.09492083525000002,2.2669579790111927,1.001408906780913,-0.8853553153894258, ,0.0038415514009629767,0.012111392460787533,0.003988185157736606,-0.012813485222006869,0.01596373926435318,-0.011503632078809601, ,1.1298439502716064
0.010603212691964584,0.020759776159810457,-0.08133644803959993, ,0.01082140964871656,0.020548001312260304,-0.08163774018214334, ,0.0004280601045987779, ,0.001053068533343772,-0.0003252423085500233,-0.004023846791596216,-0.0012236480213387386,0.0013192585505515323,0.005215218063676287, ,0.0041720593113508, ,0.0017993767110973517, ,3.7771515408998014e-05, ,0.20138570516115253,-0.19023407889077235,0.09495713137,2.2669579790111927,1.001408906780913,-0.8852736366492853, ,0.00413638708182982,0.012642811292095761,0.004029550093599799,-0.012813485222006869,0.012895246649407903,-0.010195705281207366, ,1.145435094833374
0.010623681971827666,0.020754685827755172,-0.08141795649465336, ,0.010841387969645818,0.0205469276965867,-0.08171028839842925, ,0.0004195441389387428, ,0.0012861492430320117,-0.00016693044346443697,-0.005001453742601802,-0.005928591176229035,-0.000497655080592728,0.002056829632082774, ,0.005166873831214831, ,0.005949441216160972, ,3.8104441441349424e-05, ,0.20146293248989477,-0.18998695143879715,0.09504009393000001,2.266748289067708,1.0018188162802093,-0.8856078903603746, ,0.004006012072419093,0.01319846196918926,0.005007485545425967,-0.007783243473146382,0.008109611187864971,-0.006293340452660773, ,1.1599400043487549
0.01063794969816044,0.02075498119866173,-0.08147338017395515, ,0.010861435858855089,0.020545830325251986,-0.08178283410061553, ,0.00043526070876615805, ,0.0011375271790910373,7.213664871051455e-05,-0.005355236160434917,0.03963840942346256,0.02551837177189603,-0.01375415529466121, ,0.00547519187912969, ,0.04714224003063793, ,3.84607408465856e-05, ,0.20151699162001435,-0.1898479422470611,0.09509842698000001,2.266748289067708,1.0022287257795057,-0.8858604653313232, ,0.0032743213706596013,0.012671510423083293,0.005690893719185424,-0.007783243473146382,0.049856491067191804,-0.040634996433792384, ,1.175105094909668
0.010667303615642405,0.020754605060149388,-0.08158678357983688, ,0.010881553044222865,0.02054470934955424,-0.08185537682060592, ,0.0004026181267157649, ,0.0013529056177682753,2.4261286056792e-06,-0.005266880083782586,0.006193154060334706,0.005679660960507802,-0.005089556632017658, ,0.005437865878599308, ,0.008403195927053282, ,3.873864280656406e-05, ,0.20160966441450506,-0.18959309206221173,0.0952125005,2.2665385991242237,1.0023653622792712,-0.8858902044948791, ,0.004370870276851703,0.012395107309100152,0.005384993752535498,-0.004225383067840981,0.017856168698773812,-0.014517568005396582, ,1.1900899410247803
0.010679750039176646,0.020753309212225325,-0.08163382384449754, ,0.010901739254113908,0.02054356492055139,-0.08192791609138018, ,0.00042398364250846734, ,0.0013946048845668824,-3.3972641216935295e-05,-0.005180442396611671,0.00046209256042917593,0.00011504164316570968,0.006697341692209361, ,0.0053649846550592045, ,0.0004761936402231498, ,3.9052427494166766e-05, ,0.2016560008117504,-0.18948497380197257,0.09525916694000001,2.2663289091807393,1.0023653622792712,-0.8858902044948791, ,0.005521853338349458,0.011735710004673888,0.0052692065894806486,-0.014776785339174071,0.013855383068172484,-0.011255195587590316, ,1.2064049243927002
0.010708969468600298,0.020753773028919474,-0.08173493077830865, ,0.010921994217378177,0.02054239718906,-0.08200045144699371, ,0.0004007000309048354, ,0.0012830025358813594,-0.00014255887429114533,-0.004414446864932716,-0.01150794070951671,-0.008239883108144328,0.007942468834085182, ,0.004599321652486533, ,0.014153740542104744, ,3.9310186681303745e-05, ,0.20176411907198954,-0.18925329181574582,0.09536157385,2.2663289091807393,1.0025019987790367,-0.8859199436584351, ,0.00529818485943655,0.010870576109943714,0.004389311523835768,-0.01288369902886818,0.0,-0.002874693621023043, ,1.2221980094909668
0.010733198734872072,0.02075478017018499,-0.08181800330520897, ,0.010942317663351332,0.020541206305656836,-0.08207298242257731, ,0.00039288531679326257, ,0.0011750489872965363,7.186062115282859e-05,-0.004271402310561841,0.039839992074189964,0.020477330869829738,-0.010010050606621442, ,0.004430663806935945, ,0.04479448678802064, ,3.9545144785144345e-05, ,0.20188768279797714,-0.18904477802814176,0.09545101786000001,2.2663289091807393,1.003321817777629,-0.886670129820754, ,0.006405093686090186,0.009901574905592415,0.0046358589988358566,-0.010805418143078987,0.04777224457638082,-0.03953207479956736, ,1.238455057144165
0.010745503540911975,0.020753337957188683,-0.08186106039663142, ,0.010962709321853429,0.020539992420677656,-0.08214550855433465, ,0.00041665984165062923, ,0.0013554618302454137,7.570321940305236e-05,-0.00464700561537043,0.01822611550359483,0.010115473733526354,-0.011536630197751052, ,0.004841246630772341, ,0.020845001631974176, ,3.982042791143297e-05, ,0.2019417419280967,-0.18894438250077686,0.09549379543000001,2.266119219237255,1.003321817777629,-0.8865884510806135, ,0.006072153346879335,0.010803494814530013,0.00485338559414991,-0.0006927101823640774,0.0273709083194466,-0.02227714004916672, ,1.2542500495910645
0.010775722824768713,0.020755381856019064,-0.08196934850088308, ,0.010983168923189263,0.02053875568421813,-0.08221802937954342, ,0.00038961899526372625, ,0.0013630088095044842,0.00011572546221332936,-0.0050267010289667315,0.0012903984088498061,0.0010258738039982424,0.006787570822895876, ,0.005209501764277129, ,0.0016484968625858124, ,4.0035721115090626e-05, ,0.20204986018833584,-0.1887358687131728,0.09560268379,2.2659095292937703,1.003321817777629,-0.8864250936003323, ,0.005323685365626465,0.009715336367006859,0.005153287453898416,-0.012483897511603923,0.013615021977356874,-0.008773299543993921, ,1.2694199085235596
0.010789526970973289,0.020757200886462268,-0.08201706548948795, ,0.011003696198147821,0.020537496246133966,-0.0822905444365531, ,0.00041101012315780206, ,0.0013481716144992091,-1.6605836612557275e-06,-0.004811548427833063,-0.005470595151535085,-0.009506054822885652,0.0006551348471751119, ,0.004996855784697245, ,0.010967793170408862, ,4.028621934373463e-05, ,0.20210391931845542,-0.1886431959186821,0.09565194281000002,2.2659095292937703,1.0034584542773946,-0.8864548327638883, ,0.005044601157522775,0.010091242610916977,0.004816695349259147,-0.012483897511603923,0.0,-0.011784405005291395, ,1.2848079204559326
0.010811855635656759,0.02075536883509452,-0.08209372993622027, ,0.011024290878001983,0.02053621425604118,-0.0823630532647849, ,0.0004070534572012, ,0.0010888793927513862,9.947403411513889e-06,-0.003812505956145363,0.02532492513543732,0.010075847819430632,-0.012289002126745118, ,0.003964966449850128, ,0.02725572493239455, ,4.052260860988786e-05, ,0.2022197603115688,-0.18844240486395225,0.09573231279000001,2.2656998393502854,1.0040050002764564,-0.8869821831188144, ,0.00535254910964244,0.009170232490043203,0.004034653373860182,-0.006297660244650608,0.029353585200109857,-0.030830921574253677, ,1.301069974899292
0.010824652371617994,0.02075619060023917,-0.08213645605958653, ,0.011044952694507951,0.020534909863315545,-0.08243555540473052, ,0.0004323861874117268, ,0.0012678846650112261,8.780728254370726e-05,-0.004360708128177346,0.02770487188609011,0.01136837382399157,-0.013006600773674281, ,0.0045421379351347655, ,0.02994661663777483, ,4.0800086085900014e-05, ,0.20227381944168835,-0.18834973206946157,0.09577638665,2.2656998393502854,1.004141636776222,-0.8870936010225109, ,0.0062634131588513746,0.009650222041115635,0.004629122789886661,-0.00599426468204062,0.032554745308408115,-0.032332878802584245, ,1.316540002822876
0.010852092373685888,0.02075608247700179,-0.08223086177595677, ,0.011065681379905148,0.020533583217093358,-0.08250805039795138, ,0.0004146802580311726, ,0.00138523835914414,-2.1831605049500344e-05,-0.004913917785742525,-0.0014495436897801121,-0.001012519470768367,-0.003788642993791775, ,0.00510548234113684, ,0.0017681543264570357, ,4.111351734330919e-05, ,0.2023819377019275,-0.18814894101473173,0.09587101582000002,2.2654901494068014,1.004141636776222,-0.8870119222823704, ,0.005066672333586491,0.011427461814816993,0.004977753600000001,-0.0036826921046573258,0.008487001854866998,-0.009245696490014794, ,1.330625057220459
0.010866235120040733,0.020756254573145137,-0.08228264683284885, ,0.011086476666915715,0.02053223446627141,-0.08258053778707786, ,0.00043293229016218163, ,0.0013447612438445794,8.00714854720685e-05,-0.00529400212796193,-0.004308100361071038,-0.002772147692813821,0.006389857499502041, ,0.005462714780820757, ,0.005122941283431621, ,4.1453391770503216e-05, ,0.20243599683204708,-0.1880485454873668,0.09592286742000002,2.2652804594633165,1.004141636776222,-0.8870119222823704, ,0.004134287350973414,0.01028690867310726,0.005352423225806452,-0.013004421188773431,0.006888353829753229,-0.007517697533461776, ,1.3432390689849854
0.010893822909538674,0.020758057418345837,-0.08238586441376287, ,0.011107338288744174,0.02053086375950694,-0.08265301711580883, ,0.000410580493916027, ,0.0013985606034901063,-2.7748543743343502e-05,-0.005198285913622899,-0.01064371266753137,-0.006222176616392593,0.007350620077458811, ,0.005383207053707367, ,0.012328994176281066, ,4.17455580941368e-05, ,0.20253639235941198,-0.18781686350114007,0.09603045949000001,2.2652804594633165,1.0046881827752836,-0.8874575938971561, ,0.005058806546882751,0.011666700462069189,0.005487017402686876,-0.01093997586207731,0.02378291876678052,-0.02081978612744841, ,1.3582251071929932
0.010908072019931438,0.020759061132313038,-0.08243805443574871, ,0.011128265979077408,0.02052947124521878,-0.08272548792891012, ,0.00042873640957037705, ,0.0012398528929318483,1.2921438838166049e-05,-0.0047703594441455095,0.025612486430985265,0.014049596675871783,-0.006807191030298292, ,0.004928867150374554, ,0.029212850348121436, ,4.206388498878958e-05, ,0.20259045148953156,-0.1877010225080267,0.09608490367000001,2.2652804594633165,1.0049614557748145,-0.8876804297045489, ,0.005256476374437632,0.011134782708279048,0.005023277048249764,-0.010061258877682468,0.03518492793828548,-0.02994493791165952, ,1.3732199668884277
0.010920988140215589,0.020757338312475525,-0.08248375826532883, ,0.01114925947208359,0.020528057071585608,-0.08279794977221384, ,0.00045099222983936786, ,0.0013471955771263656,-6.033389560534345e-05,-0.004651032952521858,0.01399073050984636,0.008179577909978116,-0.01119512713829018, ,0.004842590590524038, ,0.016206357789710364, ,4.241478414056808e-05, ,0.20264451061965114,-0.18759290424778757,0.09613027382000001,2.265070769519832,1.0049614557748145,-0.8876804297045489, ,0.005742135333635263,0.011950867026791226,0.004819610142208775,-0.0009916609579127599,0.023509396869591286,-0.020290618009199596, ,1.3856348991394043
0.010934362328749964,0.020755289134057758,-0.08253484997046724, ,0.011170318502412653,0.020526621386547952,-0.08287040219261857, ,0.00046963767782348936, ,0.001359697687546152,-0.00016774170495150245,-0.00496027910091894,-0.00033129524745674726,0.00012655446171312354,0.0038137694807456675, ,0.0051459968752528016, ,0.00035464005687196914, ,4.2790918708715076e-05, ,0.2027526288798903,-0.18733033133006394,0.09623397702000001,2.2648610795763475,1.0049614557748145,-0.8876804297045489, ,0.005332116958326688,0.012652925541129437,0.005018529149338374,-0.012454409475820879,0.013044063640759761,-0.011532693730973532, ,1.3995399475097656
0.010964368288262343,0.020752273193578266,-0.08264066460023987, ,0.011191442805195413,0.020525164337807482,-0.08294284473808701, ,0.00044096950497649593, ,0.0015356793328953507,-2.4151201458260264e-05,-0.005671511299885204,-0.013816775423847537,-0.007485908390044442,0.008643793662801678, ,0.0058757922630688145, ,0.015714391546258553, ,4.3109645339725814e-05, ,0.20279896527713562,-0.18722221306982478,0.09628323604000001,2.264651389632863,1.00509809227458,-0.8877918476082454, ,0.005009482763334448,0.012109509115484918,0.005632535898161245,-0.012188516286542802,0.0,-0.0008185198943193089, ,1.411742925643921
0.010978518398188353,0.020751434912529426,-0.08269734335684255, ,0.011212632116043201,0.020523686072826737,-0.08301527695764582, ,0.00045580757057499217, ,0.0017260305422191321,-8.429740022228521e-05,-0.005765833110021645,-0.0019230958989572833,0.0014625893801840776,-0.017287717551902556, ,0.0060192290982300535, ,0.002416083433804865, ,4.3447230439959784e-05, ,0.20286074714012942,-0.18707548114521452,0.09634545796,2.2644416996893786,1.0053713652741108,-0.8880146834156382, ,0.006168163350145127,0.014982150546016858,0.00583900715542522,0.010478254715249496,0.009546408343159991,-0.008524858564603478, ,1.4245400428771973
0.010994353940466325,0.020752101077787348,-0.08275641841288024, ,0.011233886171047994,0.020522186738830706,-0.08308769840138554, ,0.00046902315884118977, ,0.0014437818745698652,0.0002950466030886453,-0.005579624293046678,0.04436386883408712,0.025955907768498626,-0.03280896072887393, ,0.005770941504718902, ,0.05139904668967161, ,4.380034870470797e-05, ,0.20292252900312321,-0.18693647195347848,0.09640767988000001,2.2644416996893786,1.0057812747734072,-0.8882672583865868, ,0.005040760725305494,0.011522669544433976,0.005997293493975904,0.010478254715249496,0.0484698859249017,-0.04220282911479539, ,1.4376800060272217
0.011027284980550311,0.020753792348603434,-0.08287169243966022, ,0.011255204706781591,0.020520666482805403,-0.08316010862045824, ,0.00043529181505690714, ,0.0016960270476690503,-9.748931457529753e-05,-0.006178430750005155,-0.017055162785420047,-0.010443007100410129,0.011992337030903416, ,0.006407731146473814, ,0.01999837408224272, ,4.408976099133324e-05, ,0.20303064726336237,-0.18667389903575485,0.09652564227,2.264651389632863,1.0060545477729381,-0.8884900941939797, ,0.005888899126171671,0.013662099274182375,0.00615012027799228,-0.016680794772594702,-0.001673078975091389,-0.0010824212088212074, ,1.4504740238189697
0.011046362427431788,0.02075229819814314,-0.0829349690208011, ,0.011276587460295218,0.02051912545149857,-0.08323250716707788, ,0.0004426082286001511, ,0.0016603028021654218,-0.00022665097177710584,-0.005233245434553212,-0.012560055079422535,-0.00908954541868932,0.005289561331791474, ,0.0054949826056283286, ,0.01550402578659493, ,4.438555777314744e-05, ,0.2031078745921046,-0.1865348898440188,0.09658786419000001,2.2644416996893786,1.0059179112731726,-0.8883786762902832, ,0.007538544008087151,0.013599447056244019,0.005224274030829781,-0.010831259599024168,0.0014399714901675439,-0.0035079866614146906, ,1.464081048965454
0.011060293915542273,0.02074941669906042,-0.08298214484506423, ,0.011298034169119736,0.020517563791420505,-0.08330489359451933, ,0.00046307985728920027, ,0.0015089163111999928,-0.0002219201093762997,-0.00509445535089179,-0.012367615781047865,-0.008669620630438893,0.01063616309209226, ,0.0053178522254177935, ,0.015103649842068571, ,4.4709186902506514e-05, ,0.2031696564550984,-0.1864113261180312,0.09663453063,2.2642320097458937,1.0059179112731726,-0.8883786762902832, ,0.0064396336365825126,0.012823911021414969,0.0050761030975143406,-0.01636551793440965,0.001981302050264669,-0.0038631626779563047, ,1.4771699905395508
0.011089561372349468,0.0207455101606296,-0.08308949367163328, ,0.011319544571264821,0.020515981648843485,-0.08337726745711692, ,0.0004340384327656631, ,0.0013538424739624494,-4.759094577370048e-05,-0.004314850584734269,0.038125855373053234,0.023264965098303957,-0.040290894253479564, ,0.004522509249410781, ,0.04466362555208239, ,4.497919229558571e-05, ,0.20330866564683445,-0.18613330773455913,0.09674601157000001,2.263812629858925,1.0066010937719998,-0.8889357658087654, ,0.006126940282155258,0.013107312369954528,0.004639910142732305,0.02069321803182733,0.04253886828435223,-0.03679303952951482, ,1.492445945739746
0.011104217947038374,0.020743568814546712,-0.08313498688304173, ,0.011341118405218646,0.020514379169801675,-0.08344962831026437, ,0.0004556851413740372, ,0.0015214009846497888,-3.807810899477445e-05,-0.004630952569419074,0.028579396448044934,0.0172408980562178,-0.03703229652459681, ,0.0048746110202442915, ,0.03337709491536906, ,4.527888582397365e-05, ,0.20337044750982824,-0.18600974400857154,0.09679138172000001,2.263812629858925,1.0066010937719998,-0.8889357658087654, ,0.006934793125004255,0.013403522818993048,0.004907212421441775,0.02069321803182733,0.03396290865719515,-0.029696511708822423, ,1.5055780410766602
0.01113978853825889,0.020741874543983355,-0.08324470957602893, ,0.01136275540994759,0.020512756500092114,-0.0835219757104131, ,0.00042318531777878844, ,0.00153509098915224,-0.00017848544429570042,-0.005534961853265544,0.008890210021260395,0.003828524351042081,0.004009755608813482, ,0.0057466654779886545, ,0.009679536545402842, ,4.552091777738411e-05, ,0.20350945670156428,-0.18573172562509946,0.09690156637000001,2.2640223198024096,1.0066010937719998,-0.8889357658087654, ,0.007567703243890144,0.013202134329225205,0.005608736450704225,-0.015302516806714241,0.018461421254783165,-0.016899822214061323, ,1.5196740627288818
0.011156990541775439,0.02074186385138827,-0.08330176374410024, ,0.011384455324895822,0.020511113785273732,-0.08359430921507252, ,0.00043654171983701663, ,0.001715213951592516,-0.00018952351100610487,-0.005908259338046548,-0.015565994272673715,-0.009269314162696453,0.008221442213951888, ,0.006155112222094406, ,0.018116852804619568, ,4.5779487734935864e-05, ,0.2035789612974323,-0.18560043916623764,0.09695989942000001,2.2640223198024096,1.0067377302717653,-0.8890471837124618, ,0.0065505439011973405,0.014311105648992727,0.0058843042186922795,-0.013005834704008437,0.0,-0.0017722046263300081, ,1.5344491004943848
0.011174079513184785,0.02073776347453092,-0.08336521416736686, ,0.01140621788998548,0.020509451170669428,-0.08366662838280818, ,0.00044369501163333896, ,0.0016360070922007701,-0.0002437540276420965,-0.005380268788471333,-0.008883236732363456,-0.006465969903872095,0.0074257914874796, ,0.005628785612183301, ,0.010987295260100087, ,4.6116689576315236e-05, ,0.20365618862617454,-0.18543826177587894,0.09702341763000001,2.2636029399154403,1.0068743667715307,-0.8891586016161582, ,0.007245809046115242,0.013881939958816673,0.005395938861788619,-0.01443935367886747,0.006145602718134298,-0.0067083247769939396, ,1.5466229915618896
0.01118736708481502,0.020737142736159116,-0.08341149246661501, ,0.011428042845615471,0.020507768801363863,-0.08373893277324182, ,0.0004666415950214785, ,0.0014701600593986417,-0.00019784446844530042,-0.004916489603961327,0.022486294150380493,0.010642115641191248,-0.00329490082270871, ,0.005135404858412356, ,0.02487746062332971, ,4.648438139429016e-05, ,0.20371797048916834,-0.18531469804989134,0.09707267665000001,2.2636029399154403,1.007284276270827,-0.8894928553272475, ,0.007702856422621609,0.013331967063567124,0.0051466273085621975,-0.01443935367886747,0.03492580756903455,-0.030119542949313308, ,1.557492971420288
0.011205303267531035,0.02073578774798039,-0.08346877155038218, ,0.011449929932661682,0.020506066822205342,-0.08381122194704924, ,0.000479464475440371, ,0.0015232504156536325,-0.0001748968037260858,-0.005429042794807977,0.024716278676571356,0.013219218917627817,-0.005989656339421893, ,0.0056413993289430395, ,0.028029309226123345, ,4.686620916626685e-05, ,0.20379519781791058,-0.18516796612528108,0.0971310097,2.2636029399154403,1.0074209127705924,-0.8896042732309439, ,0.007109201476598825,0.014358744372593551,0.0056746745707160675,-0.012893808099415137,0.03769099291225034,-0.03231257496649756, ,1.5676569938659668
0.011240431831799536,0.020734023346851402,-0.08358926203903763, ,0.011471878892476382,0.02050434537780492,-0.08388349546596098, ,0.0004391958798535417, ,0.0016172606994739886,-5.6188226885269346e-05,-0.005799762883569775,0.012616399164573484,0.00693756777227022,-0.005320450754384354, ,0.006021290459074133, ,0.014398033473793105, ,4.718041903439907e-05, ,0.2039264842767724,-0.18489767047468322,0.09725156467000001,2.263393249971956,1.0074209127705924,-0.8896042732309439, ,0.006636881758907504,0.013902276817824608,0.006775334547001277,-0.008067911998417127,0.018780091084707712,-0.016789506545914858, ,1.5807719230651855
0.011259007005012717,0.020734458683107183,-0.0836527077650496, ,0.011493889466888,0.020502604612536997,-0.08395575289276087, ,0.0004480652077165785, ,0.0018988015396278468,-4.931691656981396e-05,-0.006614101937090928,-0.014844971566760401,-0.008175300786363495,0.0028715532705109533, ,0.006881440538098328, ,0.016947233140184016, ,4.750334614633907e-05, ,0.20399598887264042,-0.18475866128294716,0.09731637917000001,2.263393249971956,1.007557549270358,-0.8897156911346404, ,0.006591213036196286,0.014543592576010848,0.006625961530782031,-0.007221702144922856,0.0,-0.0014314296790897128, ,1.59266996383667
0.011276672779295678,0.020733560222813766,-0.08371423389613061, ,0.011515961398200941,0.020500844670540093,-0.08402799379128487, ,0.00045810571183389147, ,0.0018063753458145502,-0.00018493824554323293,-0.0058839980188640515,-0.0038547760433359475,-0.002715238175977733,-0.0019179498940484528, ,0.006157810222037321, ,0.0047150619978688565, ,4.783656212987713e-05, ,0.20406549346850844,-0.18460420662546267,0.09737989738000001,2.263393249971956,1.0078308222698886,-0.8899385269420331, ,0.007675882585994683,0.014756171910818034,0.0058691273102431845,-0.006465831782280435,0.010468153976447778,-0.009921318173781965, ,1.6032969951629639
0.011291373834332707,0.02073148763440776,-0.08377407695609682, ,0.011538094429194722,0.020499065695715458,-0.08410021772642033, ,0.00047038155956815556, ,0.0014947527986786543,4.66073881584412e-05,-0.005725347318508132,0.04441589630251722,0.02358449334240083,-0.008938593755288235, ,0.005917436953220277, ,0.050289165477484445, ,4.81831869408498e-05, ,0.20413499806437646,-0.18446519743372664,0.0974421193,2.262973870084987,1.008240731769185,-0.8902727806531224, ,0.0069955188503349145,0.012753251116579864,0.006140636669236701,-0.016268086406514927,0.05537647514899022,-0.046498899175730954, ,1.6151299476623535
0.011307947960211149,0.02073034812455314,-0.08383280456925622, ,0.01156028830312412,0.02049726783172863,-0.0841724242641059, ,0.0004830565274317111, ,0.001690709999381738,-0.00020463386207857602,-0.005966856550150092,0.018214848757015435,0.010076637275944428,-0.004560535731623464, ,0.006205139193409576, ,0.020816323557927067, ,4.854351520383709e-05, ,0.20420450266024448,-0.18433391097486482,0.09750174864000001,2.2627641801415024,1.0083773682689505,-0.8903841985568188, ,0.007466229481920177,0.015610617134145549,0.00617635188832881,-0.012548178665523962,0.03287828097379818,-0.028115870234544732, ,1.6272931098937988
0.01132777177344254,0.02072829513054069,-0.08389636755248503, ,0.011582542763718649,0.02049545122200895,-0.08424461297132985, ,0.0004903054302911688, ,0.0016978831295381335,-7.214402888683748e-05,-0.006044039559337084,0.006621904666896365,0.003106058537689358,0.0004830212768464607, ,0.006278409518126851, ,0.007314178900698309, ,4.8909228430235883e-05, ,0.20428172998898672,-0.18417173358450611,0.09756526685000001,2.2627641801415024,1.0083773682689505,-0.8903025198166782, ,0.0067999572883941425,0.01381323749031598,0.0061931615552099535,-0.012548178665523962,0.020389198039679157,-0.017988904830039475, ,1.6386830806732178
0.011348349196406725,0.020727585630187985,-0.08396351640917812, ,0.011604857555182039,0.020493616009749645,-0.0843167834161295, ,0.0004953139404559986, ,0.0017574315681492141,-0.000220146257384314,-0.0061331486550124,-0.0011129741933478556,-0.0004306643020265914,0.0015562402056046411, ,0.006383771809506362, ,0.0011933878741390471, ,4.927692314915791e-05, ,0.20435895731772896,-0.1840172789270216,0.09763267393000001,2.2627641801415024,1.0083773682689505,-0.8903025198166782, ,0.006960601802072507,0.015523792173805133,0.006210062970760234,-0.011720787555145681,0.014600803466711554,-0.013233962148565273, ,1.6489779949188232
0.011367738529407534,0.02072703439356869,-0.08402809960419116, ,0.011627232422192428,0.020491762337908764,-0.08438893516759047, ,0.0005028840068850849, ,0.0019240324474281264,1.3226239603222976e-05,-0.0066874333832687835,-0.002699046848842033,-0.002427263535770878,0.001786686367980923, ,0.00695872409625702, ,0.0036299378492224373, ,4.965028470831264e-05, ,0.204428461913597,-0.18387054700241134,0.09769748843,2.2627641801415024,1.0083773682689505,-0.8903025198166782, ,0.007338287804510328,0.014050479946471836,0.006801371272416739,-0.010426464328306281,0.011551263820354879,-0.010716397950428164, ,1.659006118774414
0.01138873011164389,0.020727735092363177,-0.08410216949419606, ,0.011649667109901268,0.020489890349208093,-0.08446106779584608, ,0.0005034542976610168, ,0.002118753581306581,-8.406463824690304e-05,-0.007322132406457537,-0.008913954055723664,-0.005655441225040879,0.0009712398540414468, ,0.007622978852089168, ,0.010556636363470906, ,5.0019074988832076e-05, ,0.20450568924233925,-0.18372381507780108,0.09776748809000001,2.2627641801415024,1.0086506412684815,-0.8904436768839306, ,0.007792134628574104,0.016308118501197934,0.007313503911845732,-0.009396231616010987,0.007040237782990604,-0.00828155660134897, ,1.6695010662078857
0.011407245796039404,0.020727858314917517,-0.0841736271337694, ,0.011672161363933333,0.02048800018613393,-0.08453318087207606, ,0.0005069428673789818, ,0.00180361051571075,0.00013984197525543926,-0.006564581942654091,0.0563927258148577,0.03058967966630632,-0.0261868843773584, ,0.00680928063397639, ,0.06415503109442051, ,5.038757928213885e-05, ,0.20467558936557217,-0.18339173756420943,0.09792045031,2.2623448002545334,1.0094704602670739,-0.8911938630462496, ,0.008673531747476312,0.01522492243838774,0.007175140324324325,-0.015878881943216783,0.034062582670071694,-0.02902995001089604, ,1.682279109954834
0.011449927865761197,0.02072690067044248,-0.08431592322228866, ,0.011694714930386598,0.020486091990937382,-0.08460527396850574, ,0.0004490360580947708, ,0.002051316263888579,-0.0001068443919309233,-0.006994077422610702,0.003841114866421995,0.0011847575734270498,0.0019782254762525774, ,0.007289474132751528, ,0.004019676254230077, ,5.066834589422443e-05, ,0.20476053942718864,-0.18323728290672495,0.09799433884000001,2.2623448002545334,1.0094704602670739,-0.8911121843061091, ,0.0086233742931267,0.016038016149817605,0.007152587121688371,-0.014100441866342944,0.020473436947189824,-0.017425049777444846, ,1.6943790912628174
0.011467522396654013,0.020725250254818556,-0.08437161029573816, ,0.011717327555831557,0.020484165905634635,-0.08467734665840579, ,0.0004626002641918694, ,0.0018559374567069518,-0.00027718526249254744,-0.006173192973687947,-0.0014631839664414298,-0.001107915521890389,0.0027986459094714415, ,0.0064521040756749404, ,0.00183531336787976, ,5.0964326848567785e-05, ,0.20483004402305668,-0.1830982737149889,0.09805007931000001,2.2623448002545334,1.0094704602670739,-0.8910305055659685, ,0.008032216753549992,0.016084227382791656,0.006256406724273371,-0.012905005668211672,0.015377221950860203,-0.013205166228483549, ,1.705794095993042
0.011489612702518207,0.020721710816780054,-0.08444355203945468, ,0.011739998987310946,0.020482222072006468,-0.08474939851609098, ,0.0004621582172334239, ,0.0020654877129925586,-0.00021789360402641724,-0.006317316904183491,-0.014649825983933667,-0.009019787924005738,-0.004750236660397285, ,0.00664997819418089, ,0.01720389390492932, ,5.1327619267469544e-05, ,0.2049304395504216,-0.1829129281260075,0.09812267155000001,2.262135110311049,1.0096070967668394,-0.8910602447295244, ,0.008667795286325244,0.016095139341667362,0.006325977569499604,-4.366999208108987e-05,0.0,-0.0019150805758561015, ,1.7156240940093994
0.011512420881449471,0.020719132512271542,-0.08451381256581124, ,0.011762728972339504,0.020480260631598798,-0.08482142911691905, ,0.00046297068833416445, ,0.0021692949252119014,-0.00020131844039918806,-0.006643731030996954,-0.012441569086525122,-0.007959739143310779,-0.0056889736048580785, ,0.006991818904922146, ,0.01476990438765866, ,5.168798319930771e-05, ,0.20501538961203805,-0.1827507507356488,0.09818748605000001,2.262135110311049,1.0097437332666048,-0.8911716626332209, ,0.009121016146206596,0.01673372272235422,0.006675947829002515,-0.00017421528025780372,0.0026282136998277777,-0.004031012971584577, ,1.725532054901123
0.011529803391168974,0.020717626377301915,-0.08457443932135632, ,0.011785517258903526,0.02047828172572286,-0.08489343803729028, ,0.0004737463721853515, ,0.0021692949252119014,-0.00020131844039918806,-0.006643731030996954,-0.012441569086525122,-0.007959739143310779,-0.0056889736048580785, ,0.006991818904922146, ,0.01476990438765866, ,5.205932456146086e-05, ,0.20511578513940298,-0.18258085061241586,0.09825748571000001,2.261925420367564,1.0101536427659012,-0.8915059163443101, ,0.01003838738651084,0.01615542076242267,0.00703880314626602,-0.004439046894426585,0.03558350887961025,-0.030877463141094456, ,1.7336819171905518
0.011550420656244603,0.02071577242662645,-0.08464409218943288, ,0.011808363595460556,0.020476285495455503,-0.08496542485464706, ,0.0004765954593013797, ,0.001932255887657977,-0.0001608343809149876,-0.006818458773973499,0.03580788038444051,0.019513597693609608,-0.007870466568179468, ,0.007088784138753939, ,0.040779710369700996, ,5.243049767495399e-05, ,0.2052161806667679,-0.18241095048918293,0.09833007795000001,2.2617157304240796,1.0105635522651977,-0.8919218487955399, ,0.009096221066995019,0.017055525082399492,0.007184849580514209,-0.016292329067642775,0.051771414417864786,-0.042774692289676286, ,1.7439138889312744
0.011550420656244603,0.02071577242662645,-0.08464409218943288, ,0.01183126773093882,0.020474272081638607,-0.0850373891474723, ,0.0005402591907562635, ,0.001932255887657977,-0.0001608343809149876,-0.006818458773973499,0.03580788038444051,0.019513597693609608,-0.007870466568179468, ,0.007088784138753939, ,0.040779710369700996, ,5.288515682221184e-05, ,0.2053088534612586,-0.18224105036594998,0.09840526277000002,2.2617157304240796,1.0105635522651977,-0.8919218487955399, ,0.008876497684278077,0.01703409469726634,0.007758797622990745,-0.015349933771588078,0.02740683416025424,-0.02290701080335062, ,1.7527000904083252
0.01157405643510143,0.02071491926324437,-0.08471885268062392, ,0.011854229414737374,0.020472241624880188,-0.08510933049528868, ,0.0005383885756825371, ,0.002163636947315249,-9.172725929674553e-05,-0.007546740042273877,0.009924833930176203,0.005001646042285936,0.00046725783238437616, ,0.007851307152031797, ,0.011113899729379716, ,5.3332281238619074e-05, ,0.20540152625574928,-0.18207887297559128,0.09848304017000001,2.2617157304240796,1.0105635522651977,-0.8918401700553994, ,0.009620738320578762,0.01670720802085753,0.00824472645962733,-0.013796716549984748,0.01859924162770335,-0.014332554101041095, ,1.7621710300445557
0.011598194034324149,0.02071516917687144,-0.08479595115319538, ,0.01187724839672517,0.02047019426555382,-0.0851812484786582, ,0.0005351056656015856, ,0.002378160385314843,1.628678162281954e-05,-0.008059498905660944,0.0003110453220790586,-0.0005968246343902317,0.003481130184775387, ,0.008403061030831945, ,0.0006729894737690854, ,5.377007245038385e-05, ,0.20540152625574928,-0.18207887297559128,0.09848304017000001,2.2617157304240796,1.0105635522651977,-0.8918401700553994, ,0.009620738320578762,0.01670720802085753,0.00824472645962733,-0.013796716549984748,0.01859924162770335,-0.014332554101041095, ,1.7715740203857422
0.011625701477424928,0.020715758735726394,-0.08488590898616878, ,0.011900324427241336,0.02046813014379946,-0.08525314267918173, ,0.0005211509084607923, ,0.002517355894516534,3.743479721673385e-05,-0.008561550155236639,-0.005344643899966495,-0.0034125353645378187,0.0038518928899927245, ,0.008924047463137581, ,0.006341180491929406, ,5.4184241081857814e-05, ,0.20550192178311422,-0.18189352738660988,0.09857378047000001,2.2617157304240796,1.0105635522651977,-0.8918401700553994, ,0.00970379457551872,0.01742827209521961,0.0087185613136289,-0.012413565643148074,0.013718973491966121,-0.010353022672076493, ,1.780148983001709
0.011650647565607027,0.02071555912921907,-0.08496598723848522, ,0.011923457257094094,0.020466049399522762,-0.08532501267949671, ,0.0005153440600956697, ,0.0025895200052871445,-8.735905481047817e-05,-0.008142036673104713,-0.019956205880404188,-0.012764694075093024,0.008051048087860294, ,0.00854435525059801, ,0.023689397041498108, ,5.458613488504521e-05, ,0.20560231731047912,-0.1817159045305027,0.09865544674000001,2.2617157304240796,1.010700188764963,-0.8919515879590958, ,0.01085490401383393,0.017550756715086144,0.008193833086419754,-0.011397555492003109,0.0,0.0008338803147947629, ,1.7893929481506348
0.011673548407539189,0.020713326060710968,-0.08504477524075107, ,0.011946646637561056,0.020463952172395904,-0.08539685806327785, ,0.000510619519145978, ,0.0024181996571148914,-0.00015230188991364958,-0.007433468305733164,-0.008635879332059598,-0.00734060497680685,0.007910869871624935, ,0.007818397310170502, ,0.01133414622135209, ,5.4977399917984707e-05, ,0.2057181583035925,-0.18153828167439556,0.09873711301000002,2.2612963505371106,1.0111100982642593,-0.8922858416701851, ,0.011253279884214862,0.01685259129079573,0.00754919977251185,-0.015311178192607841,0.010668890599766294,-0.007865884590139347, ,1.7979979515075684
0.011692947730928658,0.020712392880836063,-0.08511062263571678, ,0.011969892320388364,0.020461838601857175,-0.08546867841523588, ,0.0005173777088285355, ,0.0021851290273365237,-0.00016960591970347112,-0.007428085107037824,0.041934097031948094,0.023073565475299204,-0.010719944166684352, ,0.007744675809322444, ,0.04786290729796294, ,5.537349593550348e-05, ,0.2058185538309574,-0.18138382701691105,0.09880711267000002,2.261086660593626,1.011656644263321,-0.8927315132849708, ,0.010727584041328854,0.018603595678978783,0.007866079762962965,-0.015624276916331076,0.05957289067076278,-0.047743817497040666, ,1.808593988418579
0.011719912144453774,0.020709927665364194,-0.08519363668772546, ,0.011993194057790903,0.02045970882711216,-0.085540473321116, ,0.000507531399457296, ,0.002392520030696227,-0.0002001815240195398,-0.0076773310265700195,0.007228108787124828,0.00286198754698659,0.0011106033352676148, ,0.008043981379352897, ,0.007774091759548405, ,5.5752353439762135e-05, ,0.20593439482407078,-0.181175313229307,0.09889137152000001,2.261086660593626,1.0117932807630865,-0.8928429311886672, ,0.01102017894640324,0.018394444961905558,0.007889455928677564,-0.014959996058453747,0.026837284688781347,-0.021050125833351502, ,1.8182570934295654
0.011748182272760239,0.02070919369820999,-0.08527707279916966, ,0.012016551602451372,0.020457562987132385,-0.08561224236769802, ,0.0004976733381885915, ,0.002474382705777187,-0.00010016270676539165,-0.00782345634784071,-0.002728136454500385,-0.00331094489456632,0.0036209909977300433, ,0.008206038725782672, ,0.004290111338968625, ,5.611422949302899e-05, ,0.20605795855005837,-0.1809899676403256,0.09897563037000001,2.261086660593626,1.0117932807630865,-0.8928429311886672, ,0.011018916500788565,0.017323282504284554,0.007988370872617855,-0.0131526447372281,0.016217793379412104,-0.012390642737374584, ,1.8281400203704834
0.011772694580241203,0.0207094873703664,-0.08535540733474033, ,0.012039964707520346,0.02045540122065676,-0.08568398514279502, ,0.0004939194958250829, ,0.002625098325086701,-5.39745341889262e-05,-0.008732406573951055,-0.008090486621943248,-0.004865924552338075,0.003723022020590029, ,0.009118606200483576, ,0.009441035152544098, ,5.646739145613904e-05, ,0.20615063134454906,-0.1808277902499669,0.09905470406000001,2.261086660593626,1.0117932807630865,-0.8928429311886672, ,0.010305273111677732,0.018603595678978783,0.008869048730512249,-0.011927650576953861,0.012149388035376258,-0.009073130977354777, ,1.8367938995361328
0.01179724594991681,0.02070632667439793,-0.08543487804721346, ,0.012063433126615822,0.02045322366619128,-0.08575570123525265, ,0.0004876927965285925, ,0.002497573933167757,-0.0002907907428692654,-0.00754811301315997,-0.019523519486246387,-0.010770641270863223,-0.0013075768825287293, ,0.00795590628823721, ,0.022297410208676798, ,5.6808751600472854e-05, ,0.2062587496047882,-0.18063472192811128,0.09913507404,2.2608769706501417,1.011929917262852,-0.8929543490923635, ,0.010560269108178224,0.019036497805109485,0.007563538233618236,-0.0020051661639189904,0.0,0.0008338803147947629, ,1.8465089797973633
0.01182317691922212,0.02070302285425007,-0.08551181354276778, ,0.012086956613822423,0.020451030462008333,-0.08582739023494816, ,0.0004823572759673622, ,0.0023967948959063867,-0.0003055481338159997,-0.006863058599710681,-0.009061776972244072,-0.006180905885136225,-0.004484568304389297, ,0.007275957584963239, ,0.010969019292056586, ,5.713964948577178e-05, ,0.2062587496047882,-0.18063472192811128,0.09913507404,2.2608769706501417,1.011929917262852,-0.8929543490923635, ,0.010560269108178224,0.019036497805109485,0.006862908884101682,-0.0020051661639189904,0.008881625687121182,-0.006408489895025434, ,1.8547840118408203
0.01182317691922212,0.02070302285425007,-0.08551181354276778, ,0.012110534923691884,0.020448821746148444,-0.08589905173278965, ,0.0005451112197564414, ,0.0023967948959063867,-0.0003055481338159997,-0.006863058599710681,-0.009061776972244072,-0.006180905885136225,-0.004484568304389297, ,0.007275957584963239, ,0.010969019292056586, ,5.7622456037837835e-05, ,0.20637459059790159,-0.18044165360625566,0.09920896257,2.2608769706501417,1.012203190262383,-0.8931771848997564, ,0.011228665749141924,0.018054973660287438,0.006862908884101682,-0.0020051661639189904,0.008881625687121182,-0.006408489895025434, ,1.8606700897216797
0.011842320111199667,0.020700342293380185,-0.08557272027910642, ,0.012134167811242044,0.020446597656419215,-0.0859706853207156, ,0.0005549212513046075, ,0.0022147893505267283,-0.0002618732875863918,-0.007002764428607761,0.04494160689212586,0.023829684430701412,-0.013533661609326997, ,0.007349325079796926, ,0.05086847622322665, ,5.811415987720861e-05, ,0.20649043159101493,-0.18026403075014852,0.09927896223,2.2606672807066572,1.0127497362614446,-0.8936228565145421, ,0.011966692059826414,0.018798918692248572,0.007460801648711945,-0.013838084969967326,0.062250434612817936,-0.0499271750449211, ,1.8689849376678467
0.011868862672134555,0.020697809677417058,-0.0856574127281652, ,0.012157855031957,0.02044435833039634,-0.08604229059169358, ,0.0005439532509108945, ,0.0028058310982743257,-1.938488698124334e-05,-0.008782477944085598,0.004936034570534566,0.0006342134926797077,-0.002788284332613707, ,0.009219814681664518, ,0.004976606452787315, ,5.858801984038717e-05, ,0.20661399531700253,-0.18006323969541868,0.09936581366000001,2.2604575907631723,1.0130230092609755,-0.8937640135817945, ,0.012550845332425706,0.018776601020670913,0.009040188149829742,-0.009896700937014532,0.024147361967339197,-0.018786613150207875, ,1.8765599727630615
0.011868862672134555,0.020697809677417058,-0.0856574127281652, ,0.01218159634178618,0.02044210390542288,-0.08611386713971947, ,0.0006095395145454207, ,0.0028058310982743257,-1.938488698124334e-05,-0.008782477944085598,0.004936034570534566,0.0006342134926797077,-0.002788284332613707, ,0.009219814681664518, ,0.004976606452787315, ,5.914201148154203e-05, ,0.20661399531700253,-0.18006323969541868,0.09936581366000001,2.2604575907631723,1.0130230092609755,-0.8937640135817945, ,0.012550845332425706,0.018776601020670913,0.009040188149829742,-0.009896700937014532,0.024147361967339197,-0.018786613150207875, ,1.8830809593200684
0.011919378226003833,0.020699800006382992,-0.08581883101670834, ,0.012205391497144138,0.020439834518609454,-0.08618541455981657, ,0.0005326998593762658, ,0.0032451760376618313,0.0002565944088757882,-0.010589119295157337,-0.007811094793008758,-0.0058071829852894725,-0.0033674224109027824, ,0.011078197310625692, ,0.009733264763319123, ,5.9594013803338015e-05, ,0.20681478637173237,-0.1797620531133239,0.09952914620000002,2.260247900819688,1.0130230092609755,-0.8937640135817945, ,0.012347771791927607,0.019331216451104253,0.010821203478260872,-0.004511803957783143,0.011726110232264674,-0.008657915240181465, ,1.892467975616455
0.011919378226003833,0.020699800006382992,-0.08581883101670834, ,0.012229240254910888,0.02043755030683563,-0.08625693244803538, ,0.0005972622924661158, ,0.0032451760376618313,0.0002565944088757882,-0.010589119295157337,-0.007811094793008758,-0.0058071829852894725,-0.0033674224109027824, ,0.011078197310625692, ,0.009733264763319123, ,6.0124407023941436e-05, ,0.20696151829634263,-0.17952264839422294,0.09966007149000002,2.260247900819688,1.0130230092609755,-0.8937640135817945, ,0.012879606617599182,0.02054046354079454,0.010821203478260872,-0.004511803957783143,0.008524089158826685,-0.006082228243046951, ,1.9021151065826416
0.01195945984102569,0.020702484332166426,-0.08594800053097441, ,0.012253142372430652,0.020435251406748758,-0.08632842040145215, ,0.0005498928473202855, ,0.0033163110631337436,0.00014155633581222626,-0.01063002000493491,-0.012399586359767891,-0.008307307641316396,-0.002429219198212271, ,0.01113621491212289, ,0.014925178940720136, ,6.059097220859859e-05, ,0.20696151829634263,-0.17952264839422294,0.09966007149000002,2.260247900819688,1.0130230092609755,-0.8937640135817945, ,0.012879606617599182,0.02054046354079454,0.010821203478260872,-0.004511803957783143,0.008524089158826685,-0.006082228243046951, ,1.9098949432373047
0.011988590354772961,0.02070535221284091,-0.08604203210712812, ,0.012277097607511646,0.020432937954763974,-0.08639987801816762, ,0.0005343216811379857, ,0.0027138521249616713,-2.8516891132590377e-05,-0.008319839844734785,-0.0052319845792890675,-0.00594709975796334,-0.0049974807534595485, ,0.008751316564453339, ,0.00792096069335285, ,6.1034429774022724e-05, ,0.20708508202233022,-0.1793450255381158,0.09975858953000001,2.260247900819688,1.0134329187602718,-0.8940165885527431, ,0.011639410054339116,0.017701350785015998,0.00848631407565264,-0.004511803957783143,0.011146021347484372,-0.01093618570188859, ,1.9171929359436035
0.012013946781338457,0.020700923723249262,-0.08611719784249273, ,0.012301105718426485,0.020430610087065877,-0.08647130489730812, ,0.0005300203046358058, ,0.0024201143739234314,-0.0004518590347553069,-0.007168610852405846,0.05246012821692292,0.027611907190527557,-0.027870080743385334, ,0.007579585194678643, ,0.05928307053707015, ,6.146916287591964e-05, ,0.20721636848119204,-0.17912106628476326,0.09983766322000001,2.260247900819688,1.0139794647593336,-0.8944622601675288, ,0.013504616701077384,0.021931347713998333,0.007658082461538462,-0.004511803957783143,0.06894456467429604,-0.058067022229720676, ,1.9251079559326172
0.012013946781338457,0.020700923723249262,-0.08611719784249273, ,0.012325166463910915,0.020428267939607083,-0.08654270063902206, ,0.000593507790200185, ,0.0024201143739234314,-0.0004518590347553069,-0.007168610852405846,0.05246012821692292,0.027611907190527557,-0.027870080743385334, ,0.007579585194678643, ,0.05928307053707015, ,6.197989983169045e-05, ,0.20721636848119204,-0.17912106628476326,0.09983766322000001,2.260247900819688,1.0139794647593336,-0.8944622601675288, ,0.013504616701077384,0.021931347713998333,0.007658082461538462,-0.004511803957783143,0.06894456467429604,-0.058067022229720676, ,1.9311680793762207
0.012041328771551764,0.020696390146698204,-0.08620117099218781, ,0.012349279603164022,0.020425911648109273,-0.08661406484448117, ,0.0005817848968057296, ,0.0027110278305796927,-0.00039988938991694406,-0.008009586351063715,-0.0038848326535681973,-0.0035840747106868688,-0.0021382030581689505, ,0.008465403530694325, ,0.005285592049450594, ,6.24722446044649e-05, ,0.20735537767292808,-0.17889710703141076,0.09992451465,2.260038210876204,1.0143893742586299,-0.8948781926187587, ,0.012811791758940297,0.02103212357235611,0.008147729677749363,-0.008869851309125053,0.01750795840644369,-0.013877161580125263, ,1.9372920989990234
0.01206813936314717,0.020689889558046796,-0.08628239031429574, ,0.012373444895847808,0.020423541348063328,-0.0866853971158789, ,0.000571460689270316, ,0.0031168427833044286,-0.00043903289817394126,-0.008648979091811325,-0.03765681918636063,-0.02522002510677827,0.014581144573616707, ,0.009203928408679925, ,0.04532202168067019, ,6.29481355034202e-05, ,0.20749438686466412,-0.17868087051093248,0.10000618092,2.2596188309892344,1.0145260107583953,-0.8949079317823145, ,0.01486480914136447,0.021402106801639776,0.008591591974110033,-0.014481938360231417,-0.012753835415547499,0.01063788342787112, ,1.9454469680786133
0.01206813936314717,0.020689889558046796,-0.08628239031429574, ,0.01239766210208651,0.020421157174728644,-0.0867566970564295, ,0.0006370001687248369, ,0.0031168427833044286,-0.00043903289817394126,-0.008648979091811325,-0.03765681918636063,-0.02522002510677827,0.014581144573616707, ,0.009203928408679925, ,0.04532202168067019, ,6.350141422220363e-05, ,0.20749438686466412,-0.17868087051093248,0.10000618092,2.2596188309892344,1.0145260107583953,-0.8949079317823145, ,0.01486480914136447,0.021402106801639776,0.008591591974110033,-0.014481938360231417,-0.012753835415547499,0.01063788342787112, ,1.9518089294433594
0.012099424721803649,0.02068732238287277,-0.08637481874029806, ,0.012421930982466616,0.0204187592631343,-0.0868279642703677, ,0.0006176384936777774, ,0.0034088900435380234,-9.127208391439311e-05,-0.010687070252860304,-0.023920418477737536,-0.016113302388595274,0.01080446922855904, ,0.01121794689378615, ,0.028841372966739845, ,6.402679460475119e-05, ,0.20763339605640016,-0.17848007945620264,0.10009821751,2.25940914104575,1.0143893742586299,-0.8947148351384775, ,0.01396159210805808,0.02199233871575221,0.010784571103588356,-0.01599988521039749,0.0010069085447216393,-0.00042467307908053615, ,1.9582619667053223
0.012134250941929088,0.020686850234864818,-0.08649128471381445, ,0.012446251298036306,0.020416347748078493,-0.086899198362947, ,0.0005804389396975787, ,0.0038802196742293697,0.0002975770910588582,-0.011988546864676436,0.004728552754438162,0.004920886921189145,-0.047643762163720495, ,0.012604360863286283, ,0.006824521345547367, ,6.450272420754938e-05, ,0.2077724052481362,-0.17824067473710167,0.10021747619000002,2.2591994511022655,1.0146626472581608,-0.8949376709458703, ,0.01398834633821798,0.024533852522872487,0.012338351293570875,0.03656964010667606,0.020136766753039576,-0.01604074328585107, ,1.9653120040893555
0.012134250941929088,0.020686850234864818,-0.08649128471381445, ,0.01247062281030507,0.020413922764128938,-0.08697039894043951, ,0.0006458992802841309, ,0.0038802196742293697,0.0002975770910588582,-0.011988546864676436,0.004728552754438162,0.004920886921189145,-0.047643762163720495, ,0.012604360863286283, ,0.006824521345547367, ,6.505509430237414e-05, ,0.2077724052481362,-0.17824067473710167,0.10021747619000002,2.2591994511022655,1.0146626472581608,-0.8949376709458703, ,0.01398834633821798,0.024533852522872487,0.012338351293570875,0.03656964010667606,0.020136766753039576,-0.01604074328585107, ,1.9712069034576416
0.01217253478159206,0.020689934301024008,-0.08661237679479397, ,0.012495045281243946,0.020411484445623705,-0.0870415656101355, ,0.0006047730016894126, ,0.0034478291544590253,0.00021565038506777493,-0.011874469570152979,0.04924325662923357,0.024247934792424854,-0.01437120446828518, ,0.012366772357386004, ,0.05488952932084384, ,6.563324632805583e-05, ,0.2079268599056207,-0.1779935472851265,0.10034451261,2.25940914104575,1.0152091932572225,-0.8953016638205155, ,0.01460627082629995,0.0229219665600171,0.012512813448546743,-0.019268679899099393,0.06951358851734522,-0.058843256111641554, ,1.9750659465789795
0.01217253478159206,0.020689934301024008,-0.08661237679479397, ,0.012519518473284108,0.020409032926669783,-0.08711269798034142, ,0.0006705404932753433, ,0.0034478291544590253,0.00021565038506777493,-0.011874469570152979,0.04924325662923357,0.024247934792424854,-0.01437120446828518, ,0.012366772357386004, ,0.05488952932084384, ,6.628850027777544e-05, ,0.2079268599056207,-0.1779935472851265,0.10034451261,2.25940914104575,1.0152091932572225,-0.8953016638205155, ,0.01460627082629995,0.0229219665600171,0.012512813448546743,-0.019268679899099393,0.06951358851734522,-0.058843256111641554, ,1.9789938926696777
0.012206636227215807,0.020692595905641722,-0.08672579768851692, ,0.012544042149317463,0.020406568341144772,-0.08718379566038004, ,0.0006367233827589943, ,0.003894876193831191,0.00013533724182792153,-0.013076042936371587,0.007365879574601994,0.0026701842785142203,-0.002094043973977138, ,0.013644459520557485, ,0.007834901640012106, ,6.68995868016584e-05, ,0.20805814636448253,-0.1777773107646482,0.10046247500000001,2.25940914104575,1.015619102756519,-0.8957175962717453, ,0.015012963385298337,0.025225130664133646,0.01345338810810811,-0.016009139952230852,0.03328560420950247,-0.026653717724777443, ,1.9833450317382812
0.012206636227215807,0.020692595905641722,-0.08672579768851692, ,0.01256861607269574,0.020404090822696088,-0.08725485826058924, ,0.0007029720338254088, ,0.003894876193831191,0.00013533724182792153,-0.013076042936371587,0.007365879574601994,0.0026701842785142203,-0.002094043973977138, ,0.013644459520557485, ,0.007834901640012106, ,6.75878248430394e-05, ,0.20805814636448253,-0.1777773107646482,0.10046247500000001,2.25940914104575,1.015619102756519,-0.8957175962717453, ,0.015012963385298337,0.025225130664133646,0.01345338810810811,-0.016009139952230852,0.03328560420950247,-0.026653717724777443, ,1.9887890815734863
0.012238483332318167,0.020693358614123747,-0.08682431913646635, ,0.012593240007230423,0.020401600504741543,-0.08732588539232114, ,0.0006801057283961601, ,0.003894876193831191,0.00013533724182792153,-0.013076042936371587,0.007365879574601994,0.0026701842785142203,-0.002094043973977138, ,0.013644459520557485, ,0.007834901640012106, ,6.82451590755003e-05, ,0.2081817100904701,-0.1775842424427926,0.10056228933000001,2.25940914104575,1.015619102756519,-0.8956359175316048, ,0.01840514770334965,0.02796844726155932,0.014493914030937218,-0.013703703364078341,0.020955501102982787,-0.016553265494039113, ,1.993607997894287
0.012238483332318167,0.020693358614123747,-0.08682431913646635, ,0.012617913717192281,0.020399097520469464,-0.08739687666794155, ,0.0007472477066229815, ,0.004492058346012076,6.748497747426953e-05,-0.014175941393528266,-0.008058482123819169,-0.007872457706129772,-0.0001475097137248057, ,0.014870792070327309, ,0.011265618136424417, ,6.898012584863145e-05, ,0.2081817100904701,-0.1775842424427926,0.10056228933000001,2.25940914104575,1.015619102756519,-0.8956359175316048, ,0.01840514770334965,0.02796844726155932,0.014493914030937218,-0.013703703364078341,0.020955501102982787,-0.016553265494039113, ,1.9975500106811523
0.012238483332318167,0.020693358614123747,-0.08682431913646635, ,0.012642636967311216,0.020396582002838816,-0.08746783170082865, ,0.0008157971182690044, ,0.004492058346012076,6.748497747426953e-05,-0.014175941393528266,-0.008058482123819169,-0.007872457706129772,-0.0001475097137248057, ,0.014870792070327309, ,0.011265618136424417, ,6.979385558041024e-05, ,0.2081817100904701,-0.1775842424427926,0.10056228933000001,2.25940914104575,1.015619102756519,-0.8956359175316048, ,0.01840514770334965,0.02796844726155932,0.014493914030937218,-0.013703703364078341,0.020955501102982787,-0.016553265494039113, ,2.0013821125030518
0.01231141985772509,0.02070038850698367,-0.08705819311701651, ,0.012667409522775414,0.020394054084579047,-0.08753875010537293, ,0.000671940800242705, ,0.0051070085676418325,0.0006518164199087856,-0.01637103834231267,-0.015568457940043448,-0.011417129252132856,-0.007503498181525823, ,0.017161506273072342, ,0.01930612718961872, ,7.043140419008916e-05, ,0.20845200574106795,-0.1772058285319556,0.10078914008,2.2591994511022655,1.0158923757560496,-0.8957770745988569, ,0.018979388311694156,0.026272685924272086,0.016714387743966424,0.0,0.01121008983030592,-0.0063026304686039656, ,2.006969928741455
0.01231141985772509,0.02070038850698367,-0.08705819311701651, ,0.012692231149231448,0.020391513898190335,-0.08760963149697543, ,0.0007379058548268117, ,0.0051070085676418325,0.0006518164199087856,-0.01637103834231267,-0.015568457940043448,-0.011417129252132856,-0.007503498181525823, ,0.017161506273072342, ,0.01930612718961872, ,7.114471726828107e-05, ,0.20845200574106795,-0.1772058285319556,0.10078914008,2.2591994511022655,1.0158923757560496,-0.8957770745988569, ,0.018979388311694156,0.026272685924272086,0.016714387743966424,0.0,0.01121008983030592,-0.0063026304686039656, ,2.010951042175293
0.012353279036791506,0.02070079218220852,-0.08720780102329803, ,0.012717101612784117,0.020388961575944737,-0.08768047549204765, ,0.0006730723194519809, ,0.004626490640111152,0.000141154699624372,-0.01575665578213175,0.07119718840632439,0.038279792183384266,-0.01587690167938334, ,0.016422440188012498, ,0.08083551914438898, ,7.17773547949979e-05, ,0.20864507406292357,-0.17691236468273508,0.10095765778000002,2.2585703812718116,1.016575558254877,-0.896334164117339, ,0.020294469965455683,0.031748725847598115,0.016661936736401678,-0.02869169091180361,0.10271801033293973,-0.08092120377460009, ,2.0150420665740967
0.012353279036791506,0.02070079218220852,-0.08720780102329803, ,0.012742020679995079,0.02038639724988411,-0.08775128170801035, ,0.0007384683427793305, ,0.004626490640111152,0.000141154699624372,-0.01575665578213175,0.07119718840632439,0.038279792183384266,-0.01587690167938334, ,0.016422440188012498, ,0.08083551914438898, ,7.248474318166774e-05, ,0.20864507406292357,-0.17691236468273508,0.10095765778000002,2.2585703812718116,1.016575558254877,-0.896334164117339, ,0.020294469965455683,0.031748725847598115,0.016661936736401678,-0.02869169091180361,0.10271801033293973,-0.08092120377460009, ,2.0187621116638184
0.012353279036791506,0.02070079218220852,-0.08720780102329803, ,0.012766988117884147,0.020383821051823254,-0.0878220497632931, ,0.000805560311746895, ,0.004626490640111152,0.000141154699624372,-0.01575665578213175,0.07119718840632439,0.038279792183384266,-0.01587690167938334, ,0.016422440188012498, ,0.08083551914438898, ,7.326836219161266e-05, ,0.20864507406292357,-0.17691236468273508,0.10095765778000002,2.2585703812718116,1.016575558254877,-0.896334164117339, ,0.020294469965455683,0.031748725847598115,0.016661936736401678,-0.02869169091180361,0.10271801033293973,-0.08092120377460009, ,2.02266001701355
0.012402150724612798,0.02070177450844919,-0.08736801095677539, ,0.012792003693927018,0.020381233113346792,-0.08789277927733265, ,0.0007280892211245749, ,0.004934093609030597,-3.729245042422046e-05,-0.016761678461552944,-0.0016206489808798601,-0.0028694752216141626,0.04060976587840503, ,0.01747285137915455, ,0.0032953100130870758, ,7.395658999840715e-05, ,0.2088458651176534,-0.17659573263489187,0.10112358290000001,2.2583606913283276,1.0171221042539387,-0.8968615144722653, ,0.02047840775970453,0.031579681051071805,0.017201740302375815,-0.05934546333356624,0.043215440534869615,-0.027038474397802017, ,2.027290105819702
0.012402150724612798,0.02070177450844919,-0.08736801095677539, ,0.012817067176056587,0.020378633565812227,-0.08796346987057313, ,0.0007944476373608245, ,0.004934093609030597,-3.729245042422046e-05,-0.016761678461552944,-0.0016206489808798601,-0.0028694752216141626,0.04060976587840503, ,0.01747285137915455, ,0.0032953100130870758, ,7.471991285243786e-05, ,0.2088458651176534,-0.17659573263489187,0.10112358290000001,2.2583606913283276,1.0171221042539387,-0.8968615144722653, ,0.02047840775970453,0.031579681051071805,0.017201740302375815,-0.05934546333356624,0.043215440534869615,-0.027038474397802017, ,2.0310161113739014
0.01246250425106395,0.020704035448397377,-0.08755586093365621, ,0.01284217833266179,0.02037602254034847,-0.08803412116446462, ,0.0006931650052164888, ,0.005609751587081931,0.0002920214543937847,-0.01718936488302657,-0.012420672366914944,-0.007048719610826596,-0.016222569989966126, ,0.018083939130632505, ,0.014281318198264628, ,7.53603429814268e-05, ,0.20908526983675438,-0.176255932388426,0.10131413753000001,2.2581510013848427,1.0171221042539387,-0.8967798357321247, ,0.0222085049282637,0.032577048252135525,0.01762036672566372,0.007340029215287867,0.02055872483619621,-0.009879413898759508, ,2.0352649688720703
0.01246250425106395,0.020704035448397377,-0.08755586093365621, ,0.012867336932587188,0.020373400167856225,-0.08810473278146225, ,0.0007579376584402166, ,0.005609751587081931,0.0002920214543937847,-0.01718936488302657,-0.012420672366914944,-0.007048719610826596,-0.016222569989966126, ,0.018083939130632505, ,0.014281318198264628, ,7.607387643909703e-05, ,0.20908526983675438,-0.176255932388426,0.10131413753000001,2.2581510013848427,1.0171221042539387,-0.8967798357321247, ,0.0222085049282637,0.032577048252135525,0.01762036672566372,0.007340029215287867,0.02055872483619621,-0.009879413898759508, ,2.0390920639038086
0.01246250425106395,0.020704035448397377,-0.08755586093365621, ,0.012892542745132716,0.020370766579007896,-0.0881753043450256, ,0.0008244461083503444, ,0.005609751587081931,0.0002920214543937847,-0.01718936488302657,-0.012420672366914944,-0.007048719610826596,-0.016222569989966126, ,0.018083939130632505, ,0.014281318198264628, ,7.686203394844305e-05, ,0.2093401200216038,-0.17587751847758898,0.10149950700000002,2.2583606913283276,1.0173953772534696,-0.8970026715395176, ,0.025850433549024998,0.037040180155531136,0.01787745400673401,-0.01470071538823622,0.004146269352242086,0.0031159650991052145, ,2.042996883392334
0.012523883804838442,0.020704761314480617,-0.08773646644386567, ,0.012917795540053557,0.020368121904248537,-0.08824583547961773, ,0.0007266012401892614, ,0.005995873905811199,-0.00022692505951279985,-0.017643962889479822,-0.03860012884975393,-0.02470841308438139,0.010023463910867236, ,0.018636293229136628, ,0.04583092748817982, ,7.753206572890198e-05, ,0.2093401200216038,-0.17587751847758898,0.10149950700000002,2.2583606913283276,1.0173953772534696,-0.8970026715395176, ,0.025850433549024998,0.037040180155531136,0.01787745400673401,-0.01470071538823622,0.004146269352242086,0.0031159650991052145, ,2.0467779636383057
0.012523883804838442,0.020704761314480617,-0.08773646644386567, ,0.01294309508755993,0.020365466273795905,-0.08831632581070505, ,0.0007918940014330219, ,0.005995873905811199,-0.00022692505951279985,-0.017643962889479822,-0.03860012884975393,-0.02470841308438139,0.010023463910867236, ,0.018636293229136628, ,0.04583092748817982, ,7.827515775921145e-05, ,0.2093401200216038,-0.17587751847758898,0.10149950700000002,2.2583606913283276,1.0173953772534696,-0.8970026715395176, ,0.025850433549024998,0.037040180155531136,0.01787745400673401,-0.01470071538823622,0.004146269352242086,0.0031159650991052145, ,2.050537109375
0.012582491834313642,0.020702751431381262,-0.08790766635830344, ,0.012968441158315887,0.02036279981763934,-0.088386774964755, ,0.0007029004461226961, ,0.005770833613262165,-0.0003555030902842801,-0.016889203851563787,0.012708554897586212,0.0023078468640630825,-0.014858614985736086, ,0.017851445593532057, ,0.012916352060305666, ,7.891118817900689e-05, ,0.20960269293932743,-0.175499104566752,0.10167580244,2.2583606913283276,1.0178052867527658,-0.8972552465104663, ,0.026776789378801007,0.03851336913898976,0.017427583719912477,-0.011557738079131545,0.050182980178423944,-0.039426124828342964, ,2.054419994354248
0.012582491834313642,0.020702751431381262,-0.08790766635830344, ,0.01299383352344036,0.020360122665542133,-0.08845718256923706, ,0.000767179589452761, ,0.005770833613262165,-0.0003555030902842801,-0.016889203851563787,0.012708554897586212,0.0023078468640630825,-0.014858614985736086, ,0.017851445593532057, ,0.012916352060305666, ,7.961892013382075e-05, ,0.20960269293932743,-0.175499104566752,0.10167580244,2.2583606913283276,1.0178052867527658,-0.8972552465104663, ,0.026776789378801007,0.03851336913898976,0.017427583719912477,-0.011557738079131545,0.050182980178423944,-0.039426124828342964, ,2.058725118637085
0.012582491834313642,0.020702751431381262,-0.08790766635830344, ,0.013019271954504863,0.020357434947038764,-0.08852754825261983, ,0.0008332310067767482, ,0.005770833613262165,-0.0003555030902842801,-0.016889203851563787,0.012708554897586212,0.0023078468640630825,-0.014858614985736086, ,0.017851445593532057, ,0.012916352060305666, ,8.039990873927742e-05, ,0.20960269293932743,-0.175499104566752,0.10167580244,2.2583606913283276,1.0178052867527658,-0.8972552465104663, ,0.026776789378801007,0.03851336913898976,0.017427583719912477,-0.011557738079131545,0.050182980178423944,-0.039426124828342964, ,2.062525987625122
0.012640535741425528,0.020696754434841834,-0.08808149472272497, ,0.013044756223535145,0.02035473679143777,-0.08859787164437236, ,0.0007396048889553301, ,0.0060378522884060705,-0.00034685433448309894,-0.01743382202571141,0.01217288324248821,0.000852971907519694,-0.015185556422925628, ,0.018453024646657264, ,0.01220266515977948, ,8.106904755023323e-05, ,0.2098807113227995,-0.17509752245729232,0.10185469046000001,2.2579413114413582,1.0183518327518277,-0.897700918125252, ,0.028344367251634046,0.03937632429812066,0.017998657084745767,-0.011664310095942987,0.0504073524009191,-0.0397927997822012, ,2.0662379264831543
0.012640535741425528,0.020696754434841834,-0.08808149472272497, ,0.013070286103009764,0.020352028327820758,-0.08866815237496174, ,0.0008047910679621423, ,0.0060378522884060705,-0.00034685433448309894,-0.01743382202571141,0.01217288324248821,0.000852971907519694,-0.015185556422925628, ,0.018453024646657264, ,0.01220266515977948, ,8.181028511985456e-05, ,0.2098807113227995,-0.17509752245729232,0.10185469046000001,2.2579413114413582,1.0183518327518277,-0.897700918125252, ,0.028344367251634046,0.03937632429812066,0.017998657084745767,-0.011664310095942987,0.0504073524009191,-0.0397927997822012, ,2.07007098197937
0.012640535741425528,0.020696754434841834,-0.08808149472272497, ,0.013095861365859674,0.020349309685042036,-0.08873839007585317, ,0.0008715221072303381, ,0.0060378522884060705,-0.00034685433448309894,-0.01743382202571141,0.01217288324248821,0.000852971907519694,-0.015185556422925628, ,0.018453024646657264, ,0.01220266515977948, ,8.272009136652561e-05, ,0.2098807113227995,-0.17509752245729232,0.10185469046000001,2.2579413114413582,1.0183518327518277,-0.897700918125252, ,0.028344367251634046,0.03937632429812066,0.017998657084745767,-0.011664310095942987,0.0504073524009191,-0.0397927997822012, ,2.0720160007476807
0.012698893429848881,0.020690425947625723,-0.0882490517676423, ,0.013121481785468661,0.02034658099173013,-0.08880858437950877, ,0.0007809526334819387, ,0.006384163770217954,-0.0007859402236080385,-0.017990261231312827,-0.027297206619500396,-0.023061701712750966,0.013086901057368955, ,0.019105620854893094, ,0.035734824620442085, ,8.352358105825797e-05, ,0.21015872970627159,-0.1747191085464553,0.10202450445000001,2.2575219315543893,1.0184884692515932,-0.8978123360289484, ,0.030484080166550197,0.042920371577779635,0.018266985688073393,-0.029878616664259373,0.020155621777724647,-0.015219763066854897, ,2.0742640495300293
0.012698893429848881,0.020690425947625723,-0.0882490517676423, ,0.01314714713567158,0.02034384237628574,-0.08887873491938608, ,0.0008470846641844809, ,0.006384163770217954,-0.0007859402236080385,-0.017990261231312827,-0.027297206619500396,-0.023061701712750966,0.013086901057368955, ,0.019105620854893094, ,0.035734824620442085, ,8.440123747564442e-05, ,0.21015872970627159,-0.1747191085464553,0.10202450445000001,2.2575219315543893,1.0184884692515932,-0.8978123360289484, ,0.030484080166550197,0.042920371577779635,0.018266985688073393,-0.029878616664259373,0.020155621777724647,-0.015219763066854897, ,2.076240062713623
0.012698893429848881,0.020690425947625723,-0.0882490517676423, ,0.013172857190755609,0.020341093966884518,-0.08894884132993901, ,0.0009145380860963812, ,0.006384163770217954,-0.0007859402236080385,-0.017990261231312827,-0.027297206619500396,-0.023061701712750966,0.013086901057368955, ,0.019105620854893094, ,0.035734824620442085, ,8.535432226166135e-05, ,0.21015872970627159,-0.1747191085464553,0.10202450445000001,2.2575219315543893,1.0184884692515932,-0.8978123360289484, ,0.030484080166550197,0.042920371577779635,0.018266985688073393,-0.029878616664259373,0.020155621777724647,-0.015219763066854897, ,2.0781280994415283
0.012698893429848881,0.020690425947625723,-0.0882490517676423, ,0.013198611725459112,0.02033833589147559,-0.08901890324661534, ,0.0009830346292396615, ,0.006384163770217954,-0.0007859402236080385,-0.017990261231312827,-0.027297206619500396,-0.023061701712750966,0.013086901057368955, ,0.019105620854893094, ,0.035734824620442085, ,8.638377215498476e-05, ,0.21015872970627159,-0.1747191085464553,0.10202450445000001,2.2575219315543893,1.0184884692515932,-0.8978123360289484, ,0.030484080166550197,0.042920371577779635,0.018266985688073393,-0.029878616664259373,0.020155621777724647,-0.015219763066854897, ,2.0800559520721436
0.012698893429848881,0.020690425947625723,-0.0882490517676423, ,0.013224410514971256,0.020335568277782157,-0.0890889203058567, ,0.0010523646393169577, ,0.006384163770217954,-0.0007859402236080385,-0.017990261231312827,-0.027297206619500396,-0.023061701712750966,0.013086901057368955, ,0.019105620854893094, ,0.035734824620442085, ,8.749027944841199e-05, ,0.21015872970627159,-0.1747191085464553,0.10202450445000001,2.2575219315543893,1.0184884692515932,-0.8978123360289484, ,0.030484080166550197,0.042920371577779635,0.018266985688073393,-0.029878616664259373,0.020155621777724647,-0.015219763066854897, ,2.0819780826568604
0.012767406542915378,0.02068163294265466,-0.0884470999881543, ,0.013250253334931515,0.020332791253301067,-0.08915889214509716, ,0.0009281592662235933, ,0.006384163770217954,-0.0007859402236080385,-0.017990261231312827,-0.027297206619500396,-0.023061701712750966,0.013086901057368955, ,0.019105620854893094, ,0.035734824620442085, ,8.845214327767422e-05, ,0.2104753617541148,-0.17423257637537917,0.10222672569,2.257312241610905,1.0188983787508894,-0.8981465897400377, ,0.03231084152484534,0.04906770504574497,0.02161304141112619,-0.04165137299508044,0.021602582681099696,-0.016404184481407017, ,2.0839290618896484
0.012767406542915378,0.02068163294265466,-0.0884470999881543, ,0.013276139961429836,0.020330004945303896,-0.08922881840276321, ,0.0009967625692074294, ,0.007211238201217836,-0.0008387893516072411,-0.02132534380022089,-0.0341925738595343,-0.026023144877955835,0.022569367984629468, ,0.022527223800741465, ,0.042968962822671944, ,0.0004924775836094006, ,0.2104753617541148,-0.17423257637537917,0.10222672569,2.257312241610905,1.0188983787508894,-0.8981465897400377, ,0.03231084152484534,0.04906770504574497,0.02161304141112619,-0.04165137299508044,0.021602582681099696,-0.016404184481407017, ,2.0859460830688477
0.012767406542915378,0.02068163294265466,-0.0884470999881543, ,0.01330207017100587,0.020327209480836498,-0.08929869871827216, ,0.0010661620808434418, ,0.007211238201217836,-0.0008387893516072411,-0.02132534380022089,-0.0341925738595343,-0.026023144877955835,0.022569367984629468, ,0.022527223800741465, ,0.042968962822671944, ,0.0004960631117171134, ,0.2104753617541148,-0.17423257637537917,0.10222672569,2.257312241610905,1.0188983787508894,-0.8981465897400377, ,0.03231084152484534,0.04906770504574497,0.02161304141112619,-0.04165137299508044,0.021602582681099696,-0.016404184481407017, ,2.088076114654541
