NicholasDascanio/dvrk_moveit_final/test/execution/third_experiment_notsharpbends/thirdexp_600vel3.0/thirdexp_600vel3.0_9.csv
Current Position (x),Current Position (y),Current Position (z), ,Planned Position (x),Planned Position (y),Planned Position (z), ,Position Error,,Cartesian linear Velocity(x),Cartesian linear Velocity(y),Cartesian linear Velocity(z),Cartesian Angular Velocity(x),Cartesian Angular Velocity(y),Cartesian Angular Velocity(z), ,Total Linear Velocity, ,Total Angular Velocity, ,MSE, ,Joint 1 Position,Joint 2 Position,Joint 3 Position,Joint 4 Position,Joint 5 Position,Joint 6 Position, ,Joint 1 Velocity,Joint 2 Velocity,Joint 3 Velocity,Joint 4 Velocity,Joint 5 Velocity,Joint 6 Velocity, ,Time Stamp
0.010024158912320573,0.01998066335408315,-0.08017037589004293, ,0.010164818267577204,0.01987470287972957,-0.08020167537895025, ,0.00017886401077999418, ,-4.503058671282382e-07,-3.542843651598609e-05,-8.88604541078555e-06,0.0035139711355278323,-0.001219132535254038,-0.000505627496965783, ,3.6528601018705466e-05, ,0.0037194458296684065, ,1.4905334231666182e-05, ,0.17335218482771758,-0.22450756738658073,0.09066770776000001,1.9360672481926136,0.4841031186689555,-1.0788947602137704, ,0.00023967870536582088,-0.00027455704479582203,0.0,-0.0012902235887102523,0.0,-0.12952947109016621, ,0.019243955612182617
0.010023356609621462,0.019981240559417458,-0.08017302033427502, ,0.010178723842126137,0.019898739257073146,-0.08023201033934493, ,0.00018554046060850854, ,1.6047886455152982e-05,2.93266560228084e-05,9.315311490721674e-06,0.24782353897907344,-0.0565235282611928,-0.10097509051141013, ,3.4703925445499364e-05, ,0.2541877568239788, ,1.6563839608568306e-05, ,0.17335218482771758,-0.22451529011945495,0.09066900405000002,1.9360672481926136,0.4841031186689555,-1.081018407457425, ,0.00023967870536582088,-0.0004243049539645637,0.0,-0.0012744212523972576,0.0,-0.2736991202321293, ,0.03849983215332031
0.010043636676572109,0.019979852014142815,-0.08018619980664446, ,0.010192689944184272,0.019922582224993667,-0.08026249343546578, ,0.00017696729396636028, ,0.0009898746837538335,-0.00019041540258001445,-0.00025023836648658637,0.1105837301472519,-0.13790760666608293,-0.09137575287901278, ,0.0010386188690459728, ,0.1767689716823834, ,1.6917867667339467e-05, ,0.17336763029346602,-0.2245307355852034,0.09067548550000001,1.9360672481926136,0.48191693467270846,-1.0855249839891055, ,0.0008486675958784855,-0.0005708972560576015,-0.00012058099601714391,0.001090435961608179,-0.11441413276287073,-0.16125328060260824, ,0.058670997619628906
0.01006458100441011,0.019982150836153463,-0.08020720705000939, ,0.010206716407718327,0.019946232483952525,-0.08029312406268968, ,0.000169924494897956, ,0.0007756709507377566,0.0001277341550637637,-0.0009157181783856854,0.20849023902586664,-0.12062780980144369,-0.1148972515336381, ,0.0012068642096003455, ,0.2408718502991905, ,1.693562524411474e-05, ,0.17338307575921447,-0.22455390378382606,0.09069104098000001,1.9362769381360978,0.47986738717622685,-1.0885910823618117, ,0.0005283758308162771,-0.001260967244427762,0.0007251084968475838,0.001127633712046823,-0.0745061028442804,-0.25457731572599496, ,0.0780019760131836
0.010092222538508448,0.019981921421044047,-0.08022633225537897, ,0.010220803066987015,0.019969690733266654,-0.08032390161737363, ,0.00016187131440555268, ,0.0012933211686504483,-0.00012014006627260966,-0.00041406334436752993,-0.14268147662629188,-0.1182178644185651,-0.0026173351102385077, ,0.001363290773808791, ,0.1852929228004818, ,1.6791684128045608e-05, ,0.1733985212249629,-0.2245925174481972,0.0907014113,1.9362769381360978,0.4768613841813871,-1.0916940428100488, ,0.0004911057685871838,-0.002197888247495651,-5.251126233606093e-05,0.0011000198881954831,-0.15378165740187508,0.10633162658254824, ,0.10453677177429199
0.010102093559399743,0.019987450069788335,-0.0802352576401842, ,0.010234949756539968,0.0199929576711176,-0.08035482549685763, ,0.00017882274782712006, ,0.00012653717465387223,0.0005343619846502332,-0.0006461659959290321,-0.09068365049455646,0.05062478701754301,0.0510591056066002, ,0.0008479887272267708, ,0.10385756365133138, ,1.696758584654019e-05, ,0.17344485762220826,-0.22463885384544255,0.09071048533,1.9364866280795823,0.4763148381823254,-1.0885529727706245, ,0.003213906953933508,-0.0033702636776417392,0.0008902165792487319,0.0005155988967550837,0.032737963773156784,0.11517649326984773, ,0.12322688102722168
0.010094653215780357,0.020001966227133686,-0.08025492475205032, ,0.010249156311218272,0.020016033994545913,-0.08038589509946116, ,0.00020303285566818774, ,-0.0002205570090125812,0.0007416497277479268,-0.0009300711346252604,-0.04556661909430789,0.06168778888299786,0.040834828328209616, ,0.0012098438032887835, ,0.07669224258657692, ,1.7430877474356658e-05, ,0.1734525803550825,-0.22470835844131057,0.09073770742000001,1.9364866280795823,0.4778178396797452,-1.0865930988458032, ,8.708773294971225e-05,-0.004539507203167508,0.0012414941662287776,0.0005155988967550837,0.0510931178780139,0.07312970571780864, ,0.14502692222595215
0.010098842516413534,0.020014096477205152,-0.08027449819535669, ,0.010263422566153417,0.02003892039945745,-0.08041710982448472, ,0.00021918233653951439, ,0.00033520438489832943,0.0006925340497478358,-0.0011221251681559049,0.04884645367612717,-0.009467695979516041,-0.02468154929809821, ,0.0013605624876219845, ,0.04975553540956828, ,1.7978116032843828e-05, ,0.1734834712865794,-0.2247778630371786,0.09076104064000001,1.936696318023067,0.4780911126792762,-1.0870609708736176, ,0.0015334478726504598,-0.004618334529769533,0.0012893167998993566,0.008378811445109224,0.0,-0.04732160961712201, ,0.1636199951171875
0.01010555859805974,0.020024755302985354,-0.08029653517867696, ,0.010277748356768413,0.02006161758061527,-0.08044846907220654, ,0.00023257697332124935, ,0.00046324544023019544,0.000836370540796566,-0.0015773044941380055,0.013910590476864949,-0.0016491591737830863,-0.011345184792855758, ,0.001844451540874511, ,0.014008006759912556, ,1.8551983565374382e-05, ,0.17351436221807628,-0.22483192216729814,0.09078567015000001,1.9369060079665514,0.4780911126792762,-1.0871426496137584, ,0.0020980974126652238,-0.004989660870970091,0.0017784295875630709,0.009587018292710796,0.0,-0.008145996273930384, ,0.18412089347839355
0.010116571219460049,0.020040419534710894,-0.08032807164512985, ,0.010292133518776024,0.020084126231650953,-0.08047997224388458, ,0.00023623333422818546, ,0.0005184887290363561,0.0007924571720699403,-0.0013498816690767686,0.012466259069917041,-0.002844923339037905,-0.009400970361927526, ,0.0016489388867427155, ,0.012786758932536791, ,1.9049174727868906e-05, ,0.17356842134819586,-0.22492459496178885,0.09081937369000001,1.9369060079665514,0.4779544761795107,-1.0869495529699214, ,0.003281289532552615,-0.004966084743943572,0.0015771769649194987,0.008195263010821793,0.0,-0.006793555227819601, ,0.20256686210632324
0.010121109227097401,0.02004792610215532,-0.08034310268721521, ,0.010306577888179442,0.02010644704505907,-0.080511618741755, ,0.0002573343848761066, ,0.0005016282472498626,0.000782750458510562,-0.0015402487499616036,0.010570794618326213,-0.0020790263222643227,-0.008498622685787794, ,0.0017990818187330298, ,0.01077330261817766, ,1.9645983992131563e-05, ,0.17359158954681853,-0.2249709313590342,0.09083622546,1.9369060079665514,0.4779544761795107,-1.0869495529699214, ,0.00271420399477744,-0.0047025961118924925,0.0017355909723626194,0.00765819049272529,0.0,-0.005387718569295141, ,0.2223367691040039
0.01013851891640851,0.020072457236794183,-0.08038990228299103, ,0.010321081301272428,0.020128580712195733,-0.08054340796902992, ,0.0002450364554604476, ,0.0006242712422043508,0.0007746553229644044,-0.0014387361746982738,0.007943164002850632,-0.00521072252353439,-0.00035008423575302037, ,0.0017492190353485956, ,0.009499762291093714, ,2.0044152971960514e-05, ,0.17369970780705768,-0.22512538601651869,0.09089066964,1.9371156979100361,0.4779544761795107,-1.0868678742297808, ,0.004524991096828143,-0.005021298913751816,0.0016497153455353737,0.0,0.0,-0.0033072853046551254, ,0.24189090728759766
0.010150938926070855,0.02009102719418232,-0.08042268461220536, ,0.01033564359463752,0.02015052792328986,-0.08057533932990041, ,0.0002469000084836042, ,0.0006440051635523351,0.0009003395809156254,-0.0016770874227181936,0.006709169521253589,-0.002367754725217065,-0.006534574319452371, ,0.002009471630823622, ,0.007114718412589403, ,2.0396111144415055e-05, ,0.17377693513579992,-0.22524122700963206,0.09092826205000001,1.9373253878535206,0.4779544761795107,-1.0869495529699214, ,0.00410829918704419,-0.005478241548975647,0.0019122974014547055,0.007793072677451336,0.0,0.0, ,0.26531386375427246
0.010162245565934239,0.02010851696177402,-0.08045453109473188, ,0.010350264605147878,0.020172289367429347,-0.08060741222953141, ,0.0002505807658370412, ,0.0005270454679049916,0.000917710283469157,-0.001500312102557208,-0.005211249610352944,0.0015682065616743966,-0.001285333949665575, ,0.0018360025857018455, ,0.005442094662341026, ,2.087140026170091e-05, ,0.17384643973166794,-0.2253570680027454,0.09096455817000001,1.9373253878535206,0.4779544761795107,-1.0865411592692187, ,0.0030604277827490567,-0.00618552274204814,0.0017318832852435712,0.007793072677451336,0.0,0.013921727431699673, ,0.28227877616882324
0.010173740448821803,0.02012543503058605,-0.08048380607164511, ,0.01036494416996494,0.02019386573257732,-0.08063962607406568, ,0.00025597167247245394, ,0.0005242980474322662,0.000923381586009298,-0.0014566445456766334,-0.014401232616067319,0.003653439753142598,0.0025501151667456155, ,0.0018025912815643537, ,0.014857426522967086, ,2.132559406248188e-05, ,0.17392366706041018,-0.22547290899585878,0.09099826171000001,1.9373253878535206,0.4779544761795107,-1.086214444308656, ,0.0031176437075640336,-0.006363856359622401,0.001690900161696508,0.007793072677451336,0.0,0.024255115813563592, ,0.3005259037017822
0.010187020036119323,0.020146079511094983,-0.08051595495737204, ,0.010379682126540403,0.02021525770555687,-0.08067198027061834, ,0.0002573872608503212, ,0.0005678660576145305,0.0010343512452912983,-0.0017307633911840667,0.017852863449305385,-0.004324894275000185,-0.007452523709191161, ,0.00209473059706715, ,0.018369252674345325, ,2.173727276869562e-05, ,0.17400861712202664,-0.2256041954547206,0.09103585412000001,1.9377447677404898,0.4779544761795107,-1.086051086828375, ,0.003118116522196939,-0.0070498370845936235,0.0019875178784830223,0.0047751434719958035,4.020125423146076e-05,-0.011134656647345989, ,0.31869077682495117
0.010192949595928914,0.020155774694735513,-0.08053160289219541, ,0.010394478312613364,0.02023646597207083,-0.08070447422728193, ,0.0002775056835113147, ,0.0006910248160700745,0.0009243840856504461,-0.0016215497814794906,0.012171218046390025,-0.005008024612497251,-0.005748120004508228, ,0.001990332868654054, ,0.013161263588308582, ,2.222459555793999e-05, ,0.17404723078639778,-0.22567370005058862,0.09105400218000001,1.9377447677404898,0.4779544761795107,-1.085887729348094, ,0.004843450966276961,-0.0060135648247051825,0.0018706766318261894,0.0047751434719958035,1.3640981508042091e-05,-0.006000591250468816, ,0.3361208438873291
0.01020234281243704,0.020173048654290142,-0.08055970537068191, ,0.01040933256621347,0.020257491216678,-0.08073710735311906, ,0.00028538880125836594, ,0.0006777262326764493,0.001038747921766492,-0.0017484452754445946,0.004085668157787845,-0.002525059245586973,-0.0019044343966642975, ,0.002143681639762897, ,0.004802979124766781, ,2.2706897485832118e-05, ,0.17410128991651735,-0.22579726377657622,0.09108640943000001,1.9377447677404898,0.4779544761795107,-1.085887729348094, ,0.004405007388771767,-0.007010111889466557,0.002018953913818988,0.0047751434719958035,-1.9350508204095857e-05,0.003992595648784447, ,0.35445594787597656
0.010216752677869477,0.020198082946964464,-0.08060001814411419, ,0.01042424472565685,0.020278334122821658,-0.08076987905816861, ,0.00027990343199908046, ,0.0007136181512097244,0.00111831571764386,-0.0018073545285132238,0.002125004724757929,-0.0012017390707879608,-0.004203796825320839, ,0.0022419659457276653, ,0.002441274637400913, ,2.3113033801028844e-05, ,0.17418623997813382,-0.22596716389980914,0.09113307587000001,1.937954457683974,0.4779544761795107,-1.085724371867813, ,0.004636788661575076,-0.007581923256139047,0.002099374208446306,0.008604277635141783,-5.012122084931819e-05,0.0074806347716306915, ,0.3715028762817383
0.010222475792229693,0.02020899851656596,-0.08061807303794313, ,0.010439214629549122,0.020298995372807584,-0.08080278875344002, ,0.00029865540893725634, ,0.0006337676989825994,0.0011705121936207844,-0.0019190017891618863,0.0018020174313094022,9.327314968786047e-05,-0.003693448548858142, ,0.002335450311716171, ,0.0018044297373883693, ,2.357784459450575e-05, ,0.1742171309096307,-0.2260443912285514,0.09115381651000001,1.937954457683974,0.4779544761795107,-1.0856426931276724, ,0.003430754878688619,-0.007926094273795405,0.002209879511653718,0.008396865395417919,-5.873680050865672e-05,0.008169437083055345, ,0.39188289642333984
0.010243292179858515,0.020242719213689378,-0.08067609745171066, ,0.010454242116783521,0.020319475647815666,-0.0808358358509144, ,0.0002755136698035557, ,0.0006633961741330002,0.0012383238064453076,-0.0020883038423670404,0.0067267078576049135,0.000432601961747007,-0.010004756736867192, ,0.002516853843890909, ,0.0067406040544712885, ,2.3888202773196945e-05, ,0.17432524916986986,-0.2262606277490297,0.0912199273,1.9383738375709432,0.4778178396797452,-1.0853679177436948, ,0.003337510518164909,-0.008010478082325384,0.002393510371149512,0.013316610161618269,0.0,0.0037662401474475122, ,0.4091207981109619
0.010250988581929492,0.020253679343347618,-0.08069576884468276, ,0.010469327026540732,0.020339775627901183,-0.08086901976354535, ,0.00029171926144140424, ,0.0007160460509731762,0.0010967002307765508,-0.0018343625800373979,0.0062598623672604145,-0.0008940191448358749,-0.0095253968286711, ,0.002253965265557808, ,0.006323380983904634, ,2.4248416090016814e-05, ,0.174363862834241,-0.22633785507777193,0.09124196423000001,1.9383738375709432,0.4776812031799798,-1.0852564998399985, ,0.004552477276033138,-0.0070480158447139936,0.0021218513038004706,0.01247213763769336,0.00022379390854748338,0.003156604314166962, ,0.4263179302215576
0.01025940940051184,0.02026702942067936,-0.08071824640436988, ,0.010484469198289539,0.020359895991988737,-0.08090233990525536, ,0.00030523192773819046, ,0.0007059326746743425,0.001176943425679435,-0.001827520623039312,0.00740413317531467,-0.0011552374036171086,-0.008343529077980014, ,0.002285468966329867, ,0.007493714800826507, ,2.4640290787890862e-05, ,0.17441792196436054,-0.22643052787226262,0.09126789003,1.9383738375709432,0.4776812031799798,-1.0852564998399985, ,0.004464121117274879,-0.008054850764509552,0.0021335192182780904,0.011273223932314206,0.00022379390854748338,0.0027649173923699863, ,0.44333791732788086
0.010278990768483195,0.020298800593628687,-0.08076964586431139, ,0.010499668471785297,0.020379837417882504,-0.08093579569093826, ,0.0002878738968853773, ,0.0007413032457897639,0.0011078532363202188,-0.0020055585146059075,-0.001029726962222807,-0.002665763837170409,0.004842664445826853, ,0.0024081391676877553, ,0.00285773239122332, ,2.492648680431666e-05, ,0.17454148569034814,-0.22664676439274092,0.09132751937000001,1.9385835275144276,0.4776812031799798,-1.0849297848794361, ,0.004717690269206845,-0.007289762434401874,0.0022929050698143084,-0.00017627323040672344,0.00021996284595661902,0.009101210013748282, ,0.46073484420776367
0.010304208189215227,0.020333420522501106,-0.0808384369031393, ,0.010514924687071131,0.02039960058225675,-0.08096938653645586, ,0.00025676652671962225, ,0.0009198693135078358,0.0011711781065199482,-0.0025395370788778224,-0.003163455835829003,-0.00034486756741569316,-0.004929060924123601, ,0.002943988159983041, ,0.0031821983531309483, ,2.506160407715321e-05, ,0.17469594034783265,-0.22684755544747076,0.09140529677,1.9387932174579123,0.4776812031799798,-1.0846030699188738, ,0.005523532964659472,-0.006011240384597268,0.0028449386533309527,0.010940041461337518,0.00021345474932688108,0.012140909871976904, ,0.48610877990722656
0.01031144127412362,0.02034403590673643,-0.08085771240364294, ,0.01053023768447627,0.02041918616066702,-0.08100311185863952, ,0.0002732406107487352, ,0.0006623400955575538,0.0010086429001875262,-0.0014767250505087247,-0.0036292793530432604,0.0008400194678347825,-0.004152261146976005, ,0.0019070321908876864, ,0.0037252250028347194, ,2.5253114816327334e-05, ,0.17474227674507797,-0.22691706004333878,0.09142733370000002,1.9387932174579123,0.4776812031799798,-1.0845213911787333, ,0.004675055729219338,-0.007037364151359816,0.001749771090171067,0.010940041461337518,0.00021090733926451026,0.013769040260580956, ,0.5035297870635986
0.01032602148549923,0.020361436414921483,-0.08088241323980128, ,0.010545607304617073,0.02043859482754172,-0.0810369710752883, ,0.00027939126168540667, ,0.0007779121390749331,0.0008284336065132515,-0.0009136710167732324,-0.0012914184298295174,-0.0028229382436816652,-0.004176331472767046, ,0.0014581646900854934, ,0.003104310211288031, ,2.545510407345315e-05, ,0.17485811773819135,-0.22704062376932635,0.09145714837,1.9387932174579123,0.4776812031799798,-1.0844397124385927, ,0.007109813040247554,-0.006557698134723425,0.0011778374285670587,0.009581959588427388,0.0002056430903395185,0.010393299689122754, ,0.5214967727661133
0.0103414123657171,0.020380101771282556,-0.08090803428071647, ,0.010561033388396073,0.020457827256188207,-0.0810709636051685, ,0.00028428965751987954, ,0.000793333109921126,0.0009275678949933159,-0.0017200756880738478,0.004258651757385619,-0.004012000486567959,-0.002866207528641488, ,0.0021091277808189283, ,0.005850834357580821, ,2.575829514462704e-05, ,0.17498940419705317,-0.22717191022818817,0.09148825933000002,1.939212597344881,0.4776812031799798,-1.0842763549583117, ,0.005838704623481897,-0.005669853444701237,0.0019809490759855742,0.005019785608187527,0.0002001632474812013,0.002471213127952963, ,0.5367119312286377
0.010350783427174355,0.020391897440462402,-0.08093211704967393, ,0.0105765157770021,0.020476884118791578,-0.0811050888680134, ,0.00029681152132598527, ,0.0007520417820299853,0.0010141676479137347,-0.002043108537371866,-0.0002170513130734925,-0.0017599877240181063,-0.0009625287898301878, ,0.0024017483955392823, ,0.001773321185121514, ,2.608948186057218e-05, ,0.17505118606004696,-0.2272414148240562,0.09151548142,1.939212597344881,0.4776812031799798,-1.0841129974780306, ,0.0046459761193302284,-0.005824514954646096,0.002308188888566875,0.005019785608187527,0.00019687540912118577,0.0075763164581844015, ,0.5518679618835449
0.01036823529679838,0.020412935002542255,-0.08098377999627934, ,0.010592054311909618,0.02049576608641739,-0.08113934628452185, ,0.00028488034333531314, ,0.0009346300159172912,0.0011135751386575216,-0.002807258699285812,-0.0017519821432209857,-0.002193476146651205,-0.000887607922090892, ,0.003161373793274934, ,0.0028072724951003487, ,2.6359568699049966e-05, ,0.17515158158741187,-0.22734181035142112,0.09157251818,1.939212597344881,0.4776812031799798,-1.0837862825174682, ,0.00521162683203285,-0.0048729946991138,0.0030911724277120126,0.005019785608187527,0.00019163396283179192,0.008234240223548791, ,0.5687108039855957
0.01037898689985499,0.020425492410583335,-0.081010182692446, ,0.010607648834878735,0.020514473829011743,-0.08117373527635939, ,0.00029487865480410747, ,0.0010545100517369407,0.0011554649182826506,-0.002432240128518221,-0.0051853747799255985,-0.002494804055145826,-0.0014643237133402213, ,0.0028918649120196656, ,0.005754316536022361, ,2.6649231130814474e-05, ,0.1752210861832799,-0.22740359221441492,0.09160233285000001,1.9394222872883657,0.4776812031799798,-1.0837046037773277, ,0.0073991465728735035,-0.00616996973087218,0.002754896492563127,0.008066704374700993,0.00018887881985475311,0.014001893366121385, ,0.5834088325500488
0.01038880228549242,0.020436379070166467,-0.08103308925683807, ,0.010623299187955352,0.020533008015398858,-0.08120825526615533, ,0.0003082354313533215, ,0.0009979795887354104,0.001049067865590963,-0.0022332123836375506,-0.0058945414667405955,-0.0022939233924036463,-0.0013517243581602093, ,0.002661530423756262, ,0.006325164312315955, ,2.69681626150655e-05, ,0.1752905907791479,-0.22746537407740872,0.09162825865,1.9394222872883657,0.4776812031799798,-1.0837046037773277, ,0.00714219013436485,-0.005493974339750564,0.0025303910277998417,0.007826452736087256,0.00018626859584890403,0.01400402182877528, ,0.5996658802032471
0.01040780855204513,0.020456653520609085,-0.08107532153570382, ,0.010639005213470578,0.0205513693132845,-0.08124290567750307, ,0.0003008445150222902, ,0.0008331398012640077,0.0009654130762627903,-0.0019557640988144285,-0.005252717334985284,-0.0013798234339264333,-0.0007215743854638228, ,0.0023347714120403366, ,0.0054309255271503395, ,2.7246264621934015e-05, ,0.17542959997088398,-0.22758121507052206,0.09167622138,1.9394222872883657,0.4776812031799798,-1.0835412462970466, ,0.005758998081731849,-0.005364382642933709,0.002222521490163249,0.006740309778704269,0.00018104591305353202,0.01294972531704484, ,0.6155598163604736
0.010425890931550606,0.020480379781731735,-0.08111948927827987, ,0.010654766754040071,0.020569558389259952,-0.0812776859349604, ,0.0002921697252382563, ,0.0008799356278374015,0.0011338520921816701,-0.002320467982295432,-0.0018801714033458974,-0.0003009382412183686,-0.006299075882131291, ,0.002728457244110779, ,0.0019041030076412718, ,2.7482569106847343e-05, ,0.17554544096399732,-0.22771250152938388,0.09172677669000001,1.939841667175335,0.4776812031799798,-1.0832962100766248, ,0.005440684230005372,-0.00607801801807802,0.0026207323988154006,0.011929428556359105,0.00017603664564279448,0.010978161199048509, ,0.6308979988098145
0.01043591365448832,0.02049220513244343,-0.08114347366980913, ,0.010670583652564423,0.020587575908798145,-0.08131259546404815, ,0.00030457802656489146, ,0.0009448974087442966,0.0011592326053575094,-0.0021157661564473323,0.002559789603825101,-0.0024468755721001483,-0.007327911264709997, ,0.0025909685013800463, ,0.0035411471077596, ,2.7745666851288683e-05, ,0.17561494555986534,-0.2277820061252519,0.09175399878000001,1.939841667175335,0.4776812031799798,-1.0831328525963437, ,0.006663229734200598,-0.006905568280459584,0.0024378346372819102,0.011595873575236714,0.00017338077805295526,0.006915598936771855, ,0.6500639915466309
0.01045825583411613,0.020515573690894098,-0.08118986942007234, ,0.01068645575222914,0.020605422536253342,-0.08134763369124844, ,0.0002916120417590804, ,0.0009331410203656089,0.0010405625905288364,-0.0017471406998522303,-0.0015616589351870461,-0.00275504520630871,-0.004126084148708324, ,0.00223741442155386, ,0.0031668679641523897, ,2.7956717478406173e-05, ,0.1757848456830983,-0.22792101531698797,0.09180714667,1.939841667175335,0.4776812031799798,-1.0829694951160627, ,0.007336339739536949,-0.006599978165750938,0.0020525977098408395,0.009677310594626634,0.00016802951813659912,0.010769113546150129, ,0.6659469604492188
0.010467184107342407,0.02052594475184953,-0.0812076304970151, ,0.010702382896503637,0.02062309893486704,-0.08138280004400611, ,0.0003089365240526676, ,0.0009088200789347828,0.0010029390572267678,-0.0017222895910247555,0.0022649061245994515,-0.0036580065648566555,-0.005270593014926528, ,0.002190461623434239, ,0.004302419292285257, ,2.8209033408067173e-05, ,0.17585435027896631,-0.227990519912856,0.09182788731000001,1.939841667175335,0.4776812031799798,-1.0828878163759221, ,0.0071055976120185105,-0.006267576525521667,0.002016562806166231,0.009006219509967443,0.0001656986352363362,0.006060172549519944, ,0.6818389892578125
0.010481436528956695,0.020541648723652085,-0.08123546806670306, ,0.010718364929141426,0.02064060576676591,-0.08141809395072655, ,0.00031508693516438805, ,0.0009759238225959788,0.001103306198744086,-0.0021289964965727354,-0.0036345166194431825,-0.004609259750900869,0.005146467129991122, ,0.0025888873977283084, ,0.00586983700493837, ,2.846745730373148e-05, ,0.17596246853920544,-0.22808319270734667,0.09186029456000001,1.9400513571188194,0.4776812031799798,-1.0828061376357816, ,0.007198539355340203,-0.00672174121604637,0.0024411971678160926,0.0002797626948729586,0.00016251210095725302,0.011419678385636314, ,0.6985259056091309
0.010504404154959556,0.02056751987440159,-0.08128517787259629, ,0.010734401694180228,0.020657943692960513,-0.0814535148407756, ,0.00029901951418953804, ,0.0010162727144837668,0.0010807474474154753,-0.0021647429439824797,-0.0018960947720554205,-0.0018563249785895995,-0.007972176714226115, ,0.002624297484817833, ,0.0026535104603552227, ,2.8668812828476355e-05, ,0.17612464592956417,-0.2282222018990827,0.09191733132,1.9404707370057885,0.4776812031799798,-1.0825611014153598, ,0.007352023031696086,-0.00572597128036284,0.0024753397855477857,0.01358747732097168,0.0001577582187577061,0.010924910273822145, ,0.7148489952087402
0.01052523500967311,0.020588950531325947,-0.08132820721879928, ,0.010750493035940651,0.020675113373352576,-0.0814890621444795, ,0.000289895706866524, ,0.0010283974465060796,0.0009602867337654665,-0.0021077791395903043,-0.0073922877590871724,-0.008001711925623971,0.01653697308698388, ,0.0025342621846048637, ,0.010893728104382808, ,2.883606477388716e-05, ,0.17627910058704865,-0.22833804289219609,0.09196659034000002,1.9406804269492728,0.4776812031799798,-1.0823160651949382, ,0.0080741392670988,-0.005641186545787663,0.002392791275349257,-0.011511052475164584,0.00015361044244241041,0.012167004448579117, ,0.7306089401245117
0.010535307878251972,0.020598661678066083,-0.08134867301630148, ,0.01076663879902736,0.02069211546672786,-0.08152473529312314, ,0.00030536131195954395, ,0.0009979527507890658,0.0009593865272866978,-0.0022456021555010714,-0.004030536257425955,-0.008196948714353352,0.014961250327380013, ,0.002638003268068057, ,0.009134286545267814, ,2.9037883135423504e-05, ,0.1763563279157909,-0.22839210202231566,0.09198992356,1.9406804269492728,0.4776812031799798,-1.0822343864547976, ,0.00740878224247393,-0.005271328443092407,0.002521578521450056,-0.011511052475164584,0.00015170360118053373,0.008054640827976616, ,0.7455048561096191
0.010545854998740728,0.020608329406918677,-0.08137177964698626, ,0.01078283882832799,0.02070895063076104,-0.08156053371895004, ,0.00031923982498474146, ,0.0010324141283544225,0.000940419298067877,-0.0022866288327390676,-0.009158648875009412,-0.007417959009680995,0.016835439171488196, ,0.0027292493948183234, ,0.013091653590450199, ,2.9345508183266414e-05, ,0.1765107825732754,-0.22849249754968057,0.09204307145000001,1.9406804269492728,0.4776812031799798,-1.0820710289745166, ,0.00772537786674074,-0.0049252066098207535,0.002560902173633441,-0.011511052475164584,0.00014787326165111413,0.013331705993950987, ,0.7599258422851562
0.010566516145081644,0.02062708440174823,-0.08141550144879806, ,0.010799092969012637,0.020725619522019557,-0.08159645685516212, ,0.00031071853509099937, ,0.001057950420014037,0.0009116695257885062,-0.0023068763884788513,-0.00809893745371791,-0.00801292239302686,0.01617700702136161, ,0.002696679270358369, ,0.011392967703393821, ,2.9619726875475095e-05, ,0.17658800990201765,-0.2285311112140517,0.09206510838000001,1.9406804269492728,0.4776812031799798,-1.0820710289745166, ,0.00798416797099036,-0.004528753509557371,0.002576643726949208,-0.011511052475164584,0.0001462271237726457,0.01173024962830604, ,0.776033878326416
0.010576959943266543,0.02063752299074958,-0.08143976988906704, ,0.01081540106653501,0.02074212279595503,-0.08163250413591769, ,0.0003239471846206318, ,0.001029726158818823,0.0010585794449422452,-0.0022832348389965514,0.001353621383444064,-0.0037155271162480144,-0.005984152136092736, ,0.0027192071883947364, ,0.003954419368155041, ,2.9917959858831376e-05, ,0.1766652372307599,-0.2285928930770455,0.09209233047000001,1.9404707370057885,0.4776812031799798,-1.0819893502343758, ,0.007301955427008501,-0.005311894948938553,0.0025862658743302487,0.009604217868986305,0.00014431566339708336,0.006138608763875141, ,0.7893719673156738
0.010599282803456934,0.02065998848195399,-0.0814890612378107, ,0.010831762966630524,0.020758461106914153,-0.08166867499633249, ,0.0003098467143380491, ,0.0010440351766141762,0.0010243061809807042,-0.002283798929748776,0.0012013179596501585,-0.0038868349173875713,-0.006313512576582321, ,0.002712001134572905, ,0.004068249064778728, ,3.0170273917439994e-05, ,0.17681969188824437,-0.2286932886044104,0.09214807094000001,1.9408901168927575,0.4776812031799798,-1.0818259927540947, ,0.007459486619898715,-0.004896323497218115,0.002580400375830229,0.009776015987563749,0.00014079654500529735,0.005888407976198543, ,0.8035218715667725
0.010606715382884263,0.020667775558972715,-0.0815036211473224, ,0.010848178515316938,0.020774635108134876,-0.08170496887247808, ,0.0003320607083000118, ,0.0010744284403816878,0.001010926046633064,-0.002164113174180863,0.0001304157680032486,-0.004222647927574008,-0.005795205205832214, ,0.0026191131659257017, ,0.00422466137640889, ,3.0468715376397846e-05, ,0.17687375101836394,-0.22873190226878154,0.09216492271000001,1.941099806836242,0.4776812031799798,-1.0816626352738137, ,0.008077171541042273,-0.005047813265987616,0.002465760297213622,0.009778616959358326,0.00013958999465280507,0.007235019606564162, ,0.8207719326019287
0.010633176468114833,0.020691355032889013,-0.08156150943293304, ,0.010864647558894294,0.020790645451745495,-0.08174138520138133, ,0.00030950403102090763, ,0.0011411186105229278,0.0010542822222175444,-0.0024745212803511324,0.001600348661048167,-0.004766571235280322,-0.006595466685798251, ,0.0029218005158251903, ,0.005028053011369321, ,3.070226640403407e-05, ,0.17706681934021956,-0.22884002052902067,0.09222973721000001,1.941099806836242,0.4776812031799798,-1.0814992777935326, ,0.008198911700774905,-0.004690618791224035,0.002783783907724572,0.009778616959358326,0.00013582698151222737,0.005225722887101733, ,0.8344109058380127
0.010644802654117883,0.02070226739708943,-0.08158684451899299, ,0.010881169943944053,0.02080649278876997,-0.08177792342102443, ,0.0003213153820971974, ,0.0011663605147318973,0.0011486757918125028,-0.0025017565425777284,0.0029597076058693016,-0.005092327914040854,-0.006570862312686153, ,0.002989755629370435, ,0.005889963717915456, ,3.095620319942538e-05, ,0.17715176940183602,-0.22889407965914024,0.09225695930000001,1.941099806836242,0.4776812031799798,-1.0814992777935326, ,0.008437303981133341,-0.005690831270070464,0.0028343080996441287,0.009778616959358326,0.00013426463362009074,0.00482364379072271, ,0.8476657867431641
0.010664479636381946,0.020719841686933135,-0.0816282861826318, ,0.010897745517329355,0.020822177769124952,-0.08181458297034301, ,0.0003155822207350321, ,0.0011216695335036593,0.0009656253106428296,-0.0020984350205380782,0.009699775721336441,-0.007197084126512213,-0.009881683144442238, ,0.0025678793426415158, ,0.012078231200288928, ,3.118833652885978e-05, ,0.17729850132644628,-0.2289790297207567,0.09230492203000001,1.941099806836242,0.4776812031799798,-1.0812542415731108, ,0.008757936837770037,-0.004669350681721274,0.0023978340388378745,0.009778616959358326,0.00013159874535103103,-0.0037298842972508825, ,0.8626317977905273
0.010679251397510189,0.020732915183455384,-0.08165669795486077, ,0.010914374126194882,0.02083770104162057,-0.08185136328922649, ,0.0003227342033613192, ,0.0011266653713360014,0.0010179834487147154,-0.002226650641149381,-0.00493232807257623,-0.0037055378947440038,-0.0033106313377984143, ,0.002695113770985512, ,0.006169187243889827, ,3.142948167356948e-05, ,0.17740661958668544,-0.22904853431662472,0.09233603299000001,1.941099806836242,0.4776812031799798,-1.0811725628329703, ,0.008606840635627394,-0.004949900336306211,0.002480350594830271,0.009285424001724772,0.00012962440791634058,0.012956128121200538, ,0.8754918575286865
0.010691145347508054,0.02074349768108267,-0.08168342421613764, ,0.010931055617965962,0.02085306325396484,-0.08188826381851738, ,0.00033394732419241696, ,0.0012665512290364995,0.0011817789780572364,-0.0029138005841880033,-0.005030757076705354,-0.004092925528532908,-0.0025494546145424127, ,0.003389835897675022, ,0.006485411007553707, ,3.168843838374546e-05, ,0.17749929238117612,-0.22909487071387008,0.09236714395000001,1.941099806836242,0.4776812031799798,-1.0810908840928297, ,0.008754067263283422,-0.004988627512818683,0.0032540983697650666,0.008432915830892581,0.0001281607589350164,0.012606914942509807, ,0.88873291015625
0.010732414737519694,0.0207831338235317,-0.08178375215108537, ,0.010947789840349187,0.020868265052759682,-0.08192528400001006, ,0.0002714130162109489, ,0.0012471154041970444,0.001123323511045779,-0.00289601432511972,-0.009465600951412658,-0.0028322449175013954,-0.0016703288121178348, ,0.0033472453619584567, ,0.009880243541552548, ,3.179938681221242e-05, ,0.17776958803177398,-0.22924932537135456,0.09247862489000001,1.941519186723211,0.4776812031799798,-1.0808458478724081, ,0.00852714369606417,-0.004331865930033377,0.0032205441811564905,0.009034197414350395,0.00012383056781929493,0.016899768692187355, ,0.9146649837493896
0.010743853555428326,0.020793775529331468,-0.08180782556098597, ,0.010964576641331478,0.020883307083505866,-0.08196242327645113, ,0.0002839630846968343, ,0.001074174237984983,0.0009447070422937782,-0.0020539826704883196,-0.005548331737647292,-0.003613330786904829,-0.0024562857106092953, ,0.0025030314620428577, ,0.006621189048050234, ,3.193455724615812e-05, ,0.17785453809339047,-0.22930338450147414,0.09250584698000001,1.941519186723211,0.4776812031799798,-1.0807641691322676, ,0.008276706222012004,-0.004610269470621392,0.002344540994995585,0.00831773502000267,0.00012249920989230393,0.012745658455259663, ,0.9276869297027588
0.010754867963506378,0.020801673164410794,-0.08182591784550405, ,0.01098141586917985,0.02089818999060315,-0.08199968109153785, ,0.0003013853297283784, ,0.0010638904692499656,0.0008379496306021988,-0.0016593473900192123,-0.004336104060524276,-0.004822032670135812,-0.0024842872211851023, ,0.0021418347916566404, ,0.006484889936072319, ,3.210341500972704e-05, ,0.17794721088788115,-0.22934199816584527,0.09252658762,1.941519186723211,0.4776812031799798,-1.0807641691322676, ,0.009008045401352277,-0.004464378833974994,0.0019373402481148144,0.007703546914108132,0.00012118755427183701,0.011133595381609572, ,0.9439249038696289
0.010776668320080125,0.02082235606418901,-0.08186519838531083, ,0.010998307372442478,0.020912914417344303,-0.08203705688991741, ,0.0002947202579801635, ,0.0010590728836864884,0.0009081887405232257,-0.0019027082013800592,0.003700410371099217,-0.00727382146625645,-0.005013786756373208, ,0.002359394130062232, ,0.00816097516309012, ,3.225297986637677e-05, ,0.178148001942611,-0.22945783915895862,0.09257325406000001,1.941519186723211,0.4779544761795107,-1.0808236474593793, ,0.008344010271362206,-0.004704958905711332,0.0021844228634119588,0.006586308698399959,-0.0009208338036715353,0.001955013784528644, ,0.9576869010925293
0.010788236184760805,0.0208322353354296,-0.08188809780471605, ,0.011015250999946312,0.02092748100592838,-0.08207455011718794, ,0.0003088234590969184, ,0.0011632503451512943,0.0008991982942225433,-0.002557503865010993,-0.002950482977193234,-0.007811243818526706,0.002619154741047453, ,0.0029500059249726097, ,0.00834990297439213, ,3.2496240583462544e-05, ,0.17823295200422745,-0.22949645282332976,0.09259917986,1.9417288766666956,0.4779544761795107,-1.080660289979098, ,0.008296087115018938,-0.0031285141928635014,0.0028257604257583826,0.0,-0.0009208338036715353,0.0063248183690449815, ,0.9693009853363037
0.01079979089279082,0.02084249970920905,-0.08191628731156324, ,0.01103224660079864,0.020941890397450084,-0.08211216021989534, ,0.0003198130099181712, ,0.0012682723238116918,0.0011201627975377013,-0.00303047686326173,-0.0013079771581229714,-0.008140342928612368,0.002664808155729021, ,0.0034708888485658618, ,0.008244755119831295, ,3.275631468016545e-05, ,0.1783101793329697,-0.2295350664877009,0.09263029082,1.9417288766666956,0.4779544761795107,-1.080496932498817, ,0.008526423898639552,-0.004362297932783462,0.003348499373554762,0.0,-0.0009208338036715353,0.005852320444794104, ,0.9814438819885254
0.010812078027683757,0.02085415287518251,-0.08194671970111898, ,0.01104929402438597,0.020956143231907063,-0.082149886645535, ,0.0003285578628789284, ,0.0012814110541295855,0.0011600113481145566,-0.00326690562015981,-0.0049929589550561275,-0.006046246885513115,0.0009683804653113058, ,0.003695986059014806, ,0.007841348108286756, ,3.302796071884433e-05, ,0.17838740666171196,-0.229573680152072,0.09266399436000002,1.9419385666101803,0.4779544761795107,-1.0803335750185359, ,0.008106712915779867,-0.0040279040216747615,0.0035875701621621626,0.003367242669412095,-0.0009208338036715353,0.010194560004546594, ,0.994499921798706
0.010838707189317877,0.020876120818316565,-0.08201169161549003, ,0.01106639312037439,0.020970240148195974,-0.08218772884254913, ,0.0003028009854156299, ,0.0013734907398936214,0.0010977407593868204,-0.0031643543585607777,-0.014348868004485808,-0.00530300414842147,0.004467471367114394, ,0.0036200345431964143, ,0.015297446378107177, ,3.324062986742678e-05, ,0.1785650295178191,-0.22964318474794002,0.09273529031000001,1.9419385666101803,0.4779544761795107,-1.0801702175382546, ,0.009409685581536148,-0.003549201946242682,0.003485516743982495,0.003367242669412095,-0.0009208338036715353,0.01999125704934763, ,1.0057318210601807
0.010854654968961285,0.02088790567077011,-0.08204752912221733, ,0.011083543738708408,0.020984181784119857,-0.08222568626032842, ,0.0003056127038884656, ,0.001462036329766467,0.001217898783209439,-0.0036315641427048274,-0.009648842020171286,-0.004491973680506899,0.003454673926199027, ,0.004099888510469459, ,0.010643212825315076, ,3.3453820479241846e-05, ,0.17866542504518404,-0.22968179841231115,0.09277417901000001,1.9419385666101803,0.4778178396797452,-1.0800587996345583, ,0.00964835464728123,-0.003576328971473333,0.003984194977488744,0.003367242669412095,0.0012461159844187443,0.015599883076821485, ,1.0175538063049316
0.010866740154929498,0.020897495079975646,-0.08207850971544535, ,0.011100745729611606,0.020997968776383057,-0.08226375834920951, ,0.00031491368494170285, ,0.0014683439197939801,0.0011832292942871895,-0.0037500323000164296,-0.008491918850381126,-0.0047336068377847726,0.002576941020505706, ,0.004197476346666152, ,0.009722125215948002, ,3.368038945159552e-05, ,0.17874265237392628,-0.22970496661093381,0.09280788255000001,1.9419385666101803,0.4778178396797452,-1.0800587996345583, ,0.009461370691545552,-0.0028616806028200453,0.004090603882896764,0.003367242669412095,0.0012461159844187443,0.013548654781374746, ,1.0293688774108887
0.010882341821332561,0.02091181692719735,-0.08211994172852229, ,0.01111799894358625,0.021011601760592656,-0.08230194456047461, ,0.00031403235993012857, ,0.0013774463905151415,0.0012713564718278053,-0.0035239755343340583,-0.004588055974378062,-0.003697314336626645,-0.001241909498819071, ,0.0039915046541106084, ,0.005892401071243803, ,3.389989930104759e-05, ,0.17883532516841696,-0.22974358027530495,0.09285325270000001,1.9421482565536645,0.4778178396797452,-1.0800587996345583, ,0.00879308251053123,-0.004334520212965076,0.0038831817454900055,0.006847540529608649,0.0012461159844187443,0.011507923559312641, ,1.0410139560699463
0.010897435637659112,0.020923525612967075,-0.08215671710328183, ,0.011135303231412642,0.021025081371262435,-0.08234024434635194, ,0.00031713847630010885, ,0.0014571910506444713,0.0010820287243456241,-0.003471143562184271,-0.00024931511858454903,-0.006287974569584815,-0.003963158600707856, ,0.00391701794068915, ,0.006292915199824218, ,3.4120323875648026e-05, ,0.1789357206957819,-0.22977447120680183,0.09289343769000001,1.9421482565536645,0.4778178396797452,-1.0799771208944176, ,0.009849230054210376,-0.00229422739017669,0.003796189590085796,0.006617696745889688,0.0012354991147518297,0.004463320452224794, ,1.052290916442871
0.010911703976935645,0.02093608184405053,-0.08219069075906386, ,0.011152658444149102,0.021038408241811742,-0.08237865716001418, ,0.0003222749056863106, ,0.0014362430553944896,0.0011884357767576008,-0.0033865933850068444,0.0023003141427703384,-0.0071776624329098135,-0.0018825757946103676, ,0.0038657713932691955, ,0.00753725962872232, ,3.4345521121687155e-05, ,0.17902067075739836,-0.22981308487117297,0.09292843752,1.942357946497149,0.4778178396797452,-1.0798137634141365, ,0.009653497716978128,-0.0038506045764149874,0.003734774096131302,0.004118062962828958,0.0012186567199533192,0.0028563770588072783, ,1.0638089179992676
0.010927446980509643,0.020947795538206908,-0.08222737611156089, ,0.011170064433131843,0.02105158300456629,-0.0824171824555786, ,0.0003250561716373844, ,0.001439677936090372,0.0010835998014432139,-0.003391030363434827,-0.0008936878082439399,-0.006754780890299645,-0.0012986001401441019, ,0.0038400453141974955, ,0.006813643836169349, ,3.457086779764788e-05, ,0.17913651175051173,-0.22984397580266985,0.09297121509,1.942357946497149,0.4778178396797452,-1.0796504059338554, ,0.009838177204164916,-0.0026402361887498927,0.0037173422450408407,0.004118062962828958,0.001198095624638266,0.005059190097786066, ,1.0803029537200928
0.010952684953642905,0.020965813661361753,-0.08228409213427675, ,0.011187521049975275,0.02106460629075506,-0.08245581968810402, ,0.0003072431097788323, ,0.0015702973895597042,0.0010953007379730932,-0.0032798811666651705,-0.0016607753094442204,-0.008291499291475334,-0.0007839561148470155, ,0.0037977806763565616, ,0.008456189138697567, ,3.4757792709619686e-05, ,0.17931413460661888,-0.2298903121999152,0.09303343701000001,1.942357946497149,0.4778178396797452,-1.0794870484535743, ,0.011609960070092512,-0.003017879383159266,0.0036300846672743855,0.004118062962828958,0.001169992496648524,0.006304811688040967, ,1.091592788696289
0.010967377357557562,0.020976556857306636,-0.08231307781194662, ,0.011205028146570085,0.021077478730521317,-0.08249456831359459, ,0.0003155977252767596, ,0.00140340309161891,0.0009023557851834469,-0.0027395889194528253,-0.0008277133083030686,-0.0068456772187404985,-0.004803622893947829, ,0.003207667945440776, ,0.0068955352039999735, ,3.4956035244840136e-05, ,0.17942225286685803,-0.2299212031314121,0.09306584426,1.9425676364406337,0.4778178396797452,-1.0794053697134338, ,0.010716763586501499,-0.00214301322141987,0.003041590895550888,0.007693712139113659,0.0011537247281278244,0.005117403243275538, ,1.1029398441314697
0.010997140175590114,0.02099547031092532,-0.08237299741219649, ,0.011222585575085044,0.021090200952911944,-0.08253342778899474, ,0.00029246782469915297, ,0.0014916702238251857,0.0009413035733234705,-0.00288890091097381,-0.006306579989169431,-0.006444447490353814,-0.0021733185950909718, ,0.0033848014634869686, ,0.009016864999239121, ,3.510755834599419e-05, ,0.17964621212021054,-0.22996753952865745,0.09313195505,1.9425676364406337,0.4778178396797452,-1.0793236909732933, ,0.011431173388979098,-0.0021788818411104037,0.003206282512077295,0.0072238260308371185,0.0011222505905856821,0.011095796803297264, ,1.1170718669891357
0.011011039425059346,0.02100479638920972,-0.08239786582535122, ,0.011240193187965207,0.02110277358588639,-0.08257239757219162, ,0.00030425697819063454, ,0.0014443812007300639,0.0009211932247841828,-0.0021557614076447114,-0.00465079461666989,-0.008298670559873173,-0.0017262954034138979, ,0.0027535688219292812, ,0.009513034404499564, ,3.527714462881062e-05, ,0.17976977584619813,-0.22999843046015434,0.09316047343000002,1.9425676364406337,0.4779544761795107,-1.0794351088769898, ,0.012375867097031978,-0.003950235929884292,0.0024869338829039815,0.006747245201499133,0.0003051318324280403,0.010813262595384263, ,1.1299619674682617
0.011023885804353708,0.021012891455546856,-0.08242049266644201, ,0.01125785083793275,0.021115197256311825,-0.08261147712201254, ,0.00031887485958817193, ,0.001443256465261366,0.0007825091406013392,-0.002375684653395451,-0.010063362669204386,-0.010759610001878443,-0.0019539711284344485, ,0.0028877651137206506, ,0.01473229362756477, ,3.5532959954563077e-05, ,0.1798856168393115,-0.23002159865877703,0.09318639923000001,1.9425676364406337,0.4780911126792762,-1.0794648480405455, ,0.011520813592141651,-0.0019467193753818254,0.002649062285049061,0.006315172487093095,-0.0037662401856605504,0.01309099457314681, ,1.1400408744812012
0.011039234671726655,0.021022115125428266,-0.0824457286893284, ,0.011275558377985872,0.0211274725899689,-0.08265066589822553, ,0.0003300732480299982, ,0.001405683859614992,0.0007312775956095966,-0.0023121936768242526,-0.006205717152523809,-0.012695057256268261,0.000555850979826359, ,0.002803025799768655, ,0.014130654763703268, ,3.580414936427337e-05, ,0.1800091805652991,-0.2300447668573997,0.09321491761,1.9427773263841182,0.4780911126792762,-1.0793014905602645, ,0.011293221653989145,-0.0017572500690592361,0.002570821743060039,0.0016278271650400455,-0.003740973556315243,0.0077415708562841015, ,1.1499137878417969
0.011052198045067102,0.021031390637196667,-0.08246857465588071, ,0.011293315661399135,0.02113960021154957,-0.08268996336153855, ,0.00034476075165269614, ,0.0013351617338369518,0.0009711288278417222,-0.0027382824186157656,-0.006097386072858362,-0.007936234666314056,-0.006860479211215079, ,0.003197489430767198, ,0.010008093597001281, ,3.6096459778437966e-05, ,0.180109576092664,-0.2300756577888966,0.09324084341000001,1.9429870163276024,0.4780911126792762,-1.0792198118201237, ,0.009379200977030676,-0.0029573015485834402,0.003031172506184586,0.0107751986763284,-0.0035969340364724743,0.01073285446527094, ,1.160827875137329
0.011059793427719282,0.021036171395016692,-0.08248520105764463, ,0.011311122541723593,0.021151580744654192,-0.08272936897359706, ,0.00036892223125002216, ,0.0015695720473583247,0.0010281436159635705,-0.00336945558636302,-0.009657862537182642,-0.008708453225209578,-0.0060335967596957096, ,0.0038566652246945434, ,0.013004286444417864, ,3.642590021962299e-05, ,0.18016363522278359,-0.23008338052177083,0.09325899147000001,1.9429870163276024,0.4780911126792762,-1.0791381330799832, ,0.010795636749012395,-0.0018524268028487908,0.00368296220115607,0.0107751986763284,-0.003522493810735506,0.013486104307396543, ,1.1716649532318115
0.011087639127615003,0.021053558339050683,-0.08254628797930444, ,0.011328978872785146,0.021163414811803154,-0.08276888219698715, ,0.00034621020052878613, ,0.001734420535797481,0.0012856164561607076,-0.0042048251456717305,-0.003754037603485765,-0.006107612777799099,-0.005585602701824062, ,0.004726687928456937, ,0.007169081590935006, ,3.6710268849485506e-05, ,0.18034898081176498,-0.2301142714532677,0.09332510226000001,1.9429870163276024,0.4779544761795107,-1.078781678955865, ,0.011364903180655183,-0.002385062796373391,0.00458911308556612,0.010067211800226617,0.0011690246150896616,0.009073698357159338, ,1.180898904800415
0.01110613344053968,0.0210664268558036,-0.0825903771450773, ,0.011346884508685685,0.021175103034426965,-0.08280850249523096, ,0.00034256423776172964, ,0.001957516578377883,0.0013695480473384265,-0.004521908703375773,-0.003806743229366679,-0.008211782287603659,-0.0049354116554767916, ,0.005114214634746797, ,0.009051224252148975, ,3.698348687957881e-05, ,0.18047254453775258,-0.2301374396518904,0.09337306499,1.9429870163276024,0.4779544761795107,-1.078781678955865, ,0.013316999938039682,-0.002449325499051278,0.0049437652141527,0.009400072357803177,0.0011690246150896616,0.009073698357159338, ,1.1901028156280518
0.011124059031192849,0.02107801108963475,-0.08263486864255679, ,0.01136483930380272,0.021186646032869783,-0.08284822933278826, ,0.00033955776343034145, ,0.0018358284470682085,0.0012379422975751578,-0.004616726873577725,-0.005553248203304298,-0.0066962920585469776,-0.0046908106646963085, ,0.005120247478824172, ,0.008699361519301962, ,3.72469286666869e-05, ,0.18058838553086592,-0.23014516238476462,0.09342102772000001,1.9429870163276024,0.4779544761795107,-1.078781678955865, ,0.011671548917206212,-0.0007746730498634149,0.00498710442078898,0.008830233581499617,0.0011690246150896616,0.009073698357159338, ,1.2012310028076172
0.011143082391276923,0.02109197493911556,-0.08267995111361855, ,0.01138284311278799,0.021198044426395807,-0.08288806217505548, ,0.0003347329586458583, ,0.001824594445974621,0.0012730067412691896,-0.004541827336368674,-0.005630864566204662,-0.00839033127223197,0.001744925057896928, ,0.005057458512828751, ,0.010104666876650781, ,3.749777041552545e-05, ,0.18071194925685352,-0.2301683305833873,0.09347028674,1.9431967062710873,0.4779544761795107,-1.078781678955865, ,0.011807775345082934,-0.0016730382724834561,0.004922376860321385,0.0021961131649318208,0.0011690246150896616,0.008855205438301926, ,1.2122528553009033
0.011163209996388628,0.02110653246835521,-0.08272742635896976, ,0.011400895790568797,0.02120929883318124,-0.08292800048836499, ,0.0003275445677724902, ,0.001682447398347489,0.0011350981333949606,-0.0037521519855671583,-0.0041777539918228315,-0.006424698793491566,-0.005726259809306794, ,0.004265878753954281, ,0.007663575031248548, ,3.773236960429407e-05, ,0.18084323571571534,-0.23019149878200995,0.09352213834,1.9434063962145716,0.4779544761795107,-1.0787000002157245, ,0.011675312691740991,-0.0018785719389133786,0.004110661037419356,0.010090705150758814,0.0011690246150896616,0.009000764508836332, ,1.2215099334716797
0.011179089187850186,0.02111631066784292,-0.08276267757826496, ,0.011418997192346526,0.02122040987032272,-0.08296804373998387, ,0.0003325173002379056, ,0.001653189342231669,0.0009708272863410716,-0.0033977845197579737,-0.0009485802328084504,-0.006520339919775302,-0.006998350444111887, ,0.0039013433922021872, ,0.0065889784242031384, ,3.7971332149504094e-05, ,0.18096679944170294,-0.23019922151488417,0.09356102704000001,1.9434063962145716,0.4780911126792762,-1.0787297393792805, ,0.01221324859182378,-0.000912952976536665,0.0037312746591707663,0.010090705150758814,0.002605087985811721,0.004902361974821185, ,1.231515884399414
0.011195436684859358,0.021126473191883273,-0.08279830477508636, ,0.011437147173597315,0.021231378153832175,-0.08300819139811415, ,0.00033687001340791927, ,0.0016649208428523242,0.0010318136906849727,-0.0035571904404972693,-0.001975473834422623,-0.0060062335776126345,-0.006433537133091742, ,0.004060813309574105, ,0.006322763485199727, ,3.821352877662172e-05, ,0.1810826404348163,-0.23021466698063264,0.09359991574000001,1.9434063962145716,0.4780911126792762,-1.0786480606391398, ,0.011996989455281807,-0.0011778587795917544,0.0039012519030124913,0.010090705150758814,0.002605087985811721,0.006322112982593961, ,1.2419228553771973
0.011207414472686049,0.02113427032010199,-0.08282434387851129, ,0.011455345590071029,0.021242204298643024,-0.08304844293189213, ,0.00035119790491637727, ,0.0017031207657867207,0.001097767776028095,-0.0037188690856556697,-0.0005277360469457028,-0.006364431309292165,-0.006838663981818706, ,0.004235056281702175, ,0.006386273601611629, ,3.847517952994405e-05, ,0.18116759049643277,-0.23023011244638109,0.09362843412,1.9434063962145716,0.4780911126792762,-1.0785663818989992, ,0.012090311185387259,-0.001483533487005515,0.004078036743471582,0.010090705150758814,0.002605087985811721,0.005058597994616538, ,1.2534527778625488
0.011230376562989012,0.02114733992764383,-0.08287450302312081, ,0.01147359229779146,0.021252888918607462,-0.08308879781138724, ,0.00034090576326470124, ,0.001709210212013239,0.0011000998709644713,-0.0037991005716803703,-0.0020633815303184966,-0.0059352663806173924,-0.006330644104095368, ,0.0043086870887415925, ,0.006283703490548562, ,3.871590864763446e-05, ,0.18132976788679148,-0.2302378351792553,0.09368287830000001,1.9434063962145716,0.4780911126792762,-1.078403024418718, ,0.011973465842607245,-0.0012950173430435273,0.004156787974947809,0.010090705150758814,0.002605087985811721,0.006547694701729871, ,1.2635059356689453
0.011246747179105248,0.021157712664480178,-0.08291222502616319, ,0.011491887153056747,0.021263432626494033,-0.08312925550760078, ,0.00034405311664070895, ,0.0017683122371145348,0.0010394708938106928,-0.003850467758655565,0.00033954374428267855,-0.005291422954380811,-0.006239476161266912, ,0.004362743387761263, ,0.005302305723932337, ,3.8957827575934356e-05, ,0.18145333161277907,-0.23024555791212953,0.09372435958000001,1.9434063962145716,0.47822774917904154,-1.078432763582274, ,0.012777291175235057,-0.0004022070771263095,0.004208404628797887,0.00942812850308252,0.005035922396812162,0.0036613570249775193, ,1.2736148834228516
0.011264504630784917,0.021169474133059005,-0.08295209821288074, ,0.011510230012437358,0.021273836033998985,-0.08316981549246746, ,0.0003444897435145005, ,0.0019408146234918989,0.0010589966146499694,-0.003980708629346388,-0.006508743228246823,-0.00771591153828388,-8.823345448176088e-05, ,0.004553490575849794, ,0.010094504855530415, ,3.9259198874993084e-05, ,0.18172362726337693,-0.23025328064500375,0.09381121101,1.9436160861580565,0.478364385678807,-1.0783808240056891, ,0.014470408898821407,-0.00045362076856733413,0.004356895929978119,0.0050879287673492235,0.003853289667408641,0.010008474664900166, ,1.287923812866211
0.011302470398994107,0.02119073889802,-0.08303181277713954, ,0.011528620732777696,0.021284099751735855,-0.08321047723885276, ,0.0003029541423322284, ,0.0019408146234918989,0.0010589966146499694,-0.003980708629346388,-0.006508743228246823,-0.00771591153828388,-8.823345448176088e-05, ,0.004553490575849794, ,0.010094504855530415, ,3.9490813711234755e-05, ,0.18185491372223875,-0.23026100337787797,0.09385528487000001,1.9438257761015407,0.478364385678807,-1.0782991452655486, ,0.012580795646091844,-0.0002214306085202664,0.004349757378481704,0.00392558857241807,0.003853289667408641,0.005802209370922804, ,1.296475887298584
0.011302470398994107,0.02119073889802,-0.08303181277713954, ,0.011547059171195136,0.0212942243892406,-0.08325124022055239, ,0.00034450154905699896, ,0.0017831228183073826,0.0010335732340783174,-0.004001022407718702,-0.0031233402441327588,-0.006973207099606365,-0.0005480767727989479, ,0.0045006644978757004, ,0.0076407375631748105, ,3.978503815005504e-05, ,0.18185491372223875,-0.23026100337787797,0.09385528487000001,1.9438257761015407,0.478364385678807,-1.0782991452655486, ,0.012580795646091844,-0.0002214306085202664,0.004349757378481704,0.00392558857241807,0.003853289667408641,0.005802209370922804, ,1.304358959197998
0.011320694738139854,0.021201740749244493,-0.08307369776242174, ,0.011565545185078886,0.02130421055497806,-0.08329210391229405, ,0.00034373397963449335, ,0.0019295559509113704,0.0011997199555508745,-0.004633867761522604,-0.005231443627546539,-0.006788127930517792,0.0003891022174986416, ,0.0051609344668115086, ,0.008570103913763115, ,4.007437016735014e-05, ,0.18197847744822634,-0.2302687261107522,0.09390065502000002,1.9438257761015407,0.478364385678807,-1.0781357877852675, ,0.012919937584543332,-0.0003821711939034697,0.005018529149338374,0.00392558857241807,0.003853289667408641,0.008299396384885058, ,1.3119878768920898
0.011339814439436633,0.021214779535307038,-0.08312248672856366, ,0.011584078632091925,0.02131405885632939,-0.08333306778973272, ,0.00033744001351245683, ,0.001973785351158308,0.001256623663287625,-0.004782855599774786,-0.003971031009016305,-0.007203825742499802,2.0743423498270457e-05, ,0.005324531841568662, ,0.00822582458480687, ,4.035029311570381e-05, ,0.18210976390708816,-0.23027644884362644,0.09395380291000001,1.9438257761015407,0.47850102217857243,-1.078247205688964, ,0.013101883412739304,-0.0006157142498680623,0.005181786441119064,0.00392558857241807,0.0038583649156382193,0.007165707115635462, ,1.3202109336853027
0.011355633805193673,0.021224508568733008,-0.08316043784938279, ,0.011602659370168616,0.02132376989960629,-0.08337413132945405, ,0.0003413785947930713, ,0.0018331339310164653,0.0011317053264483991,-0.004209292768859219,0.0018105623662120509,-0.004094504612562585,-0.00047746041962442557, ,0.004728560306153033, ,0.004476952398988076, ,4.062889593664848e-05, ,0.18222560490020154,-0.23027644884362644,0.09399528419000001,1.9438257761015407,0.4786376586783379,-1.0783586235926605, ,0.013083819324206644,-0.0006108431505817247,0.004598386697459584,0.00392558857241807,0.008375339162698,0.002382199033538118, ,1.3320848941802979
0.011355633805193673,0.021224508568733008,-0.08316043784938279, ,0.011621287257515624,0.021333344290043844,-0.08341529400897098, ,0.000383886224087113, ,0.0018331339310164653,0.0011317053264483991,-0.004209292768859219,0.0018105623662120509,-0.004094504612562585,-0.00047746041962442557, ,0.004728560306153033, ,0.004476952398988076, ,4.096946615255697e-05, ,0.18222560490020154,-0.23027644884362644,0.09399528419000001,1.9438257761015407,0.4786376586783379,-1.0783586235926605, ,0.013083819324206644,-0.0006108431505817247,0.004598386697459584,0.00392558857241807,0.008375339162698,0.002382199033538118, ,1.3398067951202393
0.011395800322001211,0.021247792104432457,-0.08325144811940782, ,0.011639962152611415,0.021342782631804183,-0.08345655530672441, ,0.000332726852096741, ,0.0017979891497515515,0.0010610535587534612,-0.003823888936867314,0.005836534621346561,-0.004697717097036996,-0.004164829943950498, ,0.0043566875305286615, ,0.007492241419788747, ,4.122764503250577e-05, ,0.1824959005507994,-0.23027644884362644,0.09409380223000001,1.9440354660450252,0.4786376586783379,-1.0780319086320982, ,0.013431980404596006,-0.0007254540920053239,0.0042061820755215215,0.006341330290991456,0.008375339162698,-0.001457155015346991, ,1.3472788333892822
0.011395800322001211,0.021247792104432457,-0.08325144811940782, ,0.011658683914205985,0.021352085527976752,-0.08349791470208223, ,0.00037514087703191827, ,0.0017979891497515515,0.0010610535587534612,-0.003823888936867314,0.005836534621346561,-0.004697717097036996,-0.004164829943950498, ,0.0043566875305286615, ,0.007492241419788747, ,4.154714396396762e-05, ,0.18264263247540966,-0.23028417157650066,0.09413917238000001,1.9440354660450252,0.4787742951781033,-1.078061647795654, ,0.015113384545066218,0.0005443655347029316,0.005095589097888676,0.006115605623446321,0.005912844257958787,0.002486865650606707, ,1.3547837734222412
0.011414880669105126,0.021259057480391304,-0.08329259938026112, ,0.011677452401320567,0.021361253580579092,-0.08353937167533894, ,0.0003745457556429947, ,0.0021213950568261435,0.0011519305868139345,-0.004690791289421869,0.00018099383649268605,-0.007834965112218794,-0.0034223433465114623, ,0.005275488980642455, ,0.007837055238255237, ,4.186188290624424e-05, ,0.18264263247540966,-0.23028417157650066,0.09413917238000001,1.9440354660450252,0.4787742951781033,-1.078061647795654, ,0.015113384545066218,0.0005443655347029316,0.005095589097888676,0.006115605623446321,0.005912844257958787,0.002486865650606707, ,1.3627479076385498
0.011435838530975859,0.021272041677149984,-0.08334383638250249, ,0.011696267473247505,0.021370287390558015,-0.08358092570771472, ,0.0003656320586400637, ,0.002257715376322781,0.0013956602636044846,-0.005700511661306212,-0.0017950974851696547,-0.005028483966922518,-0.001450218096361995, ,0.006288161853242724, ,0.005339290211932447, ,4.2159457271131754e-05, ,0.18278936440001992,-0.23028417157650066,0.09419491285,1.9440354660450252,0.4789109316778688,-1.07809138695921, ,0.014699030600754457,0.0005443655347029316,0.006152495758980302,0.0057308108809927235,0.007992001303016512,0.005322622613369091, ,1.3746249675750732
0.01145470190861972,0.021285231365058086,-0.08339261009300077, ,0.011715128989550372,0.02137918755778748,-0.08362257628135397, ,0.0003599089863006556, ,0.0022606580170028766,0.0014125257133207304,-0.005717447068243148,0.005364184178950044,-0.001702675557664196,0.0007209322576698606, ,0.006308328188893931, ,0.005627927669292968, ,4.2444936610260306e-05, ,0.1829129281260075,-0.23028417157650066,0.09424806074000001,1.9442451559885099,0.47904756817763416,-1.0782028048629062, ,0.015303490011041896,0.0004902479276354132,0.006197981136186771,0.0030106030594834617,0.014423420758522041,-0.0007673063771342723, ,1.3829169273376465
0.011480609280496988,0.021302062194727703,-0.08345970530609724, ,0.011734036810062477,0.02138795468107714,-0.08366432287932792, ,0.0003368551368582138, ,0.00207967797055858,0.0014280240962211421,-0.005819111198151279,0.0033415420152227196,-0.0016926340754456056,0.000293095419640502, ,0.006342426067134286, ,0.003745785162077473, ,4.2692822946190824e-05, ,0.18308282824924046,-0.23028417157650066,0.09432065298,1.9442451559885099,0.47918420467739964,-1.0783142227666027, ,0.012659677369059603,0.0004118940639210028,0.00626378746362564,0.0030106030594834617,0.0112419768573822,0.00042416117437508224, ,1.3908398151397705
0.011504338501707099,0.02131531857826484,-0.08351641710268111, ,0.01175299079488864,0.021396589358160963,-0.08370616498562847, ,0.00032316738952494585, ,0.002175738726524204,0.001156887591357304,-0.004542234004178657,0.0010488777914036099,-0.0049687358259918385,0.001358042575396919, ,0.00516760269891664, ,0.005078235756272017, ,4.291759595170732e-05, ,0.18323728290672495,-0.23027644884362644,0.09438157861,1.9442451559885099,0.47918420467739964,-1.0781508652863216, ,0.016523932014360226,0.0001577090959063477,0.0049824246230841425,0.0030106030594834617,0.0112419768573822,0.0032254615113632944, ,1.3990459442138672
0.011504338501707099,0.02131531857826484,-0.08351641710268111, ,0.011771990804402855,0.021405092185710982,-0.08374810208517333, ,0.00036520540363561995, ,0.002175738726524204,0.001156887591357304,-0.004542234004178657,0.0010488777914036099,-0.0049687358259918385,0.001358042575396919, ,0.00516760269891664, ,0.005078235756272017, ,4.3264809778110396e-05, ,0.18323728290672495,-0.23027644884362644,0.09438157861,1.9442451559885099,0.47918420467739964,-1.0781508652863216, ,0.016523932014360226,0.0001577090959063477,0.0049824246230841425,0.0030106030594834617,0.0112419768573822,0.0032254615113632944, ,1.4046449661254883
0.011525293560993858,0.021325674326799146,-0.08355807093275366, ,0.011791036699249764,0.02141346375932721,-0.08379013366380156, ,0.0003635650026269084, ,0.002113123323944632,0.0010886663050462268,-0.004257190688261462,0.0017260291543515125,-0.004994114951914485,0.0010870692955574997, ,0.00487587500477216, ,0.0052839719337122145, ,4.3606579622105394e-05, ,0.18339173756420943,-0.23027644884362644,0.09442694876,1.9442451559885099,0.47918420467739964,-1.0781508652863216, ,0.016392631120827564,0.0001577090959063477,0.004683567044986769,0.0030106030594834617,0.0112419768573822,0.0024792168703113935, ,1.4141108989715576
0.011532343149156684,0.021328928990624205,-0.08357109759711852, ,0.011810128340343232,0.02142170467354649,-0.0838322592082746, ,0.00039239944817224577, ,0.0022277652216268853,0.0011200489410872158,-0.004376273918357586,0.006269146819434366,-0.0071191070056079095,-0.000731102855923229, ,0.0050367867655498125, ,0.009485983596641113, ,4.398733611308928e-05, ,0.183445796694329,-0.23027644884362644,0.09444120795000001,1.9442451559885099,0.47918420467739964,-1.078069186546181, ,0.01746676634612015,0.0001577090959063477,0.004821068861985473,0.0030106030594834617,0.0112419768573822,-0.0025258646929482214, ,1.4243848323822021
0.011551131665487704,0.02133945581784561,-0.08360841795214437, ,0.01182926558886678,0.021429815521838463,-0.08387447820627522, ,0.0003953623834763344, ,0.0024805739280732166,0.0012799080937810554,-0.00501629540205377,-0.002194931558420433,-0.00954587974147736,-0.0025050141444709463, ,0.005740612450063899, ,0.009794975314345703, ,4.436907578720097e-05, ,0.18359252861893927,-0.23027644884362644,0.09448268923000001,1.9444548459319944,0.4793208411771651,-1.078098925709737, ,0.018549050343719856,0.00015204876489436134,0.005492693627586208,0.006828367255004508,0.006823283001930468,0.005996953250776942, ,1.4303998947143555
0.011598735644328496,0.02136498286980379,-0.08370263465401144, ,0.011848448306273508,0.02143779689660533,-0.08391679014640602, ,0.0003369285843579958, ,0.00231786656606012,0.0012252372834978416,-0.004660324785337535,0.004838680365255111,-0.007605996905200177,-0.01200924263283016, ,0.005347180464858451, ,0.009014655534225952, ,4.466319029946128e-05, ,0.18394777433115359,-0.23027644884362644,0.09458639243000001,1.9448742258189633,0.47945747767693053,-1.0781286648732928, ,0.017260265834570892,0.00013377848513836823,0.0051168684612913585,0.014491782679837577,0.00703733194759896,-0.00014844783772354858, ,1.435990810394287
0.011598735644328496,0.02136498286980379,-0.08370263465401144, ,0.01186767635428459,0.021445649389190826,-0.08395919451819117, ,0.000380340842836566, ,0.00231786656606012,0.0012252372834978416,-0.004660324785337535,0.004838680365255111,-0.007605996905200177,-0.01200924263283016, ,0.005347180464858451, ,0.009014655534225952, ,4.501714327638396e-05, ,0.18394777433115359,-0.23027644884362644,0.09458639243000001,1.9448742258189633,0.47945747767693053,-1.0781286648732928, ,0.017260265834570892,0.00013377848513836823,0.0051168684612913585,0.014491782679837577,0.00703733194759896,-0.00014844783772354858, ,1.44154691696167
0.011621875209163057,0.021377164617596714,-0.08375240413344012, ,0.01188694959489076,0.021453373589870803,-0.0840016908120733, ,0.0003717742400543024, ,0.002440298108993696,0.0012680788172219808,-0.005423274764634995,-0.001762776254366626,-0.01554891379870967,0.015144772246073628, ,0.006080706202421892, ,0.015648517365910504, ,4.535580251848002e-05, ,0.18411767445438654,-0.23026100337787797,0.09464083661000001,1.9450839157624478,0.479594114176696,-1.0782400827769894, ,0.017383576031960207,0.0003409650857341104,0.005871290645042389,-0.014059867187292265,0.0053988286830630155,0.0007182834466916391, ,1.4475789070129395
0.011621875209163057,0.021377164617596714,-0.08375240413344012, ,0.011906267890350848,0.02146097008786035,-0.08404427851941414, ,0.0004160447225323233, ,0.002440298108993696,0.0012680788172219808,-0.005423274764634995,-0.001762776254366626,-0.01554891379870967,0.015144772246073628, ,0.006080706202421892, ,0.015648517365910504, ,4.575463060249268e-05, ,0.18411767445438654,-0.23026100337787797,0.09464083661000001,1.9450839157624478,0.479594114176696,-1.0782400827769894, ,0.017383576031960207,0.0003409650857341104,0.005871290645042389,-0.014059867187292265,0.0053988286830630155,0.0007182834466916391, ,1.4533798694610596
0.011644967458186243,0.02139103582414422,-0.08380713916017078, ,0.011925631103192454,0.02146843947131071,-0.08408695713249327, ,0.0004038087466332488, ,0.0028073937942253695,0.0015202283481767296,-0.006467550334505494,-0.0023499671189333464,-0.018143235680752913,0.015040017153918922, ,0.007212611279960774, ,0.018294789835121183, ,4.613270841075618e-05, ,0.18411767445438654,-0.23026100337787797,0.09464083661000001,1.9450839157624478,0.479594114176696,-1.0782400827769894, ,0.017383576031960207,0.0003409650857341104,0.005871290645042389,-0.014059867187292265,0.0053988286830630155,0.0007182834466916391, ,1.4617908000946045
0.011662312189382955,0.02140079917234012,-0.08384673204753716, ,0.011945039096210586,0.021475782327314556,-0.08412972614450823, ,0.00040699218210514646, ,0.0029646270296657604,0.0016989222770913703,-0.007210449593426704,-0.002973330403933974,-0.018194961537692317,0.015294147573953736, ,0.007979093536735203, ,0.01843630384754672, ,4.6512078547582275e-05, ,0.18439569283785862,-0.23026100337787797,0.09474324352,1.9450839157624478,0.4797307506764614,-1.078269821940545, ,0.01949002701960788,0.0003310353335399855,0.007762578713450294,-0.014059867187292265,0.004560973228711482,0.001762310219031059, ,1.4685919284820557
0.011662312189382955,0.02140079917234012,-0.08384673204753716, ,0.011964491732468698,0.02148299924190174,-0.08417258504957295, ,0.0004519397157046276, ,0.0029646270296657604,0.0016989222770913703,-0.007210449593426704,-0.002973330403933974,-0.018194961537692317,0.015294147573953736, ,0.007979093536735203, ,0.01843630384754672, ,4.6951464595489276e-05, ,0.18439569283785862,-0.23026100337787797,0.09474324352,1.9450839157624478,0.4797307506764614,-1.078269821940545, ,0.01949002701960788,0.0003310353335399855,0.007762578713450294,-0.014059867187292265,0.004560973228711482,0.001762310219031059, ,1.474247932434082
0.011709134648376304,0.021428513425731502,-0.08396069463853009, ,0.011983988875296961,0.021490090800047178,-0.08421553334271921, ,0.00037984126189311414, ,0.002872182847293305,0.0016127349023638425,-0.006631651648427306,0.013159671744453736,-0.011703736692591967,0.013625184635706333, ,0.007404670942025513, ,0.017611200985872228, ,4.7286180097039205e-05, ,0.1847046021528276,-0.23025328064500375,0.09486639107000001,1.9450839157624478,0.47986738717622685,-1.0782995611041009, ,0.020643232881981895,0.00013968508037058935,0.007217404404168555,-0.014059867187292265,0.01612814193140691,-0.01172574293210739, ,1.479759931564331
0.011709134648376304,0.021428513425731502,-0.08396069463853009, ,0.012003530388294426,0.021497057585658112,-0.084258570519891, ,0.00042437859776209145, ,0.0029951550450575083,0.0015340599454070336,-0.006050030327197522,0.008865157623635678,-0.011671274533206263,-0.010546002517273079, ,0.006922944505053138, ,0.014656386349156005, ,4.7680210860597054e-05, ,0.1849208386733059,-0.23024555791212953,0.09493639073000001,1.9448742258189633,0.48000402367599226,-1.0783293002676566, ,0.02225538029044812,0.000515063004736705,0.006631478567860118,0.012001936686516288,0.009707556860227343,-0.004532975599194999, ,1.485860824584961
0.01173844057785359,0.021443297810147626,-0.08402510583868647, ,0.012023116135325774,0.021503900181592796,-0.08430169607795115, ,0.0004015158538630472, ,0.0029951550450575083,0.0015340599454070336,-0.006050030327197522,0.008865157623635678,-0.011671274533206263,-0.010546002517273079, ,0.006922944505053138, ,0.014656386349156005, ,4.803920422348769e-05, ,0.1849208386733059,-0.23024555791212953,0.09493639073000001,1.9448742258189633,0.48000402367599226,-1.0783293002676566, ,0.02225538029044812,0.000515063004736705,0.006631478567860118,0.012001936686516288,0.009707556860227343,-0.004532975599194999, ,1.4917888641357422
0.01173844057785359,0.021443297810147626,-0.08402510583868647, ,0.012042745980523219,0.02151061916964793,-0.08434490951467424, ,0.0004465516036408179, ,0.0029951550450575083,0.0015340599454070336,-0.006050030327197522,0.008865157623635678,-0.011671274533206263,-0.010546002517273079, ,0.006922944505053138, ,0.014656386349156005, ,4.85246241614293e-05, ,0.1849208386733059,-0.23024555791212953,0.09493639073000001,1.9448742258189633,0.48000402367599226,-1.0783293002676566, ,0.02225538029044812,0.000515063004736705,0.006631478567860118,0.012001936686516288,0.009707556860227343,-0.004532975599194999, ,1.4960479736328125
0.011770052883266775,0.02145976690905614,-0.08409280492056331, ,0.012062419788285364,0.021517215130565964,-0.08438821032875055, ,0.0004195748568385091, ,0.0031656566811877583,0.0016439236163942076,-0.0066882675189826055,0.0016215834503429851,-0.014498304028765837,-0.008554466189763103, ,0.0075800256915900385, ,0.014588705878641221, ,4.897010152125755e-05, ,0.1851525206595326,-0.2302378351792553,0.09501027926000001,1.9448742258189633,0.48014066017575774,-1.0783590394312126, ,0.02247145194375344,0.0008276343268600359,0.007280078391224864,0.010985316141186023,0.005685695031277125,0.001491058124091197, ,1.5007297992706299
0.011770052883266775,0.02145976690905614,-0.08409280492056331, ,0.012082137423277578,0.02152368864403085,-0.08443159801978178, ,0.00046504140933253176, ,0.0031656566811877583,0.0016439236163942076,-0.0066882675189826055,0.0016215834503429851,-0.014498304028765837,-0.008554466189763103, ,0.0075800256915900385, ,0.014588705878641221, ,4.9475750565734154e-05, ,0.1851525206595326,-0.2302378351792553,0.09501027926000001,1.9448742258189633,0.48014066017575774,-1.0783590394312126, ,0.02247145194375344,0.0008276343268600359,0.007280078391224864,0.010985316141186023,0.005685695031277125,0.001491058124091197, ,1.5049748420715332
0.011796200076449062,0.021473508558640605,-0.08415252043147894, ,0.012101898750431593,0.02153004028867165,-0.0844750720882826, ,0.0004479811235775066, ,0.003234174143074958,0.00186127639124499,-0.007710465990196152,0.011867935756084792,-0.006410550638794757,-0.007784265921725456, ,0.00856595108428201, ,0.013488625999367385, ,4.995518686030289e-05, ,0.185337866248514,-0.23022238971350686,0.09507509376,1.9448742258189633,0.48027729667552316,-1.078307099854628, ,0.02196688462001638,0.0013762306168198432,0.008365972436974792,0.009955907538403076,0.01624985733455336,-0.006866409183542766, ,1.5088818073272705
0.011796200076449062,0.021473508558640605,-0.08415252043147894, ,0.012121703634944298,0.021536270642066667,-0.08451863203568016, ,0.0004938920453295755, ,0.003234174143074958,0.00186127639124499,-0.007710465990196152,0.011867935756084792,-0.006410550638794757,-0.007784265921725456, ,0.00856595108428201, ,0.013488625999367385, ,5.0494887780315185e-05, ,0.185337866248514,-0.23022238971350686,0.09507509376,1.9448742258189633,0.48027729667552316,-1.078307099854628, ,0.02196688462001638,0.0013762306168198432,0.008365972436974792,0.009955907538403076,0.01624985733455336,-0.006866409183542766, ,1.5126419067382812
0.011834688548328164,0.021497892071435997,-0.08424985297133321, ,0.012141551942279016,0.021542380280738065,-0.08456227736431206, ,0.0004401742207832519, ,0.003636058779723183,0.0023652190890932332,-0.009267373390310737,0.03684523497490391,0.009356213729864414,-0.005961726925022481, ,0.010232272198512539, ,0.038014602554251924, ,5.095825450876139e-05, ,0.18560816189911186,-0.23021466698063264,0.09518138954000001,1.9448742258189633,0.48068720617481947,-1.0785596748255766, ,0.02547568900898544,0.0007314751408671413,0.010139281680458308,0.008786109133842257,0.04197653976649372,-0.02484342083273961, ,1.5163707733154297
0.011834688548328164,0.021497892071435997,-0.08424985297133321, ,0.012161443538163948,0.021548369780157617,-0.08460600757742749, ,0.0004859659719595011, ,0.003636058779723183,0.0023652190890932332,-0.009267373390310737,0.03684523497490391,0.009356213729864414,-0.005961726925022481, ,0.010232272198512539, ,0.038014602554251924, ,5.1481482659908505e-05, ,0.18560816189911186,-0.23021466698063264,0.09518138954000001,1.9448742258189633,0.48068720617481947,-1.0785596748255766, ,0.02547568900898544,0.0007314751408671413,0.010139281680458308,0.008786109133842257,0.04197653976649372,-0.02484342083273961, ,1.5201148986816406
0.011834688548328164,0.021497892071435997,-0.08424985297133321, ,0.012181378288593486,0.021554239714740974,-0.08464982217918386, ,0.0005323008549119008, ,0.003636058779723183,0.0023652190890932332,-0.009267373390310737,0.03684523497490391,0.009356213729864414,-0.005961726925022481, ,0.010232272198512539, ,0.038014602554251924, ,5.206482218381079e-05, ,0.18560816189911186,-0.23021466698063264,0.09518138954000001,1.9448742258189633,0.48068720617481947,-1.0785596748255766, ,0.02547568900898544,0.0007314751408671413,0.010139281680458308,0.008786109133842257,0.04197653976649372,-0.02484342083273961, ,1.5238938331604004
0.01187299381913235,0.02152094138878599,-0.08434728136193068, ,0.012201356059825941,0.02155999065785831,-0.08469372067464971, ,0.0004789225448082762, ,0.004231949609564932,0.002597066651289026,-0.011119053814916948,0.004829659867390817,-0.013692686486929034,0.0017681617035493126, ,0.012177335933124023, ,0.014519473396338231, ,5.257267164240246e-05, ,0.18584756661821283,-0.23019149878200995,0.09528638903000002,1.9450839157624478,0.48082384267458494,-1.078507735248992, ,0.02593521223243257,0.001872326297335213,0.011949596039009755,0.000908147210797473,0.013813245816010762,-0.0022966677841164728, ,1.528263807296753
0.01187299381913235,0.02152094138878599,-0.08434728136193068, ,0.012221376718385317,0.02156562318182477,-0.08473770256980112, ,0.0005251626668719704, ,0.004231949609564932,0.002597066651289026,-0.011119053814916948,0.004829659867390817,-0.013692686486929034,0.0017681617035493126, ,0.012177335933124023, ,0.014519473396338231, ,5.314026262022295e-05, ,0.18584756661821283,-0.23019149878200995,0.09528638903000002,1.9450839157624478,0.48082384267458494,-1.078507735248992, ,0.02593521223243257,0.001872326297335213,0.011949596039009755,0.000908147210797473,0.013813245816010762,-0.0022966677841164728, ,1.5320119857788086
0.01187299381913235,0.02152094138878599,-0.08434728136193068, ,0.012241440131059576,0.02157113785790938,-0.08478176737152257, ,0.0005718832597797536, ,0.004703791569492486,0.0028791490923748006,-0.012794556608516973,-0.011499900070531971,-0.01798923293102641,-0.001011103075450972, ,0.013932545834623928, ,0.02135087492847872, ,5.376775956704143e-05, ,0.18584756661821283,-0.23019149878200995,0.09528638903000002,1.9450839157624478,0.48082384267458494,-1.078507735248992, ,0.02593521223243257,0.001872326297335213,0.011949596039009755,0.000908147210797473,0.013813245816010762,-0.0022966677841164728, ,1.5362448692321777
0.011922483005698654,0.021551608887700344,-0.08447894496817698, ,0.01226154616490133,0.021576535256330305,-0.08482591458760623, ,0.0004857705904935498, ,0.004703791569492486,0.0028791490923748006,-0.012794556608516973,-0.011499900070531971,-0.01798923293102641,-0.001011103075450972, ,0.013932545834623928, ,0.02135087492847872, ,5.427614003929877e-05, ,0.18614103046743335,-0.23016060785051307,0.09542768464000001,1.9452936057059325,0.48096047917435036,-1.0784557956724072, ,0.02679190896625375,0.003198629763526261,0.01366107334476844,0.006614890037409165,0.005185024604705787,0.01234559970937926, ,1.5405559539794922
0.011922483005698654,0.021551608887700344,-0.08447894496817698, ,0.012281694687227245,0.021581815946257903,-0.08487014372675004, ,0.0005319604940617312, ,0.004703791569492486,0.0028791490923748006,-0.012794556608516973,-0.011499900070531971,-0.01798923293102641,-0.001011103075450972, ,0.013932545834623928, ,0.02135087492847872, ,5.484371137171584e-05, ,0.18614103046743335,-0.23016060785051307,0.09542768464000001,1.9452936057059325,0.48096047917435036,-1.0784557956724072, ,0.02679190896625375,0.003198629763526261,0.01366107334476844,0.006614890037409165,0.005185024604705787,0.01234559970937926, ,1.5462689399719238
0.011942624148980886,0.021565319676416676,-0.08453275219834565, ,0.012301885565617537,0.021586980495817337,-0.08491445429855993, ,0.0005246279156591589, ,0.004797596568299216,0.002958835208655597,-0.012811588975518285,0.002724396317507636,-0.010444145652264189,-0.0055106670744049365, ,0.013996730000316433, ,0.01079361702789706, ,5.539844465101494e-05, ,0.18626459419342095,-0.23015288511763884,0.09548601769000001,1.945503295649417,0.48109711567411584,-1.078485534835963, ,0.028765365734607695,0.0029688233506260284,0.0137554503626943,0.01084638215138875,0.017036558792669326,0.0019513452341615497, ,1.550346851348877
0.011942624148980886,0.021565319676416676,-0.08453275219834565, ,0.012322118667916509,0.02159202947208456,-0.08495884581354513, ,0.0005712138583757926, ,0.004797596568299216,0.002958835208655597,-0.012811588975518285,0.002724396317507636,-0.010444145652264189,-0.0055106670744049365, ,0.013996730000316433, ,0.01079361702789706, ,5.60123339431133e-05, ,0.18626459419342095,-0.23015288511763884,0.09548601769000001,1.945503295649417,0.48109711567411584,-1.078485534835963, ,0.028765365734607695,0.0029688233506260284,0.0137554503626943,0.01084638215138875,0.017036558792669326,0.0019513452341615497, ,1.554060935974121
0.01201419157942931,0.021610156344406127,-0.08472616238883562, ,0.012342393862231103,0.021596963441094182,-0.08500331778312226, ,0.000429774247386095, ,0.004441324380634951,0.0026187577212120412,-0.011627076610300864,0.03013056801770273,0.0032665942295594073,0.021333023576351362, ,0.012718968698689196, ,0.030307120523617326, ,5.643487327755461e-05, ,0.18671251270012598,-0.23009882598751927,0.09569472038000001,1.9457129855929016,0.48164366167317757,-1.0789312064507488, ,0.03027015679696038,0.0032261814791661662,0.012601907848101265,-0.018289770188784006,0.04712000727477917,-0.023691778916223524, ,1.558506965637207
0.01201419157942931,0.021610156344406127,-0.08472616238883562, ,0.012362711016932813,0.0216017829678281,-0.0850478697196089, ,0.00047437487120034104, ,0.004441324380634951,0.0026187577212120412,-0.011627076610300864,0.03013056801770273,0.0032665942295594073,0.021333023576351362, ,0.012718968698689196, ,0.030307120523617326, ,5.6914323044988604e-05, ,0.18671251270012598,-0.23009882598751927,0.09569472038000001,1.9457129855929016,0.48164366167317757,-1.0789312064507488, ,0.03027015679696038,0.0032261814791661662,0.012601907848101265,-0.018289770188784006,0.04712000727477917,-0.023691778916223524, ,1.5622828006744385
0.012062153461348205,0.021631181253428965,-0.084834037357324, ,0.012383070000654108,0.021606488616234844,-0.08509250113623007, ,0.00041279616826962056, ,0.004531601900549052,0.0018067592516641299,-0.009898480047262258,0.009792918697274671,-0.016006415702286822,0.01887760784172791, ,0.011035384090487413, ,0.018764501198268543, ,5.7309782730411414e-05, ,0.18702914474796917,-0.23003704412452547,0.09581009019000002,1.9457129855929016,0.48164366167317757,-1.0787678489704677, ,0.03316915119135644,0.00710864549115316,0.010676147131367292,-0.018289770188784006,0.026511215646767877,-0.012771897846414223, ,1.5667037963867188
0.012062153461348205,0.021631181253428965,-0.084834037357324, ,0.012403470682291948,0.021611080949209636,-0.08513721154711051, ,0.00045696395579430103, ,0.004531601900549052,0.0018067592516641299,-0.009898480047262258,0.009792918697274671,-0.016006415702286822,0.01887760784172791, ,0.011035384090487413, ,0.018764501198268543, ,5.77614244063131e-05, ,0.18702914474796917,-0.23003704412452547,0.09581009019000002,1.9457129855929016,0.48164366167317757,-1.0787678489704677, ,0.03316915119135644,0.00710864549115316,0.010676147131367292,-0.018289770188784006,0.026511215646767877,-0.012771897846414223, ,1.5706207752227783
0.012062153461348205,0.021631181253428965,-0.084834037357324, ,0.012423912931004404,0.021615560528612306,-0.08518200046727968, ,0.0005021874618304983, ,0.004531601900549052,0.0018067592516641299,-0.009898480047262258,0.009792918697274671,-0.016006415702286822,0.01887760784172791, ,0.011035384090487413, ,0.018764501198268543, ,5.82701936339682e-05, ,0.18702914474796917,-0.23003704412452547,0.09581009019000002,1.9457129855929016,0.48164366167317757,-1.0787678489704677, ,0.03316915119135644,0.00710864549115316,0.010676147131367292,-0.018289770188784006,0.026511215646767877,-0.012771897846414223, ,1.5744359493255615
0.01210976817290891,0.02165075162343956,-0.08493098393085288, ,0.012444396616212633,0.021619927915256656,-0.08522686741266725, ,0.00044774248275611356, ,0.004794407336335097,0.001830214161431266,-0.009620164009918324,-0.02288504617027048,-0.03523949348287951,0.02220460856711629, ,0.010903374760189396, ,0.0420184144958866, ,5.870484205324402e-05, ,0.18737666772730927,-0.2299829849944059,0.09591508968000001,1.9457129855929016,0.48178029817294304,-1.0786342306537424, ,0.03438294984002565,0.00536019561127973,0.010350104951267057,-0.018289770188784006,0.0,0.015750155596778635, ,1.5789399147033691
0.01210976817290891,0.02165075162343956,-0.08493098393085288, ,0.012464921607599568,0.021624183668916157,-0.08527181190010415, ,0.000492953875128364, ,0.004794407336335097,0.001830214161431266,-0.009620164009918324,-0.02288504617027048,-0.03523949348287951,0.02220460856711629, ,0.010903374760189396, ,0.0420184144958866, ,5.9273975779423726e-05, ,0.18737666772730927,-0.2299829849944059,0.09591508968000001,1.9457129855929016,0.48178029817294304,-1.0786342306537424, ,0.03438294984002565,0.00536019561127973,0.010350104951267057,-0.018289770188784006,0.0,0.015750155596778635, ,1.5811419486999512
0.01210976817290891,0.02165075162343956,-0.08493098393085288, ,0.012485487775109678,0.021628328348325458,-0.0853168334473222, ,0.0005390249271641841, ,0.004794407336335097,0.001830214161431266,-0.009620164009918324,-0.02288504617027048,-0.03523949348287951,0.02220460856711629, ,0.010903374760189396, ,0.0420184144958866, ,5.990192205086975e-05, ,0.18737666772730927,-0.2299829849944059,0.09591508968000001,1.9457129855929016,0.48178029817294304,-1.0786342306537424, ,0.03438294984002565,0.00536019561127973,0.010350104951267057,-0.018289770188784006,0.0,0.015750155596778635, ,1.5832109451293945
0.01210976817290891,0.02165075162343956,-0.08493098393085288, ,0.012506094988948896,0.021632362511179896,-0.08536193157295371, ,0.0005857721184849602, ,0.004794407336335097,0.001830214161431266,-0.009620164009918324,-0.02288504617027048,-0.03523949348287951,0.02220460856711629, ,0.010903374760189396, ,0.0420184144958866, ,6.0589334072352225e-05, ,0.18737666772730927,-0.2299829849944059,0.09591508968000001,1.9457129855929016,0.48178029817294304,-1.0786342306537424, ,0.03438294984002565,0.00536019561127973,0.010350104951267057,-0.018289770188784006,0.0,0.015750155596778635, ,1.5853159427642822
0.01210976817290891,0.02165075162343956,-0.08493098393085288, ,0.012526743119584738,0.0216362867141347,-0.0854071057965285, ,0.0006330634808065816, ,0.004794407336335097,0.001830214161431266,-0.009620164009918324,-0.02288504617027048,-0.03523949348287951,0.02220460856711629, ,0.010903374760189396, ,0.0420184144958866, ,6.133668935529508e-05, ,0.18737666772730927,-0.2299829849944059,0.09591508968000001,1.9457129855929016,0.48178029817294304,-1.0786342306537424, ,0.03438294984002565,0.00536019561127973,0.010350104951267057,-0.018289770188784006,0.0,0.015750155596778635, ,1.5874249935150146
0.012113177925474748,0.021651862773456428,-0.08493830798816417, ,0.012547432037745599,0.02164010151280788,-0.08545235563847643, ,0.0006730229922281626, ,0.004801081912375328,0.001786292895806508,-0.009658376102316082,-0.02345815154740711,-0.03522683900248639,0.02209550544135378, ,0.010932769949685063, ,0.04232274773784819, ,6.213419431340834e-05, ,0.18739983592593196,-0.22997526226153167,0.09592286742000002,1.9457129855929016,0.48178029817294304,-1.0786342306537424, ,0.03437049676148887,0.005942989284161167,0.01037707590879479,-0.018289770188784006,0.0,0.015750155596778635, ,1.5909759998321533
0.012113177925474748,0.021651862773456428,-0.08493830798816417, ,0.012568161614420648,0.02164380746178018,-0.08549768062012413, ,0.0007210913857749462, ,0.004801081912375328,0.001786292895806508,-0.009658376102316082,-0.02345815154740711,-0.03522683900248639,0.02209550544135378, ,0.010932769949685063, ,0.04232274773784819, ,6.299221148979055e-05, ,0.18739983592593196,-0.22997526226153167,0.09592286742000002,1.9457129855929016,0.48178029817294304,-1.0786342306537424, ,0.03437049676148887,0.005942989284161167,0.01037707590879479,-0.018289770188784006,0.0,0.015750155596778635, ,1.5929288864135742
0.012113177925474748,0.021651862773456428,-0.08493830798816417, ,0.012588931720859634,0.02164740511459689,-0.08554308026369674, ,0.0007694875241343924, ,0.004801081912375328,0.001786292895806508,-0.009658376102316082,-0.02345815154740711,-0.03522683900248639,0.02209550544135378, ,0.010932769949685063, ,0.04232274773784819, ,0.0003510536139163824, ,0.18739983592593196,-0.22997526226153167,0.09592286742000002,1.9457129855929016,0.48178029817294304,-1.0786342306537424, ,0.03437049676148887,0.005942989284161167,0.01037707590879479,-0.018289770188784006,0.0,0.015750155596778635, ,1.5951838493347168
0.012113177925474748,0.021651862773456428,-0.08493830798816417, ,0.012609742228573051,0.02165089502376489,-0.08558855409231458, ,0.0008181668776073525, ,0.004801081912375328,0.001786292895806508,-0.009658376102316082,-0.02345815154740711,-0.03522683900248639,0.02209550544135378, ,0.010932769949685063, ,0.04232274773784819, ,0.00035436647394255946, ,0.18739983592593196,-0.22997526226153167,0.09592286742000002,1.9457129855929016,0.48178029817294304,-1.0786342306537424, ,0.03437049676148887,0.005942989284161167,0.01037707590879479,-0.018289770188784006,0.0,0.015750155596778635, ,1.597153902053833
0.01219236111207931,0.021681096089985197,-0.085091632073914, ,0.012630593009330449,0.021654277740761854,-0.08563410162999625, ,0.0006978822528904678, ,0.004337739787572857,0.0017182845922039977,-0.008506157683557518,0.05613726433650122,0.016078714409150326,-0.010936214694467138, ,0.009701711547043792, ,0.05839449853972332, ,0.000356785599146418, ,0.1880485454873668,-0.2298594212684183,0.09609138512000001,1.945503295649417,0.48260011717153567,-1.07913938059564, ,0.03658324655299568,0.007040416730198777,0.009442093372851216,0.012258962109556676,0.0652282825356305,-0.04399922291192922, ,1.599165916442871
0.01219236111207931,0.021681096089985197,-0.085091632073914, ,0.012651483935162626,0.021657553816024383,-0.08567972240165285, ,0.0007464571246355863, ,0.004337739787572857,0.0017182845922039977,-0.008506157683557518,0.05613726433650122,0.016078714409150326,-0.010936214694467138, ,0.009701711547043792, ,0.05839449853972332, ,0.00035951057484913943, ,0.1880485454873668,-0.2298594212684183,0.09609138512000001,1.945503295649417,0.48260011717153567,-1.07913938059564, ,0.03658324655299568,0.007040416730198777,0.009442093372851216,0.012258962109556676,0.0652282825356305,-0.04399922291192922, ,1.6010839939117432
0.01219236111207931,0.021681096089985197,-0.085091632073914, ,0.01267241487835908,0.021660723798960703,-0.08572541593309226, ,0.0007953292581791903, ,0.004337739787572857,0.0017182845922039977,-0.008506157683557518,0.05613726433650122,0.016078714409150326,-0.010936214694467138, ,0.009701711547043792, ,0.05839449853972332, ,0.0003625370934833759, ,0.1880485454873668,-0.2298594212684183,0.09609138512000001,1.945503295649417,0.48260011717153567,-1.07913938059564, ,0.03658324655299568,0.007040416730198777,0.009442093372851216,0.012258962109556676,0.0652282825356305,-0.04399922291192922, ,1.6030259132385254
0.01219236111207931,0.021681096089985197,-0.085091632073914, ,0.012693385711468684,0.021663788237946808,-0.0857711817510165, ,0.0008444601675541473, ,0.004337739787572857,0.0017182845922039977,-0.008506157683557518,0.05613726433650122,0.016078714409150326,-0.010936214694467138, ,0.009701711547043792, ,0.05839449853972332, ,0.00036586070089076055, ,0.1880485454873668,-0.2298594212684183,0.09609138512000001,1.945503295649417,0.48260011717153567,-1.07913938059564, ,0.03658324655299568,0.007040416730198777,0.009442093372851216,0.012258962109556676,0.0652282825356305,-0.04399922291192922, ,1.6049268245697021
0.01219236111207931,0.021681096089985197,-0.085091632073914, ,0.012714396307299905,0.021666747680324543,-0.08581701938302025, ,0.0008938195400197958, ,0.004337739787572857,0.0017182845922039977,-0.008506157683557518,0.05613726433650122,0.016078714409150326,-0.010936214694467138, ,0.009701711547043792, ,0.05839449853972332, ,0.0003694768573231512, ,0.1880485454873668,-0.2298594212684183,0.09609138512000001,1.945503295649417,0.48260011717153567,-1.07913938059564, ,0.03658324655299568,0.007040416730198777,0.009442093372851216,0.012258962109556676,0.0652282825356305,-0.04399922291192922, ,1.6068379878997803
0.01226488616650872,0.021702627183826442,-0.085233025190389, ,0.012735446538920553,0.02166960267240284,-0.08586292835759031, ,0.0009433831865726374, ,0.006199439471425289,0.0020243209599781864,-0.013196021765277632,-0.006171136788160491,-0.020365177897996092,-0.00565274818722003, ,0.009701711547043792, ,0.05971710406458387, ,0.00037338098201192326, ,0.1885814140556883,-0.22970496661093381,0.09624305105000001,1.945503295649417,0.48273675367130114,-1.0790057622789146, ,0.04387283474732814,0.014809135698887449,0.014121286808510639,0.01008196866698336,0.023184220791806397,0.0009677950906527314, ,1.609543800354004
0.01226488616650872,0.021702627183826442,-0.085233025190389, ,0.012756536279656047,0.021672353759466235,-0.08590890820410801, ,0.0008363337624502378, ,0.006199439471425289,0.0020243209599781864,-0.013196021765277632,-0.006171136788160491,-0.020365177897996092,-0.00565274818722003, ,0.014719575929304276, ,0.021279638153227975, ,0.00037650904133920915, ,0.1885814140556883,-0.22970496661093381,0.09624305105000001,1.945503295649417,0.48273675367130114,-1.0790057622789146, ,0.04387283474732814,0.014809135698887449,0.014121286808510639,0.01008196866698336,0.023184220791806397,0.0009677950906527314, ,1.6114377975463867
0.01226488616650872,0.021702627183826442,-0.085233025190389, ,0.012777665403090815,0.02167500148576687,-0.08595495845284443, ,0.0008859420749137784, ,0.006199439471425289,0.0020243209599781864,-0.013196021765277632,-0.006171136788160491,-0.020365177897996092,-0.00565274818722003, ,0.014719575929304276, ,0.021279638153227975, ,0.0003799280549873606, ,0.1885814140556883,-0.22970496661093381,0.09624305105000001,1.945503295649417,0.48273675367130114,-1.0790057622789146, ,0.04387283474732814,0.014809135698887449,0.014121286808510639,0.01008196866698336,0.023184220791806397,0.0009677950906527314, ,1.6133458614349365
0.01226488616650872,0.021702627183826442,-0.085233025190389, ,0.012798833783067676,0.021677546394527725,-0.08600107863496244, ,0.0009357538121439638, ,0.006199439471425289,0.0020243209599781864,-0.013196021765277632,-0.006171136788160491,-0.020365177897996092,-0.00565274818722003, ,0.014719575929304276, ,0.021279638153227975, ,0.00038363356003507125, ,0.1885814140556883,-0.22970496661093381,0.09624305105000001,1.945503295649417,0.48273675367130114,-1.0790057622789146, ,0.04387283474732814,0.014809135698887449,0.014121286808510639,0.01008196866698336,0.023184220791806397,0.0009677950906527314, ,1.6152257919311523
0.01226488616650872,0.021702627183826442,-0.085233025190389, ,0.012820041293687436,0.021679989027943707,-0.08604726828251455, ,0.0009857492147644677, ,0.006199439471425289,0.0020243209599781864,-0.013196021765277632,-0.006171136788160491,-0.020365177897996092,-0.00565274818722003, ,0.014719575929304276, ,0.021279638153227975, ,0.0003876210809273189, ,0.1885814140556883,-0.22970496661093381,0.09624305105000001,1.945503295649417,0.48273675367130114,-1.0790057622789146, ,0.04387283474732814,0.014809135698887449,0.014121286808510639,0.01008196866698336,0.023184220791806397,0.0009677950906527314, ,1.617156982421875
0.012339822046630967,0.021735870662693193,-0.08542203168077725, ,0.012841287809307949,0.021682329927186657,-0.08609352692844449, ,0.0008397859186337186, ,0.008336256243349998,0.004321224782896611,-0.023195579138367974,-0.007719285594555871,-0.01772140063713655,0.0036609384783791435, ,0.025024009337901935, ,0.01932947738404083, ,0.00039059584959643995, ,0.18906794622676446,-0.2295350664877009,0.09644527229000001,1.9457129855929016,0.4832832996703629,-1.0792063976732784, ,0.047025243586952814,0.01567508119565094,0.024619492302936634,0.003169434495106539,0.030837314966204038,0.0030475022426505556, ,1.6192679405212402
0.012339822046630967,0.021735870662693193,-0.08542203168077725, ,0.012862573204545875,0.02168456963239522,-0.08613985410658262, ,0.0008894771519269718, ,0.008336256243349998,0.004321224782896611,-0.023195579138367974,-0.007719285594555871,-0.01772140063713655,0.0036609384783791435, ,0.025024009337901935, ,0.01932947738404083, ,0.00039385651170317543, ,0.18906794622676446,-0.2295350664877009,0.09644527229000001,1.9457129855929016,0.4832832996703629,-1.0792063976732784, ,0.047025243586952814,0.01567508119565094,0.024619492302936634,0.003169434495106539,0.030837314966204038,0.0030475022426505556, ,1.6213510036468506
0.012339822046630967,0.021735870662693193,-0.08542203168077725, ,0.01288389735427424,0.02168670868268776,-0.08618624935164962, ,0.000939395278431165, ,0.008336256243349998,0.004321224782896611,-0.023195579138367974,-0.007719285594555871,-0.01772140063713655,0.0036609384783791435, ,0.025024009337901935, ,0.01932947738404083, ,0.00039739897122738316, ,0.18906794622676446,-0.2295350664877009,0.09644527229000001,1.9457129855929016,0.4832832996703629,-1.0792063976732784, ,0.047025243586952814,0.01567508119565094,0.024619492302936634,0.003169434495106539,0.030837314966204038,0.0030475022426505556, ,1.6233408451080322
0.012339822046630967,0.021735870662693193,-0.08542203168077725, ,0.012905260133623189,0.021688747616157265,-0.08623271219925358, ,0.0009895169097965406, ,0.008336256243349998,0.004321224782896611,-0.023195579138367974,-0.007719285594555871,-0.01772140063713655,0.0036609384783791435, ,0.025024009337901935, ,0.01932947738404083, ,0.0004012190869600874, ,0.18906794622676446,-0.2295350664877009,0.09644527229000001,1.9457129855929016,0.4832832996703629,-1.0792063976732784, ,0.047025243586952814,0.01567508119565094,0.024619492302936634,0.003169434495106539,0.030837314966204038,0.0030475022426505556, ,1.6253349781036377
0.012339822046630967,0.021735870662693193,-0.08542203168077725, ,0.012926661417980136,0.021690686969870438,-0.08627924218588935, ,0.0010398229964456132, ,0.008336256243349998,0.004321224782896611,-0.023195579138367974,-0.007719285594555871,-0.01772140063713655,0.0036609384783791435, ,0.025024009337901935, ,0.01932947738404083, ,0.0004053127017644818, ,0.18906794622676446,-0.2295350664877009,0.09644527229000001,1.9457129855929016,0.4832832996703629,-1.0792063976732784, ,0.047025243586952814,0.01567508119565094,0.024619492302936634,0.003169434495106539,0.030837314966204038,0.0030475022426505556, ,1.6274628639221191
0.012395901939903382,0.021771959085398664,-0.08559168313010479, ,0.01294810108298841,0.02169252727987443,-0.08632583884893902, ,0.0010902978639466872, ,0.008603128173064295,0.0054562731981601074,-0.026173387992697104,0.094571971603923,0.0458210639385439,-0.00955641080276579, ,0.025024009337901935, ,0.10508765593849399, ,0.00040967566458092894, ,0.1894000237403561,-0.22943467096033596,0.09662804918000001,1.9461323654798703,0.4841031186689555,-1.0797932263553165, ,0.05096505991324961,0.01421677027093195,0.02814277653710248,0.013951526907254236,0.12053577755187445,-0.07421160309253408, ,1.6330368518829346
0.012395901939903382,0.021771959085398664,-0.08559168313010479, ,0.01296957900454837,0.021694269081190366,-0.08637250172666991, ,0.0009720178969522623, ,0.008603128173064295,0.0054562731981601074,-0.026173387992697104,0.094571971603923,0.0458210639385439,-0.00955641080276579, ,0.02808613484606584, ,0.10508765593849399, ,0.0004132347926339121, ,0.1894000237403561,-0.22943467096033596,0.09662804918000001,1.9461323654798703,0.4841031186689555,-1.0797932263553165, ,0.05096505991324961,0.01421677027093195,0.02814277653710248,0.013951526907254236,0.12053577755187445,-0.07421160309253408, ,1.6349928379058838
0.012395901939903382,0.021771959085398664,-0.08559168313010479, ,0.01299109505881661,0.021695912907817756,-0.08641923035823394, ,0.0010221899455143196, ,0.008603128173064295,0.0054562731981601074,-0.026173387992697104,0.094571971603923,0.0458210639385439,-0.00955641080276579, ,0.02808613484606584, ,0.10508765593849399, ,0.0004170646992558015, ,0.1894000237403561,-0.22943467096033596,0.09662804918000001,1.9461323654798703,0.4841031186689555,-1.0797932263553165, ,0.05096505991324961,0.01421677027093195,0.02814277653710248,0.013951526907254236,0.12053577755187445,-0.07421160309253408, ,1.6369199752807617
0.012395901939903382,0.021771959085398664,-0.08559168313010479, ,0.013012649122204446,0.021697459292740306,-0.08646602428367012, ,0.0010725669017830023, ,0.008603128173064295,0.0054562731981601074,-0.026173387992697104,0.094571971603923,0.0458210639385439,-0.00955641080276579, ,0.02808613484606584, ,0.10508765593849399, ,0.00042116158802159656, ,0.1894000237403561,-0.22943467096033596,0.09662804918000001,1.9461323654798703,0.4841031186689555,-1.0797932263553165, ,0.05096505991324961,0.01421677027093195,0.02814277653710248,0.013951526907254236,0.12053577755187445,-0.07421160309253408, ,1.6400837898254395
