NicholasDascanio/dvrk_moveit_final/test/execution/third_experiment_notsharpbends/thirdexp_600vel3.0/thirdexp_600vel3.0_12.csv
Current Position (x),Current Position (y),Current Position (z), ,Planned Position (x),Planned Position (y),Planned Position (z), ,Position Error,,Cartesian linear Velocity(x),Cartesian linear Velocity(y),Cartesian linear Velocity(z),Cartesian Angular Velocity(x),Cartesian Angular Velocity(y),Cartesian Angular Velocity(z), ,Total Linear Velocity, ,Total Angular Velocity, ,MSE, ,Joint 1 Position,Joint 2 Position,Joint 3 Position,Joint 4 Position,Joint 5 Position,Joint 6 Position, ,Joint 1 Velocity,Joint 2 Velocity,Joint 3 Velocity,Joint 4 Velocity,Joint 5 Velocity,Joint 6 Velocity, ,Time Stamp
0.009479188820449824,0.02078639369614199,-0.07623717510762301, ,0.009612199389362976,0.020660721659446043,-0.07637394269710358, ,0.00022845272110927974, ,5.502130805618307e-05,-2.581290082326079e-05,-8.476268800195986e-06,0.09922592806542102,-0.02759910432318073,-0.07739941977385571, ,6.13636482120976e-05, ,0.10299269566277951, ,1.9037726759106645e-05, ,0.19322277651309724,-0.22628379594765236,0.08824105288,2.0916571862581304,0.7424827397254035,-0.9307713106662133, ,0.0007939692127716687,0.0002893686720506204,6.131847832030824e-06,-0.0010423282054556884,0.0,-0.017196833696875413, ,0.019891977310180664
0.009484036065429274,0.02078444965117282,-0.07625084680628924, ,0.009635698121557668,0.020656439307597457,-0.07648354445385899, ,0.0003058369214399583, ,0.0001273770355518106,-0.00012974125962044507,-0.0005647464123398512,0.2455080353032654,-0.06894159451798888,-0.18911697750681444, ,0.0005932926882109708, ,0.255004193795224, ,2.4285892843147186e-05, ,0.1932382219788457,-0.22624518228328125,0.08825531207000001,2.091447496314646,0.7422094667258725,-0.9362659866686598, ,0.0005241431508268862,0.0027018251220489965,0.0005238518643538073,-0.007721566178545633,0.0,-0.3242817915210514, ,0.038369178771972656
0.009514413515363456,0.020781400968185308,-0.07630350502337115, ,0.009659250809572941,0.020652164412108157,-0.07659299288418132, ,0.0003485443311503725, ,0.001915906879211479,-0.0002441976290307687,-0.0033947139754785965,0.011474324510564581,-0.2213040589811019,-0.14880742011415785, ,0.003905690032138215, ,0.22160132365135804, ,2.7588561678112828e-05, ,0.1932459447117199,-0.22618340042028745,0.08829031190000002,2.091447496314646,0.7389301907315019,-0.9422499034348453, ,-0.0006790669215473313,0.0035377575587150754,0.002174284946764947,-0.007541346223742867,-0.22335896090431454,-0.1517811397710896, ,0.057531118392944336
0.009553252078289769,0.0207841176924864,-0.07641607023397717, ,0.009682857228819126,0.020647896991429025,-0.07670228789000133, ,0.00034245309322630265, ,0.0011649497802809633,0.00029970791991823205,-0.004811473648895525,0.1003728530093121,-0.06680936786860656,-0.10344043012075275, ,0.004959557591343647, ,0.12057446352214524, ,2.9173501593474123e-05, ,0.1932382219788457,-0.2260443912285514,0.08838623736000001,2.091028116427677,0.7357875512368969,-0.9454048034596669, ,0.00034163730057615543,0.008268169745284626,0.004637208593886464,-0.006791944175308981,-0.03649776424829585,-0.16331599684120635, ,0.07686614990234375
0.009582251525491282,0.020791229000055485,-0.07653884009321957, ,0.009706517155094777,0.02064363706400045,-0.07681142937377766, ,0.0003339614381398034, ,0.0019096421717522327,0.0007417234900200399,-0.007156511285222618,-0.13559352030352895,-0.025521883109645326,0.014401472896294181, ,0.007443960017040714, ,0.13797452390566195, ,2.9985548174340703e-05, ,0.19325366744459413,-0.22585904563957002,0.08850419975000001,2.090399046597223,0.7348310957385388,-0.947973706479555, ,-0.0007094946737853405,0.011336767309073141,0.006889624359861593,0.0408522662257708,-0.0734524755647129,0.12809330024251675, ,0.09630203247070312
0.009590769918212123,0.02079432680673686,-0.07657819823860194, ,0.009730230364587112,0.020639384648257517,-0.07692041723849721, ,0.00040071203184664523, ,0.0015609010319579254,0.0004711589965077027,-0.006013131504039439,-0.10097702190023095,-0.017661526883151386,0.003008214189247978, ,0.006230261095365833, ,0.10250994330221111, ,3.161226672439293e-05, ,0.1932459447117199,-0.22557330452322372,0.08863512504000001,2.090608736540708,0.7349677322383041,-0.9437561511558017, ,0.0002758339620062078,0.013859638025189247,0.005834729494505496,-0.0062958994405991515,0.022222215506431053,0.05486071647277472, ,0.11774611473083496
0.00961102353979118,0.02079993328454968,-0.07671482470895682, ,0.009753996633871116,0.020635139762625997,-0.07702925138767384, ,0.0003827039936920138, ,0.00042488330785769564,-0.0001632782673612538,-0.004265763901113232,0.047347057597792265,0.0481307952947691,-0.0037293506351117906, ,0.004289979869175306, ,0.06751531172603101, ,3.2537007369505224e-05, ,0.1932459447117199,-0.22542657259861343,0.08868049519000001,2.090608736540708,0.7357875512368969,-0.9439345861371369, ,0.0002758339620062078,0.016336192383968114,0.004349757378481704,-0.00574984188423224,0.06938259335478561,-0.04551840184806702, ,0.13680696487426758
0.009637656006654258,0.020789424476703712,-0.07686190958442285, ,0.009777815739909835,0.020630902425524563,-0.07713793172534879, ,0.0003477962245592349, ,0.0010048408940330031,-0.00016744631339703545,-0.005594433259426553,0.050195465658663965,-0.0132908754063229,-0.03568468221717139, ,0.0056864247980932025, ,0.05192525528369132, ,3.2810497014190376e-05, ,0.19325366744459413,-0.22490142676316618,0.08882697596000001,2.0899796667102546,0.7359241877366622,-0.9441276827809737, ,0.00025186032894369316,0.01721018163918585,0.005509792985126254,-0.0164361356315533,0.009897430030294738,-0.08500938551828895, ,0.15968704223632812
0.009661925384583771,0.020786462663457902,-0.07697969809527652, ,0.009801687460053934,0.020626672655365243,-0.07724645815608973, ,0.0003409211264662913, ,0.0008626732350929599,-0.0004581906168103638,-0.005000585792878565,0.020804290419538227,-0.007873951672876935,-0.019154284521215842, ,0.0050950958797472854, ,0.022244496210983525, ,3.294980306119459e-05, ,0.19326911291034257,-0.2245307355852034,0.08894234577000001,2.0899796667102546,0.7359241877366622,-0.9446177552218171, ,-0.00045829060112955426,0.019044138382193612,0.004826912581818183,-0.013699688347501886,0.006295095254683046,-0.05074844080286489, ,0.18030214309692383
0.009680444993281242,0.020778560336713638,-0.07707120718519174, ,0.009825611572041057,0.020622450470550474,-0.07735483058499017, ,0.00035480397237845125, ,0.000995150820044049,-0.0003395221672054641,-0.004800312483329986,-0.013856087022714264,-0.0007157382922820805,0.00599144237618762, ,0.00491412254571169, ,0.013874560401511839, ,3.319790052949366e-05, ,0.1932768356432168,-0.22417548987298908,0.08903049349000001,2.0899796667102546,0.7359241877366622,-0.9449444701823795, ,0.0014734566892650575,0.017185248380744436,0.004672575981226167,-0.010699456276666275,0.004640848024552448,-0.0037843003820864558, ,0.20072197914123535
0.009700927580019964,0.020773662989562885,-0.0771816309574447, ,0.009849587853996181,0.020618235889476436,-0.0774630489176695, ,0.00035419419650392186, ,0.001277575323103343,-8.198655773141795e-06,-0.0061151422006583255,-0.013896609068278724,-0.004428786868613092,0.008548955181985413, ,0.006247177767474801, ,0.014585262704965353, ,3.339625045100246e-05, ,0.1933077265747137,-0.2238356896265232,0.08913938185,2.0893505968798007,0.7361974607361932,-0.9451673059897723, ,0.0017577046791076548,0.016443760450263523,0.0060427964795144165,-0.014944442811052058,0.0020748255889739874,-0.0053137629562603535, ,0.22028803825378418
0.00972288413399108,0.02077275173679774,-0.0772983199039819, ,0.009873616084430856,0.020614028930530624,-0.07757111306027187, ,0.00034975585231891975, ,0.0011518513408849279,9.751620008770613e-05,-0.005443759154403602,-0.00806723643571795,0.009606402631602916,-0.038882727422447416, ,0.005565140128687774, ,0.012544451779552162, ,3.352570412156717e-05, ,0.19332317204046215,-0.22351905757867999,0.08925475166,2.088931216992832,0.7363340972359587,-0.9454420813737499, ,-0.0002470877511960708,0.016680777211895023,0.005406928553971487,0.0372079667319705,0.0015194629627625696,-0.0008404134204407559, ,0.23910307884216309
0.009732315242499325,0.020771290817568257,-0.07735065939772849, ,0.009897696042243281,0.020609829612093584,-0.07767902291946654, ,0.00040155090860998275, ,0.0011097350804023182,5.171104518375395e-05,-0.005315376242330336,-0.010594803216429041,0.007081579817331976,-0.0306646672251552, ,0.005430231171727341, ,0.012743571856474456, ,3.4027930389705895e-05, ,0.19332317204046215,-0.22334915745544703,0.08930660326,2.088931216992832,0.7364707337357239,-0.9455534992774461, ,-0.00023106709056105288,0.016263400438469716,0.005260505785997359,0.029107404113415912,0.0003918008105569111,0.0003410690562527448, ,0.25806117057800293
0.009753384003208788,0.02077424223783505,-0.07745078004581588, ,0.009921827506717704,0.02060563795253683,-0.07778677840244669, ,0.0004119411542367279, ,0.0012869492731618923,6.920546315480284e-05,-0.0054793293277297225,-0.0062381204792578086,0.002458598283013348,-0.004114597232483981, ,0.005628861137880508, ,0.006705135918979918, ,3.453259130759089e-05, ,0.19336178570483328,-0.22290123894874203,0.08946993580000001,2.088931216992832,0.7367440067352549,-0.945776335084839, ,0.0019351871587273736,0.014157383493729789,0.005288450039840638,-0.0038481322769499627,0.00772629379768616,-0.005565113821060797, ,0.27858400344848633
0.009775051801611024,0.020771754722146596,-0.07756924653370056, ,0.009946010257524599,0.02060145397022586,-0.07789437941692941, ,0.0004048957044842809, ,0.0009488769988489386,-1.6147261792233067e-05,-0.005221236829105386,-0.010200641767257443,0.0009466188185255707,0.008540811135339292, ,0.005306782671130826, ,0.010244470497355584, ,3.492449783001439e-05, ,0.1933695084377075,-0.22275450702413177,0.08952437998000001,2.0885118371058624,0.7368806432350203,-0.9458060742483949, ,0.0,0.01410687402385473,0.005163310055105349,-0.012960619349646832,0.005627106575214031,-0.004588528098736279, ,0.2971229553222656
0.009796158661913947,0.02077350118500272,-0.077669666118598, ,0.009970244074719952,0.020597277683516848,-0.07800182587115491, ,0.0004143555896165066, ,0.0011084808846890078,4.4414801733733003e-05,-0.005248986544613805,0.00017061488494977148,0.0046608762764132755,0.0066649522284294455, ,0.005364938237470283, ,0.00466399754700479, ,3.5326415183819094e-05, ,0.1934081221020786,-0.2224842113735339,0.08962549060000001,2.0885118371058624,0.7371539162345512,-0.9461105887959282, ,0.0026373206497171875,0.013847503510648005,0.005277936222664017,-0.012960619349646832,0.015003222881222689,-0.012234122251269946, ,0.3175230026245117
0.009822681689353026,0.020777022221918854,-0.07779667248072018, ,0.00999452873874544,0.02059310911075951,-0.07810911767388655, ,0.0004012199391530235, ,0.0009899872924210313,-9.751069459952902e-05,-0.004931338131367851,-0.009245658174678777,-0.0019005747919887189,0.004056558306867549, ,0.005030673805823528, ,0.009438981762176633, ,3.5813445607787815e-05, ,0.19343901303357552,-0.2221675793256907,0.08975252702000001,2.0885118371058624,0.7372905527343167,-0.9464670429200466, ,0.0009492305100636196,0.014313264186798005,0.0048563449756097565,-0.010423570379437,0.003275408977916198,-0.006838212540716534, ,0.3349461555480957
0.009841949462677559,0.020771278943534272,-0.0778933614288533, ,0.010018864030427732,0.020588948270294644,-0.0782162547344098, ,0.000410856818684382, ,0.0011706477133467794,6.284888357074663e-05,-0.005329360935402257,0.020101165189621076,-0.006419420001764637,-0.014014277847385069, ,0.0054567805554852356, ,0.021101322016414247, ,3.6305311208978325e-05, ,0.19347762669794663,-0.22186639274359593,0.08984715619000001,2.087882767275409,0.7374271892340821,-0.9469868545244458, ,0.002661952459947383,0.013642458533420181,0.005332712259792435,-0.011248502285225042,0.008607468726414816,-0.041059283347570884, ,0.3537290096282959
0.00985525198063565,0.020773218356301925,-0.07795180905361979, ,0.010043249730978596,0.020584795180456257,-0.07832323696253247, ,0.0004569520093500289, ,0.0013661929632666828,0.00013221599551151739,-0.006435313692748865,0.015562559410329647,-0.006116743048635029,-0.013665907735641563, ,0.006580062811738922, ,0.016721476905050183, ,3.6994222364900146e-05, ,0.19350079489656932,-0.2217273835518599,0.08990548924000001,2.087882767275409,0.7374271892340821,-0.9471502120047268, ,0.0023023592373651557,0.01584520647160975,0.006433284135702748,-0.010623512226889405,0.0077133648750558675,-0.038351042010344255, ,0.37055397033691406
0.00988641474275135,0.020778201400383146,-0.07809937078360715, ,0.010067685621994194,0.02058064985956911,-0.07843006426858323, ,0.0004257275231237683, ,0.00153889344407229,0.00017223276953780655,-0.007023108802572942,0.0028210077100249077,-0.0062437668083906855,-0.015671195686694873, ,0.007191794936723995, ,0.006851473664207013, ,3.746280580853482e-05, ,0.19354713129381465,-0.22138758330539401,0.0900532663,2.0876730773319245,0.7375638257338476,-0.9479150598295478, ,0.002258722672759055,0.01728226945155177,0.006998599086115994,-0.002115415973968119,0.001999509112059028,-0.024941764744478147, ,0.38849401473999023
0.009912818534645984,0.02077888390489698,-0.07822790074182598, ,0.010092171485455504,0.02057651232595184,-0.0785367365634124, ,0.0004104891004932887, ,0.0011282586045096954,-0.0002280979588700936,-0.0057451967628122415,0.00013747742808811172,-0.009125628869513397,0.0006948377429646703, ,0.005859375564078405, ,0.009126664015293202, ,3.78170272975033e-05, ,0.19357029949243734,-0.22105550579180236,0.09018030272000001,2.08746338738844,0.7375638257338476,-0.9481600960499695, ,0.0009245683540917972,0.01728856650728198,0.005616647221438648,-0.019835145485737376,0.001840851532647302,-0.025870483178999912, ,0.40700411796569824
0.00993925923092608,0.02077462542409069,-0.07834479917335245, ,0.010116707103727423,0.02057238259791455,-0.07864325375839053, ,0.0004018271365048471, ,0.0013704251114494879,-0.0002711610459551056,-0.005942605393422212,-0.02320285704197012,-0.005862170064835946,0.012499562063333384, ,0.00610460090103076, ,0.023931936933061445, ,3.810162864392607e-05, ,0.19362435862255692,-0.22067709188096538,0.09029567253000001,2.08746338738844,0.737700462233613,-0.9484348714339469, ,0.0031339760498676965,0.018603595678978783,0.005815557327491786,-0.01508184901397394,0.0,0.0027361214497904963, ,0.424652099609375
0.009958246614749929,0.020766461040679647,-0.0784491437771205, ,0.010141292259558626,0.02056826069375874,-0.07874961576540829, ,0.00040382236360634205, ,0.0008646180895050072,-0.0004033540967727918,-0.005242058142248717,0.02585447670875653,0.022599392711903796,0.005608822149431554, ,0.005328173470787035, ,0.03433928527025832, ,3.837232955864166e-05, ,0.19367069501980225,-0.2203141234358768,0.09039937573000001,2.0868343175579867,0.7382470082326748,-0.9488805430487327, ,0.0019944010147336226,0.0194620470792598,0.005291963960132891,-0.020648542498348518,0.043629524389142714,-0.03790276756104392, ,0.4464700222015381
0.009983465223254313,0.020757021710130073,-0.0785683318549143, ,0.010165926736081661,0.02056414663177915,-0.07885582249687624, ,0.0003913360048958044, ,0.0010512933186096805,-0.00044971742492948665,-0.00566687180001741,-0.00036154741541497785,0.007432504778113568,0.012253027661105255, ,0.005781081162020745, ,0.007441292761757441, ,3.856884681876145e-05, ,0.19370158595129916,-0.21988937312779447,0.09051474554000001,2.0866246276145017,0.7382470082326748,-0.9488805430487327, ,0.001650165259861089,0.020152249216069396,0.005585137279102384,-0.022195304198461274,0.020933917351136092,-0.018386910839042325, ,0.463839054107666
0.010002728135910537,0.02074878075477228,-0.07865481627937015, ,0.010190610316812333,0.020560040430262223,-0.07896187386572363, ,0.0004064566217123312, ,0.0010640688267630856,-0.0007102372053520137,-0.005046418785085688,-0.023652767634500645,-0.006497110154625061,0.01555003875283471, ,0.005206056272306411, ,0.024528877957628557, ,3.881303200536012e-05, ,0.19374019961567027,-0.2195495728813286,0.09059900439000002,2.0866246276145017,0.7383836447324401,-0.948991960952429, ,0.001719858205981481,0.02082900385392247,0.0048065212794206405,-0.02101893084442037,0.0,-0.0009523621073763071, ,0.4856221675872803
0.010019099649375857,0.020743543792618356,-0.07872335576118153, ,0.010215342785649567,0.020555942107486944,-0.07906776978539935, ,0.000438550773430629, ,0.0012884183843699236,-0.0005067086491522992,-0.005037547133362764,-0.018990704508522548,-0.006013629077771815,0.012612167114546689, ,0.005224333135354173, ,0.019920105149595246, ,3.9167133137829916e-05, ,0.1938174269444125,-0.21909393164174934,0.09071567049000001,2.0864149376710173,0.7386569177319711,-0.9492964754999624, ,0.002221458675686888,0.01958253024318423,0.004959156762141968,-0.007806015316659167,0.005456078979387481,-0.005418859733949024, ,0.5029351711273193
0.01004129948107529,0.02073207544335775,-0.07883238978949192, ,0.010240123926874909,0.02055185168172306,-0.07917351016986947, ,0.0004340217487801809, ,0.0013119495722429273,-0.0002958630927103218,-0.006086345796141512,-0.014489836756069827,-0.0009192274062704768,0.0040713666647263155, ,0.00623316547188874, ,0.014518964835350097, ,3.947946091767556e-05, ,0.1938405951430352,-0.2188931405870195,0.09077270725000001,2.0859955577840483,0.7387935542317365,-0.9494078934036589, ,0.0022293860195725245,0.019570414839857865,0.005974798019504878,-0.009968355366443393,0.0054186422926675495,-0.005388332626164245, ,0.5195391178131104
0.010069491856530291,0.020730847422439982,-0.07896433542154445, ,0.010264953525152868,0.020547769171234274,-0.0792790949336189, ,0.00041327528405000027, ,0.0013018008397592247,4.1372472965065356e-05,-0.006265334486804504,0.011314380282908062,0.0030767120511010966,-0.006735420933697412, ,0.006399282251898171, ,0.011725244073252289, ,3.969412808727156e-05, ,0.1938792088074063,-0.21853789487480518,0.09089974367,2.085785867840564,0.7389301907315019,-0.9498460262679176, ,0.0020842726319178877,0.01649520972683309,0.0062984624436536185,-0.009465735745386889,0.01615588926674503,-0.02875374619137076, ,0.5375809669494629
0.01009549738295509,0.020729372612136695,-0.07908179691809544, ,0.010289831365529942,0.0205436945942751,-0.07938452399164905, ,0.00040482799330425164, ,0.00137280269835668,-8.757041418020785e-05,-0.005998209959505467,0.0006012551673963015,-0.007718576546892152,-0.007155625321005343, ,0.006153923833162518, ,0.007741958661872774, ,3.986466873429237e-05, ,0.19393326793752588,-0.21819037189546509,0.09102029864000001,2.085785867840564,0.7390668272312674,-0.950120801651895, ,0.002939871110911089,0.01668957818474688,0.005934728584202684,-0.009465735745386889,0.002426507288795181,-0.022861534257979953, ,0.5558090209960938
0.010121246847786999,0.020727676394324098,-0.07919798916171374, ,0.010314757233434951,0.020539627969093102,-0.07948979725947909, ,0.0003974423801092582, ,0.0011627903493892336,-0.00018657621184257022,-0.005028119380071778,0.004123330338820119,-0.00512394399953652,-0.0014870652477816282, ,0.005164191764420805, ,0.00657697894017867, ,3.999890610061399e-05, ,0.19398732706764546,-0.21786601711474765,0.09113566845000001,2.085576177897079,0.7392034637310329,-0.9504772557760133, ,0.0032259905169346958,0.015091752792377667,0.004977753600000001,-0.014217782358634131,0.007244196671691159,-0.023761888140913096, ,0.5741980075836182
0.010133160288735073,0.020725143416110283,-0.07925233100852944, ,0.010339730914678222,0.02053556931392698,-0.07959491465314404, ,0.00044268873633578645, ,0.0010804414742392025,-0.0001801149571182552,-0.005323225640125723,0.002351825569308481,-0.001821003603330323,-0.007661523127978643, ,0.0054347517323908925, ,0.0029744131114226384, ,4.027735250273608e-05, ,0.19401049526626812,-0.21770383972438892,0.09118881634,2.085366487953595,0.7392034637310329,-0.9505589345161538, ,0.0011495483813196115,0.016177453385351308,0.00524837282372323,-0.006925686617587855,0.006301209594494535,-0.02161760166759936, ,0.5909080505371094
0.010154794156893854,0.02072418743822494,-0.07936130603067784, ,0.010364752195451733,0.020531518647007817,-0.07969987608919504, ,0.00044253059282775044, ,0.0013337487244549052,0.0001209736352309177,-0.006296273671661137,0.0009282238532998833,-0.0022591739518650457,-0.005633935103132325, ,0.006437125323376832, ,0.00244242841687748, ,4.053890289588355e-05, ,0.19404910893063926,-0.21741809860804262,0.09129770470000001,2.0849471080666255,0.7394767367305638,-0.9509451278038279, ,0.0018925299180291375,0.015161677833275409,0.006290999810426541,-0.007120972917424565,0.005986403834820318,-0.01871899241033588, ,0.6091670989990234
0.010186631680729856,0.020729991026370277,-0.07951566247714502, ,0.010389820862328808,0.020527475986559435,-0.07980468148469917, ,0.0004072225087050405, ,0.0014512871841878897,0.00023129068105356434,-0.00726154516802355,-0.0026735825129492958,-0.0018031143536134248,0.009160078331872231, ,0.007408762926249996, ,0.0032247859828741245, ,4.0802951575940786e-05, ,0.1940954453278846,-0.21707829836157674,0.09145325950000001,2.084737418123141,0.7397500097300945,-0.9514129998316422, ,0.0017076373901839205,0.015610617134145549,0.007280078391224864,-0.02015016295857979,0.008954590104571176,-0.016093881703168098, ,0.6255300045013428
0.010201057216641472,0.020731307398813965,-0.07957943169554654, ,0.010414936702263655,0.02052344135079699,-0.07990933075723801, ,0.0004447315136046865, ,0.0012549869203015867,-3.7367926772032337e-06,-0.0062089333144733205,-0.0029992566539279687,-0.0015811331799112228,0.008689223994329075, ,0.006334497536294747, ,0.003390503411180669, ,4.1170367417546875e-05, ,0.19411861352650728,-0.21692384370409226,0.09151677771000001,2.084737418123141,0.7397500097300945,-0.9514129998316422, ,0.0018018129921568648,0.01562861356364802,0.0061835448447204976,-0.01928160664761101,0.008954590104571176,-0.015484179965045326, ,0.6402661800384521
0.010230446056026202,0.020728713140921805,-0.07970745181260129, ,0.010440099502591112,0.020519414757927224,-0.08001382382490793, ,0.00042617389725968974, ,0.001549507173364852,-3.78632616694415e-05,-0.0061504942813921815,-0.000881832809927379,-0.0005510199066364302,-0.0033599742331541604, ,0.006342790081055128, ,0.0010398284670116295, ,4.1463733956696315e-05, ,0.1941881181223753,-0.2165608752590037,0.09164381413000001,2.0845277281796566,0.73988664622986,-0.9516060964754792, ,0.005195366102788294,0.016840628493073787,0.006166787270615564,-0.006400509982320736,0.010897386047267728,-0.015502906374849424, ,0.6573960781097412
0.01024309081178863,0.020725685872979106,-0.07976638457781145, ,0.010465309051026819,0.020515396226150746,-0.08011816060632014, ,0.0004662070952341536, ,0.0012736724566121524,-0.00025136638204020074,-0.005589468575238857,-0.007054784221426388,-0.0015673953645877945,0.009208989097636294, ,0.005738256315147931, ,0.007226804493279965, ,4.1861654736520525e-05, ,0.19422673178674643,-0.21639097513577077,0.09170214718000001,2.0841083482926877,0.7400232827296255,-0.9517991931193162, ,0.003467085925055586,0.01702492672380172,0.005530837333333334,-0.017364180474822646,0.009394969535987487,-0.01129622502529506, ,0.6729860305786133
0.01026965785492176,0.020721597824983697,-0.07988814586983357, ,0.01049056513566628,0.02051138577365805,-0.08022234102059839, ,0.00045241080005144733, ,0.0013205476441437158,-0.00017754009132270473,-0.006468833140170744,0.0009636776346183451,0.00663916061541016,0.005177997654569567, ,0.006604632371286966, ,0.006708734376414814, ,4.2201300869928856e-05, ,0.1942885136497402,-0.21600483849205954,0.09182399844000001,2.0841083482926877,0.7404331922289218,-0.9522968043106868, ,0.002521469817067895,0.01890753966098242,0.006456753757600325,-0.014931963725153099,0.018948527618361764,-0.017958090480579343, ,0.6885709762573242
0.010298782845820708,0.02071780764113042,-0.08001781317351483, ,0.010515867544985031,0.02050738341863279,-0.08032636498738069, ,0.0004860217251582237, ,0.0015499686654420878,-0.00025849014137083485,-0.0066202716949839025,0.00395460948650136,0.00534427249003524,-0.006798881320110061, ,0.006504970422388761, ,0.015414975355512808, ,4.2620541881789855e-05, ,0.194350295512734,-0.21562642458122253,0.09195233115000001,2.0838986583492027,0.7405698287286873,-0.9525715796946642, ,0.004567786159957124,0.02085188783969914,0.006609465360995851,-0.0056368414153230555,0.01854571760858078,-0.022261733378470865, ,0.7051260471343994
0.010315502605656394,0.020713712619872343,-0.08008669572728247, ,0.010541216067838428,0.02050338917925052,-0.08043023242681761, ,0.00046173583423067934, ,0.0015248008563976206,-0.00030024118446402796,-0.006462705350125906,-0.0028394881662480312,0.00031617785556464534,0.006472521690231791, ,0.0066469333427577925, ,0.00285703521307917, ,4.29541648076914e-05, ,0.19439663190997936,-0.21541018806074425,0.09201973823000001,2.0836889684057187,0.7405698287286873,-0.9526532584348048, ,0.004792222047493122,0.019982510330273904,0.006422907870967743,-0.017440812479158407,0.01468503962445625,-0.01747882179560629, ,0.7208821773529053
0.010347414695080792,0.02070567817614677,-0.08022165223435944, ,0.010566610493461172,0.02049940307367906,-0.08053394325957172, ,0.0004337302160949995, ,0.0014928846479504627,-0.0004909952803605093,-0.006262188965045782,0.001139831477306729,-0.004114664395574568,-0.006642637665660466, ,0.006456376040114426, ,0.004269621675835841, ,4.31976699364305e-05, ,0.1944970274373443,-0.21497771501978769,0.09215325610000001,2.0832695885187493,0.7408431017282181,-0.9532844879429004, ,0.004260115492982411,0.021835467454779284,0.00615012027799228,-0.01124105748102388,0.009496665129854058,-0.026454994890928823, ,0.7372889518737793
0.010360820232749268,0.020702860389998752,-0.08027770485527436, ,0.010592050611466943,0.020495425120077373,-0.08063749740681787, ,0.00047533941493996636, ,0.001468696027437177,-0.0002882857461337866,-0.006249411743437586,0.0002593416427251435,-0.004040597294052239,-0.0043485813984005745, ,0.006426143776126493, ,0.004048910353181172, ,4.3540945215394846e-05, ,0.1945356411017154,-0.2147923694308063,0.09220899657,2.0832695885187493,0.7409797382279836,-0.9535592633268779, ,0.0039024082781172033,0.019343037415097998,0.0061787476803723835,-0.01124105748102388,0.008277560491146576,-0.022857631157101124, ,0.7535121440887451
0.010393192561533263,0.02069433437372475,-0.0804129510230563, ,0.010617536211848421,0.020491455336596714,-0.08074089479024192, ,0.00044613573223697695, ,0.0015168090511614991,-0.0003646919723467401,-0.006253960362751977,-0.004656138424946628,-0.004504195537199239,-0.0050536379851216845, ,0.006445597734209951, ,0.006478224517766681, ,4.3794334258176755e-05, ,0.19461286843045764,-0.21435217365697548,0.09234121815000002,2.083059898575265,0.7409797382279836,-0.9535592633268779, ,0.004207837189850925,0.02030749872854072,0.0061596332250580055,-0.008386870407465703,0.006230813968513309,-0.018205321184212146, ,0.7699720859527588
0.010421340729890212,0.02068775421321086,-0.08053909049132857, ,0.010643067084977247,0.020487493741381563,-0.08084413533204154, ,0.0004269885103408285, ,0.001574611547294154,-0.00021070631321112236,-0.006691592665467941,0.0013845857549585874,-0.0007511101932775697,-0.00041282294990317703, ,0.006877587591288347, ,0.0015751923116003725, ,4.398883638070319e-05, ,0.19469781849207413,-0.21395831428039003,0.09246695828000001,2.082640518688296,0.7413896477272798,-0.9541385532583889, ,0.004550300244056038,0.019510061998040867,0.006667564470489746,-0.013530196274223968,0.013294169932816445,-0.022203777926454997, ,0.7908060550689697
0.010451550005315575,0.02067957141456722,-0.08065754099525065, ,0.010668643021602716,0.02048354035256612,-0.08094721895492409, ,0.000411668404556988, ,0.0013205491749516414,-0.0005436784660029405,-0.005428772247611313,0.0014079082613103217,0.0015047549519868798,-0.0025878232104176325, ,0.005613466354606176, ,0.0020607009541678085, ,4.413748740933842e-05, ,0.1947904912865648,-0.21354900943805613,0.09258362438,2.082640518688296,0.7415262842270453,-0.9544133286423665, ,0.004487388712001133,0.02033360650492196,0.005347033071500504,-0.010562398670905757,0.01497637221048277,-0.021586649273468945, ,0.8063299655914307
0.010465972352833834,0.020675861439638506,-0.0807144602762302, ,0.0106942638128529,0.020479595188278545,-0.08105014558210716, ,0.00045091247124274565, ,0.0014732636365493638,-6.239278843865365e-05,-0.006168175279848305,0.006405287950120086,0.0032578367684375706,-0.009652642824896565, ,0.0063419858787101945, ,0.007186181545517336, ,4.437605465804095e-05, ,0.19483682768381017,-0.21337138658194899,0.09263936485,2.0824308287448114,0.7415262842270453,-0.9545766861226476, ,0.004276684687165108,0.017098548028553293,0.006197981136186771,-0.0028332027881225125,0.01497637221048277,-0.022054631846398817, ,0.8218410015106201
0.010494576462748314,0.02067326916128432,-0.08083435032813033, ,0.010719929250233197,0.02047565826663747,-0.08115291513731829, ,0.00043739853927887864, ,0.0016259877748439665,-7.831592518077555e-05,-0.0070338068957637384,-0.002608701111320614,-0.004742114187699054,0.0041531626633651425, ,0.007219723614860369, ,0.005412296300147575, ,4.4573160165252793e-05, ,0.1949140550125524,-0.21303930906835733,0.09275862353000001,2.082221138801327,0.7416629207268107,-0.9548514615066251, ,0.004117962671794024,0.01824941183816746,0.007010920563380283,-0.01762528947212558,0.008385194480557486,-0.0192699328303532, ,0.8376631736755371
0.010511848369452438,0.020673337459077394,-0.08091387079606362, ,0.010745639125626906,0.02047172960575441,-0.08125552754479379, ,0.0004604706050846272, ,0.0015886514604383515,9.900393527808617e-05,-0.006742678229158064,-0.002133683424923841,-0.0033825480583325198,-0.0050911456052883846, ,0.006928010172041868, ,0.00399927773328541, ,4.481702242760632e-05, ,0.19496039140979773,-0.2128385180136275,0.09283899351000001,2.0820114488578425,0.7419361937263417,-0.9551559760541586, ,0.003741372983400664,0.016054295645148164,0.006755221170483461,-0.006095572250966677,0.00580957821611414,-0.0157601063182297, ,0.8544700145721436
0.010544312682873206,0.020674008474047073,-0.08104988492425753, ,0.01077139323129448,0.020467809223732442,-0.08135798272927917, ,0.00043475046148425773, ,0.0016110540655997882,-9.901670930268836e-05,-0.006516198597785938,-0.009481631764374584,-0.005844057562582936,-0.0040036293482867, ,0.006713132180792672, ,0.011137968304936663, ,4.499263137245288e-05, ,0.19503761873854,-0.2124909950342874,0.09297510396000001,2.0820114488578425,0.742072830226107,-0.9554307514381362, ,0.004227976969414397,0.017651960855370307,0.006469866580016247,-0.005260911309883908,0.0019433579563227082,-0.010303393372589065, ,0.8696670532226562
0.010574600183738844,0.02067062440756721,-0.08117563965548369, ,0.010797191359873351,0.02046389713866639,-0.0814602806160275, ,0.00041629733583034264, ,0.0015379461351989491,-3.8901990568687445e-05,-0.006003150341913274,-0.004485794458701843,-0.0036549013342628855,0.013167870260062916, ,0.006197144964195775, ,0.005786246442425445, ,4.5120134279354964e-05, ,0.19514573699877913,-0.21215891752069574,0.09310084409000001,2.0813823790273887,0.742346103225638,-0.9557352659856695, ,0.0057696077069989945,0.014909181705965557,0.006031356122680804,-0.021259520113784656,0.010719909901282805,-0.012168640482223048, ,0.8897101879119873
0.010589316202464128,0.020667015167365358,-0.08123380582785161, ,0.010823033304378048,0.02045999336864381,-0.08156242113080017, ,0.00045328768591802764, ,0.0014091630892856825,-0.0005638397704908677,-0.005683396495279156,-0.008929687148285506,-0.0052549309217159255,0.015452404913430596, ,0.005882571854346001, ,0.010361158508027237, ,4.5426251753659066e-05, ,0.19519207339602448,-0.21198129466458857,0.09315788085000001,2.081172689083904,0.742346103225638,-0.9558986234659507, ,0.005093505456357931,0.019786685062233272,0.005573412008397481,-0.026250583146827756,0.009813924591579894,-0.01435435351295219, ,0.9026839733123779
0.01060293531430144,0.020663460100188477,-0.08128726053322706, ,0.010848918858199016,0.020456097931742603,-0.08166440419986548, ,0.0004957260514199943, ,0.0014969095368991129,7.20723017590616e-05,-0.005285789873291315,0.00206153579366947,0.0036811925848819708,-0.042285743419853354, ,0.005494133886512904, ,0.004219135521570507, ,4.581603747546692e-05, ,0.19524613252614406,-0.21181139454135564,0.09321102874000001,2.0809629991404197,0.7424827397254035,-0.9560917201097876, ,0.004382407734413304,0.01513025216174598,0.005322021891079186,0.03506236184235905,0.0035655016107773614,-0.011209756584162206, ,0.9161159992218018
0.010628800720870989,0.020662933184050315,-0.08139455208520625, ,0.010874847815103526,0.02045221084603416,-0.08176622974999909, ,0.0004930389059953814, ,0.001705912952035581,-2.444831323032584e-05,-0.006984372706763801,0.007947872657567164,0.004666214427955204,-0.009188396154492719, ,0.0071897287032912215, ,0.009216410377599888, ,4.618823325012591e-05, ,0.1953233598548863,-0.21150248522638665,0.09331991710000001,2.081172689083904,0.7428926492246997,-0.956589331301158, ,0.005351544347893585,0.018549050343719856,0.007048146690265488,-0.0038592884711923067,0.018611519852716044,-0.024072907272288065, ,0.9300739765167236
0.01064883655004276,0.02066550310914438,-0.08147383745418833, ,0.010900819969234567,0.020448332129580814,-0.08186789770848273, ,0.0005156959975865177, ,0.0016089582334611124,0.00030848789448110255,-0.007251142616304801,0.022018107545167167,0.012023288115957063,-0.0111682100310811, ,0.007433907493374889, ,0.025086978633220337, ,4.6597548919988966e-05, ,0.1953851417178801,-0.21132486237027948,0.09340028708,2.081172689083904,0.7430292857244651,-0.956782427944995, ,0.0042433545066578315,0.015638915879774357,0.007429482985074627,-0.004103692367005239,0.02822206131740981,-0.03312162353427591, ,0.944329023361206
0.010670131938731679,0.020665852367792482,-0.08156507476525092, ,0.010926835115110821,0.02044446180043698,-0.08196940800310422, ,0.0005276321363507578, ,0.0018989924884292083,0.0001693970201237622,-0.00804714333444994,0.010480640653078873,0.004188798540480724,0.0019292077630943577, ,0.008269908322751799, ,0.01128671023667929, ,4.701987448374333e-05, ,0.19549325997811923,-0.2109464484594425,0.09356750849,2.0805436192534508,0.7430292857244651,-0.956782427944995, ,0.00550259057404608,0.018466032605267715,0.007687650347490348,-0.01941189225304053,0.01786218239196225,-0.023274690104525736, ,0.9595019817352295
0.010704664463065474,0.020666334296137612,-0.08170024531105108, ,0.01095289304762645,0.02044059987664894,-0.0820707605621568, ,0.000499854988608665, ,0.0017328254482696205,-0.00017020273027680641,-0.006955971549409693,-0.0023183591245170988,-0.0006944466420631444,0.008911385249659953, ,0.007170578303021422, ,0.002420129931193496, ,4.737259321767404e-05, ,0.19553959637536458,-0.2107997165348322,0.09362584154,2.0805436192534508,0.7430292857244651,-0.9568641066851356, ,0.006025985854271962,0.01892262045034313,0.00697103348796499,-0.01941189225304053,0.015198178728729262,-0.017056376636647348, ,0.9761371612548828
0.01074793432269431,0.020667248798464558,-0.08187045202976205, ,0.01097899356205079,0.02043674637625455,-0.08217195531443867, ,0.00044432417153185524, ,0.0016663222190605041,-0.00010870938142697791,-0.006896258000752181,0.029248892850158206,0.01661353081684476,-0.00962902813907569, ,0.0070955494417475114, ,0.033637882269315605, ,4.76021574111733e-05, ,0.19570949649859753,-0.21036724349387564,0.0937995444,2.0803339293099663,0.7437124682232924,-0.9578295899043204, ,0.006703360504656975,0.019574451641598756,0.0070606434042553195,-0.008773327740920196,0.03977649811980377,-0.0420103167882703, ,0.989361047744751
0.010766592235430441,0.020665403446452926,-0.08193836468860158, ,0.011005136454028293,0.020432901317284202,-0.08227299218925287, ,0.0004721611467354948, ,0.0015665452129740942,-0.0002482726889303129,-0.006270225199620857,0.0177379273919721,0.008084756426510853,-0.008132543894417574, ,0.006467721954932908, ,0.019493520588822113, ,4.788116553337667e-05, ,0.19577127836159133,-0.21017417517202003,0.09386695148000002,2.0803339293099663,0.7437124682232924,-0.957911268644461, ,0.006080052339483103,0.019113180575724222,0.0063385640748109835,-0.008773327740920196,0.027050064191517315,-0.033831683457641884, ,1.003627061843872
0.010784577918211188,0.020662331778627127,-0.08200935783346835, ,0.011031321519577707,0.020429064717759435,-0.08237387111640627, ,0.0004981624834723621, ,0.001744256897336994,-0.0001873849699211578,-0.007328159477704292,0.008242075813542513,0.003820529225045909,-0.00288868311359325, ,0.007535215098557391, ,0.009084505277777098, ,4.820392657246326e-05, ,0.19582533749171088,-0.2099733841172902,0.09393695114000002,2.0801242393664814,0.7437124682232924,-0.957911268644461, ,0.00538185688807605,0.020531575412910164,0.007360818632162663,-0.01265161973350224,0.020729277123544207,-0.027930393405640807, ,1.0172109603881836
0.010819612177358415,0.0206563637180128,-0.08215060198885839, ,0.01105754855509232,0.02042523659569331,-0.08247459202620962, ,0.0004636841714180788, ,0.0018563838402666955,-0.0003284872413827223,-0.007240576010513806,-0.014976935618470523,-0.009282624576904382,-0.001390719658207684, ,0.007481978735213205, ,0.017620320645634888, ,4.84505216611563e-05, ,0.19593345575195004,-0.20957180200783052,0.09407695046,2.079704859479513,0.7438491047230578,-0.9580226865481573, ,0.00530332161771926,0.02135875344552572,0.007139763119677276,-0.009086757085760388,0.0,-0.0099555795934766, ,1.0314810276031494
0.010836221333923203,0.020654723346232706,-0.08222033034803633, ,0.011083817357339844,0.020421416969092294,-0.08257515484947703, ,0.0004915649328916354, ,0.001999868420852437,-0.00018332544294835814,-0.00764131908468189,-0.008719187097123254,-0.002763295888010387,0.00011238148056546171, ,0.007900812570405572, ,0.009146584157339797, ,4.874418501619202e-05, ,0.19599523761494383,-0.20936328822022646,0.09414824641000001,2.079704859479513,0.7442590142223542,-0.958520297739528, ,0.006744906889046578,0.021041450456423676,0.007636055378715245,-0.009086757085760388,0.009825031057246057,-0.012024260337020663, ,1.0469059944152832
0.010876351079883299,0.02065172822472805,-0.08237141241390726, ,0.011110127723461429,0.020417605855952797,-0.08267555951752492, ,0.00044941101820338545, ,0.0019761131306819746,-0.0003038631361950701,-0.007500854796739945,0.012946597302549143,0.006358503155910198,-0.0030918893399603624, ,0.007762742981225686, ,0.01442376235086039, ,4.894989171408184e-05, ,0.1961419695395541,-0.20895398337789256,0.09429991234000001,2.079495169536028,0.7445322872218849,-0.9589064910272018, ,0.008224110431866504,0.02241307075070165,0.007574327874465051,-0.01342652713460997,0.02825977385242955,-0.03229877956775965, ,1.0600721836090088
0.01089688760353636,0.020647096675690858,-0.08244511261498776, ,0.011136479450971827,0.02041380327426353,-0.08277580596217227, ,0.0004703064473076753, ,0.0019311798197784408,-0.0003328145067040967,-0.007199630116496817,0.0042744841410521294,0.0010787932019737114,0.0013799573906761967, ,0.0074615611507619604, ,0.004408513366263521, ,4.918939866588128e-05, ,0.19621919686829634,-0.20873002412454006,0.09437250458000002,2.0792854795925435,0.7445322872218849,-0.9589064910272018, ,0.007912738476222748,0.021538116558890326,0.007227228457350273,-0.015576929871309719,0.02043572043476643,-0.02498631734187267, ,1.0737800598144531
0.010915821066309193,0.020644088106796393,-0.08251726783008462, ,0.011162872337759528,0.020410009242005714,-0.08287589411574003, ,0.0004944087968775638, ,0.001652463267079602,-0.00027149233485822223,-0.006909154337965361,-0.000847650467924801,0.002107640463707826,0.0023848847592431127, ,0.007109202247985335, ,0.0022717050635351586, ,4.94673301588746e-05, ,0.19628097873129013,-0.20852923306981022,0.09444380053000001,2.079075789649059,0.7445322872218849,-0.9589881697673424, ,0.004902451228318287,0.019982510330273904,0.0069015647833622195,-0.013480898471060692,0.015990896457928803,-0.018420230848378003, ,1.0875880718231201
0.010952477261929034,0.020640811229315194,-0.08266856409615211, ,0.011189306182085948,0.02040622377715217,-0.08297582391105052, ,0.00045335174421902213, ,0.001915090334856609,-0.0003671040901512784,-0.007315126727127237,-0.0028095506860362526,-0.003117069565070066,-0.0031763612688085357, ,0.007570562425447546, ,0.00419638854069767, ,4.966308963438995e-05, ,0.1963968197244035,-0.20809676002885363,0.09459676275000001,2.079075789649059,0.7450788332209468,-0.9597605563426903, ,0.006614345352747463,0.022084463941929432,0.007280078391224864,-0.010544038709130265,0.011631182514450078,-0.020321074710540676, ,1.1019020080566406
0.010970125358046793,0.020636902318360264,-0.08273491696979778, ,0.011215780782584719,0.02040244689766585,-0.0830755952814266, ,0.0004810173010528569, ,0.0015504861482186153,-0.0003723231066065629,-0.00597265231318837,0.03335076070545354,0.016189006170813963,-0.01864841229368939, ,0.006181844987199643, ,0.03707232327263402, ,4.990383994776924e-05, ,0.19646632432027153,-0.2078959689741238,0.09466287354000001,2.0788660997055746,0.7452154697207122,-0.9599536529865272, ,0.0071298117738502805,0.02030749872854072,0.006095986039035591,-0.002781016957833796,0.039483508786210715,-0.04698248609952947, ,1.1156351566314697
0.010987569061730144,0.02063008152288827,-0.0827961051436615, ,0.011242295938262918,0.02039867862150396,-0.083175208160692, ,0.0005120079900927844, ,0.0015024340912252556,-0.0006023711006214957,-0.006015820548062883,0.014472379033892698,0.005846596182831409,-0.0013885404882495401, ,0.006229787797977988, ,0.015608729414872197, ,5.02834559306374e-05, ,0.19653582891613955,-0.20767973245364552,0.09472250288,2.07865640976209,0.7452154697207122,-0.9599536529865272, ,0.006078362739909887,0.02160185330263391,0.006004075205427818,-0.017235917029272456,0.026717279208378686,-0.03508588105056192, ,1.129162073135376
0.01102525463445996,0.020620512689104822,-0.08292916767180597, ,0.011268851448499283,0.02039491896661364,-0.08327466248317038, ,0.0004791644812767993, ,0.001971007885519259,-0.0002763921219063525,-0.007454561359694264,-0.0009284437675709966,-0.0006091749675055242,0.0036409536469516157, ,0.007715682066757144, ,0.0011104408810485174, ,5.059699611737411e-05, ,0.1966748381078756,-0.20725498214556318,0.09485342817,2.078446719818605,0.7452154697207122,-0.9600353317266678, ,0.0074400065042440474,0.021172900838570007,0.007643383646833014,-0.015957268115639994,0.016902238663290513,-0.020155349805643756, ,1.1421489715576172
0.011045733644239154,0.020619237296535753,-0.08300709315144378, ,0.011295447113044626,0.02039116795093398,-0.08337395818368458, ,0.0004989613159225142, ,0.0020858486879855864,-0.00022888432724666244,-0.0076494603900903535,-0.008519007873495995,-0.006102167701007221,0.003085559087033812, ,0.007932048729300117, ,0.010479022836542859, ,5.093856838873472e-05, ,0.19675206543661783,-0.20703874562508487,0.09493250186,2.078446719818605,0.7454887427202431,-0.9604215250143419, ,0.00767628199939246,0.02087023126423373,0.007643383646833014,-0.013727327334009056,0.008566367202938628,-0.013945621504738511, ,1.1540400981903076
0.011063522929770274,0.02061719515337432,-0.0830820675580314, ,0.011322082732021677,0.020387425592396487,-0.0834730951975573, ,0.0005220630588017445, ,0.001964572072453402,1.2937201541784538e-05,-0.008118982107192549,0.03450839808970628,0.01872829578373571,-0.019840150829816838, ,0.008353297627641454, ,0.0392629413875529, ,5.13130176075398e-05, ,0.19682157003248585,-0.2068302318374808,0.09500898297,2.078237029875121,0.7458986522195394,-0.9610008149458528, ,0.007050687986773048,0.021172900838570007,0.008330968368200839,-0.0014407681551958285,0.04219562222704434,-0.04771631610920041, ,1.1663501262664795
0.011086226066470736,0.020617789632278283,-0.08317345868697511, ,0.011348758105924632,0.020383691908923814,-0.08357207346060953, ,0.0005316188047644593, ,0.002178112954199523,4.551610742689876e-05,-0.00908675282320875,0.016893241719344376,0.008059727315323761,0.0016831855395004437, ,0.009344266939004859, ,0.018717391865194537, ,5.169613524301791e-05, ,0.19689107462835387,-0.20662171804987675,0.09510101956000001,2.0780273399316362,0.7460352887193048,-0.9611939115896897, ,0.007181398938210955,0.021562586130077433,0.009239449837587009,-0.019778480970689835,0.031423812994378936,-0.03613251820511629, ,1.1778600215911865
0.011108828635694998,0.020615676559218452,-0.08326418373930848, ,0.011375473035618866,0.020379966918430945,-0.08367089290916004, ,0.0005404355832217898, ,0.0024627239176070216,-4.7601344210808274e-05,-0.008932568252194045,-0.02698219657985573,-0.02068575253808003,0.00957182413477675, ,0.00926596193400498, ,0.03399910636282755, ,5.208640434770212e-05, ,0.1969683019570961,-0.20639775879652425,0.09519175986,2.0776079600446673,0.7461719252190703,-0.9613053294933862, ,0.007904096203960894,0.02087023126423373,0.008869048730512249,-0.018235948934284762,-0.010113948590253073,-0.0018570577264297146, ,1.1896929740905762
0.011158691627791312,0.020617715914613168,-0.08344773912424273, ,0.011402227322340306,0.020376250638822826,-0.08376955348002568, ,0.00047029734585681096, ,0.002419847681390537,3.896600138772726e-05,-0.009009863985258664,-0.01710372414731325,-0.012234753423486055,0.009339860669869396, ,0.009329245960057889, ,0.021029182382289426, ,5.235113407886084e-05, ,0.19712275661458062,-0.2059730084884419,0.09537583304000001,2.0776079600446673,0.7461719252190703,-0.9613870082335267, ,0.007977889871581089,0.020386023965299847,0.009024822390934847,-0.018235948934284762,0.0012355352475354499,-0.007543792687307444, ,1.2033681869506836
0.011177454987504151,0.020618413826583103,-0.08351999528465527, ,0.011429020767696318,0.020372543087998473,-0.08386805511052096, ,0.0004948569533082276, ,0.002112448063420884,-0.00016137036177927503,-0.008071614546128878,0.0033354659572201063,0.0017970839690554267,0.005278342134669784, ,0.008345024781005189, ,0.0037887741661980293, ,5.265138349553038e-05, ,0.19719226121044864,-0.20579538563233474,0.09544972157,2.0776079600446673,0.7464451982186011,-0.9616098440409195, ,0.007970696554954155,0.021060129063131552,0.008147729677749363,-0.018235948934284762,0.021479751299741702,-0.02327562209714021, ,1.2152249813079834
0.01120103477464912,0.020616675363673412,-0.08360966077425487, ,0.011455853173663978,0.02036884428384665,-0.08396639773845657, ,0.0005036009553529849, ,0.0019115591850003071,-0.00027073168898200444,-0.007676798356980605,0.02732498632242122,0.01504820050869771,-0.004559189156876198, ,0.007915844059790351, ,0.031194601927384637, ,5.2960088519181366e-05, ,0.1972772112720651,-0.20554825818035954,0.09554046187000001,2.0776079600446673,0.7467184712181321,-0.9619960373285935, ,0.007796303892635022,0.022156652243397332,0.007827425808353808,-0.015458181871547651,0.04112583561968928,-0.043785679924433524, ,1.2267510890960693
0.011223576952330202,0.02061225300766633,-0.08369233300027265, ,0.011482724342591058,0.0203651542442492,-0.08406458130214003, ,0.0005165113425709427, ,0.002277486539738532,-5.562831824605478e-06,-0.008665090434935643,0.004398044356761115,0.007873770051474877,0.0041695051414740334, ,0.008959395522545105, ,0.009018813676833352, ,5.328378690917461e-05, ,0.19736216133368156,-0.20532429892700704,0.09562212814000001,2.0771885801576984,0.7467184712181321,-0.9621593948088746, ,0.008727200730929413,0.021172900838570007,0.008815058948533483,-0.013471024241136982,0.02754551846639771,-0.020165992593313885, ,1.2385849952697754
0.011265860996079811,0.020605313123190208,-0.08385245207365563, ,0.011509634077194597,0.020361472987077866,-0.08416260574037408, ,0.0004637656995017873, ,0.0022860009325033808,-0.00036483783748767905,-0.00799220370805023,-0.02003782288684839,-0.01351545288200491,0.008102837431426566, ,0.008320710728179465, ,0.024169852710386075, ,5.351614655118548e-05, ,0.19753206145691452,-0.20488410315317623,0.09578286810000002,2.076559510327245,0.7471283807174284,-0.9625753272601045, ,0.008270581094098894,0.02271892304488168,0.0076913623949782725,-0.051167914303274685,0.011642224423256497,-0.016562822039889694, ,1.2510030269622803
0.011283806880836512,0.02060227104451147,-0.08392758446781073, ,0.011536582180561958,0.020357800530198027,-0.08426047099245822, ,0.00048422579734236316, ,0.0018993492671950153,6.118779106781009e-05,-0.00755702793075125,0.050864519177520016,0.03234511346332059,-0.043633914533873316, ,0.007792300220777208, ,0.06027773761073728, ,5.377673587712039e-05, ,0.19760156605278253,-0.20466786663269795,0.09585934921000001,2.07634982038376,0.7475382902167248,-0.9629912597113344, ,0.007487942262320466,0.020824433082833174,0.007869966166007906,0.022067163698569734,0.05482950143124844,-0.055451691798777174, ,1.2628941535949707
0.011306412298476917,0.02060247371481988,-0.08400880893597447, ,0.011563568456148978,0.020354136891464432,-0.08435817699818493, ,0.0004998584901305828, ,0.0020657724447178125,-0.0002773351545920454,-0.007730093684202416,0.023500035987910256,0.012912738221996175,-0.01274178428424175, ,0.008006165058745296, ,0.02681399769191352, ,5.405711257786067e-05, ,0.197686516114399,-0.20445163011221967,0.09594231177000001,2.076559510327245,0.7478115632162555,-0.9632140955187272, ,0.008718682533101854,0.022626833943364517,0.007873856411270391,-0.005923478440639347,0.036403446742373835,-0.039804191580852015, ,1.2739431858062744
0.011326431984194009,0.02059889747235058,-0.08407546465133098, ,0.011590592707781639,0.02035048208872584,-0.08445572369784339, ,0.0005254407989129671, ,0.002202577772045784,-0.0003159363115400487,-0.007897618135200386,0.008163317492079202,0.0036364862366308594,-0.009311749411902992, ,0.008205092126497162, ,0.008936652275963684, ,5.4372313398308634e-05, ,0.19776374344314124,-0.20425083905748984,0.09600842256000001,2.076559510327245,0.7478115632162555,-0.9632140955187272, ,0.008980087721924178,0.022966345972524387,0.007968389954977489,-0.006001450743321805,0.02302097815281805,-0.02804510386512451, ,1.2861580848693848
0.011354271476719162,0.0205959661387784,-0.08416775347368136, ,0.011617654739654022,0.020346836139821228,-0.08455311103221562, ,0.0005290906798405186, ,0.0021988963872646445,-0.00024868552081517377,-0.007905411563558083,0.0004287040229687072,-0.0006887033446347003,-0.007424582839209398, ,0.008209294841789182, ,0.000811214250442928, ,5.468730842851154e-05, ,0.1978718617033804,-0.20399598887264042,0.09610045915000001,2.076559510327245,0.7478115632162555,-0.9632140955187272, ,0.008355007965565644,0.02193641737366407,0.007948508742514971,-0.005488302226612161,0.01538654313011399,-0.020958804844906916, ,1.2975170612335205
0.011377174381291473,0.0205926595405315,-0.08424924202143189, ,0.011644754356328665,0.02034319906258063,-0.08465033894257708, ,0.0005428704387351854, ,0.0026369754990536037,-0.0002098397581786855,-0.008602730570634593,-0.0193122051325381,-0.011407345743934592,-0.007012183568650553, ,0.009000258095057745, ,0.022429640141684446, ,5.5017687794917874e-05, ,0.19796453449787108,-0.20377202961928792,0.09618212542000001,2.07634982038376,0.747948199716021,-0.9634071921625641, ,0.010531493152841107,0.022988600183738078,0.008600870151187908,0.0,0.0,-0.004169823288065263, ,1.3086140155792236
0.011398135448799147,0.020589769212546665,-0.08433704370015899, ,0.011671891362737044,0.02033957087482729,-0.08474740737069739, ,0.0005531182972125029, ,0.001874579712264067,-0.00014435924208908266,-0.008249260904230333,0.06316012792027731,0.04168506543198506,-0.004920720979034244, ,0.00846080339887836, ,0.07567593012823581, ,5.5357645371812684e-05, ,0.198064930025236,-0.20353262490018695,0.09627286572,2.075930440496791,0.7486313822148483,-0.9639642816810462, ,0.008791836683791424,0.02280080287325103,0.008638184121475054,-0.020338652740917878,0.08074160894420211,-0.06969754893271546, ,1.3204891681671143
0.01141660000824111,0.02058756094679143,-0.08441507663305328, ,0.011699065564177956,0.02033595159437436,-0.08484431625883798, ,0.0005721369703648231, ,0.0022156548083896743,-0.00025106468543678335,-0.00879516718790012,0.015018694139694424,0.015159139201011584,0.012327919620045038, ,0.009073429647565944, ,0.021339180451669125, ,5.5804466466375105e-05, ,0.19814215735397825,-0.20331638837970867,0.09635323570000001,2.0757207505533066,0.7491779282139099,-0.9645733107761131, ,0.008977028052264888,0.023576879890303302,0.008963878176702309,-0.025756537588623275,0.04200469955629945,-0.03184565750371513, ,1.3323099613189697
0.011466550882373416,0.020587699555325974,-0.0845935224036414, ,0.01172627676631833,0.020332341239027475,-0.08494106554975296, ,0.0005034398106058873, ,0.00264240193374342,0.00025881154480662414,-0.009441909768938914,-0.0006814578409452302,0.008354758604919117,-0.03170557177675064, ,0.009808105397066258, ,0.008382499692475348, ,5.6141429646966716e-05, ,0.19831205747721117,-0.20290708353737477,0.09653212372000002,2.075511060609822,0.7491779282139099,-0.9645733107761131, ,0.008764618752290359,0.021730465206885912,0.009618847536231887,0.026439674561744057,0.016382292220589293,-0.010755928603233753, ,1.3427560329437256
0.011492982885145461,0.02058550145738504,-0.08468174623810898, ,0.011753524775192654,0.020328739826583973,-0.0850376551866883, ,0.0005103722084908419, ,0.002328266876295168,-0.0006385718031290818,-0.007814992432828185,-0.017525741878883516,-0.005008402589987268,0.01121541359795289, ,0.008179407516450478, ,0.018227333753414333, ,5.648370246403976e-05, ,0.19840473027170188,-0.20265995608539958,0.09662027144000002,2.0757207505533066,0.7491779282139099,-0.9646549895162536, ,0.01013043189178441,0.024986029899544702,0.00777015196097561,-0.0177093520281429,0.011781185649286458,-0.006734127976079337, ,1.3521041870117188
0.011516621035012886,0.02058096587849187,-0.08476391936149931, ,0.011780809397202269,0.0203251473748317,-0.08513408511338072, ,0.0005217866243946532, ,0.002503155698688758,-0.0004596871981307452,-0.008529706770191572,-0.024162186250645916,-0.01014320404889172,0.008665427021690361, ,0.008901291948782223, ,0.0262048809887973, ,5.683779730438658e-05, ,0.19849740306619257,-0.20242827409917286,0.09669415997000001,2.0757207505533066,0.7493145647136754,-0.9648480861600907, ,0.009665539993627124,0.024527511387560295,0.008296256,-0.014415273034702358,0.0,0.0011331535424037474, ,1.3616349697113037
0.011539150306817904,0.0205780345722697,-0.08484771859749207, ,0.011808130439115785,0.02032156390155101,-0.08523035527405852, ,0.0005334213557439342, ,0.0024804222361263692,-0.00013091350766252494,-0.00869582744382689,0.023036952729638325,0.015316337694624342,-0.015007513609932556, ,0.009043619173139233, ,0.027663899611599894, ,5.720377728855985e-05, ,0.19860552132643172,-0.20217342391432344,0.09678878914000001,2.075511060609822,0.7498611107127372,-0.9652937577748761, ,0.011143370309825125,0.02333913958644141,0.00892370393277311,-0.0009122594753214802,0.04007860576326246,-0.03681547372867654, ,1.371798038482666
0.011565584488328187,0.020575386310946978,-0.08493924154028004, ,0.011835487708068627,0.020317989424513815,-0.08532646561344029, ,0.0005376275551034889, ,0.002423601691120191,-0.0001050412139578503,-0.009197762394848704,0.02280378168964084,0.010736218977396074,0.008320435192803441, ,0.009512292672427786, ,0.025204737480310272, ,5.7570553773487975e-05, ,0.19872136231954507,-0.20194946466097094,0.09688082573000001,2.075091680722853,0.7499977472125027,-0.9654868544187133, ,0.0103212977451461,0.022498089511254336,0.00941419120567376,-0.02766335052450318,0.04116959920222453,-0.04152760225294719, ,1.3810911178588867
0.011596243460667895,0.020572815896319215,-0.08505110186146599, ,0.011862881011562009,0.020314423961482156,-0.08542241607673402, ,0.0005251059150264524, ,0.0029220153335214336,-5.1271339710143565e-05,-0.011557648646784772,0.00237112671524957,0.0012842257447169558,0.010726389729495895, ,0.011921411183334627, ,0.0026965295168521423, ,5.791390130772678e-05, ,0.19882175784691,-0.20167916901037308,0.09698712151000001,2.0748819907793687,0.7499977472125027,-0.9654868544187133, ,0.009528882634136019,0.026822199422970826,0.011652385896122898,-0.027489615127669783,0.02653090779858723,-0.029401691181349235, ,1.390571117401123
0.011596243460667895,0.020572815896319215,-0.08505110186146599, ,0.011890310157463961,0.020310867530211055,-0.08551820660963776, ,0.0006109656409618275, ,0.0029220153335214336,-5.1271339710143565e-05,-0.011557648646784772,0.00237112671524957,0.0012842257447169558,0.010726389729495895, ,0.011921411183334627, ,0.0026965295168521423, ,5.8375677362932525e-05, ,0.19882175784691,-0.20167916901037308,0.09698712151000001,2.0748819907793687,0.7499977472125027,-0.9654868544187133, ,0.009528882634136019,0.026822199422970826,0.011652385896122898,-0.027489615127669783,0.02653090779858723,-0.029401691181349235, ,1.3999950885772705
0.011632892266596712,0.020576888343168665,-0.08518602466330122, ,0.011917774954008309,0.020307320148446953,-0.0856138371583387, ,0.0005803866711965159, ,0.002812048164643676,0.00022008364215942225,-0.011264726744928271,-0.002346710412265672,-0.002595212024227769,0.01366567105824576, ,0.011612498453292656, ,0.0034988560736222848, ,5.878724410242162e-05, ,0.19892987610714916,-0.20140887335977523,0.09712452825000001,2.0748819907793687,0.7499977472125027,-0.9655685331588538, ,0.008404657558090521,0.02253013807181168,0.011459576633093526,-0.027489615127669783,0.018761371538440177,-0.022275704461912432, ,1.4108920097351074
0.01166279276148409,0.020577640346239264,-0.08530278025374202, ,0.011945275209794085,0.020303781833926463,-0.08570930766951237, ,0.0005657378881976275, ,0.0027361908344202463,-0.00020942214085642365,-0.010177696911366073,-0.014838588889440202,-0.006468381042480466,0.013102226216122085, ,0.01054116276010748, ,0.016187141944588933, ,5.917223230027646e-05, ,0.19903027163451406,-0.2011231322434289,0.09724767580000002,2.0748819907793687,0.750407656711799,-0.9660661443502242, ,0.009376540098686811,0.025018966928149425,0.010210776615384616,-0.02284097457344539,0.0115649455276376,-0.011676351043740285, ,1.4207639694213867
0.011693535699915101,0.020575040186356853,-0.08541350719081538, ,0.011972810733786083,0.02030025260437874,-0.08580461809032215, ,0.0005535977740797146, ,0.002370575611506806,-0.000554824412687844,-0.008302673302386135,0.03585452593263653,0.015386548646973298,-0.007678220670814992, ,0.008652273852863232, ,0.039016571731328456, ,5.953473105214472e-05, ,0.19915383536050166,-0.20082194566133416,0.09736045303000002,2.0748819907793687,0.7508175662110952,-0.966645434281735, ,0.011920499882773727,0.02610644884689705,0.008490837697228146,-0.018286233283711022,0.04972786440892202,-0.05578673044917474, ,1.4308030605316162
0.011718173776015433,0.020568074486621762,-0.08549552991793838, ,0.012000381335314139,0.020296732477524344,-0.08589976836841967, ,0.0005627400085953301, ,0.002553588034106885,-0.0003525409078904663,-0.008504305543222518,0.012378703497375174,0.0014059487664854625,-0.006682011166397378, ,0.00888641152052702, ,0.012458288314487235, ,5.990493545624334e-05, ,0.19926967635361503,-0.20057481820935896,0.0974421193,2.0744626108923994,0.7509542027108607,-0.9668385309255723, ,0.011720884577273438,0.02389147571965528,0.008624153502977802,-0.011945890178981556,0.02644453103763623,-0.03426624367779435, ,1.4407479763031006
0.01174703462067836,0.020562054024212503,-0.08559096521415263, ,0.012027986824072516,0.020293221471074204,-0.08599475845194347, ,0.0005605836789494495, ,0.0027162904201434145,-0.0004906252754531245,-0.009005245499698389,-0.0158034438908873,-0.001208679996497112,0.008943931224973773, ,0.009418778759335757, ,0.015849595796898923, ,6.026701451542258e-05, ,0.19939324007960263,-0.20031224529163533,0.09753674847,2.0740432310054304,0.7509542027108607,-0.9669202096657128, ,0.01183414575022408,0.02608492071425805,0.009045321703577514,-0.013903274713526304,0.017159654281999146,-0.006387456371491372, ,1.4510860443115234
0.011770162047562562,0.02055682675602852,-0.0856682031228196, ,0.01205562701012087,0.02028971960273272,-0.08608958828951895, ,0.0005748059976239273, ,0.0025668756108685672,-0.000674682123619718,-0.009171729723683936,-0.028048765738423378,-0.008349167408301925,0.04170025727200102, ,0.009548019296896677, ,0.02926502675479862, ,6.064369623036309e-05, ,0.1994859128740933,-0.20008828603828283,0.09761322958000002,2.073833541061946,0.7509542027108607,-0.9670018884058533, ,0.01058401126083241,0.026301813070529596,0.009123030652920965,-0.045706830136203136,0.013414249000183094,-0.0009464094117327222, ,1.4611749649047852
0.01179895282732275,0.020553442411090375,-0.08577531483926155, ,0.012083301703882082,0.02028622689019302,-0.08618425783025771, ,0.00056523693093594, ,0.002500683586733399,-8.987576751190657e-05,-0.00886799612873745,-0.00023078589544507275,0.003941707438504567,-0.03556183811981775, ,0.009214274328119719, ,0.003948450938850162, ,6.10021346021608e-05, ,0.19959403113433247,-0.19981799038768497,0.09771563649000001,2.0736238511184615,0.751364112210157,-0.9672544633768019, ,0.008016460214745346,0.023408224360747604,0.008963878176702309,0.025390920321900358,0.01193257194315465,-0.012983600757511458, ,1.4709270000457764
0.011830690214154848,0.020550385570478922,-0.08589453147965252, ,0.012111010716143962,0.020282743351141972,-0.08627876702375725, ,0.0005457553433183178, ,0.0024780720200080508,-0.0004430201953613663,-0.009842622210877896,0.03324579964989466,0.024883572372290386,-0.014177463922381957, ,0.010159444857663812, ,0.04152680189941224, ,6.132923333899166e-05, ,0.19970987212744581,-0.1994781901412191,0.09783878404000002,2.073833541061946,0.7519106582092188,-0.9677818137317282, ,0.009405054122267859,0.02902934890133704,0.010011823708359523,-0.007817239019858842,0.05541819219813748,-0.05183108237857141, ,1.4804370403289795
0.011856964168221927,0.020547680965292706,-0.0859918827405907, ,0.012138753858057787,0.020279269003256935,-0.08637311582010082, ,0.0005447835089046361, ,0.002907749450287416,2.2217393968496004e-05,-0.010500976730670887,0.0011342490150044007,0.0005582975792925884,-0.006051646343290473, ,0.01089614669396172, ,0.001264155578856499, ,6.173391790054392e-05, ,0.19981026765481075,-0.199200171757747,0.09794248724000001,2.073833541061946,0.7521839312087497,-0.968004649539121, ,0.010423653510376843,0.024079406637521134,0.010654723424749164,-0.007152094736962137,0.019929168715405777,-0.022481266246205566, ,1.4878990650177002
0.011856964168221927,0.020547680965292706,-0.0859918827405907, ,0.012166530941138376,0.020275803864206847,-0.08646730416985622, ,0.0006291059373377587, ,0.002907749450287416,2.2217393968496004e-05,-0.010500976730670887,0.0011342490150044007,0.0005582975792925884,-0.006051646343290473, ,0.01089614669396172, ,0.001264155578856499, ,6.224758761255412e-05, ,0.19981026765481075,-0.199200171757747,0.09794248724000001,2.073833541061946,0.7521839312087497,-0.968004649539121, ,0.010423653510376843,0.024079406637521134,0.010654723424749164,-0.007152094736962137,0.019929168715405777,-0.022481266246205566, ,1.4960441589355469
0.011889983127052932,0.02054744089215786,-0.08610408740810747, ,0.012194341777263001,0.020272347951650307,-0.08656133202407512, ,0.0006143150272508314, ,0.003488531320868592,-0.00011878257323677012,-0.011807135573471973,-0.010320211384038774,-0.005986110575885861,-0.010013500341508386, ,0.012312286973862056, ,0.011930635078219799, ,6.273598958688649e-05, ,0.19993383138079834,-0.19895304430577182,0.09805526447000001,2.0736238511184615,0.7521839312087497,-0.968004649539121, ,0.013318868990662563,0.028695779122609847,0.011922763113772456,-0.001993793985235816,0.012949696296548407,-0.016179368492831664, ,1.5040860176086426
0.011889983127052932,0.02054744089215786,-0.08610408740810747, ,0.012222186178673527,0.02026890128324064,-0.08665519933429491, ,0.0007011900858025752, ,0.0036248348981263653,8.427809070705007e-05,-0.012738560816623307,-0.007414176545839184,-0.010786256003655632,0.021011143553717825, ,0.01324452575647987, ,0.013088659098598653, ,6.333472113935328e-05, ,0.20009600877115705,-0.19861324405930594,0.09820952298,2.0729947812880076,0.7525938407080459,-0.9685022607304914, ,0.01421464073673918,0.026500123305911973,0.012918744136253043,-0.03669334325018625,0.0180308394066747,-0.02302455657098193, ,1.5126080513000488
0.011930793384105567,0.02054582107358738,-0.0862560132699947, ,0.012250063957972868,0.020265463876619205,-0.0867489060525348, ,0.0006507512215198122, ,0.0036248348981263653,8.427809070705007e-05,-0.012738560816623307,-0.007414176545839184,-0.010786256003655632,0.021011143553717825, ,0.01324452575647987, ,0.013088659098598653, ,6.3860398833748e-05, ,0.20022729523001886,-0.19832750294295964,0.09833396682000001,2.0729947812880076,0.7531403867071077,-0.9691112898255582, ,0.01177809312235963,0.02929822215451398,0.01132916893314367,-0.03669334325018625,0.056336363354892116,-0.05149876739840829, ,1.5201489925384521
0.011963701376093934,0.02054654985586977,-0.0863767910429059, ,0.012277974928127119,0.020262035749420274,-0.08684245213129807, ,0.0006297272358084064, ,0.002849642784093826,-0.0004064469181688647,-0.011088283274218165,0.028623455700720283,0.01861390526671931,0.013573441900029916, ,0.011455814639890665, ,0.034143513555449256, ,6.435287993963407e-05, ,0.20022729523001886,-0.19832750294295964,0.09833396682000001,2.0729947812880076,0.7531403867071077,-0.9691112898255582, ,0.01177809312235963,0.02929822215451398,0.01132916893314367,-0.03669334325018625,0.056336363354892116,-0.05149876739840829, ,1.5277881622314453
0.011995461503210767,0.020544901622390917,-0.08649052040841956, ,0.012305918902464925,0.02025861691927,-0.08693583752357059, ,0.0006137182260933116, ,0.0030388800403104545,-0.0003267234388648391,-0.011488578366224621,-0.011481923877154562,0.00014107937985351812,0.023850313292780402, ,0.011888186278057107, ,0.011482781856907173, ,6.481924997410366e-05, ,0.20034313622313224,-0.19804176182661332,0.09844933663000001,2.0729947812880076,0.7534136597066386,-0.9694974831132324, ,0.01072292037328266,0.028335903720056965,0.011576171162790699,-0.033878623274098664,0.024269444986110052,-0.015873352684966195, ,1.5361299514770508
0.012031677526168842,0.02054310096256459,-0.08661467263662456, ,0.012333895694676206,0.020255207403784798,-0.0870290621828202, ,0.0005881642785472948, ,0.003519672959730884,-0.00019801857968335156,-0.012412957244233061,-0.020521106374993756,-0.007059267562079565,0.01872627575052124, ,0.012903829534232022, ,0.021701354120640556, ,6.524748861818032e-05, ,0.20046669994911984,-0.19774057524451857,0.09857378047000001,2.0729947812880076,0.7534136597066386,-0.9694974831132324, ,0.013127257097588987,0.029136303825136867,0.012512813448546743,-0.02661857236203603,0.015218610657676233,-0.008493004174071703, ,1.5443100929260254
0.01206650020642937,0.020541364906958383,-0.08673496586783734, ,0.012361905118812386,0.020251807220571936,-0.08712212606299648, ,0.0005665692655987886, ,0.0035157657128410146,-0.00014888200340761222,-0.011908791278310456,-0.020590572287501448,-0.006172292547037935,0.0005132577597113325, ,0.01241781317740327, ,0.021495781513936604, ,6.564331674140063e-05, ,0.2005902636751074,-0.1974625568610465,0.09869433544000002,2.072785091344523,0.7534136597066386,-0.9694974831132324, ,0.013220526826201,0.0285061404501264,0.012012678371040725,-0.006538601968979095,0.01090729664984049,-0.004977416686433408, ,1.5535051822662354
0.01206650020642937,0.020541364906958383,-0.08673496586783734, ,0.012389946989286662,0.020248416387230964,-0.08721502911853023, ,0.0006487660450555647, ,0.0035157657128410146,-0.00014888200340761222,-0.011908791278310456,-0.020590572287501448,-0.006172292547037935,0.0005132577597113325, ,0.01241781317740327, ,0.021495781513936604, ,6.614098784718666e-05, ,0.2007369955997177,-0.19716909301182595,0.09881229783,2.0725754014010387,0.753823569205935,-0.9698317368243214, ,0.013603345980285373,0.02957212264209124,0.011131244947589101,-0.008311407490954312,0.015540370064860197,-0.023580077109700188, ,1.5621240139007568
0.01210003567522236,0.020538484508477638,-0.08685056822600921, ,0.012418021120873705,0.02024503492135339,-0.08730777130433372, ,0.0006294934937383205, ,0.002675045117028897,-0.0007572741218937144,-0.009981086376984775,0.049270404762885446,0.03186721725947221,-0.0168089959169936, ,0.01036105282964338, ,0.058677868249477835, ,6.660884623481432e-05, ,0.2007369955997177,-0.19716909301182595,0.09881229783,2.0725754014010387,0.753823569205935,-0.9698317368243214, ,0.013603345980285373,0.02957212264209124,0.011131244947589101,-0.008311407490954312,0.015540370064860197,-0.023580077109700188, ,1.5696930885314941
0.012126655523424585,0.02053036575554725,-0.08695331624564563, ,0.012446127328708076,0.020241662840520078,-0.08740035257579856, ,0.000620687592910379, ,0.002735751851901728,-0.0007118327408256206,-0.00976220463934353,0.04586777569062362,0.02828022390916787,-0.013945583161208499, ,0.01016325161877415, ,0.05388528391403002, ,6.706069854089994e-05, ,0.20086055932570526,-0.19685246096398276,0.09891729732000001,2.0721560215140697,0.7545067517047621,-0.9703888263428035, ,0.013277870653207048,0.031144385152107244,0.010030737732997482,-0.013529960534612067,0.06705923993494049,-0.06429021745022012, ,1.5781199932098389
0.012157444288428918,0.02052261008732449,-0.08705112499885069, ,0.012474265428285704,0.02023830016230476,-0.08749277288879728, ,0.0006134008695943911, ,0.003090329526241015,-0.0009116365960924622,-0.010378841949385698,0.0003661080046040427,-0.0034445513250439376,0.024898644425695893, ,0.01086745499527927, ,0.0034639354019926276, ,6.749871640312174e-05, ,0.20100729125031555,-0.196551274381888,0.09901581536000001,2.0719463315705853,0.7547800247042931,-0.9706116621501965, ,0.01451467445066852,0.0315272231091265,0.01042461486910995,-0.04504484713205641,0.031395551426951204,-0.034082633460894116, ,1.5861320495605469
0.01219367895884506,0.020515464950043468,-0.0871643957375818, ,0.012502435235461903,0.02023494690427048,-0.08758503219968074, ,0.0005924152644907934, ,0.0034134511440268404,-0.0006908941115565947,-0.011400059208373453,-0.01339322238768522,-0.01114073310712663,0.019983928037696063, ,0.011920164987971521, ,0.017421083420492586, ,6.790581286635194e-05, ,0.2011540231749258,-0.19621919686829634,0.09912859259000001,2.0719463315705853,0.7547800247042931,-0.9706116621501965, ,0.014528006974658721,0.0314020322827501,0.01142669406025825,-0.036079277605370545,0.017419593618319323,-0.02176214366829268, ,1.5941791534423828
0.012227613364685058,0.020512076025366727,-0.08727359121334269, ,0.012530636566453202,0.020231603083974082,-0.08767713046528017, ,0.000577349166031717, ,0.003696464317835139,-0.0005273591690077286,-0.012002646804206716,-0.030480242030110228,-0.021956749287536298,0.017534418907113807, ,0.012570023327452443, ,0.03756519325630153, ,6.828989064847042e-05, ,0.20129303236666185,-0.19593345575195004,0.09923877724,2.0719463315705853,0.7549166612040585,-0.9707230800538929, ,0.014878792969343177,0.030760759014091015,0.011985561715575624,-0.02892915766229151,0.0,-0.006891072701148597, ,1.604734182357788
0.012262849190526568,0.02050954974811748,-0.08739013971240506, ,0.012558869237834752,0.020228268718961197,-0.08776906764290394, ,0.0005570756342577972, ,0.0035919668900064065,-0.00040026513185835964,-0.011729045486129965,-0.009305188843768165,-0.008702178750846659,0.009252274565291277, ,0.012273261438199285, ,0.012740260297581341, ,6.864478573805031e-05, ,0.20144748702414633,-0.19563226916985527,0.09935803592,2.0719463315705853,0.7553265707033548,-0.9710573337649822, ,0.015335640200140721,0.029618271397774898,0.011842982542750931,-0.023983485854425297,0.018308624011086072,-0.021230996052931207, ,1.6145451068878174
0.012262849190526568,0.02050954974811748,-0.08739013971240506, ,0.012587133066542546,0.02022494382677131,-0.08786084369034017, ,0.0006385317514056649, ,0.0035919668900064065,-0.00040026513185835964,-0.011729045486129965,-0.009305188843768165,-0.008702178750846659,0.009252274565291277, ,0.012273261438199285, ,0.012740260297581341, ,6.918351225634608e-05, ,0.20144748702414633,-0.19563226916985527,0.09935803592,2.0719463315705853,0.7553265707033548,-0.9710573337649822, ,0.015335640200140721,0.029618271397774898,0.011842982542750931,-0.023983485854425297,0.018308624011086072,-0.021230996052931207, ,1.6210930347442627
0.012298920827876196,0.02050470287804279,-0.08751484888803181, ,0.012615427869869987,0.02022162842493156,-0.08795245856585239, ,0.0006097623174304196, ,0.0032051528398493404,-0.0005083450848932516,-0.010652529578032298,0.02899902168383705,0.021710600136935192,-0.019722507351924316, ,0.011135879213738913, ,0.03622558874268419, ,6.968253431672002e-05, ,0.20161738714737928,-0.1952924689233894,0.09948636863000002,2.071736641627101,0.756009753202182,-0.9716961020236049, ,0.0149656113481266,0.03098169819081645,0.010932609142072754,0.0,0.053907671461835366,-0.046310288150927185, ,1.62711501121521
0.012335628013317853,0.02049689584188411,-0.08763000764738185, ,0.012643753465471046,0.020218322530963524,-0.0880439122281835, ,0.0005863969524396044, ,0.0035871046772093145,-0.0006129144867863499,-0.011131832956815333,-0.008689595604190144,-0.003832184759008296,-0.005095099194112796, ,0.011711562197751822, ,0.009497080649104157, ,7.014897356207161e-05, ,0.201779564537738,-0.19496039140979773,0.09960173844,2.071526951683616,0.7561463897019475,-0.9718075199273013, ,0.01613893563919571,0.03156917550181995,0.011233294442877295,-0.00747617345465265,0.020617128287508772,-0.019018503013571456, ,1.6327359676361084
0.012335628013317853,0.02049689584188411,-0.08763000764738185, ,0.012672109671357953,0.020215026162378854,-0.08813520463655192, ,0.000669249146647426, ,0.0035871046772093145,-0.0006129144867863499,-0.011131832956815333,-0.008689595604190144,-0.003832184759008296,-0.005095099194112796, ,0.011711562197751822, ,0.009497080649104157, ,7.071400093394502e-05, ,0.201779564537738,-0.19496039140979773,0.09960173844,2.071526951683616,0.7561463897019475,-0.9718075199273013, ,0.01613893563919571,0.03156917550181995,0.011233294442877295,-0.00747617345465265,0.020617128287508772,-0.019018503013571456, ,1.6396770477294922
0.012369944185492622,0.020490467787275014,-0.08773927912214417, ,0.01270049630590088,0.020211739336679423,-0.08822633575065253, ,0.0006512898071148824, ,0.0038823924973204137,-0.0003563752563107555,-0.012610801911988927,-0.01701811336471078,-0.0091160681438498,0.0011079375168694641, ,0.013199708318367644, ,0.019305920386092298, ,7.125283259567883e-05, ,0.20192629646234825,-0.19467465029345143,0.09971062680000001,2.0711075717966474,0.7561463897019475,-0.9718075199273013, ,0.015716618343569192,0.03141242686477021,0.012722692907348242,-0.012195081321141981,0.013623130214806215,-0.013202283190116659, ,1.6490659713745117
0.012411540241019665,0.020490583969143723,-0.08788187778427047, ,0.012728913187828693,0.02020846207135959,-0.088317305530656, ,0.0006082069342731612, ,0.0038821057325409275,-7.14891375076551e-05,-0.013078168744840026,-0.022548552381224524,-0.015561051151833963,0.03263525424119623, ,0.013642373449437573, ,0.02739677252611843, ,7.173504339822909e-05, ,0.20208075111983276,-0.1943734637113567,0.09985192241000002,2.0708978818531625,0.7564196627014783,-0.9721120344748346, ,0.01535300785608652,0.027434790852405543,0.013262957135720236,-0.04242061179649929,0.01179353374588047,-0.009616835980098487, ,1.6548070907592773
0.012411540241019665,0.020490583969143723,-0.08788187778427047, ,0.012757360136227795,0.020205194383903703,-0.08840811393720839, ,0.0006913487571003082, ,0.0038821057325409275,-7.14891375076551e-05,-0.013078168744840026,-0.022548552381224524,-0.015561051151833963,0.03263525424119623, ,0.013642373449437573, ,0.02739677252611843, ,7.231499909482547e-05, ,0.20208075111983276,-0.1943734637113567,0.09985192241000002,2.0708978818531625,0.7564196627014783,-0.9721120344748346, ,0.01535300785608652,0.027434790852405543,0.013262957135720236,-0.04242061179649929,0.01179353374588047,-0.009616835980098487, ,1.6607849597930908
0.012450389908022684,0.020491334928404128,-0.08801956315689981, ,0.01278583697054247,0.02020193629178803,-0.08849876093143068, ,0.0006526153612532786, ,0.0035896554201967027,-0.00017911811042572827,-0.013384815582487181,0.05009618125371147,0.03424011280907395,0.009571734353448125, ,0.01385896812574521, ,0.06067958694474701, ,7.284372526469052e-05, ,0.20225065124306568,-0.19404910893063926,0.09999840318000001,2.0708978818531625,0.7571028452003055,-0.9726691239933167, ,0.01596247965659727,0.03176998378254797,0.01387527135888502,-0.03601756372018783,0.08279977677078607,-0.0675176659982475, ,1.666388988494873
0.012488907888011066,0.02049186037392491,-0.0881514475644456, ,0.012814343510574411,0.02019868781248002,-0.0885892464749184, ,0.0006192950679833723, ,0.003926588566876887,-3.136954168886808e-05,-0.014147053976042337,0.017835092302999043,0.013889780343119428,0.009900775188563402, ,0.014681901035721817, ,0.022605661874115137, ,7.332832489248896e-05, ,0.20241282863342439,-0.1937479223485445,0.10013451363,2.0708978818531625,0.7576493911993673,-0.973196474348243, ,0.015554325775851629,0.03113416717797598,0.014507114316939893,-0.02869021362819419,0.05064893109300533,-0.04126913878109971, ,1.6722500324249268
0.012488907888011066,0.02049186037392491,-0.0881514475644456, ,0.012842879576481957,0.020195448963437144,-0.0886795705297406, ,0.0007014766902601017, ,0.003926588566876887,-3.136954168886808e-05,-0.014147053976042337,0.017835092302999043,0.013889780343119428,0.009900775188563402, ,0.014681901035721817, ,0.022605661874115137, ,7.390843539319091e-05, ,0.20241282863342439,-0.1937479223485445,0.10013451363,2.0708978818531625,0.7576493911993673,-0.973196474348243, ,0.015554325775851629,0.03113416717797598,0.014507114316939893,-0.02869021362819419,0.05064893109300533,-0.04126913878109971, ,1.6780869960784912
0.012533544221503344,0.020492579755315928,-0.08829424343338053, ,0.012871444988781249,0.02019221976210997,-0.08876973305844092, ,0.0006561123665849841, ,0.004522292725167065,4.638419456966074e-06,-0.014842627861888223,-0.013405706624718251,-0.008588412894442288,0.011884434233350238, ,0.015516273871440094, ,0.015920838099363083, ,7.44299084549021e-05, ,0.20259045148953156,-0.19343901303357552,0.10027969811000001,2.0708978818531625,0.7577860276991327,-0.9733078922519394, ,0.0183766346937395,0.03155867693996368,0.0150983995450237,-0.02386722813611184,0.020830913509882268,-0.016990230637202765, ,1.6843640804290771
0.012533544221503344,0.020492579755315928,-0.08829424343338053, ,0.012900039568343954,0.020189000225938152,-0.08885973402403474, ,0.0007390933486586763, ,0.004522292725167065,4.638419456966074e-06,-0.014842627861888223,-0.013405706624718251,-0.008588412894442288,0.011884434233350238, ,0.015516273871440094, ,0.015920838099363083, ,7.504689843491881e-05, ,0.20259045148953156,-0.19343901303357552,0.10027969811000001,2.0708978818531625,0.7577860276991327,-0.9733078922519394, ,0.0183766346937395,0.03155867693996368,0.0150983995450237,-0.02386722813611184,0.020830913509882268,-0.016990230637202765, ,1.6906249523162842
0.012533544221503344,0.020492579755315928,-0.08829424343338053, ,0.012928663136398207,0.020185790372352623,-0.08894957339001036, ,0.0008244367983436635, ,0.004522292725167065,4.638419456966074e-06,-0.014842627861888223,-0.013405706624718251,-0.008588412894442288,0.011884434233350238, ,0.015516273871440094, ,0.015920838099363083, ,7.57611965315087e-05, ,0.20259045148953156,-0.19343901303357552,0.10027969811000001,2.0708978818531625,0.7577860276991327,-0.9733078922519394, ,0.0183766346937395,0.03155867693996368,0.0150983995450237,-0.02386722813611184,0.020830913509882268,-0.016990230637202765, ,1.6969959735870361
0.012625301808375053,0.020492014751611904,-0.08860773476039077, ,0.01295731551452878,0.020182590218776723,-0.08903925112032879, ,0.0006262451688343467, ,0.0047312059367117295,4.066543618907754e-05,-0.016101338635945154,-0.01643234941664615,-0.014448508449407777,0.043448188542069714, ,0.0167821056236295, ,0.021881051655654092, ,7.623502263511894e-05, ,0.20296114266749435,-0.19279802620501488,0.10059858545000001,2.0698494321357397,0.7583325736981945,-0.9738352426068656, ,0.0190098039980911,0.03163231385282359,0.01637082376156218,-0.05833810313726106,0.0232753142519023,-0.020638524743998608, ,1.7027161121368408
0.012625301808375053,0.020492014751611904,-0.08860773476039077, ,0.012985996524675851,0.020179399782623963,-0.08912876717942265, ,0.0007066141654997164, ,0.0047312059367117295,4.066543618907754e-05,-0.016101338635945154,-0.01643234941664615,-0.014448508449407777,0.043448188542069714, ,0.0167821056236295, ,0.021881051655654092, ,7.680059553168031e-05, ,0.20296114266749435,-0.19279802620501488,0.10059858545000001,2.0698494321357397,0.7583325736981945,-0.9738352426068656, ,0.0190098039980911,0.03163231385282359,0.01637082376156218,-0.05833810313726106,0.0232753142519023,-0.020638524743998608, ,1.7088580131530762
0.012669482628365512,0.02049464662038958,-0.08876289661248944, ,0.013014705989134845,0.020176219081298456,-0.08921812153219533, ,0.0006540680346827314, ,0.00449724354715974,-9.104601064064462e-05,-0.01623699746424685,0.0319366769538737,0.016360220228947994,0.045339983586543814, ,0.01684854817343269, ,0.03588324138404269, ,7.730020195631202e-05, ,0.20314648825647572,-0.1924813941571717,0.10075932541000002,2.0696397421922557,0.7590157561970217,-0.9744740108654883, ,0.019790811586750945,0.03394025091504678,0.016731944873949585,-0.07289565254542807,0.07311503067285333,-0.061824924687009175, ,1.7145521640777588
0.012669482628365512,0.02049464662038958,-0.08876289661248944, ,0.013043443730556797,0.020173048132196055,-0.08930731414402115, ,0.0007346175482518537, ,0.00449724354715974,-9.104601064064462e-05,-0.01623699746424685,0.0319366769538737,0.016360220228947994,0.045339983586543814, ,0.01684854817343269, ,0.03588324138404269, ,7.789093866886539e-05, ,0.20314648825647572,-0.1924813941571717,0.10075932541000002,2.0696397421922557,0.7590157561970217,-0.9744740108654883, ,0.019790811586750945,0.03394025091504678,0.016731944873949585,-0.07289565254542807,0.07311503067285333,-0.061824924687009175, ,1.7203819751739502
0.012717663882632534,0.02049438165937319,-0.08892245661894667, ,0.013072209571947681,0.020169886952703605,-0.08939634498074521, ,0.000674958991285129, ,0.004681483391198641,-0.00010744167070419162,-0.014756530774768923,-0.015445155575220476,-0.004481007555194981,-0.01769617785586076, ,0.015481699873120352, ,0.016082025983601332, ,7.849958710256692e-05, ,0.20334727931120555,-0.19213387117783157,0.10092265795000001,2.0694300522487707,0.759425665696318,-0.9748899433167182, ,0.018713654418945132,0.03404985344760344,0.014998880903954804,0.00898185558733089,0.017226486858561738,-0.011164540190298666, ,1.7244441509246826
0.012717663882632534,0.02049438165937319,-0.08892245661894667, ,0.013101003336667857,0.02016673556019825,-0.08948521400868167, ,0.0007556434232003947, ,0.004681483391198641,-0.00010744167070419162,-0.014756530774768923,-0.015445155575220476,-0.004481007555194981,-0.01769617785586076, ,0.015481699873120352, ,0.016082025983601332, ,7.919975581484207e-05, ,0.20334727931120555,-0.19213387117783157,0.10092265795000001,2.0694300522487707,0.759425665696318,-0.9748899433167182, ,0.018713654418945132,0.03404985344760344,0.014998880903954804,0.00898185558733089,0.017226486858561738,-0.011164540190298666, ,1.7283401489257812
0.012717663882632534,0.02049438165937319,-0.08892245661894667, ,0.013129824848432501,0.020163593972049042,-0.0895739211946148, ,0.0008388702218846938, ,0.004681483391198641,-0.00010744167070419162,-0.014756530774768923,-0.015445155575220476,-0.004481007555194981,-0.01769617785586076, ,0.015481699873120352, ,0.016082025983601332, ,7.999377064594477e-05, ,0.2035480703659354,-0.19177090273274303,0.10107043501000001,2.0696397421922557,0.759425665696318,-0.9748899433167182, ,0.019982510330273904,0.03945818775819991,0.015479894577259477,-0.003606087862262598,0.011835657575215326,-0.00678173537195248, ,1.7322771549224854
0.012766917336966142,0.02049113615483626,-0.08906891127226477, ,0.013158673931310694,0.020160462205615293,-0.08966246650579746, ,0.0007842998821623507, ,0.004921992646585533,-0.0005902140496982368,-0.015360604782962564,-0.028967169605695554,-0.011886935414045653,-0.0054799852081374185, ,0.016140710750641548, ,0.031311264639970235, ,8.072056033263913e-05, ,0.2035480703659354,-0.19177090273274303,0.10107043501000001,2.0696397421922557,0.759425665696318,-0.9748899433167182, ,0.019982510330273904,0.03945818775819991,0.015479894577259477,-0.003606087862262598,0.011835657575215326,-0.00678173537195248, ,1.7364590167999268
0.012791139617248402,0.020488866331040433,-0.08914553497287699, ,0.013187550409725513,0.020157340278247563,-0.08975084990995112, ,0.0007959002532464841, ,0.005370063346280721,-0.000450608683959605,-0.016082905365411283,-0.04142960382094481,-0.022637182539070384,-0.002059912630679464, ,0.01696173556927187, ,0.04721073003081201, ,8.145744666548605e-05, ,0.20364846589330032,-0.1915778344108874,0.10114821241000001,2.0696397421922557,0.7595623021960834,-0.9750830399605551, ,0.022460814570052258,0.03908440756114941,0.016204284354018314,-0.004218122812594743,0.0,0.0029926628914503602, ,1.7440381050109863
0.012791139617248402,0.020488866331040433,-0.08914553497287699, ,0.013216454108453493,0.020154228207287024,-0.08983907137526542, ,0.00087969757970347, ,0.005370063346280721,-0.000450608683959605,-0.016082905365411283,-0.04142960382094481,-0.022637182539070384,-0.002059912630679464, ,0.01696173556927187, ,0.04721073003081201, ,8.228801756510655e-05, ,0.20364846589330032,-0.1915778344108874,0.10114821241000001,2.0696397421922557,0.7595623021960834,-0.9750830399605551, ,0.022460814570052258,0.03908440756114941,0.016204284354018314,-0.004218122812594743,0.0,0.0029926628914503602, ,1.7477970123291016
0.012791139617248402,0.020488866331040433,-0.08914553497287699, ,0.013245384852625134,0.020151126010066796,-0.08992713087039728, ,0.0009650385511959541, ,0.005370063346280721,-0.000450608683959605,-0.016082905365411283,-0.04142960382094481,-0.022637182539070384,-0.002059912630679464, ,0.01696173556927187, ,0.04721073003081201, ,8.321340775709007e-05, ,0.20364846589330032,-0.1915778344108874,0.10114821241000001,2.0696397421922557,0.7595623021960834,-0.9750830399605551, ,0.022460814570052258,0.03908440756114941,0.016204284354018314,-0.004218122812594743,0.0,0.0029926628914503602, ,1.7517540454864502
0.012876475062671984,0.02048836537600512,-0.08941756085219184, ,0.013274342467722971,0.0201480337039093,-0.09001502836447069, ,0.000794412705879141, ,0.005308624380048007,-0.000246432960129034,-0.01743501082043114,0.06391127007440744,0.02618147124219008,-0.0423591761476258, ,0.018226953237467557, ,0.06906604279869907, ,8.393772827654216e-05, ,0.20401143433838886,-0.19102952037681747,0.10140487783,2.0694300522487707,0.7605187576944415,-0.9761080015068518, ,0.023571023735338002,0.041098718734721,0.017639879867109635,0.00010538018043543971,0.08914192227495787,-0.09886968167545009, ,1.755829095840454
0.012876475062671984,0.02048836537600512,-0.08941756085219184, ,0.013303326779583506,0.020144951306129397,-0.09010276382707692, ,0.0008772905609946418, ,0.005308624380048007,-0.000246432960129034,-0.01743501082043114,0.06391127007440744,0.02618147124219008,-0.0423591761476258, ,0.018226953237467557, ,0.06906604279869907, ,8.475408627935177e-05, ,0.20401143433838886,-0.19102952037681747,0.10140487783,2.0694300522487707,0.7605187576944415,-0.9761080015068518, ,0.023571023735338002,0.041098718734721,0.017639879867109635,0.00010538018043543971,0.08914192227495787,-0.09886968167545009, ,1.7598111629486084
0.012876475062671984,0.02048836537600512,-0.08941756085219184, ,0.013332337614395229,0.020141878834032356,-0.09019033722827277, ,0.0009617935938966596, ,0.006284091963910671,0.00015053481703246677,-0.021006421158781097,-0.013369349147797815,-0.004398187098427186,0.013022040598887565, ,0.021926746280333337, ,0.014074070343710344, ,8.56637136287639e-05, ,0.20401143433838886,-0.19102952037681747,0.10140487783,2.0694300522487707,0.7605187576944415,-0.9761080015068518, ,0.023571023735338002,0.041098718734721,0.017639879867109635,0.00010538018043543971,0.08914192227495787,-0.09886968167545009, ,1.7637920379638672
0.012932126435406675,0.020486060393392444,-0.08960454685038706, ,0.01336137479869875,0.020138816304913612,-0.09027774853858123, ,0.0008706509790724962, ,0.006284091963910671,0.00015053481703246677,-0.021006421158781097,-0.013369349147797815,-0.004398187098427186,0.013022040598887565, ,0.021926746280333337, ,0.014074070343710344, ,8.646477153462295e-05, ,0.20426628452323828,-0.19055843367148978,0.10162006197000001,2.069010672361802,0.7610653036935033,-0.9766353518617781, ,0.02409775052271985,0.0423269141652412,0.021438508102288024,-0.027986287314008207,0.03479715376833328,-0.02397337259941186, ,1.7676939964294434
0.012932126435406675,0.020486060393392444,-0.08960454685038706, ,0.013390438159387332,0.020135763736060797,-0.09036499772899052, ,0.0009544856851962884, ,0.006284091963910671,0.00015053481703246677,-0.021006421158781097,-0.013369349147797815,-0.004398187098427186,0.013022040598887565, ,0.021926746280333337, ,0.014074070343710344, ,8.735797855419672e-05, ,0.20426628452323828,-0.19055843367148978,0.10162006197000001,2.069010672361802,0.7610653036935033,-0.9766353518617781, ,0.02409775052271985,0.0423269141652412,0.021438508102288024,-0.027986287314008207,0.03479715376833328,-0.02397337259941186, ,1.771435022354126
0.01299951793080747,0.020487189677518478,-0.08983003363735771, ,0.013419527523705083,0.020132721144750662,-0.09045208477095294, ,0.0008300624143133447, ,0.006768957501634791,0.000129855365246327,-0.022442808422262053,-0.03548207801918857,-0.02344953812101984,0.03558254309839078, ,0.02344174263900143, ,0.04253061256390851, ,8.810523791246918e-05, ,0.2045211347080877,-0.19011051516478475,0.1018495053,2.068591292474833,0.7613385766930342,-0.9770215451494519, ,0.025537390085702577,0.04347088481835583,0.022787999313304726,-0.049706556751586875,0.01640128475095709,-0.012772047031369277, ,1.776015043258667
0.01299951793080747,0.020487189677518478,-0.08983003363735771, ,0.01344864271924831,0.02012968854825217,-0.0905390096363864, ,0.0009122319333466958, ,0.006768957501634791,0.000129855365246327,-0.022442808422262053,-0.03548207801918857,-0.02344953812101984,0.03558254309839078, ,0.02344174263900143, ,0.04253061256390851, ,8.894257745458722e-05, ,0.2045211347080877,-0.19011051516478475,0.1018495053,2.068591292474833,0.7613385766930342,-0.9770215451494519, ,0.025537390085702577,0.04347088481835583,0.022787999313304726,-0.049706556751586875,0.01640128475095709,-0.012772047031369277, ,1.7804369926452637
0.01306509131443919,0.020492228717543567,-0.0900473328111029, ,0.01347778357396478,0.020126665963825414,-0.09062577229767223, ,0.000799089023576799, ,0.006988396395728275,0.0003929489822063377,-0.023347363375456263,-0.003925906058564975,-0.004205186342246835,0.01931878249308189, ,0.024373991664724128, ,0.005752338070199087, ,8.964768967781948e-05, ,0.20476826216006289,-0.18969348758957663,0.10207246718000001,2.068591292474833,0.7617484861923306,-0.9774374776006818, ,0.02719110073308618,0.04387283474732814,0.02391713441441442,-0.03988959608477441,0.04408921044003028,-0.03602514080443264, ,1.7845940589904785
0.01306509131443919,0.020492228717543567,-0.0900473328111029, ,0.013506949916152573,0.02012365340872019,-0.09071237272765495, ,0.0008794116628689366, ,0.006988396395728275,0.0003929489822063377,-0.023347363375456263,-0.003925906058564975,-0.004205186342246835,0.01931878249308189, ,0.024373991664724128, ,0.005752338070199087, ,9.044057335110747e-05, ,0.20476826216006289,-0.18969348758957663,0.10207246718000001,2.068591292474833,0.7617484861923306,-0.9774374776006818, ,0.02719110073308618,0.04387283474732814,0.02391713441441442,-0.03988959608477441,0.04408921044003028,-0.03602514080443264, ,1.7903170585632324
0.01306509131443919,0.020492228717543567,-0.0900473328111029, ,0.013536141574460845,0.020120650900177884,-0.0907988108996426, ,0.0009616016531703756, ,0.006988396395728275,0.0003929489822063377,-0.023347363375456263,-0.003925906058564975,-0.004205186342246835,0.01931878249308189, ,0.024373991664724128, ,0.005752338070199087, ,9.132274341491329e-05, ,0.20476826216006289,-0.18969348758957663,0.10207246718000001,2.068591292474833,0.7617484861923306,-0.9774374776006818, ,0.02719110073308618,0.04387283474732814,0.02391713441441442,-0.03988959608477441,0.04408921044003028,-0.03602514080443264, ,1.7954001426696777
0.01306509131443919,0.020492228717543567,-0.0900473328111029, ,0.013565358377888538,0.020117658455429375,-0.09088508678740471, ,0.0010451802432317728, ,0.006988396395728275,0.0003929489822063377,-0.023347363375456263,-0.003925906058564975,-0.004205186342246835,0.01931878249308189, ,0.024373991664724128, ,0.005752338070199087, ,9.22951614040925e-05, ,0.20476826216006289,-0.18969348758957663,0.10207246718000001,2.068591292474833,0.7617484861923306,-0.9774374776006818, ,0.02719110073308618,0.04387283474732814,0.02391713441441442,-0.03988959608477441,0.04408921044003028,-0.03602514080443264, ,1.7992310523986816
0.013104239284763855,0.02049566191736188,-0.09017451932053146, ,0.013594600155785981,0.020114676091698563,-0.09097120036517461, ,0.0010101013167398852, ,0.006851111154296049,0.00023406962134900778,-0.02302164915098362,0.01475546835457716,0.0058618954136186955,0.006957905734615774, ,0.024020592046557532, ,0.01587700215756907, ,9.322374519929126e-05, ,0.20492271681754737,-0.18945408287047566,0.10220339247000002,2.068591292474833,0.7620217591918613,-0.977578634667934, ,0.02707473368287326,0.04555782119945788,0.02363325151335312,-0.03397215661935345,0.05837952309028897,-0.05277290615930722, ,1.8040330410003662
0.013104239284763855,0.02049566191736188,-0.09017451932053146, ,0.013623866737852562,0.020111703826198722,-0.09105715160764609, ,0.0010938355726663482, ,0.006851111154296049,0.00023406962134900778,-0.02302164915098362,0.01475546835457716,0.0058618954136186955,0.006957905734615774, ,0.024020592046557532, ,0.01587700215756907, ,9.424213810868269e-05, ,0.20492271681754737,-0.18945408287047566,0.10220339247000002,2.068591292474833,0.7620217591918613,-0.977578634667934, ,0.02707473368287326,0.04555782119945788,0.02363325151335312,-0.03397215661935345,0.05837952309028897,-0.05277290615930722, ,1.8078320026397705
0.013260547536208887,0.02049010261797849,-0.09066261456615696, ,0.013653157954136956,0.020108741676133288,-0.09114294048997389, ,0.0007282115773051813, ,0.006643449477736918,-0.0007618834225266713,-0.019777276683755098,0.004368645116059164,0.0014858541880445678,-0.024194362941685237, ,0.020877177978322812, ,0.00461408680806332, ,9.484653598224128e-05, ,0.2055945945776049,-0.18834973206946157,0.10270376041000001,2.068381602531348,0.7632514876897504,-0.9785813958012018, ,0.02992650317201854,0.050638709476238414,0.020188607756653994,0.0,0.046925067123337376,-0.04343256537180477, ,1.8129689693450928
0.013260547536208887,0.02049010261797849,-0.09066261456615696, ,0.01368247363503836,0.02010578965869826,-0.09122856698777469, ,0.0008037538348768008, ,0.006643449477736918,-0.0007618834225266713,-0.019777276683755098,0.004368645116059164,0.0014858541880445678,-0.024194362941685237, ,0.020877177978322812, ,0.00461408680806332, ,9.553263739331648e-05, ,0.2055945945776049,-0.18834973206946157,0.10270376041000001,2.068381602531348,0.7632514876897504,-0.9785813958012018, ,0.02992650317201854,0.050638709476238414,0.020188607756653994,0.0,0.046925067123337376,-0.04343256537180477, ,1.8167970180511475
0.013260547536208887,0.02049010261797849,-0.09066261456615696, ,0.013711813611303907,0.020102847791078682,-0.09131403107712416, ,0.0008820152165634934, ,0.006643449477736918,-0.0007618834225266713,-0.019777276683755098,0.004368645116059164,0.0014858541880445678,-0.024194362941685237, ,0.020877177978322812, ,0.00461408680806332, ,9.630292718348021e-05, ,0.2055945945776049,-0.18834973206946157,0.10270376041000001,2.068381602531348,0.7632514876897504,-0.9785813958012018, ,0.02992650317201854,0.050638709476238414,0.020188607756653994,0.0,0.046925067123337376,-0.04343256537180477, ,1.8205740451812744
0.01332593622511018,0.02047631373459518,-0.0908617874247333, ,0.01374117771403018,0.02009991609045119,-0.09139933273455873, ,0.0007765665720033025, ,0.00635015271867873,-0.0014806748252337854,-0.018993865196811805,-0.0054485653544107514,-0.010427591602941155,0.05610359019433721, ,0.020081926018270326, ,0.01176516293788156, ,9.695249416639048e-05, ,0.2059112266254481,-0.1878245862340143,0.10290598165,2.06754284275741,0.763798033688812,-0.9790270674159874, ,0.03170629520830965,0.05151842647039673,0.019284275447941892,-0.08530089032295421,0.0550530670255361,-0.04948520741833284, ,1.8244900703430176
0.01332593622511018,0.02047631373459518,-0.0908617874247333, ,0.01377056577466217,0.020096994573982997,-0.0914844719370737, ,0.0008539991006148226, ,0.00635015271867873,-0.0014806748252337854,-0.018993865196811805,-0.0054485653544107514,-0.010427591602941155,0.05610359019433721, ,0.020081926018270326, ,0.01176516293788156, ,9.779365706244428e-05, ,0.2059112266254481,-0.1878245862340143,0.10290598165,2.06754284275741,0.763798033688812,-0.9790270674159874, ,0.03170629520830965,0.05151842647039673,0.019284275447941892,-0.08530089032295421,0.0550530670255361,-0.04948520741833284, ,1.8266971111297607
0.01332593622511018,0.02047631373459518,-0.0908617874247333, ,0.01379997762499327,0.020094083258832017,-0.09156944866212319, ,0.0009335951008383851, ,0.00635015271867873,-0.0014806748252337854,-0.018993865196811805,-0.0054485653544107514,-0.010427591602941155,0.05610359019433721, ,0.020081926018270326, ,0.01176516293788156, ,9.872129462490372e-05, ,0.2059112266254481,-0.1878245862340143,0.10290598165,2.06754284275741,0.763798033688812,-0.9790270674159874, ,0.03170629520830965,0.05151842647039673,0.019284275447941892,-0.08530089032295421,0.0550530670255361,-0.04948520741833284, ,1.82887601852417
0.01332593622511018,0.02047631373459518,-0.0908617874247333, ,0.013829413097164756,0.020091182162146802,-0.09165426288762002, ,0.001014806704780735, ,0.00635015271867873,-0.0014806748252337854,-0.018993865196811805,-0.0054485653544107514,-0.010427591602941155,0.05610359019433721, ,0.020081926018270326, ,0.01176516293788156, ,9.973691037895674e-05, ,0.2059112266254481,-0.1878245862340143,0.10290598165,2.06754284275741,0.763798033688812,-0.9790270674159874, ,0.03170629520830965,0.05151842647039673,0.019284275447941892,-0.08530089032295421,0.0550530670255361,-0.04948520741833284, ,1.8310120105743408
0.01332593622511018,0.02047631373459518,-0.0908617874247333, ,0.01385887202366578,0.02008829130106668,-0.09173891459193532, ,0.0010972392819013166, ,0.00635015271867873,-0.0014806748252337854,-0.018993865196811805,-0.0054485653544107514,-0.010427591602941155,0.05610359019433721, ,0.020081926018270326, ,0.01176516293788156, ,0.00010084156416801805, ,0.2059112266254481,-0.1878245862340143,0.10290598165,2.06754284275741,0.763798033688812,-0.9790270674159874, ,0.03170629520830965,0.05151842647039673,0.019284275447941892,-0.08530089032295421,0.0550530670255361,-0.04948520741833284, ,1.8332581520080566
0.013377445826105599,0.020463700442030632,-0.091011280480546, ,0.013888354237333079,0.020085410692721756,-0.09182340375389716, ,0.0010313460865363096, ,0.006489223249899961,-0.001471825861262575,-0.018728793779446598,-0.0006690974755166742,-0.005575814215775943,0.026881596807273703, ,0.019875713979275338, ,0.005615611386788925, ,0.00010187088332992988, ,0.20617379954317175,-0.18740755865880618,0.10305764758000001,2.0669137729269567,0.7642079431881085,-0.9793613211270769, ,0.03267801017853677,0.052574482857878545,0.019053602296650717,-0.0549424681274315,0.055085202636674505,-0.049144169092984274, ,1.8360650539398193
