NicholasDascanio/dvrk_moveit_final/test/execution/third_experiment_notsharpbends/thirdexp_600vel3.0/thirdexp_600vel3.0_27.csv
Current Position (x),Current Position (y),Current Position (z), ,Planned Position (x),Planned Position (y),Planned Position (z), ,Position Error,,Cartesian linear Velocity(x),Cartesian linear Velocity(y),Cartesian linear Velocity(z),Cartesian Angular Velocity(x),Cartesian Angular Velocity(y),Cartesian Angular Velocity(z), ,Total Linear Velocity, ,Total Angular Velocity, ,MSE, ,Joint 1 Position,Joint 2 Position,Joint 3 Position,Joint 4 Position,Joint 5 Position,Joint 6 Position, ,Joint 1 Velocity,Joint 2 Velocity,Joint 3 Velocity,Joint 4 Velocity,Joint 5 Velocity,Joint 6 Velocity, ,Time Stamp
0.00982126973016182,0.019862086243188408,-0.08004328440864748, ,0.00990364466321714,0.019739181894160223,-0.08008137873923565, ,0.0001527818268933553, ,-7.80808571488924e-06,-1.1120112257659593e-06,-1.233984580735632e-06,0.006748989648389284,-0.0024122528748271514,-0.007929110416038006, ,7.982824653140028e-06, ,0.007167135076596335, ,1.2731818907779609e-05, ,0.19623464233404478,-0.1835693604203166,0.0934365832,2.2524893729107607,1.0074209127705924,-0.8918095992147391, ,0.0,-0.00010517604512036832,0.0,-0.0016293531651235585,0.0,-0.011980625681134116, ,0.02173900604248047
0.00982565617870083,0.019861780418955872,-0.08005360648148618, ,0.009927830599616053,0.01976415603433091,-0.0801141286412585, ,0.00015373049335206402, ,0.00022522067086399304,0.0002058736271252722,-0.0009129136327811242,0.17858525715656812,-0.054370343914480104,-0.24457688827127677, ,0.0009625588822756621, ,0.18667840895790755, ,1.3932378192973605e-05, ,0.19625008779979325,-0.18357708315319082,0.09344306465,2.252279682967276,1.0068743667715307,-0.8948761134259976, ,0.0004539883767991984,-0.0002866227602057652,0.000959820831029112,0.0013141408816245276,0.0,-0.3269065073438959, ,0.042462825775146484
0.009875687615889792,0.019861627843136633,-0.08011291555077905, ,0.009952018445951078,0.01978894392573022,-0.08014704352700172, ,0.00011078838489860754, ,0.0011871483579500134,-0.0004092715537927252,-0.0017416677169510791,-0.07032459238857278,-0.18700503596483242,-0.1216006211311403, ,0.002147144816913128, ,0.19979097019337771, ,1.3040647035750839e-05, ,0.1962732559984159,-0.1836002513518135,0.09345213868,2.253747512571668,0.9993593592844314,-0.9019800846254655, ,0.0010241529109674275,-0.00014362764662485084,0.00017859153000941258,-0.016565435644577943,-0.2153769130676197,-0.10270467411462669, ,0.06667399406433105
0.009894040778383123,0.019862716373200227,-0.0801474103545908, ,0.009976208222402645,0.019813546213681022,-0.08018012264760516, ,0.00010118936484681665, ,0.0007525406163731315,0.0003181486463991857,-0.002389919786722577,0.10034496889012108,-0.08612423682398102,-0.18273246681396396, ,0.0025257182201237284, ,0.13223651897261424, ,1.2345001666448654e-05, ,0.19629642419703858,-0.18362341955043618,0.09347028674,2.253747512571668,0.9968999022886535,-0.9046302505469419, ,0.0014578809406777381,-0.0010967835367152571,0.0020926266339409286,-0.010712242089959526,-0.053804823525858726,-0.22708631983936511, ,0.09069490432739258
0.009904375766109674,0.01986285693677051,-0.0801629361822754, ,0.010000399949115762,0.019837963542491614,-0.08021336525552589, ,0.00011128079901588978, ,0.0004761319695569745,6.192278029818756e-05,-0.0008041009776565271,-0.2290606893530771,0.01956869455484825,0.24910756336984896, ,0.0009365438940179174, ,0.2298950482578681, ,1.2110978250129484e-05, ,0.19631959239566127,-0.18363886501618462,0.09347676819,2.253747512571668,0.9955335372909991,-0.9035977502501183, ,0.001099305540476269,-0.0007140122643888879,0.00045615653398619363,0.002283325997458155,-0.050333118144955384,0.30107336657394956, ,0.11402201652526855
0.009901266495498173,0.019879212145963207,-0.08015569500220145, ,0.010024593646200647,0.01986219655545801,-0.08024677060453712, ,0.00015425265560578766, ,0.000183513657424017,0.0004974402373457941,0.0005727898226792801,0.03587066619815369,0.04920922049776357,-0.007566279243692727, ,0.0007805204886207284, ,0.06089541916677265, ,1.2645540719556788e-05, ,0.19640454245727773,-0.1836929241463042,0.09349491625,2.2543765824021214,0.9985395402858388,-0.9009031835025841, ,0.004282971007866773,-0.0023980620639410056,7.937536067434178e-06,0.035250530481822265,0.058505538178772874,0.013442828873501345, ,0.1333448886871338
0.009911352186054895,0.01988747324180431,-0.08016879642622281, ,0.010048789333732207,0.01988624589486331,-0.08028033794972779, ,0.00017700843880448565, ,0.0006671373230883208,0.000291852395915108,-0.00037834865858566146,0.021781849494094882,-0.011717578810975935,-0.030142789502454987, ,0.0008206081502839275, ,0.024733592957247957, ,1.3347666158569536e-05, ,0.1964894925188942,-0.18373926054354953,0.09351176802000001,2.254586272345606,0.9986761767856043,-0.900197814004875, ,0.006876437837099088,-0.0020561216318850874,0.0005160414960834208,0.005474645389068688,0.0,-0.031979499003792454, ,0.15379095077514648
0.009930798449864473,0.019903591808706714,-0.08018853334974699, ,0.01007298703175057,0.019910112201979215,-0.08031406654750128, ,0.00018978591118843993, ,0.001016906987864528,0.0008142981615023625,-0.0010426258097525373,0.00900722075052841,0.004357240596743261,-0.04978074395592252, ,0.0016686071727509651, ,0.010005776894645666, ,1.4034364324456664e-05, ,0.19658988804625913,-0.18380104240654332,0.09353510124000002,2.255844412006513,0.9984029037860733,-0.9003016931580444, ,0.006320613621310149,-0.0029904834167051916,0.0013157403792406928,0.05757484713676628,-0.0014847298197529794,0.0070116550858122465, ,0.17432498931884766
0.00993842431785827,0.019910294268055226,-0.0801993204209063, ,0.010097186760260666,0.019933796117065965,-0.08034795565557483, ,0.00021874707543065853, ,0.0005530077425760772,0.00038520934164058926,-0.0011801979164092011,-0.006045194742211317,-0.011078840742031321,0.033329694212289734, ,0.0013590698738964399, ,0.012620819769581642, ,1.4886575543870705e-05, ,0.1966439471763787,-0.18383965607091446,0.09354806414000001,2.2560541019499976,0.9984029037860733,-0.9003016931580444, ,0.005561398895801285,-0.004013483693356065,0.0012895779507301438,-0.029431390112682573,-0.00157696917544112,0.005799360518661291, ,0.1941509246826172
0.00996791239220382,0.019930046837818093,-0.08026110943727448, ,0.010121388539232683,0.019957298279373783,-0.080382004532978, ,0.0001972642718255198, ,0.0011146153468699917,0.0008042447458567,-0.0024569667085547918,-0.0037823775381994546,-0.011713808288081525,0.0035862684186371333, ,0.0028152908179551873, ,0.0123093332216602, ,1.5361070802564946e-05, ,0.19685246096398276,-0.18395549706402783,0.09361417493000002,2.255844412006513,0.9981296307865425,-0.8999154998703704, ,0.007248496223135347,-0.00410708963946723,0.002652149770229771,0.0,-0.0072982778687567034,0.005951256231876417, ,0.21671295166015625
0.009993940041534932,0.019953587968140653,-0.08030829322357011, ,0.010145592388601734,0.019980619327142797,-0.08041621244005266, ,0.00018808425246835727, ,0.001290137990316642,0.001232675386154214,-0.0021420577473301584,0.009050667085102635,0.002710776230806483,-0.05898571362120242, ,0.002787894552271634, ,0.009447903598882017, ,1.5668870306517696e-05, ,0.1969914701557188,-0.18404816985851852,0.09366861911,2.256892861723936,0.9981296307865425,-0.8997521423900894, ,0.006138091167077246,-0.004947295713972169,0.002477264622083982,0.0671963972702972,-0.006536147742684326,0.008290164524015198, ,0.23511385917663574
0.010005154853957528,0.019962581671635955,-0.08032743792435545, ,0.010169798328268306,0.020003759897604872,-0.08045057863845166, ,0.00020968251094260194, ,0.0009372455558118408,0.0008624803966239348,-0.0014527206141799684,-0.0012059254413805853,-0.004468048567586161,-0.009184411987526063, ,0.0019320193708431215, ,0.004627927631889636, ,1.610324578092282e-05, ,0.19706097475158682,-0.18409450625576387,0.09368935975,2.25710255166742,0.9981296307865425,-0.8995887849098082, ,0.0076790959957380315,-0.004456461594784101,0.0019157267254242241,-0.012083183947884732,-0.0058100980387659484,0.007996554453970234, ,0.25455284118652344
0.010021769452834284,0.019977483470752573,-0.08035649790110969, ,0.010194006378097666,0.020026720626982075,-0.0804851023911377, ,0.00022051977424511525, ,0.0008924525043109166,0.0010103054983092627,-0.001391767505310423,-0.007449221648131891,0.00743119341326157,-0.008473214387188465, ,0.0019375772142556675, ,0.01052205011882556, ,1.655390726907348e-05, ,0.19726176580631666,-0.1842644063789968,0.09374121135,2.2575219315543893,0.997992994286777,-0.8988239370849872, ,0.0051433598852445445,-0.005964758973163079,0.0016910487984880007,0.03785792972572876,-0.0008766976272364194,0.03429502752987554, ,0.2747948169708252
0.010042126444192565,0.019998763436453983,-0.08038719718501376, ,0.010218216557920977,0.020049502150491463,-0.08051978296238285, ,0.0002261882702874496, ,0.0011341610927096484,0.0012636981255339155,-0.0016306646334256299,0.0030397112069942894,0.010879453163290396,-0.04343136289460758, ,0.002354213559429012, ,0.01129612080949147, ,1.6981014294402456e-05, ,0.19731582493643623,-0.1843261882419906,0.09376065570000001,2.2579413114413582,0.997992994286777,-0.898660579604706, ,0.005690416812060306,-0.006219301024836809,0.002011721586259157,0.06781407247215611,-0.0009816809253342757,0.026564177658705713, ,0.2935168743133545
0.010058490298170884,0.02001846535107868,-0.08042446752800052, ,0.01024242888753379,0.020072105102339612,-0.08055461961776722, ,0.00023162511531090655, ,0.001067880387054658,0.0011826887022277003,-0.0017634419687774232,0.0017088935402847926,0.002775365316449033,-0.016995666327744886, ,0.0023767306672567347, ,0.003259289762313583, ,1.7502842020636128e-05, ,0.19742394319667536,-0.18447292016660086,0.09380343327000001,2.2579413114413582,0.997992994286777,-0.8984155433842844, ,0.006518028311869037,-0.007334736261636403,0.0021123472416780978,0.03511446398595947,-0.0010526793113138486,0.019868929522726658, ,0.311215877532959
0.01007968369356103,0.02004317256561696,-0.08046390389118699, ,0.010266643386697834,0.020094530115730317,-0.0805896116241788, ,0.00023107132869612694, ,0.0010497589282505181,0.0012370516787533574,-0.0021018665960766433,-0.010121206343020816,0.0025292055442245817,0.013243160221704166, ,0.0026552088149618272, ,0.010432434925841538, ,1.796250296132614e-05, ,0.19754750692266296,-0.18462737482408537,0.09385009971000001,2.2585703812718116,0.997992994286777,-0.8978437922033005, ,0.006533797035421046,-0.008504890207681859,0.0024509634589936916,0.01738599861813123,-0.0010418262995223126,0.036221312752667975, ,0.32923197746276855
0.010102730764934346,0.020069707213904567,-0.08050934758274893, ,0.010290860075139477,0.02011677782285934,-0.08062475824981154, ,0.00022567211094299636, ,0.0012937347485887768,0.0015574910757693895,-0.002356680604006986,-0.006318940007827508,0.010150636673287187,-0.016196637394596716, ,0.0031070036240902726, ,0.01195677329478614, ,1.8341257897959637e-05, ,0.19767879338152478,-0.18478955221444407,0.09390195131000001,2.2591994511022655,0.997992994286777,-0.8974353985025976, ,0.006711069349771815,-0.009077251470970564,0.0028469725683646116,0.05507769110556074,-0.001002966280746077,0.0428428364018349, ,0.347728967666626
0.01011299822171097,0.02008134762655763,-0.08053196054533097, ,0.010315078972550759,0.02013884885491838,-0.08066005876416522, ,0.0002460735150142631, ,0.0012093399752012494,0.0013640011421732858,-0.0021783900346539916,0.011905653846049068,-0.0003123988967426144,-0.029902144622104672, ,0.0028404903510748994, ,0.011909751740635677, ,1.8796326403199114e-05, ,0.19782552530613504,-0.18496717507055124,0.09395250662000001,2.2591994511022655,0.997992994286777,-0.8969453260617543, ,0.0072051723301937475,-0.008631125873811237,0.0022781481006864993,0.027219219749862005,-0.000951710786242925,0.04157332557914064, ,0.3656318187713623
0.01013395648304048,0.02010481403819244,-0.08056770175655456, ,0.010339300098589198,0.02016074384209542,-0.0806955124380444, ,0.00024825332568596825, ,0.0009729168004714506,0.0009848532021963531,-0.0014343136293625538,-0.013523538973621158,-0.002341431603858973,0.029777867957790877, ,0.0019934288344185245, ,0.01372473709476905, ,1.9219248264467435e-05, ,0.19790275263487728,-0.1850521251321677,0.09397195097000001,2.25940914104575,0.997992994286777,-0.896618611101192, ,0.008252997640682077,-0.008234214881178393,0.0017365815377337957,0.0,-0.000925668007324979,0.03596447983897831, ,0.3833808898925781
0.010161742411000117,0.020132066417692253,-0.0806013076015614, ,0.010363523472877603,0.020182463413574075,-0.08073111854355744, ,0.0002451659331722468, ,0.0015139257095238775,0.0014709759417170626,-0.0016999280128154946,0.015837957295465853,0.005027781368152302,-0.059038851299050954, ,0.002710257648974099, ,0.01661684316483561, ,1.958757836034519e-05, ,0.19808809822385867,-0.18522202525540063,0.09401343225000001,2.2604575907631723,0.9978563577870115,-0.8960171207566522, ,0.00991901377098425,-0.008100504974064157,0.002183823899095147,0.07113141844103499,0.0,0.010021270181215385, ,0.4006519317626953
0.010187563930820565,0.020153808477430424,-0.08064087422958344, ,0.010387749115004188,0.020204008197535265,-0.08076687635411521, ,0.00024180706203863505, ,0.0014928321642505484,0.0013206354063163084,-0.0021589355165155476,0.0017211292053705576,-0.0010410078373105738,-0.012568006338645568, ,0.002938303645219376, ,0.002011462903465726, ,1.990718253983557e-05, ,0.19830433474433695,-0.18538420264575936,0.09406009869000001,2.2604575907631723,0.9978563577870115,-0.8956904057960899, ,0.010878879170959156,-0.00810547385939338,0.0025892086345903776,0.03212790874684057,0.0,0.021266810796102785, ,0.41805601119995117
0.010218097582689142,0.020178804457127088,-0.0806870677727271, ,0.010411977044522923,0.0202253788211583,-0.08080278514443108, ,0.000258707988534921, ,0.001514459132897249,0.0013052872759040052,-0.002261481406024949,0.007989757077708999,-0.005152087998246812,-0.015910603792657636, ,0.0030185525484326702, ,0.009506851678832928, ,2.02788804168281e-05, ,0.19852829399768948,-0.18553865730324384,0.09411195029000001,2.2608769706501417,0.9978563577870115,-0.8955270483158089, ,0.011453575377130614,-0.007786891559251378,0.002760625913344888,0.010089164525046596,0.0,0.012151845416255835, ,0.4359469413757324
0.010236864802064757,0.020194952530690966,-0.08070880403411335, ,0.010436207280953036,0.020246575910620047,-0.08083884419051925, ,0.00024354227461099542, ,0.0019480669601121235,0.0016397109669315534,-0.002305174806070656,0.013421012530631035,0.0058014403757955055,-0.06506757148659087, ,0.0034347413036062827, ,0.014621227298560639, ,2.0552568088843984e-05, ,0.1986595804565513,-0.18561588463198608,0.09414176496000001,2.2617157304240796,0.9978563577870115,-0.8953636908355278, ,0.012905880804905586,-0.007722388083061918,0.0028643789821974465,0.08364603295367609,0.0,0.017729435050860744, ,0.4536128044128418
0.010266042058109808,0.020216195941681843,-0.0807520719173537, ,0.010460439843779527,0.020267600091097418,-0.08087505276969376, ,0.00023570569720037554, ,0.0016293463639291406,0.0011793230333631433,-0.0017545890767696201,-0.0022237482292074887,-0.0010850408495245503,-0.012899922324406662, ,0.0026691113163353126, ,0.0024743422995638616, ,2.0771243021605967e-05, ,0.19890670790852646,-0.18576261655659634,0.09419232027,2.2617157304240796,0.9978563577870115,-0.8948736183946844, ,0.013147262615471151,-0.006881187069330681,0.002182028975342466,0.03757619956576854,0.0,0.027789979411995867, ,0.4736800193786621
0.010292763309727344,0.02023562813312052,-0.08078939422645334, ,0.010484674752452813,0.020288451986766168,-0.08091141016056866, ,0.00023347001850554763, ,0.0014072668699203702,0.001082124377098643,-0.0018911427815347054,0.005305950550080155,-0.005123002299672281,-0.012990473780896584, ,0.0025938030439563884, ,0.007375517865082707, ,2.096430871169349e-05, ,0.19913838989475321,-0.1859016257483324,0.09423639413000001,2.2617157304240796,0.9978563577870115,-0.8947102609144033, ,0.011024000670991905,-0.0065636163765265,0.00226357986642035,0.022546132976834794,0.0,0.009412616809558088, ,0.490750789642334
0.010323604526421731,0.020260365624118357,-0.0808275360465007, ,0.010508912026389271,0.020309132220804053,-0.08094791564305595, ,0.00022629250487661082, ,0.0016194747507524998,0.0013600218629352496,-0.002066206324305679,-0.0031370466546072912,0.008227908707849396,-0.03126261246560025, ,0.0029566140280035745, ,0.008805654057492137, ,2.1114763617578968e-05, ,0.1993546264152315,-0.18602518947431998,0.09428306057000001,2.2627641801415024,0.9978563577870115,-0.8940568309932787, ,0.010624387233775052,-0.006390858563714353,0.002526778477157361,0.06451033918725614,0.0,0.03750917340574409, ,0.5086488723754883
0.010339319167560057,0.020272024468871278,-0.08084942560221565, ,0.010533151684970595,0.02032964141538864,-0.08098456849836523, ,0.00024321669291269032, ,0.001609254368445784,0.0013176789499541233,-0.0019613904883707648,-0.012150996298089488,0.00843486012349845,-0.012581500843199016, ,0.002858851182797969, ,0.014791672532548187, ,2.132010655331055e-05, ,0.1994781901412191,-0.186094694070188,0.09430898637000001,2.262973870084987,0.9978563577870115,-0.893811794772857, ,0.011262741623373585,-0.006732134994575623,0.002414187862988785,0.055952463526432156,0.0,0.050642220458396836, ,0.5259859561920166
0.01036364707840504,0.020290229589488423,-0.08088734343855472, ,0.010557393747544525,0.02034998019170074,-0.08102136800900246, ,0.0002430442176869899, ,0.0012732765376814938,0.0009941214475954728,-0.001995437900320865,-0.00618698506527783,-0.0036292770556954415,0.011016968231111457, ,0.002567349412919175, ,0.007172895936323877, ,2.151101423505381e-05, ,0.19967898119594893,-0.1862182577961756,0.09435306023000001,2.262973870084987,0.9978563577870115,-0.8931583648517325, ,0.009894815512317325,-0.006234202622303656,0.002327412554061952,0.009704640777744496,0.0,0.024231543064259863, ,0.5440468788146973
0.010390594446484675,0.020313672482881247,-0.08092897018045618, ,0.0105816382334239,0.02037014916992129,-0.08105831345876942, ,0.00023752269018330612, ,0.0013895721901643792,0.0012214678998414205,-0.0022351145062161123,-0.010375429949227593,0.004493873908274606,0.00013528871175320527, ,0.0029014878179856166, ,0.011306831973590904, ,2.1748096033252635e-05, ,0.19986432678493032,-0.1863495442550374,0.09440231925,2.2636029399154403,0.9978563577870115,-0.8927499711510298, ,0.009234679789062734,-0.006600134812956415,0.0026289505727017663,0.03411622628286127,0.0,0.04013669562915013, ,0.5598149299621582
0.010405075583134651,0.02032774900241179,-0.08095474901746956, ,0.01060588516188824,0.02039014896923766,-0.08109540413276274, ,0.0002529863716432199, ,0.0015481421214933251,0.0014346376699761222,-0.002397170187176051,0.005532911674313457,0.006453797150481669,-0.04031090854409042, ,0.0031939558824038306, ,0.008500859319866523, ,2.2026270693031506e-05, ,0.199956999579421,-0.18641904885090543,0.09443343021000002,2.2640223198024096,0.997992994286777,-0.8926980315744449, ,0.009091929100262205,-0.0067444886575315,0.0028571859228699553,0.061589600237369126,0.0,0.022376888842148612, ,0.574692964553833
0.010431096251381975,0.020349725645602307,-0.08100656583090836, ,0.010630134552182239,0.02040998020783935,-0.08113263931737287, ,0.0002431900109896611, ,0.0015255597533739738,0.0012980224617967378,-0.0026970409341221103,-0.0055292965847571,0.00029460475374918293,-0.0057579017171768875, ,0.0033594976816145577, ,0.005537139382427865, ,2.2255653725378798e-05, ,0.20015006790127662,-0.18655033530976725,0.09449305955000001,2.2640223198024096,0.9981296307865425,-0.8922376982971576, ,0.009831654071568588,-0.006691327592582665,0.0031008003737590037,0.03118342844252596,-0.0014646053279285004,0.029555935593611457, ,0.5912950038909912
0.010444482577776788,0.020362131598920315,-0.08103257652813882, ,0.010654386423516321,0.02042964350291965,-0.08117001830028296, ,0.00025982248241440475, ,0.0012697341649252644,0.0011196032831972303,-0.0026742331532369434,-0.02461994129390585,-0.00016329751295442348,0.04216295257252382, ,0.0031650054216693026, ,0.024620482839626354, ,2.252824456741671e-05, ,0.20023501796289309,-0.18661983990563527,0.09452287422000001,2.2642320097458937,0.9981296307865425,-0.8919109833365954, ,0.008674536001108795,-0.00693011655149209,0.0030037359079766175,0.0,-0.0014646053279285004,0.052157088199967956, ,0.6062657833099365
0.01047435506714589,0.020390255172886278,-0.08107799419920234, ,0.01067864079506728,0.020449139470679202,-0.0812075403704688, ,0.000248962305678468, ,0.0016319452481143703,0.00162232914708756,-0.0019992140040816287,0.02224275781911397,0.008458829490355991,-0.08666608565135263, ,0.0030482870252732143, ,0.023796892059988313, ,2.275141453215416e-05, ,0.20042036355187448,-0.18676657183024553,0.09457731840000001,2.2652804594633165,0.9981296307865425,-0.8912575534154709, ,0.008959395415096277,-0.007459392176482294,0.002519185753597976,0.09503329152007783,-0.0014646053279285004,0.00475168433428929, ,0.621959924697876
0.010501991014373943,0.020413175616246542,-0.08112199430799838, ,0.010702897685977396,0.02046846872632314,-0.0812452048181964, ,0.00024207777374219428, ,0.0012539028292191897,0.0010123785735123435,-0.0023306214826799157,-0.012361821557681818,-0.006329799515185017,0.039326430569122266, ,0.002833545336986847, ,0.013888160211404524, ,2.2941498258372393e-05, ,0.20051303634636516,-0.18683607642611355,0.0946032442,2.2656998393502854,0.9981296307865425,-0.8910941959351897, ,0.009329476742540857,-0.00772313301737386,0.0025336108668681406,-0.01763890490904596,-0.0014646053279285004,0.028473360920617842, ,0.6371288299560547
0.01051532778872867,0.020423808485406113,-0.08114844922691852, ,0.01072715711535505,0.020487631884063873,-0.08128301093502305, ,0.00025894389956749296, ,0.0013389412613814163,0.0011138793764997167,-0.0024443073997790672,-0.012984468375348649,-0.0025076585155396035,0.030000286809615483, ,0.0030013546327343193, ,0.013224400558578629, ,2.317425107781842e-05, ,0.20072155013396922,-0.18698280835072384,0.09465768838000001,2.2654901494068014,0.997992994286777,-0.8904927055906499, ,0.010170571700451483,-0.007217567319193579,0.0028103054904728302,0.0,0.0014162413077123466,0.03570360722251745, ,0.6533060073852539
0.010545493675818612,0.02044915374618171,-0.08119584921308068, ,0.010751419102274272,0.020506629557120137,-0.08132095801379467, ,0.0002477114493116312, ,0.001540809526393123,0.0012818589036253797,-0.0025164141963175822,-0.01302634154488509,0.004128530722279219,0.009284229072173569, ,0.0032170789006264865, ,0.013664931023166495, ,2.3361954212424098e-05, ,0.20093006392157328,-0.18712181754245988,0.09471342885,2.266119219237255,0.997992994286777,-0.8900026331498064, ,0.010659878065621887,-0.006901852872760664,0.002946506015538291,0.029060905719083718,0.0014162413077123466,0.0449828645871793, ,0.6691768169403076
0.010562610491765611,0.020463669895251172,-0.081222171687631, ,0.010775683665775589,0.020525462357720264,-0.08135904534864569, ,0.0002606777416279395, ,0.0017539944568003957,0.0015405812369139048,-0.0024260848414470546,0.01996251096476199,0.0023181367767268844,-0.05963560394096745, ,0.003366864232474614, ,0.020096656489321994, ,2.357896041221394e-05, ,0.20104590491468666,-0.18719904487120212,0.09474453981000001,2.2665385991242237,0.997992994286777,-0.8895942394491037, ,0.011250378370891616,-0.007494618271528744,0.00294923375671172,0.06537270387339474,0.0014162413077123466,0.001805319533432854, ,0.6855559349060059
0.010591334472380132,0.020485878811664145,-0.08127086041127476, ,0.010799950824865042,0.020544130897100048,-0.08139727223499856, ,0.0002507868360957456, ,0.0014972681908999503,0.0011349419670193535,-0.002376437208277343,-0.0037788557162963775,-0.0048065367666185015,0.014292508173201409, ,0.0030294156381829784, ,0.006114126768202291, ,2.3757567173127833e-05, ,0.2012775869009134,-0.18733805406293816,0.09480157657,2.2665385991242237,0.9981296307865425,-0.8893789423922379, ,0.0118889157189095,-0.007089545595594068,0.0027774736739319965,0.005914621467510036,0.002365388896180256,0.022721856395477847, ,0.7014718055725098
0.0106079445780589,0.020497693354403396,-0.08129658105977543, ,0.010824220598514902,0.020562635785504695,-0.08143563796956159, ,0.0002651973991971042, ,0.0015146999100522074,0.0010802874848264282,-0.002417620816730795,-0.018202138157534277,-0.0005565448515030477,0.03253371542619729, ,0.0030506109684577697, ,0.018210644568359115, ,2.3968625773723565e-05, ,0.20140115062690098,-0.18739983592593196,0.09483139124000001,2.266748289067708,0.9981296307865425,-0.8890522274316757, ,0.011983192391490578,-0.006344299368600701,0.0028063445243128966,0.0060099031657143654,0.002365388896180256,0.04613742329523793, ,0.7170798778533936
0.010639171716815544,0.020519789494933764,-0.08132987355890331, ,0.010848493005663486,0.020580977632189735,-0.0814741418503296, ,0.00026148179672183644, ,0.0015394629480186802,0.0011019038041737012,-0.0014243466112892464,0.00478682295597643,0.0015857309155253426,-0.026625509634680786, ,0.002369156269870352, ,0.005042639838661227, ,2.4160199374086338e-05, ,0.2016560008117504,-0.18753112238479377,0.09487287252000001,2.2673773588981616,0.9981296307865425,-0.8884804762506917, ,0.012321660626952073,-0.005977136015364321,0.0018557972829274549,0.04561883616048739,0.002365388896180256,0.019579135073885343, ,0.7333958148956299
0.01066961606159729,0.02054013602211379,-0.08137207659288781, ,0.010872768065215171,0.020599157045421188,-0.08151278317658159, ,0.00025407195921822305, ,0.0015982903929183403,0.001102278142130784,-0.0024035089819137807,-0.0039582696331909,-0.0027642430912013585,0.01092830939443635, ,0.003089725668866829, ,0.004827933126720546, ,2.4323614331681856e-05, ,0.2019108509965998,-0.18764696337790715,0.09492342783,2.2675870488416465,0.998266267286308,-0.8883468579339664, ,0.01272759409314254,-0.006122721500264766,0.002822255761871014,0.01173396594820985,0.004140630960476663,0.025190641807434796, ,0.749269962310791
0.010687395822863908,0.0205524492612027,-0.0814001906677632, ,0.010897045796040332,0.020617174632476306,-0.08155156124888044, ,0.0002665624462807003, ,0.0016151935070293525,0.0010770807114207446,-0.0029736788592684424,-0.010389792542236693,-0.001722412919578132,0.021281767712984987, ,0.003551298196733761, ,0.010531595088291303, ,2.4513018362279867e-05, ,0.20204213745546162,-0.18770874524090092,0.09495583508000001,2.267796738785131,0.998266267286308,-0.8881835004536852, ,0.011832155167926054,-0.004946132699394143,0.0033676134291754757,0.006421603694831486,0.003929927222499434,0.03220102410027452, ,0.7642619609832764
0.01070520784540439,0.02056495067153534,-0.08142959272207237, ,0.010921326216975726,0.02063503099964474,-0.08159047536907271, ,0.00027839114394032777, ,0.001783884927684138,0.0011943120133992918,-0.002989856467710637,0.013718002101447805,-0.0059921122184874685,-0.023610266540574968, ,0.003680742903012874, ,0.014969602207652467, ,2.47889873943325e-05, ,0.20228926490743682,-0.18780914076826585,0.09502583474000001,2.2684258086155844,0.998266267286308,-0.8877751067529824, ,0.012161377822303818,-0.005842771081374537,0.003464291326663767,0.03224315545686926,0.0035809982289311064,0.02859941895224869, ,0.7780117988586426
0.010740116378794618,0.020588169624456594,-0.08149328486456466, ,0.01094560934682424,0.02065272675222914,-0.08162952484028643, ,0.0002548652852793695, ,0.0018396137521589416,0.001242631510189665,-0.003131629135358594,-0.0011312617496849434,-0.0021390628865127644,-0.01170398391579059, ,0.0038386733214322054, ,0.0024197815764152924, ,2.499544011900012e-05, ,0.20241282863342439,-0.1878554771655112,0.09506213086000001,2.2684258086155844,0.9984029037860733,-0.8877231671763978, ,0.012488082847541885,-0.0048426035391350535,0.003567482983202688,0.030892480672002984,0.0008489197328173323,0.02131779254092119, ,0.7923188209533691
0.010757508154421693,0.02059914012137652,-0.08152446458899588, ,0.010969895204354657,0.02067026249454426,-0.08166870896693076, ,0.00026640775422284404, ,0.0017709889590442037,0.0012313410998192635,-0.0029758454978343354,-0.010347817595328495,-0.0007829613228453086,0.006841811872816956, ,0.0036753583803680245, ,0.010377396455079086, ,2.5223469229697983e-05, ,0.20253639235941198,-0.18790953629563076,0.09509583440000001,2.2684258086155844,0.9984029037860733,-0.887478130955976, ,0.012445500532258465,-0.005574875322709115,0.0034240781427343084,0.02388508393955276,0.0008489197328173323,0.03600586582791877, ,0.8057928085327148
0.010791553502466661,0.020625729915386255,-0.08157462659979176, ,0.01099418380830218,0.020687638829919766,-0.08170802705469539, ,0.0002503745911833109, ,0.0017772811615257005,0.0013780589547517641,-0.002534730850922098,-0.0013665493825282113,0.017102410871368108,-0.027907285702649734, ,0.003388603738489045, ,0.017156920315818558, ,2.5404376843853434e-05, ,0.20278351981138718,-0.1880099318229957,0.09515935261000001,2.269474258333007,0.9988128132853697,-0.8872406334860815, ,0.01133122310981714,-0.00474909389547633,0.0030827968879427138,0.06867781715040824,0.009984306947887147,0.043742652584022323, ,0.8205499649047852
0.010807836182809356,0.02063678594661047,-0.08160087733770073, ,0.011018475177368333,0.0207048563607003,-0.08174747841054954, ,0.000265507517527469, ,0.0017366074281357615,0.0013398242663799722,-0.0026104644755242266,0.02258066050522182,0.012593291209505484,-0.0418877987341201, ,0.003409612764260908, ,0.025854926265960778, ,2.5615646433300407e-05, ,0.20290708353737477,-0.18805626822024105,0.09519046357000001,2.2696839482764917,0.9989494497851351,-0.8870253364292157, ,0.011855062110715334,-0.004871611320022972,0.003195989470304976,0.05436377970141833,0.017527743851163846,0.005967137759196051, ,0.8338518142700195
0.010824704729530333,0.02064873383965563,-0.08163052775920965, ,0.011042769330220664,0.020721915688244868,-0.08178706234274036, ,0.00027822801598384136, ,0.0014517675394572743,0.0010743595937487628,-0.002878220740403681,-0.014188247652080894,0.009924743291983744,0.05023913529595866, ,0.0033979452844022885, ,0.01731493288035016, ,2.585005044029268e-05, ,0.20302292453048815,-0.1881103273503606,0.09522416711000001,2.269893638219976,0.9989494497851351,-0.8866169427285128, ,0.011381259481706738,-0.005472292518740721,0.003353434004210527,-0.0055123249607770776,0.017527743851163846,0.04953362419203151, ,0.8472929000854492
0.010857195688879471,0.020669592086680462,-0.08169075659557605, ,0.011067066285493386,0.02073881741293011,-0.0818267781607932, ,0.0002594989004245965, ,0.0016341689017805275,0.0011142580528679946,-0.0030365385926076766,-3.6397979975675204e-05,0.0026482259241834153,0.021693127639681113, ,0.0036238992304317126, ,0.0026484759957946377, ,2.6033147287245005e-05, ,0.2032623292495891,-0.18821072287772553,0.09529157419,2.269893638219976,0.9989494497851351,-0.8858818340672477, ,0.012544624495584647,-0.00514424298728063,0.003512417093715546,0.0018160665240045967,0.014030645106419739,0.023554032050612968, ,0.8612139225006104
0.010877418834574342,0.020684689988108663,-0.08172318575304194, ,0.011091366061786463,0.020755562134147358,-0.08186662517550926, ,0.00026715378536274484, ,0.0018130967187085434,0.001446943322555197,-0.00306565829846174,0.01863726335049283,0.005537289107360344,-0.03106214031842215, ,0.0038443758261915667, ,0.01944245754999438, ,2.6227921953190025e-05, ,0.2033858929755767,-0.1882647820078451,0.09532916660000001,2.2705227080504296,0.9989494497851351,-0.8858001553271072, ,0.012159704646626081,-0.006208702729739801,0.003633396788321168,0.041028849893579564,0.012120530879113904,0.004916602749969396, ,0.8744258880615234
0.010896171249829853,0.02069809916654544,-0.08175354945411391, ,0.011115668677666739,0.02077215045030711,-0.08190660269896599, ,0.00027764727481737, ,0.001973600607918144,0.0014902443080604746,-0.0030684848681563235,0.03174270997854328,0.00552309783568394,-0.06922553592753472, ,0.003941005816208071, ,0.032219625171817506, ,2.6440228547196885e-05, ,0.20350945670156428,-0.18831884113796468,0.09536416643000001,2.270942087937399,0.9989494497851351,-0.885636797846826, ,0.012509570280107804,-0.00498035670420824,0.0036575916234213553,0.0657040763464305,0.010728366797006268,-0.012572466657857969, ,0.8875179290771484
0.010930757363908456,0.020719712903182783,-0.08181731963794839, ,0.011139974151667337,0.020788582958837853,-0.08194671004451586, ,0.0002554537652057048, ,0.0016638225214573622,0.0011518486516550843,-0.0029678113144538535,0.00981611721389916,-0.004300273824935513,0.000669492588682048, ,0.0035920696955138104, ,0.010716739797913943, ,2.6596611136919836e-05, ,0.2037643068864137,-0.1884192366653296,0.09543546238000002,2.270942087937399,0.9989494497851351,-0.8855551191066855, ,0.012544209062587016,-0.00561937844745445,0.00342334225660864,0.005802725698449991,0.008662846909092038,0.0035097501642275776, ,0.9007189273834229
0.010948277235362194,0.0207323200908976,-0.08184670097459143, ,0.01116428250228742,0.02080486025618529,-0.08198694652678447, ,0.0002675615178409131, ,0.0016957131521700593,0.0011730613251454598,-0.0030653929594739817,0.00625358145696872,-0.0037297458436114737,0.004130829676345668, ,0.0036943402608567606, ,0.007281365588007232, ,2.6774697000995272e-05, ,0.20388787061240127,-0.18848101852832339,0.09546916592000002,2.2711517778808834,0.9989494497851351,-0.8853917616264044, ,0.012594152827932418,-0.005610122050342729,0.0035217359097943846,0.006567963730316445,0.007926222440126605,0.009081739395031572, ,0.9152579307556152
0.010968177301518247,0.02074686477191811,-0.0818792992998688, ,0.011188593747992909,0.02082098293781605,-0.08202731146167122, ,0.0002756528839573754, ,0.0017844938746347215,0.0013507861399340462,-0.0030050867508931677,0.010362439932827714,0.0017088503707314209,-0.020525910359553777, ,0.0037469438166111346, ,0.010502396426813464, ,2.6964847873733223e-05, ,0.2041504435301249,-0.18859685952143676,0.09554435074,2.2719905376548213,0.9989494497851351,-0.8849833679257015, ,0.012860406770357878,-0.0055733422360072496,0.0037889656327307333,0.05218883229566819,0.006727711933721142,0.016842099470036245, ,0.9284968376159668
0.011006470760770402,0.020773487059574526,-0.0819453143784053, ,0.011212907907215929,0.020836951598216157,-0.08206780416634707, ,0.00024828973246509125, ,0.0016127365593675345,0.0010056429850085593,-0.003426134115084795,-0.018624019486153474,-0.007188244363759592,0.0621327918110035, ,0.003917988259013218, ,0.019963089900655637, ,2.7091250840503834e-05, ,0.2042740072561125,-0.1886509186515563,0.09558194315000001,2.2722002275983058,0.9989494497851351,-0.8847383317052798, ,0.012883103659852128,-0.0055888626914925845,0.0038070773231357554,-0.031325280558974364,0.006290019949425384,0.036959399346220355, ,0.9440329074859619
0.011023692454757355,0.020784266736747367,-0.08197954116911306, ,0.0112372249983553,0.020852766830892676,-0.0821084239592546, ,0.0002586487650618002, ,0.0018143846809297068,0.0011576311065252026,-0.003203445783603301,-0.009248020249737633,-0.005697595072337785,0.012384169855239158, ,0.003859296106503481, ,0.010862249666184732, ,2.7235623244642482e-05, ,0.20441301644784854,-0.1887049777816759,0.09562083185,2.2719905376548213,0.9990860862849005,-0.8846047133885545, ,0.012981797750816796,-0.005043766553373449,0.0036103380598368094,0.0111781292294652,0.0,0.028023092365341, ,0.9572358131408691
0.01103907230206504,0.02079479497403247,-0.08200601841769103, ,0.011261545039776144,0.020868429228373998,-0.08214917016010614, ,0.0002746061612447689, ,0.0016774822971748944,0.0011216934188085493,-0.002681814990364827,-0.014309017146520194,-0.0005601345795454918,0.025732386433018034, ,0.0033562292272249624, ,0.01431997633754644, ,2.746535965327247e-05, ,0.20466786663269795,-0.18880537330904082,0.09567916490000002,2.272619607485275,0.9993593592844314,-0.8843374767551041, ,0.012902371387963395,-0.005080351047453666,0.002519185753597976,0.032522480266771854,0.0034478565538715615,0.014003385307711875, ,0.9692189693450928
0.011075682878024278,0.02082003946473689,-0.0820527631151317, ,0.011285868049810159,0.020883939382210795,-0.08219004208988386, ,0.00025904926713047423, ,0.001998881732605494,0.0014535578168399538,-0.002514166190744564,-0.0029917372609452506,0.012202252127424696,-0.03878836915037347, ,0.0035255340223182513, ,0.012563655866001507, ,2.7657721100641533e-05, ,0.20479915309155977,-0.1888594324391604,0.09570897957,2.273038987372244,0.9993593592844314,-0.8840107617945419, ,0.012972924341554445,-0.005133762536041421,0.003065591131639723,0.07816184254859211,0.003217457491335173,0.04366853089310166, ,0.9822628498077393
0.011093337646770531,0.020830590136265398,-0.08208128516258249, ,0.011310194046755559,0.020899297882976082,-0.08223103907083795, ,0.00027234846375610465, ,0.0019252063722391803,0.001373145771716522,-0.0028869848791553154,0.001510895644112823,0.0035975125874077403,-0.0248557651702526, ,0.0037318401062431303, ,0.0039019100788468064, ,2.78722415384485e-05, ,0.2049381622832958,-0.18891349156927995,0.09574138682000001,2.273038987372244,0.9993593592844314,-0.8837657255741201, ,0.012874364612463815,-0.005399030297774845,0.003394887365728901,0.04956072249731921,0.003018673506167888,0.026467884461398094, ,0.9941239356994629
0.011110542723544083,0.020841236378506656,-0.08211387180224387, ,0.011334523048877141,0.02091450532026689,-0.08227216042648633, ,0.00028388521012468447, ,0.0019731968850087776,0.0013410850657788547,-0.003545283778468024,-0.016527851699419675,0.005820206070735734,0.0070335689366332775, ,0.004273295235591841, ,0.017522690431088273, ,2.8104615564133744e-05, ,0.2050617260092834,-0.1889598279665253,0.09577768294000001,2.273038987372244,0.9993593592844314,-0.8834390106135579, ,0.012594152827932418,-0.004491084903211753,0.0040275123944374215,0.03633594827585383,0.002849315195286344,0.051058277736678315, ,1.006281852722168
0.011130705470816625,0.020855267846501557,-0.08215492297703504, ,0.011358855074406184,0.020929562282703918,-0.0823134054816139, ,0.00028755627123449353, ,0.0018732195855848297,0.0012269537270668926,-0.004204096538485553,-0.008771955314006933,-0.007465649640574407,0.01874806634789525, ,0.004763275634381045, ,0.011518816053459873, ,2.833872693785361e-05, ,0.20519301246814522,-0.18900616436377066,0.09582434938,2.2732486773157285,0.9994959957841969,-0.8833053922968326, ,0.011829005468020643,-0.004371879172310397,0.004603702751445087,0.0,0.00025448352125520123,0.022543587974074394, ,1.0180327892303467
0.011173268390955454,0.020884388762097028,-0.08223042656080266, ,0.011383190141540633,0.02094446935793287,-0.08235477356227072, ,0.000251274742341592, ,0.00218215062525077,0.0015106045981999323,-0.0031150773741986104,0.004597959270667668,0.008821036851942191,-0.05984949109352669, ,0.0040923605230513615, ,0.009947457982053468, ,2.8496786044301995e-05, ,0.20544786265299464,-0.18909111442538712,0.09590990452,2.274297127033151,0.9994959957841969,-0.8828969985961298, ,0.012958752090464397,-0.003924478215911682,0.003663480110395585,0.08662897452017197,0.00025448352125520123,0.028610819036755386, ,1.030268907546997
0.011189928605339905,0.020894152209291646,-0.08225959382304138, ,0.011407528268445141,0.020959227132625068,-0.08239626399577177, ,0.0002650718678858961, ,0.0020341708579359277,0.0013457030997160683,-0.0028659303296348897,0.02055127179601552,0.002577413360242883,-0.05038243293905531, ,0.0037632864050165474, ,0.020712262837988483, ,2.8677730566648308e-05, ,0.20557914911185646,-0.18912972808975825,0.09594360806,2.274297127033151,0.9996326322839623,-0.882681701539264, ,0.014029707504209163,-0.004465257321414425,0.003421136494845361,0.05560522158653337,0.008238385003157387,-9.44873994149064e-05, ,1.0426089763641357
0.011209083134192667,0.020904814987660197,-0.08229189999247254, ,0.011431869473250754,0.020973836192477384,-0.08243787611069632, ,0.0002751485174901089, ,0.0020499544952603003,0.0013241181737689398,-0.003224435254270887,0.0029090142188353393,0.0028001082496110935,-0.015032310365962072, ,0.004043832968821544, ,0.004037693597386223, ,2.8873704205603098e-05, ,0.20572588103646672,-0.18917606448700358,0.09597990418,2.274297127033151,0.9996326322839623,-0.8825183440589829, ,0.014332720368293427,-0.004662378335492492,0.003758568079282681,0.038096811474897414,0.0074761992858128875,0.023581592718525883, ,1.054377794265747
0.01122842523289614,0.020915572418539006,-0.08232818514680122, ,0.011456213774055344,0.020988297122214093,-0.0824796092368862, ,0.0002830296045754421, ,0.0020291294826726685,0.001273378064034341,-0.003595210249245104,0.0016716930474664426,0.0008005239715715008,-0.008997004287896125, ,0.004320230883609387, ,0.0018534820402038624, ,2.9080071460005024e-05, ,0.20586489022820276,-0.18921467815137472,0.09602008917,2.274297127033151,0.9996326322839623,-0.8823549865787017, ,0.01366603421060927,-0.003909456378276308,0.004096916543209877,0.029156991501897253,0.006862635036375764,0.020743037143054546, ,1.066215991973877
0.01124934112287924,0.02092898092921718,-0.08236492319574465, ,0.011480561188923634,0.02100261050558697,-0.08252146270544541, ,0.0002887709326703866, ,0.0018485459140929624,0.0011100143299864202,-0.003503285353278388,-0.014375796333655903,0.0009556590206939407,0.02570169748516929, ,0.0041136677157713976, ,0.01440752594524472, ,2.9292507340879292e-05, ,0.20599617668706457,-0.18925329181574582,0.09606157045000001,2.2747165069201203,0.9996326322839623,-0.88210995035828, ,0.012932262409167455,-0.0036999114191902456,0.003940824225630876,0.008922659476051649,0.00632803193321047,0.04030452856921148, ,1.0787248611450195
0.011289297815530862,0.02095394381480583,-0.08243239913046986, ,0.011504911735886653,0.021016776925375322,-0.08256343584873929, ,0.0002600153533348636, ,0.002177816484397412,0.001414457673262624,-0.003347386760293664,0.007711162310772988,0.007488014941919492,-0.04667611163138111, ,0.004236575654010433, ,0.010748599514970512, ,2.9447397615308684e-05, ,0.206251026871914,-0.18932279641161384,0.09613805156,2.275555266694058,0.9996326322839623,-0.8815381991772961, ,0.013572217042115385,-0.0033443101293074797,0.003903163812790983,0.06861814245488312,0.005510497608232076,0.021673451189103916, ,1.091068983078003
0.011307428422145188,0.020964455590923817,-0.0824651929702161, ,0.011529265432942614,0.02103079696338824,-0.08260552800039331, ,0.0002707522072944934, ,0.002068962409828956,0.0012600044978683849,-0.0032444818638537837,-0.00503182588790692,7.951332875810995e-05,-0.017915933446362223, ,0.004049059070056885, ,0.00503245405107065, ,2.9618430018222575e-05, ,0.20639003606365003,-0.18936141007598498,0.09617564397000002,2.275555266694058,0.9997692687837277,-0.8816496170809924, ,0.013753179936010258,-0.003724680435056345,0.003712144376602191,0.04399066659914344,0.0,0.029925189760749052, ,1.1032299995422363
0.011327364717797328,0.020975458106705695,-0.08250029975137431, ,0.011553622298056097,0.021044671200463484,-0.08264773849529244, ,0.0002787850931815311, ,0.002030438189363184,0.0011440849504613512,-0.003156665952252737,-0.008489450576194126,-0.00043364615774175107,-0.0027407056095709588, ,0.003923792750491325, ,0.008500518793716952, ,2.980021871079847e-05, ,0.2065444907211345,-0.1894000237403561,0.09621582896000001,2.275555266694058,0.9999059052834932,-0.8815159987642671, ,0.014345720568173964,-0.003357573145394356,0.003611156545001134,0.031652629949528124,0.0023508957148142954,0.03340643584620635, ,1.1147799491882324
0.011345526050161384,0.020983728921312263,-0.08253064485604564, ,0.01157798234915863,0.021058400216469073,-0.08269006666957951, ,0.0002915939778087354, ,0.0021080914728854147,0.0010921366628552356,-0.0033293283835624608,-0.007480435198634043,-0.0033313680570154353,-0.0007157557908125301, ,0.004089161238444798, ,0.008188707070301731, ,3.0000917403937164e-05, ,0.20668349991287055,-0.18942319193897877,0.09624953250000001,2.275555266694058,0.9999059052834932,-0.8812709625438455, ,0.01519080223442785,-0.0027832615340856602,0.0037754945532116626,0.02548058452889632,0.0023508957148142954,0.028603108027597645, ,1.1264557838439941
0.011367549418568082,0.020996265868572568,-0.08256609144459885, ,0.011602345604148374,0.021071984590303818,-0.08273251186065542, ,0.0002975875139586827, ,0.0020217109801375496,0.0010807768287146718,-0.003640217463161155,-0.007840231953216889,-0.00652178782900114,0.011884601597687935, ,0.004301927128601635, ,0.010198183805342532, ,3.0261204753035924e-05, ,0.2068302318374808,-0.18945408287047566,0.09628971749000001,2.275974646581027,0.9999059052834932,-0.8811076050635644, ,0.014391407576352863,-0.0031503630336854847,0.004061400183579807,0.008734219227776507,0.0023508957148142954,0.024074366584480814, ,1.1365540027618408
0.011390703068271169,0.021010737062472286,-0.08260491905361998, ,0.01162671208089053,0.02108542489989842,-0.0827750734071778, ,0.0003003848050944589, ,0.0023726856318029036,0.0014234674539465172,-0.003960091546838874,-0.007875381852842204,0.007113500228497546,-0.026947731530892634, ,0.0048309648890416945, ,0.010612423090651095, ,3.0521831993122076e-05, ,0.20696924102921685,-0.18948497380197257,0.09633379135,2.276603716411481,0.9999059052834932,-0.8807808901030022, ,0.014435190380053359,-0.002491289797526357,0.004500935721955355,0.06368384379677133,0.0023508957148142954,0.04196946095644042, ,1.1468749046325684
0.011414092615240727,0.021023855033810074,-0.08264674288112228, ,0.011651081797217064,0.021098721722215732,-0.08281775064905941, ,0.00030168286345346666, ,0.0023797178365592107,0.0014808329302905439,-0.004315760338710193,0.0012616842260359158,0.0033040785017958586,-0.034792010980826495, ,0.005146038325766224, ,0.003536775414842458, ,3.0780191964504846e-05, ,0.20711597295382714,-0.18950814200059524,0.09638045779000001,2.27702309629845,0.9999059052834932,-0.8805358538825805, ,0.013969813272261267,-0.002769185340233509,0.004859307968273338,0.057853149425049495,0.0023508957148142954,0.024845521833303817, ,1.1567919254302979
0.011436170308266887,0.021037626087260546,-0.08269293255692825, ,0.011675454770926704,0.021111875633251016,-0.0828605429274683, ,0.0003014353752676739, ,0.0021090056811055307,0.0011155242722416438,-0.004680094452863186,-0.025241149553354447,-0.006768026248335638,0.05506250677861155, ,0.0052531498600950285, ,0.026132772677763687, ,3.103368752368895e-05, ,0.20725498214556318,-0.18953903293209215,0.09643230939000001,2.277232786241935,1.0000425417832586,-0.8804022355658553, ,0.014465997188791277,-0.003049730783994835,0.005093959552286537,-0.018218044302632973,0.0035591855981213635,0.04557582630133379, ,1.1666820049285889
0.011457069722338625,0.021048512206517753,-0.08273732803519829, ,0.01169983101978496,0.021124887208032864,-0.08290344958482596, ,0.0003039120886785495, ,0.0021985111720812297,0.0011527661111394466,-0.004466173143318599,-0.0010726414303250916,-0.008797084562827132,0.011289481634753804, ,0.005109698976148974, ,0.00886223756545833, ,3.128708386280327e-05, ,0.20740943680304766,-0.18956992386358903,0.09648156841000001,2.27702309629845,1.000179178283024,-0.8803502959892704, ,0.015024848251816146,-0.0025928542741989595,0.004922376860321385,0.0,0.005413700661647422,0.011755424809568376, ,1.176908016204834
0.01148121481882599,0.021061414517237885,-0.0827844695425418, ,0.011724210561524643,0.021137757020625255,-0.08294646996480731, ,0.0003018596455429648, ,0.0022156234016831185,0.0011490060181822454,-0.004434653147677363,-0.006457483097884348,-0.0063765825817406075,0.015921225045977122, ,0.005088747432139822, ,0.009075235074976562, ,3.153273289359541e-05, ,0.20756389146053214,-0.18959309206221173,0.09653082743000001,2.277232786241935,1.000179178283024,-0.8799419022885676, ,0.015086954142841141,-0.0023811797299774316,0.004929994280408543,0.003331134818413251,0.005413700661647422,0.021704214536724904, ,1.1871249675750732
0.011505035078697708,0.021074296617160846,-0.08282493627719036, ,0.011748593413844873,0.02115048564412538,-0.08298960341233874, ,0.00030371153393876594, ,0.002267875810638429,0.0011634441023766259,-0.0037173811558944628,0.004061356323136807,-0.0035558576495294397,-0.01740265456452667, ,0.004507303576422728, ,0.005398030946309913, ,3.177736919086641e-05, ,0.20771834611801665,-0.1896162602608344,0.09657879016000001,2.2776521661289033,1.000179178283024,-0.8797785448082865, ,0.015818793391977126,-0.0022071055256845176,0.004212856789209205,0.030794255078784895,0.005413700661647422,0.012995974853642893, ,1.1973278522491455
0.011505035078697708,0.021074296617160846,-0.08282493627719036, ,0.011772979594412371,0.02116307365066762,-0.08303284927359855, ,0.00035057586804465465, ,0.002267875810638429,0.0011634441023766259,-0.0037173811558944628,0.004061356323136807,-0.0035558576495294397,-0.01740265456452667, ,0.004507303576422728, ,0.005398030946309913, ,3.2095789493342036e-05, ,0.2079268599056207,-0.1896548739252055,0.09663712321000001,2.2780715460158727,1.000179178283024,-0.8795335085878648, ,0.01654698196311609,-0.002773102469144645,0.004750614828511781,0.06152371284321549,0.005413700661647422,0.028336240684388895, ,1.2095229625701904
0.011558022078697418,0.021101231732717822,-0.08291858081316318, ,0.011797369120860197,0.021175521611420882,-0.08307620689601447, ,0.0002960607617784365, ,0.0023947797683501314,0.0012099296704899665,-0.003983824287675606,0.00028782447326556584,-1.763324740034324e-05,-0.021316859126925953, ,0.004803098572953205, ,0.0002883623681457263, ,3.2319153273097766e-05, ,0.2080890372959794,-0.18967031939095397,0.09668378965,2.2780715460158727,1.0003158147827895,-0.8795632477514208, ,0.015943706579044148,-0.0013571240630841969,0.004498393538548433,0.04188004204954688,0.005330864945673286,0.02178608689043235, ,1.2198078632354736
0.01157885333822939,0.021111389304988036,-0.08295476828072666, ,0.011821762010788748,0.021187830096592048,-0.08311967562826396, ,0.00030338465863880405, ,0.0022526914685696837,0.0012475822378811277,-0.0035523571583328563,0.01412955786183857,-0.006269842542704903,-0.02986639579569014, ,0.00438751885160643, ,0.015458180045388927, ,3.255083446962279e-05, ,0.2082434919534639,-0.18970121032245085,0.09672397464000002,2.2780715460158727,1.0003158147827895,-0.8792365327908586, ,0.015927650479770187,-0.0034502674110638803,0.004072823196113527,0.031878958611856086,0.005330864945673286,-0.001791639753079108, ,1.2293858528137207
0.011603072322849666,0.02112243472964174,-0.08299563151205269, ,0.011846158281765233,0.02119999967542492,-0.08316325482027277, ,0.0003052944115028851, ,0.002275389321104719,0.001072775928798695,-0.00432975795934699,-0.008970275000191355,-0.007982030751681447,0.020492082204468624, ,0.005007499250377968, ,0.012007441316874493, ,3.278185592692388e-05, ,0.20841339207669685,-0.1897166557881993,0.09676934479,2.278281235959357,1.0003158147827895,-0.8790731753105774, ,0.016136191388959494,-0.0019468404847477637,0.004780555678271309,0.0,0.005011993762554324,0.023732127316096724, ,1.239595890045166
0.011627754051189168,0.02113605906321367,-0.08303980343004613, ,0.011870557951324004,0.021212030916201965,-0.08320694382321424, ,0.000304403297281011, ,0.0023735646362973493,0.0011719351343586963,-0.004531786397331834,-0.009841224266389201,-0.003925854640863374,0.01001937166096647, ,0.005248269142571439, ,0.010595377662508102, ,3.300773055336502e-05, ,0.20856784673418133,-0.189739823986822,0.09681860381000001,2.278700615846326,1.0003158147827895,-0.8788281390901557, ,0.01582670806512188,-0.0015586181849980717,0.005010635898081159,0.015512517087727514,0.004650703991421068,0.029579661973080356, ,1.2494029998779297
0.011654737222420565,0.021152494004392328,-0.08308594343453524, ,0.011894961036966424,0.021223924386244444,-0.08325074198950794, ,0.00029994723577254825, ,0.002892877569668701,0.001805540335904898,-0.0048122952454238985,0.0013405389229886773,0.008934005464794243,-0.05744036852309626, ,0.005898042223212828, ,0.009034018799414777, ,3.322289575752088e-05, ,0.20873774685741428,-0.18977071491831887,0.09687175170000001,2.2793296856767795,1.000452451282555,-0.8786945207734304, ,0.016578780845295384,-0.0029541791853260847,0.00548890817367333,0.09091512412749866,0.0021211152124161097,0.03640790299552399, ,1.2587180137634277
0.011681015423535565,0.021166526720124042,-0.08313682318583973, ,0.011919367556160703,0.021235680651912305,-0.08329464867281969, ,0.00029411373607702733, ,0.002491366305612546,0.0010664813942522365,-0.005280623165530736,-0.007055793614139924,-0.011348507034677106,0.029559101312272656, ,0.005935424976306882, ,0.013363114582139447, ,3.342542622791554e-05, ,0.20889992424777298,-0.1897784376511931,0.09692878846000001,2.279749065563749,1.0005890877823205,-0.8786425811968458, ,0.01728226945155177,-0.0006731512160673099,0.005746324502164502,-0.015269730247458166,0.00783220462867473,0.015972179078756667, ,1.2683849334716797
0.011706313445765127,0.021179215117576644,-0.08318683420131917, ,0.011943777526342405,0.021247300278607086,-0.08333866322805945, ,0.0002899600525552688, ,0.002424482780920566,0.0011038831387311606,-0.004996747411555529,-0.02114879279174715,-0.006822098876652237,0.04702594733882452, ,0.005662522356145021, ,0.0222218916052668, ,3.367111545377026e-05, ,0.20906210163813171,-0.18980160584981579,0.09698064006000001,2.279749065563749,1.000725724282086,-0.87842728413998, ,0.01701882022210738,-0.0016166430484992362,0.0054644293379073755,-0.01314029679364103,0.006627772432023574,0.04139060562466172, ,1.2760357856750488
0.011706313445765127,0.021179215117576644,-0.08318683420131917, ,0.011968190964913864,0.021258783830769675,-0.08338278501138147, ,0.0003366121434511262, ,0.002424482780920566,0.0011038831387311606,-0.004996747411555529,-0.02114879279174715,-0.006822098876652237,0.04702594733882452, ,0.005662522356145021, ,0.0222218916052668, ,3.3986627456326584e-05, ,0.20906210163813171,-0.18980160584981579,0.09698064006000001,2.279749065563749,1.000725724282086,-0.87842728413998, ,0.01701882022210738,-0.0016166430484992362,0.0054644293379073755,-0.01314029679364103,0.006627772432023574,0.04139060562466172, ,1.2833178043365479
0.011730476081142789,0.021190232269259392,-0.0832371063049887, ,0.011992607889244816,0.021270131871883757,-0.08342701338018249, ,0.0003334092508120119, ,0.002563346900133014,0.0012456844725981173,-0.00514630337153765,-0.006437960044847826,-0.008570944176944774,0.01890674325824114, ,0.005882764276051979, ,0.010719534039015514, ,3.429324661934942e-05, ,0.20924744722711308,-0.18982477404843845,0.09703897311000001,2.2795393756202644,1.000725724282086,-0.8781005691794177, ,0.017447497988319686,-0.0019793712712598485,0.005662570750088874,0.0,0.006627772432023574,0.021144232095434236, ,1.2917828559875488
0.01175946519477795,0.02120403748393141,-0.08328867375103507, ,0.012017028316671974,0.021281344964474706,-0.08347134769310172, ,0.00032509225985543683, ,0.002928132896788257,0.0014003932281188968,-0.005650710903094005,-0.016969760064654532,-0.001907324958511947,0.017343926880009453, ,0.00651656329401935, ,0.017076610887060504, ,3.4583245498019236e-05, ,0.20943279281609448,-0.18983249678131267,0.09709600987000001,2.2799587555072334,1.000725724282086,-0.8778555329589961, ,0.01917884833437162,-0.0011024771935202887,0.006236809522317934,0.020977691366210992,0.006627772432023574,0.044952232612214156, ,1.300419807434082
0.01179024309314188,0.021222035981081765,-0.08334596022425804, ,0.012041452264499281,0.02129242367011101,-0.08351578731001913, ,0.0003112904007499338, ,0.0030449497006830107,0.0017405332290061461,-0.0055181315346876465,0.011359056886001728,0.00424849431577962,-0.05249678279734852, ,0.006538421081199831, ,0.01212756662213344, ,3.4848517612678524e-05, ,0.20961813840507587,-0.18985566497993533,0.09716082437000001,2.280587825337687,1.0008623607818512,-0.8777219146422707, ,0.017935539890090866,-0.0017935966267104981,0.0062173347072599534,0.07068015413084673,0.007788308091660208,0.016328344327044192, ,1.3079679012298584
0.011818229524539309,0.0212359572221394,-0.08340198470677279, ,0.012065879749997488,0.021303368549403463,-0.08356033159205487, ,0.00030157695086250106, ,0.003017654864621652,0.0016351531535818622,-0.005478906899619001,-0.002291530483474558,0.006709738538795516,-0.01645092449979242, ,0.006465167247050622, ,0.00709025375276635, ,3.509574761330625e-05, ,0.2098112067269315,-0.18987883317855803,0.09722304629,2.280587825337687,1.0009989972816167,-0.8775066175854048, ,0.019002190940823144,-0.0018186582472659151,0.006181145331781142,0.05173357306458706,0.012038101641134391,0.037467992539450934, ,1.3151988983154297
0.011818229524539309,0.0212359572221394,-0.08340198470677279, ,0.012090310790405033,0.02131418016200898,-0.08360497990156864, ,0.0003483591432231072, ,0.003017654864621652,0.0016351531535818622,-0.005478906899619001,-0.002291530483474558,0.006709738538795516,-0.01645092449979242, ,0.006465167247050622, ,0.00709025375276635, ,3.541086299629092e-05, ,0.2098112067269315,-0.18987883317855803,0.09722304629,2.280587825337687,1.0009989972816167,-0.8775066175854048, ,0.019002190940823144,-0.0018186582472659151,0.006181145331781142,0.05173357306458706,0.012038101641134391,0.037467992539450934, ,1.3226189613342285
0.011846425168830414,0.021247701205995683,-0.08345955399434625, ,0.012114745402927254,0.021324859066628184,-0.083649731602158, ,0.0003378114947661865, ,0.00283039147800354,0.0013955118363520253,-0.0056900650170025775,0.0014036018508446803,-0.0042703024620973085,0.0016444457341246365, ,0.006506566613957795, ,0.004495061213022882, ,3.570629679565993e-05, ,0.20999655231591285,-0.18987883317855803,0.09728526821000001,2.280587825337687,1.0009989972816167,-0.8772615813649832, ,0.01840157873928074,-0.0012182757878708183,0.006293485389174239,0.015154253161458095,0.01103832470641579,0.016364614347129068, ,1.3305859565734863
0.0118759295533843,0.02126169700430787,-0.08351501442608432, ,0.012139183604736578,0.021335405821006945,-0.08369458605865857, ,0.0003270805045213572, ,0.002795946748801509,0.0011704134696834427,-0.004966708583537625,-0.017958058396493826,-0.002783087507048489,0.029602460810318674, ,0.005818537622627912, ,0.018172436116862024, ,3.598212810904124e-05, ,0.21018962063776847,-0.18989427864430647,0.09734619384000001,2.2807975152811713,1.0009989972816167,-0.876934866404421, ,0.020071265135040352,-0.0007044509422379086,0.005526999139486468,0.009016800677097609,0.00967444127033307,0.04496816777959553, ,1.3384618759155273
0.011903313584741365,0.021274934348898388,-0.0835621895199479, ,0.012163625412972964,0.02134582098193828,-0.08373954263714177, ,0.00032286419875760826, ,0.0029716078526736763,0.0013223366264304257,-0.005203640192754537,-0.002251411998465927,-0.0073989870365389265,-0.00043313559596271393, ,0.006136521705275859, ,0.007733942160266045, ,3.624840145178148e-05, ,0.2103904116924983,-0.1899097241100549,0.09740063802000001,2.281007205224656,1.0012722702811476,-0.8769126659913922, ,0.020760652277066454,-0.001186933140155117,0.005802845726775957,0.019966431130988994,0.007687272147939493,0.020767978928534624, ,1.3467988967895508
0.011903313584741365,0.021274934348898388,-0.0835621895199479, ,0.012188070844743427,0.02135610510526139,-0.08378460070491554, ,0.00037032705006674187, ,0.0029716078526736763,0.0013223366264304257,-0.005203640192754537,-0.002251411998465927,-0.0073989870365389265,-0.00043313559596271393, ,0.006136521705275859, ,0.007733942160266045, ,3.658173494920695e-05, ,0.21059892548010237,-0.1899097241100549,0.09746285994000001,2.2816362750551096,1.0015455432806784,-0.8768087868382227, ,0.02197705918445363,-0.0011506406379255556,0.006461992503042598,0.05005547139432138,0.017488312372124774,0.03708333818128634, ,1.3543457984924316
0.011937073336108743,0.021291466653439624,-0.08361971667350558, ,0.01221251991712241,0.021366258745863755,-0.08382975963052151, ,0.0003543765227456467, ,0.0032951438643097175,0.0016296385612348959,-0.005694417971154463,0.0004907085421611188,0.00738957487614029,-0.014080548012878894, ,0.00677791199094298, ,0.007405849427035187, ,3.688769021824933e-05, ,0.21059892548010237,-0.1899097241100549,0.09746285994000001,2.2816362750551096,1.0015455432806784,-0.8768087868382227, ,0.02197705918445363,-0.0011506406379255556,0.006461992503042598,0.05005547139432138,0.017488312372124774,0.03708333818128634, ,1.3628900051116943
0.011966069766353386,0.02130457168022177,-0.0836760995209363, ,0.012236972647151376,0.021376282457680144,-0.08387501878373582, ,0.0003436563392999475, ,0.00296669641068025,0.0015606632755833945,-0.005514642253358862,0.034016000759031065,0.01512875983458004,-0.03094492062263444, ,0.006453544501700494, ,0.037228586820756575, ,3.7174394280277034e-05, ,0.2108228847334549,-0.18991744684292913,0.09753026702,2.2816362750551096,1.0018188162802093,-0.8767865864251938, ,0.019982510330273904,-0.0007313754525723277,0.006379179623548259,0.04043823283201945,0.03778256307127038,-0.0034378824511596268, ,1.3704509735107422
0.011995902036587397,0.021317214458703337,-0.08373452654250552, ,0.01226142905183897,0.021386176793693697,-0.08392037753556705, ,0.0003313623260083906, ,0.0031566856895862538,0.001543775067228552,-0.006015479234032633,0.007015585071323936,0.007364702152053108,-0.0022964742516563786, ,0.006966627334378738, ,0.010171394388411779, ,3.7439895368775994e-05, ,0.21102367578818473,-0.18992516957580335,0.09759378523000001,2.2816362750551096,1.0018188162802093,-0.876378192724491, ,0.020948552220412975,-0.0006074834325188136,0.006786881772475501,0.029805674592727663,0.02430454504981578,0.024704366993473066, ,1.378767967224121
0.012029575989249627,0.021332087646311157,-0.08379451981853431, ,0.012285889148161982,0.021395942305939823,-0.08396583525825625, ,0.00031483778819424793, ,0.0031566856895862538,0.001543775067228552,-0.006015479234032633,0.007015585071323936,0.007364702152053108,-0.0022964742516563786, ,0.006966627334378738, ,0.010171394388411779, ,3.773297511130554e-05, ,0.21102367578818473,-0.18992516957580335,0.09759378523000001,2.2816362750551096,1.0018188162802093,-0.876378192724491, ,0.020948552220412975,-0.0006074834325188136,0.006786881772475501,0.029805674592727663,0.02430454504981578,0.024704366993473066, ,1.384605884552002
0.012029575989249627,0.021332087646311157,-0.08379451981853431, ,0.012310352953063534,0.021405579545500916,-0.08401139132527462, ,0.00036231203829142374, ,0.003207675492218424,0.0014448897261912356,-0.0061209881646064924,0.007080734729260432,-0.0034792711140008868,0.00044667260241093224, ,0.007059984737624044, ,0.007889367731232338, ,3.8091927723636246e-05, ,0.211239912308663,-0.18992516957580335,0.09765989602000001,2.2820556549420785,1.0018188162802093,-0.8760514777639288, ,0.021835467454779284,-0.0004859202679145823,0.006824683598971724,0.014956133183882976,0.01776904564101831,0.012418076071740293, ,1.3904969692230225
0.012065591797641252,0.02134937893794852,-0.08386028044763857, ,0.012334820483454679,0.021415089062512337,-0.08405704511132464, ,0.0003398797413946705, ,0.003619479430494399,0.0018023633144933513,-0.0065521627577927654,-0.00020490050911556963,0.006566517855568565,-0.026553759161161202, ,0.007699349431595504, ,0.006569712999068438, ,3.8415606286367604e-05, ,0.2114561488291413,-0.18992516957580335,0.09773248826000001,2.2826847247725324,1.0018188162802093,-0.875643084063226, ,0.022508762229238796,-0.00040223172890925036,0.0073574187159353354,0.06242097103212301,0.013878575780565432,0.03736562580448449, ,1.3969988822937012
0.012065591797641252,0.02134937893794852,-0.08386028044763857, ,0.012359291756213558,0.021424471406159936,-0.08410279599233698, ,0.00038821686448146936, ,0.003619479430494399,0.0018023633144933513,-0.0065521627577927654,-0.00020490050911556963,0.006566517855568565,-0.026553759161161202, ,0.007699349431595504, ,0.006569712999068438, ,3.880556349439956e-05, ,0.2114561488291413,-0.18992516957580335,0.09773248826000001,2.2826847247725324,1.0018188162802093,-0.875643084063226, ,0.022508762229238796,-0.00040223172890925036,0.0073574187159353354,0.06242097103212301,0.013878575780565432,0.03736562580448449, ,1.4026918411254883
0.01210176190948824,0.02136619519690427,-0.08392779680794124, ,0.012383766788185797,0.021433727124681876,-0.08414864334547124, ,0.0003645003511899188, ,0.003934297962157737,0.0019195388299931258,-0.007256080450348305,-0.0009665053270159091,-0.006198467570842592,-0.04351420315278459, ,0.0084743160949316, ,0.006273365337630322, ,3.915845632613031e-05, ,0.21168783081536804,-0.18992516957580335,0.09780767308,2.283104104659501,1.0019554527799748,-0.8754277870063603, ,0.023512621793476407,-0.0003452610508698277,0.008008452247360484,0.06640816860507867,0.0,0.025591034019800077, ,1.4090259075164795
0.012136729642448964,0.02138158742535638,-0.0839988516280906, ,0.012408245596184647,0.021442856765370416,-0.08419458654911416, ,0.0003402748954402147, ,0.0037395001482969955,0.0017324952090696634,-0.007035505086654925,-0.004112700024823288,-0.0036703966343713257,-0.009813172388953762, ,0.008153755750138086, ,0.005512358452622741, ,3.947403639194026e-05, ,0.211927235534469,-0.18992516957580335,0.09788674677,2.283104104659501,1.0022287257795057,-0.8753239078531908, ,0.023837463340484998,-0.00030133177576012905,0.007792960626223093,0.038515692295482844,0.00956799404252503,0.03101662172289657, ,1.4153599739074707
0.012136729642448964,0.02138158742535638,-0.0839988516280906, ,0.01243272819699034,0.02145186087456937,-0.08424062498287876, ,0.0003885972941753389, ,0.0037395001482969955,0.0017324952090696634,-0.007035505086654925,-0.004112700024823288,-0.0036703966343713257,-0.009813172388953762, ,0.008153755750138086, ,0.005512358452622741, ,3.98551015329833e-05, ,0.211927235534469,-0.18992516957580335,0.09788674677,2.283104104659501,1.0022287257795057,-0.8753239078531908, ,0.023837463340484998,-0.00030133177576012905,0.007792960626223093,0.038515692295482844,0.00956799404252503,0.03101662172289657, ,1.4212698936462402
0.012173414450689188,0.02139980994150006,-0.08407629523126324, ,0.01245721460735053,0.02146073999767728,-0.0842867580276037, ,0.0003585381281122105, ,0.0037345592566276355,0.0018857347714050059,-0.007775148289072115,0.03970259869673632,0.01106396824086572,-0.023605255817368984, ,0.008829261542530616, ,0.041215381935562026, ,4.0190737521063724e-05, ,0.2121820857193184,-0.1899328923086776,0.09797489449,2.283104104659501,1.0027752717785674,-0.8756062219876953, ,0.02409163278966001,0.0,0.008790734834437087,0.02665317746150275,0.043754965922273424,-0.012878152623545028, ,1.4274230003356934
0.012173414450689188,0.02139980994150006,-0.08407629523126324, ,0.01248170484398115,0.02146949467915004,-0.08433298506535315, ,0.00040717146287843687, ,0.0037345592566276355,0.0018857347714050059,-0.007775148289072115,0.03970259869673632,0.01106396824086572,-0.023605255817368984, ,0.008829261542530616, ,0.041215381935562026, ,4.0591575633392736e-05, ,0.2121820857193184,-0.1899328923086776,0.09797489449,2.283104104659501,1.0027752717785674,-0.8756062219876953, ,0.02409163278966001,0.0,0.008790734834437087,0.02665317746150275,0.043754965922273424,-0.012878152623545028, ,1.4331138134002686
0.01221367308053832,0.021418676807142333,-0.08415984729919747, ,0.012506198923564547,0.021478125462495532,-0.0843793054794134, ,0.00037049615966322296, ,0.0037905981850451286,0.0018282192609743965,-0.008284078870253583,0.006316810552998768,0.00335453656849526,0.013590396599700204, ,0.009291769637439742, ,0.007152270418390972, ,4.093798431412121e-05, ,0.21241376770554513,-0.18992516957580335,0.09806563479000001,2.2835234845464703,1.0027752717785674,-0.875116149546852, ,0.023600333638018098,0.00018442898402696144,0.009159753605520415,0.011848906216098295,0.027766014570298335,0.021944420331996794, ,1.4392738342285156
0.01221367308053832,0.021418676807142333,-0.08415984729919747, ,0.01253069686275093,0.02148663289027928,-0.08442571865429477, ,0.0004192966553467586, ,0.00434397788034235,0.002301962056704956,-0.007888155913890265,0.00020977631541121153,0.01913062615473278,-0.05304228878823503, ,0.009294739203294242, ,0.01913177546998874, ,4.134919471967516e-05, ,0.2126531724246461,-0.18992516957580335,0.09815118993000001,2.2841525543769237,1.0027752717785674,-0.874544398365868, ,0.024816145805039432,0.00018442898402696144,0.008908731275167786,0.07596674586790693,0.018856017130011903,0.056336996108666076, ,1.4453699588775635
0.012259306470930523,0.021441320415185025,-0.08424568467961123, ,0.012555198678158314,0.021495017504124622,-0.0844722239757291, ,0.00037650448648628143, ,0.00434397788034235,0.002301962056704956,-0.007888155913890265,0.00020977631541121153,0.01913062615473278,-0.05304228878823503, ,0.009294739203294242, ,0.01913177546998874, ,4.1697892098580206e-05, ,0.2126531724246461,-0.18992516957580335,0.09815118993000001,2.2841525543769237,1.0027752717785674,-0.874544398365868, ,0.024816145805039432,0.00018442898402696144,0.008908731275167786,0.07596674586790693,0.018856017130011903,0.056336996108666076, ,1.4512548446655273
0.012297558314551059,0.021458666409162917,-0.08432451482421884, ,0.012579704386371873,0.02150327984471128,-0.08451882083066907, ,0.0003454729926028694, ,0.004233082641910899,0.0021020139770915047,-0.008241038427941652,0.020853708319747376,-0.0022257318113228855,-0.05676442110980603, ,0.009500113987944904, ,0.020972148072384015, ,4.200102733421588e-05, ,0.2129080226094955,-0.18992516957580335,0.0982458191,2.2845719342638926,1.0027752717785674,-0.8741360046651652, ,0.024992610365675735,0.00017793531624428293,0.009149231200459506,0.06430126005116675,0.013961574044690686,0.0014127183868319019, ,1.4576609134674072
0.012297558314551059,0.021458666409162917,-0.08432451482421884, ,0.01260421400394429,0.021511420451777105,-0.08456550860728763, ,0.00039357172704246546, ,0.004233082641910899,0.0021020139770915047,-0.008241038427941652,0.020853708319747376,-0.0022257318113228855,-0.05676442110980603, ,0.009500113987944904, ,0.020972148072384015, ,4.236755972468138e-05, ,0.2129080226094955,-0.18992516957580335,0.0982458191,2.2845719342638926,1.0027752717785674,-0.8741360046651652, ,0.024992610365675735,0.00017793531624428293,0.009149231200459506,0.06430126005116675,0.013961574044690686,0.0014127183868319019, ,1.4633398056030273
0.012336242411704276,0.021475101827388637,-0.08440176889741204, ,0.01262872754739608,0.021519439864119923,-0.08461228669497683, ,0.00036308560862883486, ,0.0041349954104879265,0.0017860321847923573,-0.007501410899319301,0.002190973819942696,-0.007777841613942172,-0.01659210816597824, ,0.008749815054633828, ,0.008080542227997254, ,4.274781995580088e-05, ,0.21317831826009337,-0.18991744684292913,0.09833267053000001,2.2845719342638926,1.0031851812778638,-0.8740618646755517, ,0.02710566739744952,0.0002267127768925161,0.00832661344485102,0.03763869434729878,0.011219022835194613,0.020884875609116952, ,1.4677519798278809
0.012336242411704276,0.021475101827388637,-0.08440176889741204, ,0.01265324503321507,0.021527338619596003,-0.0846591544843469, ,0.0004116633149390826, ,0.0041349954104879265,0.0017860321847923573,-0.007501410899319301,0.002190973819942696,-0.007777841613942172,-0.01659210816597824, ,0.008749815054633828, ,0.008080542227997254, ,4.3192190085266106e-05, ,0.21317831826009337,-0.18991744684292913,0.09833267053000001,2.2845719342638926,1.0031851812778638,-0.8740618646755517, ,0.02710566739744952,0.0002267127768925161,0.00832661344485102,0.03763869434729878,0.011219022835194613,0.020884875609116952, ,1.471634864807129
0.01237597001177949,0.021491948125772813,-0.08447741018302148, ,0.012677766477856648,0.021535117255122017,-0.08470611136722533, ,0.000381115353038521, ,0.0038997291850181087,0.0018788518217572833,-0.007548008818835765,0.05895149274742945,0.016904389724473265,-0.03202695141858802, ,0.0087011728527725, ,0.06132729298287456, ,4.359263977666283e-05, ,0.21346405937643967,-0.18991744684292913,0.09841822567000001,2.2845719342638926,1.00359509077716,-0.8743144396465004, ,0.026997707413505198,0.00021790119201370967,0.008713791859956238,0.026530521729853367,0.059759753162435765,-0.029355861824102936, ,1.4756238460540771
0.01237597001177949,0.021491948125772813,-0.08447741018302148, ,0.012702291897744121,0.021542776306676465,-0.08475315673665616, ,0.0004302390487564968, ,0.0038997291850181087,0.0018788518217572833,-0.007548008818835765,0.05895149274742945,0.016904389724473265,-0.03202695141858802, ,0.0087011728527725, ,0.06132729298287456, ,4.405748228235819e-05, ,0.21346405937643967,-0.18991744684292913,0.09841822567000001,2.2845719342638926,1.00359509077716,-0.8743144396465004, ,0.026997707413505198,0.00021790119201370967,0.008713791859956238,0.026530521729853367,0.059759753162435765,-0.029355861824102936, ,1.4797308444976807
0.01237597001177949,0.021491948125772813,-0.08447741018302148, ,0.012726821309267864,0.02155031630929773,-0.08480028998689886, ,0.00048036948857017197, ,0.0038997291850181087,0.0018788518217572833,-0.007548008818835765,0.05895149274742945,0.016904389724473265,-0.03202695141858802, ,0.0087011728527725, ,0.06132729298287456, ,4.4587555963446645e-05, ,0.21346405937643967,-0.18991744684292913,0.09841822567000001,2.2845719342638926,1.00359509077716,-0.8743144396465004, ,0.026997707413505198,0.00021790119201370967,0.008713791859956238,0.026530521729853367,0.059759753162435765,-0.029355861824102936, ,1.4838898181915283
0.012418243980667935,0.02151127180613923,-0.08455844915018922, ,0.012751354728786368,0.021557737797087757,-0.08484751051342745, ,0.0004434843069872928, ,0.004572542709624215,0.001983372568267646,-0.009124065648265293,-0.005629499062541338,-0.003072970638478026,0.028810859191981293, ,0.010396657517190268, ,0.006413606240436108, ,4.506506161716686e-05, ,0.21373435502703753,-0.1899097241100549,0.09850896597000001,2.284991314150862,1.003868363776691,-0.8741288817531904, ,0.030279815430271466,0.0001689552466788938,0.010100704831959418,0.008578397023906054,0.024884960958030198,0.03824791217896986, ,1.488163948059082
0.012418243980667935,0.02151127180613923,-0.08455844915018922, ,0.012775892172625572,0.021565041303211147,-0.08489481771292968, ,0.0004939101112814182, ,0.004572542709624215,0.001983372568267646,-0.009124065648265293,-0.005629499062541338,-0.003072970638478026,0.028810859191981293, ,0.010396657517190268, ,0.006413606240436108, ,4.5607776654864545e-05, ,0.21373435502703753,-0.1899097241100549,0.09850896597000001,2.284991314150862,1.003868363776691,-0.8741288817531904, ,0.030279815430271466,0.0001689552466788938,0.010100704831959418,0.008578397023906054,0.024884960958030198,0.03824791217896986, ,1.492020845413208
0.012473783415083789,0.02153813314644213,-0.08466624713336394, ,0.012800433657078985,0.02157222735989531,-0.08494221098330594, ,0.0004289741745855099, ,0.00552049942308635,0.002854287014217499,-0.011000612193252426,-0.006117933240175349,-0.00592662519559003,-0.08025856049190734, ,0.012634727415586033, ,0.008517853734622615, ,4.6060536200810637e-05, ,0.21405870980775496,-0.1899020013771807,0.09862822465000001,2.2858300739248003,1.0040050002764564,-0.8736685484759028, ,0.02866977086358634,0.0005970203036026418,0.012012678371040725,0.1146543967934707,-0.00883564811192509,0.04103801907980351, ,1.4959189891815186
0.012473783415083789,0.02153813314644213,-0.08466624713336394, ,0.012824979198407966,0.0215792964984329,-0.08498968972366848, ,0.0004792160358280022, ,0.00552049942308635,0.002854287014217499,-0.011000612193252426,-0.006117933240175349,-0.00592662519559003,-0.08025856049190734, ,0.012634727415586033, ,0.008517853734622615, ,4.65780428364074e-05, ,0.21405870980775496,-0.1899020013771807,0.09862822465000001,2.2858300739248003,1.0040050002764564,-0.8736685484759028, ,0.02866977086358634,0.0005970203036026418,0.012012678371040725,0.1146543967934707,-0.00883564811192509,0.04103801907980351, ,1.499891996383667
0.012473783415083789,0.02153813314644213,-0.08466624713336394, ,0.01284952881284134,0.02158624924918036,-0.0850372533343405, ,0.0005302314253623196, ,0.00552049942308635,0.002854287014217499,-0.011000612193252426,-0.006117933240175349,-0.00592662519559003,-0.08025856049190734, ,0.012634727415586033, ,0.008517853734622615, ,4.716080995599341e-05, ,0.21405870980775496,-0.1899020013771807,0.09862822465000001,2.2858300739248003,1.0040050002764564,-0.8736685484759028, ,0.02866977086358634,0.0005970203036026418,0.012012678371040725,0.1146543967934707,-0.00883564811192509,0.04103801907980351, ,1.5036778450012207
0.012524749199007357,0.021562843261313986,-0.08477461633309141, ,0.012874082516575833,0.021593086141560542,-0.08508490121685523, ,0.00046821480931441285, ,0.0056584910705207575,0.002796747259399517,-0.012353120064490047,-0.015118372337133913,-0.008941496582119873,-0.010351184388677381, ,0.013872270605630083, ,0.017564602346473324, ,4.7658008346156215e-05, ,0.21432900545835282,-0.18989427864430647,0.09874489075000001,2.2864591437552537,1.003868363776691,-0.8731487368715035, ,0.03109336224065229,0.0004419847850297128,0.013419386284751476,0.05162949754119845,0.004586858410189402,0.04821681582471188, ,1.5078790187835693
0.012524749199007357,0.021562843261313986,-0.08477461633309141, ,0.012898640325775793,0.021599807704062102,-0.08513263277395483, ,0.0005189766050915574, ,0.0056584910705207575,0.002796747259399517,-0.012353120064490047,-0.015118372337133913,-0.008941496582119873,-0.010351184388677381, ,0.013872270605630083, ,0.017564602346473324, ,4.821989241565124e-05, ,0.21432900545835282,-0.18989427864430647,0.09874489075000001,2.2864591437552537,1.003868363776691,-0.8731487368715035, ,0.03109336224065229,0.0004419847850297128,0.013419386284751476,0.05162949754119845,0.004586858410189402,0.04821681582471188, ,1.511699914932251
0.012580362278045024,0.021590497446988217,-0.08490165061855137, ,0.012923202256573282,0.021606414464240633,-0.08518044740958979, ,0.0004421767214686754, ,0.005581804520211468,0.0026473517651523656,-0.013341294865924244,-0.00914395694663978,-0.005182518275425629,0.05200191874971435, ,0.014702216219667195, ,0.010510471999787805, ,4.867721640591231e-05, ,0.21465336023907025,-0.18988655591143225,0.09888489007000001,2.286668833698738,1.0042782732759874,-0.8729929181417495, ,0.03249895258851739,0.0008375844693877903,0.014507114316939893,-0.012235915141181749,0.029709760431431,0.04078823680878117, ,1.5159378051757812
0.012580362278045024,0.021590497446988217,-0.08490165061855137, ,0.012947768325068002,0.02161290694871876,-0.08522834452891745, ,0.0004921567841929444, ,0.005581804520211468,0.0026473517651523656,-0.013341294865924244,-0.00914395694663978,-0.005182518275425629,0.05200191874971435, ,0.014702216219667195, ,0.010510471999787805, ,4.9198063835175e-05, ,0.21465336023907025,-0.18988655591143225,0.09888489007000001,2.286668833698738,1.0042782732759874,-0.8729929181417495, ,0.03249895258851739,0.0008375844693877903,0.014507114316939893,-0.012235915141181749,0.029709760431431,0.04078823680878117, ,1.520108938217163
0.012580362278045024,0.021590497446988217,-0.08490165061855137, ,0.01297233854732789,0.021619285683188848,-0.08527632353830228, ,0.0005430045626135441, ,0.005581804520211468,0.0026473517651523656,-0.013341294865924244,-0.00914395694663978,-0.005182518275425629,0.05200191874971435, ,0.014702216219667195, ,0.010510471999787805, ,4.978307493378447e-05, ,0.21465336023907025,-0.18988655591143225,0.09888489007000001,2.286668833698738,1.0042782732759874,-0.8729929181417495, ,0.03249895258851739,0.0008375844693877903,0.014507114316939893,-0.012235915141181749,0.029709760431431,0.04078823680878117, ,1.5239319801330566
0.012641336250497424,0.021618828232028885,-0.08504955681399635, ,0.012996912939388207,0.021625551192410854,-0.08532438384531363, ,0.0004494550889927665, ,0.005734982472733071,0.0027285168023990208,-0.01338321505821126,0.0479446576939365,0.008167586831145907,0.0015198058376021616, ,0.014813685334779525, ,0.04863537032543426, ,5.024224676990677e-05, ,0.2150163286841588,-0.18986338771280958,0.09904692632,2.2864591437552537,1.004824819275049,-0.8729485173156918, ,0.03472262771989418,0.002063856986361175,0.014831295642458102,0.0,0.06284013306580187,-0.019764381916768575, ,1.527972936630249
0.012641336250497424,0.021618828232028885,-0.08504955681399635, ,0.01302149151725179,0.021631704000213525,-0.08537252485872508, ,0.0004989911523898239, ,0.005734982472733071,0.0027285168023990208,-0.01338321505821126,0.0479446576939365,0.008167586831145907,0.0015198058376021616, ,0.014813685334779525, ,0.04863537032543426, ,5.076385234431779e-05, ,0.2150163286841588,-0.18986338771280958,0.09904692632,2.2864591437552537,1.004824819275049,-0.8729485173156918, ,0.03472262771989418,0.002063856986361175,0.014831295642458102,0.0,0.06284013306580187,-0.019764381916768575, ,1.5317659378051758
0.012695774222476412,0.021644571402247147,-0.08516613220507738, ,0.013046074296889917,0.02163774462949764,-0.08542074598851448, ,0.0004331107545148683, ,0.006038944605186449,0.0026197787713276733,-0.012506299627503482,-0.0017076909464081244,-0.004023049179290943,0.012460325788518923, ,0.014132926912996592, ,0.0043704493043488744, ,5.119672838847736e-05, ,0.215332960732002,-0.1898479422470611,0.09917525903,2.2868785236422227,1.00509809227458,-0.8725996019421008, ,0.036767509321375735,0.0020358210018723115,0.01386319540469974,0.02649651892032839,0.029719506814491592,0.03731313796363491, ,1.5361249446868896
0.012695774222476412,0.021644571402247147,-0.08516613220507738, ,0.013070661294241252,0.02164367360223364,-0.08546904664586183, ,0.00048197331986017395, ,0.006038944605186449,0.0026197787713276733,-0.012506299627503482,-0.0017076909464081244,-0.004023049179290943,0.012460325788518923, ,0.014132926912996592, ,0.0043704493043488744, ,5.169097300186697e-05, ,0.215332960732002,-0.1898479422470611,0.09917525903,2.2868785236422227,1.00509809227458,-0.8725996019421008, ,0.036767509321375735,0.0020358210018723115,0.01386319540469974,0.02649651892032839,0.029719506814491592,0.03731313796363491, ,1.5399458408355713
0.012695774222476412,0.021644571402247147,-0.08516613220507738, ,0.013095252525212596,0.021649491439464527,-0.08551742624314929, ,0.0005319911863067562, ,0.006038944605186449,0.0026197787713276733,-0.012506299627503482,-0.0017076909464081244,-0.004023049179290943,0.012460325788518923, ,0.014132926912996592, ,0.0043704493043488744, ,5.224760837888389e-05, ,0.215332960732002,-0.1898479422470611,0.09917525903,2.2868785236422227,1.00509809227458,-0.8725996019421008, ,0.036767509321375735,0.0020358210018723115,0.01386319540469974,0.02649651892032839,0.029719506814491592,0.03731313796363491, ,1.5437488555908203
0.012764583699811264,0.02167449053175715,-0.08529532230118066, ,0.013119848005678019,0.021655198661303648,-0.08556588419395939, ,0.00044697722661517095, ,0.006473693621387529,0.002812032247509065,-0.011885790835694375,-0.018031016703783813,-0.0007435465453850315,-0.03379952516889218, ,0.013823467663885964, ,0.018046334465016165, ,5.26912379253313e-05, ,0.21574998830721012,-0.18982477404843845,0.09931785093,2.2877172834161605,1.0052347287743453,-0.8720575899246725, ,0.0387334455340697,0.0025905003811087027,0.013131748985985164,0.09516075460388307,0.009351187424834146,0.07030843299907925, ,1.548022985458374
0.012764583699811264,0.02167449053175715,-0.08529532230118066, ,0.013144447751480128,0.021660795786939063,-0.08561441991307471, ,0.0004962937937375464, ,0.006473693621387529,0.002812032247509065,-0.011885790835694375,-0.018031016703783813,-0.0007435465453850315,-0.03379952516889218, ,0.013823467663885964, ,0.018046334465016165, ,5.326510927825784e-05, ,0.21574998830721012,-0.18982477404843845,0.09931785093,2.2877172834161605,1.0052347287743453,-0.8720575899246725, ,0.0387334455340697,0.0025905003811087027,0.013131748985985164,0.09516075460388307,0.009351187424834146,0.07030843299907925, ,1.5500948429107666
0.012764583699811264,0.02167449053175715,-0.08529532230118066, ,0.013169051778429097,0.021666283334631636,-0.08566303281647719, ,0.0005466926081127323, ,0.006473693621387529,0.002812032247509065,-0.011885790835694375,-0.018031016703783813,-0.0007435465453850315,-0.03379952516889218, ,0.013823467663885964, ,0.018046334465016165, ,5.390261250672616e-05, ,0.21574998830721012,-0.18982477404843845,0.09931785093,2.2877172834161605,1.0052347287743453,-0.8720575899246725, ,0.0387334455340697,0.0025905003811087027,0.013131748985985164,0.09516075460388307,0.009351187424834146,0.07030843299907925, ,1.5521810054779053
0.012764583699811264,0.02167449053175715,-0.08529532230118066, ,0.013193660102303224,0.021671661821717054,-0.0857117223213469, ,0.0005979159954127165, ,0.006473693621387529,0.002812032247509065,-0.011885790835694375,-0.018031016703783813,-0.0007435465453850315,-0.03379952516889218, ,0.013823467663885964, ,0.018046334465016165, ,5.460456525886292e-05, ,0.21574998830721012,-0.18982477404843845,0.09931785093,2.2877172834161605,1.0052347287743453,-0.8720575899246725, ,0.0387334455340697,0.0025905003811087027,0.013131748985985164,0.09516075460388307,0.009351187424834146,0.07030843299907925, ,1.5542058944702148
0.012824712485710228,0.021698935108481945,-0.08541062256462224, ,0.013218272738847958,0.02167693176460376,-0.0857604878460602, ,0.0005270479438792262, ,0.005847695747102196,0.002092749248593741,-0.011745249267982184,-0.009649055135759716,-0.007980751402348581,0.06909870675657016, ,0.013286309695893846, ,0.012521838301211806, ,5.521338404574483e-05, ,0.21614384768379558,-0.18978616038406732,0.09944747993000001,2.28813666330313,1.0057812747734072,-0.8716864741380527, ,0.04024467411300712,0.0031310738539763114,0.012950253268292683,-0.025896415174979783,0.03936971720714557,0.043013340415800114, ,1.5562238693237305
0.012824712485710228,0.021698935108481945,-0.08541062256462224, ,0.013242889703777903,0.02168209367877893,-0.08580932881019092, ,0.0005780332946472293, ,0.005847695747102196,0.002092749248593741,-0.011745249267982184,-0.009649055135759716,-0.007980751402348581,0.06909870675657016, ,0.013286309695893846, ,0.012521838301211806, ,5.588625394355884e-05, ,0.21614384768379558,-0.18978616038406732,0.09944747993000001,2.28813666330313,1.0057812747734072,-0.8716864741380527, ,0.04024467411300712,0.0031310738539763114,0.012950253268292683,-0.025896415174979783,0.03936971720714557,0.043013340415800114, ,1.5581870079040527
0.012824712485710228,0.021698935108481945,-0.08541062256462224, ,0.013267511012774322,0.0216871480788028,-0.08585824463450714, ,0.0006297420004151142, ,0.005847695747102196,0.002092749248593741,-0.011745249267982184,-0.009649055135759716,-0.007980751402348581,0.06909870675657016, ,0.013286309695893846, ,0.012521838301211806, ,5.662385773079735e-05, ,0.21614384768379558,-0.18978616038406732,0.09944747993000001,2.28813666330313,1.0057812747734072,-0.8716864741380527, ,0.04024467411300712,0.0031310738539763114,0.012950253268292683,-0.025896415174979783,0.03936971720714557,0.043013340415800114, ,1.5602238178253174
0.012824712485710228,0.021698935108481945,-0.08541062256462224, ,0.013292136681487357,0.0216920954783146,-0.08590723474097217, ,0.0006820233229426504, ,0.005847695747102196,0.002092749248593741,-0.011745249267982184,-0.009649055135759716,-0.007980751402348581,0.06909870675657016, ,0.013286309695893846, ,0.012521838301211806, ,5.742668117779587e-05, ,0.21614384768379558,-0.18978616038406732,0.09944747993000001,2.28813666330313,1.0057812747734072,-0.8716864741380527, ,0.04024467411300712,0.0031310738539763114,0.012950253268292683,-0.025896415174979783,0.03936971720714557,0.043013340415800114, ,1.5622289180755615
0.012824712485710228,0.021698935108481945,-0.08541062256462224, ,0.01331676672553474,0.021696936390030425,-0.0859562985527426, ,0.0007347677550191339, ,0.005847695747102196,0.002092749248593741,-0.011745249267982184,-0.009649055135759716,-0.007980751402348581,0.06909870675657016, ,0.013286309695893846, ,0.012521838301211806, ,0.00032021234079240927, ,0.21614384768379558,-0.18978616038406732,0.09944747993000001,2.28813666330313,1.0057812747734072,-0.8716864741380527, ,0.04024467411300712,0.0031310738539763114,0.012950253268292683,-0.025896415174979783,0.03936971720714557,0.043013340415800114, ,1.5641889572143555
0.012889978677495063,0.021723689011342702,-0.0855442152558348, ,0.013341401160502342,0.021701671325744736,-0.08600543549416756, ,0.0006457485152064, ,0.005847695747102196,0.002092749248593741,-0.011745249267982184,-0.009649055135759716,-0.007980751402348581,0.06909870675657016, ,0.013286309695893846, ,0.012521838301211806, ,0.0003224888175365631, ,0.2165917661905006,-0.1897475467196962,0.09959655328000001,2.287926973359645,1.0064644572722343,-0.8718351699558319, ,0.044406617481736445,0.006052443332506356,0.01648945291925466,0.010940144969029135,0.06770295919892143,-0.00568087918070543, ,1.5661208629608154
0.012889978677495063,0.021723689011342702,-0.0855442152558348, ,0.013366040001943623,0.021706300796329864,-0.08605464499078765, ,0.0006981942773906683, ,0.0069972841771552795,0.002764489350356977,-0.014861772345942399,0.04111644784314859,0.00671258751567113,0.0026891978209084063, ,0.01665763081853848, ,0.041660777589584606, ,0.00032509788322999434, ,0.2165917661905006,-0.1897475467196962,0.09959655328000001,2.287926973359645,1.0064644572722343,-0.8718351699558319, ,0.044406617481736445,0.006052443332506356,0.01648945291925466,0.010940144969029135,0.06770295919892143,-0.00568087918070543, ,1.5683817863464355
0.012889978677495063,0.021723689011342702,-0.0855442152558348, ,0.01339068326538053,0.021710825311738884,-0.08610392646933425, ,0.0007510973316515469, ,0.0069972841771552795,0.002764489350356977,-0.014861772345942399,0.04111644784314859,0.00671258751567113,0.0026891978209084063, ,0.01665763081853848, ,0.041660777589584606, ,0.0003280358104604878, ,0.2165917661905006,-0.1897475467196962,0.09959655328000001,2.287926973359645,1.0064644572722343,-0.8718351699558319, ,0.044406617481736445,0.006052443332506356,0.01648945291925466,0.010940144969029135,0.06770295919892143,-0.00568087918070543, ,1.570302963256836
0.012889978677495063,0.021723689011342702,-0.0855442152558348, ,0.013415330966302855,0.02171524538100467,-0.08615327935772933, ,0.0008043788923545032, ,0.0069972841771552795,0.002764489350356977,-0.014861772345942399,0.04111644784314859,0.00671258751567113,0.0026891978209084063, ,0.01665763081853848, ,0.041660777589584606, ,0.00033129843430907693, ,0.2165917661905006,-0.1897475467196962,0.09959655328000001,2.287926973359645,1.0064644572722343,-0.8718351699558319, ,0.044406617481736445,0.006052443332506356,0.01648945291925466,0.010940144969029135,0.06770295919892143,-0.00568087918070543, ,1.5722558498382568
0.012889978677495063,0.021723689011342702,-0.0855442152558348, ,0.013439983120168131,0.021719561512240002,-0.0862027030850828, ,0.0008579791049184611, ,0.0069972841771552795,0.002764489350356977,-0.014861772345942399,0.04111644784314859,0.00671258751567113,0.0026891978209084063, ,0.01665763081853848, ,0.041660777589584606, ,0.00033488129601390266, ,0.2165917661905006,-0.1897475467196962,0.09959655328000001,2.287926973359645,1.0064644572722343,-0.8718351699558319, ,0.044406617481736445,0.006052443332506356,0.01648945291925466,0.010940144969029135,0.06770295919892143,-0.00568087918070543, ,1.5742549896240234
0.01297283800062348,0.021758637537132683,-0.08572410953318353, ,0.013464639742402636,0.02172377421264139,-0.08625219708169335, ,0.0007224685899765507, ,0.008978812767330011,0.004037423331500111,-0.02070677424332322,0.014363494597806982,-0.012851352357512825,-0.03615499873219482, ,0.022927938534296182, ,0.019273386512469754, ,0.00033750012908121785, ,0.21705513016295408,-0.1896780421238282,0.09979229307000001,2.288556043190099,1.0067377302717653,-0.8715679333223815, ,0.047686905305764214,0.006543396975732685,0.0224349458028169,0.057097212041697015,0.028724172132924837,0.01516749443305469, ,1.5763328075408936
0.01297283800062348,0.021758637537132683,-0.08572410953318353, ,0.01348930084840007,0.02172788398848535,-0.08630176077904639, ,0.0007754744455717533, ,0.008978812767330011,0.004037423331500111,-0.02070677424332322,0.014363494597806982,-0.012851352357512825,-0.03615499873219482, ,0.022927938534296182, ,0.019273386512469754, ,0.00034043955402410735, ,0.21705513016295408,-0.1896780421238282,0.09979229307000001,2.288556043190099,1.0067377302717653,-0.8715679333223815, ,0.047686905305764214,0.006543396975732685,0.0224349458028169,0.057097212041697015,0.028724172132924837,0.01516749443305469, ,1.5784029960632324
0.01297283800062348,0.021758637537132683,-0.08572410953318353, ,0.013513966453522538,0.02173189134513232,-0.08635139360981328, ,0.0008288671028076124, ,0.008978812767330011,0.004037423331500111,-0.02070677424332322,0.014363494597806982,-0.012851352357512825,-0.03615499873219482, ,0.022927938534296182, ,0.019273386512469754, ,0.00034369573768266407, ,0.21705513016295408,-0.1896780421238282,0.09979229307000001,2.288556043190099,1.0067377302717653,-0.8715679333223815, ,0.047686905305764214,0.006543396975732685,0.0224349458028169,0.057097212041697015,0.028724172132924837,0.01516749443305469, ,1.5804200172424316
0.01297283800062348,0.021758637537132683,-0.08572410953318353, ,0.013538636573099854,0.021735796787025495,-0.08640109500785123, ,0.0008825865721802084, ,0.008978812767330011,0.004037423331500111,-0.02070677424332322,0.014363494597806982,-0.012851352357512825,-0.03615499873219482, ,0.022927938534296182, ,0.019273386512469754, ,0.00034726455115615773, ,0.21705513016295408,-0.1896780421238282,0.09979229307000001,2.288556043190099,1.0067377302717653,-0.8715679333223815, ,0.047686905305764214,0.006543396975732685,0.0224349458028169,0.057097212041697015,0.028724172132924837,0.01516749443305469, ,1.5824849605560303
0.01297283800062348,0.021758637537132683,-0.08572410953318353, ,0.013563311222430626,0.021739600817693435,-0.08645086440820136, ,0.0009365861790142448, ,0.008978812767330011,0.004037423331500111,-0.02070677424332322,0.014363494597806982,-0.012851352357512825,-0.03615499873219482, ,0.022927938534296182, ,0.019273386512469754, ,0.0003511416671289083, ,0.21705513016295408,-0.1896780421238282,0.09979229307000001,2.288556043190099,1.0067377302717653,-0.8715679333223815, ,0.047686905305764214,0.006543396975732685,0.0224349458028169,0.057097212041697015,0.028724172132924837,0.01516749443305469, ,1.5844848155975342
0.013074540216745046,0.021805841895907407,-0.08595994817575783, ,0.013587990416780904,0.021743303939748417,-0.08650070124708854, ,0.000748302070043243, ,0.010605979575326076,0.0048223255273586035,-0.025077906341557602,-0.026276926707088363,-0.012504439442238044,-0.02683383342819843, ,0.027652179167653015, ,0.02910030866154456, ,0.00035373748675579937, ,0.21756483053265288,-0.18959309206221173,0.10004766220000001,2.2896044929075217,1.007011003271296,-0.8711373392086498, ,0.0521698414285161,0.00913914620739254,0.02695230375634518,0.09073648451684406,0.01171388762898545,0.07465332838331859, ,1.5864219665527344
0.013074540216745046,0.021805841895907407,-0.08595994817575783, ,0.01361267417138504,0.021746906654888303,-0.08655060496191974, ,0.0008012096821741314, ,0.010605979575326076,0.0048223255273586035,-0.025077906341557602,-0.026276926707088363,-0.012504439442238044,-0.02683383342819843, ,0.027652179167653015, ,0.02910030866154456, ,0.00035664315036241194, ,0.21756483053265288,-0.18959309206221173,0.10004766220000001,2.2896044929075217,1.007011003271296,-0.8711373392086498, ,0.0521698414285161,0.00913914620739254,0.02695230375634518,0.09073648451684406,0.01171388762898545,0.07465332838331859, ,1.5885670185089111
0.013074540216745046,0.021805841895907407,-0.08595994817575783, ,0.013637362501445953,0.02175040946389836,-0.08660057499128426, ,0.0008545433841800657, ,0.010605979575326076,0.0048223255273586035,-0.025077906341557602,-0.026276926707088363,-0.012504439442238044,-0.02683383342819843, ,0.027652179167653015, ,0.02910030866154456, ,0.00035985540993542904, ,0.21756483053265288,-0.18959309206221173,0.10004766220000001,2.2896044929075217,1.007011003271296,-0.8711373392086498, ,0.0521698414285161,0.00913914620739254,0.02695230375634518,0.09073648451684406,0.01171388762898545,0.07465332838331859, ,1.5905539989471436
0.013074540216745046,0.021805841895907407,-0.08595994817575783, ,0.013662055422134164,0.021753812866649177,-0.0866506107749511, ,0.0009082378335950216, ,0.010605979575326076,0.0048223255273586035,-0.025077906341557602,-0.026276926707088363,-0.012504439442238044,-0.02683383342819843, ,0.027652179167653015, ,0.02910030866154456, ,0.0003633706818819649, ,0.21756483053265288,-0.18959309206221173,0.10004766220000001,2.2896044929075217,1.007011003271296,-0.8711373392086498, ,0.0521698414285161,0.00913914620739254,0.02695230375634518,0.09073648451684406,0.01171388762898545,0.07465332838331859, ,1.5925369262695312
0.013074540216745046,0.021805841895907407,-0.08595994817575783, ,0.013686752948588657,0.021757117362099513,-0.08670071175386986, ,0.0009622417512681204, ,0.010605979575326076,0.0048223255273586035,-0.025077906341557602,-0.026276926707088363,-0.012504439442238044,-0.02683383342819843, ,0.027652179167653015, ,0.02910030866154456, ,0.00036718514729206777, ,0.21756483053265288,-0.18959309206221173,0.10004766220000001,2.2896044929075217,1.007011003271296,-0.8711373392086498, ,0.0521698414285161,0.00913914620739254,0.02695230375634518,0.09073648451684406,0.01171388762898545,0.07465332838331859, ,1.594587802886963
0.013179464311448862,0.021852528068438615,-0.08622325841741783, ,0.013711455095916564,0.021760323448296523,-0.08675087737016844, ,0.000754915654915009, ,0.010935331800371203,0.004977881967315194,-0.027541626900245534,0.057790579072417095,0.010164328939716404,-0.02686224408819937, ,0.03004832778670154, ,0.05867749794672032, ,0.00036963913784664334, ,0.2181054218338486,-0.18948497380197257,0.100332846,2.289814182851006,1.0076941857701234,-0.8709593200658668, ,0.055625405368388496,0.01159730352218385,0.029941375037593993,0.03608467395366778,0.08410014594700202,-0.016964017261253232, ,1.5965240001678467
0.013179464311448862,0.021852528068438615,-0.08622325841741783, ,0.013736161879193104,0.021763431622375432,-0.08680110706715312, ,0.0008073161838055382, ,0.010935331800371203,0.004977881967315194,-0.027541626900245534,0.057790579072417095,0.010164328939716404,-0.02686224408819937, ,0.03004832778670154, ,0.05867749794672032, ,0.0003723918236702842, ,0.2181054218338486,-0.18948497380197257,0.100332846,2.289814182851006,1.0076941857701234,-0.8709593200658668, ,0.055625405368388496,0.01159730352218385,0.029941375037593993,0.03608467395366778,0.08410014594700202,-0.016964017261253232, ,1.5985097885131836
0.013179464311448862,0.021852528068438615,-0.08622325841741783, ,0.01376087331346217,0.02176644238056245,-0.08685140028930717, ,0.0008602379813167189, ,0.010935331800371203,0.004977881967315194,-0.027541626900245534,0.057790579072417095,0.010164328939716404,-0.02686224408819937, ,0.03004832778670154, ,0.05867749794672032, ,0.0003754408621555744, ,0.2181054218338486,-0.18948497380197257,0.100332846,2.289814182851006,1.0076941857701234,-0.8709593200658668, ,0.055625405368388496,0.01159730352218385,0.029941375037593993,0.03608467395366778,0.08410014594700202,-0.016964017261253232, ,1.6004219055175781
0.013179464311448862,0.021852528068438615,-0.08622325841741783, ,0.013785589413734972,0.021769356218171606,-0.0869017564822892, ,0.0009135999235619399, ,0.010935331800371203,0.004977881967315194,-0.027541626900245534,0.057790579072417095,0.010164328939716404,-0.02686224408819937, ,0.03004832778670154, ,0.05867749794672032, ,0.0003787834650214525, ,0.2181054218338486,-0.18948497380197257,0.100332846,2.289814182851006,1.0076941857701234,-0.8709593200658668, ,0.055625405368388496,0.01159730352218385,0.029941375037593993,0.03608467395366778,0.08410014594700202,-0.016964017261253232, ,1.6023669242858887
