NicholasDascanio/dvrk_moveit_final/test/execution/third_experiment_notsharpbends/thirdexp_600vel3.0/thirdexp_600vel3.0_30.csv
Current Position (x),Current Position (y),Current Position (z), ,Planned Position (x),Planned Position (y),Planned Position (z), ,Position Error,,Cartesian linear Velocity(x),Cartesian linear Velocity(y),Cartesian linear Velocity(z),Cartesian Angular Velocity(x),Cartesian Angular Velocity(y),Cartesian Angular Velocity(z), ,Total Linear Velocity, ,Total Angular Velocity, ,MSE, ,Joint 1 Position,Joint 2 Position,Joint 3 Position,Joint 4 Position,Joint 5 Position,Joint 6 Position, ,Joint 1 Velocity,Joint 2 Velocity,Joint 3 Velocity,Joint 4 Velocity,Joint 5 Velocity,Joint 6 Velocity, ,Time Stamp
0.010097206989761118,0.01993695923024019,-0.07971897025219701, ,0.010178901357065052,0.019824817351273716,-0.07978290557453617, ,0.00015276614844242427, ,-8.745976100496744e-06,5.992004259511888e-06,3.907779229528624e-07,0.1044648825227584,-0.031315584638895375,-0.14354044265511326, ,1.0608907596050414e-05, ,0.10905767979271122, ,1.2730512370202022e-05, ,0.20016551336702507,-0.18462737482408537,0.09318899181000001,2.2579413114413582,1.0094704602670739,-0.8866198535983782, ,-0.00016840825483893285,0.0,0.0,0.0010235532661846567,0.0,-0.17943247380744687, ,0.023142099380493164
0.010111007750038377,0.01994075664895194,-0.07974062209668215, ,0.010189927956472018,0.01985099902161785,-0.07982883322974405, ,0.00014854640569275998, ,0.0011274386577743078,-0.00018406462711363712,-0.0019453500655437907,0.009136369587382825,-0.18305832444951842,-0.22030765825810833, ,0.0022559664429041594, ,0.18328617896468502, ,1.3696025187962919e-05, ,0.20016551336702507,-0.1846350975569596,0.09320065842000001,2.2585703812718116,1.0078308222698886,-0.8904285993828764, ,-0.0001521700644633135,-0.00011544985837170264,0.0005827481819891728,0.0018308806650586902,-0.19223600974556126,-0.21114263272008094, ,0.041773080825805664
0.010144482485948052,0.019938284540609072,-0.07979226488020567, ,0.010201037693413635,0.01987697433696664,-0.07987476609204786, ,0.00011731957431554199, ,0.0013180696380633698,-0.000441520616883099,-0.0023098383331167766,-0.11477854203631921,-0.21410196855815847,-0.0981852806888523, ,0.0026958488739269163, ,0.24292749258244942, ,1.3082254014085195e-05, ,0.20015779063415085,-0.18465826575558225,0.09321362132000001,2.258989761158781,1.0022287257795057,-0.8947634480066445, ,0.0,-0.0009144446070091951,0.00043244568740304545,-0.029077063073015753,-0.2573952643136183,-0.07348149592097752, ,0.061341047286987305
0.010157061860732201,0.019938342650338232,-0.07981729595613714, ,0.010212230309514927,0.019902744032815018,-0.07992070412501784, ,0.0001224910964189471, ,0.0006138720445900214,0.0003276346169359882,-0.0020676302875379782,0.12950249309821982,-0.09216330244974902,-0.231584617470946, ,0.002444011921002084, ,0.12622342684017487, ,1.2883886306420795e-05, ,0.2001732360998993,-0.18468143395420492,0.09323695454000001,2.258780071215296,0.9997692687837277,-0.8983937588098078, ,-0.0002520098567952027,-0.0012167937952877606,0.0017548541941169993,0.0,-0.05545330701489787,-0.275086411260699, ,0.07988405227661133
0.010165503190111318,0.019941582440020117,-0.07984264248307023, ,0.01022350554686169,0.01992830884346583,-0.07996664729213179, ,0.00013754146438248546, ,0.0007148996625348713,0.00034610400318975886,-0.0021629303437185545,0.1534531467807114,-0.11931336961209849,-0.28496436887458937, ,0.0023041565008251746, ,0.19437990746229006, ,1.3051244024079978e-05, ,0.2001732360998993,-0.18469687941995339,0.09324602857000001,2.258780071215296,0.9994959957841969,-0.8997228190650857, ,-0.0002520098567952027,-0.0019807146249283033,0.0017125408127099653,0.0,-0.07649163489240032,-0.3359019270273457, ,0.09996795654296875
0.01018037118470494,0.019947874321243245,-0.07987217505291, ,0.010234863148000215,0.019953669502030362,-0.08001259555677458, ,0.00015073445554919014, ,-0.00015901779906237783,0.000664120674643119,-0.000313035435051381,-0.07012686218710908,0.0871210187159847,0.1603270373502496, ,0.0007512217478913145, ,0.11183849383070546, ,1.3377405561312082e-05, ,0.20016551336702507,-0.1847432158171987,0.09326417663000001,2.2591994511022655,0.9975830847874807,-0.8956309274689783, ,-0.00036845370572929605,-0.004026895339982611,0.000904681377515076,0.011533640487557046,0.06415595218156261,0.1949100136526559, ,0.11879992485046387
0.010173873672394279,0.019964903982840815,-0.07988728830737865, ,0.010246302855937526,0.019978826740430163,-0.0800585488822386, ,0.00018646719365344558, ,-0.00020876463731147807,0.0007823181314725003,-0.0008604183652384433,0.06701848457801865,0.09004446919260235,0.021099847799723973, ,0.0011814923173097708, ,0.1122474218292392, ,1.4109254700761036e-05, ,0.20016551336702507,-0.1847972749473183,0.09330176904000001,2.25940914104575,1.0003158147827895,-0.8950822083781276, ,-0.00036845370572929605,-0.002110267648936477,0.0018033297316879886,0.016342611169519135,0.11216831443072539,0.008426744556736254, ,0.13832402229309082
0.010182419737042609,0.0199827486150031,-0.07994035238546757, ,0.010257824414140181,0.020003781289396737,-0.08010450723172374, ,0.00018186547849915517, ,0.0007015772385448839,0.0009318591345188077,-0.002814565177967616,-0.0030849305203378237,-0.003226402090483505,-0.008280378155636783, ,0.0030466948008059957, ,0.004463907098961777, ,1.4606485572609145e-05, ,0.20015779063415085,-0.18487450227606053,0.09336139838000002,2.25940914104575,1.000725724282086,-0.8945179959476707, ,0.00038041854247653173,-0.0040279456224285755,0.002970130807383927,0.013186427604599609,-0.008751857887376457,0.0075258841738610124, ,0.15756011009216309
0.01019727629554857,0.020002370687115995,-0.0799975810081856, ,0.010269427566534574,0.020028533878473115,-0.08015047056833757, ,0.00017107172791068617, ,0.0006023300475617938,0.0010384118226715632,-0.002759575491689441,0.018250855506313664,0.00027341632788172813,-0.02862199880410394, ,0.003009378257047939, ,0.018252903413995773, ,1.4878299400702566e-05, ,0.20016551336702507,-0.18495172960480277,0.09342232401000002,2.259828520932719,1.0005890877823205,-0.8947332930045366, ,-0.0004718862926616696,-0.004885754656997681,0.002993574801728999,0.01633475214360269,0.0,-0.017543452096879124, ,0.17891907691955566
0.010210347256382807,0.02002258998709628,-0.08004652072295601, ,0.010281112057506262,0.02005308523601448,-0.08019643885509586, ,0.00016856175019537415, ,0.00046274663201013324,0.0007893259224176645,-0.0014976580588660538,0.0006996755596064707,-0.0012669935952859595,-0.008692479987583605, ,0.0017550354750043246, ,0.0014473488355167233, ,1.507220877509814e-05, ,0.20016551336702507,-0.18505984786504193,0.09347417561000002,2.260247900819688,1.0003158147827895,-0.8945104571971437, ,0.0008375067426652839,-0.005133361105074983,0.0016565196724700557,0.013860005949569798,-0.005483660450654421,0.006450312298646076, ,0.1983349323272705
0.010219623458089562,0.020038939842459018,-0.08008650855792872, ,0.010292877631899183,0.020077436089187876,-0.08024241205492215, ,0.00017650505762589421, ,0.000445335761687676,0.0008882117887952098,-0.001974065331488396,0.008009515740280684,0.002735277829867481,-0.01282094615441318, ,0.0022100176595170272, ,0.008463692289443788, ,1.5302413863267004e-05, ,0.2001732360998993,-0.18516796612528108,0.09351695318000001,2.260247900819688,1.000179178283024,-0.8943173605533066, ,-0.0002931562405936912,-0.005050047116008279,0.0021784479649890596,0.013860005949569798,0.0,-0.0006002636723652741, ,0.22059202194213867
0.010228364699497672,0.020056277536826043,-0.08012497614728194, ,0.010304724035016808,0.020101587163975723,-0.08028839013064885, ,0.00018597806427966186, ,0.00047130669132259943,0.0009234883508319816,-0.0020081470896971,0.0026082804857234156,-0.0012052782854948426,-0.0073557534062008685, ,0.002260003421516605, ,0.002873294764731573, ,1.557252800791448e-05, ,0.20016551336702507,-0.1852760843855202,0.09355843446,2.2604575907631723,1.0000425417832586,-0.8942059426496103, ,-8.934327674919977e-05,-0.005821368963244546,0.002186521828414551,0.010365687418283408,-0.005088041267930738,0.003575725169647513, ,0.24056100845336914
0.010242215975124595,0.020077897028771316,-0.0801731396922316, ,0.010316651012619879,0.020125539185173562,-0.08033437304501673, ,0.00018386555937400286, ,0.0006440771409263863,0.0009862632852843552,-0.0024324385143317606,-0.009317610297885501,-0.008024555555209343,-0.005797946576680638, ,0.0027026482859166673, ,0.012296802569641762, ,1.5785711941966432e-05, ,0.20015779063415085,-0.18539192537863358,0.09360898977000001,2.261086660593626,0.9996326322839623,-0.8937900101983804, ,0.0002395519364195455,-0.005789599331739772,0.0025498337634064353,0.013334334063843729,-0.016679440931414727,0.013081907141109005, ,0.26059913635253906
0.010252300113083274,0.020099145635925523,-0.0802228450866992, ,0.01032865831092743,0.020149292876392815,-0.08038036076067538, ,0.00018208928483757952, ,0.0006801120552591141,0.0011229291145074228,-0.002626530243320444,-0.007169617200360839,-0.008296058376967815,-0.006914861687769464, ,0.0029363554490208013, ,0.010964852724444925, ,1.5956360994205273e-05, ,0.20015779063415085,-0.18553093457036962,0.09366343395000001,2.261086660593626,0.9996326322839623,-0.8937900101983804, ,0.00019879449979265024,-0.006960695931240038,0.002775054271777004,0.013334334063843729,-0.016679440931414727,0.011373996416669878, ,0.27991795539855957
0.010262574902075227,0.02012189466328276,-0.0802734902129371, ,0.01034074567661559,0.020172848960060535,-0.08042635324018317, ,0.00017909247737186074, ,0.0006610422794041808,0.0011183373671458526,-0.002486812895242962,-0.005912039287343335,-0.004621086800835216,-0.0035378725297606807, ,0.002805689529841332, ,0.00750377582693119, ,1.6191362506947083e-05, ,0.20015779063415085,-0.1856853892278541,0.09371917442000001,2.261086660593626,0.9996326322839623,-0.8936266527180993, ,0.0005290373719078537,-0.007038769469916129,0.002669931532014751,0.013334334063843729,-0.012046550593589021,0.01407093295737272, ,0.29779791831970215
0.010268288416265203,0.020134132585175307,-0.08029651077419607, ,0.010352912856818169,0.020196208157421708,-0.08047235044600805, ,0.0002047785701472808, ,0.0006234314088314331,0.0012565179129811646,-0.0023581038536690632,-0.0046210617186991255,-0.003319397748669176,8.740721620673238e-05, ,0.0027437488536396644, ,0.005689693554927355, ,1.6560464429351812e-05, ,0.20015779063415085,-0.18576261655659634,0.09374510022000002,2.2612963505371106,0.9996326322839623,-0.8935449739779587, ,0.0005290373719078537,-0.008993817517952769,0.0025850067380720552,0.012165092952545016,-0.010572923960821578,0.016246435996108297, ,0.31452107429504395
0.010277926589389563,0.020153727867142757,-0.08033059336678493, ,0.010365159599125066,0.020219371188537696,-0.08051835234052687, ,0.00021719133466117338, ,0.0006172829133046099,0.0012035785568958813,-0.002445860174425509,-0.006977489283083793,-0.0014404403149341812,0.0046814077226456155, ,0.002794972545575033, ,0.007124621036160915, ,1.6963702031700967e-05, ,0.20016551336702507,-0.18588618028258394,0.09378398892,2.2617157304240796,0.9996326322839623,-0.8933816164976776, ,0.00039003367190348237,-0.008196349287075987,0.0026681426331658293,0.010918851392034178,-0.008931992619700905,0.020190119715728073, ,0.3320610523223877
0.01029578732027578,0.02018727033251375,-0.08039938426568487, ,0.010377485651583081,0.020242338772289353,-0.08056435888602642, ,0.00019215560297466394, ,0.0005847479429987945,0.0013754018331715405,-0.0029838336083005713,-0.002500355576029218,0.0005966740434843406,0.010221584618314992, ,0.0033372029248394477, ,0.002570563689976492, ,1.7185512619843413e-05, ,0.2001809588327735,-0.1861255850016849,0.09385787745000002,2.261925420367564,0.999222722784666,-0.8928023265661666, ,-0.0006763479410257582,-0.009425064345042838,0.003255428473329246,0.0032943938301641493,-0.004834989714623015,0.01622044158699056, ,0.3495199680328369
0.010302538970806782,0.020200857577269766,-0.08043265964901616, ,0.010389890762694856,0.020265111626376616,-0.08061037004470312, ,0.00020818237943662823, ,0.0007228720145491988,0.0015156565574906582,-0.0036462191399193487,-0.000989920397890203,0.00034288239858685,0.008654710241518385, ,0.004014308504088474, ,0.0010476211571619095, ,1.7471677143148427e-05, ,0.2001809588327735,-0.1862414259947983,0.09390584018,2.261925420367564,0.999222722784666,-0.8927206478260261, ,-0.0006087982257398852,-0.009515838301484338,0.003907951795878312,0.0032943938301641493,-0.004531947768750286,0.009984422174174246, ,0.3676950931549072
0.010317830527451879,0.02023140654412417,-0.08049512674432296, ,0.010402374681418825,0.020287690467319413,-0.08065638577866324, ,0.00019057825200319544, ,0.0004934965145259641,0.001313965944392516,-0.0022547654758736007,0.006282441042297419,0.0032442102609024762,-0.005831304002056342, ,0.0026559391303386634, ,0.007070641103083205, ,1.764174427434669e-05, ,0.2001809588327735,-0.186403603385157,0.09396287694000001,2.2623448002545334,0.9990860862849005,-0.8925275511821892, ,-0.0004935267844318353,-0.009431541425603894,0.0025469797761432686,0.014061692904578064,-0.0017398781442513112,0.007976975667770194, ,0.3853449821472168
0.010326316506574363,0.020255413751205598,-0.08053494758525252, ,0.0104149371571686,0.020310076010458693,-0.08070240604992356, ,0.00019719005981128502, ,0.00045204867789504536,0.0011812837228274262,-0.0019611427450137667,0.002653934000684728,0.002244271690857123,0.0023202352678507164, ,0.0023336366699475337, ,0.003475646856825827, ,1.7829131402845055e-05, ,0.2001732360998993,-0.18658122624126416,0.09400824709000001,2.2625544901980175,0.9990860862849005,-0.892364193701908, ,7.253358030819273e-05,-0.008929443274594441,0.002225937887087759,0.008315063739326072,-0.0017398781442513112,0.011416711136007306, ,0.4027280807495117
0.010338254507380126,0.020280702768951844,-0.08058542656433573, ,0.01042757793981317,0.020332268969957698,-0.0807484308204106, ,0.00019289410609533061, ,0.0005671507643336903,0.0012177772467388396,-0.0025801600207707408,-0.0033639758663607617,-0.00238855609388899,0.002956482624622772, ,0.0029089288655693847, ,0.004125716147381281, ,1.798068244709611e-05, ,0.2001809588327735,-0.18677429456311978,0.09406269127000001,2.2625544901980175,0.9988128132853697,-0.8918963216740935, ,-0.000304055026815051,-0.008278349589252205,0.0027984559943780747,0.007173907305684889,-0.008536245623262776,0.013294352430201287, ,0.42127108573913574
0.010350628497140035,0.020307498475395834,-0.0806361151128542, ,0.010440296779675565,0.020354270058801072,-0.08079446005196211, ,0.0001878858739985308, ,0.0006345073493786837,0.0012610964602392002,-0.002739880323499879,0.0005306811202920811,0.0008111682101470466,-0.009148704109134006, ,0.003082192084466055, ,0.0009693380020322258, ,1.8097542231735867e-05, ,0.2001809588327735,-0.1869441946863527,0.09411972803000002,2.262973870084987,0.9988128132853697,-0.8918963216740935, ,-0.00046030312026767187,-0.007546568313049437,0.002985159580209895,0.018227099045841837,-0.006678067052323954,0.010999194209013883, ,0.4395260810852051
0.01036308759446506,0.020331858509971542,-0.08068976379280367, ,0.010453093427533587,0.020376079988797962,-0.08084049370632622, ,0.00018104169687249062, ,0.0006172108973421721,0.001226818803906893,-0.002727947730419049,6.659581982583577e-05,0.0003928208567119166,-0.006599170667495201, ,0.0030541336724701344, ,0.00039842574918730545, ,1.8175834545472368e-05, ,0.2001809588327735,-0.1870986493438372,0.09417806108000001,2.2631835600284713,0.9986761767856043,-0.8915398675499754, ,0.0007291423277156122,-0.007148591245740071,0.002785244189543627,0.014155494840138193,0.0,0.011265937026036572, ,0.45928311347961426
0.010368970496358664,0.020343431545157692,-0.08071560534436092, ,0.010465967634618881,0.020397699470581183,-0.08088653174516215, ,0.00020388547533187141, ,0.0006778021818612754,0.001280514616935707,-0.0026255240960197444,0.005030466319511168,0.0029993165731486216,-0.003060399007078036, ,0.00299875145030431, ,0.005856747490966201, ,1.8343066762993612e-05, ,0.20018868156564773,-0.18717587667257943,0.09420657946000001,2.2631835600284713,0.9986761767856043,-0.8914581888098349, ,0.0010034456961145752,-0.008166032593511785,0.0029329426477628434,0.012430902913280419,0.0,0.009225386200573645, ,0.4773249626159668
0.010381861585215896,0.020366321224907134,-0.08076822571444205, ,0.010478919152616567,0.02041912921360872,-0.0809325741300402, ,0.00019803852344951465, ,0.0005296784547909256,0.001091208659312007,-0.002559282527173424,-0.003585114633660018,-0.00119116820545454,0.005372779115270391, ,0.002832176311164684, ,0.0037778206045777007, ,1.84748704533239e-05, ,0.20019640429852195,-0.1873148858643155,0.09426361622000001,2.263393249971956,0.9985395402858388,-0.8910200559455761, ,-0.0004438206096385625,-0.006918550130806586,0.002758713460339453,0.004519761422552931,-0.006358463877664591,0.01272552329275844, ,0.495028018951416
0.010393766255534988,0.020390038541815852,-0.08081974489421406, ,0.010491947733664976,0.02044036992616422,-0.08097862082244203, ,0.0001934280524342618, ,0.0006364697329488036,0.0011088244429171303,-0.002598148763753115,-0.004445908424841961,0.00011368822023500051,0.0023407152151045294, ,0.002895679948606587, ,0.004447361758965596, ,1.8579712995232573e-05, ,0.20018868156564773,-0.1874461723231773,0.09432065298,2.263812629858925,0.9985395402858388,-0.8909383772054356, ,0.0004120527219511733,-0.006551264947221194,0.002817762519016452,0.01054718658105566,-0.005818557099437437,0.01614363174314333, ,0.5115151405334473
0.010398865481938859,0.02039950642565553,-0.08084487534026995, ,0.01050505313035555,0.020461422315358208,-0.08102467178376066, ,0.0002177984278314468, ,0.0006190229460251733,0.00101979115758989,-0.0025666769894239633,-0.0038567633901238816,-7.468774137716261e-05,0.001250310783836175, ,0.0028303699724316384, ,0.0038574864866541456, ,1.8768448110435386e-05, ,0.20018868156564773,-0.18750023145329686,0.09434787507,2.263812629858925,0.9985395402858388,-0.8908566984652949, ,0.0003533568502769788,-0.00562199641009105,0.0027668597394476294,0.009665968467566477,-0.005351217554786215,0.013764338658540176, ,0.5320019721984863
0.010411890817817297,0.02042315727978719,-0.08090130887555841, ,0.010518235095731913,0.020482287087128265,-0.08107072697530134, ,0.00020858555099018228, ,0.000496907373116573,0.0009391908566704756,-0.0021952550874610346,-0.0001744743222329989,0.0011852287873403565,0.0039169040699099334, ,0.0024388811577718563, ,0.0011980018850051976, ,1.898017987169154e-05, ,0.20018868156564773,-0.1876392406450329,0.0944088007,2.2640223198024096,0.9984029037860733,-0.8905002443411769, ,0.0002606640333671826,-0.005739543604651401,0.0024000017357239723,0.004715457220420368,-0.0016307998775942994,0.009815688617747016, ,0.5470530986785889
0.010417939264131416,0.020433277400784756,-0.08092851202401956, ,0.010531493383290215,0.02050296494624073,-0.08111678635828079, ,0.00023064716974443753, ,0.0006350135402427711,0.0011150668036202724,-0.0028569926983451517,-0.0032188580255189604,0.0008767315326198401,0.007292964375966412, ,0.0031319360547790724, ,0.003336121247555449, ,1.925766483919473e-05, ,0.20018868156564773,-0.1877010225080267,0.09443731908000001,2.2640223198024096,0.998266267286308,-0.8901437902170588, ,0.00023527992636779855,-0.006352372242586014,0.003088175944164405,0.0046953373422684505,-0.0031903158498507926,0.014441410830125118, ,0.5627651214599609
0.010430488345929384,0.020451582483320217,-0.0809742794674626, ,0.01054482774697815,0.020523456596290495,-0.08116284989382784, ,0.00023194437360501068, ,0.0008256560118084109,0.001296933093894382,-0.003436625504738059,-0.0047055178344207645,0.0012873683657104987,-0.0061511826630037325, ,0.003764855662530762, ,0.004878443903513171, ,1.9524387629918884e-05, ,0.20019640429852195,-0.1877859725696432,0.09448657810000001,2.2644416996893786,0.9981296307865425,-0.8898690148330812, ,0.0,-0.006216571379684248,0.0036855186302637674,0.019927217795483797,-0.0074635176927842,0.017471273578454606, ,0.579582929611206
0.010450526331238334,0.02048209678864888,-0.08105893554751326, ,0.010558237941194818,0.020543762739702334,-0.0812089175429841, ,0.00019467685893335992, ,0.0005663000967248792,0.0011656180282202085,-0.002494408017610242,0.008867612446599065,0.00940612860104649,-0.002971698345340041, ,0.00281094869138176, ,0.012927095793949022, ,1.9652660156232245e-05, ,0.20021184976427042,-0.18794042722712767,0.09457731840000001,2.264651389632863,0.997992994286777,-0.8896759181892442, ,0.00027132085848672694,-0.006739275274332812,0.002818759780569811,0.013341027415643865,0.007507073144160364,0.008257315936391785, ,0.594789981842041
0.010456592271153867,0.020491978628369465,-0.08108249393808403, ,0.01057172372079077,0.020563884077732134,-0.0812549892667033, ,0.00021950007457632116, ,0.000575530819759699,0.0010033968474056085,-0.0022831232191815225,0.010057790656090847,0.0074969270365165,-0.00544001479052112, ,0.0025594320838503576, ,0.012544443702714124, ,1.9854864030668813e-05, ,0.20022729523001886,-0.18800220909012147,0.0946032442,2.264651389632863,0.997992994286777,-0.8895942394491037, ,0.0009953733465673156,-0.005417833824585523,0.002576226996603591,0.011701757802704356,0.007507073144160364,0.003465039950074492, ,0.6126329898834229
0.010470626518644454,0.02051601555955276,-0.08113499390217668, ,0.010585284841067018,0.020583821310466842,-0.081301065025852, ,0.00021289379717728718, ,0.0007278533806496237,0.0012200609568328593,-0.0026982125268228516,0.015548882184147022,0.007235648170475086,-0.015519278021175588, ,0.0030493720865146573, ,0.0171499953784358, ,2.002592379311165e-05, ,0.2002427406957673,-0.1881334955489833,0.09466157725,2.265070769519832,0.997992994286777,-0.8893492032286819, ,0.0014356591292861611,-0.006538383330077283,0.003049159938744258,0.017967402954250852,0.007507073144160364,-0.0019436863805832151, ,0.6278600692749023
0.010477280800475226,0.020528946272267385,-0.08116205406774755, ,0.010598921057775013,0.020603575136825758,-0.0813471447812098, ,0.00023371861678350253, ,0.000732478530626539,0.0011386641052260537,-0.002847597345624815,-0.0053721506584766925,-0.0013658628415855049,0.003408555148001443, ,0.0031530764952929, ,0.005543066282497266, ,2.0252810294465384e-05, ,0.20025046342864153,-0.1882030001448513,0.09469268821000001,2.2652804594633165,0.9981296307865425,-0.8892155849119567, ,0.000996361037493304,-0.006397693179270568,0.0030720947965284483,0.009149147770545157,-0.006674984171263017,0.016121564373410578, ,0.6436469554901123
0.010491291111334702,0.020551797245023228,-0.0812215650485588, ,0.010612632127116349,0.020623146254561325,-0.0813932284934693, ,0.0002219969855460424, ,0.0007265920616581242,0.0011555261690401153,-0.002926398574362875,-0.011084067375188252,0.001049385822971146,0.01383081759478209, ,0.003229084292401516, ,0.011133631930710966, ,2.043345638841213e-05, ,0.20027363162726422,-0.18833428660371312,0.09475750271000001,2.2652804594633165,0.9981296307865425,-0.8888888699513946, ,0.0009011870531751023,-0.006514773621771763,0.0031592248155493854,0.00714575975322071,-0.005620866018039596,0.02648716153032505, ,0.6594650745391846
0.010497714090557685,0.020563301613457746,-0.08125003344916255, ,0.010626417805742097,0.020642535360259694,-0.08143931612323628, ,0.0002422200727418067, ,0.000721669244327557,0.0011916582603606137,-0.002849284809874967,-0.008177844650323765,0.0004199961061583592,0.011914527277267564, ,0.0031716367754644004, ,0.008188622574415324, ,2.0665081157925394e-05, ,0.20028907709301266,-0.18848101852832339,0.09482490979000001,2.2656998393502854,0.9981296307865425,-0.888807191211254, ,0.0014342315934249331,-0.006571301117019457,0.0034862796060407095,0.018661662445929143,-0.004670668099212966,0.01862978646965276, ,0.6750509738922119
0.010513948220964603,0.020590439127483613,-0.08130817039837908, ,0.010640277850752883,0.020661743149342042,-0.08148540763103043, ,0.00022903378688206955, ,0.0006399616234105766,0.0011974216664782152,-0.002388693925601536,0.002575507308042556,0.0013984338510526898,-0.009838155894903574, ,0.002747585885281012, ,0.0029306748457961665, ,2.084816488671467e-05, ,0.20029679982588688,-0.18854280039131718,0.09485342817,2.2659095292937703,0.9981296307865425,-0.8887255124711133, ,0.0005517651414502872,-0.007359534760075588,0.002648621802460925,0.01844325819561487,-0.004341117348539908,0.009642120491211421, ,0.6921439170837402
0.010526820336548018,0.020611708002573753,-0.08135684222134527, ,0.01065421201969859,0.020680770316065442,-0.08153150297728465, ,0.00022694630145933973, ,0.0007474870564516715,0.0012276950685683866,-0.0027531743216219766,0.00039535280905979753,7.577269917752446e-05,-0.004747399537605692, ,0.0031057915136384396, ,0.0004025483665175349, ,2.1017156410213607e-05, ,0.20031996802450955,-0.18868953231592744,0.09490527977,2.2659095292937703,0.9978563577870115,-0.8882576404432988, ,0.0011778059041511369,-0.007162335132495363,0.0030191075663381357,0.01441328668381703,-0.004680066901171777,0.01134224732717048, ,0.7078249454498291
0.010534347280993613,0.020622761632212425,-0.08138495689538319, ,0.010668220070576875,0.02069961755352186,-0.08157760212234609, ,0.00024686218807811166, ,0.0008135681855094925,0.001285536559159389,-0.0029625943009967994,0.002083401319888997,0.00022711735330880353,-0.003945401790301392, ,0.003330384726980846, ,0.0020957440501324157, ,2.1233433709104822e-05, ,0.20033541349025802,-0.18875903691179546,0.09493509444,2.2659095292937703,0.9977197212872461,-0.8879828650593213, ,0.0016217056593249583,-0.0074015288322700065,0.003254763285655906,0.012869941282599945,-0.003157957525625496,0.009899584259642175, ,0.7231900691986084
0.010551244253500668,0.020651552562795827,-0.08145466513448556, ,0.010682301761834444,0.0207182855536418,-0.08162370502647591, ,0.00022406215129293117, ,0.000863289268940911,0.0014010272774347917,-0.003600189452204735,0.0029098855408717225,0.0023450412756319187,-0.009257929854503036, ,0.003958473176080787, ,0.003737198394595986, ,2.1379118337115826e-05, ,0.20034313622313224,-0.18890576883640572,0.09501157555,2.2663289091807393,0.9977197212872461,-0.8878195075790402, ,0.00036451305895479576,-0.006954437160628801,0.003905077597450356,0.01790455795866306,-0.003157957525625496,0.009420704392512271, ,0.7386360168457031
0.010560304562021814,0.020664641055259766,-0.08148775734123863, ,0.010696456852365262,0.020736775007192582,-0.08166981164984927, ,0.0002385047682351648, ,0.0008314578153615946,0.0013449205513098176,-0.0033858617034828557,0.002050839678175724,0.000862573892031232,-0.003986421886177714, ,0.0037368693933790627, ,0.0022248543008044574, ,2.1556675762216453e-05, ,0.20035858168888068,-0.18896755069939952,0.09504787167,2.2665385991242237,0.9977197212872461,-0.8878195075790402, ,0.0008281586819042949,-0.007161408153680973,0.0036804093160813316,0.012471231007780869,-0.003157957525625496,0.009420704392512271, ,0.7534329891204834
0.010571884638420067,0.02068324798628299,-0.08153523109115794, ,0.01071068510151182,0.02075508660378173,-0.08171592195255636, ,0.0002389048825610707, ,0.0008376605263455708,0.0011626364543739073,-0.0029638321172021204,-0.002220614855083343,7.018423544615307e-05,0.0018276793774570767, ,0.003292066144747926, ,0.0022217236400644013, ,2.178408700827732e-05, ,0.20038174988750335,-0.18907566895963868,0.09509972327,2.2665385991242237,0.9977197212872461,-0.887656150098759, ,0.0020638412375421143,-0.0061272723015006235,0.0032290313237380913,0.010150286746304606,-0.003157957525625496,0.014213291384127967, ,0.7682030200958252
0.010584804034753478,0.020702830513960227,-0.08158094053355738, ,0.010724986269063026,0.0207732210318551,-0.08176203589460176, ,0.00023958592115840246, ,0.0008611151409201214,0.0012399901270272536,-0.0032184399689516425,-0.0017471140432435478,-0.0023483124821639073,0.010094472552114833, ,0.003554919216352517, ,0.0029269401511922634, ,2.2005146176044986e-05, ,0.20041264081900026,-0.1891837872198778,0.09515027858000001,2.266748289067708,0.9977197212872461,-0.8874927926184779, ,0.002341020943288161,-0.007152883854211425,0.0034985309729848456,0.0,-0.002922701432369055,0.01197152174943618, ,0.782102108001709
0.010594023219358078,0.020714814807458085,-0.08161160600904564, ,0.010739360115254604,0.020791178978698994,-0.0818081534359049, ,0.00025609605807810757, ,0.0010131318827168768,0.0012691043957662061,-0.0034437736990610484,0.001234479508610077,0.0009316044142060576,-0.009186154876438432, ,0.0038074452680866163, ,0.0015465529274425389, ,2.2259659978652947e-05, ,0.20043580901762292,-0.18923784634999738,0.09518398212000001,2.2669579790111927,0.9977197212872461,-0.8873294351381968, ,0.0024945458737546185,-0.00562060318404559,0.0037435514735605175,0.018761862021979145,-0.002754334968097286,0.010752272241876925, ,0.7953600883483887
0.010612682162633362,0.02074192875652998,-0.0816855335879959, ,0.010753806400769434,0.020808961130441693,-0.08185427453630023, ,0.0002299628173778737, ,0.0008847889422772721,0.0012602195648000513,-0.0036127360077638352,-0.0015470234481775973,0.0020990000513299964,-0.0007693465194403492, ,0.003927195727955806, ,0.0026075049662965403, ,2.2441388403964967e-05, ,0.20046669994911984,-0.1893691328088592,0.0952643521,2.2671676689546776,0.9977197212872461,-0.8870843989177751, ,0.0009372465025050107,-0.005595132972977557,0.0038907697899364926,0.012526102331881846,-0.0024363491736205858,0.013706457306329274, ,0.8086709976196289
0.01062132648469578,0.02075369297084613,-0.08172169877355212, ,0.010768324886735582,0.02082656817205205,-0.08190039915553762, ,0.0002425966852098828, ,0.0009353383538089966,0.0012789330502924383,-0.0036262359836067718,-0.0036912267058574013,0.001912454517460091,0.003767393312077829, ,0.003957286316662091, ,0.004157239017469401, ,2.2647429286813466e-05, ,0.20048214541486828,-0.18942319193897877,0.09530324080000001,2.2671676689546776,0.9977197212872461,-0.8868393626973534, ,0.00160509867899935,-0.005867957210426171,0.003915637050147493,0.010961272066646245,-0.0023131381199693333,0.017431752761602762, ,0.8219790458679199
0.010631078291324092,0.02076658467803368,-0.081760118612617, ,0.010782915334727833,0.020844000787343227,-0.08194652725328225, ,0.00025257854826742646, ,0.000990107111952253,0.0012415623165241913,-0.0036883898717456486,-0.0048921747715112264,0.0013349536510511946,0.005670299102930619, ,0.004015720224934405, ,0.0050710427490643206, ,2.2870288394064017e-05, ,0.20050531361349094,-0.18948497380197257,0.09534472208000001,2.2671676689546776,0.9977197212872461,-0.8866760052170723, ,0.0021894169701613454,-0.005363275835175309,0.003974254371257486,0.009645699054694395,-0.0021917969021393643,0.01832347473272003, ,0.8353209495544434
0.010652522107335204,0.020793757294737404,-0.08183098164537807, ,0.010797577506765969,0.020861259658971166,-0.08199265878911528, ,0.0002274579892819557, ,0.0010199278992343989,0.0012576163249410296,-0.0035094893941389096,-0.0077742291564852906,0.004669958066404589,0.0026399446154631414, ,0.0038650184408316043, ,0.009069021269527699, ,2.3027318628384546e-05, ,0.2005516500107363,-0.18959309206221173,0.09542249948,2.267796738785131,0.9977197212872461,-0.8864309689966506, ,0.002389954088068161,-0.005224560070271025,0.003810720459330144,0.019576144218329403,-0.0019925864962107055,0.02654884522584813, ,0.848823070526123
0.010663164277157699,0.02080690727960456,-0.08187056166488443, ,0.010812311165314952,0.020878345468436435,-0.0820387937225334, ,0.00023590301882633514, ,0.0010096289914002098,0.0012216501330824274,-0.0033983682311408145,-0.005550576067234538,0.003092163833866441,0.0016285028755725533, ,0.0037497581765179562, ,0.006353768283496294, ,2.3198675941291987e-05, ,0.20058254094223318,-0.1896548739252055,0.09546527705,2.267796738785131,0.9977197212872461,-0.8861859327762289, ,0.0026978678623002907,-0.005234685508157782,0.0036940657513914663,0.016898379336551795,-0.0018929856240502755,0.021970222576689666, ,0.8615930080413818
0.010672193418803762,0.020818448265695556,-0.08190538980044845, ,0.010827116073284182,0.020895258896084356,-0.08208493201294925, ,0.0002492715544976333, ,0.0010495185720854642,0.0012954287402666639,-0.0036774185979393938,-0.005195236309449758,0.002668856333128826,0.0033862803410941718, ,0.004037701375625954, ,0.005840656963507726, ,2.3394795180363294e-05, ,0.20060570914085588,-0.18970893305532507,0.09550286946000001,2.267796738785131,0.9977197212872461,-0.8861042540360884, ,0.0026336524054061863,-0.0056111520423700306,0.0039871868635794755,0.01463557639028411,-0.0018144378479575613,0.021316831495303806, ,0.8746769428253174
0.010689666710629448,0.02083986051395011,-0.08197017539385851, ,0.010841991994027852,0.020912000621106902,-0.08213107361969241, ,0.00023301378950502926, ,0.0010269546698598248,0.0013213917620774262,-0.004093118046907454,-0.005212860901177081,-1.882175614461093e-05,0.013439019604962493, ,0.0044220275246489, ,0.0052128947701496784, ,2.35486845653466e-05, ,0.20064432280522698,-0.18979388311694156,0.09557286912000001,2.2680064287286155,0.9977197212872461,-0.8858592178156667, ,0.0021652088520516537,-0.005928637446893598,0.004392943055708771,0.0011458345834266742,-0.001695856173345283,0.017488084872443722, ,0.8890020847320557
0.010703701813769421,0.02085940692525484,-0.08202245564161739, ,0.010856938691343852,0.020928571321542404,-0.08217721850200792, ,0.00022850995015281448, ,0.0008572598364460606,0.0011308713696025878,-0.00349494535815307,-0.012467195275272945,0.005768729515761174,0.013341254797371886, ,0.003772056141979603, ,0.013737146637361235, ,2.3688004386343073e-05, ,0.20065976827097542,-0.1898711104456838,0.09562990588,2.2684258086155844,0.9977197212872461,-0.8856958603353856, ,0.0009516919814390475,-0.0043301342346206625,0.0037479556517647063,0.011975423138799027,-0.001613541140981952,0.03092698783584586, ,0.9023170471191406
0.010711499646591936,0.02086910329505026,-0.08205119878246858, ,0.010871955929473818,0.020944971674276835,-0.08222336661905806, ,0.00024727311547889717, ,0.0008255840666813683,0.0010513163487891088,-0.002598283199371951,-0.006637211669594431,0.0021968704276927806,0.008066184388441129, ,0.0029219737679397383, ,0.006991338806312389, ,2.3863558448357068e-05, ,0.20068293646959812,-0.18991744684292913,0.09566101684000002,2.2684258086155844,0.9977197212872461,-0.8856141815952451, ,0.0028105972067024474,-0.005474159683110855,0.0028592373936456657,0.010828503745181323,-0.0015583311538489883,0.022546844511386412, ,0.9153931140899658
0.010727795101651887,0.020889290463019253,-0.08210570535073247, ,0.010887043473102917,0.020961202355045238,-0.08226951792992217, ,0.00023951184756780314, ,0.0011045512447552602,0.001149799576989444,-0.0033362051990306137,-0.00475944717431487,-0.0006957151568809557,0.006674402276333229, ,0.003697612425549005, ,0.004810026670540325, ,2.4017416067102938e-05, ,0.20074471833259191,-0.1900255651031683,0.09572064618000001,2.2684258086155844,0.9977197212872461,-0.8853691453748234, ,0.004481896298639263,-0.005057235494958185,0.0036317399726402194,0.008433998329418291,-0.0014563738944365833,0.017939543134051297, ,0.9298341274261475
0.010737797085712382,0.020902064728147533,-0.08214009098678321, ,0.010902201087359047,0.020977264038431167,-0.08231567239359594, ,0.0002520167503220936, ,0.0008264741244287312,0.001137477406846851,-0.003470252587397559,-0.00011653121060755799,-0.0010249229211665419,0.0066809553634089875, ,0.0037442712708585534, ,0.001031526060796882, ,2.4192928280183215e-05, ,0.20076788653121458,-0.19007962423328786,0.09575823859,2.2686354985590693,0.9977197212872461,-0.8852874666346827, ,0.0014300307490888078,-0.005280106468400841,0.0037330235575345682,0.0,-0.001408882666048188,0.007605327265640411, ,0.943871021270752
0.010748813918637143,0.020914221125392995,-0.08217686318989154, ,0.010917428537812354,0.020993157397868088,-0.08236182996899263, ,0.0002624395821572989, ,0.0009897866869744694,0.0012646714950978414,-0.003728434715944823,0.0031509950832314094,0.0038068739350835675,-0.010783585274996597, ,0.004059593219435595, ,0.004941766733838139, ,2.438486453625748e-05, ,0.20079105472983724,-0.1901259606305332,0.09579712729,2.2688451885025533,0.9975830847874807,-0.8850943699908458, ,0.00156986985055728,-0.0047083586277223335,0.004034653373860182,0.01963610089197779,0.0,0.009077226278816991, ,0.957503080368042
0.010763038889932498,0.020933084995103175,-0.08223197534613134, ,0.010932725590475992,0.02100888310564114,-0.08240799061494308, ,0.00025596934339356243, ,0.0009011274453670668,0.0011447063547369626,-0.003381649392566532,0.0020139013834189192,0.002303114739813902,-0.004882163612794965, ,0.00368211025440773, ,0.0030594339091832173, ,2.4608204976534497e-05, ,0.20081422292845993,-0.19020318795927546,0.09585675663000001,2.269054878446038,0.9975830847874807,-0.8850126912507053, ,0.0017435361468110134,-0.004565864507238955,0.00365927211578222,0.013070058697588793,0.0,0.008584965133613872, ,0.969228982925415
0.010776717413273032,0.02094864151260496,-0.08227994274439976, ,0.010948092011804487,0.021024441832886702,-0.08245415429019551, ,0.00025586051720649834, ,0.0009205661309880153,0.0010764673136295785,-0.0031413776574780524,0.0027492695411301927,0.0005113169730667931,-0.004409525227147246, ,0.0034459363699490186, ,0.0027964133726646034, ,2.482593392491939e-05, ,0.20086055932570526,-0.19027269255514348,0.09590860823000001,2.269054878446038,0.9975830847874807,-0.8849310125105647, ,0.002688246708712069,-0.0044602680734995934,0.0034130729633597605,0.010738228507027818,0.0,0.006369714204421173, ,0.9803900718688965
0.010787542792252719,0.020960718601027488,-0.08231708241587891, ,0.010963527568693763,0.021039834249593152,-0.0825003209534162, ,0.0002660945114536776, ,0.001192578562351864,0.0012605923366613403,-0.0037793506901196987,0.004589600777707445,-0.0019133995802346807,-0.0049246950745803954, ,0.004158705123657938, ,0.00497247749932757, ,2.5058814457532036e-05, ,0.2008991729900764,-0.19032675168526303,0.09594879322000001,2.269054878446038,0.9975830847874807,-0.8848493337704241, ,0.004441389590439375,-0.005177971794426562,0.004108540500386898,0.009480339780771731,0.0,0.004004293989871829, ,0.9922730922698975
0.010787542792252719,0.020960718601027488,-0.08231708241587891, ,0.010979032028481352,0.02105506102460292,-0.08254649056318872, ,0.00031336355647973527, ,0.001192578562351864,0.0012605923366613403,-0.0037793506901196987,0.004589600777707445,-0.0019133995802346807,-0.0049246950745803954, ,0.004158705123657938, ,0.00497247749932757, ,2.5379071176067487e-05, ,0.2008991729900764,-0.19032675168526303,0.09594879322000001,2.269054878446038,0.9975830847874807,-0.8848493337704241, ,0.004441389590439375,-0.005177971794426562,0.004108540500386898,0.009480339780771731,0.0,0.004004293989871829, ,1.0047600269317627
0.010819538475138744,0.02099535039374602,-0.08241822517292716, ,0.010994605158945184,0.02107012282561189,-0.082592663078016, ,0.0002582011678476731, ,0.0011839130710799611,0.0012504208786415663,-0.0039709647762761644,0.003720926574616663,0.0013265641685734904,-0.011695974833909514, ,0.004328251816616351, ,0.003950324806855888, ,2.558475416789519e-05, ,0.20098412305169286,-0.19043486994550218,0.09605897787,2.269893638219976,0.9975830847874807,-0.8846042975500024, ,0.0033417173442001355,-0.00401570891652522,0.004290011182332346,0.01834034625803542,0.0,0.006515350483599166, ,1.018186092376709
0.010829418438944544,0.021006405733788324,-0.0824570909765703, ,0.011010246728304002,0.021085020319171397,-0.08263883845631831, ,0.000268162767106799, ,0.0010299204174744946,0.0011986639828508597,-0.0036782161555383016,0.003750209854923639,0.002462856736205706,-0.011596924429165628, ,0.004003349284908536, ,0.004486617499383572, ,2.5804819891694476e-05, ,0.20100729125031555,-0.19047348360987332,0.09610045915000001,2.269893638219976,0.9975830847874807,-0.8845226188098618, ,0.0022246495341661024,-0.004106290637056671,0.003975246199151486,0.01834034625803542,0.0,0.006617476596664292, ,1.0297129154205322
0.010840763603862326,0.0210189916351969,-0.08249671732182041, ,0.01102595650521635,0.021099754170687914,-0.08268501665643505, ,0.00027618044331047584, ,0.0011631499000549588,0.0012322802219323643,-0.003770552787771006,0.006014735899030662,0.00044777119125419,-0.014443632980366071, ,0.004133823963442473, ,0.006031380125036249, ,2.6035088438108725e-05, ,0.20104590491468666,-0.19052754273999287,0.09614323672000001,2.269893638219976,0.9975830847874807,-0.8844409400697213, ,0.003572463757859938,-0.004245940248687741,0.004089553663671374,0.01834034625803542,0.0,0.0029791993642974074, ,1.041396141052246
0.01085055465569498,0.021028675980159936,-0.08253191433266097, ,0.011041734258781044,0.021114325044425196,-0.0827311976366244, ,0.00028913532832264163, ,0.0011796701801236591,0.001155566390601858,-0.0035898209677243838,0.0055664420983644845,-0.00018860575231227682,-0.014585377672244021, ,0.003951426324414416, ,0.005569636358694179, ,2.6284478302450168e-05, ,0.20107679584618357,-0.19055843367148978,0.09618082913,2.269893638219976,0.9975830847874807,-0.8844409400697213, ,0.004199103917854823,-0.003754801524402921,0.003898387547723936,0.01834034625803542,0.0,0.0029235700119101446, ,1.0538699626922607
0.010876234386763991,0.02105314681020519,-0.08261095067762694, ,0.011057579758535552,0.021128733603503425,-0.08277738135506338, ,0.0002574852958442998, ,0.0011162471517849953,0.0011846145792465872,-0.0038018446230088493,0.002229333003366828,-0.0004974638607831405,-0.003078265711212121, ,0.004135618689232965, ,0.0022841618021517515, ,2.646959597597447e-05, ,0.20117719137354848,-0.19064338373310624,0.09626638427,2.2701033281634606,0.9975830847874807,-0.8842775825894402, ,0.0034627448460776466,-0.00425095215782856,0.004102191995879475,0.009389320875415259,0.0,0.0064612345688327, ,1.0663261413574219
0.010887696144167697,0.021066065081886153,-0.08264913226878602, ,0.01107349277445683,0.02114298050990128,-0.08282356776984795, ,0.0002662031459699015, ,0.0011123898470298277,0.0011406221868542235,-0.003699534577928656,-0.00015427849875211975,4.194819748163629e-05,-0.0004918347547000597, ,0.004028025103969551, ,0.00015987749511930818, ,2.666663371930301e-05, ,0.2012080823050454,-0.1906897201303516,0.09630786555000001,2.270313018106945,0.9975830847874807,-0.8841959038492997, ,0.0036447567783490613,-0.003950818403006829,0.003992183338345865,0.009645663090158643,0.0,0.010121854571294848, ,1.0775940418243408
0.010901051135538901,0.02107979419840503,-0.08268820043619943, ,0.011089473076960243,0.021157066424456174,-0.08286975683899396, ,0.00027283062937210164, ,0.0010866522791956675,0.001160419857755144,-0.0038970399281662302,0.001159395233762121,0.0003368445035695708,-0.0021722029208645207, ,0.00420883684928217, ,0.0012073361705971315, ,2.6871408360058514e-05, ,0.2012466959694165,-0.19072061106184848,0.09634675425000001,2.2707323979939145,0.9975830847874807,-0.8841142251091589, ,0.0028898014671357546,-0.0034106983735040087,0.004122363229813665,0.009278127115918092,0.00010818071949522221,0.007610443865241364, ,1.0888099670410156
0.010911585390441087,0.02109087227519812,-0.08272697253730621, ,0.011105520436900187,0.021170992006866188,-0.08291594852043657, ,0.00028238607587440157, ,0.00122887350819007,0.0013018312187803721,-0.004196705719464765,0.0009324848391383743,-0.00035435014509874977,-0.000577602439115814, ,0.004562590658508697, ,0.000997542329307118, ,2.7088926539078353e-05, ,0.2012775869009134,-0.19076694745909384,0.09639212440000001,2.2707323979939145,0.9975830847874807,-0.8838691888887373, ,0.0038364984232219777,-0.004688465900655826,0.004526516487638534,0.009278127115918092,0.0,0.009378132848037818, ,1.1025891304016113
0.01092454848425014,0.02110244515779939,-0.08276798439047109, ,0.011121634625567773,0.021184757915688093,-0.08296214277203055, ,0.00028864478921419894, ,0.0012662901218768645,0.001162802363269348,-0.00400215120694543,-0.0019353759947282312,-0.0006740548972664034,0.0015533941756754772, ,0.004355779412693263, ,0.0020493972818227814, ,2.7312925171369167e-05, ,0.2013779824282783,-0.1908518975207103,0.09647897583000001,2.2707323979939145,0.9975830847874807,-0.8837058314084563, ,0.004902759960799268,-0.004398097038634383,0.003914674740722536,0.009278127115918092,2.6623821101703617e-05,0.01382989364797179, ,1.1142289638519287
0.01094866187010658,0.021124142782265733,-0.08284491886546363, ,0.011137815414692848,0.021198364808341804,-0.08300833955155065, ,0.0002607571537379899, ,0.0012197629961566451,0.001056074837556755,-0.003805891045071073,-0.0022006854413844324,-0.00045802229811710147,0.0010514832518581706, ,0.004133754041578399, ,0.0022478434195871604, ,2.748318809353046e-05, ,0.20142431882552367,-0.1908827884522072,0.09651786453000001,2.2707323979939145,0.9974464482877153,-0.8835127347646193, ,0.004671226665215993,-0.0027119548497887107,0.004090603882896764,0.009278127115918092,0.00037708276728484085,0.011811355884122538, ,1.1252870559692383
0.0109614528079493,0.02113643715506714,-0.08288308130692851, ,0.011154062576442112,0.021211813341108547,-0.08305453881669218, ,0.00026865920791099737, ,0.0012337084788306644,0.001241778860405932,-0.00367339080016157,0.0011530338645804098,-0.00016641019923382462,-0.0028045361821762813, ,0.004069133976609935, ,0.001164980162242083, ,2.771183490092305e-05, ,0.201470655222769,-0.19092140211657832,0.09655934581000002,2.270942087937399,0.9974464482877153,-0.8835127347646193, ,0.0049278121612825465,-0.004861307481739048,0.0040102748036253775,0.013013060717872936,0.00037685828593467106,0.010933491692354044, ,1.1408729553222656
0.010973868748202125,0.0211477502409251,-0.08291616929520734, ,0.011170375883419185,0.02122510416913272,-0.0831007405250704, ,0.00028047321314793295, ,0.0012321276756563763,0.0009951667401188167,-0.0035061477042742707,-0.002204300307308004,-0.0004677762459757743,-0.0013887970012500617, ,0.003847280490677127, ,0.002253387212897434, ,2.795693686749182e-05, ,0.20152471435288857,-0.19096001578094945,0.09659564193,2.2711517778808834,0.9974464482877153,-0.8834310560244787, ,0.005351280315562118,-0.0024604945950113745,0.0037880645707491084,0.012241280917773418,0.00037585235605364623,0.012393507216524815, ,1.1508760452270508
0.010986059148227062,0.021159405532392202,-0.0829545730144616, ,0.011186755108663949,0.021238237946422038,-0.08314694463422091, ,0.00028896411217705997, ,0.0011669835877806856,0.0012271570499168402,-0.004144818476712849,-0.0008001456133646157,2.7143809547859935e-05,0.0034944017527103145, ,0.00447741949388376, ,0.0008006051247016947, ,2.821238109324456e-05, ,0.2015633280172597,-0.19099090671244634,0.09663712321000001,2.271361467824368,0.9974464482877153,-0.8834310560244787, ,0.0034080701561488486,-0.004141305451067108,0.004453120357841768,0.006182777025232761,0.00037442955275070633,0.010771901728001465, ,1.1606979370117188
0.010999810137299407,0.021171735620918907,-0.08299931476840725, ,0.011203200025653205,0.021251215325849723,-0.08319315110160079, ,0.00029198800360011215, ,0.0012725098655360693,0.0010710865438332074,-0.0038986339871892985,0.0008044506953734083,-0.0028143239496187834,-0.00029298303106873116, ,0.0042386147157219565, ,0.0029270393427526095, ,2.8468622346443015e-05, ,0.20161738714737928,-0.19102952037681747,0.09668508594000001,2.271361467824368,0.9974464482877153,-0.8833493772843382, ,0.005255641286706345,-0.0028931314989060694,0.0041906896921862676,0.005773170424540822,0.0003725363309560545,0.005796588312203687, ,1.1705670356750488
0.01101114002255068,0.02118234605364619,-0.08303541117325648, ,0.011219710408298566,0.02126403695915309,-0.08323935988458717, ,0.0003029357798395668, ,0.0012218642516237071,0.0011283745369695534,-0.0037058137419054733,-0.0002747457576683025,-0.0021746680356730364,0.0032880088363202707, ,0.00406192526208603, ,0.0021919547435634, ,2.8738980373559767e-05, ,0.2016637235446246,-0.19106813404118858,0.09672397464000002,2.271361467824368,0.9974464482877153,-0.8832676985441975, ,0.0051537356387353055,-0.004021096596849937,0.004012295093198993,0.005189896794331808,0.0003705047024624134,0.009333464439923785, ,1.1828601360321045
0.011026827744896585,0.02119484097669055,-0.0830811964355467, ,0.011236286030947853,0.02127670349693661,-0.08328557094047873, ,0.0003038802133781993, ,0.001423129870934091,0.0010873840116251954,-0.004466518882127906,-0.0020272166165548507,-0.003881398293974245,0.005209584829964639, ,0.004812223347132603, ,0.004378910612156162, ,2.9006401594779136e-05, ,0.2017255054076184,-0.19109130223981127,0.09677323366000001,2.2715711577678523,0.9974464482877153,-0.8831043410639164, ,0.005896987625891472,-0.002073244955970969,0.004761976538116592,0.0015638191866769343,0.0003680367585003428,0.007845396211216046, ,1.192518949508667
0.011042965820623816,0.02120912248727673,-0.08312915234142647, ,0.011252926668384216,0.021289215588671914,-0.08333178422649573, ,0.00030258576194211136, ,0.001676372532566049,0.0015199341258448225,-0.005119372622722282,0.00327921206603956,-0.000359169461099023,-0.012039012474752902, ,0.0055971779197313345, ,0.003298822662642464, ,2.9267252180819226e-05, ,0.2017872872706122,-0.19112991590418238,0.09682508526000001,2.271780847711337,0.9974464482877153,-0.8829409835836353, ,0.006165670891357245,-0.00418480059524655,0.005530837333333334,0.02066594000172376,0.0003655657489500302,0.00873440815064592, ,1.2016949653625488
0.011060418548580482,0.02122399272113168,-0.08318350035774615, ,0.011269632095824543,0.021301573882697187,-0.08337799969977934, ,0.0002960053023708218, ,0.0017268385837057427,0.001467934409615801,-0.00580986243535185,-0.0002510831900500654,-0.000393364090780712,-0.0061941291817543724, ,0.006236289316799011, ,0.00046665989401229303, ,2.9513014153670993e-05, ,0.201849069133606,-0.1911608068356793,0.09688341831000001,2.2719905376548213,0.9974464482877153,-0.8828593048434947, ,0.005411500894927511,-0.0024303846283024455,0.006190754574426739,0.015278177301119666,0.0003629534306007857,0.010018391576735619, ,1.2117369174957275
0.011076084941888047,0.021237738222113396,-0.08324003859312368, ,0.011286402088921255,0.021313779026220666,-0.0834242173173928, ,0.00028971936196752596, ,0.0017300734818767546,0.0013702127414994968,-0.0055738666779071005,-0.004189870196954932,-0.0006833139841203394,-0.0009474065560884403, ,0.005994883397760449, ,0.0042452237736329106, ,2.974453580057518e-05, ,0.20190312826372558,-0.19118397503430196,0.09694434394000001,2.2719905376548213,0.9975830847874807,-0.8828890440070507, ,0.006079033296331858,-0.001946049192335471,0.005936940559075662,0.013776176341666932,8.704096408781291e-06,0.015073929907591275, ,1.2215170860290527
0.01108967635839508,0.02124854787617023,-0.0832838423803074, ,0.011303236423760094,0.021325831665319032,-0.08347043703632123, ,0.00029393579441236526, ,0.00158969727571585,0.001334454044145852,-0.004766964704867295,-0.00038080824677594154,-0.0022046916234803823,-0.002665561911331727, ,0.005199217010455147, ,0.002237337170366002, ,2.9979128878781137e-05, ,0.20195718739384516,-0.19120714323292465,0.09699101038,2.2719905376548213,0.9975830847874807,-0.8827256865267694, ,0.006457939783376549,-0.00345376365715717,0.005131704742268042,0.012151428061498541,8.704096408781291e-06,0.010538829782008693, ,1.2321720123291016
0.011106479899756648,0.021260591574397317,-0.08333362109354606, ,0.011320134876860843,0.021337732444939653,-0.08351665881347185, ,0.0002917224195447753, ,0.0015913596723094237,0.001046330181790399,-0.0040869690545911695,-0.004712108682681217,-0.0035052234275859103,0.001769339656662143, ,0.004508940952060042, ,0.005872866282696153, ,3.020641537742035e-05, ,0.2020344147225874,-0.1912303114315473,0.09704415827000001,2.2719905376548213,0.9975830847874807,-0.8825623290464883, ,0.008192357807453794,-0.0017735783983688059,0.00440509168141593,0.010511772802154207,1.1845588577936868e-05,0.014581691503129993, ,1.2418839931488037
0.011122691855392448,0.02127300970605902,-0.08337532004266794, ,0.011337097225176418,0.02134948200890057,-0.08356288260567407, ,0.0002949532009243489, ,0.0014823541062250365,0.0011169630040169071,-0.00432116153066569,-0.004695560443263628,-0.004184327745443819,0.009463042958094952, ,0.004702915800085065, ,0.006289426448494117, ,3.0435224795603572e-05, ,0.20211164205132964,-0.1912612023630442,0.09708952842000002,2.2722002275983058,0.9975830847874807,-0.8825623290464883, ,0.006882355623724983,-0.002710452982419003,0.0046345101891184185,0.0014782670584390335,1.5183207910670241e-05,0.013083380658403794, ,1.2518980503082275
0.01114042165960254,0.021286476960727933,-0.08341923489988112, ,0.011354123246092878,0.021361080999891913,-0.08360910836967986, ,0.00029544215214061595, ,0.0016166652979748993,0.0011324345450256183,-0.004246613128916029,0.0014991457390948857,-0.003375898281412618,-0.01058045036362667, ,0.004682919789097998, ,0.0036937955780508504, ,3.066119644885688e-05, ,0.20218886938007188,-0.1912843705616669,0.09713749115,2.272619607485275,0.9975830847874807,-0.8823989715662072, ,0.0077279138352781785,-0.001970776954750001,0.004583830653237411,0.016651675049316746,1.830155912113612e-05,0.00637120109802148, ,1.2631289958953857
0.01115629146279637,0.02129849739119987,-0.08346242236411867, ,0.01137121271742878,0.021372530059476365,-0.08365533606216362, ,0.00029814036385280483, ,0.001640429683384239,0.0012069360020359216,-0.004467203132800992,0.00022582057400655532,-0.002860988352207496,-0.00760529911844215, ,0.004909542533561102, ,0.002869886322504976, ,3.0887854323048615e-05, ,0.2022583739759399,-0.19130753876028955,0.09718415759000001,2.272829297428759,0.9975830847874807,-0.8823172928260666, ,0.007521715810971881,-0.002385678236292591,0.004818152304900182,0.01576405066524664,2.109695166644585e-05,0.008949425882034701, ,1.2735280990600586
0.011172389429400994,0.02130916201075147,-0.08350861187398605, ,0.011388365417435079,0.021383829828090093,-0.08370156563972303, ,0.00029908538256741366, ,0.0016847174979920262,0.001142097345620554,-0.004560642534782436,-0.0007623173928144899,-0.003125876687738436,-0.007722039730645141, ,0.004994208618488098, ,0.0032174882907821277, ,3.116084649299453e-05, ,0.20233560130468214,-0.191322984226038,0.09723341661000001,2.272829297428759,0.9975830847874807,-0.8821539353457855, ,0.007805969937820181,-0.0014309575505785563,0.00489815852398524,0.01576405066524664,2.3673241483263194e-05,0.009043514621893728, ,1.2813339233398438
0.011189907373412068,0.021320567691477527,-0.08355845262773585, ,0.01140558112479451,0.02139498094504334,-0.08374779705887851, ,0.00029648577191218107, ,0.0017573512536088317,0.0011768361681067452,-0.004729744150390672,-0.0031478964623492165,-0.0028042976616859307,-0.004493936372929402, ,0.005181091248306623, ,0.0042158433493267354, ,3.142644523478773e-05, ,0.20242055136629863,-0.19133842969178647,0.0972865645,2.272829297428759,0.9975830847874807,-0.8819905778655044, ,0.008238180031839617,-0.001432503931425073,0.005079340408163266,0.01576405066524664,2.606529268682996e-05,0.013128597819916795, ,1.2888000011444092
0.011189907373412068,0.021320567691477527,-0.08355845262773585, ,0.011422859618621316,0.02140598404852141,-0.08379403027607371, ,0.0003421396366910336, ,0.0018000340139149172,0.0012465942514381686,-0.004599165082299039,-0.001902185426466556,-0.0036665978205421296,-0.004558402675176118, ,0.005093764730845748, ,0.004130647275731101, ,3.1758908914898156e-05, ,0.20249777869504088,-0.19136159789040913,0.09733323094000002,2.272829297428759,0.9975830847874807,-0.8819088991253639, ,0.008831914340887837,-0.0024923411648648686,0.005143303687439458,0.01576405066524664,2.8045417967916188e-05,0.01277670553904296, ,1.2981359958648682
0.011206888743121809,0.021332131769045075,-0.08360563606341873, ,0.011440200678461448,0.02141683977558614,-0.08384026524767632, ,0.000341556378434767, ,0.0018000340139149172,0.0012465942514381686,-0.004599165082299039,-0.001902185426466556,-0.0036665978205421296,-0.004558402675176118, ,0.005093764730845748, ,0.004130647275731101, ,3.2086421499287734e-05, ,0.20255956055803467,-0.19136932062328335,0.09736693448000001,2.272829297428759,0.9975830847874807,-0.8818272203852233, ,0.009594909419694554,-0.0011191221375297835,0.00517337171809029,0.015277995373061435,2.9380083808110164e-05,0.014988434649209306, ,1.3068909645080566
0.011217263868818675,0.021338452604438157,-0.08363354064523239, ,0.011457604084291032,0.0214275487621751,-0.0838865019299769, ,0.00036012630572672844, ,0.0018897539743503357,0.0011658265741668107,-0.0048120594748419345,-0.004636219803179937,-0.003908615218007639,-0.0026198344717954097, ,0.005299645089439711, ,0.0060639759568808845, ,3.2438137158968424e-05, ,0.20255956055803467,-0.19136932062328335,0.09736693448000001,2.272829297428759,0.9975830847874807,-0.8818272203852233, ,0.009594909419694554,-0.0011191221375297835,0.00517337171809029,0.015277995373061435,2.9380083808110164e-05,0.014988434649209306, ,1.3144419193267822
0.011245194369368466,0.02135735490556038,-0.08370425733186207, ,0.011475069616516783,0.021438111643103476,-0.08393274027918993, ,0.00033401906701523593, ,0.001991344841951236,0.0013074855588698932,-0.0054520987086490785,-0.004702006594516727,-0.005044768055889323,0.0020977340320046086, ,0.005949819585085926, ,0.0068962704366298845, ,3.274623145516656e-05, ,0.20268312428402227,-0.19139248882190601,0.0974421193,2.2732486773157285,0.9975830847874807,-0.8817455416450828, ,0.009432141007367015,-0.0016662760026141456,0.005819806912678116,0.00982524401864967,3.19181384279101e-05,0.014181635678734743, ,1.3224740028381348
0.011266802322233125,0.0213716948413145,-0.08376220191805375, ,0.011492597055976151,0.021448529052065415,-0.08397898025145481, ,0.00032230358912047513, ,0.0021256889772093106,0.0015118610421084502,-0.00598169422129741,-0.003549210727200463,-0.005392054503940766,0.0023811802302334184, ,0.006525713998910559, ,0.006455318807111123, ,3.3033066032827434e-05, ,0.2027912425442614,-0.19140793428765449,0.09750563751,2.273458367259213,0.9975830847874807,-0.8815821841648016, ,0.009841606166805947,-0.00279386643505821,0.0064177322804190185,0.009654361856261706,3.3660349760408366e-05,0.014044250906060084, ,1.3299880027770996
0.011284504197071731,0.021384380853977376,-0.08381335114126798, ,0.011510186183935508,0.021458801621633338,-0.0840252218028339, ,0.000318370832655354, ,0.002202127421266541,0.0013945620754521504,-0.006481417835427692,-0.005202624575231846,-0.005319659037345993,0.0008342220434827703, ,0.006985910514684799, ,0.007440837540655155, ,3.3310619786216474e-05, ,0.20286846987300364,-0.1914156570205287,0.09756137798000002,2.2736680572026975,0.9977197212872461,-0.8816936020684979, ,0.009519424897246697,-0.00035485889381714004,0.006880696120950325,0.009699166932461006,1.822590952640879e-06,0.01277195053718708, ,1.3408989906311035
0.011313401201417248,0.02140294890084046,-0.0838987988054102, ,0.011527836782091651,0.0214689299832606,-0.0840714648893151, ,0.0002831072200201898, ,0.00243246472778125,0.0015294027725165967,-0.006909999340069143,-0.0014700629666361477,-0.007962156136586017,-0.003412446602251132, ,0.00748358526190738, ,0.008096727716508618, ,3.353264162455029e-05, ,0.20299975633186546,-0.19143110248627715,0.09765211828,2.2736680572026975,0.9977197212872461,-0.8815302445882168, ,0.011147044149264032,-0.0008758364260268221,0.0073574187159353354,0.009699166932461006,1.822590952640879e-06,0.0072632532033075365, ,1.3485560417175293
0.011313401201417248,0.02140294890084046,-0.0838987988054102, ,0.011545548632569074,0.0214789147672795,-0.08411770946681008, ,0.00032800170781378514, ,0.00243246472778125,0.0015294027725165967,-0.006909999340069143,-0.0014700629666361477,-0.007962156136586017,-0.003412446602251132, ,0.00748358526190738, ,0.008096727716508618, ,3.381816613311521e-05, ,0.20299975633186546,-0.19143110248627715,0.09765211828,2.2736680572026975,0.9977197212872461,-0.8815302445882168, ,0.011147044149264032,-0.0008758364260268221,0.0073574187159353354,0.009699166932461006,1.822590952640879e-06,0.0072632532033075365, ,1.3559200763702393
0.011335362506022937,0.02141732644527769,-0.08396340050579545, ,0.011563321517922321,0.021488756602905706,-0.0841639554911556, ,0.00031191325825895115, ,0.002197005392581325,0.0015098573885907057,-0.006274990056681261,-0.0003923820617969582,-0.006692021992535883,-0.003000348113111165, ,0.00681777106101122, ,0.00670351492144763, ,3.407679072129455e-05, ,0.2031001518592304,-0.1914465479520256,0.09772082165000001,2.2736680572026975,0.9977197212872461,-0.8814485658480763, ,0.009864379939856656,-0.0021006654745468725,0.006755221170483461,0.009699166932461006,1.822590952640879e-06,0.006921020826608285, ,1.3636119365692139
0.011358473701381388,0.021431760304412094,-0.08402514261743871, ,0.011581155221133487,0.02149845611823606,-0.08421020291811393, ,0.0002971240577717482, ,0.002119549255647484,0.0013050357158474503,-0.005408238180262182,-0.0006518910487435557,-0.006298050962646104,-0.007644499507410473, ,0.005953540751619902, ,0.006331698290406561, ,3.431087644893148e-05, ,0.20320827011946951,-0.1914542706848998,0.09778693244000002,2.273877747146182,0.9977197212872461,-0.8812852083677951, ,0.010750758078449165,-0.0013219903748964135,0.005813434861313869,0.015187218918283417,1.822590952640879e-06,0.008472245590452697, ,1.3709731101989746
0.011369316910427606,0.021437187078373172,-0.08405186155929363, ,0.011599049525612857,0.02150801394025093,-0.08425645170337165, ,0.0003156749053966275, ,0.0020301954973846407,0.0012094288810468798,-0.005038381335322772,-0.0008955430690550417,-0.006138469397419126,-0.007694858807470593, ,0.0055650425385651865, ,0.006203450707854974, ,3.4569098445459555e-05, ,0.2032700519824633,-0.1914542706848998,0.09781545082000001,2.273877747146182,0.9977197212872461,-0.8812852083677951, ,0.010591176513222186,-0.0010727341093118544,0.005421651300204222,0.015187218918283417,1.822590952640879e-06,0.008472245590452697, ,1.3793280124664307
0.011369316910427606,0.021437187078373172,-0.08405186155929363, ,0.011617004215198658,0.021517430694814692,-0.08430270180254132, ,0.00036153681217397643, ,0.0020301954973846407,0.0012094288810468798,-0.005038381335322772,-0.0008955430690550417,-0.006138469397419126,-0.007694858807470593, ,0.0055650425385651865, ,0.006203450707854974, ,3.4890336457534576e-05, ,0.2032700519824633,-0.1914542706848998,0.09781545082000001,2.273877747146182,0.9977197212872461,-0.8812852083677951, ,0.010591176513222186,-0.0010727341093118544,0.005421651300204222,0.015187218918283417,1.822590952640879e-06,0.008472245590452697, ,1.3872699737548828
0.011401185096341731,0.021455289177640627,-0.08412491948899986, ,0.011635019074155872,0.02152670700667612,-0.08434895317116115, ,0.00033161713801803237, ,0.0021385052378770746,0.0011111175675104588,-0.00508505906418255,-0.004095162528149744,-0.007354693116374597,-0.003278416538178691, ,0.005627220680538765, ,0.00841794889316876, ,3.516509438627262e-05, ,0.20343995210569626,-0.19146199341777403,0.09789452451000001,2.274297127033151,0.9977197212872461,-0.8810401721473734, ,0.011857051074823764,0.0,0.00545694125385406,0.01269502541818966,1.822590952640879e-06,0.011304440769501593, ,1.3947010040283203
0.011423442390116943,0.021468244557062262,-0.08417908300133528, ,0.011653093887176547,0.021535843499469548,-0.08439520576469468, ,0.00032251895441726434, ,0.0023661650518509957,0.0013331802978702404,-0.005998936404947359,-0.006338976303756031,-0.007156581167971708,0.0010271019532158024, ,0.006585085022217493, ,0.009560296377426666, ,3.547424491513081e-05, ,0.20355579309880964,-0.19146971615064826,0.09795285756000001,2.274506816976636,0.9977197212872461,-0.8808768146670923, ,0.012335569038115947,-0.0005007355357326555,0.006422907870967743,0.01195559075775845,1.822590952640879e-06,0.0157284138835744, ,1.4002649784088135
0.011423442390116943,0.021468244557062262,-0.08417908300133528, ,0.01167122843937984,0.021544840795716277,-0.08444145953853177, ,0.000368925950912211, ,0.0023661650518509957,0.0013331802978702404,-0.005998936404947359,-0.006338976303756031,-0.007156581167971708,0.0010271019532158024, ,0.006585085022217493, ,0.009560296377426666, ,3.584658990260148e-05, ,0.20355579309880964,-0.19146971615064826,0.09795285756000001,2.274506816976636,0.9977197212872461,-0.8808768146670923, ,0.012335569038115947,-0.0005007355357326555,0.006422907870967743,0.01195559075775845,1.822590952640879e-06,0.0157284138835744, ,1.4058220386505127
0.011449167268299996,0.02148230595544042,-0.08424862113607906, ,0.011689422516310105,0.021553699516823604,-0.08448771444798828, ,0.00034638885173037985, ,0.002558832933211206,0.0014845688842806315,-0.006802079772829338,-0.005869394052244968,-0.007622493361655288,0.00024914603428856266, ,0.007417537326376896, ,0.009620404202912892, ,3.618394736308534e-05, ,0.20368707955767143,-0.19146971615064826,0.09802674609,2.274506816976636,0.9977197212872461,-0.8807134571868113, ,0.012624310437471168,-0.0004066188589690108,0.007260169334548771,0.01195559075775845,1.822590952640879e-06,0.01476830924143321, ,1.4113991260528564
0.011449167268299996,0.02148230595544042,-0.08424862113607906, ,0.011707675903938699,0.021562420283088177,-0.0845339704483067, ,0.0003932801166891363, ,0.002558832933211206,0.0014845688842806315,-0.006802079772829338,-0.005869394052244968,-0.007622493361655288,0.00024914603428856266, ,0.007417537326376896, ,0.009620404202912892, ,3.658440907138335e-05, ,0.20368707955767143,-0.19146971615064826,0.09802674609,2.274506816976636,0.9977197212872461,-0.8807134571868113, ,0.012624310437471168,-0.0004066188589690108,0.007260169334548771,0.01195559075775845,1.822590952640879e-06,0.01476830924143321, ,1.4185631275177002
0.011455631780533477,0.021486006323434677,-0.08426696167049055, ,0.011725988388661526,0.021571003713694182,-0.0845802274946556, ,0.00042243665619739643, ,0.00263881007581854,0.0015306508994917495,-0.00703850176903835,-0.005886473898843749,-0.007976429855047191,0.0002454378288533046, ,0.00767116144694611, ,0.009913323908756867, ,3.702234104474924e-05, ,0.20371797048916834,-0.19146971615064826,0.09804619044000001,2.274506816976636,0.9977197212872461,-0.8807134571868113, ,0.012978246930863071,-0.0003891862059064366,0.007510047864214994,0.01195559075775845,1.822590952640879e-06,0.01476830924143321, ,1.4243409633636475
0.011501700291026984,0.021514274732969966,-0.08440166950648186, ,0.011744359757299904,0.021579450426715805,-0.08462648554213069, ,0.0003371553610903552, ,0.0028630894701132305,0.001757916865320327,-0.008342415031765525,-0.0041812921752957324,-0.006724977477044192,-0.001008410279469395, ,0.008993522201088865, ,0.007918868979514822, ,3.7337666481229165e-05, ,0.20393420700964662,-0.1914774388835225,0.09819007863000001,2.274506816976636,0.9978563577870115,-0.880743196350367, ,0.012481512765812282,0.0,0.00886411325542571,0.01195559075775845,0.0015068291631092931,0.012759511416503326, ,1.430103063583374
0.011501700291026984,0.021514274732969966,-0.08440166950648186, ,0.011762789797100345,0.021587761039117952,-0.08467274454575444, ,0.00038347052597238616, ,0.0028630894701132305,0.001757916865320327,-0.008342415031765525,-0.0041812921752957324,-0.006724977477044192,-0.001008410279469395, ,0.008993522201088865, ,0.007918868979514822, ,3.771469082363014e-05, ,0.20393420700964662,-0.1914774388835225,0.09819007863000001,2.274506816976636,0.9978563577870115,-0.880743196350367, ,0.012481512765812282,0.0,0.00886411325542571,0.01195559075775845,0.0015068291631092931,0.012759511416503326, ,1.4358429908752441
0.01153303004005395,0.021534190494606247,-0.0844877621665725, ,0.01178127829573335,0.021595936166756376,-0.08471900446047656, ,0.00034483724127064384, ,0.002929069405543279,0.001776984215486516,-0.008297625317634753,-0.0017729755593164761,-0.006977338350325274,-0.007245363209441702, ,0.008977065578262817, ,0.007199073096917682, ,3.8035151638014304e-05, ,0.20406549346850844,-0.1914774388835225,0.09828211522000001,2.2749261968636048,0.9978563577870115,-0.8806615176102265, ,0.013069403878043076,0.0,0.008834615374376041,0.01627305919827245,0.0015068291631092931,0.010116573515628472, ,1.4413950443267822
0.01153303004005395,0.021534190494606247,-0.0844877621665725, ,0.011799825041293267,0.02160397642437837,-0.08476526524117418, ,0.00039122577253273503, ,0.002929069405543279,0.001776984215486516,-0.008297625317634753,-0.0017729755593164761,-0.006977338350325274,-0.007245363209441702, ,0.008977065578262817, ,0.007199073096917682, ,3.841686006448633e-05, ,0.20406549346850844,-0.1914774388835225,0.09828211522000001,2.2749261968636048,0.9978563577870115,-0.8806615176102265, ,0.013069403878043076,0.0,0.008834615374376041,0.01627305919827245,0.0015068291631092931,0.010116573515628472, ,1.4469630718231201
0.011563488335469673,0.021552625195329637,-0.08456628176044247, ,0.011818429822299026,0.02161188242562521,-0.08481152684265161, ,0.00035868054226126513, ,0.0030817979314304977,0.0017721409184692071,-0.008112944604613717,6.891514859317879e-05,-0.008342372488782904,-0.012803011559609657, ,0.008857642580428102, ,0.008342655026546414, ,3.875078319489484e-05, ,0.20420450266024448,-0.1914774388835225,0.09836637407000001,2.2753455767505737,0.9978563577870115,-0.8804981601299453, ,0.014979785565662315,0.0,0.008675823267973858,0.020715248512785497,0.0015068291631092931,0.008485553569245949, ,1.4531760215759277
0.011563488335469673,0.021552625195329637,-0.08456628176044247, ,0.011837092427691917,0.021619654783030434,-0.08485778921964106, ,0.00040537484341842913, ,0.0032805802079015844,0.0019124919844630511,-0.007783231001512192,0.007072994367567837,-0.003220931201784883,-0.045347400402402704, ,0.00866016841141161, ,0.007771847821950403, ,3.914575927936717e-05, ,0.20435895731772896,-0.19146971615064826,0.09844933663000001,2.275555266694058,0.9978563577870115,-0.8803348026496642, ,0.016081501704536653,1.4787195953459492e-05,0.00841903357293869,0.05403880937812807,0.0015068291631092931,0.007842266184446122, ,1.4596409797668457
0.011594082499299361,0.021568955056935235,-0.08464397082521616, ,0.011855812646836945,0.0216272941080229,-0.08490405232680293, ,0.0003735619125118122, ,0.0032805802079015844,0.0019124919844630511,-0.007783231001512192,0.007072994367567837,-0.003220931201784883,-0.045347400402402704, ,0.00866016841141161, ,0.007771847821950403, ,3.94942281700797e-05, ,0.20435895731772896,-0.19146971615064826,0.09844933663000001,2.275555266694058,0.9978563577870115,-0.8803348026496642, ,0.016081501704536653,1.4787195953459492e-05,0.00841903357293869,0.05403880937812807,0.0015068291631092931,0.007842266184446122, ,1.4655890464782715
0.011627268340234944,0.02158717578396254,-0.08472754028169585, ,0.011874590269521448,0.021634801010926363,-0.08495031611872533, ,0.0003362519479698818, ,0.0030372008170632685,0.0015661526280260937,-0.00819526472170141,-0.007715257818203623,-0.016503343154076006,0.023004259273705484, ,0.008879177141841834, ,0.01821772492644122, ,3.978930847287054e-05, ,0.20452885744096191,-0.19146971615064826,0.09853878064,2.275764956637543,0.9978563577870115,-0.8801714451693832, ,0.016333380646896864,1.4787195953459492e-05,0.008699514756963409,-0.015861126988129238,0.0015068291631092931,0.009309361854285634, ,1.471247911453247
0.011627268340234944,0.02158717578396254,-0.08472754028169585, ,0.011893425085955098,0.021642176100960583,-0.08499658054992479, ,0.00038242269034528576, ,0.0030372008170632685,0.0015661526280260937,-0.00819526472170141,-0.007715257818203623,-0.016503343154076006,0.023004259273705484, ,0.008879177141841834, ,0.01821772492644122, ,4.014430815563258e-05, ,0.20452885744096191,-0.19146971615064826,0.09853878064,2.275764956637543,0.9978563577870115,-0.8801714451693832, ,0.016333380646896864,1.4787195953459492e-05,0.008699514756963409,-0.015861126988129238,0.0015068291631092931,0.009309361854285634, ,1.4768929481506348
0.011657452443136887,0.02160281533741213,-0.08481249648671202, ,0.011912316886769242,0.0216494199862418,-0.08504284557484634, ,0.000346682246913339, ,0.0031547747171448526,0.0017356159596556273,-0.008347353268256828,-0.00569696574764981,-0.009010563792270767,0.0014577144012980821, ,0.009090834552472378, ,0.010660470817816708, ,4.050284601646983e-05, ,0.20469103483132062,-0.19146199341777403,0.09862952094,2.275555266694058,0.997992994286777,-0.8801195055927984, ,0.01571922172576955,0.00035287266370439223,0.008908731275167786,0.011670344001822125,0.002198667453215388,0.015387927541127337, ,1.481307029724121
0.011657452443136887,0.02160281533741213,-0.08481249648671202, ,0.011931265463017305,0.021656533273784632,-0.08508911114786397, ,0.00039290565955246926, ,0.0031547747171448526,0.0017356159596556273,-0.008347353268256828,-0.00569696574764981,-0.009010563792270767,0.0014577144012980821, ,0.009090834552472378, ,0.010660470817816708, ,4.0921503690992686e-05, ,0.20469103483132062,-0.19146199341777403,0.09862952094,2.275555266694058,0.997992994286777,-0.8801195055927984, ,0.01571922172576955,0.00035287266370439223,0.008908731275167786,0.011670344001822125,0.002198667453215388,0.015387927541127337, ,1.485084056854248
0.011686870873982442,0.021618895384002145,-0.08489104096819196, ,0.011950270606173562,0.021663516569501554,-0.08513537722327988, ,0.00036203684158399627, ,0.0030979969185101217,0.0016385590233152746,-0.0078058641579310875,-0.004288198028047441,-0.007812914643644473,0.0048739197700176954, ,0.008556516571132164, ,0.008912364926111709, ,4.129659583851881e-05, ,0.20485321222167935,-0.1914542706848998,0.09871507608,2.275555266694058,0.998266267286308,-0.8801789839199102, ,0.016599080209632813,0.00022109617410135025,0.008357193871983212,0.009472619304498697,0.0054544613559443025,0.015949172951050795, ,1.4902379512786865
0.011686870873982442,0.021618895384002145,-0.08489104096819196, ,0.011969332108133238,0.021670370478204422,-0.08518164375532607, ,0.00040851439878079686, ,0.0030979969185101217,0.0016385590233152746,-0.0078058641579310875,-0.004288198028047441,-0.007812914643644473,0.0048739197700176954, ,0.008556516571132164, ,0.008912364926111709, ,4.17317376370552e-05, ,0.20485321222167935,-0.1914542706848998,0.09871507608,2.275555266694058,0.998266267286308,-0.8801789839199102, ,0.016599080209632813,0.00022109617410135025,0.008357193871983212,0.009472619304498697,0.0054544613559443025,0.015949172951050795, ,1.4957280158996582
0.011716264816055425,0.021636816896299475,-0.0849667475915573, ,0.011988449761212066,0.021677095603605177,-0.08522791069816352, ,0.00037935891565159355, ,0.0031241295978897896,0.0018791976362312133,-0.00851511802458284,0.0467148775870734,0.01874133181233734,-0.004029381242676311, ,0.00926276440772427, ,0.05033405667447099, ,4.212573955500125e-05, ,0.20501538961203805,-0.1914542706848998,0.09879933493000001,2.275764956637543,0.9986761767856043,-0.8803498801507184, ,0.017861272644169163,0.00022109617410135025,0.00948143542857143,0.0003729393962684871,0.05466762667824604,-0.023552464923746696, ,1.5001249313354492
0.011716264816055425,0.021636816896299475,-0.0849667475915573, ,0.012007623358146072,0.021683692548316865,-0.08527417800588238, ,0.00042614620314316594, ,0.0031241295978897896,0.0018791976362312133,-0.00851511802458284,0.0467148775870734,0.01874133181233734,-0.004029381242676311, ,0.00926276440772427, ,0.05033405667447099, ,4.257978301321262e-05, ,0.20501538961203805,-0.1914542706848998,0.09879933493000001,2.275764956637543,0.9986761767856043,-0.8803498801507184, ,0.017861272644169163,0.00022109617410135025,0.00948143542857143,0.0003729393962684871,0.05466762667824604,-0.023552464923746696, ,1.5039420127868652
0.011716264816055425,0.021636816896299475,-0.0849667475915573, ,0.012026852692090403,0.021690161913853215,-0.08532044563250298, ,0.00047372230663811636, ,0.0031241295978897896,0.0018791976362312133,-0.00851511802458284,0.0467148775870734,0.01874133181233734,-0.004029381242676311, ,0.00926276440772427, ,0.05033405667447099, ,4.309443564978439e-05, ,0.20501538961203805,-0.1914542706848998,0.09879933493000001,2.275764956637543,0.9986761767856043,-0.8803498801507184, ,0.017861272644169163,0.00022109617410135025,0.00948143542857143,0.0003729393962684871,0.05466762667824604,-0.023552464923746696, ,1.5076909065246582
0.011753262373295955,0.021659928559921385,-0.08505890087506915, ,0.012046137556620774,0.0216965043006318,-0.08536671353197507, ,0.0004264531504955087, ,0.003572114474930445,0.0022144220808243955,-0.009526717996255624,0.03473492658201199,0.01906428500798575,-0.023021709554498705, ,0.010412589627668566, ,0.03962274610689097, ,4.354392611107362e-05, ,0.20520073520101945,-0.1914465479520256,0.09890174184000002,2.2763940264679965,0.9990860862849005,-0.8802757401611048, ,0.01817949072001356,0.0004858855942453394,0.010514067009900992,0.032076265877088644,0.04286858223848186,-0.004858660285211626, ,1.5115749835968018
0.011753262373295955,0.021659928559921385,-0.08505890087506915, ,0.012065477745730548,0.021702720307971986,-0.08541298165817875, ,0.00047400714493898044, ,0.003572114474930445,0.0022144220808243955,-0.009526717996255624,0.03473492658201199,0.01906428500798575,-0.023021709554498705, ,0.010412589627668566, ,0.03962274610689097, ,4.405370120029211e-05, ,0.20520073520101945,-0.1914465479520256,0.09890174184000002,2.2763940264679965,0.9990860862849005,-0.8802757401611048, ,0.01817949072001356,0.0004858855942453394,0.010514067009900992,0.032076265877088644,0.04286858223848186,-0.004858660285211626, ,1.5153319835662842
0.011795362428540167,0.021682681530021276,-0.08517264937627264, ,0.01208487305383331,0.021708810534098708,-0.08545924996492398, ,0.0004082144343687476, ,0.0043312796934266064,0.002438831615258998,-0.011411072193849644,-0.033678051029867595,-0.0019230842497217843,0.022188939888801294, ,0.01244670446517973, ,0.03373290946129006, ,4.447434118973779e-05, ,0.20541697172149773,-0.19143882521915137,0.09902359310000002,2.2763940264679965,0.999222722784666,-0.8798154068838172, ,0.020438712375289853,0.0007204114752181615,0.012177990458715598,0.032076265877088644,0.0,0.06732413803946538, ,1.5196330547332764
0.011795362428540167,0.021682681530021276,-0.08517264937627264, ,0.012104323275759905,0.021714775576140724,-0.08550551840595187, ,0.0004552896043516126, ,0.0043312796934266064,0.002438831615258998,-0.011411072193849644,-0.033678051029867595,-0.0019230842497217843,0.022188939888801294, ,0.01244670446517973, ,0.03373290946129006, ,4.4954473459688166e-05, ,0.20541697172149773,-0.19143882521915137,0.09902359310000002,2.2763940264679965,0.999222722784666,-0.8798154068838172, ,0.020438712375289853,0.0007204114752181615,0.012177990458715598,0.032076265877088644,0.0,0.06732413803946538, ,1.5233399868011475
0.011795362428540167,0.021682681530021276,-0.08517264937627264, ,0.012123828206759665,0.021720616030132874,-0.08555178693493323, ,0.0005030646898234565, ,0.0043312796934266064,0.002438831615258998,-0.011411072193849644,-0.033678051029867595,-0.0019230842497217843,0.022188939888801294, ,0.01244670446517973, ,0.03373290946129006, ,4.5494546326229456e-05, ,0.20541697172149773,-0.19143882521915137,0.09902359310000002,2.2763940264679965,0.999222722784666,-0.8798154068838172, ,0.020438712375289853,0.0007204114752181615,0.012177990458715598,0.032076265877088644,0.0,0.06732413803946538, ,1.527174949645996
0.011795362428540167,0.021682681530021276,-0.08517264937627264, ,0.012143387642499445,0.021726332491016527,-0.08559805550547017, ,0.0005513595294415759, ,0.0043312796934266064,0.002438831615258998,-0.011411072193849644,-0.033678051029867595,-0.0019230842497217843,0.022188939888801294, ,0.01244670446517973, ,0.03373290946129006, ,4.60947685384708e-05, ,0.20541697172149773,-0.19143882521915137,0.09902359310000002,2.2763940264679965,0.999222722784666,-0.8798154068838172, ,0.020438712375289853,0.0007204114752181615,0.012177990458715598,0.032076265877088644,0.0,0.06732413803946538, ,1.5324149131774902
0.011795362428540167,0.021682681530021276,-0.08517264937627264, ,0.012163001379063114,0.021731925552639784,-0.08564432407109603, ,0.0006000503224247104, ,0.0043312796934266064,0.002438831615258998,-0.011411072193849644,-0.033678051029867595,-0.0019230842497217843,0.022188939888801294, ,0.01244670446517973, ,0.03373290946129006, ,4.675518568456673e-05, ,0.20541697172149773,-0.19143882521915137,0.09902359310000002,2.2763940264679965,0.999222722784666,-0.8798154068838172, ,0.020438712375289853,0.0007204114752181615,0.012177990458715598,0.032076265877088644,0.0,0.06732413803946538, ,1.5366449356079102
0.011875876385241811,0.021726055083630572,-0.08539548028353712, ,0.012182669212952,0.021737395807759675,-0.08569059258527482, ,0.00042584236730874007, ,0.004658295665461185,0.00251984436349162,-0.01205279173101736,-0.0061853617906977515,-0.0015951103561063463,0.00580743631103609, ,0.01316507207098979, ,0.006387708757932191, ,4.718622588682303e-05, ,0.20581083109808318,-0.1914156570205287,0.09926081417,2.2763940264679965,0.9993593592844314,-0.8790283586459675, ,0.023612078019027316,0.0013325350057222353,0.012971344885993488,0.024684813868751595,0.01516740914408709,0.032478077788768545, ,1.5418589115142822
0.011875876385241811,0.021726055083630572,-0.08539548028353712, ,0.012202390941083696,0.021742743848041684,-0.08573686100140256, ,0.0004726849527587198, ,0.004658295665461185,0.00251984436349162,-0.01205279173101736,-0.0061853617906977515,-0.0015951103561063463,0.00580743631103609, ,0.01316507207098979, ,0.006387708757932191, ,4.767563403816207e-05, ,0.20581083109808318,-0.1914156570205287,0.09926081417,2.2763940264679965,0.9993593592844314,-0.8790283586459675, ,0.023612078019027316,0.0013325350057222353,0.012971344885993488,0.024684813868751595,0.01516740914408709,0.032478077788768545, ,1.5457041263580322
0.011875876385241811,0.021726055083630572,-0.08539548028353712, ,0.012222166360791811,0.021747970264060824,-0.08578312927280614, ,0.0005202583600299003, ,0.004658295665461185,0.00251984436349162,-0.01205279173101736,-0.0061853617906977515,-0.0015951103561063463,0.00580743631103609, ,0.01316507207098979, ,0.006387708757932191, ,4.822390125358603e-05, ,0.20607340401580682,-0.19140021155478024,0.09939951720000001,2.276603716411481,1.0000425417832586,-0.8794220906841685, ,0.02409163278966001,0.0014253145973837675,0.012493185505882354,0.010954853283169204,0.07100426353891046,-0.042428851235667434, ,1.5496020317077637
0.011925004416276737,0.02175419715749427,-0.08552427209469932, ,0.012241995269826281,0.02175307564530321,-0.08582939735274468, ,0.00043998395666309815, ,0.004253116427123113,0.0024350572481438896,-0.011214791435650184,0.06879040788754551,0.023119875678552684,-0.025036174047492813, ,0.012238874543418415, ,0.07257167967827145, ,4.866603272611619e-05, ,0.20607340401580682,-0.19140021155478024,0.09939951720000001,2.276603716411481,1.0000425417832586,-0.8794220906841685, ,0.02409163278966001,0.0014253145973837675,0.012493185505882354,0.010954853283169204,0.07100426353891046,-0.042428851235667434, ,1.5537669658660889
0.011925004416276737,0.02175419715749427,-0.08552427209469932, ,0.012261877466352563,0.021758060580166196,-0.08587566519440964, ,0.00048680128227662414, ,0.004253116427123113,0.0024350572481438896,-0.011214791435650184,0.06879040788754551,0.023119875678552684,-0.025036174047492813, ,0.012238874543418415, ,0.07257167967827145, ,4.916599320984454e-05, ,0.20607340401580682,-0.19140021155478024,0.09939951720000001,2.276603716411481,1.0000425417832586,-0.8794220906841685, ,0.02409163278966001,0.0014253145973837675,0.012493185505882354,0.010954853283169204,0.07100426353891046,-0.042428851235667434, ,1.5574800968170166
0.011972733804741387,0.021779928448416676,-0.08563810940655452, ,0.012281812748950488,0.021762925655958366,-0.0859219327509239, ,0.0004199697364261071, ,0.00456359435436644,0.0023274444524024997,-0.011381125938461101,-0.003732742000273367,0.00396390139080317,0.017147984749492626, ,0.012480922190981581, ,0.005444785222923472, ,4.957782131484636e-05, ,0.20632825420065623,-0.19137704335615757,0.09952784991000001,2.277232786241935,1.0003158147827895,-0.8792365327908586, ,0.024796692333020846,0.0019132737844837953,0.012338351293570875,0.018081805758046177,0.02516817483953775,0.0354542618092034, ,1.5616710186004639
0.011972733804741387,0.021779928448416676,-0.08563810940655452, ,0.01230180091661527,0.021767671458902113,-0.08596819997534295, ,0.0004662565618970449, ,0.00456359435436644,0.0023274444524024997,-0.011381125938461101,-0.003732742000273367,0.00396390139080317,0.017147984749492626, ,0.012480922190981581, ,0.005444785222923472, ,5.00466602921993e-05, ,0.20632825420065623,-0.19137704335615757,0.09952784991000001,2.277232786241935,1.0003158147827895,-0.8792365327908586, ,0.024796692333020846,0.0019132737844837953,0.012338351293570875,0.018081805758046177,0.02516817483953775,0.0354542618092034, ,1.5654881000518799
0.011972733804741387,0.021779928448416676,-0.08563810940655452, ,0.01232184176875649,0.02177229857413323,-0.0860144668206551, ,0.0005133999305306032, ,0.00456359435436644,0.0023274444524024997,-0.011381125938461101,-0.003732742000273367,0.00396390139080317,0.017147984749492626, ,0.012480922190981581, ,0.005444785222923472, ,5.0637672116482976e-05, ,0.20632825420065623,-0.19137704335615757,0.09952784991000001,2.277232786241935,1.0003158147827895,-0.8792365327908586, ,0.024796692333020846,0.0019132737844837953,0.012338351293570875,0.018081805758046177,0.02516817483953775,0.0354542618092034, ,1.5674951076507568
0.011972733804741387,0.021779928448416676,-0.08563810940655452, ,0.012341935105197993,0.021776807585702627,-0.0860607332397811, ,0.0005611864613959056, ,0.00456359435436644,0.0023274444524024997,-0.011381125938461101,-0.003732742000273367,0.00396390139080317,0.017147984749492626, ,0.012480922190981581, ,0.005444785222923472, ,5.1288052739768865e-05, ,0.20632825420065623,-0.19137704335615757,0.09952784991000001,2.277232786241935,1.0003158147827895,-0.8792365327908586, ,0.024796692333020846,0.0019132737844837953,0.012338351293570875,0.018081805758046177,0.02516817483953775,0.0354542618092034, ,1.569638967514038
0.012022836898487523,0.02180286944577471,-0.08575839836480448, ,0.012362080726176856,0.02178119907657569,-0.0861069991855749, ,0.0004869070874082119, ,0.00479516660020388,0.0023268002736911288,-0.011048926665834033,0.006619781859764539,-0.0022743292743358915,-0.031348673576832145, ,0.012267289949468803, ,0.006999565761837555, ,5.184227543018674e-05, ,0.2065985498512541,-0.1913461524246607,0.09965618262,2.277442476185419,1.0003158147827895,-0.8789098178302962, ,0.025878631458541256,0.00300611632310269,0.011976550015037595,0.049607219562573635,0.014973256528882942,0.016233648029684942, ,1.571669101715088
0.012022836898487523,0.02180286944577471,-0.08575839836480448, ,0.012382278432343756,0.0217854736286344,-0.0861532646108235, ,0.0005342473050564253, ,0.00479516660020388,0.0023268002736911288,-0.011048926665834033,0.006619781859764539,-0.0022743292743358915,-0.031348673576832145, ,0.012267289949468803, ,0.006999565761837555, ,5.2455242430982466e-05, ,0.2065985498512541,-0.1913461524246607,0.09965618262,2.277442476185419,1.0003158147827895,-0.8789098178302962, ,0.025878631458541256,0.00300611632310269,0.011976550015037595,0.049607219562573635,0.014973256528882942,0.016233648029684942, ,1.573915958404541
0.012022836898487523,0.02180286944577471,-0.08575839836480448, ,0.01240252802476276,0.02178963182267809,-0.08619952946824724, ,0.0005821831640145901, ,0.00479516660020388,0.0023268002736911288,-0.011048926665834033,0.006619781859764539,-0.0022743292743358915,-0.031348673576832145, ,0.012267289949468803, ,0.006999565761837555, ,5.312748598629161e-05, ,0.2065985498512541,-0.1913461524246607,0.09965618262,2.277442476185419,1.0003158147827895,-0.8789098178302962, ,0.025878631458541256,0.00300611632310269,0.011976550015037595,0.049607219562573635,0.014973256528882942,0.016233648029684942, ,1.5759999752044678
0.012022836898487523,0.02180286944577471,-0.08575839836480448, ,0.012422829304909556,0.021793674238422843,-0.08624579371049976, ,0.0006305812398406361, ,0.00479516660020388,0.0023268002736911288,-0.011048926665834033,0.006619781859764539,-0.0022743292743358915,-0.031348673576832145, ,0.012267289949468803, ,0.006999565761837555, ,5.385936653617037e-05, ,0.2065985498512541,-0.1913461524246607,0.09965618262,2.277442476185419,1.0003158147827895,-0.8789098178302962, ,0.025878631458541256,0.00300611632310269,0.011976550015037595,0.049607219562573635,0.014973256528882942,0.016233648029684942, ,1.5782721042633057
0.012022836898487523,0.02180286944577471,-0.08575839836480448, ,0.012443182074672876,0.02179760145450391,-0.0862920572901687, ,0.0006793450283142002, ,0.004872747421609737,0.0023738193254406554,-0.010958384788244985,0.005110234539323456,-0.00524966819086664,-0.02864883491294242, ,0.012225583126864704, ,0.007326210148062192, ,5.465112053842105e-05, ,0.20671439084436746,-0.19133842969178647,0.09970803422,2.277442476185419,1.0003158147827895,-0.8787464603500151, ,0.026982354722340285,0.0020845414377300185,0.011896050425690816,0.04725299372722161,0.01280275459102956,0.017303170127338223, ,1.5807559490203857
0.012043253974390093,0.021812063158678265,-0.08580699136052523, ,0.012463586136353734,0.02180141404847661,-0.08633832015977558, ,0.0006775712677216531, ,0.004872747421609737,0.0023738193254406554,-0.010958384788244985,0.005110234539323456,-0.00524966819086664,-0.02864883491294242, ,0.012225583126864704, ,0.007326210148062192, ,0.00030452747564634915, ,0.20671439084436746,-0.19133842969178647,0.09970803422,2.277442476185419,1.0003158147827895,-0.8787464603500151, ,0.026982354722340285,0.0020845414377300185,0.011896050425690816,0.04725299372722161,0.01280275459102956,0.017303170127338223, ,1.5827031135559082
0.012043253974390093,0.021812063158678265,-0.08580699136052523, ,0.012484041292663717,0.021805112596815113,-0.08638458227177609, ,0.000726603764799399, ,0.004872747421609737,0.0023738193254406554,-0.010958384788244985,0.005110234539323456,-0.00524966819086664,-0.02864883491294242, ,0.012225583126864704, ,0.007326210148062192, ,0.00030743834660602534, ,0.20671439084436746,-0.19133842969178647,0.09970803422,2.277442476185419,1.0003158147827895,-0.8787464603500151, ,0.026982354722340285,0.0020845414377300185,0.011896050425690816,0.04725299372722161,0.01280275459102956,0.017303170127338223, ,1.58467698097229
0.012043253974390093,0.021812063158678265,-0.08580699136052523, ,0.012504547346726408,0.02180869767491562,-0.08643084357855971, ,0.0007758830400188539, ,0.004872747421609737,0.0023738193254406554,-0.010958384788244985,0.005110234539323456,-0.00524966819086664,-0.02864883491294242, ,0.012225583126864704, ,0.007326210148062192, ,0.0003106468719033735, ,0.20671439084436746,-0.19133842969178647,0.09970803422,2.277442476185419,1.0003158147827895,-0.8787464603500151, ,0.026982354722340285,0.0020845414377300185,0.011896050425690816,0.04725299372722161,0.01280275459102956,0.017303170127338223, ,1.5867271423339844
0.012043253974390093,0.021812063158678265,-0.08580699136052523, ,0.012525104102076216,0.021812169857096036,-0.08647710403245142, ,0.0008253669184137027, ,0.004872747421609737,0.0023738193254406554,-0.010958384788244985,0.005110234539323456,-0.00524966819086664,-0.02864883491294242, ,0.012225583126864704, ,0.007326210148062192, ,0.0003141483688184097, ,0.20671439084436746,-0.19133842969178647,0.09970803422,2.277442476185419,1.0003158147827895,-0.8787464603500151, ,0.026982354722340285,0.0020845414377300185,0.011896050425690816,0.04725299372722161,0.01280275459102956,0.017303170127338223, ,1.5887339115142822
0.012122150221308829,0.021845818024601234,-0.08600480243958888, ,0.012545711362657013,0.021815529716595592,-0.08652336358570967, ,0.0006702440483347249, ,0.006043852662354983,0.0027715584058234572,-0.015377169434788325,0.0025990718285744934,-0.012572116830638618,-0.018974525571534926, ,0.01675312003261883, ,0.012837929591795081, ,0.0003165544207070335, ,0.20715458661819824,-0.19125347963016998,0.09992062578000001,2.277442476185419,1.000725724282086,-0.8786723203604017, ,0.03060204500434401,0.006324438051447132,0.016421455175257733,0.03054186039734736,0.013924533306122944,0.009929679577542306, ,1.5908401012420654
0.012122150221308829,0.021845818024601234,-0.08600480243958888, ,0.012566368932824264,0.02181877782557876,-0.08656962219052877, ,0.0007190846869982735, ,0.006043852662354983,0.0027715584058234572,-0.015377169434788325,0.0025990718285744934,-0.012572116830638618,-0.018974525571534926, ,0.01675312003261883, ,0.012837929591795081, ,0.0003192559661183841, ,0.20715458661819824,-0.19125347963016998,0.09992062578000001,2.277442476185419,1.000725724282086,-0.8786723203604017, ,0.03060204500434401,0.006324438051447132,0.016421455175257733,0.03054186039734736,0.013924533306122944,0.009929679577542306, ,1.592742919921875
0.012122150221308829,0.021845818024601234,-0.08600480243958888, ,0.012587076617342145,0.021821914755132857,-0.08661587979903757, ,0.0007682079531289546, ,0.006043852662354983,0.0027715584058234572,-0.015377169434788325,0.0025990718285744934,-0.012572116830638618,-0.018974525571534926, ,0.01675312003261883, ,0.012837929591795081, ,0.00032224897936512125, ,0.20715458661819824,-0.19125347963016998,0.09992062578000001,2.277442476185419,1.000725724282086,-0.8786723203604017, ,0.03060204500434401,0.006324438051447132,0.016421455175257733,0.03054186039734736,0.013924533306122944,0.009929679577542306, ,1.5946729183197021
0.012122150221308829,0.021845818024601234,-0.08600480243958888, ,0.012607834221385176,0.02182494107527139,-0.0866621363633006, ,0.0008175650935587452, ,0.006043852662354983,0.0027715584058234572,-0.015377169434788325,0.0025990718285744934,-0.012572116830638618,-0.018974525571534926, ,0.01675312003261883, ,0.012837929591795081, ,0.0003255292185319664, ,0.20715458661819824,-0.19125347963016998,0.09992062578000001,2.277442476185419,1.000725724282086,-0.8786723203604017, ,0.03060204500434401,0.006324438051447132,0.016421455175257733,0.03054186039734736,0.013924533306122944,0.009929679577542306, ,1.596566915512085
0.012122150221308829,0.021845818024601234,-0.08600480243958888, ,0.012628641550535913,0.02182785735493245,-0.08670839183531727, ,0.0008671182676074839, ,0.006043852662354983,0.0027715584058234572,-0.015377169434788325,0.0025990718285744934,-0.012572116830638618,-0.018974525571534926, ,0.01675312003261883, ,0.012837929591795081, ,0.00032909230438114747, ,0.20715458661819824,-0.19125347963016998,0.09992062578000001,2.277442476185419,1.000725724282086,-0.8786723203604017, ,0.03060204500434401,0.006324438051447132,0.016421455175257733,0.03054186039734736,0.013924533306122944,0.009929679577542306, ,1.5984771251678467
0.012122150221308829,0.021845818024601234,-0.08600480243958888, ,0.012649498410786246,0.021830664161981483,-0.08675464616702307, ,0.0009168376999610107, ,0.0073391206638105414,0.003714411780462568,-0.020912283763453395,0.07372799844483965,0.02249645418487374,-0.029206527440748854, ,0.022471830348149358, ,0.07708374800215363, ,0.00033293377755487204, ,0.20750210959753834,-0.1911685295685535,0.10011895815,2.2778618560723882,1.0015455432806784,-0.8790957915621584, ,0.03598670517954902,0.00946802014525304,0.022690614700854702,0.014113471429205908,0.08643857103560032,-0.047454340797027345, ,1.6004679203033447
0.012190116073050192,0.021879912445834194,-0.08618616689068231, ,0.012670404608536603,0.021833362063211594,-0.08680089931028945, ,0.0007814985368879667, ,0.0073391206638105414,0.003714411780462568,-0.020912283763453395,0.07372799844483965,0.02249645418487374,-0.029206527440748854, ,0.022471830348149358, ,0.07708374800215363, ,0.00033584653573235973, ,0.20750210959753834,-0.1911685295685535,0.10011895815,2.2778618560723882,1.0015455432806784,-0.8790957915621584, ,0.03598670517954902,0.00946802014525304,0.022690614700854702,0.014113471429205908,0.08643857103560032,-0.047454340797027345, ,1.602597951889038
0.012190116073050192,0.021879912445834194,-0.08618616689068231, ,0.012691359950594661,0.021835951624343194,-0.08684715121692352, ,0.0008307094908200563, ,0.0073391206638105414,0.003714411780462568,-0.020912283763453395,0.07372799844483965,0.02249645418487374,-0.029206527440748854, ,0.022471830348149358, ,0.07708374800215363, ,0.00033903919995873194, ,0.20750210959753834,-0.1911685295685535,0.10011895815,2.2778618560723882,1.0015455432806784,-0.8790957915621584, ,0.03598670517954902,0.00946802014525304,0.022690614700854702,0.014113471429205908,0.08643857103560032,-0.047454340797027345, ,1.6045119762420654
0.012190116073050192,0.021879912445834194,-0.08618616689068231, ,0.012712364244176658,0.021838433410026923,-0.08689340183866873, ,0.0008801391562189378, ,0.0073391206638105414,0.003714411780462568,-0.020912283763453395,0.07372799844483965,0.02249645418487374,-0.029206527440748854, ,0.022471830348149358, ,0.07708374800215363, ,0.0003425077894219384, ,0.20750210959753834,-0.1911685295685535,0.10011895815,2.2778618560723882,1.0015455432806784,-0.8790957915621584, ,0.03598670517954902,0.00946802014525304,0.022690614700854702,0.014113471429205908,0.08643857103560032,-0.047454340797027345, ,1.6063730716705322
0.012190116073050192,0.021879912445834194,-0.08618616689068231, ,0.01273341729690519,0.02184080798384212,-0.08693965112720531, ,0.0009297547383469838, ,0.0073391206638105414,0.003714411780462568,-0.020912283763453395,0.07372799844483965,0.02249645418487374,-0.029206527440748854, ,0.022471830348149358, ,0.07708374800215363, ,0.0003462482158482126, ,0.20750210959753834,-0.1911685295685535,0.10011895815,2.2778618560723882,1.0015455432806784,-0.8790957915621584, ,0.03598670517954902,0.00946802014525304,0.022690614700854702,0.014113471429205908,0.08643857103560032,-0.047454340797027345, ,1.608370065689087
0.012190116073050192,0.021879912445834194,-0.08618616689068231, ,0.012754518916810472,0.021843075908299706,-0.08698589903414952, ,0.0009795299902692497, ,0.009029098886532382,0.004820060984096202,-0.025654269412167238,0.013595986198193324,0.0022160811946608117,-0.04584741385598121, ,0.027620629132321484, ,0.013775004334252446, ,0.00035025632834454824, ,0.2078573553097527,-0.19107585677406283,0.10036784583000001,2.2784909259028416,1.0019554527799748,-0.8788582940922638, ,0.03803484631602035,0.009517202505145338,0.027369091958762887,0.06954330367527328,0.031834229942266916,0.01792249605790382, ,1.6107609272003174
0.012272318490160814,0.021923416551526985,-0.08641863852289054, ,0.012775668912329086,0.02184523774484164,-0.08703214551105518, ,0.0007974110595160829, ,0.009029098886532382,0.004820060984096202,-0.025654269412167238,0.013595986198193324,0.0022160811946608117,-0.04584741385598121, ,0.027620629132321484, ,0.013775004334252446, ,0.00035306862225128744, ,0.2078573553097527,-0.19107585677406283,0.10036784583000001,2.2784909259028416,1.0019554527799748,-0.8788582940922638, ,0.03803484631602035,0.009517202505145338,0.027369091958762887,0.06954330367527328,0.031834229942266916,0.01792249605790382, ,1.6127769947052002
0.012272318490160814,0.021923416551526985,-0.08641863852289054, ,0.012796867092303462,0.02184729405384201,-0.0870783905094121, ,0.0008462969658357215, ,0.009029098886532382,0.004820060984096202,-0.025654269412167238,0.013595986198193324,0.0022160811946608117,-0.04584741385598121, ,0.027620629132321484, ,0.013775004334252446, ,0.00035615129939869017, ,0.2078573553097527,-0.19107585677406283,0.10036784583000001,2.2784909259028416,1.0019554527799748,-0.8788582940922638, ,0.03803484631602035,0.009517202505145338,0.027369091958762887,0.06954330367527328,0.031834229942266916,0.01792249605790382, ,1.6152009963989258
0.012272318490160814,0.021923416551526985,-0.08641863852289054, ,0.012818113265982622,0.021849245394608502,-0.08712463398064829, ,0.0008954456344232062, ,0.009029098886532382,0.004820060984096202,-0.025654269412167238,0.013595986198193324,0.0022160811946608117,-0.04584741385598121, ,0.027620629132321484, ,0.013775004334252446, ,0.0003595009536535008, ,0.2078573553097527,-0.19107585677406283,0.10036784583000001,2.2784909259028416,1.0019554527799748,-0.8788582940922638, ,0.03803484631602035,0.009517202505145338,0.027369091958762887,0.06954330367527328,0.031834229942266916,0.01792249605790382, ,1.6171860694885254
