NicholasDascanio/dvrk_moveit_final/test/execution/third_experiment_notsharpbends/thirdexp_600vel3.0/thirdexp_600vel3.0_17.csv
Current Position (x),Current Position (y),Current Position (z), ,Planned Position (x),Planned Position (y),Planned Position (z), ,Position Error,,Cartesian linear Velocity(x),Cartesian linear Velocity(y),Cartesian linear Velocity(z),Cartesian Angular Velocity(x),Cartesian Angular Velocity(y),Cartesian Angular Velocity(z), ,Total Linear Velocity, ,Total Angular Velocity, ,MSE, ,Joint 1 Position,Joint 2 Position,Joint 3 Position,Joint 4 Position,Joint 5 Position,Joint 6 Position, ,Joint 1 Velocity,Joint 2 Velocity,Joint 3 Velocity,Joint 4 Velocity,Joint 5 Velocity,Joint 6 Velocity, ,Time Stamp
0.00861766724869494,0.01978960235047851,-0.07716861024646475, ,0.00871844521899019,0.01966377844885484,-0.0772698101800315, ,0.00019033990666843373, ,2.0075031517389803e-05,3.843802946674931e-05,-3.2325327725517114e-05,0.02836444787025563,-0.008468843472582192,-0.03877119451760888, ,5.4087113181172536e-05, ,0.029601743407231054, ,1.5861658889036145e-05, ,0.18780141803539163,-0.1901568515620301,0.09042141266,2.2501827835324306,0.9960800832900608,-0.892281683284663, ,0.0001301519115208143,-0.00033485131056161006,4.297796079760545e-05,0.0007522312608827496,0.0,-0.04798355643209007, ,0.019555091857910156
0.008620871728740886,0.01979254092124448,-0.07717687817418803, ,0.008769775262930735,0.019684408851762387,-0.07739035482041652, ,0.00028184585402250026, ,0.00014109723143714963,0.0001376762195217453,-0.0005665333225386252,0.12592643869847545,-0.03863274482766952,-0.17154754708562894, ,0.0005998526283077222, ,0.13171923525514662, ,2.146298912231518e-05, ,0.18784003169976274,-0.19016457429490433,0.09044733846000001,2.251021543306369,0.9955335372909991,-0.8979619171804196, ,0.0019440871205918984,0.0001396650935179616,0.002329114127796462,0.004443188540152282,0.0,-0.4224736734112855, ,0.03884696960449219
0.00865092885962135,0.019799915811228475,-0.07724076029086675, ,0.008821030203586206,0.01970491162142443,-0.07751060607918134, ,0.00033283180853111463, ,0.002336303785364343,-0.00015674121088211956,-0.0043914355263975375,-0.10753739209631463,-0.28661696063923475,-0.21652368624673018, ,0.004976704649384266, ,0.30612672673798996, ,2.515679903818902e-05, ,0.1878554771655112,-0.1901568515620301,0.09047326426,2.251021543306369,0.9930740802952212,-0.9006937618420365, ,0.0019369639277609274,0.00026671735006329376,0.002728938070926846,0.004443188540152282,-0.34447872571147564,-0.17331211665481372, ,0.05809307098388672
0.00871018474571697,0.01981883557328846,-0.07740958459276773, ,0.008872210082031696,0.019725287127591737,-0.0776305644355579, ,0.0002895438001749293, ,0.0017092658650378204,0.0015845534013353558,-0.007356467799196585,0.299809409956853,-0.044088903417695335,-0.3482571419406122, ,0.0077168657989939915, ,0.303033849069219, ,2.606098498564233e-05, ,0.18799448635724725,-0.19013368336340744,0.09061844874000001,2.251021543306369,0.988974985302258,-0.9060091711860435, ,0.0065316419596682905,0.0008827986216215852,0.008106265404580152,0.004443188540152282,0.05769331370734831,-0.45416414360846025, ,0.08095598220825195
0.008755128944183153,0.01983956742986582,-0.07754059842036783, ,0.008923314939513484,0.019745535739561008,-0.07775023036828604, ,0.0002847350371745997, ,0.0026601569501873436,0.0008335258634377899,-0.007034953110865369,-0.20118307955404496,-0.1043324395494255,0.07874494560011519, ,0.007567150430427829, ,0.22662720362735117, ,2.652493089560726e-05, ,0.18812577281610907,-0.19011051516478475,0.09074159629,2.2514409231933383,0.9870620743055418,-0.9107385835251169, ,0.00732893648412669,0.0013129887856720872,0.006082020435280642,0.01236971533066437,-0.17141891663849335,0.1721100516065892, ,0.09956598281860352
0.008795337723152389,0.019866598929979263,-0.07765811573012542, ,0.008974344817450236,0.019765657826179246,-0.07786960435561387, ,0.0002948899539765937, ,0.0011480421268617606,0.001467811300997407,-0.0038802011406150333,-0.2567385034710636,0.2323822200902282,0.4806028986914444, ,0.004304466474723108, ,0.3462891210791136, ,2.7003005815293084e-05, ,0.18831884113796468,-0.19010279243191053,0.09086733642000001,2.2520699930237917,0.9871987108053072,-0.9007218376513835, ,0.010337879142912919,0.0010344231313861427,0.005381355243243244,0.045750078887361365,0.15997752859807274,0.6119755314498387, ,0.12318706512451172
0.008799435030780744,0.019898326419738946,-0.07771871481601667, ,0.009025299757432834,0.019785653755843076,-0.0779886868752987, ,0.00036958749536205297, ,-5.350030594003218e-05,0.0011124165431657953,-0.002245173304263042,0.19317661147319398,0.23114204131881788,0.08850948903675819, ,0.0025062194665312217, ,0.3012371930642669, ,2.8385747998753113e-05, ,0.18855824585706563,-0.19006417876753942,0.09098400252000001,2.252279682967276,0.9941671722933447,-0.8955408783012062, ,0.010826887026460034,0.002936314454849992,0.004759131018822828,-0.014581208360953059,0.3238166459243457,-0.012499695546937195, ,0.14392900466918945
0.008827707970598371,0.01991382933905643,-0.07780059368099557, ,0.009076179801224028,0.019805523896499228,-0.07810747840460687, ,0.00040944664254083526, ,0.0026314912779799647,0.00041199581325534573,-0.005623814953269983,-0.061263627575933975,-0.1270114322716699,-0.07415682139887836, ,0.006222682823738297, ,0.14101466585372707, ,2.9917323151842188e-05, ,0.1887976505761666,-0.19001784237029407,0.09107992798,2.2520699930237917,0.9955335372909991,-0.8977168809599979, ,0.012501243783226293,0.003658368974519147,0.0048225284650317895,0.0025149370729287716,-0.1407053305083227,-0.043016925261592565, ,0.16351604461669922
0.008887687603791253,0.019935079620787634,-0.07793352103157423, ,0.009126984990757345,0.01982526861564159,-0.07822597942031478, ,0.00039351442845809667, ,0.003264470309651578,0.00120404916002568,-0.007451476062890066,-0.06871170734917854,-0.11242377163631732,-0.07905728086920587, ,0.008223806679280517, ,0.13175888255750087, ,3.094277094466474e-05, ,0.18905250076101598,-0.18998695143879715,0.09120177924,2.2529087527977296,0.9929374437954557,-0.8987854116552478, ,0.01415316056054747,0.0011325369359521372,0.006895589402597403,0.03657028841206441,-0.13559800020477478,-0.010078412972481299, ,0.18378114700317383
0.008943650151993693,0.019955753304646717,-0.07807835070356156, ,0.009177715368138384,0.019844888280315918,-0.07834419039870828, ,0.0003711446113638613, ,0.0028857960937968188,0.0013626682383121448,-0.0074654362747834345,-0.00934424398286499,-0.03046103765790906,-0.04024853033403843, ,0.008118954526016886, ,0.0318620414854288, ,3.154783861051978e-05, ,0.18934596461023653,-0.1899328923086776,0.09134437114,2.2529087527977296,0.9917077152975667,-0.8991711891043696, ,0.015149575600011298,0.0027747333695448237,0.0076913623949782725,0.029421978014294036,-0.02601925441503477,-0.0057092380011493915, ,0.20346498489379883
0.008992893871388928,0.019978791776481146,-0.078212898863301, ,0.009228370975643895,0.019864383257117434,-0.07846211181558425, ,0.000361449680477152, ,0.0025703704468843114,0.0011502715406652244,-0.006275616279194045,-0.013645066232125889,-0.0075018954367491505,-0.00023230296849439534, ,0.006878465565456144, ,0.015571328070823998, ,3.1958296595983655e-05, ,0.18963942845945705,-0.18988655591143225,0.09148566675000001,2.2529087527977296,0.9917077152975667,-0.8987627954036668, ,0.015847852631675145,0.002807929522558194,0.006639771371404753,0.020228972517621426,0.0,0.025037763867611567, ,0.2222590446472168
0.009044902474668052,0.020005906457948034,-0.0783306499564106, ,0.00927895185572154,0.01988375391219117,-0.07857974414625053, ,0.000362971448764793, ,0.0023868040810704682,0.0013286269432764906,-0.004933843657477502,0.008518871267292534,0.0037818404054512124,-0.05689534200494742, ,0.005639583008720223, ,0.009320594487335309, ,3.2313939897663626e-05, ,0.18995606050730027,-0.1898402195141869,0.09161399946000001,2.253957202515152,0.9919809882970977,-0.8981688438096539, ,0.01403593278486478,0.0011441691137267045,0.0053977673737716034,0.06769806480964166,0.004379800365378446,0.009422944701309145, ,0.24251413345336914
0.009069132810540108,0.020015680781799043,-0.07838331814270237, ,0.009329458050989677,0.01990300061123186,-0.07869708786552546, ,0.0004229863953068117, ,0.0024095197959321645,0.0010366421848947618,-0.0050231105692399285,0.023323905652960178,0.002498326625278123,-0.055870490732156046, ,0.005666749726015985, ,0.023457327376256446, ,3.307035653652859e-05, ,0.1901259606305332,-0.18980932858269,0.09167103622000002,2.254166892458637,0.992117624796863,-0.8981169042330691, ,0.01577933846998184,0.003929709137855807,0.005494588313211453,0.04887747038966439,0.015522851407389057,-0.01526320816941012, ,0.2611100673675537
0.009111561709886421,0.020033057254377568,-0.07848253497990329, ,0.00937988960423828,0.019922123719487362,-0.07881414344774028, ,0.00044076102821340017, ,0.0024095122547488604,0.0010350392541994752,-0.005990660800924744,-0.0037393655552710957,-0.006545206151940957,0.025003517372002997, ,0.006539500928607246, ,0.007538074728449139, ,3.408544745415017e-05, ,0.1904039790140053,-0.18976299218544465,0.09177603571000001,2.2543765824021214,0.992117624796863,-0.8977085105323663, ,0.016997481919840726,0.001653148326592134,0.006415147611759969,-0.011524899483860648,0.013366245461243995,0.013508838696239167, ,0.279217004776001
0.009170631356261588,0.020058102259105065,-0.07863882355870616, ,0.009430246558426917,0.0199411236017535,-0.07893091136673719, ,0.0004079207607752884, ,0.002822724229583396,0.0011588771494281372,-0.007027450391930545,-0.013071985232799977,-0.007159751162724862,0.022161596443734496, ,0.0076613202083445535, ,0.01490432210801766, ,3.4759792345403085e-05, ,0.1907901156577165,-0.18969348758957663,0.09194196083,2.254166892458637,0.992390897796394,-0.897604631379197, ,0.018662132066562594,0.003335842523168766,0.007464297806935334,0.0,0.008959532665338868,0.02583760702295109, ,0.2965099811553955
0.009229167664119117,0.020088191862295938,-0.07877709877657536, ,0.009480528956686083,0.019960000622378606,-0.07904739209587182, ,0.00039073516843096456, ,0.0030176326016689414,0.0016066790259254375,-0.006913525304295711,0.035505013973250364,0.020753461230332962,-0.03245440701553005, ,0.007712610203046767, ,0.04112556570413873, ,3.524971081912847e-05, ,0.1911608068356793,-0.18963942845945705,0.09209362676,2.2550056522325748,0.9929374437954557,-0.8973968730728583, ,0.02053601851514191,0.0021257402437234677,0.007747476420233463,0.04132731378904919,0.0452609456435643,-0.005220833203350289, ,0.31391215324401855
0.009254239850316806,0.02009928458683682,-0.07883332328298162, ,0.009530736842316267,0.019978755145261436,-0.07916358610801169, ,0.0004472711330592069, ,0.0030508884034473344,0.0014960507395434886,-0.006605605791410866,0.008593594042164617,0.014225157422234843,-0.03078879248208875, ,0.007428331961961502, ,0.016619414841452445, ,3.6023661626789485e-05, ,0.19133070695891222,-0.1896162602608344,0.09215455239,2.2552153421760597,0.9930740802952212,-0.8972632547561329, ,0.019684078315384938,0.0031529244531779176,0.007280078391224864,0.057337339522628046,0.024774185212937422,0.023463869957166966, ,0.3313260078430176
0.009314291421503182,0.02012304938797234,-0.07896966028335595, ,0.009580870258788341,0.01999738753385327,-0.07927949387553865, ,0.0004276120121252282, ,0.0024655011109303428,0.0007022364957993541,-0.0052310849218933165,0.0002762068847737692,-0.011206402453700894,0.016662733137786694, ,0.005825468331738738, ,0.011209805630806549, ,3.660783709280148e-05, ,0.19174773453412036,-0.18954675566496637,0.09230103316,2.255425032119544,0.993347353294752,-0.8965876244219795, ,0.019343037415097998,0.00383342325557051,0.0056067622386483645,-0.012397580178046074,0.01317383338981168,0.0024849167615877965, ,0.34809207916259766
0.009365795757609504,0.020145621959042872,-0.0790884921437523, ,0.009630929249742494,0.02001589815115526,-0.07939511587034692, ,0.0004256079706658122, ,0.002964594207302815,0.0013837411171343504,-0.00708090785479235,0.03268144650680747,0.009860092106656271,-0.017776899952717744, ,0.007800180404406145, ,0.03413646648861084, ,3.7124705032750936e-05, ,0.19212614844495735,-0.18948497380197257,0.09243325474000001,2.255634722063028,0.9941671722933447,-0.8969294168835957, ,0.02057609313930416,0.0030897609002415276,0.007812070387444827,0.015890332850164182,0.039794868604010124,-0.015637311651979797, ,0.3678469657897949
0.009429444857223744,0.020171937672434984,-0.07923243447623084, ,0.009680913858988942,0.02003428735972148,-0.07951045256384556, ,0.0003993473731976461, ,0.003175748063452329,0.0013401202037691133,-0.0065712006371632355,0.014408862837690623,-0.010040521262198761,-0.059788886250297595, ,0.007420375714000329, ,0.017562100763848773, ,3.745919235532985e-05, ,0.19252773055441702,-0.18940774647323033,0.09258621696000001,2.256263791893482,0.9941671722933447,-0.8963576657026119, ,0.020294469965455683,0.003815922117195995,0.007070045059920108,0.05305659082377772,0.002966948061269235,-0.010994098875776494, ,0.38485097885131836
0.009483425562204967,0.02019006165482482,-0.07935813872162319, ,0.009730824130507281,0.020052555521657498,-0.07962550442695786, ,0.00038935640311387045, ,0.0028400161161928703,0.0010106582623737518,-0.006387042278765914,-0.014061091030913561,-0.013479882382188186,0.016267549364598802, ,0.0070626787222896415, ,0.019478744810385112, ,3.771519074707446e-05, ,0.1928906989995056,-0.18932279641161384,0.09271843854,2.256263791893482,0.9941671722933447,-0.8960309507420496, ,0.01969633490213175,0.003430739373708719,0.006772453877551022,0.0008339772814441877,0.0028548644631688964,0.02146235493782553, ,0.40651607513427734
0.009543746641714812,0.020209830325699,-0.07948061775666694, ,0.009780660108446764,0.020070702998622136,-0.07974027193012169, ,0.0003780273715631888, ,0.0027100624245216024,0.0007857270097812131,-0.00554953820311379,-0.005078433933705581,-0.01910308253583424,0.0006369800126544011, ,0.006225687074253176, ,0.019766594252078204, ,3.789636753035859e-05, ,0.1933386175062106,-0.18923784634999738,0.09285066012000001,2.2564734818369665,0.9944404452928756,-0.8959270715888803, ,0.019936332260182935,0.0040562495104153546,0.005875622102545187,0.0006338582733738668,0.0003566671719737859,0.0024442823339729082, ,0.42413902282714844
0.009572567010523537,0.02022024683787024,-0.07953650991698213, ,0.009830421837124636,0.02008873015182365,-0.07985475554328947, ,0.00043019301362749604, ,0.0027456308050267143,0.0009239520498687834,-0.005717266619022012,0.004871344346906644,-0.007775575076760376,-0.0205727993298515, ,0.006409314589014317, ,0.009175486767025978, ,3.8297834673846284e-05, ,0.19353940856094043,-0.18919150995275205,0.09291158575000001,2.256892861723936,0.994577081792641,-0.8961201682327173, ,0.01899458397887726,0.00474642038544417,0.006138270335260117,0.023095702943100184,0.008980126519213134,0.0002827640364714331, ,0.44093799591064453
0.009628515515016551,0.020240601038263174,-0.07972895700480796, ,0.00988010936102875,0.02010663734202705,-0.07996895573593026, ,0.00041422993859764444, ,0.002736758679332032,0.0011887780225123658,-0.006729110759685248,-0.0061549973620164565,-7.296758549011934e-05,-0.0019880907319824097, ,0.007673659753051974, ,0.0054163688645951, ,3.859891444238753e-05, ,0.19404910893063926,-0.18906022349389023,0.09311510328000001,2.25710255166742,0.9947137182924064,-0.8957415136955703, ,0.016486612501471647,0.0038860746652910807,0.0071945851490514915,0.022442453027541942,0.01075263132096482,0.022188653422016428, ,0.4636409282684326
0.009680228322645638,0.020259490662741846,-0.07979308673705238, ,0.00992972272481428,0.02012442492954669,-0.08008287297702794, ,0.00040554441665027215, ,0.0023762520849134093,0.0007455434106583332,-0.004553689249195863,-0.021304176235656357,-0.0016982952001616406,0.01707664701533193, ,0.005190230700698512, ,0.021371760098522017, ,3.884122355350747e-05, ,0.19424217725249487,-0.1890216098295191,0.09318380665,2.25710255166742,0.9948503547921719,-0.8955262166387046, ,0.01732960948839861,0.0036222280235430637,0.004907212421441775,0.017908454968439836,0.006048092928215776,0.04228974789737143, ,0.48033809661865234
0.009723479326601923,0.020275496413651298,-0.07987792567478098, ,0.009979261973305538,0.020142093274251226,-0.08019650773508295, ,0.00042978563156851745, ,0.0023170425066145503,0.001065187603157314,-0.004879886215419622,0.0644338125907328,0.026081440421816267,-0.03293270124501573, ,0.00550605122413705, ,0.06951228478972028, ,3.916337062012173e-05, ,0.19457425476608653,-0.18895210523365108,0.09327973211000001,2.2575219315543893,0.9955335372909991,-0.8955115549762027, ,0.0187025899799903,0.00262723906496091,0.005719501443447038,0.016237133169683445,0.06522239979684533,-0.04308173712732673, ,0.4986691474914551
0.00977983810505689,0.020299665396620575,-0.0800053590435883, ,0.010028727151495167,0.02015964273556282,-0.0803098604781119, ,0.00041746044923271177, ,0.002955555683915483,0.0014220178886268544,-0.007156874847463142,-0.039346934657298036,-0.005088667633459002,-0.00025832196173750837, ,0.00787262992008074, ,0.03967462396082523, ,3.941527028543807e-05, ,0.19493722321117507,-0.18887487790490884,0.09341843514,2.2581510013848427,0.9959434467902953,-0.8950290212858862, ,0.015259196262818906,0.003066464774256223,0.007517136158565362,0.048267084009493325,-0.013788054078301961,0.06385887246217688, ,0.5158920288085938
0.009805382659252513,0.020310340947881835,-0.08007429724313028, ,0.010078118304543675,0.020177073672455945,-0.08042293167364858, ,0.00046226709276634364, ,0.002873244624959049,0.001333007671890148,-0.007416503900127721,-0.017578367415222583,-0.0005951130447759967,-0.006829184073822217, ,0.008064550466627619, ,0.017588437624814816, ,3.996769483612544e-05, ,0.1950762324029111,-0.18884398697341193,0.09348973109000001,2.2581510013848427,0.9958068102905301,-0.8945908884216276, ,0.015058226207310501,0.00437821328722609,0.00784670518226601,0.036178153536785634,0.0014986736758251583,0.036021850486779805, ,0.5321769714355469
0.009855181609608549,0.020335066768627244,-0.08021776949257423, ,0.010127435477780026,0.020194386443459878,-0.08053572178874377, ,0.0004415957260470409, ,0.002611682781903241,0.0012323791587219078,-0.006886647564741974,0.03166202077041913,0.016742834682262467,-0.02435156539650709, ,0.007467634165189704, ,0.0358162820093663, ,4.041241807465842e-05, ,0.19536969625213166,-0.1887744823775439,0.09364528589000001,2.2581510013848427,0.9964899927893571,-0.8947395842394069, ,0.015651812891055713,0.004848627989184451,0.00755636220113852,0.024008752784000026,0.040021492335252484,-0.013782954744375478, ,0.5521061420440674
0.009915831882532367,0.02036067877827243,-0.08035702181587996, ,0.010176678716700355,0.020211581406656607,-0.08064823128996612, ,0.00041841851645899524, ,0.0028101786685149465,0.0008581056027774008,-0.006164565357769483,-0.022322318578011965,-0.019796382149471537,0.0047070895687190695, ,0.006829005449163589, ,0.029835928743775796, ,4.074972010253689e-05, ,0.19574038743009442,-0.18869725504880167,0.09379435924000001,2.258780071215296,0.9966266292891226,-0.8944426084424004, ,0.01818994471122691,0.00484171500799647,0.006430686927735164,0.010273377327172095,-0.010168572382759413,0.023074725298430104, ,0.5673611164093018
0.009946679765646168,0.020372026934093877,-0.08042243281870068, ,0.010225848066968772,0.020228658919682865,-0.08076046064340171, ,0.00046125062416393263, ,0.0027623078514327254,0.0011927308436143298,-0.006006857562717239,-0.008873501969573422,-0.0035049313913392433,-0.024900548495295462, ,0.006718280234566665, ,0.009540627518223313, ,4.1216109286480466e-05, ,0.1959180102862016,-0.18865864138443056,0.09385787745000002,2.2591994511022655,0.9964899927893571,-0.8942495117985635, ,0.01657299014293936,0.0036350533263458163,0.006356269561053473,0.04504171594929509,0.0,0.024957211091434842, ,0.5829930305480957
0.010001350497522205,0.020396838668026773,-0.08056056359216773, ,0.010274943574416481,0.02024561933972905,-0.08087241031465506, ,0.00044155275483386865, ,0.0029087565407191866,0.00126975602576892,-0.0082608731193599,0.003276466215838877,-0.007380314480740514,0.019970865190638686, ,0.008849585847502476, ,0.008074913883595965, ,4.159135720776243e-05, ,0.19625008779979325,-0.18857369132281407,0.09401213596,2.2596188309892344,0.9968999022886535,-0.8945020867695123, ,0.017154183217366375,0.0037586913457329034,0.00876654458998349,-0.016824752409914996,0.017060908611091084,-5.274644318753116e-05, ,0.5984549522399902
0.010030635835761456,0.020410684631147674,-0.08064258984357522, ,0.010323965285042062,0.020262463023540397,-0.08098408076884946, ,0.0004739492196655676, ,0.002914190610044859,0.0012552097928726388,-0.008215439811381396,0.02259292167843566,0.0022514137246147305,0.007424151880269696, ,0.00880690126152368, ,0.022704821873403384, ,4.2052855122806444e-05, ,0.19641998792302617,-0.18853507765844296,0.09410028368000001,2.2596188309892344,0.9971731752881844,-0.8947249225769051, ,0.01784112456448031,0.004713531657588621,0.008839518046614873,-0.012948615523591875,0.033653621178842553,-0.01654078811865021, ,0.6134710311889648
0.010100442707777674,0.020436729815795328,-0.0808140564452162, ,0.010372913245010522,0.02027919032741582,-0.0810954724706265, ,0.00042220121200271267, ,0.0032899845392111533,0.0010980734338711803,-0.00743021047045926,-0.037295587083625556,-0.019892479949506815,0.018173702387751366, ,0.008199865314122208, ,0.042269037744040186, ,4.232603464834868e-05, ,0.19682157003248585,-0.1884269593982038,0.09427528283000002,2.259828520932719,0.9973098117879499,-0.894182910559477, ,0.019794939832805752,0.004947489670148579,0.007639717755395685,0.013903282870958137,-0.014124071954284308,0.04608542944675467, ,0.6290700435638428
0.010164269821013924,0.020460252964536487,-0.08095603076875649, ,0.010421787500654388,0.020295801607210548,-0.08120658588414792, ,0.0003951423415714473, ,0.003358088610796022,0.001318838785963055,-0.006993367650031233,0.0029756474655311467,0.0032021428319330986,-0.025281577227183313, ,0.007869135019163276, ,0.004371290407613419, ,4.250160627687246e-05, ,0.19725404307344244,-0.1883265638708389,0.09443343021000002,2.260247900819688,0.9974464482877153,-0.8939676135026112, ,0.021695688513596427,0.004894259182425015,0.00761051673196369,0.045586721977814625,0.017023523037219088,0.019045136777589306, ,0.6461100578308105
0.010195706821409752,0.020470701951271323,-0.08102820962942481, ,0.010470588098472244,0.020312297218333716,-0.08131742147309436, ,0.0004292962455173357, ,0.003011364667582242,0.0011939463834543045,-0.0065386459448165376,0.0423442748976486,0.021145998160884954,-0.034475684305866186, ,0.00729710325536045, ,0.0473306543677121, ,4.2772162020212937e-05, ,0.19747800232679494,-0.1882647820078451,0.0945125039,2.260247900819688,0.9978563577870115,-0.8941385097334194, ,0.020888606990638513,0.005674723341880775,0.0073472377859778604,0.033821859264381776,0.05149820563885328,-0.018344071341688372, ,0.6623740196228027
0.010257704991963986,0.020489637362483756,-0.08116584468881746, ,0.010519315085129016,0.02032867751575008,-0.08142797970066643, ,0.0004038101999001509, ,0.002921642716006844,0.0008269977384713337,-0.005999293665197251,-0.010256317052094552,0.0020163794105911488,0.031011426707587122, ,0.0067239457092326685, ,0.01045264644140982, ,4.2954507889261595e-05, ,0.1978795844362546,-0.18814894101473173,0.09465768838000001,2.2604575907631723,0.9978563577870115,-0.8933217223320137, ,0.021750387705356585,0.005300179362640605,0.006525527046292504,0.0,0.023543104389924355,0.03261291053591996, ,0.6786530017852783
0.010287730821678666,0.020498302229485177,-0.0812232292621185, ,0.010567968507455507,0.020344942853978962,-0.08153826102958468, ,0.0004486616465646264, ,0.003067458530277558,0.000777474859123585,-0.005977197445739378,-0.025966898198085106,-0.013067302162360812,0.0194794481292334, ,0.006763184035415208, ,0.029069471618913142, ,4.325805003796256e-05, ,0.1980958209567329,-0.18809488188461215,0.09471991030000002,2.2606672807066572,0.997992994286777,-0.893269782755429, ,0.021835467454779284,0.005699950183527604,0.006341087388535033,0.009871293577373378,0.0,0.038094113629482416, ,0.6937649250030518
0.010337780129802698,0.020516345240880023,-0.08132260073760005, ,0.010616548412448724,0.020361093587096125,-0.08164826592209125, ,0.0004559305251918754, ,0.003069213587817251,0.00132099019749627,-0.006186750426900136,0.06846042822257746,0.024140128830501414,-0.06739505399785663, ,0.007031427166249558, ,0.07259184557033958, ,4.3568406322957404e-05, ,0.1984510666689472,-0.18800220909012147,0.09483139124000001,2.2612963505371106,0.9986761767856043,-0.893500157313349, ,0.02191109248637053,0.004648876720194403,0.0071142525770433234,0.04680295426864596,0.06065785435810618,-0.0475424658110301, ,0.7114009857177734
0.01040989940248709,0.020535467445327433,-0.08147525838324998, ,0.010665054847271906,0.02037713006873439,-0.0817579948399483, ,0.0004124499118390339, ,0.00312920041489335,0.0009243306942815842,-0.006000273527223037,0.010312701600034474,0.0051278534799781075,-0.020532429133848982, ,0.006830048672626965, ,0.011517234382685131, ,4.374493301150817e-05, ,0.19875225325104198,-0.18792498176137923,0.09492472412000001,2.2612963505371106,0.9988128132853697,-0.8932848602564831, ,0.02216182661337477,0.006682342143661413,0.006593051125827815,0.0340458724739299,0.025588701706797556,0.008531229069842976, ,0.726593017578125
0.010443516455223921,0.020546137278644856,-0.08155547043198534, ,0.010713487859252656,0.02039305265207996,-0.08186744824443931, ,0.00044005637973710177, ,0.003437050355590026,0.0013904479259720453,-0.008126666220954664,-0.012992309673582128,-0.006142342881284585,0.0014113168555288226, ,0.008932489263833852, ,0.01437109777574215, ,4.398843818892718e-05, ,0.19916155809337588,-0.18780141803539163,0.09507768634000001,2.2612963505371106,0.9988128132853697,-0.8928764665557802, ,0.02040794442117651,0.004509317139356314,0.00866167021207178,0.02289145297470536,0.006311896927361424,0.02867707543361788, ,0.7434000968933105
0.010511044848237339,0.02057473714741552,-0.08171363347443358, ,0.01076184749588435,0.020408861689876604,-0.08197662659636935, ,0.00039947718040711505, ,0.0030776902841752355,0.0011105549968854246,-0.007403024360985493,0.01819098945430123,-0.0022143884314811866,-0.02203115276462113, ,0.00809384207751538, ,0.01832527192749204, ,4.423129790533202e-05, ,0.19955541746996133,-0.18769329977515248,0.09524879662,2.262135110311049,0.999222722784666,-0.8928023265661666, ,0.018892482890398323,0.006121593750214685,0.007960425547226388,0.015993152641132442,0.02148670549321509,-0.01412091974484567, ,0.7573659420013428
0.010540537649541947,0.020586622259397218,-0.08178262006666237, ,0.01081013380482577,0.020424557534425337,-0.0820855303560656, ,0.0004366940639055874, ,0.003168817697168071,0.0014273728202861395,-0.007130809432219636,0.027608200485154978,0.014596345343560184,-0.05014788176618453, ,0.007932669281182072, ,0.031229249318224368, ,4.456222232868687e-05, ,0.19974076305894273,-0.18764696337790715,0.09532398144000001,2.2623448002545334,0.9994959957841969,-0.8930251623735596, ,0.0187025899799903,0.0050257259991738175,0.007858318460779478,0.055703742138551685,0.0314647775751467,-0.004966753262287439, ,0.7706959247589111
0.010573020571759925,0.020597254268152544,-0.08186296148853643, ,0.010858346833899534,0.020440140537581614,-0.08219415998337669, ,0.00046453013162218835, ,0.0031829549460514104,0.0012944848419538745,-0.007462406368950857,0.011955228150455723,0.007691218654437883,-0.02596410543328053, ,0.008215497672691521, ,0.014215565461076952, ,4.4952489784751784e-05, ,0.19993383138079834,-0.18758518151491335,0.09540824029000002,2.2623448002545334,0.9994959957841969,-0.892780126153138, ,0.018728427384738656,0.005770412188111356,0.008093908292682929,0.03808825458490795,0.023860286028878037,0.006928268417700759, ,0.7875521183013916
0.010634407571368083,0.02062006934924085,-0.08201833252376227, ,0.010906486631094225,0.020455611050760568,-0.08230251593767447, ,0.00042641969868110655, ,0.0030724904501898175,0.0013240207448479786,-0.007442791644604359,0.014696517935903573,-0.0034329038375697967,-0.027495776522038464, ,0.008160170094078179, ,0.015092131902392716, ,4.5233274383213706e-05, ,0.20028907709301266,-0.18749250872042264,0.09557157283,2.2623448002545334,0.9994959957841969,-0.8922900537122945, ,0.01776098475734059,0.004080849231814138,0.008004427899497488,0.024866062813353497,0.014853148907800985,-0.008501268897326402, ,0.801591157913208
0.010663400902644912,0.020630725686768124,-0.08209003280361997, ,0.010954553244562022,0.020470969424932726,-0.08241059867785368, ,0.00046157797729382585, ,0.0030216058474364163,0.0010550009906192064,-0.0069647255599389855,-0.022163432438641693,-0.007320110872114246,0.007017682370724858, ,0.007664889504274465, ,0.023340988502085838, ,4.559116341188366e-05, ,0.20046669994911984,-0.1874461723231773,0.09564805394,2.2623448002545334,0.9996326322839623,-0.8921564353955692, ,0.017814331060347435,0.005327823399931327,0.007364221692094315,0.021155528864553956,0.0,0.0360082286357211, ,0.8149280548095703
0.010720367455171338,0.020654720318125767,-0.08221467761205482, ,0.011002546722618663,0.020486216010624808,-0.08251840866233104, ,0.00044751691758567017, ,0.002757063425419031,0.0013599587474596609,-0.005719159471535482,0.02444023070784013,0.022954793108145317,-0.044079417570133096, ,0.006493047942794615, ,0.03352979865092364, ,4.590276237718095e-05, ,0.20082966839420838,-0.18732260859718972,0.09578934955000001,2.263393249971956,1.000725724282086,-0.8925577061842973, ,0.0167632823809346,0.0031698513146890144,0.006454137568881686,0.06257771043118698,0.034844135311302885,0.009446819221731661, ,0.8310151100158691
0.01074858113615533,0.020663929073688712,-0.08227443047381018, ,0.011050467113745648,0.020501351157924372,-0.08262594634904799, ,0.0004910500307546491, ,0.0035089759026241656,0.0013625228993908644,-0.007589200257065125,0.008277810701695885,0.008057704719722203,-0.040901244735881755, ,0.00847144267987448, ,0.011552001133471674, ,4.6307847565998094e-05, ,0.20100729125031555,-0.18727627219994436,0.09585286776000002,2.2636029399154403,1.000725724282086,-0.8923126699638755, ,0.020665710269701827,0.0066114583629884975,0.0082489961263594,0.05885522846436432,0.019924008210594993,0.014855814912871154, ,0.8462100028991699
0.010807554912233258,0.020686180292623552,-0.08242080404349895, ,0.011098314466586262,0.02051637521647312,-0.08273321219546903, ,0.0004593187735673009, ,0.003038423603680431,0.0010152595868014517,-0.007467765599597491,-0.01159969513154624,-0.00958537039289906,0.02647950218661025, ,0.008125902600605443, ,0.015047665250430322, ,4.662513357680869e-05, ,0.2013393687639072,-0.18718359940545368,0.09600712627,2.263812629858925,1.000725724282086,-0.8917409187828916, ,0.018979388311694156,0.005021323386455895,0.007920841133764296,-0.010324349254280584,0.010477467682895937,0.018646885041178316, ,0.8598051071166992
0.01085133040338981,0.02069863446957097,-0.08253334071011782, ,0.011146088829948653,0.020531288535472817,-0.08284020665858287, ,0.0004572241266752885, ,0.0031579258334200806,0.0010020961315304465,-0.008174983734501288,-0.01663679433689607,-0.008911355690743953,0.01817176443631528, ,0.00882083053264095, ,0.018873133008147518, ,4.692732339583323e-05, ,0.20160966441450506,-0.18707548114521452,0.09612638495,2.2636029399154403,1.0009989972816167,-0.8917187183698627, ,0.01783441863530742,0.007292028101363754,0.008586960388140163,0.0,0.006341690513574503,0.022691984992935437, ,0.8736310005187988
0.010883976517172394,0.020712829727237547,-0.08261232590852645, ,0.011193790252803872,0.020546091463683105,-0.08294693019490244, ,0.000485537050883113, ,0.003186663483602315,0.0013594309577728675,-0.007565945920934038,0.03640287719051311,0.011453217509387166,-0.008426846935830429, ,0.008321443045840914, ,0.03816209682751526, ,4.7284245639270226e-05, ,0.20201896925683896,-0.18697508561784962,0.09629490265000001,2.2642320097458937,1.0016821797804438,-0.8921124504080636, ,0.02081073279791026,0.005368415117258989,0.008287623059313217,0.023668006325722152,0.03499374348287799,-0.012987499706279151, ,0.8895020484924316
0.010952960245621597,0.020739000940056034,-0.08276535888252677, ,0.011241418784285586,0.020560784349420682,-0.08305338326046569, ,0.00044489046291525586, ,0.003532937040850237,0.0012262452680853045,-0.007620985341097002,-0.013431512870592337,-0.00752895031953375,-0.021984378227306957, ,0.008489095308766926, ,0.015397746757225368, ,4.753905714584822e-05, ,0.20223520577731724,-0.18692102648773004,0.0963791615,2.2644416996893786,1.0018188162802093,-0.8918154746110573, ,0.020607370588158695,0.006414663709054165,0.008110392830957231,0.043704300908816045,5.4761768979432986e-05,0.027020660483716867, ,0.905116081237793
0.010985673312593435,0.02074783795336279,-0.08283901058583244, ,0.011288974473690941,0.020575367540562287,-0.08315956631083488, ,0.00047380756689452175, ,0.0034552386600353573,0.001276867872664264,-0.007430557912498336,-0.02945902164522671,-0.002180611727554845,0.00788147216415617, ,0.008293506897147716, ,0.029539617484799226, ,4.784970509050369e-05, ,0.20243599683204708,-0.18685924462473624,0.09645564261,2.2644416996893786,1.0016821797804438,-0.8913773417467986, ,0.020558262902614987,0.00500609240150129,0.007940584007976072,0.03735184378650904,0.0015978228386056422,0.056202566625251124, ,0.9190280437469482
0.011061699840184812,0.02076907439065472,-0.08300469504443549, ,0.011336457370479242,0.020589841384542097,-0.0832654798010982, ,0.0004190761986098653, ,0.0032430312304295742,0.0009277419683471006,-0.006318754727258892,0.014959275864886068,0.0085148678583143,-0.008921565238387764, ,0.007162724204144029, ,0.01721287015501331, ,4.8032195899562993e-05, ,0.20295341993462013,-0.18670478996725173,0.09663453063,2.2644416996893786,1.0022287257795057,-0.8911695834404598, ,0.023010897565099605,0.006698912696813515,0.006995525480895917,0.02268510684272597,0.03464289841699816,0.006270125009663015, ,0.9351339340209961
0.011093172870559343,0.02077944189260571,-0.08306730438383508, ,0.011383867524273093,0.020604206228355265,-0.08337112418586903, ,0.00045554076857181507, ,0.0028110983846028415,0.0008802822073213166,-0.0058292155589671725,0.03446780501908918,0.013519737525196135,-0.0006452850267070777, ,0.006531226908119803, ,0.03702449025784954, ,4.828714332963751e-05, ,0.20317737918797263,-0.18665073083713218,0.09670453029000001,2.264651389632863,1.002638635278802,-0.8913404796712678, ,0.021106970987204356,0.00503019011250458,0.006565874492992582,0.0,0.04979823899821155,-0.016468437370611887, ,0.9491679668426514
0.011124342035362507,0.020789423291491627,-0.08312704072361406, ,0.011431204984855748,0.020618462418553144,-0.08347649991928682, ,0.0004954939144811327, ,0.0033530564111017877,0.00077927626378572,-0.0064073681661368925,-0.02144151121757021,-0.01796236705291457,0.004815285455539427, ,0.0072735565996117114, ,0.02797114625176184, ,4.872125947837867e-05, ,0.2033858929755767,-0.18658894897413839,0.09677064108000001,2.265070769519832,1.0029119082783329,-0.8912366005180985, ,0.02276798022036247,0.006661976702883043,0.006783991277683136,0.014519686658716474,-0.0036323394886952935,0.02671070204769262, ,0.9606120586395264
0.011196327609671297,0.020812555193480284,-0.08327368231543583, ,0.011478469802173468,0.020632610301248456,-0.08358160745501704, ,0.00045475517876805217, ,0.0038488763304899867,0.0011428923129459545,-0.009277990557322353,-0.0350723527937455,-0.019515436846536574,0.05064455433389006, ,0.010109458968122863, ,0.04013629451071177, ,4.905965035733238e-05, ,0.20381836601653325,-0.1864653852481508,0.09692619588000001,2.2659095292937703,1.0027752717785674,-0.8907167889136993, ,0.023688702336113525,0.006574539073851207,0.009736437359413203,-0.01919071967538157,0.0,0.04240758901611796, ,0.9747810363769531
0.011243767761550384,0.020829202359247116,-0.08339364702197088, ,0.01152566202633481,0.020646650222114295,-0.08368644724625174, ,0.00044555766251859144, ,0.003788171453881318,0.0012961593448704582,-0.009774450583974208,-0.017932476104905844,-0.018401560178931086,0.028279774099037334, ,0.010562677512347428, ,0.025694182747305512, ,4.9370760975387105e-05, ,0.20408093893425688,-0.18638815791940855,0.09704804714000001,2.2659095292937703,1.0029119082783329,-0.8905831705969741, ,0.021489343650016028,0.0062703192248804406,0.010336671979234265,-0.014744145382212324,0.0033202357044900582,0.019249987058208046, ,0.9865789413452148
0.011277993123359434,0.020840304550543903,-0.08347950496194359, ,0.011572781707607532,0.020660582526379853,-0.08379101974570931, ,0.0004650180382277911, ,0.003725267965087057,0.001209158016505504,-0.008833656423931998,0.012853687490455793,-0.010976774875958403,-0.007101468341228077, ,0.009662979371635771, ,0.016902864106110853, ,4.971383713875188e-05, ,0.2043048981876094,-0.18631865332354053,0.09714526889000001,2.2656998393502854,1.0031851812778638,-0.8904792914438048, ,0.0229385887257604,0.006815959602436301,0.00944769366548043,0.0,0.01916944365281525,-0.013771632186163495, ,0.9983539581298828
0.011314623547525833,0.020852256510464275,-0.08356782022314405, ,0.011619828896423748,0.020674407558839408,-0.08389532540563624, ,0.0004817055108146548, ,0.0034845427436511916,0.0011613189658578387,-0.008609192136096372,0.027453279582701304,0.007604366524983081,-0.002763938445929398, ,0.009359962024977287, ,0.02848699532765081, ,5.0082155387712e-05, ,0.20452885744096191,-0.1862491487276725,0.09723860177000002,2.2656998393502854,1.00359509077716,-0.8906501876746128, ,0.02177034676725643,0.007715858467658833,0.009347894084507044,0.0,0.042665156630526044,-0.016079022500268943, ,1.0100610256195068
0.011354962511499037,0.020868035462061715,-0.08365671824437558, ,0.011666803643374477,0.020688125663843804,-0.0839993646778054, ,0.0004970100656589783, ,0.0038009301121678814,0.001295400174532439,-0.008098419878106418,-0.006429099423607332,0.0006836903353456818,0.0002974667705045433, ,0.009039332710541878, ,0.006465347402841203, ,5.04720703348007e-05, ,0.2049922214134154,-0.18611013953593647,0.09741878608000001,2.266748289067708,1.0037317272769255,-0.8901081756571847, ,0.021825423541506617,0.006996199157008195,0.007964405760000001,0.0521587076747795,0.012771733230933674,0.011069562765304375, ,1.0243661403656006
0.011425398061259775,0.0208893811246582,-0.08380052513858968, ,0.011713705999211559,0.020701737185304468,-0.08410313801351776, ,0.00045815528714010875, ,0.003184402895021971,0.0004545724488029647,-0.007288564056170964,-0.03444754509875432,-0.02473819158830809,0.06494691170653151, ,0.007966820188126651, ,0.042410039681916194, ,5.077662497231306e-05, ,0.20520073520101945,-0.18604063494006845,0.09749137832000002,2.2669579790111927,1.003868363776691,-0.8898111998601783, ,0.021951640425276607,0.00814100359348529,0.007567131363420429,-0.04461997915218317,0.0,0.029969269887106867, ,1.0365281105041504
0.011461060074578061,0.020896672919122602,-0.0838820456578899, ,0.01176053601484894,0.020715242466695958,-0.08420664586360206, ,0.0004774600940573391, ,0.0034822961086879538,0.000863074343999515,-0.007747164271345707,0.0007652172158951736,-0.00613994952466917,0.008239952237520153, ,0.008537554553797528, ,0.0061874477489466, ,5.1111509360343027e-05, ,0.20544786265299464,-0.18594023941270352,0.09757952604,2.266748289067708,1.0042782732759874,-0.8901454535712676, ,0.022556915036479865,0.008341898191022191,0.008296256,0.0,0.02041040514006186,0.0056165723011812815, ,1.0485799312591553
0.011494126906250346,0.020906879820647973,-0.08396184349405879, ,0.011807293741359174,0.020728641851050687,-0.08430988867841557, ,0.0005009767367574977, ,0.0033906560470002333,0.0010625251745470245,-0.00833179948957812,0.0170453014612503,0.014741370002100644,0.014602606731443608, ,0.009057835884478126, ,0.022535533082067277, ,5.1483746296349624e-05, ,0.20564093097485026,-0.1858707348168355,0.09765989602000001,2.266748289067708,1.0046881827752836,-0.8902346710619352, ,0.02071985623547397,0.007891936424667387,0.009040188149829742,0.0,0.0492640857040631,-0.007804243935993226, ,1.0603079795837402
0.011545030576818079,0.020922019527249487,-0.08407728116627852, ,0.011853979229976315,0.020741935680964413,-0.0844128669078438, ,0.0004904051915743078, ,0.004014448183902881,0.0013545092449747727,-0.010048340593797488,0.0007621682298105086,0.002472978232577365,-0.007292637211271741, ,0.010905028115732749, ,0.002587744057827763, ,5.182750143611517e-05, ,0.205942117556945,-0.1857471710908479,0.09778822873000001,2.2671676689546776,1.0046881827752836,-0.8896629198809513, ,0.02177034676725643,0.009475306400080534,0.010726472404040406,0.023796577732039824,0.02284522259693753,0.014396216172693621, ,1.0767619609832764
0.011611586407199937,0.020945219170855095,-0.0842358450257376, ,0.011900592532092696,0.02075512429859171,-0.08451558100130102, ,0.0004448739335033944, ,0.0036939309826331803,0.0006814631594534038,-0.008710223684133758,-0.03282749131808179,-0.025870397304286807,0.05702437306765071, ,0.00948564783079122, ,0.04179619112771819, ,5.2078267213056564e-05, ,0.20629736326915932,-0.18560816189911186,0.09795674643,2.267796738785131,1.004824819275049,-0.8891209078635232, ,0.023825493738004213,0.009064820589583309,0.009065914354012522,-0.038469998059509625,0.0,0.027690690430892326, ,1.0897700786590576
0.011648212452116606,0.02095434713553626,-0.08431838964734421, ,0.011947133699261871,0.020768208045650983,-0.08461803140773104, ,0.00046237090884474597, ,0.0029666271377328407,0.0005061799667196081,-0.007214806243248886,0.03413758534823459,0.008154568452145121,0.01822767078306659, ,0.007817322038950698, ,0.03509802986635824, ,5.2355862223364723e-05, ,0.2065444907211345,-0.18550776637174696,0.09804748673000001,2.267796738785131,1.0053713652741108,-0.8892398645177466, ,0.020957805114503264,0.010054449037143545,0.007873856411270391,-0.03135687874492808,0.05377412068737135,-0.030879522569453553, ,1.1015560626983643
0.011680334541867392,0.02095986436406413,-0.08439138858341963, ,0.011993602783196663,0.020781187263422124,-0.08472021857560695, ,0.00048804883063201986, ,0.0033768680773930897,0.0007536080390506425,-0.00708328973469761,0.02044924284466974,0.010898776213136507,-0.0028225431793079386, ,0.007883156509565873, ,0.023172285990668555, ,5.2674385405217896e-05, ,0.206768449974487,-0.18540737084438202,0.09812656042000001,2.2675870488416465,1.0057812747734072,-0.889165724528133, ,0.023066830714261247,0.009578366958762756,0.007785342873900294,0.01050149451466626,0.04323694648982352,-0.003080196891591433, ,1.1137681007385254
0.011704815225307627,0.020965112128012352,-0.0844433949146872, ,0.012039999835768263,0.020794062292745625,-0.08482214295293168, ,0.0005339071508309857, ,0.003451488060644641,0.0008455194681415063,-0.007090567094312667,0.0010204568574812961,-0.004295171976919045,0.002414394465460844, ,0.007931192515802928, ,0.0044147272380672285, ,5.306906083710137e-05, ,0.20693062736484574,-0.18534558898138823,0.09818230089,2.2675870488416465,1.0059179112731726,-0.8891137849515482, ,0.022944134806206665,0.007672927607951341,0.007658082461538462,0.009189367363756865,0.020244797776046035,0.009316139660713657, ,1.1258859634399414
0.01175713365003447,0.020977823384574046,-0.0845430630970972, ,0.01208632490900702,0.020806833474024244,-0.08492380498723749, ,0.0005315720284226383, ,0.0033140689684896373,0.0006365204797080621,-0.006661694495895893,-0.006009710679371708,-0.0059205948924898185,-0.010630597591969694, ,0.007467689402060278, ,0.008436234539831219, ,5.354702623070484e-05, ,0.20725498214556318,-0.18522202525540063,0.09828859667,2.2682161186721,1.0059179112731726,-0.8886237125107048, ,0.02113047017556686,0.009705794104977879,0.007111076571428573,0.0232695674585991,0.011216446046038393,0.013566255377213792, ,1.1352901458740234
0.011792588244879462,0.020986405917908554,-0.08461955218079907, ,0.012132578055102303,0.02081950114722392,-0.0850252051255876, ,0.0005549816079369304, ,0.0037830301644873254,0.0010273011963600372,-0.008434493066943305,-0.013906283389250736,-0.012183925942935239,-0.016455756998681965, ,0.009300932118329776, ,0.01848871889553602, ,5.405814095807744e-05, ,0.20747121866604146,-0.18512935246090995,0.09837026294000001,2.2684258086155844,1.0060545477729381,-0.8885717729341203, ,0.021272571521737452,0.0092476782172958,0.00889877738547486,0.03064639483350071,0.0,0.018895265695011897, ,1.1450791358947754
0.011826691421260482,0.020995849244671214,-0.08470406396339239, ,0.012178759326401688,0.020832065651872345,-0.08512634381457551, ,0.0005736698944653298, ,0.003997315721527626,0.0013786035872289653,-0.009613453761809285,-0.016300331144403605,-0.004845527450200153,-0.004404397426165967, ,0.01050226518703168, ,0.017005288870749553, ,5.459320125732778e-05, ,0.20766428698789707,-0.18504440239929348,0.09845970695,2.2684258086155844,1.0061911842727036,-0.888438154617395, ,0.02112106422400863,0.008039013175190674,0.010197702637644048,0.03064639483350071,0.006460805274240626,0.031627692572652515, ,1.1546590328216553
0.011867643051240169,0.021010260618477418,-0.08480983360403067, ,0.012224868775411298,0.020844527327060575,-0.08522722150032579, ,0.0005738383028929903, ,0.004342908135930778,0.0016177856312822017,-0.011058729020217203,0.030546247940546223,0.010684158464617267,-0.02826825899132296, ,0.01199056166192856, ,0.03236084578539266, ,5.511920177587035e-05, ,0.2078959689741238,-0.184959452337677,0.09857378047000001,2.2684258086155844,1.0066010937719998,-0.8886907295883437, ,0.02332766508320324,0.009437630348195036,0.01195856720720721,0.026677816417235056,0.042348868037569855,-0.015339840414860403, ,1.16898512840271
0.011962629820684273,0.02104473793969076,-0.08504875723061432, ,0.01227090645479496,0.02085688651144205,-0.08532783862849397, ,0.000456299319390411, ,0.00429945799019082,0.0015779309828760464,-0.010423412225846484,0.00316787981070638,-0.0019294869037696084,-0.0028938089271951916, ,0.01138519774207114, ,0.00370921274207614, ,5.543237909044758e-05, ,0.2083747784123257,-0.18477410674869563,0.09882655702000001,2.269054878446038,1.0067377302717653,-0.8881487175709156, ,0.023909534280289944,0.007155773841791637,0.011185963146067417,0.017079146775204293,0.022266644074500654,0.011375808753343567, ,1.179800033569336
0.012006408240712972,0.021058931476043735,-0.08514649553819281, ,0.012316872417374588,0.020869143543233905,-0.08542819564426705, ,0.0004601765033035073, ,0.0042477609248025355,0.0012391252584870436,-0.009197095990916797,-0.015092476995464885,0.0054338506933937145,-0.011298215729155636, ,0.010206149075270147, ,0.01604087059397135, ,5.574683717953911e-05, ,0.20861418313142668,-0.18468915668707914,0.09893026022000001,2.269474258333007,1.0067377302717653,-0.8876586451300722, ,0.024116122378264496,0.010357221798511134,0.009875270626162431,0.04943987008900326,0.0167863422487827,0.0428599458863483, ,1.1897270679473877
0.012048578315490721,0.02107080765556978,-0.08523490974481233, ,0.012362766716129434,0.02088129876021641,-0.08552829299236392, ,0.00046978899780420694, ,0.003928291767949001,0.0006856590482500324,-0.009185926846834154,-0.02491314450462485,-0.022613622168895328,0.052991202161657994, ,0.01001413284213723, ,0.03364581119991428, ,5.607231386081085e-05, ,0.2088690333162761,-0.18458876115971423,0.09902618568,2.269893638219976,1.007011003271296,-0.8876364447170434, ,0.025124951431948844,0.010143744665846577,0.009624659528700907,-0.03849106806315987,0.00781337222916523,0.020213169358796742, ,1.1994099617004395
0.012084132598811245,0.021081019104467632,-0.08531320376653857, ,0.012408589404195897,0.020893352499733005,-0.08562813111703513, ,0.0004895612415048975, ,0.0036588974915316708,0.0011123656932264718,-0.008156248493551949,0.0319678565045532,0.016382601106193776,0.03904716632822527, ,0.009008289392419206, ,0.03592121145514073, ,5.6425691685474436e-05, ,0.20910843803537704,-0.184511533830972,0.09911303711000001,2.269893638219976,1.007557549270358,-0.8878370801114075, ,0.02646317388691321,0.005829159897636814,0.009117808540354896,-0.029136101442360385,0.06576214060876322,-0.007063568116438098, ,1.209773063659668
0.012117999167972859,0.02109082847544729,-0.08538985785000058, ,0.012454340534867514,0.02090530509869134,-0.08572771046206358, ,0.0005115553009062525, ,0.0037849414322621688,0.0011878038628933211,-0.00832622591145512,0.026313999772917276,0.006992018949975899,-0.004866870295869553, ,0.009222944084778228, ,0.02722709813823798, ,5.680999125411578e-05, ,0.20933239728872957,-0.18445747470085241,0.09919599967,2.2696839482764917,1.0078308222698886,-0.8877332009582379, ,0.024363784739016885,0.006980849276320353,0.009149231200459506,0.006852121011365376,0.042561662211666455,-0.010588566965127645, ,1.2203779220581055
0.012167633293586482,0.021102061010218318,-0.08549210950052673, ,0.012500020161595064,0.020917156893563365,-0.08582703147076529, ,0.0005067970881220418, ,0.004236347339269085,0.0007151765545661574,-0.008928663047387816,-0.04991164252312291,-0.022443726013321133,0.03657783017238342, ,0.009908538746804295, ,0.054725614112328076, ,5.718000310104512e-05, ,0.20964902933657276,-0.18433391097486482,0.09930618432,2.269893638219976,1.0081040952694196,-0.8876293218050686, ,0.02589982029434246,0.011516619121173638,0.009298780805604204,0.003382189035364557,-0.010028644491037733,0.05690465424195151, ,1.229905128479004
0.012211130128643232,0.021115065992465445,-0.0855831015833551, ,0.012545628337984775,0.02092890822038393,-0.08592609458598824, ,0.0005139921867250046, ,0.0044498628786004,0.0014221726533919807,-0.009885599934067058,-0.0067556277757913254,-0.010083696502502055,-0.028465305681058733, ,0.010933843823231995, ,0.01213751817260158, ,5.7555772740616416e-05, ,0.2098807113227995,-0.18424123818037413,0.09940210978000001,2.2705227080504296,1.007967458769654,-0.8872728676809505, ,0.02433878983289838,0.008813247729259439,0.010527965313945805,0.042475600046543736,0.004617316735150129,0.016409478360192613, ,1.2398631572723389
0.012258470468821343,0.021128260819481555,-0.08568754116493749, ,0.012591165117800996,0.020940559414754426,-0.0860249002501143, ,0.0005096358495510026, ,0.005128837295146876,0.001632309312816862,-0.010689884733353286,0.0028993786381647964,-0.014465816499240858,-0.059116888054846266, ,0.011968418496408699, ,0.014753511578050922, ,5.7918284155400595e-05, ,0.21015872970627159,-0.1841408426530092,0.09951359072,2.2707323979939145,1.0081040952694196,-0.8870575706240846, ,0.028739231241208592,0.00963594660567901,0.011434896999282127,0.06328474723550209,0.002640106051985294,0.0038281286452866523, ,1.249819040298462
0.012309959410023153,0.021145165970386806,-0.08580316982567407, ,0.01263663055496243,0.020952110811838984,-0.08612344890505819, ,0.0004965511251311389, ,0.004677911999907507,0.001399454250646089,-0.011284848533370952,0.011683122130270498,-0.007423747944488508,0.021506597741572642, ,0.012295899287959973, ,0.013842225010542598, ,5.825371317380276e-05, ,0.21046763902124055,-0.18404816985851852,0.09963933085000001,2.270942087937399,1.008514004768716,-0.8873101455950334, ,0.028251545566677815,0.008788396886741398,0.012122383196347033,-0.020033898183884208,0.03418038211116723,-0.006581889500447413, ,1.2601101398468018
0.012339301293991781,0.021153530357908602,-0.0858767546959636, ,0.012682024703544903,0.020963562746367813,-0.08622174099226873, ,0.0005220752565756748, ,0.0047601464464185955,0.0015567735395721378,-0.01122637364461937,0.04355476117522518,0.009421940085152257,-0.019351582513204766, ,0.012292843578825362, ,0.044562203689675915, ,5.862478502381347e-05, ,0.21064526187734772,-0.18398638799552472,0.09971840454000001,2.2707323979939145,1.008787277768247,-0.8875329814024262, ,0.02853185254313613,0.009618551676676872,0.012271811648690295,0.008924128199820447,0.05564354759484973,-0.03022678268840427, ,1.2700181007385254
0.012401059240446502,0.021171255432966902,-0.08601991034332847, ,0.012727347617778806,0.020974915552635216,-0.08631977695272838, ,0.0004846993266178631, ,0.00474384413871128,0.0012503525918129829,-0.01037107788113993,-0.0416939523553544,-0.027412771888676354,0.023404593305625516, ,0.011472867785907268, ,0.04989835273481714, ,5.902446583295502e-05, ,0.21064526187734772,-0.18398638799552472,0.09971840454000001,2.2707323979939145,1.008787277768247,-0.8875329814024262, ,0.02853185254313613,0.009618551676676872,0.012271811648690295,0.008924128199820447,0.05564354759484973,-0.03022678268840427, ,1.278136968612671
0.012401059240446502,0.021171255432966902,-0.08601991034332847, ,0.012772599352050749,0.020986169564501445,-0.08641755722695406, ,0.0005748233444230087, ,0.00474384413871128,0.0012503525918129829,-0.01037107788113993,-0.0416939523553544,-0.027412771888676354,0.023404593305625516, ,0.011472867785907268, ,0.04989835273481714, ,5.956212532675055e-05, ,0.2110082303224363,-0.18386282426953712,0.09987136676000001,2.2707323979939145,1.0090605507677777,-0.8874291022492568, ,0.027442724568672867,0.008777217612146258,0.010872908887372013,0.00778949874127666,-0.013006254756578428,0.045926906588263046, ,1.2856531143188477
0.012452509881709973,0.02118585315820542,-0.0861203599841537, ,0.012817779960901903,0.020997325115391773,-0.08651508225499721, ,0.0005698865894016836, ,0.005115770673555231,0.0011017897223706682,-0.010211740310945405,-0.008681394182648905,-0.032408279418304514,-0.039294649110712024, ,0.011474523534984654, ,0.033550902652007455, ,6.008521379377686e-05, ,0.21130941690453103,-0.18376242874217222,0.09997895883,2.271361467824368,1.0090605507677777,-0.8871023872886945, ,0.03066137045507941,0.011969951505986365,0.010762710486486488,0.03283674051998472,-0.009494445347236119,-0.0033409128339652386, ,1.2973871231079102
0.012452509881709973,0.02118585315820542,-0.0861203599841537, ,0.012862889499029098,0.0210083825382982,-0.08661235247644414, ,0.0006648036279318908, ,0.005115770673555231,0.0011017897223706682,-0.010211740310945405,-0.008681394182648905,-0.032408279418304514,-0.039294649110712024, ,0.011474523534984654, ,0.033550902652007455, ,6.075051594543327e-05, ,0.21130941690453103,-0.18376242874217222,0.09997895883,2.271361467824368,1.0090605507677777,-0.8871023872886945, ,0.03066137045507941,0.011969951505986365,0.010762710486486488,0.03283674051998472,-0.009494445347236119,-0.0033409128339652386, ,1.3051669597625732
0.012452509881709973,0.02118585315820542,-0.0861203599841537, ,0.012907928021283092,0.021019342165777444,-0.08670936833041591, ,0.0007629301569725372, ,0.005115770673555231,0.0011017897223706682,-0.010211740310945405,-0.008681394182648905,-0.032408279418304514,-0.039294649110712024, ,0.011474523534984654, ,0.033550902652007455, ,6.15603727884096e-05, ,0.21130941690453103,-0.18376242874217222,0.09997895883,2.271361467824368,1.0090605507677777,-0.8871023872886945, ,0.03066137045507941,0.011969951505986365,0.010762710486486488,0.03283674051998472,-0.009494445347236119,-0.0033409128339652386, ,1.312615156173706
0.012603978432967225,0.021225202898621773,-0.08643677173685418, ,0.012952895582669254,0.02103020432995296,-0.0868061302555693, ,0.0005442364692727746, ,0.00338866962317607,0.0003333203911988045,-0.006813466518542186,0.024435714846691194,0.009019850493547983,0.02596263791736986, ,0.007616922626462773, ,0.026047300211555303, ,6.202166532419773e-05, ,0.21222842211656376,-0.18343035122858056,0.1003198831,2.2722002275983058,1.0097437332666048,-0.8870877256261928, ,0.025278886936193606,0.011346985584518922,0.007531352964539008,-0.024699561682320185,0.054847341226700055,-0.013065433836360718, ,1.3204431533813477
0.012603978432967225,0.021225202898621773,-0.08643677173685418, ,0.012997792238346639,0.021040969362513543,-0.0869026386900963, ,0.0006372309842258555, ,0.00338866962317607,0.0003333203911988045,-0.006813466518542186,0.024435714846691194,0.009019850493547983,0.02596263791736986, ,0.007616922626462773, ,0.026047300211555303, ,6.262034889793476e-05, ,0.21222842211656376,-0.18343035122858056,0.1003198831,2.2722002275983058,1.0097437332666048,-0.8870877256261928, ,0.025278886936193606,0.011346985584518922,0.007531352964539008,-0.024699561682320185,0.054847341226700055,-0.013065433836360718, ,1.3283591270446777
0.01264789148011277,0.021229349847031745,-0.0865263616034021, ,0.01304261804362902,0.02105163759471581,-0.08699889407172523, ,0.000640841351808775, ,0.005050337459137782,0.0009198782976624566,-0.011080651831978216,-0.003830040196816704,-0.012590938754818887,0.0076390680202512926, ,0.012211999408581824, ,0.013160576719676827, ,6.321722956493328e-05, ,0.21252188596578428,-0.18329134203684452,0.10041451227,2.2719905376548213,1.0098803697663703,-0.8869541073094676, ,0.030760759014091015,0.014523560079349674,0.011790386025166546,0.0,0.022796753270666822,0.0056977076778704, ,1.3366680145263672
0.012689813773901316,0.021239751489670264,-0.08661975722991083, ,0.013087373053983763,0.02106220935738305,-0.08709489683772059, ,0.0006444627505344103, ,0.005565611375725678,0.0016031332291593357,-0.013326534834827678,-0.022468326450503104,-0.008722969545052684,0.021588245163362274, ,0.014530746602976652, ,0.024102188092460664, ,6.381235696960605e-05, ,0.21275356795201103,-0.1831909465094796,0.10051303031000001,2.2722002275983058,1.0098803697663703,-0.8867090710890458, ,0.030116452414621003,0.012206964440245792,0.014146369023090587,0.011245642410415667,0.016313589731822526,0.038690335992230186, ,1.3449959754943848
0.012783694845988491,0.021273162229044584,-0.08682943943333142, ,0.013132057325031516,0.021072684980905153,-0.08719064742488303, ,0.0005403875988467044, ,0.0066314404021323315,0.002357175671003207,-0.014969342041092236,-0.013084723770421382,-0.001895979548830386,-0.054471365073794485, ,0.0165412659761644, ,0.013221345731484828, ,6.424307928224695e-05, ,0.21275356795201103,-0.1831909465094796,0.10051303031000001,2.2722002275983058,1.0098803697663703,-0.8867090710890458, ,0.030116452414621003,0.012206964440245792,0.014146369023090587,0.011245642410415667,0.016313589731822526,0.038690335992230186, ,1.352405071258545
0.012783694845988491,0.021273162229044584,-0.08682943943333142, ,0.013176670912545544,0.021083064795238485,-0.0872861462695503, ,0.0006317818907466169, ,0.0066314404021323315,0.002357175671003207,-0.014969342041092236,-0.013084723770421382,-0.001895979548830386,-0.054471365073794485, ,0.0165412659761644, ,0.013221345731484828, ,6.480585641981096e-05, ,0.2132478228559614,-0.1830287691191209,0.10073858477000001,2.2732486773157285,1.0101536427659012,-0.8864418344555953, ,0.03299615492297315,0.01257246178570095,0.016008855798994977,0.0915792869693251,0.008742057857190056,0.04285387415866632, ,1.361983060836792
0.012841214833193636,0.021293297704298664,-0.08697309273343552, ,0.013221213872453598,0.021093349129909036,-0.08738139380759698, ,0.0005925271887435517, ,0.005882640079981025,0.0018104743667912903,-0.01626563989484457,0.04645716679055103,0.012885681735570075,0.0223472427006468, ,0.01739121367047644, ,0.04821107758011524, ,6.530332472289202e-05, ,0.2135412867051819,-0.18289748266025907,0.10089413957000001,2.2736680572026975,1.010700188764963,-0.8866424698499592, ,0.03149583191452731,0.014818385627493876,0.017523445016501653,-0.03552049090692565,0.07695074994518067,-0.0375336920583808, ,1.3696279525756836
0.012904299343197187,0.021314500872869936,-0.08713579300091336, ,0.013265686260834117,0.021103538314007433,-0.0874763904744344, ,0.0005395482781455724, ,0.005778076186134703,0.001780902001165791,-0.01471171136993127,-0.014078582217829002,-0.0017065015768464049,0.0558369996557234, ,0.01590572940115285, ,0.01418160554177239, ,6.571628463276443e-05, ,0.21387336421877357,-0.18276619620139725,0.10106913872,2.2736680572026975,1.0112467347640248,-0.8866797477640421, ,0.03148538206983105,0.01147906528405447,0.01570888710059172,-0.0218255164460578,0.03651163527968911,0.03463914313836224, ,1.3774781227111816
0.012962323506585861,0.021328180392713506,-0.0872716132829313, ,0.013310088133919215,0.02111363267619409,-0.08757113670501267, ,0.0005066411343972518, ,0.005195370516516788,0.0010638226834038655,-0.012125123320864104,-0.017305145469650153,-0.014777639500660814,0.033828962662746834, ,0.013234130460735948, ,0.022756239295171104, ,6.607583624908625e-05, ,0.21417455080086834,-0.18263490974253543,0.10120784175000001,2.2736680572026975,1.0112467347640248,-0.8861079965830582, ,0.029983235879453642,0.013662099274182375,0.012908275137763372,-0.01595110901682283,0.019490562717546716,0.018111442191093695, ,1.3875489234924316
0.013013868172189058,0.021337053272266128,-0.08738537186651074, ,0.013354419548093343,0.02112363254469729,-0.08766563293381859, ,0.0004899692974410184, ,0.005483912830019606,0.0009471768676856582,-0.011090797570821693,-0.03736093061901227,-0.01488520461550582,0.043226042217121945, ,0.012408716077937991, ,0.04021701487375273, ,6.650423828828412e-05, ,0.21449890558158577,-0.1824959005507994,0.10133098930000001,2.273458367259213,1.0112467347640248,-0.8856179241422149, ,0.03454566492845678,0.013811227122467002,0.011807866212008898,0.0,0.01298574461024206,0.054025854214985784, ,1.3946750164031982
0.013013868172189058,0.021337053272266128,-0.08738537186651074, ,0.013398680559892243,0.021133538247312903,-0.08775987959487767, ,0.0005742429605298602, ,0.005483912830019606,0.0009471768676856582,-0.011090797570821693,-0.03736093061901227,-0.01488520461550582,0.043226042217121945, ,0.012408716077937991, ,0.04021701487375273, ,6.705208952463648e-05, ,0.21449890558158577,-0.1824959005507994,0.10133098930000001,2.273458367259213,1.0112467347640248,-0.8856179241422149, ,0.03454566492845678,0.013811227122467002,0.011807866212008898,0.0,0.01298574461024206,0.054025854214985784, ,1.4004440307617188
0.013070264903807539,0.02134904499578367,-0.08748780877554413, ,0.013442871226003444,0.021143350111405307,-0.08785387712175338, ,0.0005613839068731515, ,0.0053772378024800295,0.0009399956043941453,-0.009586378307282997,-0.00791727866327568,-0.019737236435337632,-0.0035696948034810365, ,0.011031633023766092, ,0.0212659757024207, ,6.757643834312154e-05, ,0.21486959675954853,-0.18236461409193758,0.10144376653,2.273877747146182,1.011656644263321,-0.8856254628927419, ,0.03601401956678208,0.011979535925099075,0.010350104951267057,0.016677342286254695,0.01421406405345963,0.014103631083530877, ,1.4063711166381836
0.013125478835581673,0.021361290248478083,-0.08758423962059417, ,0.013486991603266819,0.021153068463908575,-0.08794762594754839, ,0.0006507686030825463, ,0.0053772378024800295,0.0009399956043941453,-0.009586378307282997,-0.00791727866327568,-0.019737236435337632,-0.0035696948034810365, ,0.011031633023766092, ,0.0212659757024207, ,6.822577064464789e-05, ,0.21486959675954853,-0.18236461409193758,0.10144376653,2.273877747146182,1.011656644263321,-0.8856254628927419, ,0.03601401956678208,0.011979535925099075,0.010350104951267057,0.016677342286254695,0.01421406405345963,0.014103631083530877, ,1.4125900268554688
0.013125478835581673,0.021361290248478083,-0.08758423962059417, ,0.01353104174867257,0.021162693631324614,-0.08804112650490382, ,0.0006423920281835406, ,0.00559892836607687,0.0013777324025656536,-0.009834254311576203,0.06650380681233546,0.037489512705602496,-0.08291929773043236, ,0.011399943126450002, ,0.07634277825343437, ,6.885739361181902e-05, ,0.21524028793751132,-0.18222560490020154,0.10155265489000001,2.274506816976636,1.0123398267621484,-0.8857741587105211, ,0.03654098635289595,0.014806825020825521,0.011225378097251586,0.0888396839160215,0.08251392898190012,-0.021472195459605214, ,1.4229919910430908
0.013181883389844062,0.021371168633950173,-0.08769954731275809, ,0.01357502171936245,0.021172225939725075,-0.08813437922600016, ,0.0006190434027560696, ,0.005736659351742293,0.0012203918869816035,-0.011935199404189191,0.026974323421080238,0.008768465362838769,-0.05194692615736163, ,0.013298405983180875, ,0.028363706856803766, ,6.945002467779692e-05, ,0.21559553364972564,-0.18205570477696859,0.10167839502,2.2747165069201203,1.01288637276121,-0.8859747941048851, ,0.0331807487966681,0.017213303384449624,0.012960790496338487,0.055711617410304705,0.044651597140979146,-0.008798661469165605, ,1.429037094116211
0.013240929380650494,0.0213842561804767,-0.08782988800129954, ,0.013618931572627835,0.021181665714749772,-0.08822738454255714, ,0.0005847495654165869, ,0.005406324088446079,0.001291911749335619,-0.012573527444401156,-0.017352974641168792,-0.00967007516514441,0.02805722043582747, ,0.013747398608918444, ,0.019865441559126645, ,6.998850749808762e-05, ,0.21591988843044307,-0.18190897285235832,0.10181580176,2.2749261968636048,1.01288637276121,-0.8855664004041822, ,0.03020271851001616,0.012951677570420468,0.013374316977329978,-0.0025642443739738747,0.020985843145637017,0.02868021406721808, ,1.4349861145019531
0.013240929380650494,0.0213842561804767,-0.08782988800129954, ,0.01366277136591202,0.021191013281609546,-0.08832014288583465, ,0.0006750135778652886, ,0.005406324088446079,0.001291911749335619,-0.012573527444401156,-0.017352974641168792,-0.00967007516514441,0.02805722043582747, ,0.013747398608918444, ,0.019865441559126645, ,7.065096911542525e-05, ,0.21591988843044307,-0.18190897285235832,0.10181580176,2.2749261968636048,1.01288637276121,-0.8855664004041822, ,0.03020271851001616,0.012951677570420468,0.013374316977329978,-0.0025642443739738747,0.020985843145637017,0.02868021406721808, ,1.4405300617218018
0.013301694044597533,0.021396065467656676,-0.08797100847193935, ,0.013706541156808815,0.021200268965085374,-0.0884126546866326, ,0.0006303085225806861, ,0.0066353959505619136,0.0015223862435321187,-0.015031036514512838,-0.011315578995302049,-0.022560576923977338,-0.0012324935551641133, ,0.01650085446259822, ,0.025239278751143512, ,7.12443813356159e-05, ,0.21625968867690895,-0.18175451819487384,0.10196357882000001,2.2747165069201203,1.01288637276121,-0.8853213641837605, ,0.03668223485058786,0.016199546186150698,0.015928811520000002,0.01001759008556298,0.013916854388971561,0.010218679673425265, ,1.4468410015106201
0.013301694044597533,0.021396065467656676,-0.08797100847193935, ,0.013750241003059131,0.021209433089524745,-0.08850492037529015, ,0.0007218642109510616, ,0.0066353959505619136,0.0015223862435321187,-0.015031036514512838,-0.011315578995302049,-0.022560576923977338,-0.0012324935551641133, ,0.01650085446259822, ,0.025239278751143512, ,7.196208058271226e-05, ,0.2166303798548717,-0.1815923408045151,0.10213209652,2.2751358868070892,1.0130230092609755,-0.8851060671268948, ,0.03794359918371483,0.01619678128664803,0.017639879867109635,0.017186421964687396,0.0,0.053271101469137355, ,1.4527339935302734
0.013371896761196135,0.02141475769675829,-0.08812946553649277, ,0.013793870962557696,0.02121850597885021,-0.08859694038168858, ,0.0006596284516964437, ,0.007227723750549461,0.0018446058152228753,-0.016739357491464216,-0.04343325310990908,-0.025044441790028914,0.02202653814204776, ,0.018326173917510714, ,0.050136515893960426, ,7.258619058263955e-05, ,0.2166303798548717,-0.1815923408045151,0.10213209652,2.2751358868070892,1.0130230092609755,-0.8851060671268948, ,0.03794359918371483,0.01619678128664803,0.017639879867109635,0.017186421964687396,0.0,0.053271101469137355, ,1.458812952041626
0.013371896761196135,0.02141475769675829,-0.08812946553649277, ,0.013837431093345221,0.02122748795655051,-0.08868871513524862, ,0.000751366943454104, ,0.007227723750549461,0.0018446058152228753,-0.016739357491464216,-0.04343325310990908,-0.025044441790028914,0.02202653814204776, ,0.018326173917510714, ,0.050136515893960426, ,7.333354124329246e-05, ,0.2166303798548717,-0.1815923408045151,0.10213209652,2.2751358868070892,1.0130230092609755,-0.8851060671268948, ,0.03794359918371483,0.01619678128664803,0.017639879867109635,0.017186421964687396,0.0,0.053271101469137355, ,1.4686501026153564
0.013455529336258924,0.0214416541063937,-0.08831031145638088, ,0.013880921453614085,0.02123637934568777,-0.08878024506493297, ,0.0006662835562563225, ,0.00759824704012916,0.0025254404623843716,-0.016300311976475013,0.04639588880853426,0.005088872092896126,-0.0803639994573705, ,0.01816070973674472, ,0.04667412523835281, ,7.395597211153018e-05, ,0.21708602109445096,-0.1814301634141564,0.10232913260000001,2.275974646581027,1.0135695552600372,-0.8853067025212589, ,0.04163972863469539,0.013554769541275642,0.01779755477094972,0.07587389951030757,0.049776152782570575,-0.023065855968077125, ,1.4747209548950195
0.013541776507927365,0.021463228733422095,-0.08851112956710935, ,0.013924342101703478,0.02124518046889244,-0.08887153059924474, ,0.0005690258194229121, ,0.00700629892532365,0.0017292285326642141,-0.015301853987587296,0.01222624089113076,0.004514805326707948,-0.0260651259722135, ,0.016918191138730304, ,0.013033172850329657, ,7.443813586581953e-05, ,0.2175725532655271,-0.18122164962655235,0.10254561303000001,2.275974646581027,1.0142527377588644,-0.885292040858757, ,0.03887625627139319,0.01773443123873496,0.01652366340248963,0.04520975043287857,0.044231559808398574,0.011493998485812701, ,1.48038911819458
0.013541776507927365,0.021463228733422095,-0.08851112956710935, ,0.01396769309610407,0.021253891648369185,-0.08896257216622998, ,0.0006550018134046037, ,0.00700629892532365,0.0017292285326642141,-0.015301853987587296,0.01222624089113076,0.004514805326707948,-0.0260651259722135, ,0.016918191138730304, ,0.013033172850329657, ,7.513914077118375e-05, ,0.2175725532655271,-0.18122164962655235,0.10254561303000001,2.275974646581027,1.0142527377588644,-0.885292040858757, ,0.03887625627139319,0.01773443123873496,0.01652366340248963,0.04520975043287857,0.044231559808398574,0.011493998485812701, ,1.4842629432678223
0.013608378225138714,0.02147627391763228,-0.08865229642524675, ,0.014010974495452973,0.02126251320589143,-0.08905337019347559, ,0.0006071553065865362, ,0.0064475122449843755,0.0013591161893714348,-0.012885608817565695,-0.019965518435844654,-0.008429987784787553,0.006518124589974281, ,0.01447261294876505, ,0.021672246427663803, ,7.577018638588564e-05, ,0.21795868990923833,-0.18106719496906784,0.10269468638000001,2.275974646581027,1.0142527377588644,-0.8848019684179136, ,0.03835769666874324,0.01513507839848019,0.01386319540469974,0.031165383741241722,0.02197082061134045,0.042731397624242, ,1.4884090423583984
0.013608378225138714,0.02147627391763228,-0.08865229642524675, ,0.014054186358536207,0.021271045462804786,-0.08914392510811087, ,0.0006946670945776456, ,0.0064475122449843755,0.0013591161893714348,-0.012885608817565695,-0.019965518435844654,-0.008429987784787553,0.006518124589974281, ,0.01447261294876505, ,0.021672246427663803, ,7.651829481812513e-05, ,0.21795868990923833,-0.18106719496906784,0.10269468638000001,2.275974646581027,1.0142527377588644,-0.8848019684179136, ,0.03835769666874324,0.01513507839848019,0.01386319540469974,0.031165383741241722,0.02197082061134045,0.042731397624242, ,1.4925000667572021
0.013671073205995648,0.021488849760991358,-0.08878236433783698, ,0.01409732874428672,0.021279488740025505,-0.08923423733680741, ,0.0006555265274740621, ,0.006926941774285274,0.0013422425797126971,-0.015238076169808028,-0.038309855735658684,-0.03188279044657901,0.02514921389428545, ,0.01679235251071164, ,0.049841313702247626, ,7.720852824922103e-05, ,0.21832165835432688,-0.18091274031158336,0.10283338941,2.276184336524512,1.0143893742586299,-0.8844233138807667, ,0.038623093837391445,0.01722580169876035,0.01604109921450151,0.0,0.0,0.036625775503425835, ,1.4969019889831543
0.013671073205995648,0.021488849760991358,-0.08878236433783698, ,0.014140401711787773,0.02128784335804441,-0.08932430730578, ,0.0007445636311811297, ,0.006926941774285274,0.0013422425797126971,-0.015238076169808028,-0.038309855735658684,-0.03188279044657901,0.02514921389428545, ,0.01679235251071164, ,0.049841313702247626, ,7.801694821453978e-05, ,0.21832165835432688,-0.18091274031158336,0.10283338941,2.276184336524512,1.0143893742586299,-0.8844233138807667, ,0.038623093837391445,0.01722580169876035,0.01604109921450151,0.0,0.0,0.036625775503425835, ,1.5010230541229248
0.013671073205995648,0.021488849760991358,-0.08878236433783698, ,0.014183405320267356,0.021296109636921353,-0.08941413544078576, ,0.0008359232484276015, ,0.006926941774285274,0.0013422425797126971,-0.015238076169808028,-0.038309855735658684,-0.03188279044657901,0.02514921389428545, ,0.01679235251071164, ,0.049841313702247626, ,7.894575880470169e-05, ,0.21832165835432688,-0.18091274031158336,0.10283338941,2.276184336524512,1.0143893742586299,-0.8844233138807667, ,0.038623093837391445,0.01722580169876035,0.01604109921450151,0.0,0.0,0.036625775503425835, ,1.504760980606079
0.013737251099436493,0.021505852603993892,-0.08892650147804648, ,0.01422633962910287,0.02130428789629088,-0.08950372216712564, ,0.000782955710844258, ,0.007849395411265444,0.0019903856070012096,-0.017792901689228008,0.03386272719057682,-0.004400938015608383,-0.028459373302400986, ,0.019548964006040972, ,0.034147485483732254, ,7.979734489902711e-05, ,0.21869234953228966,-0.18075056292122466,0.10299024050000001,2.276603716411481,1.0149359202576917,-0.8844605917948496, ,0.043450980567065374,0.018516476401652836,0.019191339180722893,0.019471870838277373,0.053877469076779476,-0.02602191138251066, ,1.5092239379882812
0.013737251099436493,0.021505852603993892,-0.08892650147804648, ,0.014269204697816874,0.021312378455358036,-0.08959306790964344, ,0.0008744813804490696, ,0.007849395411265444,0.0019903856070012096,-0.017792901689228008,0.03386272719057682,-0.004400938015608383,-0.028459373302400986, ,0.019548964006040972, ,0.034147485483732254, ,8.076865833741164e-05, ,0.21869234953228966,-0.18075056292122466,0.10299024050000001,2.276603716411481,1.0149359202576917,-0.8844605917948496, ,0.043450980567065374,0.018516476401652836,0.019191339180722893,0.019471870838277373,0.053877469076779476,-0.02602191138251066, ,1.5132169723510742
0.013813245810121362,0.021532949158072752,-0.08909145379525683, ,0.014312000586080842,0.02132038163290292,-0.08968217309272744, ,0.0008018045695201452, ,0.007849395411265444,0.0019903856070012096,-0.017792901689228008,0.03386272719057682,-0.004400938015608383,-0.028459373302400986, ,0.019548964006040972, ,0.034147485483732254, ,8.163622914072509e-05, ,0.21909393164174934,-0.1806038309966144,0.10317301739000001,2.2776521661289033,1.0157557392562842,-0.8847207055163253, ,0.047142047470676005,0.016166429567030797,0.02185022156378601,0.11603709139551248,0.07924735128453263,-0.0201780028553011, ,1.5171160697937012
0.013813245810121362,0.021532949158072752,-0.08909145379525683, ,0.014354727353709934,0.021328297747275644,-0.0897710381403088, ,0.0008927033908460436, ,0.009066988131568823,0.003274507360836256,-0.01985427489293531,0.06874291542335922,0.029268398377420686,-0.10910271482479122, ,0.022070906274061837, ,0.07471428564455446, ,8.262194661716373e-05, ,0.21909393164174934,-0.1806038309966144,0.10317301739000001,2.2776521661289033,1.0157557392562842,-0.8847207055163253, ,0.047142047470676005,0.016166429567030797,0.02185022156378601,0.11603709139551248,0.07924735128453263,-0.0201780028553011, ,1.521083116531372
0.013813245810121362,0.021532949158072752,-0.08909145379525683, ,0.014397385060668393,0.021336127116402346,-0.0898596634758645, ,0.000984938421169718, ,0.009066988131568823,0.003274507360836256,-0.01985427489293531,0.06874291542335922,0.029268398377420686,-0.10910271482479122, ,0.022070906274061837, ,0.07471428564455446, ,8.372665622354565e-05, ,0.21909393164174934,-0.1806038309966144,0.10317301739000001,2.2776521661289033,1.0157557392562842,-0.8847207055163253, ,0.047142047470676005,0.016166429567030797,0.02185022156378601,0.11603709139551248,0.07924735128453263,-0.0201780028553011, ,1.5250251293182373
0.013932612995098001,0.02156945794078998,-0.08937381190076747, ,0.014439973767063968,0.02134387005777996,-0.08994804952241418, ,0.00079878263126167, ,0.00937885421066438,0.0024320063204747427,-0.023906978377113024,-0.0534536809815053,-0.027322753555938682,0.08053411870194198, ,0.02579575887954211, ,0.0600318337454991, ,8.457521713593084e-05, ,0.2196808593401904,-0.18036442627751342,0.10347375667000001,2.278281235959357,1.016029012255815,-0.8841267539223124, ,0.04622354678931845,0.021310788582634355,0.025163999241706165,-0.032590417644428785,0.017786412754167306,0.06211871865859983, ,1.5289130210876465
0.013932612995098001,0.02156945794078998,-0.08937381190076747, ,0.01448249353315273,0.021351526888481732,-0.09003619670252462, ,0.0008880406383102046, ,0.00937885421066438,0.0024320063204747427,-0.023906978377113024,-0.0534536809815053,-0.027322753555938682,0.08053411870194198, ,0.02579575887954211, ,0.0600318337454991, ,8.553887692686696e-05, ,0.2196808593401904,-0.18036442627751342,0.10347375667000001,2.278281235959357,1.016029012255815,-0.8841267539223124, ,0.04622354678931845,0.021310788582634355,0.025163999241706165,-0.032590417644428785,0.017786412754167306,0.06211871865859983, ,1.5325469970703125
0.013932612995098001,0.02156945794078998,-0.08937381190076747, ,0.014524944419335216,0.021359097925153576,-0.09012410543830596, ,0.0009787993894508976, ,0.00937885421066438,0.0024320063204747427,-0.023906978377113024,-0.0534536809815053,-0.027322753555938682,0.08053411870194198, ,0.02579575887954211, ,0.0600318337454991, ,8.66187186856867e-05, ,0.2196808593401904,-0.18036442627751342,0.10347375667000001,2.278281235959357,1.016029012255815,-0.8841267539223124, ,0.04622354678931845,0.021310788582634355,0.025163999241706165,-0.032590417644428785,0.017786412754167306,0.06211871865859983, ,1.5362861156463623
0.014036877954880327,0.021597030536421306,-0.08963612174331721, ,0.01456732648615462,0.0213665834840128,-0.09021177615141354, ,0.0008160021359381106, ,0.010343795591623852,0.002754438659041662,-0.025521777572282866,-0.06681993277941507,-0.03586728336372292,0.055162772881358776, ,0.027675660245363633, ,0.07583768591129893, ,8.747573828377568e-05, ,0.2201905597098892,-0.1801327442912867,0.10374986644,2.2780715460158727,1.0161656487555806,-0.8834213844246034, ,0.04991948530166796,0.02264303067489162,0.026816181010101015,0.0,0.0,0.0762278915377931, ,1.540369987487793
0.014036877954880327,0.021597030536421306,-0.08963612174331721, ,0.01460963979430348,0.02137398388085533,-0.0902992092630497, ,0.000904152085704358, ,0.010343795591623852,0.002754438659041662,-0.025521777572282866,-0.06681993277941507,-0.03586728336372292,0.055162772881358776, ,0.027675660245363633, ,0.07583768591129893, ,8.844541994486184e-05, ,0.2206616464152169,-0.1799165077708084,0.10400912444000002,2.2784909259028416,1.0169854677541732,-0.8835181406657978, ,0.05077417953904269,0.02163632958469466,0.02686140222596965,0.037701423785982,0.09532822944363,-0.030337440618800633, ,1.5472230911254883
0.014133538293672391,0.021627648783310062,-0.08987616744357342, ,0.014651884404616396,0.021381299431048807,-0.09038640519396149, ,0.0007679278976644818, ,0.010117931158703467,0.0032204287748635796,-0.02476151045024403,0.06243138088511695,0.021652042464961357,-0.03864482017392443, ,0.02694208774768162, ,0.06607933832522266, ,8.922928872175146e-05, ,0.2206616464152169,-0.1799165077708084,0.10400912444000002,2.2784909259028416,1.0169854677541732,-0.8835181406657978, ,0.05077417953904269,0.02163632958469466,0.02686140222596965,0.037701423785982,0.09532822944363,-0.030337440618800633, ,1.5521979331970215
0.014133538293672391,0.021627648783310062,-0.08987616744357342, ,0.01469406037807343,0.021388530449536564,-0.09047336436444274, ,0.0008532331140688903, ,0.010117931158703467,0.0032204287748635796,-0.02476151045024403,0.06243138088511695,0.021652042464961357,-0.03864482017392443, ,0.02694208774768162, ,0.06607933832522266, ,9.012184763263159e-05, ,0.2206616464152169,-0.1799165077708084,0.10400912444000002,2.2784909259028416,1.0169854677541732,-0.8835181406657978, ,0.05077417953904269,0.02163632958469466,0.02686140222596965,0.037701423785982,0.09532822944363,-0.030337440618800633, ,1.5560550689697266
0.014232654473325248,0.02165846438206641,-0.09010705869828121, ,0.014736167775798224,0.021395677250836045,-0.09056008719433328, ,0.0007265105232154083, ,0.010413429014303097,0.0030924246161708278,-0.022444325650667785,0.007101460552407256,0.0022876610301626986,-0.06900244217567668, ,0.024934922252853584, ,0.007460458394351792, ,9.084251627108825e-05, ,0.2211559013191673,-0.17971571671607856,0.10425801212000001,2.279119995733295,1.0175320137532349,-0.8833103823594589, ,0.05325305362428214,0.021144594821406144,0.024244766392694066,0.10638288496434924,0.04056655957676268,0.033714370462064144, ,1.5601699352264404
0.014232654473325248,0.02165846438206641,-0.09010705869828121, ,0.01477820665905851,0.02140274014903992,-0.09064657410301956, ,0.0008087638361507671, ,0.010413429014303097,0.0030924246161708278,-0.022444325650667785,0.007101460552407256,0.0022876610301626986,-0.06900244217567668, ,0.024934922252853584, ,0.007460458394351792, ,9.166761996004692e-05, ,0.2211559013191673,-0.17971571671607856,0.10425801212000001,2.279119995733295,1.0175320137532349,-0.8833103823594589, ,0.05325305362428214,0.021144594821406144,0.024244766392694066,0.10638288496434924,0.04056655957676268,0.033714370462064144, ,1.563951015472412
0.014342251760258528,0.02167997620283709,-0.09033487389166411, ,0.01482017708926732,0.02140971945781772,-0.09073282550943572, ,0.0006780979416158593, ,0.01046354989492833,0.0019757585524169067,-0.020684666625551056,-0.0438846287476795,-0.03356348988010353,-0.0044572664499560955, ,0.023264671320938297, ,0.05524820998650339, ,9.23169148441621e-05, ,0.22177371994910525,-0.17946086653122917,0.10450041835000001,2.2793296856767795,1.0176686502530004,-0.8826866916018904, ,0.05949651508368074,0.024848636176609266,0.022062065817174518,0.05059483253832822,0.0077684654172306125,0.06015563861352742, ,1.5676920413970947
0.014342251760258528,0.02167997620283709,-0.09033487389166411, ,0.014862079127977856,0.02141661549041113,-0.09081884183206192, ,0.0007574987289840209, ,0.01046354989492833,0.0019757585524169067,-0.020684666625551056,-0.0438846287476795,-0.03356348988010353,-0.0044572664499560955, ,0.023264671320938297, ,0.05524820998650339, ,9.318871276570844e-05, ,0.22177371994910525,-0.17946086653122917,0.10450041835000001,2.2793296856767795,1.0176686502530004,-0.8826866916018904, ,0.05949651508368074,0.024848636176609266,0.022062065817174518,0.05059483253832822,0.0077684654172306125,0.06015563861352742, ,1.5696189403533936
0.014342251760258528,0.02167997620283709,-0.09033487389166411, ,0.014903912836890264,0.021423428559641418,-0.0909046234889267, ,0.0008401752566061725, ,0.01046354989492833,0.0019757585524169067,-0.020684666625551056,-0.0438846287476795,-0.03356348988010353,-0.0044572664499560955, ,0.023264671320938297, ,0.05524820998650339, ,9.416644384403366e-05, ,0.22177371994910525,-0.17946086653122917,0.10450041835000001,2.2793296856767795,1.0176686502530004,-0.8826866916018904, ,0.05949651508368074,0.024848636176609266,0.022062065817174518,0.05059483253832822,0.0077684654172306125,0.06015563861352742, ,1.5715460777282715
0.014342251760258528,0.02167997620283709,-0.09033487389166411, ,0.01494567827784571,0.021430158977903523,-0.09099017089760625, ,0.0009251736993654915, ,0.01046354989492833,0.0019757585524169067,-0.020684666625551056,-0.0438846287476795,-0.03356348988010353,-0.0044572664499560955, ,0.023264671320938297, ,0.05524820998650339, ,9.525272783817936e-05, ,0.22177371994910525,-0.17946086653122917,0.10450041835000001,2.2793296856767795,1.0176686502530004,-0.8826866916018904, ,0.05949651508368074,0.024848636176609266,0.022062065817174518,0.05059483253832822,0.0077684654172306125,0.06015563861352742, ,1.5734660625457764
0.014342251760258528,0.02167997620283709,-0.09033487389166411, ,0.014987375512827618,0.021436807057168435,-0.09107548447522391, ,0.0010118398717261718, ,0.01046354989492833,0.0019757585524169067,-0.020684666625551056,-0.0438846287476795,-0.03356348988010353,-0.0044572664499560955, ,0.023264671320938297, ,0.05524820998650339, ,9.644931679886866e-05, ,0.22177371994910525,-0.17946086653122917,0.10450041835000001,2.2793296856767795,1.0176686502530004,-0.8826866916018904, ,0.05949651508368074,0.024848636176609266,0.022062065817174518,0.05059483253832822,0.0077684654172306125,0.06015563861352742, ,1.5754210948944092
0.014342251760258528,0.02167997620283709,-0.09033487389166411, ,0.01502900460396305,0.021443373108984302,-0.09116056463845235, ,0.0010997161914278917, ,0.010562324064492982,0.0018049937001455903,-0.02061625843273357,-0.0123427846017555,-0.03222997353000794,-0.01530544678481547, ,0.02323468966149948, ,0.03451248761145702, ,9.775735705262227e-05, ,0.2223529249146721,-0.17922918454500242,0.10470652846,2.2793296856767795,1.0180785597522968,-0.8826125516122769, ,0.06218672448130458,0.025984923756426824,0.022123349333333337,0.0331391947331768,0.027608491162022505,0.018549559557721286, ,1.5773229598999023
0.014438214166669409,0.021696261021642405,-0.09052632355352472, ,0.015070565613520513,0.02144985744447533,-0.09124541180351194, ,0.0009887724644452307, ,0.010562324064492982,0.0018049937001455903,-0.02061625843273357,-0.0123427846017555,-0.03222997353000794,-0.01530544678481547, ,0.02323468966149948, ,0.03451248761145702, ,9.89175329737064e-05, ,0.2223529249146721,-0.17922918454500242,0.10470652846,2.2793296856767795,1.0180785597522968,-0.8826125516122769, ,0.06218672448130458,0.025984923756426824,0.022123349333333337,0.0331391947331768,0.027608491162022505,0.018549559557721286, ,1.5793180465698242
0.014438214166669409,0.021696261021642405,-0.09052632355352472, ,0.01511205860391224,0.02145626037434417,-0.09133002638617255, ,0.0010759204801066033, ,0.010562324064492982,0.0018049937001455903,-0.02061625843273357,-0.0123427846017555,-0.03222997353000794,-0.01530544678481547, ,0.02323468966149948, ,0.03451248761145702, ,0.0005503184700279509, ,0.2223529249146721,-0.17922918454500242,0.10470652846,2.2793296856767795,1.0180785597522968,-0.8826125516122769, ,0.06218672448130458,0.025984923756426824,0.022123349333333337,0.0331391947331768,0.027608491162022505,0.018549559557721286, ,1.5812439918518066
0.014438214166669409,0.021696261021642405,-0.09052632355352472, ,0.015153483637688767,0.02146258220886704,-0.09141440880175214, ,0.001164006706093903, ,0.010562324064492982,0.0018049937001455903,-0.02061625843273357,-0.0123427846017555,-0.03222997353000794,-0.01530544678481547, ,0.02323468966149948, ,0.03451248761145702, ,0.000554670868865298, ,0.2223529249146721,-0.17922918454500242,0.10470652846,2.2793296856767795,1.0180785597522968,-0.8826125516122769, ,0.06218672448130458,0.025984923756426824,0.022123349333333337,0.0331391947331768,0.027608491162022505,0.018549559557721286, ,1.5833511352539062
0.014438214166669409,0.021696261021642405,-0.09052632355352472, ,0.015194840777545893,0.02146882325790122,-0.09149855946511919, ,0.001252778684547256, ,0.010562324064492982,0.0018049937001455903,-0.02061625843273357,-0.0123427846017555,-0.03222997353000794,-0.01530544678481547, ,0.02323468966149948, ,0.03451248761145702, ,0.0005595871210884104, ,0.2223529249146721,-0.17922918454500242,0.10470652846,2.2793296856767795,1.0180785597522968,-0.8826125516122769, ,0.06218672448130458,0.025984923756426824,0.022123349333333337,0.0331391947331768,0.027608491162022505,0.018549559557721286, ,1.5854361057281494
0.014557688201150349,0.02171774122897588,-0.09076470087708714, ,0.015236130086317448,0.0214749838308783,-0.09158247879069038, ,0.0010899427791666236, ,0.012338734989306314,0.002316447009057486,-0.02650478279504545,0.03356900639729069,-0.007132821003152359,-0.02448231844551018, ,0.029327697129073068, ,0.0343182494535727, ,0.0005632959019141321, ,0.2230479708733523,-0.17890482976428498,0.10496578646000002,2.2799587555072334,1.0188983787508894,-0.8827093078534715, ,0.0690661874515799,0.03333225906514604,0.02859750721723519,0.025629392566630067,0.08152194645411384,-0.019017418923019114, ,1.587618112564087
0.014557688201150349,0.02171774122897588,-0.09076470087708714, ,0.015277351626981081,0.021481064236810232,-0.09166616719243355, ,0.0011775283278134875, ,0.012338734989306314,0.002316447009057486,-0.02650478279504545,0.03356900639729069,-0.007132821003152359,-0.02448231844551018, ,0.029327697129073068, ,0.0343182494535727, ,0.0005675614048717665, ,0.2230479708733523,-0.17890482976428498,0.10496578646000002,2.2799587555072334,1.0188983787508894,-0.8827093078534715, ,0.0690661874515799,0.03333225906514604,0.02859750721723519,0.025629392566630067,0.08152194645411384,-0.019017418923019114, ,1.5898239612579346
0.014557688201150349,0.02171774122897588,-0.09076470087708714, ,0.015318505462653,0.02148706478428485,-0.09174962508386571, ,0.0012657528276223886, ,0.012338734989306314,0.002316447009057486,-0.02650478279504545,0.03356900639729069,-0.007132821003152359,-0.02448231844551018, ,0.029327697129073068, ,0.0343182494535727, ,0.0005723765181321155, ,0.2230479708733523,-0.17890482976428498,0.10496578646000002,2.2799587555072334,1.0188983787508894,-0.8827093078534715, ,0.0690661874515799,0.03333225906514604,0.02859750721723519,0.025629392566630067,0.08152194645411384,-0.019017418923019114, ,1.5919561386108398
0.014557688201150349,0.02171774122897588,-0.09076470087708714, ,0.015359591656589915,0.021492985781467966,-0.09183285287805396, ,0.0013544418998981845, ,0.012338734989306314,0.002316447009057486,-0.02650478279504545,0.03356900639729069,-0.007132821003152359,-0.02448231844551018, ,0.029327697129073068, ,0.0343182494535727, ,0.0005777331303359927, ,0.2230479708733523,-0.17890482976428498,0.10496578646000002,2.2799587555072334,1.0188983787508894,-0.8827093078534715, ,0.0690661874515799,0.03333225906514604,0.02859750721723519,0.025629392566630067,0.08152194645411384,-0.019017418923019114, ,1.5939059257507324
0.014557688201150349,0.02171774122897588,-0.09076470087708714, ,0.015400610272190045,0.021498827536105096,-0.09191585098761709, ,0.0014434636814777465, ,0.012338734989306314,0.002316447009057486,-0.02650478279504545,0.03356900639729069,-0.007132821003152359,-0.02448231844551018, ,0.029327697129073068, ,0.0343182494535727, ,0.0005836224538131475, ,0.2230479708733523,-0.17890482976428498,0.10496578646000002,2.2799587555072334,1.0188983787508894,-0.8827093078534715, ,0.0690661874515799,0.03333225906514604,0.02859750721723519,0.025629392566630067,0.08152194645411384,-0.019017418923019114, ,1.5957911014556885
0.014702755240540263,0.02175770499097171,-0.09108392861058205, ,0.015441561372992525,0.02150459035552102,-0.09199861982472468, ,0.0012027308665109263, ,0.015128445097871543,0.004424344228340011,-0.03512214446036746,-0.01789078354803606,-0.0015791162472019492,-0.060891565163445176, ,0.038496879151758256, ,0.0179588501671377, ,0.0005878056187638081, ,0.22375846229778093,-0.17857275225069333,0.10530930331,2.2814265851116247,1.019444924749951,-0.8820114771062891, ,0.07045058764548684,0.033134406968739795,0.03756795169811321,0.12552460602115953,0.04533249951091022,0.06899211025756931, ,1.5976769924163818
0.014702755240540263,0.02175770499097171,-0.09108392861058205, ,0.015482445022671914,0.021510274546615363,-0.09208115980109606, ,0.0012898092992721319, ,0.015128445097871543,0.004424344228340011,-0.03512214446036746,-0.01789078354803606,-0.0015791162472019492,-0.060891565163445176, ,0.038496879151758256, ,0.0179588501671377, ,0.0005925170528611795, ,0.22375846229778093,-0.17857275225069333,0.10530930331,2.2814265851116247,1.019444924749951,-0.8820114771062891, ,0.07045058764548684,0.033134406968739795,0.03756795169811321,0.12552460602115953,0.04533249951091022,0.06899211025756931, ,1.5995941162109375
0.014702755240540263,0.02175770499097171,-0.09108392861058205, ,0.015523261285045616,0.021515880415869857,-0.09216347132800315, ,0.001377360436824704, ,0.015128445097871543,0.004424344228340011,-0.03512214446036746,-0.01789078354803606,-0.0015791162472019492,-0.060891565163445176, ,0.038496879151758256, ,0.0179588501671377, ,0.0005977493420876031, ,0.22375846229778093,-0.17857275225069333,0.10530930331,2.2814265851116247,1.019444924749951,-0.8820114771062891, ,0.07045058764548684,0.033134406968739795,0.03756795169811321,0.12552460602115953,0.04533249951091022,0.06899211025756931, ,1.6014859676361084
0.014702755240540263,0.02175770499097171,-0.09108392861058205, ,0.015564010224070623,0.02152140826934561,-0.09224555481626937, ,0.0014652548341659302, ,0.015128445097871543,0.004424344228340011,-0.03512214446036746,-0.01789078354803606,-0.0015791162472019492,-0.060891565163445176, ,0.038496879151758256, ,0.0179588501671377, ,0.0006034944115715654, ,0.22375846229778093,-0.17857275225069333,0.10530930331,2.2814265851116247,1.019444924749951,-0.8820114771062891, ,0.07045058764548684,0.033134406968739795,0.03756795169811321,0.12552460602115953,0.04533249951091022,0.06899211025756931, ,1.603743076324463
0.014702755240540263,0.02175770499097171,-0.09108392861058205, ,0.015604691903840222,0.021526858412680767,-0.09232741067626972, ,0.0015533922669435977, ,0.015128445097871543,0.004424344228340011,-0.03512214446036746,-0.01789078354803606,-0.0015791162472019492,-0.060891565163445176, ,0.038496879151758256, ,0.0179588501671377, ,0.0006097437395674341, ,0.22375846229778093,-0.17857275225069333,0.10530930331,2.2814265851116247,1.019444924749951,-0.8820114771062891, ,0.07045058764548684,0.033134406968739795,0.03756795169811321,0.12552460602115953,0.04533249951091022,0.06899211025756931, ,1.605644941329956
0.014702755240540263,0.02175770499097171,-0.09108392861058205, ,0.01564530638858822,0.021532231151094847,-0.09240903931793146, ,0.0016416940963186102, ,0.015128445097871543,0.004424344228340011,-0.03512214446036746,-0.01789078354803606,-0.0015791162472019492,-0.060891565163445176, ,0.038496879151758256, ,0.0179588501671377, ,0.0006164885131409711, ,0.22435311272909622,-0.17828701113434703,0.10564115355,2.281845964998594,1.019991470749013,-0.8818037187999506, ,0.07665342613769853,0.03663974577547135,0.04499664271186441,0.024306461205473445,0.07915021409854414,0.009424082759483927, ,1.6075971126556396
0.014830009746703243,0.02179359278308788,-0.09139481343543004, ,0.015685853742687637,0.021537526789387695,-0.0924904411507349, ,0.0014136614973664463, ,0.016727247679326086,0.004868219668628869,-0.04219531652833696,0.012066715796305116,-0.011579233713940495,-0.002181792722458552, ,0.045650247694772605, ,0.016719764503584332, ,0.0006216649610904872, ,0.22435311272909622,-0.17828701113434703,0.10564115355,2.281845964998594,1.019991470749013,-0.8818037187999506, ,0.07665342613769853,0.03663974577547135,0.04499664271186441,0.024306461205473445,0.07915021409854414,0.009424082759483927, ,1.6095149517059326
0.014830009746703243,0.02179359278308788,-0.09139481343543004, ,0.015726334030647823,0.021542745631937532,-0.0925716165837124, ,0.0015003956694939697, ,0.016727247679326086,0.004868219668628869,-0.04219531652833696,0.012066715796305116,-0.011579233713940495,-0.002181792722458552, ,0.045650247694772605, ,0.016719764503584332, ,0.000627334191467284, ,0.22435311272909622,-0.17828701113434703,0.10564115355,2.281845964998594,1.019991470749013,-0.8818037187999506, ,0.07665342613769853,0.03663974577547135,0.04499664271186441,0.024306461205473445,0.07915021409854414,0.009424082759483927, ,1.611454963684082
0.014830009746703243,0.02179359278308788,-0.09139481343543004, ,0.015766747317116206,0.021547887982703136,-0.09265256602544912, ,0.0015873845477561456, ,0.016727247679326086,0.004868219668628869,-0.04219531652833696,0.012066715796305116,-0.011579233713940495,-0.002181792722458552, ,0.045650247694772605, ,0.016719764503584332, ,0.0006334883604178535, ,0.22435311272909622,-0.17828701113434703,0.10564115355,2.281845964998594,1.019991470749013,-0.8818037187999506, ,0.07665342613769853,0.03663974577547135,0.04499664271186441,0.024306461205473445,0.07915021409854414,0.009424082759483927, ,1.613356113433838
0.014830009746703243,0.02179359278308788,-0.09139481343543004, ,0.01580709366687856,0.02155295414522397,-0.09273328988408364, ,0.001674550430622648, ,0.016727247679326086,0.004868219668628869,-0.04219531652833696,0.012066715796305116,-0.011579233713940495,-0.002181792722458552, ,0.045650247694772605, ,0.016719764503584332, ,0.0006401193290178841, ,0.22435311272909622,-0.17828701113434703,0.10564115355,2.281845964998594,1.019991470749013,-0.8818037187999506, ,0.07665342613769853,0.03663974577547135,0.04499664271186441,0.024306461205473445,0.07915021409854414,0.009424082759483927, ,1.6152491569519043
0.014830009746703243,0.02179359278308788,-0.09139481343543004, ,0.015847373144858595,0.021557944422620982,-0.09281378856730887, ,0.0017618311095526401, ,0.016727247679326086,0.004868219668628869,-0.04219531652833696,0.012066715796305116,-0.011579233713940495,-0.002181792722458552, ,0.045650247694772605, ,0.016719764503584332, ,0.0006472187706668383, ,0.22435311272909622,-0.17828701113434703,0.10564115355,2.281845964998594,1.019991470749013,-0.8818037187999506, ,0.07665342613769853,0.03663974577547135,0.04499664271186441,0.024306461205473445,0.07915021409854414,0.009424082759483927, ,1.6171810626983643
0.015047462876295038,0.021860846491733976,-0.0919673195542105, ,0.015887585816115705,0.021562859117594483,-0.09289406248237006, ,0.0012858675997369335, ,0.018083103587971893,0.00553306615513496,-0.046965540411737866,0.005440613118471865,-0.0007807006238495342,0.027019015571846303, ,0.050629788095715, ,0.005475514504501051, ,0.0006512354299691659, ,0.22531073160550008,-0.17782364716189356,0.10625170614000001,2.281845964998594,1.0212211992469018,-0.8814996200909693, ,0.07954479594171901,0.03841981439614202,0.05009060226415095,0.014989530168386478,0.0945778817473656,0.03023327283493915, ,1.6191270351409912
0.015047462876295038,0.021860846491733976,-0.0919673195542105, ,0.01592773174584696,0.021567698532426613,-0.09297411203606719, ,0.0013691019356758787, ,0.018083103587971893,0.00553306615513496,-0.046965540411737866,0.005440613118471865,-0.0007807006238495342,0.027019015571846303, ,0.050629788095715, ,0.005475514504501051, ,0.0006557220956298329, ,0.22531073160550008,-0.17782364716189356,0.10625170614000001,2.281845964998594,1.0212211992469018,-0.8814996200909693, ,0.07954479594171901,0.03841981439614202,0.05009060226415095,0.014989530168386478,0.0945778817473656,0.03023327283493915, ,1.621109962463379
0.015047462876295038,0.021860846491733976,-0.0919673195542105, ,0.01596781099938686,0.0215724629689815,-0.09305393763475467, ,0.0014529090050100374, ,0.018083103587971893,0.00553306615513496,-0.046965540411737866,0.005440613118471865,-0.0007807006238495342,0.027019015571846303, ,0.050629788095715, ,0.005475514504501051, ,0.0006606735671166664, ,0.22531073160550008,-0.17782364716189356,0.10625170614000001,2.281845964998594,1.0212211992469018,-0.8814996200909693, ,0.07954479594171901,0.03841981439614202,0.05009060226415095,0.014989530168386478,0.0945778817473656,0.03023327283493915, ,1.623185157775879
0.015047462876295038,0.021860846491733976,-0.0919673195542105, ,0.016007823642205522,0.021577152728704033,-0.09313353968434115, ,0.0015371546258604618, ,0.018083103587971893,0.00553306615513496,-0.046965540411737866,0.005440613118471865,-0.0007807006238495342,0.027019015571846303, ,0.050629788095715, ,0.005475514504501051, ,0.0006660839440224923, ,0.22531073160550008,-0.17782364716189356,0.10625170614000001,2.281845964998594,1.0212211992469018,-0.8814996200909693, ,0.07954479594171901,0.03841981439614202,0.05009060226415095,0.014989530168386478,0.0945778817473656,0.03023327283493915, ,1.6285591125488281
0.015169666239343158,0.021897767898103368,-0.09227022170239545, ,0.016047769739907874,0.021581768112619734,-0.09321291859028975, ,0.0013264987917730351, ,0.01993552787079827,0.005440580426674769,-0.050263660190023755,-0.06291057367341966,-0.02054738704822085,0.054362512371930176, ,0.054345751651483025, ,0.06617865643613445, ,0.0006701355688553176, ,0.22584360017382157,-0.17756107424416992,0.10657448235000001,2.2824750348290475,1.0216311087461982,-0.8808537289203716, ,0.08794897271406003,0.04564547453509898,0.05327361712374583,0.03365913262407977,0.05692764700341748,0.10289935193031921, ,1.6314311027526855
