NicholasDascanio/dvrk_moveit_final/test/execution/third_experiment_notsharpbends/thirdexp_500vel4.0/thirdexp_500vel4.0_3.csv
Current Position (x),Current Position (y),Current Position (z), ,Planned Position (x),Planned Position (y),Planned Position (z), ,Position Error,,Cartesian linear Velocity(x),Cartesian linear Velocity(y),Cartesian linear Velocity(z),Cartesian Angular Velocity(x),Cartesian Angular Velocity(y),Cartesian Angular Velocity(z), ,Total Linear Velocity, ,Total Angular Velocity, ,MSE, ,Joint 1 Position,Joint 2 Position,Joint 3 Position,Joint 4 Position,Joint 5 Position,Joint 6 Position, ,Joint 1 Velocity,Joint 2 Velocity,Joint 3 Velocity,Joint 4 Velocity,Joint 5 Velocity,Joint 6 Velocity, ,Time Stamp
0.008514590562489701,0.02065738165816831,-0.07796826311249307, ,0.00871883237020291,0.0206031882217127,-0.0780969187906436, ,0.0002473942765974976, ,1.1455678712091093e-05,-4.3822482295382616e-07,1.134921221746004e-06,0.1094054626496884,0.0019459970224113496,-0.005738003142887206, ,1.1520098173612905e-05, ,0.10942276802386054, ,2.061618971645813e-05, ,0.12834409763673713,-0.2570511637185628,0.08772253688000001,1.598466439182529,0.16956589620891158,-1.2742575363621986, ,0.0001461331397122939,2.672251852020237e-05,0.0,0.0011163008403901988,0.0,-0.1094081873123618, ,0.025346040725708008
0.008529905279601789,0.020663464938498764,-0.07801101170637642, ,0.008791469915692149,0.02060284185322649,-0.07823922604206651, ,0.00035238189558415374, ,0.0010646533991417822,0.0005247948932024939,-0.002976165250055382,0.3075325861430852,-0.0266539145276793,-0.021491355388999996, ,0.0032041311046636, ,0.30868547536168506, ,2.726255328098415e-05, ,0.12845221589697628,-0.25698165912269477,0.08776661074000001,1.5986761291260139,0.16942925970914616,-1.2811704901105905, ,0.005467872047861215,0.003324335617231056,0.0030697266371169786,0.0009081673514710682,-0.02738866488987231,-0.3109041964366297, ,0.04775810241699219
0.008568171006947269,0.020677477467048636,-0.07808805204127263, ,0.008864033404041894,0.020602358464874015,-0.0783811984935687, ,0.00042321656985054384, ,0.002498113559568754,0.001152900986325161,-0.005917608894633894,0.011571696707070244,-0.1107373653740371,-0.02857139260433843, ,0.006525936489931616, ,0.1113403262407958, ,3.19685231885061e-05, ,0.12859122508871232,-0.2568967090610783,0.08784568443000002,1.5988858190694981,0.16751634871242999,-1.2832045040250253, ,0.009928535421476332,0.0052705826785971925,0.006105332127251822,0.0005165210670079927,-0.1046682548043465,-0.01625627659865092, ,0.0704500675201416
0.008627240716088579,0.020707862007722566,-0.07825975375253011, ,0.008936522204227951,0.020601739361324922,-0.0785228364151841, ,0.00041967790312721334, ,0.003252908284112204,0.000659085671378301,-0.005666442087653531,0.2538187129159329,-0.13701313818515135,-0.04033033438731752, ,0.006566914965171491, ,0.2884381026421479, ,3.4349301075224016e-05, ,0.1289310253351782,-0.2567036407392227,0.08802327616000001,1.5990955090129826,0.16642325671430647,-1.289990962368667, ,0.017260265834570892,0.010450935099666237,0.005790189574700111,-0.003940088207812312,-0.12694448789555446,-0.26432541159134487, ,0.0926511287689209
0.008714151517863637,0.020724947152988057,-0.0784173691370517, ,0.009008935688867327,0.02060098584340245,-0.07866414007753031, ,0.0004039307005083994, ,0.002730917529355448,0.0003225948512186463,-0.00557987417908043,-0.1580326470933463,-0.019126330772929443,0.009796082053668857, ,0.006220689177618677, ,0.15918584758312085, ,3.551156433976554e-05, ,0.1295025075678708,-0.25639473142425373,0.08818531241000001,1.5990955090129826,0.16410043621829398,-1.2883418942262495, ,0.02641161746687191,0.014315423375844136,0.005752550205850488,-0.0038624652350843633,0.010687119329781598,0.14341434606252307, ,0.11791610717773438
0.00875985192730298,0.020723291971382514,-0.07851850084716049, ,0.009081273234212216,0.02060009920808705,-0.07880510975180757, ,0.00044792050375777235, ,0.0020435587903094034,-0.00031081968649122535,-0.004666100188627482,-0.057561420062441915,0.07473377320838621,0.025027579512217367, ,0.00510345298570201, ,0.09433161683844643, ,3.7008416926219035e-05, ,0.13008171253343764,-0.25604720844491363,0.08828901561000001,1.5988858190694981,0.1656034377157138,-1.2863003415612875, ,0.030347598835455954,0.019078597016178284,0.004771962708208509,0.0017037417501028556,0.10881221067953493,0.038345505476462094, ,0.1409320831298828
0.008842135727173088,0.020715796466237155,-0.07865283873977799, ,0.009153534220144628,0.020599080748521462,-0.07894574570979913, ,0.00044315468323577657, ,0.003795374579972555,7.189092200775892e-06,-0.006380422623372319,0.037470320653721516,-0.033062780570049015,-0.01668414886575832, ,0.007423928389888323, ,0.04997171578344821, ,3.8023285175852176e-05, ,0.13100071774547037,-0.2555066171437179,0.08842642235,1.5993051989564673,0.1665598932140719,-1.2865085157061786, ,0.03701128765930997,0.021046117001213303,0.006546983773119607,0.012317078954907626,0.0,-0.056825053459880204, ,0.1665501594543457
0.008931133466333603,0.02071590099643869,-0.07880319517656487, ,0.00922571803017042,0.020597931754014528,-0.0790860482238692, ,0.0004250913475694406, ,0.003916484775069338,-0.00019976692679772443,-0.006183995475777934,-0.025055510492414872,-0.04109498858332387,0.008595580407516852, ,0.007322606084095613, ,0.04813082882784523, ,3.85703400028146e-05, ,0.13186566382738352,-0.25501236223976753,0.08858068086000001,1.5995148888999517,0.1665598932140719,-1.287897054288568, ,0.03879678722750236,0.022418365593780007,0.006323466264390632,-0.011792735545401284,0.0007193609521755272,0.0013289852345983698, ,0.1888561248779297
0.009009078726799886,0.020713560423438394,-0.0789243637814099, ,0.009297824051413935,0.020596653510045984,-0.07922601756696311, ,0.00043363128948911424, ,0.00401165225574193,-3.455295785788187e-05,-0.006291759396948215,-0.012765636382610352,-0.04147574562253058,0.00851436836991131, ,0.007461955778278387, ,0.043395840092551055, ,3.952086999692211e-05, ,0.13263793711480595,-0.25458761193168516,0.08870512470000001,1.5995148888999517,0.1665598932140719,-1.2883871267294116, ,0.039722453561519794,0.020774286680926176,0.006483032771672773,-0.011792735545401284,0.0011190935981141722,-0.009347861411437959, ,0.21021699905395508
0.009086992747912928,0.02071401292096809,-0.07905764457291525, ,0.009369851674612016,0.020595247298270548,-0.07936565401260645, ,0.0004347231998490312, ,0.0037229232769769726,-2.7054018163645083e-05,-0.00611305017777465,-0.015893790295237183,-0.025113874838215346,-0.01060320966704783, ,0.007157532544260378, ,0.02972068758965421, ,4.031122369568943e-05, ,0.13343337860085108,-0.25416286162360285,0.08884253144000001,1.5993051989564673,0.16696980271336823,-1.288803059180641, ,0.037243697628913185,0.02041672580862108,0.006295972932806325,0.01067278681088571,0.00971827723371431,-0.0030197420694281973, ,0.2309269905090332
0.009157643441490046,0.020712974692819363,-0.07918130517123563, ,0.00944180029410851,0.02059371439652249,-0.07950495783490394, ,0.00044689952099150943, ,0.0035886757311299248,9.624684267254635e-05,-0.006855506596393532,-0.0037454009525158967,-0.010544331680417698,-0.0040641119006889605, ,0.007738593389700777, ,0.011189769601705878, ,4.108276963816929e-05, ,0.13415159275815397,-0.25374583404839474,0.08896956786000002,1.5995148888999517,0.16737971221266457,-1.2890556341515897, ,0.035823684997535216,0.02108352400765847,0.007048146690265488,0.00703206885932757,0.024058037592620127,-0.016372833806928, ,0.2558271884918213
0.00926688739334152,0.020715261982626482,-0.07938138653999319, ,0.009513669307848492,0.02059205607881972,-0.07964392930853893, ,0.0003808014093674451, ,0.0029958172423011774,-0.00019220230058611187,-0.005366208604341452,0.009991613932019585,0.006342777491975658,0.0008142425512749618, ,0.00614882569755623, ,0.011834828719904184, ,4.117646864345676e-05, ,0.13524822082629384,-0.25312801541845675,0.08917567797,1.5995148888999517,0.16806289471149174,-1.2895310449299313, ,0.03237698449623704,0.0196799961755435,0.005500280220994476,0.005366923637764033,0.0381876627998647,-0.02901417778627969, ,0.2764930725097656
0.009330733246317526,0.020712896279806138,-0.07949276555040687, ,0.009585458117372462,0.020590273615368145,-0.07978256870877223, ,0.00040485423100959303, ,0.0030821980464747364,-0.00024109835062137257,-0.005552375529330907,0.003816101628179824,-0.00262819373188912,0.0027006427670772373, ,0.006355072559072611, ,0.004633576227046679, ,4.1446279771161346e-05, ,0.13588148492198024,-0.2527341560418713,0.08928975149000001,1.599934268786921,0.1683361677110226,-1.289590523257043, ,0.031226371029440866,0.01842659059387782,0.006040504937428897,0.007406484812329815,0.019297498826427933,-0.018338853775783582, ,0.29842400550842285
0.009399356505162973,0.02071663340350308,-0.07963756629845847, ,0.009657166127811005,0.020588368272566736,-0.07992087631144208, ,0.00040395830081929335, ,0.0026955634978580237,0.00020381501767161237,-0.0064842238439152535,0.037773797802845836,0.03593343486967611,0.0048101351551881645, ,0.007025152097315201, ,0.05213512760625752, ,4.167379288056459e-05, ,0.13657653088066046,-0.25231712846666315,0.08943882484000001,1.599934268786921,0.16915598670961526,-1.2902590306792217, ,0.029553703381647704,0.01829514971244858,0.006681548456375841,0.007406484812329815,0.06493467129247125,-0.055292590484057505, ,0.3190031051635742
0.009430138241341264,0.02071761059021851,-0.07970202910864704, ,0.009728792747878637,0.020586341313010913,-0.0800588523929625, ,0.000483475949394955, ,0.0030094601976364582,0.00014249612579332298,-0.006651704344551626,0.011423716516695437,0.005618709788263242,-0.002244945238343517, ,0.007302213809137005, ,0.01273071819328883, ,4.2421460559667165e-05, ,0.1368777174627552,-0.2521240601448076,0.08950493563,1.599934268786921,0.16942925970914616,-1.2904818664866144, ,0.02964602985269315,0.019514073937583958,0.006821760822269807,0.007406484812329815,0.034081339420466865,-0.02997339141598096, ,0.33981800079345703
0.009515807633581933,0.02072215439550645,-0.07987764248484175, ,0.00980033738986843,0.020584193995497716,-0.08019649723032304, ,0.0004490641411858276, ,0.0031064587756904722,-0.00011353893282143023,-0.0054875847657479375,-0.010507361358260562,-0.021379603320892764,-0.007060149831382069, ,0.0063068663990605844, ,0.023822092181324042, ,4.28582852099842e-05, ,0.1376654362159261,-0.25162208250798296,0.08968511994,1.599934268786921,0.16970253270867705,-1.2907047022940072, ,0.029655294237022116,0.018896244834422697,0.00561466743743391,0.006182262564863629,0.006849158486624054,-0.0074296898010746005, ,0.36212897300720215
0.009577709534493169,0.020720727972556925,-0.08000173008262922, ,0.009871799469646125,0.020581927575029545,-0.08033381110108766, ,0.00046479268833795587, ,0.0032986001064404585,0.00026354226436411845,-0.0070493021930751925,0.0057151269074179195,-0.0027261931352063873,-0.0046297498163994704, ,0.0077873537608490525, ,0.006332044470079917, ,4.334336570966578e-05, ,0.13846860043484546,-0.2510969366725357,0.08985234135,1.6003536486738899,0.17038571520750423,-1.2912617918124893, ,0.03148538206983105,0.0192332674419276,0.007263479945280439,0.008315216210063193,0.027227149162481274,-0.023804940899197474, ,0.3861420154571533
0.00964628878735744,0.020722159198519594,-0.08013714341154635, ,0.009943178406644571,0.020579543302818953,-0.08047079428339399, ,0.0004688343460452143, ,0.0032569654780075525,-0.00023889181509735073,-0.005905133220502946,-0.01874396238934076,-0.027748031851233656,-0.011012690692808948, ,0.006747999094260532, ,0.03348565947520969, ,4.4057327232285006e-05, ,0.13890879620867624,-0.25080347282331517,0.08994826681000001,1.6003536486738899,0.17052235170726968,-1.2913732097161859, ,0.02976692018772609,0.021616615389173297,0.006004075205427818,0.008315216210063193,0.0,-0.001494082689794504, ,0.40439510345458984
0.0097066577405165,0.02071985788433523,-0.08026115746126275, ,0.01001447362385789,0.020577042426293136,-0.08060744705595256, ,0.0004848333285609062, ,0.0030813076813324394,-1.8180982885629445e-05,-0.006876508026283703,0.033026982926225454,0.03223318506049953,0.0032361332057068235, ,0.007535326815123626, ,0.04614932074232215, ,4.4796850755763366e-05, ,0.1395497830372369,-0.25037872251523285,0.09007789581,1.6003536486738899,0.17147880720562775,-1.2921531350420608, ,0.033065136431522923,0.02191109248637053,0.007057515073105894,0.008315216210063193,0.06451783047519867,-0.05397527079167148, ,0.424483060836792
0.009777290700539282,0.02072012023162559,-0.08039518131447748, ,0.01008568454783585,0.02057442618909793,-0.08074376969804582, ,0.0004876959916148773, ,0.0032667163123760285,-0.0001109626161425885,-0.006215299225241669,-0.003382331405647467,-0.011214338796490662,-0.005818324375720696, ,0.007022370869372717, ,0.011713306582907493, ,4.548840789784235e-05, ,0.14019849259867176,-0.2499616949400247,0.09021530255000001,1.6003536486738899,0.1716154437053932,-1.292264552945757, ,0.031277831759548715,0.020902410034905457,0.006358806994011978,0.007280111686688655,0.01861850602055284,-0.016438505025864424, ,0.44250011444091797
0.009850265872155905,0.020721557723718163,-0.080547989074737, ,0.010156810608678075,0.020571695831102313,-0.08087976248952745, ,0.00047592211664260116, ,0.003571431040630621,0.00037559118334895157,-0.008487187769886342,0.02907836671466308,0.024827553067583195,0.007178005507319862, ,0.009215668432419739, ,0.038235569278865865, ,4.606284304379037e-05, ,0.14090126129022618,-0.24949833096757124,0.09037215364000001,1.6005633386173743,0.1722986262042204,-1.2928216424642394, ,0.03560860846471699,0.022002536878847852,0.008761722508250826,0.003290259753707841,0.06082671281819488,-0.0507642031854747, ,0.46077919006347656
0.009928904655796822,0.020727948274036113,-0.08071244421445035, ,0.010227851240028361,0.02056885258840288,-0.08101542571082099, ,0.00045439881662896194, ,0.0037685074106552983,0.00016424280424693946,-0.007949410064557435,-0.00023950657720579396,-0.008630852739400532,-0.0034091434504386494, ,0.008798962676213476, ,0.008634173421052136, ,4.6485976404768886e-05, ,0.1416349209132775,-0.24905813519374043,0.09054196763000001,1.600773028560859,0.17284517220328216,-1.293267314079025, ,0.03486294693551461,0.02281724971350584,0.008168621292307693,0.005976525152854471,0.025250393416483607,-0.02167462122679252, ,0.48117899894714355
0.010006143058043449,0.020724693258455953,-0.08085677513854855, ,0.010298805879069063,0.020565897693328335,-0.08115075964291993, ,0.00044417839560851403, ,0.0038251527399917207,-0.00036905140841027946,-0.00640677083754934,-0.012590062667499843,-0.023394544209912906,-0.006577800001135312, ,0.007470923971717852, ,0.026567167067017255, ,4.6828585809367764e-05, ,0.14236858053632884,-0.2485716030226643,0.09068974469,1.600773028560859,0.1732550817025785,-1.2936015677901143, ,0.03663974577547135,0.02438883103533045,0.006544293968775678,0.005976525152854471,0.011999913637732342,-0.010799607824089699, ,0.498913049697876
0.010059166019982208,0.020716054521590224,-0.08094554125447419, ,0.010369673966515147,0.02056283237444347,-0.0812857645673859, ,0.00048543188387762916, ,0.003814284403360227,-0.0005104111006858987,-0.005873205185888711,-0.002254494085125539,-0.012877345893653826,-0.003764515653112768, ,0.00702166818903959, ,0.013073208246497853, ,4.7334536482439396e-05, ,0.14294778550189569,-0.2481931891118273,0.09078048499000001,1.600773028560859,0.17407490070117113,-1.2942700752122929, ,0.038765090505911266,0.024451672650984486,0.006015412205438067,0.005976525152854471,0.024897036982967097,-0.021268467189168205, ,0.5192370414733887
0.010160082523799326,0.020711043946401053,-0.08111439284541125, ,0.010440454946608772,0.020559657856554444,-0.0814204407663482, ,0.00044180513077704016, ,0.0040682888452806855,-0.00014615009000304018,-0.007547188090559064,-0.013086521840446468,-0.023848953965075803,-0.006150179505518613, ,0.008575102451383291, ,0.027203485707209193, ,4.761263709441087e-05, ,0.14390540437829952,-0.24760626141338624,0.09095418785,1.6009827185043435,0.17434817370070202,-1.2944929110196857, ,0.037375715462178334,0.02505860616806728,0.00773243277669903,0.00548465396136989,0.012415728642852964,-0.011022660404467435, ,0.5374810695648193
0.010195711930586503,0.02071046617421656,-0.08118762173293963, ,0.010511148267113194,0.020556375360711733,-0.08155478852250289, ,0.0005079916461578417, ,0.003640974530236167,-2.6849832913534977e-05,-0.007834461440397573,0.024697415779455507,0.021870450746032853,0.00433741956631558, ,0.00863922464717942, ,0.03298907292578478, ,4.815344794293238e-05, ,0.14425292735763962,-0.24737457942715949,0.09102937267000001,1.6009827185043435,0.17475808319999833,-1.294827164730775, ,0.03666806088039829,0.024439078433806535,0.008052988634984834,0.005181832351140679,0.0584063063744601,-0.04850115641523535, ,0.5556290149688721
0.010281005409088887,0.020712115866134986,-0.08135101696788119, ,0.010581753379307455,0.02055298610421612,-0.08168880811911201, ,0.00047945227559037436, ,0.004361230796382804,0.00015211907724296686,-0.008333314415905405,-0.007867530865871036,-0.021685175499181086,-0.0019328141626815303, ,0.00940678496763458, ,0.02306826474116369, ,4.8741787364378035e-05, ,0.14504064611081052,-0.24688804725608335,0.09119789037,1.601192408447828,0.17516799269929464,-1.295161418441864, ,0.03990619914149318,0.02383147703628096,0.00861016838918919,0.0025097729054289974,0.01795012128513274,-0.015465354731196736, ,0.5716440677642822
0.010363550530084783,0.020712280956601766,-0.0815104179988161, ,0.010652269737980332,0.020549491300621878,-0.08182249984000214, ,0.0004552519398091069, ,0.0037239538233729877,-9.471648226577119e-05,-0.007579471688432752,0.03771402444602865,0.03447809205542032,0.010466378297339556, ,0.008445424463363622, ,0.051098791049133646, ,4.919985735738391e-05, ,0.14584381032972987,-0.2464015150850072,0.0913625192,1.601192408447828,0.1759878116978873,-1.2958299258640427, ,0.03960640298767562,0.02433878983289838,0.007831274100294987,0.0025097729054289974,0.07492192794497786,-0.06188041789499826, ,0.5872781276702881
0.010405580960468895,0.020712441308617765,-0.08159852932982589, ,0.01072269680142474,0.020545892159741688,-0.08195586396956415, ,0.0005059536740980862, ,0.004372611547482884,0.0001277025454180336,-0.00882161146831731,-0.008539053669354391,-0.01926548509769782,-0.006008785845011305, ,0.009846667892400678, ,0.021073070497517304, ,4.983093029721359e-05, ,0.14625311517206377,-0.24613121943440935,0.09145325950000001,1.6014020983913126,0.17653435769694906,-1.2962755974788283, ,0.03897204992134323,0.025448361908948988,0.00908142047890536,0.006583143161205209,0.018452422693434768,-0.015813161593360013, ,0.602607011795044
0.010496209971266355,0.0207177893413326,-0.0817805342647323, ,0.010793034031432017,0.020542189887651354,-0.08208890079275186, ,0.0004626333390809841, ,0.0045551876784752175,0.00017831311305186847,-0.008889864039353273,-0.010960280086258378,-0.024322945537475722,-0.00556279904328062, ,0.009990556190253132, ,0.026678331350834156, ,5.0263693897975906e-05, ,0.1470485566581089,-0.24563696453045897,0.09164122155000001,1.601611788334797,0.17680763069647995,-1.2964984332862213, ,0.04050232247480613,0.024999194298859533,0.009180871193083574,0.00541279453255493,0.015150155526607707,-0.013085449773406149, ,0.6201519966125488
0.010576625525650604,0.020713834024545335,-0.08195694137892472, ,0.010863280893286132,0.020538385686693382,-0.0822216105950815, ,0.00042778874813430783, ,0.003914661193096603,-0.00040563840357139304,-0.007320504447373784,0.02089085396434612,0.017215860683792,0.0031980775814538344, ,0.008311371736073884, ,0.027070530423688968, ,5.054496386408137e-05, ,0.14788261180852513,-0.2450732050306406,0.09181751699000001,1.601611788334797,0.1787205416931961,-1.298058283937971, ,0.04012555668434282,0.02707473368287326,0.007599623816793894,0.00541279453255493,0.06037941812180837,-0.04993350681460526, ,0.6380290985107422
0.010616280029564386,0.020708155242424624,-0.08201905905720991, ,0.010933436855758007,0.020534480755481914,-0.08235399366263028, ,0.0004928818009666488, ,0.004323625444152465,-0.000715845636317978,-0.00635059323367504,-0.02665923559119956,-0.03905260901610534,-0.009292153658759334, ,0.007715970864120555, ,0.04728446999747971, ,5.104701099013942e-05, ,0.1482841939179848,-0.24480290938004273,0.09188622036,1.601611788334797,0.17885717819296154,-1.2983330593219486, ,0.040364500875572425,0.027739532756056937,0.006475126634146342,0.00541279453255493,0.0,0.0, ,0.6532340049743652
0.010710488895811375,0.02069601182040082,-0.08216501708245347, ,0.01100350139109979,0.020530476288907324,-0.08248605028203575, ,0.00046510283789288307, ,0.004657282705333331,-0.0005170082479488506,-0.007394786699863213,-0.026289128813140484,-0.04094912316560059,-0.009673493567587683, ,0.008754453156098213, ,0.04866157580343457, ,5.142649606394896e-05, ,0.1491336945341495,-0.24421598168160166,0.09203529371000001,1.6018214782782818,0.1787205416931961,-1.2980582839379713, ,0.0423269141652412,0.028454855040021224,0.007574327874465051,0.005640754450824119,0.0,-0.0010372196449756075, ,0.6713981628417969
0.01075155522280667,0.02069014898427011,-0.08223460818040813, ,0.011073473975039057,0.02052637347814009,-0.082617780740495, ,0.0005265693783828716, ,0.004292742271342345,-0.0005426880403731681,-0.007232285215030343,-0.005162199105742681,-0.014332579601769747,-0.004042929654466686, ,0.008427816796115113, ,0.015233880591021395, ,5.1998949348949746e-05, ,0.1495429993764834,-0.24393796329812958,0.09210658966000002,1.6018214782782818,0.17913045119249243,-1.2983925376490606, ,0.04097449980935698,0.028184419827285645,0.007405305216178523,0.005640754450824119,0.025758511484115603,-0.022041558579499878, ,0.6868460178375244
0.010834656833527034,0.02068066708165393,-0.08239956542955675, ,0.011143354086773093,0.02052217351063564,-0.08274918532576338, ,0.0004925934206212342, ,0.004372740650042441,-0.00021149075954675516,-0.008673373645676526,0.0014478647494162939,-0.005036211818738383,-0.002167941148453784, ,0.009715605978600788, ,0.005240199684340748, ,5.243049557438124e-05, ,0.15035388632827698,-0.24333559013394007,0.09227510736000001,1.6018214782782818,0.18022354319061595,-1.2992022021384915, ,0.04009165253843294,0.02840375383372367,0.00889877738547486,0.005552186748210701,0.03435327198913681,-0.028927088898131982, ,0.7041940689086914
0.01092146807873545,0.020677460312881618,-0.08256724773525677, ,0.011213141208963186,0.020517877570138347,-0.08288026432615375, ,0.00045663908380150773, ,0.004341123007768001,-0.00040354297251612536,-0.007904092731497695,-0.014871667504162894,-0.017024475627404227,-0.003631200379533606, ,0.00902678668227817, ,0.022605292165599238, ,5.289778541107604e-05, ,0.1511416050814479,-0.24279499883274436,0.09244751393,1.602031168221766,0.1807700891896777,-1.2994845162729958, ,0.03960640298767562,0.0282683769909058,0.008093908292682929,0.004485056982083368,0.02199093397887952,-0.012543127805396634, ,0.7190911769866943
0.01096441874520107,0.020672583547657865,-0.08264701579582792, ,0.011282834827728884,0.02051348683668628,-0.08301101803053562, ,0.0005091151067553736, ,0.0043585572049861816,-0.0003871586135625678,-0.00834627944161725,0.01725179930301905,-0.002704368030537496,-0.0011616487745649746, ,0.009423762158435206, ,0.017462478207154568, ,5.351626410233061e-05, ,0.15155090992378178,-0.24250153498352384,0.0925291802,1.602031168221766,0.18117999868897403,-1.2997370912439443, ,0.04057158681422436,0.029307270401010124,0.008550086698872786,0.004485056982083368,0.03728287836973358,-0.04579309995346004, ,0.7328760623931885
0.01100854809072851,0.020670439943068216,-0.08273783623070861, ,0.011352434432642274,0.02050900248661579,-0.08314144672833391, ,0.0005542754750969972, ,0.0041970777522839725,-3.2807991336193296e-05,-0.009211644483062545,0.03710093202967362,0.02976185514943059,0.006489174686389224, ,0.010122792702873511, ,0.04756308561352847, ,5.4254168819049004e-05, ,0.1519679374989899,-0.2422080711343033,0.09262251308000001,1.602031168221766,0.1817265446880358,-1.300019405378449, ,0.04055424852926101,0.02767481526931198,0.009498396851520574,0.004485056982083368,0.07046177972065756,-0.06421825462388728, ,0.7471761703491211
0.011069257321939243,0.020671069786663804,-0.08286706380438823, ,0.011421939516722046,0.020504425692565095,-0.0832715507095281, ,0.0005619293915114501, ,0.004550651528551965,0.00013876668106532606,-0.009596049639507935,0.009723924224052273,-0.00013703070688454656,-0.0020833508891016923, ,0.010621292492441143, ,0.009724885519125322, ,5.498834390786005e-05, ,0.1525394197316825,-0.2418296572234663,0.09275603095000001,1.6022408581652505,0.18254636368662844,-1.3006062340604871, ,0.04083345161724216,0.02676923598264338,0.009905977313432835,0.006698910168140299,0.039543870391729616,-0.03551722401665719, ,0.7616071701049805
0.011166024799037352,0.02067596700079572,-0.08307293020293147, ,0.011491349576428155,0.020499757623479675,-0.08340133026465178, ,0.0004947045138023218, ,0.0048096572449076724,0.00021087712137552074,-0.009969485707843334,0.01671674224414386,-0.01191832961152876,-0.0042586336316203744, ,0.011071039574163983, ,0.020530366618806858, ,5.5490705036991644e-05, ,0.15336575214922454,-0.24128134318939637,0.09296862251000002,1.6022408581652505,0.1830929096856902,-1.3008885481949917, ,0.041584987536577904,0.0269517016638656,0.01030991036893204,0.0058886480012611975,0.028524218532530853,-0.04265858607994684, ,0.7752761840820312
0.01121032597891217,0.020678012329861935,-0.08317045994947253, ,0.011560664111655634,0.020494999444616187,-0.08353078568479057, ,0.000534850594982033, ,0.00443404467192822,0.00013470464424007852,-0.009662053308652769,0.05077903650302316,0.032457020675803125,0.006077237656225336, ,0.010631752989657106, ,0.060265816638605946, ,5.609521511112363e-05, ,0.15378277972443266,-0.24101877027167273,0.09306973313000001,1.6022408581652505,0.1837760921845174,-1.3014456377134738, ,0.042554682313215596,0.026890604012034792,0.010018120452830188,0.005558890074111728,0.07483678020518984,-0.07698214371920668, ,0.7896740436553955
0.011311474063275732,0.020677137811206163,-0.08336562373830017, ,0.011629882625729065,0.020490152317546452,-0.08365991726158206, ,0.0004721824491956821, ,0.004824118481277329,-6.85799247855406e-05,-0.00824527356350512,-0.007358945340362327,-0.024812153708501067,-0.0005715489619738078, ,0.009553081097976793, ,0.025880436821427828, ,5.6494071459738156e-05, ,0.15471723040221383,-0.24043184257323166,0.09327195437000001,1.6024505481087352,0.18473254768287548,-1.3021438842992081, ,0.04357068023804903,0.025085102183048054,0.008577712180936998,0.000711881175453201,0.018906309900403907,-0.017432804433465753, ,0.8057839870452881
0.011362440652040206,0.02067410068905826,-0.08344656811935725, ,0.011699004625396957,0.02048521740016333,-0.08378872528721493, ,0.0005157748854896281, ,0.0048259919075687744,-0.0006084601523770915,-0.0072022234863967595,-0.023764119216123994,-0.021444567733615482,-0.007069948407201043, ,0.00869094038622721, ,0.03200941780196422, ,5.700508434046417e-05, ,0.15519603984041574,-0.24015382418975958,0.09335621322000001,1.6026602380522197,0.18500582068240637,-1.3022850413664604, ,0.0458439331200342,0.02841225795163796,0.007453819148338794,0.008438229745740874,0.02302217511423372,-0.003163012830053132, ,0.8197569847106934
0.011448186545985022,0.020663739893319814,-0.0835926472148825, ,0.011768029620825689,0.020480195846683192,-0.08391721005442698, ,0.0004912525281283064, ,0.0045709781216984255,-0.00034069327278499033,-0.007869713974314936,0.016665613246767116,0.019460541654927818,0.001754426113284159, ,0.00910726692991341, ,0.025621383963571383, ,5.7429010539570764e-05, ,0.15609187685382578,-0.23960551015568965,0.09350787915000001,1.6026602380522197,0.1865088221798262,-1.3032656020866993, ,0.04586609065175001,0.027159971825549738,0.008193833086419754,0.008438229745740874,0.06462307386747093,-0.04259686417899314, ,0.8369140625
0.011498452721520766,0.020661110868869653,-0.08368024691980058, ,0.011836957125593973,0.02047508880765187,-0.08404537185650508, ,0.0005315126134346525, ,0.004925520550761514,-0.0001555217308565064,-0.008797544116807174,-0.03593258304333027,-0.022116087674591365,-0.007254180270254245, ,0.010083735527665883, ,0.04219326730055927, ,5.81135135108223e-05, ,0.15654751809340503,-0.23931976903934332,0.09359861945,1.6026602380522197,0.1867820951793571,-1.30316172293353, ,0.043490807313689636,0.027554280359602435,0.009112592402745997,0.00842131710367482,0.020095670924644263,0.009887004774755136, ,0.8478231430053711
0.011547503173573665,0.020659333691071813,-0.0837716036674858, ,0.011905786656687,0.02046989742994803,-0.08417321098728418, ,0.0005705625212157038, ,0.005216425344820826,-0.00018931314571303304,-0.009563542925709613,-0.01018625184089414,-0.017507024226393133,-0.006358715967736834, ,0.010895333227447393, ,0.020254765953446253, ,5.8886980233644375e-05, ,0.15699543660011006,-0.23903402792299702,0.09369324862,1.6026602380522197,0.18719200467865343,-1.3032509404241976, ,0.046133661428522495,0.030059214937748106,0.009893671751552797,0.007895896573693637,0.027294631273334296,-0.018466251536556882, ,0.8594760894775391
0.011645830447168938,0.020659486539912453,-0.08397263356674116, ,0.01197451773449079,0.020464622856788458,-0.08430072774114528, ,0.0005036397275092238, ,0.005218166932476004,0.0003045789480878126,-0.010862912330831075,0.02845431482028062,0.01177277736464613,0.0007910164788903818, ,0.012055077717631112, ,0.030793605951668458, ,5.94570206323937e-05, ,0.1579144418121428,-0.23845482295743017,0.09390195131000001,1.6026602380522197,0.18855836967630782,-1.304283440721021, ,0.04672424498201417,0.027984942954429604,0.011313076363636366,0.0070260976416147754,0.05773163715664676,-0.05537949854086831, ,0.876845121383667
0.011698799623913798,0.02066131346558588,-0.0840748234143329, ,0.012043149882786462,0.020459266227732326,-0.084427922413016, ,0.0005329907034657654, ,0.005345480600961963,-4.622421533962475e-05,-0.00997989553570414,-0.026246300686943988,-0.028454366257309245,-0.003669430808900814, ,0.011321422809740472, ,0.038710711177344245, ,6.009063783751143e-05, ,0.158370083051722,-0.2381768045739581,0.09400824709000001,1.602869927995704,0.1888316426758387,-1.3045062765284139, ,0.04540523519544056,0.02931632423802001,0.010336671979234265,0.0030611004748466956,0.016675927084869563,-0.002327562132456005, ,0.8882920742034912
0.011755159442521446,0.020660474242184187,-0.08417738718224212, ,0.012111682628744203,0.020453828678684505,-0.08455479529836812, ,0.0005587916045775114, ,0.0056354981673988475,-8.354019395417002e-05,-0.009937640529810787,-0.04030730534008322,-0.0452396633782345,-0.012056081571756362, ,0.011424645196175663, ,0.060591302258938134, ,6.0775885623691685e-05, ,0.15884889248992393,-0.23786789525898913,0.09411454287000001,1.6030796179391889,0.18896827917560413,-1.3045360156919699, ,0.046978683939837014,0.029711002366459228,0.010303241604139717,0.008077741171183568,0.0,0.012219679905746732, ,0.8995909690856934
0.011806368523222286,0.02065952320510079,-0.08427866935466224, ,0.01218011550291795,0.020448311341901955,-0.08468134669321763, ,0.0005885968866495987, ,0.004935634523342112,-0.00016315605086670787,-0.010060534552489248,0.02427293043677135,0.024275044692929945,0.0020988932825069897, ,0.011207205875095317, ,0.03432860095850824, ,6.152121928476797e-05, ,0.1593122564623774,-0.23756670867689436,0.09421954236,1.6030796179391889,0.18951482517466592,-1.304900008566615, ,0.04579968221933918,0.030790701349276698,0.010417796939175933,0.008077741171183568,0.06943085983947925,-0.05383961956773394, ,0.911189079284668
0.011856780425556313,0.02065770277555272,-0.08438497814363939, ,0.012248448039239159,0.020442715345995947,-0.08480757689412313, ,0.0006149900961689238, ,0.0051812268268299645,-9.957524036384926e-05,-0.01035232284024451,0.02808267379640539,0.025383964347450244,0.0027743162501375597, ,0.011576943242851464, ,0.0378547499614774, ,6.231549318591805e-05, ,0.15979878863345356,-0.23724235389617693,0.09432972701,1.6030796179391889,0.19047128067302396,-1.3056799338924898, ,0.048367452374348,0.03089093149689804,0.0107554432950709,0.008077741171183568,0.07314813961405142,-0.05777049179057622, ,0.9242680072784424
0.011964621371754589,0.020656047594559565,-0.08459554008419579, ,0.01231667977501144,0.020437041815938483,-0.08493348619818487, ,0.0005348983327077352, ,0.005732038783380384,-0.000231763930676597,-0.010463291050270404,-0.02253813073840343,-0.0398155396618063,-0.011915249921695363, ,0.01193274665516738, ,0.045751988047838234, ,6.288518927463781e-05, ,0.16071007111261204,-0.23662453526623897,0.09454750373000001,1.6030796179391889,0.19101782667208575,-1.3059622480269946, ,0.047212408735557605,0.032521227401806296,0.010806520705563096,0.008077741171183568,0.005546293001190631,-0.008343829766065645, ,0.9358601570129395
0.012017947905147989,0.020653888113404725,-0.08469558229286873, ,0.012384810250904538,0.020431291873065062,-0.08505907490304417, ,0.0005623734920846633, ,0.005449275205143985,-0.000285495237652534,-0.01025298327535672,-0.01105139839386585,-0.009177595369644574,-0.004409722342156986, ,0.011614636190465197, ,0.01436528976120204, ,6.35097422865055e-05, ,0.16118115781793974,-0.23631562595127,0.09465120693000001,1.6030796179391889,0.19142773617138206,-1.3063781804782244, ,0.047543557895025436,0.03246559752256955,0.01060506758988016,0.007680764525275623,0.03734969298074329,-0.0200201035970141, ,0.9468021392822266
0.012072039216484077,0.020650423653885197,-0.08480591381630882, ,0.012452839010948829,0.020425466635080627,-0.08518434330688203, ,0.0005820850651832031, ,0.005431449310736576,-0.00018409467807238363,-0.01113917293611216,0.027721974861406644,0.03530292739791393,0.00864827111825581, ,0.012394180334584816, ,0.04488657262008989, ,6.432781235143611e-05, ,0.16168313545476434,-0.23596038023905566,0.09476528045,1.603289307882673,0.19224755516997472,-1.307046687900403, ,0.05074702757137475,0.033508807047482624,0.011517578828633407,0.004528939213227055,0.08652179591032529,-0.06069736954863737, ,0.9558470249176025
0.012072039216484077,0.020650423653885197,-0.08480591381630882, ,0.01252076560252921,0.020419567216062567,-0.08530929170841806, ,0.0007127688031063191, ,0.005431449310736576,-0.00018409467807238363,-0.01113917293611216,0.027721974861406644,0.03530292739791393,0.00864827111825581, ,0.012394180334584816, ,0.04488657262008989, ,6.545239890378322e-05, ,0.16168313545476434,-0.23596038023905566,0.09476528045,1.603289307882673,0.19224755516997472,-1.307046687900403, ,0.05074702757137475,0.033508807047482624,0.011517578828633407,0.004528939213227055,0.08652179591032529,-0.06069736954863737, ,0.9659121036529541
0.012150993560826478,0.020648496753161036,-0.08496076109574549, ,0.012588589576379669,0.020413594726466068,-0.08543392040690989, ,0.0006859657197812452, ,0.005964555814681149,-0.00013220453909216172,-0.011697370203934613,0.0003917089703198346,-0.0001586310458336464,0.0004228924851563467, ,0.01313095098591494, ,0.0004223514266745789, ,6.648945544208668e-05, ,0.16238590414631876,-0.2354970162666022,0.09492602041,1.6034989978261578,0.19306737416856737,-1.3077151953225814, ,0.051912987723452285,0.0345582452871343,0.012131615780654989,0.005212459737799006,0.051526280181442154,-0.03397752354757316, ,0.9751431941986084
0.012216073067101456,0.020648180591511016,-0.08508572404184668, ,0.012656310486577347,0.02040755027312833,-0.08555822970215138, ,0.0006891832373554391, ,0.0066471939139326275,-0.00022947736696813796,-0.011959556287628058,-0.03582101521595424,-0.047998152807485615,-0.009642676588475476, ,0.013684620323133462, ,0.059891297860084805, ,6.751421431760022e-05, ,0.16292649544751447,-0.23514177055438787,0.09505564941000001,1.6034989978261578,0.19334064716809823,-1.3078563523898337, ,0.05428886816846154,0.0363450561311646,0.012386323110419907,0.005212459737799006,0.005233216231679862,0.0007511940559564766, ,0.9844570159912109
0.012282769900701275,0.020645336511039298,-0.08521484469312307, ,0.01272392789053679,0.020401434959272713,-0.08568221989447268, ,0.0006874212084206077, ,0.006730927067295391,-8.433875606144505e-05,-0.013616071695497693,-0.010839934951181534,-0.01581806199921301,-0.0030545932217331175, ,0.015189137586708376, ,0.01917589129981882, ,6.85150880613657e-05, ,0.16349025494733288,-0.23474791117780242,0.09518916728000001,1.6034989978261578,0.19375055666739455,-1.308190606100923, ,0.05546285304410916,0.03908440756114941,0.01408382981432361,0.005212459737799006,0.03915830338265559,-0.027133399038761823, ,0.9932379722595215
0.012344273679271055,0.020647611091427275,-0.08535712545885814, ,0.012791441349004165,0.020395249884513408,-0.08580589128473812, ,0.000681935385566186, ,0.00632682581859661,0.0002724968899100042,-0.014675941699864315,0.053332637848455704,0.05913886191169277,0.01314482572655894, ,0.01598393707043692, ,0.07963525957305961, ,6.948391236854081e-05, ,0.16403856898140282,-0.23437721999983965,0.09533694434000001,1.6034989978261578,0.19484364866551807,-1.3090819493304942, ,0.05665489048266912,0.03786789367855977,0.015257482298850577,0.005212459737799006,0.11658480729364183,-0.09058066901298836, ,1.002228021621704
0.012344273679271055,0.020647611091427275,-0.08535712545885814, ,0.012858850426051855,0.02038899614486054,-0.0859292441743463, ,0.000811782448398002, ,0.00632682581859661,0.0002724968899100042,-0.014675941699864315,0.053332637848455704,0.05913886191169277,0.01314482572655894, ,0.01598393707043692, ,0.07963525957305961, ,7.074002248365573e-05, ,0.16403856898140282,-0.23437721999983965,0.09533694434000001,1.6034989978261578,0.19484364866551807,-1.3090819493304942, ,0.05665489048266912,0.03786789367855977,0.015257482298850577,0.005212459737799006,0.11658480729364183,-0.09058066901298836, ,1.0116121768951416
0.012406665040251088,0.02064987564966979,-0.08549699662529618, ,0.01292615468907182,0.020382674832722443,-0.08605227886522777, ,0.0008059802341203301, ,0.006981809086598956,0.00033064200125000045,-0.01554433935609385,0.020881643406398497,0.018204558077545042,0.00443522511528333, ,0.01704351689857802, ,0.02770285289676778, ,7.195918365891378e-05, ,0.1645714375497243,-0.23401425155475108,0.09548212882000001,1.6034989978261578,0.19566346766411072,-1.3095870992723917, ,0.05814763575886691,0.03949102853036654,0.01613861349544073,0.005212459737799006,0.07644099126440444,-0.05948395374917448, ,1.0224239826202393
0.012523945093741003,0.020654422750235896,-0.08574541813605571, ,0.012993353708770888,0.02037628703691279,-0.08617499565984493, ,0.0006944355778867525, ,0.007631749946407095,2.2879760994272435e-05,-0.015025560191581244,-0.03417779457920635,-0.042007463965091446,-0.010152259404975253, ,0.01685264340685991, ,0.054154851169677054, ,7.289821101053295e-05, ,0.16552133369325392,-0.23337326472619047,0.09574009053000002,1.6037086877696423,0.19648328666270337,-1.3098472129938674, ,0.060023365944636795,0.04142162442534735,0.015570685747800588,0.007336589760589147,0.016703856360332153,-0.005599222273215099, ,1.0316991806030273
0.01259777973976442,0.02065137786532672,-0.08588815963383364, ,0.013060447059164175,0.02036983384265317,-0.08629739486119081, ,0.0006788236563746375, ,0.007263530793360008,-0.0006808192262641609,-0.01283241851100712,-0.03480900852277775,-0.022706539055834266,-0.00347972102382893, ,0.014761211306887324, ,0.041560241123726915, ,7.39535528071913e-05, ,0.16613142959031765,-0.23294079168523388,0.09588786759000001,1.6039183777131267,0.19689319616199968,-1.3100181092246754, ,0.0621053282450725,0.04323323077834659,0.013285080500417015,0.005429574641674605,0.039125758731182715,-0.007174839977469179, ,1.038297176361084
0.012667114684590985,0.020644056719354202,-0.08600896606567843, ,0.013127434317569851,0.020363316331578295,-0.08641947677278798, ,0.0006776639067310217, ,0.006793098582506219,-0.0007658684718581478,-0.012298412703298152,0.026358138185555165,0.05038573309638815,0.012644495075829619, ,0.014070667997237362, ,0.05686363747528227, ,7.499182899924015e-05, ,0.16613142959031765,-0.23294079168523388,0.09588786759000001,1.6039183777131267,0.19689319616199968,-1.3100181092246754, ,0.0621053282450725,0.04323323077834659,0.013285080500417015,0.005429574641674605,0.039125758731182715,-0.007174839977469179, ,1.04506516456604
0.012667114684590985,0.020644056719354202,-0.08600896606567843, ,0.013194315064602996,0.020356735581740254,-0.08654124169868753, ,0.0008023783560763733, ,0.006793098582506219,-0.0007658684718581478,-0.012298412703298152,0.026358138185555165,0.05038573309638815,0.012644495075829619, ,0.014070667997237362, ,0.05686363747528227, ,7.629817033199728e-05, ,0.1667724164188783,-0.23252376411002576,0.09601360772,1.6039183777131267,0.19771301516059234,-1.310523259166573, ,0.06558185318484504,0.04272712361930247,0.012814812164119069,0.005429574641674605,0.11699391736022802,-0.06831172443742786, ,1.0529131889343262
0.012698282230030491,0.02063950129851066,-0.08606894954329973, ,0.013261088884169946,0.02035009266761247,-0.08666268994346794, ,0.0008677766696414031, ,0.006969801041564201,-0.0009720779705505271,-0.012988894790563517,0.032025643067376035,0.05876862448127569,0.013940659992563973, ,0.014772760406239151, ,0.06692826508725845, ,7.773386057614428e-05, ,0.16708132573384726,-0.23230752758954748,0.09607582964000001,1.6039183777131267,0.19839619765941952,-1.311080348685055, ,0.06720746569296797,0.046770301408807675,0.01347615187817259,0.005429574641674605,0.12713369247606116,-0.07803080018429404, ,1.0605871677398682
0.012813109666328492,0.020628465642177622,-0.08627960638369638, ,0.01332775536346277,0.020343388660095555,-0.0867838218122339, ,0.0007748304831814046, ,0.008282039641271246,-0.00026156026321850524,-0.01508571641240243,0.008919064702822865,0.002937849024171585,0.00303349500119787, ,0.017211607538702225, ,0.009390414833254557, ,7.894285365974466e-05, ,0.1681316174047418,-0.23160475889799303,0.09629490265000001,1.6039183777131267,0.19989919915683937,-1.312224266885575, ,0.07238515755794873,0.04451076058089624,0.015771100514851488,0.005429574641674605,0.07539728776037327,-0.05238614396975676, ,1.0674090385437012
0.012813109666328492,0.020628465642177622,-0.08627960638369638, ,0.013394314092953047,0.020336624626519653,-0.08690463761061581, ,0.000902016517904563, ,0.008282039641271246,-0.00026156026321850524,-0.01508571641240243,0.008919064702822865,0.002937849024171585,0.00303349500119787, ,0.017211607538702225, ,0.009390414833254557, ,8.041777152432411e-05, ,0.1681316174047418,-0.23160475889799303,0.09629490265000001,1.6039183777131267,0.19989919915683937,-1.312224266885575, ,0.07238515755794873,0.04451076058089624,0.015771100514851488,0.005429574641674605,0.07539728776037327,-0.05238614396975676, ,1.0740091800689697
0.012907564765580672,0.020625511690801145,-0.08645381519151808, ,0.013460764666386443,0.02032980163065073,-0.08702513764476805, ,0.0008484597312266704, ,0.008984739469987329,-0.0003085797218303254,-0.017094908250592396,-0.03298427500840281,-0.035779932528776696,-0.005871874767218983, ,0.01931467454772265, ,0.048663790539348446, ,8.175523059184327e-05, ,0.16891933615791271,-0.23109505852829423,0.09647638325,1.6039183777131267,0.20044574515590113,-1.3124249022799392, ,0.07211013796236382,0.05007754171950965,0.017738097461024498,0.005429574641674605,0.03583828061409327,-0.015711762801532157, ,1.0806360244750977
0.013000903175817046,0.020624733323030282,-0.08663971110079657, ,0.01352710668077692,0.020322920732694268,-0.08714532222136895, ,0.0007896984067122353, ,0.00942207910004459,0.00014817610621627945,-0.01937677981976008,-0.016069687439535987,-0.02080262567203638,-0.003960138124287507, ,0.021546626810464136, ,0.02628652426077613, ,8.294654944290827e-05, ,0.1696684412467125,-0.23057763542572118,0.09666953046000001,1.6041280676566114,0.2009922911549629,-1.3127888951545843, ,0.07402257531861994,0.05091037637257016,0.020137561972187107,0.006665977472957157,0.052657366809130655,-0.033337135479072105, ,1.0878231525421143
0.013000903175817046,0.020624733323030282,-0.08663971110079657, ,0.013593339736400673,0.020315982989298983,-0.08726519164761817, ,0.0009151687064949243, ,0.00942207910004459,0.00014817610621627945,-0.01937677981976008,-0.016069687439535987,-0.02080262567203638,-0.003960138124287507, ,0.021546626810464136, ,0.02628652426077613, ,8.439509087370436e-05, ,0.1696684412467125,-0.23057763542572118,0.09666953046000001,1.6041280676566114,0.2009922911549629,-1.3127888951545843, ,0.07402257531861994,0.05091037637257016,0.020137561972187107,0.006665977472957157,0.052657366809130655,-0.033337135479072105, ,1.0951461791992188
0.013000903175817046,0.020624733323030282,-0.08663971110079657, ,0.013659463436790798,0.020308989453562982,-0.08738474623123751, ,0.0010432991680391342, ,0.00942207910004459,0.00014817610621627945,-0.01937677981976008,-0.016069687439535987,-0.02080262567203638,-0.003960138124287507, ,0.021546626810464136, ,0.02628652426077613, ,8.62879674674094e-05, ,0.1696684412467125,-0.23057763542572118,0.09666953046000001,1.6041280676566114,0.2009922911549629,-1.3127888951545843, ,0.07402257531861994,0.05091037637257016,0.020137561972187107,0.006665977472957157,0.052657366809130655,-0.033337135479072105, ,1.1000471115112305
0.013145653459947792,0.020624585309210797,-0.08693516309152227, ,0.013725477388730978,0.020301941175036205,-0.08750398628046804, ,0.0008739878980794176, ,0.009422748571252696,-0.00011004878406512751,-0.018331246917410695,-0.005222730662628054,-0.0011368750324802011,-0.0004589700400463871, ,0.020611523837867934, ,0.005344841481556568, ,8.77996311810831e-05, ,0.17083457391072038,-0.22977447120680183,0.09697675119000002,1.6043377576000957,0.2020853831530864,-1.3135168809038746, ,0.0779121030857724,0.050855810052771046,0.019122222713085234,0.008233026726474,0.07634469908068055,-0.043990251742352916, ,1.1048321723937988
0.013145653459947792,0.020624585309210797,-0.08693516309152227, ,0.013791381202250172,0.020294839199726303,-0.08762291210407036, ,0.00099934754623202, ,0.009422748571252696,-0.00011004878406512751,-0.018331246917410695,-0.005222730662628054,-0.0011368750324802011,-0.0004589700400463871, ,0.020611523837867934, ,0.005344841481556568, ,8.956733136106133e-05, ,0.17083457391072038,-0.22977447120680183,0.09697675119000002,1.6043377576000957,0.2020853831530864,-1.3135168809038746, ,0.0779121030857724,0.050855810052771046,0.019122222713085234,0.008233026726474,0.07634469908068055,-0.043990251742352916, ,1.109546184539795
0.013244150543964854,0.02062204484153659,-0.0871256503561492, ,0.013857174490616825,0.020287684570102854,-0.08774152401132329, ,0.000931072236413205, ,0.010245062372637823,-0.0005019201145105243,-0.018994949513429733,-0.02599655629663693,-0.02865401608627302,-0.006238200916820669, ,0.021587527274755994, ,0.03868941850618564, ,9.117403557834998e-05, ,0.17163773812963973,-0.22923387990560612,0.09717508356000001,1.6043377576000957,0.20276856565191362,-1.3140739704223567, ,0.08316997507315581,0.056756543994300704,0.019762793449131517,0.008233026726474,0.053681057487872566,-0.02888394528100918, ,1.114022970199585
0.013244150543964854,0.02062204484153659,-0.0871256503561492, ,0.013922856870332557,0.02028047832510094,-0.08785982231202216, ,0.001056559711228783, ,0.010245062372637823,-0.0005019201145105243,-0.018994949513429733,-0.02599655629663693,-0.02865401608627302,-0.006238200916820669, ,0.021587527274755994, ,0.03868941850618564, ,9.30340603444608e-05, ,0.17163773812963973,-0.22923387990560612,0.09717508356000001,1.6043377576000957,0.20276856565191362,-1.3140739704223567, ,0.08316997507315581,0.056756543994300704,0.019762793449131517,0.008233026726474,0.053681057487872566,-0.02888394528100918, ,1.1189141273498535
0.01335131769621836,0.020619899049675004,-0.08733617450567861, ,0.0139884279611271,0.020273221500126483,-0.08797780731647893, ,0.0009683942776104001, ,0.011174634447420962,9.4953247353564e-05,-0.022742340877230087,0.008018126171789257,-0.00404735124534822,-0.0010459250606273038, ,0.02533960417466699, ,0.008981387175565582, ,9.469153101590459e-05, ,0.17249496147867865,-0.22864695220716505,0.09739415657000002,1.6043377576000957,0.20345174815074082,-1.314549381200698, ,0.08893808955807946,0.05979643450439242,0.023703588571428576,0.008233026726474,0.08435375624577432,-0.06608661391225432, ,1.1236300468444824
0.01335131769621836,0.020619899049675004,-0.08733617450567861, ,0.014053887385952158,0.020265915127060743,-0.0880954793355195, ,0.00109336755531785, ,0.011174634447420962,9.4953247353564e-05,-0.022742340877230087,0.008018126171789257,-0.00404735124534822,-0.0010459250606273038, ,0.02533960417466699, ,0.008981387175565582, ,9.659867129709877e-05, ,0.17249496147867865,-0.22864695220716505,0.09739415657000002,1.6043377576000957,0.20345174815074082,-1.314549381200698, ,0.08893808955807946,0.05979643450439242,0.023703588571428576,0.008233026726474,0.08435375624577432,-0.06608661391225432, ,1.1280159950256348
0.013469049165627333,0.020621643764057583,-0.08757835342598276, ,0.014119234770975432,0.02025856023426358,-0.08821283868048435, ,0.0009783366032146072, ,0.011507608198484027,2.503697501448466e-05,-0.02386584928653491,0.034036325082397574,0.026338599636374582,0.005355740591002175, ,0.026495366301818393, ,0.043037024912996207, ,9.824812352529291e-05, ,0.17338307575921447,-0.228060024508724,0.09763008135000001,1.6043377576000957,0.20454484014886434,-1.3154407244302697, ,0.09461310225171563,0.062432198393730785,0.024811232897196264,0.008233026726474,0.11980576883341608,-0.09566225492221635, ,1.1325581073760986
0.013469049165627333,0.020621643764057583,-0.08757835342598276, ,0.014184469745575237,0.020251157846579146,-0.08832988566322673, ,0.0011017654581986886, ,0.011507608198484027,2.503697501448466e-05,-0.02386584928653491,0.034036325082397574,0.026338599636374582,0.005355740591002175, ,0.026495366301818393, ,0.043037024912996207, ,0.00010014199216786218, ,0.17338307575921447,-0.228060024508724,0.09763008135000001,1.6043377576000957,0.20454484014886434,-1.3154407244302697, ,0.09461310225171563,0.062432198393730785,0.024811232897196264,0.008233026726474,0.11980576883341608,-0.09566225492221635, ,1.1372261047363281
0.013575448498140128,0.020622891774980185,-0.0878007413081785, ,0.01424959194233444,0.020243708985339795,-0.08844662059611075, ,0.0010076750596742518, ,0.012152004859364483,0.0004020907109812733,-0.025403893826247113,0.02803060200798967,0.015310011627666454,0.005141759799759626, ,0.02816364182021053, ,0.031939012579997476, ,0.00010182405690815078, ,0.1743020809712472,-0.22744220587878602,0.09787896903000001,1.6045474475435806,0.20563793214698786,-1.316332067659841, ,0.0963420726481937,0.06284565666123892,0.026548019200000002,0.00670318035117358,0.11184261254346606,-0.08950474135005376, ,1.1418650150299072
0.013575448498140128,0.020622891774980185,-0.0878007413081785, ,0.014314600997035036,0.02023621466837084,-0.08856304379201209, ,0.0011300312731323957, ,0.012152004859364483,0.0004020907109812733,-0.025403893826247113,0.02803060200798967,0.015310011627666454,0.005141759799759626, ,0.02816364182021053, ,0.031939012579997476, ,0.00010374601367021736, ,0.1743020809712472,-0.22744220587878602,0.09787896903000001,1.6045474475435806,0.20563793214698786,-1.316332067659841, ,0.0963420726481937,0.06284565666123892,0.026548019200000002,0.00670318035117358,0.11184261254346606,-0.08950474135005376, ,1.1465661525726318
0.013575448498140128,0.020622891774980185,-0.0878007413081785, ,0.014379496548651812,0.02022867590999413,-0.0886791555643157, ,0.0012543966761449175, ,0.013223888327284015,0.00020205253862772563,-0.027671580301441952,-0.00561378042871777,-0.02024736543798764,-0.004970292527930366, ,0.03066966586221628, ,0.021010809442706817, ,0.00010590903980411091, ,0.1753523726421417,-0.22673171445435739,0.09817970831000002,1.6047571374870648,0.20673102414511138,-1.3172234108894125, ,0.09978647903098925,0.07045058764548684,0.028804360795660042,0.008814088668878202,0.07875411825818104,-0.06275331105591114, ,1.1515710353851318
0.01371139040169387,0.02062762671966308,-0.08808897046022925, ,0.014444278239347057,0.020221093721033676,-0.08879495622691486, ,0.0010958145665746774, ,0.013223888327284015,0.00020205253862772563,-0.027671580301441952,-0.00561378042871777,-0.02024736543798764,-0.004970292527930366, ,0.03066966586221628, ,0.021010809442706817, ,0.00010772796261679909, ,0.1753523726421417,-0.22673171445435739,0.09817970831000002,1.6047571374870648,0.20673102414511138,-1.3172234108894125, ,0.09978647903098925,0.07045058764548684,0.028804360795660042,0.008814088668878202,0.07875411825818104,-0.06275331105591114, ,1.1562130451202393
0.01371139040169387,0.02062762671966308,-0.08808897046022925, ,0.014508945714464705,0.020213469108819427,-0.0889104460942105, ,0.0012175562495316662, ,0.013223888327284015,0.00020205253862772563,-0.027671580301441952,-0.00561378042871777,-0.02024736543798764,-0.004970292527930366, ,0.03066966586221628, ,0.021010809442706817, ,0.0001100068708034826, ,0.1753523726421417,-0.22673171445435739,0.09817970831000002,1.6047571374870648,0.20673102414511138,-1.3172234108894125, ,0.09978647903098925,0.07045058764548684,0.028804360795660042,0.008814088668878202,0.07875411825818104,-0.06275331105591114, ,1.1585090160369873
0.01371139040169387,0.02062762671966308,-0.08808897046022925, ,0.01457349862252416,0.020205803077191185,-0.0890256254811101, ,0.0013410773273427317, ,0.013223888327284015,0.00020205253862772563,-0.027671580301441952,-0.00561378042871777,-0.02024736543798764,-0.004970292527930366, ,0.03066966586221628, ,0.021010809442706817, ,0.00011252955616524336, ,0.1753523726421417,-0.22673171445435739,0.09817970831000002,1.6047571374870648,0.20673102414511138,-1.3172234108894125, ,0.09978647903098925,0.07045058764548684,0.028804360795660042,0.008814088668878202,0.07875411825818104,-0.06275331105591114, ,1.1607441902160645
0.013846104222635843,0.020630773708693925,-0.08836645757437363, ,0.014637936615214994,0.02019809662650435,-0.0891404947030259, ,0.0011888403895906141, ,0.014008277407943723,0.00033658897848150033,-0.028668604582752496,-0.024730235014230786,-0.04605597206578411,-0.017834423941173995, ,0.031909779328609576, ,0.052275402639314086, ,0.000114730600814375, ,0.17634860518291667,-0.22603666849567716,0.09846878098,1.6049668274305493,0.20727757014417317,-1.3176690825041981, ,0.10337357468243004,0.07140477167680269,0.029885199849906192,0.016876286279177907,0.05436675892309259,-0.043017188336476324, ,1.1630401611328125
0.013846104222635843,0.020630773708693925,-0.08836645757437363, ,0.01470225934739093,0.020190350753633166,-0.08925505407587482, ,0.0013101823229875339, ,0.014008277407943723,0.00033658897848150033,-0.028668604582752496,-0.024730235014230786,-0.04605597206578411,-0.017834423941173995, ,0.031909779328609576, ,0.052275402639314086, ,0.0001171702982065651, ,0.17634860518291667,-0.22603666849567716,0.09846878098,1.6049668274305493,0.20727757014417317,-1.3176690825041981, ,0.10337357468243004,0.07140477167680269,0.029885199849906192,0.016876286279177907,0.05436675892309259,-0.043017188336476324, ,1.1653411388397217
0.013846104222635843,0.020630773708693925,-0.08836645757437363, ,0.014766466477064194,0.020182566451975987,-0.08936930391607717, ,0.0014330586901516746, ,0.014008277407943723,0.00033658897848150033,-0.028668604582752496,-0.024730235014230786,-0.04605597206578411,-0.017834423941173995, ,0.031909779328609576, ,0.052275402639314086, ,0.0006538500534596509, ,0.17634860518291667,-0.22603666849567716,0.09846878098,1.6049668274305493,0.20727757014417317,-1.3176690825041981, ,0.10337357468243004,0.07140477167680269,0.029885199849906192,0.016876286279177907,0.05436675892309259,-0.043017188336476324, ,1.1676311492919922
0.013846104222635843,0.020630773708693925,-0.08836645757437363, ,0.014830557665399506,0.020174744711459008,-0.08948324454055483, ,0.001557024134405282, ,0.014008277407943723,0.00033658897848150033,-0.028668604582752496,-0.024730235014230786,-0.04605597206578411,-0.017834423941173995, ,0.031909779328609576, ,0.052275402639314086, ,0.0006637750433601523, ,0.17634860518291667,-0.22603666849567716,0.09846878098,1.6049668274305493,0.20727757014417317,-1.3176690825041981, ,0.10337357468243004,0.07140477167680269,0.029885199849906192,0.016876286279177907,0.05436675892309259,-0.043017188336476324, ,1.1700270175933838
0.01399502454501908,0.020631028872361224,-0.08867382409743735, ,0.014894532576708405,0.020166886518541118,-0.08959687626673085, ,0.0013698788745435543, ,0.015607447682181311,6.26690064419441e-05,-0.03278763525077185,0.024434867692821778,0.014487682224426722,-0.0036270266622976306, ,0.0363128816798399, ,0.028406298652667965, ,0.0006714500850034501, ,0.17747612418255346,-0.22524122700963206,0.09878896461000002,1.6049668274305493,0.20823402564253127,-1.3185306865702136, ,0.11981937065463481,0.08450306461128297,0.034181998969957085,0.015825866766894185,0.13276488047967275,-0.10572215673113765, ,1.172370195388794
0.01399502454501908,0.020631028872361224,-0.08867382409743735, ,0.014958390878443783,0.020158992856218784,-0.08971019941252885, ,0.0014916321552724684, ,0.015607447682181311,6.26690064419441e-05,-0.03278763525077185,0.024434867692821778,0.014487682224426722,-0.0036270266622976306, ,0.0363128816798399, ,0.028406298652667965, ,0.0006802692470493536, ,0.17747612418255346,-0.22524122700963206,0.09878896461000002,1.6049668274305493,0.20823402564253127,-1.3185306865702136, ,0.11981937065463481,0.08450306461128297,0.034181998969957085,0.015825866766894185,0.13276488047967275,-0.10572215673113765, ,1.1745731830596924
0.01399502454501908,0.020631028872361224,-0.08867382409743735, ,0.01502213224119337,0.020151064704028897,-0.08982321429637041, ,0.0016144391136945326, ,0.015607447682181311,6.26690064419441e-05,-0.03278763525077185,0.024434867692821778,0.014487682224426722,-0.0036270266622976306, ,0.0363128816798399, ,0.028406298652667965, ,0.0006902072243540895, ,0.17747612418255346,-0.22524122700963206,0.09878896461000002,1.6049668274305493,0.20823402564253127,-1.3185306865702136, ,0.11981937065463481,0.08450306461128297,0.034181998969957085,0.015825866766894185,0.13276488047967275,-0.10572215673113765, ,1.1768341064453125
0.01399502454501908,0.020631028872361224,-0.08867382409743735, ,0.01508575633867474,0.020143103038055336,-0.08993592123717574, ,0.0017380036408506795, ,0.015607447682181311,6.26690064419441e-05,-0.03278763525077185,0.024434867692821778,0.014487682224426722,-0.0036270266622976306, ,0.0363128816798399, ,0.028406298652667965, ,0.0007012366603172115, ,0.17747612418255346,-0.22524122700963206,0.09878896461000002,1.6049668274305493,0.20823402564253127,-1.3185306865702136, ,0.11981937065463481,0.08450306461128297,0.034181998969957085,0.015825866766894185,0.13276488047967275,-0.10572215673113765, ,1.1790931224822998
0.014166398479098487,0.020636827007679943,-0.08905523054205261, ,0.015149262847728988,0.020135108830931777,-0.09004832055436127, ,0.001484577808183237, ,0.018140563625718243,0.0013042646886460094,-0.04186987382964821,0.0949437121103602,0.08144680801730775,0.01258411617334036, ,0.04564939747189924, ,0.12509101616954826, ,0.000709396463940816, ,0.17878898877117164,-0.22432222179759934,0.09918692564,1.6049668274305493,0.2101469366392474,-1.3202538947022444, ,0.13693642360529693,0.09349452370292687,0.04376047120879121,0.014188595228708118,0.21824896777820516,-0.1859022953182695, ,1.1818161010742188
0.014166398479098487,0.020636827007679943,-0.08905523054205261, ,0.015212651448315188,0.020127083051846854,-0.09016041256783958, ,0.0016049646370639174, ,0.018140563625718243,0.0013042646886460094,-0.04186987382964821,0.0949437121103602,0.08144680801730775,0.01258411617334036, ,0.04564939747189924, ,0.12509101616954826, ,0.0007186291255194047, ,0.17878898877117164,-0.22432222179759934,0.09918692564,1.6049668274305493,0.2101469366392474,-1.3202538947022444, ,0.13693642360529693,0.09349452370292687,0.04376047120879121,0.014188595228708118,0.21824896777820516,-0.1859022953182695, ,1.1841771602630615
0.014166398479098487,0.020636827007679943,-0.08905523054205261, ,0.01527592182350464,0.020119026666548634,-0.0902721975980174, ,0.0017263163268536623, ,0.018140563625718243,0.0013042646886460094,-0.04186987382964821,0.0949437121103602,0.08144680801730775,0.01258411617334036, ,0.04564939747189924, ,0.12509101616954826, ,0.0007289116479819992, ,0.17878898877117164,-0.22432222179759934,0.09918692564,1.6049668274305493,0.2101469366392474,-1.3202538947022444, ,0.13693642360529693,0.09349452370292687,0.04376047120879121,0.014188595228708118,0.21824896777820516,-0.1859022953182695, ,1.1868321895599365
0.014166398479098487,0.020636827007679943,-0.08905523054205261, ,0.015339073659474829,0.020110940637348425,-0.09038367596579532, ,0.0018483751775638195, ,0.018140563625718243,0.0013042646886460094,-0.04186987382964821,0.0949437121103602,0.08144680801730775,0.01258411617334036, ,0.04564939747189924, ,0.12509101616954826, ,0.0007402193604020176, ,0.17878898877117164,-0.22432222179759934,0.09918692564,1.6049668274305493,0.2101469366392474,-1.3202538947022444, ,0.13693642360529693,0.09349452370292687,0.04376047120879121,0.014188595228708118,0.21824896777820516,-0.1859022953182695, ,1.189234972000122
0.014166398479098487,0.020636827007679943,-0.08905523054205261, ,0.015402106645503778,0.0201028259231259,-0.09049484799256603, ,0.0019709465326711393, ,0.019890434478382246,0.00226725877735615,-0.04506191785317671,0.07581578651906949,0.030056952010408367,0.004538303260158759, ,0.04930868368460835, ,0.08155530668526878, ,0.0007525266321247088, ,0.18019452615428047,-0.22338777111981817,0.09965099746000002,1.6049668274305493,0.21233312063549445,-1.3221182599015278, ,0.1437832447855618,0.09055051675426601,0.04726650302670624,0.012887501228415154,0.17307120841687754,-0.1638115540447719, ,1.191615104675293
0.014356229065820163,0.02065510615583705,-0.0894987150032705, ,0.015465020473964416,0.020094683479333398,-0.09060571400021417, ,0.0016640128432041357, ,0.019890434478382246,0.00226725877735615,-0.04506191785317671,0.07581578651906949,0.030056952010408367,0.004538303260158759, ,0.04930868368460835, ,0.08155530668526878, ,0.0007615512480759904, ,0.18019452615428047,-0.22338777111981817,0.09965099746000002,1.6049668274305493,0.21233312063549445,-1.3221182599015278, ,0.1437832447855618,0.09055051675426601,0.04726650302670624,0.012887501228415154,0.17307120841687754,-0.1638115540447719, ,1.194303035736084
0.014356229065820163,0.02065510615583705,-0.0894987150032705, ,0.015527814840318632,0.020086514258000062,-0.09071627431111401, ,0.0017827957374330367, ,0.019890434478382246,0.00226725877735615,-0.04506191785317671,0.07581578651906949,0.030056952010408367,0.004538303260158759, ,0.04930868368460835, ,0.08155530668526878, ,0.0007715634489520398, ,0.18019452615428047,-0.22338777111981817,0.09965099746000002,1.6049668274305493,0.21233312063549445,-1.3221182599015278, ,0.1437832447855618,0.09055051675426601,0.04726650302670624,0.012887501228415154,0.17307120841687754,-0.1638115540447719, ,1.1965429782867432
0.014356229065820163,0.02065510615583705,-0.0894987150032705, ,0.015590489443111326,0.020078319207736367,-0.09082652924812926, ,0.001902412292669507, ,0.019890434478382246,0.00226725877735615,-0.04506191785317671,0.07581578651906949,0.030056952010408367,0.004538303260158759, ,0.04930868368460835, ,0.08155530668526878, ,0.000782542563939588, ,0.18019452615428047,-0.22338777111981817,0.09965099746000002,1.6049668274305493,0.21233312063549445,-1.3221182599015278, ,0.1437832447855618,0.09055051675426601,0.04726650302670624,0.012887501228415154,0.17307120841687754,-0.1638115540447719, ,1.198796033859253
0.014356229065820163,0.02065510615583705,-0.0894987150032705, ,0.015653043983965234,0.020070099273739334,-0.09093647913461257, ,0.002022653623683283, ,0.019890434478382246,0.00226725877735615,-0.04506191785317671,0.07581578651906949,0.030056952010408367,0.004538303260158759, ,0.04930868368460835, ,0.08155530668526878, ,0.0007944667087448158, ,0.18019452615428047,-0.22338777111981817,0.09965099746000002,1.6049668274305493,0.21233312063549445,-1.3221182599015278, ,0.1437832447855618,0.09055051675426601,0.04726650302670624,0.012887501228415154,0.17307120841687754,-0.1638115540447719, ,1.201030969619751
0.014574256652918916,0.020675442571956564,-0.08998953002711418, ,0.015715478167574237,0.020061855397795387,-0.09104612429440223, ,0.0016719052639050005, ,0.022699764468723627,0.001599121755286851,-0.05067999162058003,-0.01757710365040543,-0.029173607368699853,0.004822579961165156, ,0.055554460198851914, ,0.03405465612808549, ,0.000802823266413008, ,0.1817159045305027,-0.22236064764754632,0.10016432830000001,1.605176517374034,0.21369948563314886,-1.3233141176786325, ,0.1571141416530973,0.11034528088194276,0.052919639601328915,0.0010632453867876499,0.12969095656054527,-0.09160784870371864, ,1.2041611671447754
0.014574256652918916,0.020675442571956564,-0.08998953002711418, ,0.015777791701698338,0.020053588518286404,-0.09115546505182366, ,0.0017873453945868396, ,0.022699764468723627,0.001599121755286851,-0.05067999162058003,-0.01757710365040543,-0.029173607368699853,0.004822579961165156, ,0.055554460198851914, ,0.03405465612808549, ,0.0008121112110184216, ,0.1817159045305027,-0.22236064764754632,0.10016432830000001,1.605176517374034,0.21369948563314886,-1.3233141176786325, ,0.1571141416530973,0.11034528088194276,0.052919639601328915,0.0010632453867876499,0.12969095656054527,-0.09160784870371864, ,1.2063930034637451
0.014574256652918916,0.020675442571956564,-0.08998953002711418, ,0.015839984297157373,0.020045299570192937,-0.09126450173168661, ,0.0019038643647911035, ,0.022699764468723627,0.001599121755286851,-0.05067999162058003,-0.01757710365040543,-0.029173607368699853,0.004822579961165156, ,0.055554460198851914, ,0.03405465612808549, ,0.0008223145115209701, ,0.1817159045305027,-0.22236064764754632,0.10016432830000001,1.605176517374034,0.21369948563314886,-1.3233141176786325, ,0.1571141416530973,0.11034528088194276,0.052919639601328915,0.0010632453867876499,0.12969095656054527,-0.09160784870371864, ,1.2085940837860107
0.014574256652918916,0.020675442571956564,-0.08998953002711418, ,0.015902055667825474,0.020036989485099195,-0.0913732346592846, ,0.002021215247615747, ,0.022699764468723627,0.001599121755286851,-0.05067999162058003,-0.01757710365040543,-0.029173607368699853,0.004822579961165156, ,0.055554460198851914, ,0.03405465612808549, ,0.0008334154442625883, ,0.1817159045305027,-0.22236064764754632,0.10016432830000001,1.605176517374034,0.21369948563314886,-1.3233141176786325, ,0.1571141416530973,0.11034528088194276,0.052919639601328915,0.0010632453867876499,0.12969095656054527,-0.09160784870371864, ,1.2108511924743652
0.01480379425065469,0.020691300626493776,-0.09050424093742615, ,0.015964005530625536,0.02002865919119816,-0.09148166416039445, ,0.0016554576535628958, ,0.02337003525669237,0.0013516352801620282,-0.05297286503195319,0.026404576724963255,0.021507047879452252,-0.002191340591429918, ,0.057914677720964244, ,0.03404904777618079, ,0.0008409571159075453, ,0.1833222329683414,-0.22123312864790953,0.10070228865000001,1.6055958972610032,0.21533912363033417,-1.3247328112631302, ,0.1630531641898123,0.11773814089140294,0.055308373333333334,0.01733151395102623,0.1834105197864189,-0.1402413012387629, ,1.2130701541900635
0.01480379425065469,0.020691300626493776,-0.09050424093742615, ,0.016025833605522625,0.020020309613294335,-0.09158979056127382, ,0.0017669258927516668, ,0.02337003525669237,0.0013516352801620282,-0.05297286503195319,0.026404576724963255,0.021507047879452252,-0.002191340591429918, ,0.057914677720964244, ,0.03404904777618079, ,0.0008493750138788555, ,0.1833222329683414,-0.22123312864790953,0.10070228865000001,1.6055958972610032,0.21533912363033417,-1.3247328112631302, ,0.1630531641898123,0.11773814089140294,0.055308373333333334,0.01733151395102623,0.1834105197864189,-0.1402413012387629, ,1.2153680324554443
0.01480379425065469,0.020691300626493776,-0.09050424093742615, ,0.016087539615519057,0.020011941672809907,-0.09169761418866185, ,0.0018798059651267322, ,0.02337003525669237,0.0013516352801620282,-0.05297286503195319,0.026404576724963255,0.021507047879452252,-0.002191340591429918, ,0.057914677720964244, ,0.03404904777618079, ,0.0008586581756018092, ,0.1833222329683414,-0.22123312864790953,0.10070228865000001,1.6055958972610032,0.21533912363033417,-1.3247328112631302, ,0.1630531641898123,0.11773814089140294,0.055308373333333334,0.01733151395102623,0.1834105197864189,-0.1402413012387629, ,1.2176470756530762
0.01480379425065469,0.020691300626493776,-0.09050424093742615, ,0.016149123286648116,0.02000355628778809,-0.09180513536977625, ,0.0019937975861727296, ,0.02337003525669237,0.0013516352801620282,-0.05297286503195319,0.026404576724963255,0.021507047879452252,-0.002191340591429918, ,0.057914677720964244, ,0.03404904777618079, ,0.0008687933489104782, ,0.1833222329683414,-0.22123312864790953,0.10070228865000001,1.6055958972610032,0.21533912363033417,-1.3247328112631302, ,0.1630531641898123,0.11773814089140294,0.055308373333333334,0.01733151395102623,0.1834105197864189,-0.1402413012387629, ,1.2200779914855957
0.015027051086261727,0.020699884821886113,-0.09099409421982764, ,0.016210584347968363,0.0199951543728981,-0.09191235443231412, ,0.0016554750995205294, ,0.024340450525885838,0.00010766317455232629,-0.05184708799735961,0.03629762082229327,0.029188383322805295,-0.0003606383383468781, ,0.057276431950394766, ,0.04657364438944716, ,0.000875755134314107, ,0.18490539320755744,-0.22010560964827275,0.10121432320000001,1.6058055872044876,0.21711539812728486,-1.3262629227513243, ,0.17573507696013105,0.12720769645907612,0.054179631020408174,0.01723864413613774,0.2040223643462603,-0.15951941230683336, ,1.222513198852539
0.015027051086261727,0.020699884821886113,-0.09099409421982764, ,0.016271922531557882,0.019986736839439186,-0.0920192717044489, ,0.0017633133116823677, ,0.024340450525885838,0.00010766317455232629,-0.05184708799735961,0.03629762082229327,0.029188383322805295,-0.0003606383383468781, ,0.057276431950394766, ,0.04657364438944716, ,0.0008835407323611969, ,0.18490539320755744,-0.22010560964827275,0.10121432320000001,1.6058055872044876,0.21711539812728486,-1.3262629227513243, ,0.17573507696013105,0.12720769645907612,0.054179631020408174,0.01723864413613774,0.2040223643462603,-0.15951941230683336, ,1.2250730991363525
0.015027051086261727,0.020699884821886113,-0.09099409421982764, ,0.016333137572508427,0.01997830459534546,-0.09212588751483086, ,0.0018728310109310355, ,0.024340450525885838,0.00010766317455232629,-0.05184708799735961,0.03629762082229327,0.029188383322805295,-0.0003606383383468781, ,0.057276431950394766, ,0.04657364438944716, ,0.0008921432565226738, ,0.18490539320755744,-0.22010560964827275,0.10121432320000001,1.6058055872044876,0.21711539812728486,-1.3262629227513243, ,0.17573507696013105,0.12720769645907612,0.054179631020408174,0.01723864413613774,0.2040223643462603,-0.15951941230683336, ,1.2290010452270508
0.015027051086261727,0.020699884821886113,-0.09099409421982764, ,0.016394229208919715,0.019969858545190237,-0.09223220219258517, ,0.0019836899293858463, ,0.024340450525885838,0.00010766317455232629,-0.05184708799735961,0.03629762082229327,0.029188383322805295,-0.0003606383383468781, ,0.057276431950394766, ,0.04657364438944716, ,0.0009015531416335632, ,0.18490539320755744,-0.22010560964827275,0.10121432320000001,1.6058055872044876,0.21711539812728486,-1.3262629227513243, ,0.17573507696013105,0.12720769645907612,0.054179631020408174,0.01723864413613774,0.2040223643462603,-0.15951941230683336, ,1.2315361499786377
0.015027051086261727,0.020699884821886113,-0.09099409421982764, ,0.016455197181893658,0.019961399590190283,-0.09233821606731116, ,0.0020956204925472732, ,0.024340450525885838,0.00010766317455232629,-0.05184708799735961,0.03629762082229327,0.029188383322805295,-0.0003606383383468781, ,0.057276431950394766, ,0.04657364438944716, ,0.0009117588454875266, ,0.18490539320755744,-0.22010560964827275,0.10121432320000001,1.6058055872044876,0.21711539812728486,-1.3262629227513243, ,0.17573507696013105,0.12720769645907612,0.054179631020408174,0.01723864413613774,0.2040223643462603,-0.15951941230683336, ,1.2340741157531738
0.015282677465304572,0.020694934353123803,-0.09150252659854763, ,0.01651604123552843,0.01995292862821056,-0.09244392946908128, ,0.0017198831501453323, ,0.02463304901353873,-0.001184592807692732,-0.045399732199974,-0.01104429657812868,-0.03085070861135722,-0.009991133989370782, ,0.051665520878558795, ,0.03276507039425187, ,0.0009186073565439487, ,0.18678974002886822,-0.21880046779252882,0.10174709839000001,1.6058055872044876,0.21902830912400104,-1.3279044521432146, ,0.18462439991920385,0.12453666871190391,0.047691052455089825,0.01723864413613774,0.15224490768576993,-0.10917362806924563, ,1.2365210056304932
0.015282677465304572,0.020694934353123803,-0.09150252659854763, ,0.01657676111691247,0.01994444655376789,-0.09254934272843955, ,0.0018258445837865877, ,0.02463304901353873,-0.001184592807692732,-0.045399732199974,-0.01104429657812868,-0.03085070861135722,-0.009991133989370782, ,0.051665520878558795, ,0.03276507039425187, ,0.000926231198789685, ,0.18678974002886822,-0.21880046779252882,0.10174709839000001,1.6058055872044876,0.21902830912400104,-1.3279044521432146, ,0.18462439991920385,0.12453666871190391,0.047691052455089825,0.01723864413613774,0.15224490768576993,-0.10917362806924563, ,1.238828182220459
0.015282677465304572,0.020694934353123803,-0.09150252659854763, ,0.01663735657611964,0.019935954258037077,-0.09265445617640085, ,0.0019334290859376396, ,0.02463304901353873,-0.001184592807692732,-0.045399732199974,-0.01104429657812868,-0.03085070861135722,-0.009991133989370782, ,0.051665520878558795, ,0.03276507039425187, ,0.000934624514515918, ,0.18678974002886822,-0.21880046779252882,0.10174709839000001,1.6058055872044876,0.21902830912400104,-1.3279044521432146, ,0.18462439991920385,0.12453666871190391,0.047691052455089825,0.01723864413613774,0.15224490768576993,-0.10917362806924563, ,1.2410430908203125
0.015546154075999123,0.020662478716594438,-0.0919422862765817, ,0.016697827366202095,0.019927452628853332,-0.09275927014445001, ,0.0015918785623859634, ,0.02581921484615004,-0.004788486775738476,-0.03998052847982524,-0.04235190450182881,-0.06204433586417786,-0.017015063489194515, ,0.04783308602211647, ,0.0751204451314811, ,0.0009400563661512076, ,0.18882081877478926,-0.21737948494367149,0.10220857763,1.6058055872044876,0.22039467412165545,-1.3290186311801788, ,0.20496099688654598,0.14850851574095583,0.04191792505263159,0.01723864413613774,0.1412090937560317,-0.1012833728214131, ,1.2432680130004883
0.015546154075999123,0.020662478716594438,-0.0919422862765817, ,0.016758173243185598,0.019918942550718157,-0.09286378496454045, ,0.0016944014646780431, ,0.02581921484615004,-0.004788486775738476,-0.03998052847982524,-0.04235190450182881,-0.06204433586417786,-0.017015063489194515, ,0.04783308602211647, ,0.0751204451314811, ,0.0009462395226965096, ,0.18882081877478926,-0.21737948494367149,0.10220857763,1.6058055872044876,0.22039467412165545,-1.3290186311801788, ,0.20496099688654598,0.14850851574095583,0.04191792505263159,0.01723864413613774,0.1412090937560317,-0.1012833728214131, ,1.2455291748046875
0.015546154075999123,0.020662478716594438,-0.0919422862765817, ,0.01681839396606291,0.019910424904802874,-0.09296800096909257, ,0.001798963563870152, ,0.02581921484615004,-0.004788486775738476,-0.03998052847982524,-0.04235190450182881,-0.06204433586417786,-0.017015063489194515, ,0.04783308602211647, ,0.0751204451314811, ,0.0009531722384784091, ,0.18882081877478926,-0.21737948494367149,0.10220857763,1.6058055872044876,0.22039467412165545,-1.3290186311801788, ,0.20496099688654598,0.14850851574095583,0.04191792505263159,0.01723864413613774,0.1412090937560317,-0.1012833728214131, ,1.2477619647979736
0.015546154075999123,0.020662478716594438,-0.0919422862765817, ,0.016878489296788705,0.019901900568953933,-0.09307191849099415, ,0.0019051680238401714, ,0.02581921484615004,-0.004788486775738476,-0.03998052847982524,-0.04235190450182881,-0.06204433586417786,-0.017015063489194515, ,0.04783308602211647, ,0.0751204451314811, ,0.0009608496238442297, ,0.18882081877478926,-0.21737948494367149,0.10220857763,1.6058055872044876,0.22039467412165545,-1.3290186311801788, ,0.20496099688654598,0.14850851574095583,0.04191792505263159,0.01723864413613774,0.1412090937560317,-0.1012833728214131, ,1.2500081062316895
0.01582118971914063,0.02060910733415328,-0.09236560771883226, ,0.01693845900027321,0.019893370417696475,-0.09317553786359745, ,0.0015545278445692021, ,0.026036533103125203,-0.005262270945483113,-0.040205902185981274,0.012778536145281698,-0.0035576460470785345,-0.006230933016700424, ,0.0481882467218149, ,0.013260571955662378, ,0.0009655990496100296, ,0.1910372431096917,-0.21578860197158126,0.1026532051,1.6058055872044876,0.22230758511837162,-1.3304968030917883, ,0.2108820923521573,0.15281311040011397,0.04225148944297083,0.01723864413613774,0.2063100689207668,-0.16101317947310015, ,1.2522799968719482
0.01582118971914063,0.02060910733415328,-0.09236560771883226, ,0.016998302844376707,0.01988483532223939,-0.0932788594207197, ,0.0016565608735706475, ,0.026036533103125203,-0.005262270945483113,-0.040205902185981274,0.012778536145281698,-0.0035576460470785345,-0.006230933016700424, ,0.0481882467218149, ,0.013260571955662378, ,0.000971082873609717, ,0.1910372431096917,-0.21578860197158126,0.1026532051,1.6058055872044876,0.22230758511837162,-1.3304968030917883, ,0.2108820923521573,0.15281311040011397,0.04225148944297083,0.01723864413613774,0.2063100689207668,-0.16101317947310015, ,1.2545061111450195
0.01582118971914063,0.02060910733415328,-0.09236560771883226, ,0.017058020599903887,0.019876296150479804,-0.09338188349664077, ,0.0017605622156251193, ,0.026036533103125203,-0.005262270945483113,-0.040205902185981274,0.012778536145281698,-0.0035576460470785345,-0.006230933016700424, ,0.0481882467218149, ,0.013260571955662378, ,0.0009772992463814919, ,0.1910372431096917,-0.21578860197158126,0.1026532051,1.6058055872044876,0.22230758511837162,-1.3304968030917883, ,0.2108820923521573,0.15281311040011397,0.04225148944297083,0.01723864413613774,0.2063100689207668,-0.16101317947310015, ,1.2567481994628906
0.01582118971914063,0.02060910733415328,-0.09236560771883226, ,0.017117612040597294,0.019867753767006644,-0.09348461042610265, ,0.0018661412074038207, ,0.026036533103125203,-0.005262270945483113,-0.040205902185981274,0.012778536145281698,-0.0035576460470785345,-0.006230933016700424, ,0.0481882467218149, ,0.013260571955662378, ,0.0009842433242019787, ,0.1910372431096917,-0.21578860197158126,0.1026532051,1.6058055872044876,0.22230758511837162,-1.3304968030917883, ,0.2108820923521573,0.15281311040011397,0.04225148944297083,0.01723864413613774,0.2063100689207668,-0.16101317947310015, ,1.2590069770812988
0.01582118971914063,0.02060910733415328,-0.09236560771883226, ,0.01717707694313264,0.019859209033106225,-0.09358704054430887, ,0.0019729865111677283, ,0.026036533103125203,-0.005262270945483113,-0.040205902185981274,0.012778536145281698,-0.0035576460470785345,-0.006230933016700424, ,0.0481882467218149, ,0.013260571955662378, ,0.0009919080000699303, ,0.1931764401158519,-0.2142595008624848,0.10306672161000001,1.6058055872044876,0.2243571326148532,-1.3321680716472346, ,0.2222410809331868,0.15869053772319527,0.04137353641558442,0.016261053319939673,0.2199357229653828,-0.1730360804499171, ,1.2627179622650146
0.016083703137692553,0.0205534915288018,-0.09275831168082543, ,0.01723641508711216,0.019850662806765913,-0.09368917418692212, ,0.0016398835495576953, ,0.027049785563311855,-0.006164881740248124,-0.03922212298287627,0.01927069182792221,-0.0012715476871838537,-0.00433465826990586, ,0.0480423937494404, ,0.01931019352756754, ,0.0009968924273736823, ,0.1931764401158519,-0.2142595008624848,0.10306672161000001,1.6058055872044876,0.2243571326148532,-1.3321680716472346, ,0.2222410809331868,0.15869053772319527,0.04137353641558442,0.016261053319939673,0.2199357229653828,-0.1730360804499171, ,1.2650761604309082
0.016083703137692553,0.0205534915288018,-0.09275831168082543, ,0.01729562625505916,0.01984211594267908,-0.09379101169006467, ,0.0017439272278457452, ,0.027049785563311855,-0.006164881740248124,-0.03922212298287627,0.01927069182792221,-0.0012715476871838537,-0.00433465826990586, ,0.0480423937494404, ,0.01931019352756754, ,0.0010025949831024767, ,0.1931764401158519,-0.2142595008624848,0.10306672161000001,1.6058055872044876,0.2243571326148532,-1.3321680716472346, ,0.2222410809331868,0.15869053772319527,0.04137353641558442,0.016261053319939673,0.2199357229653828,-0.1730360804499171, ,1.2674360275268555
0.016083703137692553,0.0205534915288018,-0.09275831168082543, ,0.017354710232412085,0.019833569292248877,-0.0938925533903157, ,0.001849392147992997, ,0.027049785563311855,-0.006164881740248124,-0.03922212298287627,0.01927069182792221,-0.0012715476871838537,-0.00433465826990586, ,0.0480423937494404, ,0.01931019352756754, ,0.001009010113139526, ,0.1931764401158519,-0.2142595008624848,0.10306672161000001,1.6058055872044876,0.2243571326148532,-1.3321680716472346, ,0.2222410809331868,0.15869053772319527,0.04137353641558442,0.016261053319939673,0.2199357229653828,-0.1730360804499171, ,1.2697501182556152
0.016083703137692553,0.0205534915288018,-0.09275831168082543, ,0.017413666807519063,0.019825023703593694,-0.09399379962471183, ,0.0019559905917233993, ,0.027049785563311855,-0.006164881740248124,-0.03922212298287627,0.01927069182792221,-0.0012715476871838537,-0.00433465826990586, ,0.0480423937494404, ,0.01931019352756754, ,0.0010161302671138409, ,0.19325366744459413,-0.214197718999491,0.10308098080000001,1.6058055872044876,0.22449376911461866,-1.3322794895509311, ,0.22276277361143376,0.15895635101921404,0.04137353641558442,0.01617187118618148,0.22080343360306845,-0.1737713345520739, ,1.2720391750335693
0.016083703137692553,0.0205534915288018,-0.09275831168082543, ,0.01747249577163148,0.019816480021550315,-0.09409475073074455, ,0.0020634922524819044, ,0.027049785563311855,-0.006164881740248124,-0.03922212298287627,0.01927069182792221,-0.0012715476871838537,-0.00433465826990586, ,0.0480423937494404, ,0.01931019352756754, ,0.0010239464013330054, ,0.19325366744459413,-0.214197718999491,0.10308098080000001,1.6058055872044876,0.22449376911461866,-1.3322794895509311, ,0.22276277361143376,0.15895635101921404,0.04137353641558442,0.01617187118618148,0.22080343360306845,-0.1737713345520739, ,1.2742881774902344
0.016092543820211493,0.020550690217189426,-0.09277194772115445, ,0.017531196918898786,0.019807939087679468,-0.09419540704635998, ,0.002155838219641134, ,0.027049785563311855,-0.006164881740248124,-0.03922212298287627,0.01927069182792221,-0.0012715476871838537,-0.00433465826990586, ,0.0480423937494404, ,0.01931019352756754, ,0.0010323307851723249, ,0.19325366744459413,-0.214197718999491,0.10308098080000001,1.6058055872044876,0.22449376911461866,-1.3322794895509311, ,0.22276277361143376,0.15895635101921404,0.04137353641558442,0.01617187118618148,0.22080343360306845,-0.1737713345520739, ,1.2765100002288818
0.016092543820211493,0.020550690217189426,-0.09277194772115445, ,0.017589770046362398,0.0197994017402698,-0.09429576890995774, ,0.0022645422856003706, ,0.027049785563311855,-0.006164881740248124,-0.03922212298287627,0.01927069182792221,-0.0012715476871838537,-0.00433465826990586, ,0.0480423937494404, ,0.01931019352756754, ,0.0010413911638519429, ,0.19325366744459413,-0.214197718999491,0.10308098080000001,1.6058055872044876,0.22449376911461866,-1.3322794895509311, ,0.22276277361143376,0.15895635101921404,0.04137353641558442,0.01617187118618148,0.22080343360306845,-0.1737713345520739, ,1.2787621021270752
0.016092543820211493,0.020550690217189426,-0.09277194772115445, ,0.01764821495394984,0.01979086881434194,-0.09439583666038961, ,0.0023737010189874776, ,0.027049785563311855,-0.006164881740248124,-0.03922212298287627,0.01927069182792221,-0.0012715476871838537,-0.00433465826990586, ,0.0480423937494404, ,0.01931019352756754, ,0.001051116053305487, ,0.19325366744459413,-0.214197718999491,0.10308098080000001,1.6058055872044876,0.22449376911461866,-1.3322794895509311, ,0.22276277361143376,0.15895635101921404,0.04137353641558442,0.01617187118618148,0.22080343360306845,-0.1737713345520739, ,1.2810711860656738
0.016652667518265437,0.02041993456327237,-0.09359265425662737, ,0.01770653144446953,0.0197823411416543,-0.09449561063695867, ,0.0015272474491797188, ,0.028613306914366466,-0.005940467620235211,-0.04313588212742317,-0.017538301818475883,-0.047587182555391065,-0.011512035463654442, ,0.05210292520611238, ,0.05071471806385901, ,0.001054566280811822, ,0.1977482979773928,-0.21089238932932292,0.10394560623000001,1.6058055872044876,0.22845622760781642,-1.3355106087581272, ,0.2222410809331868,0.16277348466290012,0.04551089005714286,0.012304128786500347,0.1740552974153269,-0.14096978185771666, ,1.2833600044250488
0.016652667518265437,0.02041993456327237,-0.09359265425662737, ,0.01776471932360399,0.01977381955070565,-0.09459509117941789, ,0.0016306451518937387, ,0.028613306914366466,-0.005940467620235211,-0.04313588212742317,-0.017538301818475883,-0.047587182555391065,-0.011512035463654442, ,0.05210292520611238, ,0.05071471806385901, ,0.0010587107331217639, ,0.1977482979773928,-0.21089238932932292,0.10394560623000001,1.6058055872044876,0.22845622760781642,-1.3355106087581272, ,0.2222410809331868,0.16277348466290012,0.04551089005714286,0.012304128786500347,0.1740552974153269,-0.14096978185771666, ,1.2856111526489258
0.016652667518265437,0.02041993456327237,-0.09359265425662737, ,0.01782277839990492,0.019765304866740843,-0.09469427862796934, ,0.0017353027892695466, ,0.028613306914366466,-0.005940467620235211,-0.04313588212742317,-0.017538301818475883,-0.047587182555391065,-0.011512035463654442, ,0.05210292520611238, ,0.05071471806385901, ,0.0010635435335228194, ,0.1977482979773928,-0.21089238932932292,0.10394560623000001,1.6058055872044876,0.22845622760781642,-1.3355106087581272, ,0.2222410809331868,0.16277348466290012,0.04551089005714286,0.012304128786500347,0.1740552974153269,-0.14096978185771666, ,1.2878460884094238
0.016652667518265437,0.02041993456327237,-0.09359265425662737, ,0.017880708484786657,0.019756797911754574,-0.09479317332326248, ,0.0018409456437915397, ,0.028613306914366466,-0.005940467620235211,-0.04313588212742317,-0.017538301818475883,-0.047587182555391065,-0.011512035463654442, ,0.05210292520611238, ,0.05071471806385901, ,0.0010690570236665691, ,0.1977482979773928,-0.21089238932932292,0.10394560623000001,1.6058055872044876,0.22845622760781642,-1.3355106087581272, ,0.2222410809331868,0.16277348466290012,0.04551089005714286,0.012304128786500347,0.1740552974153269,-0.14096978185771666, ,1.2901480197906494
0.016943902723651892,0.020360639933420903,-0.09402762225245939, ,0.017938509392521507,0.01974829950449699,-0.09489177560639461, ,0.0014529157738052553, ,0.030933514502267792,-0.006450046208436312,-0.04594413457729476,-0.1017290277240847,-0.14386285967674167,-0.024914176302603046, ,0.055761536184089716, ,0.17619623367348747, ,0.0010717602543013486, ,0.199887494983553,-0.20930922909010688,0.10438893741000001,1.6060152771479719,0.22968595610570539,-1.3364316911512546, ,0.2297746768970237,0.1728541740591453,0.04812329764350454,0.006734743612909846,0.09095675965166455,-0.07142985435496081, ,1.2923851013183594
0.016943902723651892,0.020360639933420903,-0.09402762225245939, ,0.017996180940232663,0.01973981046047647,-0.09499008581890772, ,0.0015553310889670111, ,0.030933514502267792,-0.006450046208436312,-0.04594413457729476,-0.1017290277240847,-0.14386285967674167,-0.024914176302603046, ,0.055761536184089716, ,0.17619623367348747, ,0.00107514186852978, ,0.199887494983553,-0.20930922909010688,0.10438893741000001,1.6060152771479719,0.22968595610570539,-1.3364316911512546, ,0.2297746768970237,0.1728541740591453,0.04812329764350454,0.006734743612909846,0.09095675965166455,-0.07142985435496081, ,1.2947750091552734
0.016943902723651892,0.020360639933420903,-0.09402762225245939, ,0.018053722947888807,0.019731331591964756,-0.09508810430278868, ,0.0016590214277766768, ,0.030933514502267792,-0.006450046208436312,-0.04594413457729476,-0.1017290277240847,-0.14386285967674167,-0.024914176302603046, ,0.055761536184089716, ,0.17619623367348747, ,0.0010791965876912168, ,0.199887494983553,-0.20930922909010688,0.10438893741000001,1.6060152771479719,0.22968595610570539,-1.3364316911512546, ,0.2297746768970237,0.1728541740591453,0.04812329764350454,0.006734743612909846,0.09095675965166455,-0.07142985435496081, ,1.296976089477539
0.016943902723651892,0.020360639933420903,-0.09402762225245939, ,0.018111135238299193,0.019722863708002438,-0.09518583140046824, ,0.001763700282783407, ,0.030933514502267792,-0.006450046208436312,-0.04594413457729476,-0.1017290277240847,-0.14386285967674167,-0.024914176302603046, ,0.055761536184089716, ,0.17619623367348747, ,0.0010839173028297836, ,0.199887494983553,-0.20930922909010688,0.10438893741000001,1.6060152771479719,0.22968595610570539,-1.3364316911512546, ,0.2297746768970237,0.1728541740591453,0.04812329764350454,0.006734743612909846,0.09095675965166455,-0.07142985435496081, ,1.2992291450500488
0.016943902723651892,0.020360639933420903,-0.09402762225245939, ,0.01816841763710667,0.019714407614401797,-0.09528326745481923, ,0.0018691436161053132, ,0.030933514502267792,-0.006450046208436312,-0.04594413457729476,-0.1017290277240847,-0.14386285967674167,-0.024914176302603046, ,0.055761536184089716, ,0.17619623367348747, ,0.001089295565249479, ,0.199887494983553,-0.20930922909010688,0.10438893741000001,1.6060152771479719,0.22968595610570539,-1.3364316911512546, ,0.2297746768970237,0.1728541740591453,0.04812329764350454,0.006734743612909846,0.09095675965166455,-0.07142985435496081, ,1.301544189453125
0.017253893994562793,0.02029609350774997,-0.09448944117339542, ,0.018225569972782314,0.019705964113752035,-0.09538041280915582, ,0.0014443813083942932, ,0.030193432842806664,-0.006393402491726156,-0.045597666907683194,-0.06532419121798189,-0.09774293334228899,-0.014609179101050114, ,0.05506056855571247, ,0.11756161731032204, ,0.001091711114522573, ,0.20226609670881412,-0.20753300052903526,0.10489189793,1.6062249670914566,0.23077904810382893,-1.3373230343808258, ,0.2243426514384652,0.16976197058760426,0.04812329764350454,0.004130516338224708,0.12720319699698826,-0.10107013494508806, ,1.303905963897705
0.017253893994562793,0.02029609350774997,-0.09448944117339542, ,0.01828259207661989,0.019697534005423702,-0.09547726780723212, ,0.0015467044579913047, ,0.030193432842806664,-0.006393402491726156,-0.045597666907683194,-0.06532419121798189,-0.09774293334228899,-0.014609179101050114, ,0.05506056855571247, ,0.11756161731032204, ,0.0010947853938703348, ,0.20226609670881412,-0.20753300052903526,0.10489189793,1.6062249670914566,0.23077904810382893,-1.3373230343808258, ,0.2243426514384652,0.16976197058760426,0.04812329764350454,0.004130516338224708,0.12720319699698826,-0.10107013494508806, ,1.3081140518188477
0.017253893994562793,0.02029609350774997,-0.09448944117339542, ,0.018339483782729423,0.019689118085572613,-0.09557383279324184, ,0.001650099856521481, ,0.030193432842806664,-0.006393402491726156,-0.045597666907683194,-0.06532419121798189,-0.09774293334228899,-0.014609179101050114, ,0.05506056855571247, ,0.11756161731032204, ,0.0010985123365726914, ,0.20226609670881412,-0.20753300052903526,0.10489189793,1.6062249670914566,0.23077904810382893,-1.3373230343808258, ,0.2243426514384652,0.16976197058760426,0.04812329764350454,0.004130516338224708,0.12720319699698826,-0.10107013494508806, ,1.3104510307312012
0.01753012938381068,0.020234137623652712,-0.09489982215027173, ,0.018396244928032653,0.019680717147146,-0.09567010811181687, ,0.0012844340474751311, ,0.0293339582947108,-0.007112516330715244,-0.04269251194187479,0.005414375570479822,-0.01995765548066185,-5.2775475776171683e-05, ,0.05228498420863915, ,0.020675629330809724, ,0.0010997518146453743, ,0.2043666800506032,-0.20596528575556766,0.10532615508000001,1.6062249670914566,0.23241868610101418,-1.338496691744902, ,0.22702617597720282,0.16945882421155498,0.04525230545454546,0.0038363963297189632,0.20851927519079697,-0.1720960411076715, ,1.3130261898040771
0.01753012938381068,0.020234137623652712,-0.09489982215027173, ,0.018452875352255177,0.01967233197988371,-0.09576609410802511, ,0.0013847428672649471, ,0.0293339582947108,-0.007112516330715244,-0.04269251194187479,0.005414375570479822,-0.01995765548066185,-5.2775475776171683e-05, ,0.05228498420863915, ,0.020675629330809724, ,0.0011016391726097424, ,0.2043666800506032,-0.20596528575556766,0.10532615508000001,1.6062249670914566,0.23241868610101418,-1.338496691744902, ,0.22702617597720282,0.16945882421155498,0.04525230545454546,0.0038363963297189632,0.20851927519079697,-0.1720960411076715, ,1.3153162002563477
0.01753012938381068,0.020234137623652712,-0.09489982215027173, ,0.01850937489792288,0.019663963370326328,-0.09586179112737103, ,0.001486406663388804, ,0.0293339582947108,-0.007112516330715244,-0.04269251194187479,0.005414375570479822,-0.01995765548066185,-5.2775475776171683e-05, ,0.05228498420863915, ,0.020675629330809724, ,0.0011041705376806574, ,0.2043666800506032,-0.20596528575556766,0.10532615508000001,1.6062249670914566,0.23241868610101418,-1.338496691744902, ,0.22702617597720282,0.16945882421155498,0.04525230545454546,0.0038363963297189632,0.20851927519079697,-0.1720960411076715, ,1.3175761699676514
0.01753012938381068,0.020234137623652712,-0.09489982215027173, ,0.01856574341035477,0.019655612101817183,-0.09595719951579382, ,0.0015890988277978046, ,0.0293339582947108,-0.007112516330715244,-0.04269251194187479,0.005414375570479822,-0.01995765548066185,-5.2775475776171683e-05, ,0.05228498420863915, ,0.020675629330809724, ,0.0011073400036291355, ,0.2043666800506032,-0.20596528575556766,0.10532615508000001,1.6062249670914566,0.23241868610101418,-1.338496691744902, ,0.22702617597720282,0.16945882421155498,0.04525230545454546,0.0038363963297189632,0.20851927519079697,-0.1720960411076715, ,1.3198091983795166
0.01753012938381068,0.020234137623652712,-0.09489982215027173, ,0.018621980737657483,0.01964727895450757,-0.09605231961966615, ,0.0016925699079826612, ,0.0293339582947108,-0.007112516330715244,-0.04269251194187479,0.005414375570479822,-0.01995765548066185,-5.2775475776171683e-05, ,0.05228498420863915, ,0.020675629330809724, ,0.0011111401978132493, ,0.2043666800506032,-0.20596528575556766,0.10532615508000001,1.6062249670914566,0.23241868610101418,-1.338496691744902, ,0.22702617597720282,0.16945882421155498,0.04525230545454546,0.0038363963297189632,0.20851927519079697,-0.1720960411076715, ,1.3221211433410645
0.017836538797000187,0.020157829358447503,-0.0953392153509527, ,0.018678086730719405,0.019638964705360945,-0.09614715178579296, ,0.001276786879519093, ,0.02816413986601262,-0.007090414890589843,-0.039506468175278586,-0.009692690315209727,-0.027295176968794594,-0.001338738822301901, ,0.04903319065079611, ,0.02896340267537869, ,0.0011122088860823194, ,0.20675300450873857,-0.20419677992737026,0.10579281948000001,1.6062249670914566,0.23474150659702667,-1.340554153588022, ,0.21815388864016272,0.16084227382791658,0.04202852643799473,0.0035141578779309375,0.19226524008528278,-0.1484322155248147, ,1.3246569633483887
0.017836538797000187,0.020157829358447503,-0.0953392153509527, ,0.01873406124320541,0.019630670128158063,-0.09624169636141124, ,0.0013776484928165885, ,0.02816413986601262,-0.007090414890589843,-0.039506468175278586,-0.009692690315209727,-0.027295176968794594,-0.001338738822301901, ,0.04903319065079611, ,0.02896340267537869, ,0.0011139104220229238, ,0.20675300450873857,-0.20419677992737026,0.10579281948000001,1.6062249670914566,0.23474150659702667,-1.340554153588022, ,0.21815388864016272,0.16084227382791658,0.04202852643799473,0.0035141578779309375,0.19226524008528278,-0.1484322155248147, ,1.3268861770629883
0.017836538797000187,0.020157829358447503,-0.0953392153509527, ,0.018789904131550184,0.019622395993500408,-0.09633595369418776, ,0.0014795545526594053, ,0.02816413986601262,-0.007090414890589843,-0.039506468175278586,-0.009692690315209727,-0.027295176968794594,-0.001338738822301901, ,0.04903319065079611, ,0.02896340267537869, ,0.0011162393655301626, ,0.20675300450873857,-0.20419677992737026,0.10579281948000001,1.6062249670914566,0.23474150659702667,-1.340554153588022, ,0.21815388864016272,0.16084227382791658,0.04202852643799473,0.0035141578779309375,0.19226524008528278,-0.1484322155248147, ,1.3291661739349365
0.017836538797000187,0.020157829358447503,-0.0953392153509527, ,0.01884561525495328,0.0196141430688155,-0.0964299241322189, ,0.0015822375690964286, ,0.02816413986601262,-0.007090414890589843,-0.039506468175278586,-0.009692690315209727,-0.027295176968794594,-0.001338738822301901, ,0.04903319065079611, ,0.02896340267537869, ,0.0011191887212489364, ,0.20675300450873857,-0.20419677992737026,0.10579281948000001,1.6062249670914566,0.23474150659702667,-1.340554153588022, ,0.21815388864016272,0.16084227382791658,0.04202852643799473,0.0035141578779309375,0.19226524008528278,-0.1484322155248147, ,1.3314900398254395
0.018129234848293322,0.02008062072196572,-0.09573880304079295, ,0.01890119447537265,0.01960591211836078,-0.09652360802402903, ,0.0011988280885469721, ,0.02831109426924915,-0.007565034170151443,-0.03826362010380976,-0.051164090719343906,-0.07465212372273541,-0.01088190167759849, ,0.04819597933610796, ,0.09050205375275158, ,0.0011196895977728233, ,0.20892309244639565,-0.20257500602378312,0.10620244712000002,1.6062249670914566,0.23638114459421197,-1.341891168432379, ,0.21616615389173302,0.161664295670308,0.04073864838874681,0.003256327219173202,0.14192145007737314,-0.10738023046633269, ,1.3336939811706543
0.018129234848293322,0.02008062072196572,-0.09573880304079295, ,0.018956641657519303,0.019597703903228323,-0.0966170057185697, ,0.0012996348044844034, ,0.02831109426924915,-0.007565034170151443,-0.03826362010380976,-0.051164090719343906,-0.07465212372273541,-0.01088190167759849, ,0.04819597933610796, ,0.09050205375275158, ,0.0011208142553147706, ,0.20892309244639565,-0.20257500602378312,0.10620244712000002,1.6062249670914566,0.23638114459421197,-1.341891168432379, ,0.21616615389173302,0.161664295670308,0.04073864838874681,0.003256327219173202,0.14192145007737314,-0.10738023046633269, ,1.335921049118042
0.018129234848293322,0.02008062072196572,-0.09573880304079295, ,0.01901195666885108,0.019589519181348977,-0.09671011756521786, ,0.0014013673469307477, ,0.02831109426924915,-0.007565034170151443,-0.03826362010380976,-0.051164090719343906,-0.07465212372273541,-0.01088190167759849, ,0.04819597933610796, ,0.09050205375275158, ,0.0011225568211012053, ,0.20892309244639565,-0.20257500602378312,0.10620244712000002,1.6062249670914566,0.23638114459421197,-1.341891168432379, ,0.21616615389173302,0.161664295670308,0.04073864838874681,0.003256327219173202,0.14192145007737314,-0.10738023046633269, ,1.3381941318511963
0.018129234848293322,0.02008062072196572,-0.09573880304079295, ,0.019067139379567357,0.01958135870749741,-0.09680294391377614, ,0.0015037696853004946, ,0.02831109426924915,-0.007565034170151443,-0.03826362010380976,-0.051164090719343906,-0.07465212372273541,-0.01088190167759849, ,0.04819597933610796, ,0.09050205375275158, ,0.0011249099869295959, ,0.20892309244639565,-0.20257500602378312,0.10620244712000002,1.6062249670914566,0.23638114459421197,-1.341891168432379, ,0.21616615389173302,0.161664295670308,0.04073864838874681,0.003256327219173202,0.14192145007737314,-0.10738023046633269, ,1.3404290676116943
