NicholasDascanio/dvrk_moveit_final/test/execution/third_experiment_notsharpbends/thirdexp_500vel4.0/thirdexp_500vel4.0_8.csv
Current Position (x),Current Position (y),Current Position (z), ,Planned Position (x),Planned Position (y),Planned Position (z), ,Position Error,,Cartesian linear Velocity(x),Cartesian linear Velocity(y),Cartesian linear Velocity(z),Cartesian Angular Velocity(x),Cartesian Angular Velocity(y),Cartesian Angular Velocity(z), ,Total Linear Velocity, ,Total Angular Velocity, ,MSE, ,Joint 1 Position,Joint 2 Position,Joint 3 Position,Joint 4 Position,Joint 5 Position,Joint 6 Position, ,Joint 1 Velocity,Joint 2 Velocity,Joint 3 Velocity,Joint 4 Velocity,Joint 5 Velocity,Joint 6 Velocity, ,Time Stamp
0.010146368165280174,0.01974030565363469,-0.08041206865953726, ,0.010309293068513239,0.019690847444955844,-0.08039685887129516, ,0.00017094436567957838, ,2.0362373561567326e-05,-8.09759300035734e-07,-1.6826178981136044e-06,0.15837077113437736,0.002170306122314728,-0.006090434713691725, ,2.0447815780074473e-05, ,0.15838564132635854, ,1.4245363806631532e-05, ,0.1467010336787688,-0.23835442743006527,0.09006493291,1.599934268786921,0.18992473467396223,-1.2919206276347925, ,0.0002461962131115356,0.0,3.907876748237851e-06,-0.001038239021267182,0.0,-0.15869897967151125, ,0.023113012313842773
0.01016951191826554,0.01974591962477646,-0.08041794755782261, ,0.010331481367574133,0.019738423387780382,-0.08043431718370495, ,0.00016296705412431503, ,0.0014818936642463094,0.00026899277681274777,-0.0003142754197466246,0.23940433848986742,-0.13832727563803598,-0.04519487297695719, ,0.0015385496370178323, ,0.27649389228916466, ,1.5177791809267883e-05, ,0.14673192461026568,-0.23840076382731062,0.09007141436,1.599934268786921,0.18773855067771517,-1.2978974214890031, ,0.0015278321784324043,-0.00208015234523944,0.00032741209208353276,0.0009899115418504035,-0.14504338280759413,-0.23662550874987653, ,0.04916501045227051
0.01019962606836581,0.019753879878076672,-0.08042493698257883, ,0.01035380952968884,0.019785411144406715,-0.08047225254277056, ,0.00016433357154940677, ,0.0010319685690758176,0.0004648684534681639,-0.0006254168331237993,0.16141149052701748,-0.09014204097532832,-0.029423009552079923, ,0.0012931388253953537, ,0.18487632846135582, ,1.557015597979063e-05, ,0.14675509280888835,-0.23846254569030442,0.09007919210000001,1.6003536486738899,0.18473254768287548,-1.3001019157956941, ,0.0010415273409198414,-0.0035146690608074357,0.0006981593552836639,0.0012612955593690987,-0.0944987857205977,-0.15739733531244027, ,0.07414507865905762
0.010238109128880181,0.019773346720387094,-0.08044201919355752, ,0.010376277060471322,0.019831814076793085,-0.08051066207556312, ,0.0001649868307935947, ,0.0013713388748335116,0.0006703314288522627,-0.0002954926460787175,-0.07490746028159931,-0.13310685946729245,-0.009619899927524796, ,0.0015547444928422677, ,0.15273690989110955, ,1.5791233860640354e-05, ,0.14681687467188215,-0.23862472308066313,0.09009863645,1.6005633386173743,0.1813166351887395,-1.3054026634771994, ,0.0019152279818436336,-0.006691242808890419,0.00045113843993947864,-0.018175437777533377,-0.1341362685921735,0.0787822632533865, ,0.09749794006347656
0.010247856264509832,0.019787748297184445,-0.08044861766200066, ,0.010398883466649664,0.019877635538073264,-0.08054954291637541, ,0.00020266928438073074, ,0.00013607230690335271,0.0008636300350038647,-0.000494297084374539,-0.14944150625219937,0.016243256518509955,0.026175049167921176, ,0.00100434163395129, ,0.1503216789862734, ,1.6651944356300492e-05, ,0.14687865653487595,-0.2387791777381476,0.09011030306000001,1.6005633386173743,0.18090672568944316,-1.302618047561893, ,0.003652617213902284,-0.008812269286849386,0.0007360160411729819,-0.01359925952108509,0.026066963225644623,0.15620670484324573, ,0.12215900421142578
0.01024606347851605,0.019808749378275925,-0.08046466984314621, ,0.010421628256065145,0.019922878872566347,-0.08058889220671571, ,0.00024347428651429358, ,-7.795664495373617e-05,0.0012251643342123051,-0.001014126251817849,0.0181280026086198,0.06143521011025645,0.017063449655580626, ,0.001592343222720668, ,0.06405395787824832, ,1.7893151500676116e-05, ,0.1469636065964924,-0.23897996879287745,0.09013233999,1.6003536486738899,0.1821364541873321,-1.3005986953099602, ,0.004703896465984011,-0.011243352004014823,0.001358488879767831,0.000512201149222315,0.0678686066760752,-0.007306241002863353, ,0.145920991897583
0.010260902440868198,0.019847064223364318,-0.08049596102452726, ,0.01044451093767098,0.01996754741578655,-0.0806287070953, ,0.0002566121568827757, ,0.0007168575391097451,0.0015870388461846701,-0.0014677325658339214,0.05981725843187426,-0.005419306039119523,0.000358661519079253, ,0.0022774582137740913, ,0.060062245081618934, ,1.897204930450965e-05, ,0.14711806125397692,-0.23932749177221754,0.09017382127000001,1.6005633386173743,0.182409727186863,-1.3007398523772125, ,0.00608841280510845,-0.014069227807037923,0.001879727580835497,0.0,0.0,-0.04593650267706576, ,0.16936588287353516
0.010280588222731469,0.01988503616913724,-0.08054326576344689, ,0.010467531021531438,0.020011644494452804,-0.08066898473804499, ,0.00025842317743649353, ,0.001040709066996768,0.001956674185609706,-0.0026137385002140074,0.013097468266402738,-0.007981805000185364,0.002266117349442612, ,0.0034268466814641207, ,0.015337955728467358, ,1.9809886919038883e-05, ,0.1472725159114614,-0.2396286783543123,0.09023085803000001,1.6005633386173743,0.182409727186863,-1.3006581736370717, ,0.007956291859081924,-0.015003469021102098,0.003112311746776085,0.0,0.0,0.0017449569898736507, ,0.19191884994506836
0.010299987060981293,0.019925246514014026,-0.08059273427791533, ,0.01049068801882062,0.020055173426498905,-0.08070972229806103, ,0.0002587161664185319, ,0.0009331327576055446,0.001974635106489063,-0.0022830859369613213,0.010128535815773708,-0.007196514824927356,0.0020923216799645433, ,0.003159493937744802, ,0.012424856672605067, ,2.0693702129447475e-05, ,0.14741924783607166,-0.23994531040215553,0.09029048737,1.600773028560859,0.182409727186863,-1.3007398523772122, ,0.0072339425203702245,-0.016149921980679167,0.002785244189543627,0.000518454478197541,0.0,0.005924821161063707, ,0.211669921875
0.010319691611625707,0.019965552158852626,-0.08063157460068036, ,0.010513981441821476,0.02009813752108307,-0.08075091694564533, ,0.00026376127785749, ,0.0009486329784831273,0.0018826659224672488,-0.001558973419969126,0.011919183129348067,-0.00745956713178446,-0.0027149161620262144, ,0.002621971324720288, ,0.014061012348167753, ,2.14688817163721e-05, ,0.14757370249355617,-0.24029283338149562,0.09033974639,1.6009827185043435,0.18227309068709754,-1.3003017195129538, ,0.008721338934664763,-0.016997481919840726,0.0020681396416515193,0.005644741006289683,0.0,0.005704110223035776, ,0.23222088813781738
0.010339518850856563,0.020004326946585695,-0.08066269183713654, ,0.01053741080392469,0.020140540078598196,-0.08079256585827405, ,0.00027309797470541445, ,0.0008844007501123867,0.001975219521957021,-0.0015052573542272693,-0.018458144782445632,-0.007220046213929228,-0.0013848779264478365, ,0.002636182191953878, ,0.019819994352503506, ,2.2201707764611234e-05, ,0.1477436026167891,-0.24064807909370994,0.09038122767000001,1.6009827185043435,0.1821364541873321,-1.2997002291684139, ,0.008030100741591611,-0.01822837909306008,0.002031217995409335,0.005644741006289683,0.0,0.03732335932844072, ,0.252410888671875
0.010357326083049323,0.020042172509758358,-0.08069273058278749, ,0.010560975619627553,0.020182384390680822,-0.08083466622059572, ,0.0002850933716878964, ,0.0008563488942720639,0.002027514606243976,-0.001757629519977934,-0.0312231220287267,-0.006763964768117063,-0.00023453717960747833, ,0.002816631043774018, ,0.03194737185729545, ,2.2924402695173905e-05, ,0.1479057800071478,-0.24099560207305004,0.09042141266,1.6009827185043435,0.1821364541873321,-1.2992101567275705, ,0.007225593980588197,-0.018037814400013452,0.0022517403901611537,0.00521761040507865,3.512040651780198e-05,0.05011412561340353, ,0.2723538875579834
0.010376701002465441,0.02008567111330448,-0.08073709042154152, ,0.010584675404532935,0.020223673740221423,-0.08087721522442375, ,0.0002862394754992589, ,0.0010629916780000557,0.0021455108515440677,-0.0024441814303288703,-0.01971036632686386,-0.0064703574796071564,-0.0063069689514238065, ,0.0034215772658169226, ,0.02074521792042317, ,2.3553692862439212e-05, ,0.14807568013038075,-0.2413585705181386,0.09047715313000002,1.6014020983913126,0.18227309068709754,-1.2986681447101425, ,0.008480830139812415,-0.017342277331591882,0.0029997761807909608,0.010678308913779327,0.0,0.0384216159961778, ,0.2927248477935791
0.010398190020024674,0.020127605373014744,-0.08078310869640709, ,0.010608509675348115,0.02026441140137465,-0.0809202100687298, ,0.00028591438072218985, ,0.0011008790351559616,0.002116007376365372,-0.0022282853094615826,-0.03227053336684425,-0.007491667354238615,-0.005815010502197909, ,0.0032641503162754142, ,0.03312872474865637, ,2.4097304222440953e-05, ,0.14825330298648792,-0.2417060934974787,0.09053418989,1.6014020983913126,0.18227309068709754,-1.2982597510094398, ,0.009321952687108424,-0.017573507696013107,0.0027901228796636895,0.010678308913779327,0.0,0.05122107038018272, ,0.31253790855407715
0.010419908007444616,0.020169239431155728,-0.08083029595127562, ,0.010632477949883735,0.02030460063956793,-0.08096364795963587, ,0.0002851164591971024, ,0.0010968924893476684,0.002047952501661936,-0.002443431778982967,0.01366639144647134,-0.004651848593683464,-0.005846367611523192, ,0.003371593308926, ,0.014436410579491125, ,2.456792988585567e-05, ,0.14844637130834354,-0.24204589374394458,0.09059252294,1.6014020983913126,0.182409727186863,-1.2979627752124332, ,0.009132879692759327,-0.016174696021556294,0.002984600247329961,0.009313585644116178,0.0023710049627788782,0.003658253577950847, ,0.3329050540924072
0.010442765470514405,0.02020906307632704,-0.08087663832287302, ,0.010656579747052648,0.020344244711512513,-0.08100752611040757, ,0.0002848196486703108, ,0.0010308792873134703,0.0018562142167739503,-0.0018191683976323458,0.02350915578081396,-0.006134997772370059,-0.001019061047898789, ,0.002796000175699189, ,0.024296473060377313, ,2.4981620013762225e-05, ,0.14863943963019913,-0.2423625257917878,0.09064955970000001,1.601611788334797,0.182409727186863,-1.2976360602518708, ,0.009457870917223669,-0.01583727329079953,0.002329795454146556,0.003829094218509384,0.0023710049627788782,-0.007313417759057179, ,0.3531179428100586
0.010464532279566332,0.020242980400963034,-0.08090708310224985, ,0.010680814586868854,0.0203833468652123,-0.08105184174144694, ,0.0002956955264459328, ,0.0011080897329770636,0.0016804390589185343,-0.0015790227858855828,-0.007218788942430618,-0.007639073502537853,-0.001694324658062423, ,0.0025583297765171043, ,0.010510297700955875, ,2.5416349745799483e-05, ,0.14884795341780319,-0.24265598964100832,0.09068974469,1.6018214782782818,0.182409727186863,-1.2974727027715898, ,0.010807894814676148,-0.014413265728807835,0.0020662617096899732,0.0053853466165272946,0.0022528451352801914,0.022253094157332832, ,0.3732428550720215
0.01048858430836114,0.020276576539994352,-0.08093999388246204, ,0.010705181990446316,0.020421910339973984,-0.08109659208028525, ,0.0003042358704404667, ,0.0012232222845936377,0.0017189567884338271,-0.002039315795092241,0.0044246108269610325,-0.008218548687940459,-0.0023343719216242734, ,0.0029342621065852168, ,0.009333901835290388, ,2.6006437888922708e-05, ,0.14907963540402994,-0.24294173075735462,0.09073252226,1.6018214782782818,0.182409727186863,-1.2972276665511682, ,0.011329207905815942,-0.013495014442330885,0.0025332079389312977,0.0053853466165272946,0.002011127296358446,0.009694007088570022, ,0.39115095138549805
0.010501679127756803,0.020294153437917434,-0.08096351765532107, ,0.010729681479997923,0.020459938366417057,-0.08114177436157562, ,0.00033353435875457723, ,0.0013673725347062668,0.002003070933800394,-0.0030055876534624926,0.0019080557401762444,-0.008209539650288778,-0.003274569122374336, ,0.003862066539710469, ,0.008428357949921899, ,2.6707459428828826e-05, ,0.14931131739025666,-0.24320430367507825,0.09079344789,1.602031168221766,0.18254636368662844,-1.2971757269745834, ,0.011269252583945039,-0.013936986570490641,0.003549991424114108,0.006480614894954681,0.0017289419726336309,0.012810266675786674, ,0.4096698760986328
0.010529740899372362,0.020333400653822817,-0.0810225449979549, ,0.010754312578834304,0.020497434166483062,-0.0811873858270862, ,0.0003232830515828377, ,0.0015092932891695879,0.0019095878414154548,-0.003122090931085072,-0.0013938938319250434,-0.009769275425092278,-0.0032741158892768173, ,0.003958780587349814, ,0.009868215748014022, ,2.7293680691674854e-05, ,0.14944260384911848,-0.2433433128668143,0.09083104030000001,1.602031168221766,0.18254636368662844,-1.2969306907541618, ,0.012765259827612428,-0.012466755328227901,0.0036575916234213553,0.006319724660936173,0.0017289419726336309,0.014636798726728299, ,0.4285459518432617
0.010573958325788163,0.020388108281189546,-0.08110406614709212, ,0.0107790748113627,0.020534400953445636,-0.08123342372569264, ,0.0002832096427589785, ,0.001418440148051897,0.0017052258637683785,-0.002244724057456342,-0.0003534714426774655,-0.010733096324097408,-0.0019174636809133547, ,0.0031557176353712896, ,0.010738915154993527, ,2.7626297087703467e-05, ,0.1498287404928297,-0.2437217267776513,0.09092826205000001,1.6022408581652505,0.18254636368662844,-1.2965222970534591, ,0.013220526826201,-0.01263607743787893,0.0027529919668164535,0.004849170031798746,0.0015508812579755893,0.013552327821182935, ,0.44980907440185547
0.010588755776464568,0.020406048287820125,-0.08112591251166312, ,0.010803967703085927,0.020570841931920172,-0.08127988531337077, ,0.00031173825905966824, ,0.0014282894698053898,0.001663120193624373,-0.0019485977384311028,-0.0012576486382898096,-0.011455834705597717,-0.0018377451309613763, ,0.0029330892816648016, ,0.011524661768194134, ,2.807323246877756e-05, ,0.14996774968456575,-0.24386073596938734,0.09095548414000001,1.6022408581652505,0.18254636368662844,-1.2963589395731778, ,0.01386571326102729,-0.012980022097999012,0.0024592884854099124,0.004849170031798746,0.0014884214679956424,0.014797984142663036, ,0.4684789180755615
0.010613153880269113,0.02043815622528219,-0.08116406884074766, ,0.010828990780601089,0.020606760297873623,-0.08132676785319, ,0.00031856533001732216, ,0.0013343600280573036,0.0016658165525588748,-0.0019909833142584383,-0.0027860027452794793,-0.007782445267413274,-0.002407579366578916, ,0.002918814147716798, ,0.008266091313656226, ,2.8518632801797e-05, ,0.15022259986941516,-0.24410786342136254,0.09100344687,1.6024505481087352,0.18281963668615933,-1.296336739160149, ,0.012912905369229934,-0.012877858808314666,0.0024931619220535297,0.006126920296312489,0.003995375056308133,0.01640064066680377, ,0.48827290534973145
0.010640160714806886,0.02047187075745887,-0.08120727731445011, ,0.010854143571598553,0.02064215923863448,-0.08137406861530566, ,0.00032032197530438867, ,0.0013285348308387955,0.0018247220818547385,-0.0025109153823427003,0.011897925777565876,-0.006580814000719203,-0.0027215960936520255, ,0.0033762866480862293, ,0.013596608055714544, ,2.8939513682573313e-05, ,0.15046972732139036,-0.24436271360621192,0.09105659476000001,1.6024505481087352,0.18281963668615933,-1.2960917029397274, ,0.011876963899683452,-0.013215003698436261,0.003031749432813095,0.005990191094317513,0.003995375056308133,0.002020623059775451, ,0.5071089267730713
0.010670872437952885,0.020510660820176073,-0.08126622429244308, ,0.010879425604860767,0.02067704193290182,-0.08142178487695173, ,0.0003088303637141862, ,0.0014297910933233435,0.0018839412722029857,-0.00279894667591178,-0.011568579079790848,-0.007972672143712209,-0.00035995403752542504, ,0.0036643744053049725, ,0.014049751701176746, ,2.9280105111003266e-05, ,0.150732300239114,-0.24462528652393556,0.09112659442000001,1.6026602380522197,0.18281963668615933,-1.295601630498884, ,0.01255416610113385,-0.013049634427732505,0.0033365755173858404,0.0043324258983893325,0.003995375056308133,0.025099164438091456, ,0.5268449783325195
0.010693850275815174,0.020541560881559482,-0.08131178819682236, ,0.010904836410261142,0.020711411550755718,-0.08146991392243413, ,0.00031363696187648434, ,0.0013985067921980763,0.0017794230191967655,-0.0026421321234061323,-0.0035291848315208273,-0.008901322750980503,-0.0010995522528838555, ,0.0034789408857590675, ,0.009575421252529952, ,2.9617960944996706e-05, ,0.15094081402671805,-0.24484152304441387,0.09118103860000001,1.6026602380522197,0.18295627318592475,-1.2953046547018774, ,0.012303505971537766,-0.012293942422395489,0.0031548448247177663,0.0043324258983893325,0.0026561501659757643,0.01631336101891273, ,0.5463409423828125
0.010723360304626806,0.02058135318350667,-0.08136636414899025, ,0.010930375518762879,0.02074527125366695,-0.08151845304312277, ,0.0003047219459233786, ,0.0012381638226798644,0.0017123365534727347,-0.002207789357949846,-0.0006671340998265907,-0.005400551128957869,-0.0030853892234802035, ,0.003056056277824198, ,0.005441600899660355, ,3.0020424661147126e-05, ,0.1512111096773159,-0.24512726416076017,0.09124714939,1.602869927995704,0.1830929096856902,-1.2951710363851523, ,0.011363420012723858,-0.012742975904185683,0.0027020884681933843,0.006922327596146424,0.004621468643558445,0.005399427674311544, ,0.5620989799499512
0.0107363833411488,0.020598101440912717,-0.08138871241727738, ,0.010956042462417907,0.02077862419450609,-0.08156739953744517, ,0.00033580899486986346, ,0.00135480540144865,0.0018222953763614607,-0.0024330627548809695,0.0005545348742176554,-0.0064778638696499575,-0.00261740912609446, ,0.0033280703844257515, ,0.006501555902641747, ,3.052510748139546e-05, ,0.15132695067042926,-0.24525082788674776,0.09127437148,1.602869927995704,0.1830929096856902,-1.295171036385152, ,0.012348333319254492,-0.013318868990662563,0.0029623975302213133,0.006482958198857974,0.004621468643558445,0.013546729231251652, ,0.577751874923706
0.010767901541226813,0.020639194979784125,-0.08145231991602311, ,0.0109818367743655,0.020811473517554,-0.08161675071087862, ,0.00032013382334743223, ,0.0014548038528355664,0.0020880010289540413,-0.003413370542716345,4.1565792131093926e-07,-0.006061441386889895,-0.001804029132898845, ,0.004257616822709862, ,0.006061441362919767, ,3.0940959321151954e-05, ,0.1515895235881529,-0.24552884627021984,0.09134955630000001,1.602869927995704,0.1830929096856902,-1.2949260001647307, ,0.011731603604706488,-0.013527717969846155,0.003983198679669918,0.0056921475616541085,0.004621468643558445,0.014192329954001435, ,0.5945348739624023
0.010796710584768332,0.020680656868953668,-0.08152270934408011, ,0.011007757988831397,0.020843822358511125,-0.08166650387594318, ,0.00034223643024446445, ,0.0015600056356675043,0.002191195142051401,-0.003696145313717019,0.003121826365192586,-0.005333606982092521,-0.006383423982906275, ,0.004488369927720734, ,0.006180061699044979, ,3.1418714891480476e-05, ,0.15182120557437964,-0.24578369645506926,0.09143122257000001,1.603289307882673,0.18322954618545564,-1.2947107031078646, ,0.012483154638051932,-0.013743221080155072,0.0042946377783769215,0.01050236398040502,0.0049040622946887845,0.011988974360923423, ,0.610853910446167
0.010814054520718451,0.02070345095854602,-0.08156046235210684, ,0.011033805641126519,0.02087567384450749,-0.0817166563521944, ,0.00031991849435887484, ,0.0016025268762767009,0.0021758864507629384,-0.0035796157021169687,-0.00606847873156604,-0.006469217764939055,-0.006134765615599902, ,0.004485111237265499, ,0.008870017588366825, ,3.178903892895644e-05, ,0.15196021476611568,-0.24593042837967952,0.09147529643,1.603289307882673,0.18322954618545564,-1.2945473456275836, ,0.013158200437946585,-0.013869766378028468,0.004184084980299449,0.01050236398040502,0.004556595828530349,0.021312836490445936, ,0.6275510787963867
0.010846539660946555,0.020744009152602702,-0.08162518282178306, ,0.01105997926764575,0.020907031094111912,-0.08176720546621644, ,0.0003038141712514213, ,0.0016245705825541491,0.0019864674339155463,-0.0029213870917057915,-0.012152247393646945,-0.012249829889570758,-0.0021483272852738317, ,0.003888416770781209, ,0.01725501228127737, ,3.20825078775078e-05, ,0.15224595588246198,-0.24619300129740315,0.09155177754,1.6034989978261578,0.18336618268522106,-1.2942503698305772, ,0.01428095433536054,-0.0135916559092625,0.0035579208219790044,0.005581841054853434,0.0009989269601108962,0.027369414102187857, ,0.6437540054321289
0.010875918206406045,0.020781412070375288,-0.0816733657141494, ,0.011086278405866942,0.02093789721734232,-0.08181814855161425, ,0.0002995013935909045, ,0.0015337480352282308,0.0017864221481704494,-0.0022103892034322087,-0.004887880943493441,-0.005990170126081766,-0.0006197625804855208, ,0.003229474811434524, ,0.007731333533382455, ,3.2346324210072416e-05, ,0.1525394197316825,-0.24647101968087523,0.09161140688000001,1.6034989978261578,0.18363945568475198,-1.2941464906774078, ,0.015232253861712806,-0.013382730441188942,0.002770709953035311,0.005581841054853434,0.008391107798077547,0.01891028281805837, ,0.6609869003295898
0.01089287354767866,0.020800774417736638,-0.081699890009856, ,0.011112702594349533,0.020968275315675196,-0.08186948294900671, ,0.0003242578072772114, ,0.0015340255011972168,0.0018593563017030015,-0.002617233671981766,-0.0038198546835517383,-0.005213968843520749,-0.0007171517774048449, ,0.0035581388658624882, ,0.006463494471402699, ,3.268252193449408e-05, ,0.152693874389167,-0.24661002887261127,0.09164381413000001,1.6034989978261578,0.18363945568475198,-1.2939831331971268, ,0.01447482330055991,-0.013046046406168653,0.0031800382351766824,0.005581841054853434,0.008391107798077547,0.017508486565666802, ,0.6777338981628418
0.010926823108170811,0.020838901604496043,-0.08175712008743555, ,0.011139251372733631,0.020998168482055313,-0.08192120600601926, ,0.0003121151943595719, ,0.0016746847479739123,0.0019173915978073013,-0.0031070910884339305,0.004321599056534052,-0.006040587901723849,-0.0003893003233743965, ,0.0040168363890335426, ,0.007427309089724733, ,3.2962178111736074e-05, ,0.15299506097126175,-0.24686487905746068,0.09171251750000001,1.6037086877696423,0.18363945568475198,-1.2937380969767052, ,0.015234699238797684,-0.012252825133219673,0.0036838139500462537,0.0048040635744490455,0.008391107798077547,0.008463978137864583, ,0.6941089630126953
0.010944449902904808,0.020857665961146236,-0.08178774194982154, ,0.01116592428173857,0.02102757980090526,-0.08197331507727713, ,0.00033519993892467645, ,0.0017611889086429466,0.0018492679062381478,-0.002951361949829751,0.0009101695657659784,-0.006125717892007658,-0.007544948499815071, ,0.003902834293160834, ,0.006192966018555191, ,3.3414240184940874e-05, ,0.15314951562874626,-0.24698072005057403,0.09174881362000001,1.6039183777131267,0.18363945568475198,-1.2935747394964239, ,0.01647516346501229,-0.011734185394021282,0.0035279759734219273,0.012170398104293356,0.007777026635507194,0.012459442761522962, ,0.7078578472137451
0.010979911151073777,0.020896400297034344,-0.08185340008030963, ,0.01119272086316205,0.02105651234813591,-0.08202580752439764, ,0.00031725095625388753, ,0.001961072773995865,0.0020112717177638954,-0.003678654094590078,0.0005028088912701033,-0.008679782977830137,-0.006331854205626444, ,0.004628554449850311, ,0.008694334284446615, ,3.3790903137019075e-05, ,0.15349703860808636,-0.247220124769675,0.09182659102000001,1.6039183777131267,0.1840493651840483,-1.2936639569870914, ,0.01735179037456039,-0.011444397197114181,0.004291166896551724,0.0105230298306915,0.006459898010178696,0.012344699979319822, ,0.7226989269256592
0.011000012938846587,0.02091611754660358,-0.08189152935993811, ,0.011219640659878596,0.02108496919115462,-0.08207868071598243, ,0.0003343244588457898, ,0.00207449609369819,0.0021405270748891844,-0.004012917149741786,-0.0026077736773727797,-0.009732835249635693,-0.005514541025258268, ,0.0049988893018143975, ,0.010076138372824598, ,3.4207292504182604e-05, ,0.15366693873131929,-0.24732824302991416,0.09187066488000001,1.6039183777131267,0.1840493651840483,-1.29341892076667, ,0.018058409430727073,-0.011921498505694912,0.004658909482304768,0.009831595823341,0.006323956161337406,0.015827904323572346, ,0.7364518642425537
0.011021481040759971,0.020938390409694498,-0.08193421408433063, ,0.011246683215838769,0.021112953388876664,-0.08213193202761182, ,0.00034681499168363265, ,0.0020037748246296786,0.0020517885444098277,-0.004007765416223888,-0.004967776570641745,-0.009651967947025619,-0.005144568040352635, ,0.004928197785222437, ,0.010855380613882158, ,3.4646954729830235e-05, ,0.15384456158742646,-0.24745180675590173,0.0919199239,1.6039183777131267,0.1840493651840483,-1.2932555632863887, ,0.017129411833658986,-0.010954961740713257,0.004622406128845038,0.00915872218311431,0.0056360635739852736,0.01713774480235948, ,0.7507059574127197
0.011060338040626323,0.020977237561187533,-0.08200922416639812, ,0.011273848076067683,0.02114046799173403,-0.08218555884183602, ,0.00032144148215865914, ,0.0018718968348000844,0.0018018479466047374,-0.0032423683815794384,0.005504396989142225,-0.015378925271613594,0.0020671087148717306, ,0.004154949639247671, ,0.016334311383269257, ,3.499317349135364e-05, ,0.15418436183389234,-0.2476603205435058,0.09200677533000001,1.6041280676566114,0.18418600168381372,-1.2931219449696636, ,0.016466587117555227,-0.010513544282457696,0.0038025331869181197,0.0,0.0011886862252962359,0.004881835509378433, ,0.765347957611084
0.011079083265079979,0.02099668153431597,-0.08204198258952278, ,0.011301134786663988,0.02116751604168495,-0.0822395585481685, ,0.00034282293765230075, ,0.0018454604513128091,0.0017286293604850023,-0.002922326647667746,0.0031324985847858886,-0.004100010805830833,-0.0021970372013502756, ,0.0038644374466355992, ,0.005159712761238321, ,3.539096958927035e-05, ,0.1543619846899995,-0.24777616153661916,0.09204566403000002,1.6043377576000957,0.18432263818357916,-1.2930700053930786, ,0.01794910943038978,-0.010413058865083247,0.003490863800131493,0.007474402127595805,0.012511677387537681,0.008218953619715513, ,0.7786970138549805
0.011118975648541316,0.0210330109057874,-0.08211072925918254, ,0.011328542894798654,0.02119410057222408,-0.08229392854307904, ,0.0003216057974551368, ,0.0020723380282761414,0.0019492507859290027,-0.003997802281940202,-0.012838103923248252,-0.012366733587012643,-0.0039193388384986365, ,0.004906789848299045, ,0.01782562792540781, ,3.571232247138657e-05, ,0.15472495313508805,-0.247976952591349,0.09212603401000001,1.6043377576000957,0.1844592746833446,-1.2929363870763533, ,0.01769804952601096,-0.009772933229297764,0.004595733271783036,0.007474402127595805,0.0039273300627614555,0.023606900320671864, ,0.7929670810699463
0.01114062636966125,0.02105374620814821,-0.08215354666429486, ,0.011356071948713794,0.021220224608391968,-0.08234866622998589, ,0.0003349679092039461, ,0.002087554423529202,0.00192569939138276,-0.004117058367114238,-0.008406227518477064,-0.010772053673318033,-0.005950621626779682, ,0.005001636853610388, ,0.01366388671829435, ,3.606114898692306e-05, ,0.15491802145694367,-0.24807734811871393,0.09217529303000001,1.6045474475435806,0.18459591118311003,-1.2928027687596282, ,0.017754338925813056,-0.009103698530594995,0.004708486999704405,0.00961209628110793,0.00502171191711607,0.018827297166582768, ,0.8067629337310791
0.011180297499259471,0.021091688457050485,-0.08223651900856158, ,0.011383721497721417,0.021245891166784936,-0.08240376901924892, ,0.00030517595730104803, ,0.001991537137347984,0.0018683925421922203,-0.0039374048039985555,0.014739248588896383,-0.005548086024509522,-0.004285060372876411, ,0.004791687328249477, ,0.015748863659143634, ,3.6313447462433035e-05, ,0.15526554443628376,-0.24825497097482108,0.0922699222,1.6045474475435806,0.18486918418264095,-1.2925355321261776, ,0.017457126850344146,-0.008990174076037458,0.0045175302098695415,0.008384717121712463,0.010103602937429448,-0.004649983651214896, ,0.8216850757598877
0.011201046667890355,0.021109251885478138,-0.08227372662660407, ,0.01141149109220234,0.021271103255564687,-0.08245923432816224, ,0.0003238762557834283, ,0.0019761957856035484,0.0017799035960330254,-0.0036101235921286766,-0.004555277259331731,-0.006353169777472381,-0.003112862597080527, ,0.004484015939384313, ,0.00781750065670363, ,3.671207216403321e-05, ,0.15544316729239094,-0.24833992103643757,0.09231269977,1.6045474475435806,0.18486918418264095,-1.292290495905756, ,0.017867998787134395,-0.008927307970094582,0.004179693392810286,0.007794071222920271,0.010103602937429448,0.014505826778045771, ,0.8346390724182129
0.01122176104322117,0.021128403607268885,-0.08231436355305749, ,0.011439380283604951,0.021295863874467476,-0.08251505958094704, ,0.00034011758332388694, ,0.0020968593948339134,0.001833556836495052,-0.004067409265887804,0.024475836441692114,-0.006788540159857694,-0.003708274743926564, ,0.004929763496415518, ,0.025399819800723446, ,3.714455067923686e-05, ,0.15562851288137233,-0.24843259383092825,0.09235936621000002,1.6045474475435806,0.18500582068240637,-1.2924019138094522, ,0.018415862906747675,-0.008187739527444718,0.004648033708783193,0.007263374172752797,0.009951555289668965,-0.015352229997430177, ,0.8467659950256348
0.011243512381905412,0.021147575675451863,-0.08235776286480379, ,0.01146738862444397,0.02132017601481497,-0.08257124220874443, ,0.00035423844993276725, ,0.002054928787082976,0.0018811397815719786,-0.004070719115901198,0.017821110658372708,-0.006606663475715534,-0.003003027407334439, ,0.004932765281093193, ,0.019006314378688487, ,3.760372151448641e-05, ,0.15580613573747948,-0.2485175438925447,0.09240862523000001,1.6045474475435806,0.18500582068240637,-1.2922385563291712, ,0.017874729997828364,-0.008731548757284028,0.004657547228070176,0.006815176898665186,0.009790239883682527,-0.008222208973045927, ,0.8592300415039062
0.011263252363119737,0.02116614408866035,-0.08239597598191666, ,0.011495515668299403,0.02134404265952269,-0.08262777964960774, ,0.00037326543478185165, ,0.002102206471566502,0.0017462657685462229,-0.0039298480727641815,0.004868624628494007,-0.007667072963678164,-0.007721916503964207, ,0.0047866921833872676, ,0.009082263631179326, ,3.8101696856447214e-05, ,0.15598375859358665,-0.2486024939541612,0.09245269909,1.6049668274305493,0.18514245718217182,-1.2923499742328677, ,0.018520090077765568,-0.007491072704025449,0.0044933177771509175,0.0115777455442123,0.00831878161757698,0.004240301402697596, ,0.870703935623169
0.011285914927264842,0.021184705984304195,-0.08244075015774004, ,0.0115237609698152,0.021367466783110824,-0.08268466934849583, ,0.0003866119775126807, ,0.0022940056910341297,0.002107843873866831,-0.005184835874777697,-0.0015850320441953246,-0.011014202556763008,-0.009980885529774589, ,0.006048800786558995, ,0.011127667356441115, ,3.8621865273504094e-05, ,0.15633900430580097,-0.24874150314589724,0.09255640229,1.605176517374034,0.18527909368193726,-1.292298034656283, ,0.017851192919200672,-0.007727138251443067,0.00574011225945946,0.013112759415471928,0.003963846826395508,0.011465676686965836, ,0.8821089267730713
0.011327237540027586,0.021222734083639495,-0.08253692669097101, ,0.011552124084698093,0.021390451351712643,-0.08274190875726553, ,0.00034744882714743825, ,0.0023590910495410538,0.0021772017611854455,-0.005512649147426112,0.007527120829795961,-0.007006780435786494,-0.009143394594510907, ,0.006379249071133025, ,0.010283604181933699, ,3.9025895380257805e-05, ,0.15650890442903392,-0.24881100774176526,0.09261084647000001,1.605176517374034,0.18541573018170268,-1.2922460950796983, ,0.018578101323114875,-0.007698282198298742,0.0061548730757341585,0.013112759415471928,0.008638788448260416,0.002021147351927904, ,0.8933908939361572
0.011354100424035889,0.02124799556397022,-0.08260347677008467, ,0.011580604569716458,0.021412999323085494,-0.08279949533466438, ,0.00034198486251959355, ,0.002351546403394272,0.0021433959422618573,-0.005739924154702447,0.005731925302417178,-0.0025766593456331387,-0.006772092789132836, ,0.006562823017144202, ,0.006284435919421565, ,3.940536666092526e-05, ,0.15671741821663798,-0.24889595780338172,0.092684735,1.605176517374034,0.18555236668146813,-1.292275834243254, ,0.018559933807641458,-0.006673043225019297,0.006371524608000002,0.01176323191546339,0.013543428375420125,0.0025796685243066548, ,0.9049830436706543
0.011378858870981464,0.0212687807605085,-0.08266066299744544, ,0.011609201982699179,0.021435113646619958,-0.08285742654632366, ,0.00034560160920504856, ,0.0024297522015353343,0.0021712187440995115,-0.005775986489578866,0.008315377245396776,-0.002593580006494958,-0.00559386276359443, ,0.006631734804965625, ,0.00871046207468577, ,3.978438394638552e-05, ,0.15691820927136782,-0.24895773966637552,0.09274825321,1.605176517374034,0.18568900318123358,-1.2921422159265288, ,0.019518087527451825,-0.006858318224463185,0.006425498797902381,0.010789203408938207,0.014728952886201449,2.60608991010337e-05, ,0.917273998260498
0.011401773086426743,0.02128861497067599,-0.0827142938531551, ,0.011637915882534192,0.021456797263348988,-0.0829156998647504, ,0.0003530057863958049, ,0.00238828777416987,0.0019850141972625095,-0.005376762637049449,-0.007040483805916665,-0.0034997226316586167,-0.004617116589336897, ,0.006209168729447924, ,0.007862344830024676, ,4.0172504517327276e-05, ,0.1571035548603492,-0.24901952152936932,0.09280788255000001,1.605176517374034,0.185825639680999,-1.2920085976098035, ,0.019712700780737596,-0.005917598752089802,0.0059905270853704414,0.009997826421015881,0.01438440163371629,0.014343472282596713, ,0.9293429851531982
0.011425763042810011,0.021308781725549543,-0.0827663370117685, ,0.011666745829167595,0.021478053105958482,-0.08297431276932152, ,0.0003605265860875797, ,0.002330553621451543,0.0018526966616505562,-0.004805127771406769,-0.014911542673362588,-0.004322155264075358,-0.0036845848342936865, ,0.005652717753620519, ,0.015525306066696684, ,4.067085007348257e-05, ,0.15730434591507902,-0.24908902612523734,0.09286621560000001,1.605176517374034,0.18596227618076444,-1.291956658033219, ,0.020054298723260942,-0.006077515345850237,0.005401428118006105,0.00925800847921366,0.014181562855775808,0.022266451813999322, ,0.9396309852600098
0.01145004365348553,0.021328013285083124,-0.08281587632600078, ,0.011695691383602196,0.021498884098796328,-0.0830332627462747, ,0.00036986010599954634, ,0.00241648672173068,0.001906319426210351,-0.005085998443082054,0.0004498729577817127,-0.005952558991368411,0.003230661091437298, ,0.00594481639700342, ,0.005969534388938052, ,4.118239749497791e-05, ,0.1575128597026831,-0.24915080798823114,0.09292195607,1.6053862073175185,0.1860989126805299,-1.2919863971967747, ,0.020585019860839646,-0.005988680592764654,0.005696999828326181,0.001629609060455756,0.014766838761008328,0.005649135322722038, ,0.9491720199584961
0.0114749630298377,0.021347565066263504,-0.08286929154005428, ,0.011724752107896572,0.021519293157882615,-0.08309254728870304, ,0.00037646812650390634, ,0.0025721850752073463,0.0020102167341529455,-0.005432930003741878,-0.004525557164090345,-0.005383477573847212,-0.007769052685751713, ,0.006338283348426976, ,0.007032957677975482, ,4.1700095628288414e-05, ,0.15772137349028717,-0.24920486711835071,0.09298158541000001,1.6055958972610032,0.18623554918029533,-1.2918527788800496, ,0.021611692452395984,-0.005884344313545668,0.006075061601830665,0.01302043627165978,0.013598687214941282,0.01226655988390775, ,0.9583780765533447
0.011502600072926274,0.021368104997158535,-0.08292363656069461, ,0.011753927565163556,0.02153928319091888,-0.08315216389654621, ,0.00038038431303717864, ,0.0026609146243070825,0.001989816184835104,-0.005541931006225618,-0.007689853948846422,-0.008622070066306445,-0.0007583727107321497, ,0.006461643317690007, ,0.011553092259444989, ,4.221724800243859e-05, ,0.15794533274363967,-0.2492666489813445,0.09304251104000001,1.6058055872044876,0.18623554918029533,-1.2916894213997683, ,0.022360259556661353,-0.00545068819831827,0.006185946221359225,0.005510125819809517,0.012958215435217895,0.01386577415597758, ,0.9674379825592041
0.01152778263294089,0.021387945005874254,-0.082982118865981, ,0.01178321731956927,0.02155885709729785,-0.08321211007658429, ,0.0003838668767717414, ,0.0026725248682668047,0.0020893839518103183,-0.006144550124494731,-0.05061794485491216,-0.007238504829821555,0.0010172480021653305, ,0.0070187898317313376, ,0.05113288848429512, ,4.273283045990139e-05, ,0.15816156926411795,-0.24931298537858984,0.09310732554000001,1.6058055872044876,0.1865088221798262,-1.2915038635064584, ,0.021450484077412024,-0.004851851865452759,0.006792670157782517,0.0052239060552976176,0.014063982744705779,0.05617807768470014, ,0.9770379066467285
0.011555031500642294,0.0214110051918186,-0.08304871700444909, ,0.0118126209363319,0.021578017768113408,-0.0832723833424298, ,0.0003798317374380667, ,0.002633081090018543,0.0021626215000313505,-0.006527692517630238,0.054061072470552585,0.021366234134124838,0.015506528930269398, ,0.007363478619765041, ,0.05813016003666594, ,4.322903097201175e-05, ,0.15840097398321892,-0.24936704450870942,0.09318121407,1.6060152771479719,0.1869187316791225,-1.291593080997126, ,0.023765825584390377,-0.004687361862515522,0.007223950802721089,-0.004800325774232085,0.04718310676171039,-0.0503899135337971, ,0.986090898513794
0.011582941086413228,0.021433097428617907,-0.08311568330453539, ,0.01184213798172038,0.021596768086170018,-0.08333298121452103, ,0.000375751907998524, ,0.0028781879599929882,0.002304515835985244,-0.007115722446430593,0.004297009663327664,0.006742747160320448,0.01350033995814662, ,0.008014253870822382, ,0.007995555832573099, ,4.370629164050699e-05, ,0.15863265596944565,-0.24941338090595477,0.09325510260000001,1.6060152771479719,0.18719200467865343,-1.2914892018439565, ,0.023988104539552774,-0.0045540596066650655,0.007835126178061978,-0.004800325774232085,0.03294668379927207,-0.0006737403377542264, ,0.9958019256591797
0.01161551958413417,0.02145489853587074,-0.08318385130080122, ,0.011871768023053212,0.021615110925992297,-0.083393901220114, ,0.0003680383689239675, ,0.003080398720087528,0.0020714554345153957,-0.006443528212196341,-0.0052900655494252415,-0.008396747881524707,0.010356664575489997, ,0.007436318962582927, ,0.009924220745002871, ,4.415667206559309e-05, ,0.15888750615429506,-0.24945199457032588,0.09333028742,1.6060152771479719,0.18719200467865343,-1.2914075231038162, ,0.02617846663681953,-0.003797769037440098,0.007139763119677276,-0.004800325774232085,0.01969023838531251,0.008224538985685356, ,1.0056679248809814
0.011647183635408483,0.02147414466126015,-0.08324199436511523, ,0.01190151062869731,0.021633049153835106,-0.08345514089327628, ,0.00036791887657872325, ,0.0031416164537223395,0.0019102119480760584,-0.0058337857676695444,0.0023285716242122515,-0.015025792756271273,0.008687804617728731, ,0.006895775519253451, ,0.015205153304275647, ,4.459845541043456e-05, ,0.1591500790720187,-0.24949060823469701,0.09339510192000001,1.6060152771479719,0.18719200467865343,-1.2910808081432537, ,0.027403101807239615,-0.0037015309936735243,0.006514851337423314,-0.004800325774232085,0.014011390636211395,0.000528439156134472, ,1.0157039165496826
0.011677482181150556,0.021492700092436385,-0.08329871680707182, ,0.01193136536806687,0.021650585627693026,-0.0835166977748788, ,0.0003700002934703264, ,0.0031796898731268077,0.0019010074846684507,-0.005649772236132402,-0.011321281323211923,-0.015047719963246107,-0.00782111345187779, ,0.006756047917695905, ,0.018830966017045783, ,4.514020983070754e-05, ,0.15942809745549077,-0.24952922189906812,0.09345862013,1.6058055872044876,0.1874652776781843,-1.2913036439506467, ,0.02774764373054701,-0.0037785119422698767,0.006336042768496421,0.012020022581447753,0.010269890988146789,0.016862921229340164, ,1.02347993850708
0.011677482181150556,0.021492700092436385,-0.08329871680707182, ,0.011961331811621923,0.021667723197309488,-0.08357856941258854, ,0.0004353403045579954, ,0.0031796898731268077,0.0019010074846684507,-0.005649772236132402,-0.011321281323211923,-0.015047719963246107,-0.00782111345187779, ,0.006756047917695905, ,0.018830966017045783, ,4.582339815659792e-05, ,0.15942809745549077,-0.24952922189906812,0.09345862013,1.6058055872044876,0.1874652776781843,-1.2913036439506467, ,0.02774764373054701,-0.0037785119422698767,0.006336042768496421,0.012020022581447753,0.010269890988146789,0.016862921229340164, ,1.0303189754486084
0.011707438575995323,0.021511258276522154,-0.0833566137370412, ,0.011991409530867336,0.021684464704187854,-0.08364075336086249, ,0.000437464622136396, ,0.0030922675029284303,0.0019439243491434896,-0.006176608938846856,0.024958920352270837,0.01819815628699785,0.00020335357451930054, ,0.007175754884909535, ,0.03088884245819497, ,4.650211858118299e-05, ,0.15971383857183707,-0.24956011283056503,0.09352343463000001,1.6058055872044876,0.1878751871774806,-1.2915562189215952, ,0.02948025522164361,-0.0026995602526541903,0.006895589402597403,0.011553853379336438,0.04601194912523302,-0.0207409587969052, ,1.0377650260925293
0.011744670208795983,0.02153342980817338,-0.0834280587358742, ,0.012021598098351474,0.021700812981599222,-0.0837032471809388, ,0.0004247762505800436, ,0.0034734505428636454,0.002361259295146888,-0.007808065162833608,0.00587762271958857,0.005710608364793459,-0.005030933843596832, ,0.00886601859459437, ,0.008194965998010844, ,4.714317452463579e-05, ,0.16001502515393184,-0.2495832810291877,0.09360250832000001,1.6062249670914566,0.1878751871774806,-1.2913928614413142, ,0.02938895681587822,-0.0025922117193086596,0.008596228559093363,0.014151570749832885,0.03261877176504003,-0.0012765604121130723, ,1.0458390712738037
0.011780814972621718,0.021556540608814415,-0.08350480972892942, ,0.012051897087665145,0.02171677085459361,-0.08376604844083049, ,0.00040915145038801113, ,0.0036649609119636167,0.0024568187392441767,-0.008378509482273812,0.012904199895067279,-0.0019611262841328454,-0.010173227053675557, ,0.009469282863463036, ,0.013052369514583249, ,4.7740768111274415e-05, ,0.16029304353740392,-0.2496064492278104,0.09368676717,1.606434657034941,0.1878751871774806,-1.2912295039610329, ,0.02959056487635509,-0.0019409503429889884,0.009180871193083574,0.01697068727333848,0.02409532166233785,-0.008469840691008012, ,1.0532000064849854
0.011780814972621718,0.021556540608814415,-0.08350480972892942, ,0.012082306073440149,0.02173234114000907,-0.08382915471531795, ,0.0004764476685181785, ,0.0036649609119636167,0.0024568187392441767,-0.008378509482273812,0.012904199895067279,-0.0019611262841328454,-0.010173227053675557, ,0.009469282863463036, ,0.013052369514583249, ,4.8479627011904916e-05, ,0.16029304353740392,-0.2496064492278104,0.09368676717,1.606434657034941,0.1878751871774806,-1.2912295039610329, ,0.02959056487635509,-0.0019409503429889884,0.009180871193083574,0.01697068727333848,0.02409532166233785,-0.008469840691008012, ,1.0605099201202393
0.011822318636603803,0.021583482124545326,-0.08359693506079914, ,0.012112824631348319,0.021747526646481302,-0.08389256358594167, ,0.000445758413311126, ,0.0041278498296792995,0.002484658275168934,-0.009060211250772516,0.005773203931048216,-0.03520756911377699,0.04597005579252403, ,0.010261583643345396, ,0.035677762618751996, ,4.914112377903137e-05, ,0.1606328437838698,-0.24962189469355883,0.09378787779000002,1.6068540369219102,0.18814846017701148,-1.291207303548004, ,0.03201651199678501,-0.001425172288297141,0.009881396724565759,-0.046023307942500175,0.008304023177072002,-0.011538079634004647, ,1.0682120323181152
0.011860532937374943,0.02160874845942923,-0.08368837988869426, ,0.012143452338100115,0.02176233017445323,-0.0839562726409948, ,0.00041880455731947025, ,0.004057447563573523,0.0026568196867834113,-0.009830095645307887,0.002483651948221781,0.0026759862460614186,0.04444840444196066, ,0.01096140282879567, ,0.0036509365374410106, ,4.973495569584182e-05, ,0.160949475831713,-0.24962961742643305,0.09388769212,1.6068540369219102,0.18855836967630782,-1.2914598785189528, ,0.03366333506863099,-0.0008573248138921121,0.010712045406859449,-0.03449696587469325,0.046237965421565115,-0.007182501056843442, ,1.0760090351104736
0.011860532937374943,0.02160874845942923,-0.08368837988869426, ,0.012174188771443497,0.021776754516185097,-0.08402027947551637, ,0.00048658334649325657, ,0.004057447563573523,0.0026568196867834113,-0.009830095645307887,0.002483651948221781,0.0026759862460614186,0.04444840444196066, ,0.01096140282879567, ,0.0036509365374410106, ,5.0468387172810805e-05, ,0.16131244427680155,-0.24962961742643305,0.09399528419000001,1.6068540369219102,0.18896827917560413,-1.2917124534899016, ,0.03566213512155985,-0.0006038029451382204,0.009893671751552797,-0.026671772002238484,0.037033024119955675,-0.008797240156848858, ,1.0833170413970947
0.0119039257122829,0.021635284005538186,-0.08378685929626097, ,0.012205033510162683,0.021790802455763862,-0.08408458169128312, ,0.00045109923387469435, ,0.004189126599038028,0.002447080472232992,-0.009026164781837542,0.0050864473417205295,-0.006283164237989462,0.034575693600858985, ,0.010247372110411348, ,0.008083937127990583, ,5.1226314574388884e-05, ,0.16131244427680155,-0.24962961742643305,0.09399528419000001,1.6068540369219102,0.18896827917560413,-1.2917124534899016, ,0.03566213512155985,-0.0006038029451382204,0.009893671751552797,-0.026671772002238484,0.037033024119955675,-0.008797240156848858, ,1.0888140201568604
0.0119039257122829,0.021635284005538186,-0.08378685929626097, ,0.012235986134077004,0.021804476769112645,-0.08414917689680337, ,0.0005197733723757393, ,0.004387718780254663,0.002525416835269694,-0.009339220899468828,-0.020174550909692154,-0.020716808281363127,0.02697992407523523, ,0.010623128225505818, ,0.028917098380132993, ,5.2125712727895264e-05, ,0.16165224452326743,-0.24962961742643305,0.09409120965000001,1.6068540369219102,0.18896827917560413,-1.2913040597891987, ,0.03563535169300442,-0.0004730982341631372,0.010217326183450932,-0.022047109014845433,0.02124425868183024,0.01712372337535657, ,1.0936670303344727
0.011947356711064163,0.02165898225933613,-0.08387454967001165, ,0.01226704622403948,0.02181778022400096,-0.08421406270730877, ,0.0004926330082148427, ,0.004387718780254663,0.002525416835269694,-0.009339220899468828,-0.020174550909692154,-0.020716808281363127,0.02697992407523523, ,0.010623128225505818, ,0.028917098380132993, ,5.295914960076876e-05, ,0.16165224452326743,-0.24962961742643305,0.09409120965000001,1.6068540369219102,0.18896827917560413,-1.2913040597891987, ,0.03563535169300442,-0.0004730982341631372,0.010217326183450932,-0.022047109014845433,0.02124425868183024,0.01712372337535657, ,1.0985760688781738
0.011995739379187435,0.021687133803027288,-0.08397885229917834, ,0.012298213361935956,0.021830715580053905,-0.08427923674474805, ,0.00044981891031179843, ,0.004855606792976489,0.0027236839130822593,-0.01041922747584188,0.01568207345951102,-0.030776017527719156,0.019964806685932163, ,0.011813368384153642, ,0.034541143004565567, ,5.3693979966388984e-05, ,0.16204610389985288,-0.24962961742643305,0.09420528317000001,1.6068540369219102,0.18924155217513502,-1.2912001806360294, ,0.03794359918371483,0.0005801390790849963,0.011353393813257305,-0.018482660147950913,0.011875686938401147,-0.019204898577168714, ,1.1036369800567627
0.011995739379187435,0.021687133803027288,-0.08397885229917834, ,0.01232948713068342,0.02184328558876198,-0.08434469663777826, ,0.0005192427389019222, ,0.004855606792976489,0.0027236839130822593,-0.01041922747584188,0.01568207345951102,-0.030776017527719156,0.019964806685932163, ,0.011813368384153642, ,0.034541143004565567, ,5.457026673015312e-05, ,0.16204610389985288,-0.24962961742643305,0.09420528317000001,1.6068540369219102,0.18924155217513502,-1.2912001806360294, ,0.03794359918371483,0.0005801390790849963,0.011353393813257305,-0.018482660147950913,0.011875686938401147,-0.019204898577168714, ,1.1085760593414307
0.012043430684542436,0.021716796577408142,-0.08409300231065378, ,0.012360867114229297,0.021855492993490877,-0.08441044002175911, ,0.00046986091895190497, ,0.004850717250487286,0.0031982572656554563,-0.012005972628254492,0.021673218040343296,0.02416141205874257,0.01585524715924962, ,0.013337979087248897, ,0.03245769498046271, ,5.5334504835008204e-05, ,0.16204610389985288,-0.24962961742643305,0.09420528317000001,1.6068540369219102,0.18924155217513502,-1.2912001806360294, ,0.03794359918371483,0.0005801390790849963,0.011353393813257305,-0.018482660147950913,0.011875686938401147,-0.019204898577168714, ,1.1143860816955566
0.012043430684542436,0.021716796577408142,-0.08409300231065378, ,0.012392352897549756,0.021867340529490825,-0.08447646453874443, ,0.0005398643094434381, ,0.004850717250487286,0.0031982572656554563,-0.012005972628254492,0.021673218040343296,0.02416141205874257,0.01585524715924962, ,0.013337979087248897, ,0.03245769498046271, ,5.623998015098589e-05, ,0.16245540874218678,-0.24962189469355883,0.09432972701,1.6066443469784255,0.18992473467396223,-1.2915939126742304, ,0.04048504332699265,0.00029349735065496116,0.013077841970443352,0.0,0.06646885355414427,-0.022278217766748088, ,1.1192660331726074
0.012091894600224199,0.021747520791489193,-0.08420876410081313, ,0.012423944066648785,0.021878830923906707,-0.08454276783747584, ,0.0004889352668125036, ,0.005321379721370199,0.0034834087828387347,-0.01311493420676185,-0.004112195534830089,-0.002087697109982532,0.003520441576293681, ,0.014575757892303923, ,0.004611750572258697, ,5.703085264365507e-05, ,0.16245540874218678,-0.24962189469355883,0.09432972701,1.6066443469784255,0.18992473467396223,-1.2915939126742304, ,0.04048504332699265,0.00029349735065496116,0.013077841970443352,0.0,0.06646885355414427,-0.022278217766748088, ,1.124155044555664
0.012091894600224199,0.021747520791489193,-0.08420876410081313, ,0.012455640208556924,0.021889966895787327,-0.0846093475733747, ,0.0005595255835978765, ,0.005321379721370199,0.0034834087828387347,-0.01311493420676185,-0.004112195534830089,-0.002087697109982532,0.003520441576293681, ,0.014575757892303923, ,0.004611750572258697, ,5.796278544346797e-05, ,0.16282609992014957,-0.2496141719606846,0.09445546714000001,1.6068540369219102,0.1901980076734931,-1.2916533910013421, ,0.040763291047453076,0.00046322662572871424,0.014234862841823058,0.006390977448425296,0.038365726676947765,0.004490799031912289, ,1.1293220520019531
0.01215100774209767,0.021784355118637605,-0.08434865248475001, ,0.01248744091132991,0.02190075115609522,-0.08467620140853564, ,0.0004837598705645258, ,0.005923829285216777,0.0036148821176575437,-0.013819960516384951,-0.023233974649774575,-0.030831393303278963,-0.008285182871148985, ,0.01546448947748975, ,0.03860559398491034, ,5.872910690112962e-05, ,0.16325857296110613,-0.24959872649493614,0.09460713307000002,1.6072734168088794,0.19033464417325854,-1.2914380939444763, ,0.04329240034601769,0.0012357250737102864,0.014984770950141113,0.011852829326670925,0.010140903598503661,0.02385208513064581, ,1.1340909004211426
0.01215100774209767,0.021784355118637605,-0.08434865248475001, ,0.01251934576404766,0.021911186407716464,-0.08474332701171843, ,0.0005545512208454466, ,0.005923829285216777,0.0036148821176575437,-0.013819960516384951,-0.023233974649774575,-0.030831393303278963,-0.008285182871148985, ,0.01546448947748975, ,0.03860559398491034, ,5.9635938865949504e-05, ,0.16325857296110613,-0.24959872649493614,0.09460713307000002,1.6072734168088794,0.19033464417325854,-1.2914380939444763, ,0.04329240034601769,0.0012357250737102864,0.014984770950141113,0.011852829326670925,0.010140903598503661,0.02385208513064581, ,1.1393060684204102
0.012203986246419557,0.02181851988908335,-0.08448132697260541, ,0.012551354356812885,0.02192127534547021,-0.0848107220583415, ,0.000489616595350477, ,0.005923829285216777,0.0036148821176575437,-0.013819960516384951,-0.023233974649774575,-0.030831393303278963,-0.008285182871148985, ,0.01546448947748975, ,0.03860559398491034, ,6.0401113902351526e-05, ,0.16367560053631425,-0.2495832810291877,0.09475102126000001,1.6072734168088794,0.1908811901723203,-1.2917204080789808, ,0.044427407096662354,0.001978442370974272,0.015127076467236471,0.011852829326670925,0.04538364324346771,-0.009064026588424225, ,1.1441318988800049
0.012203986246419557,0.02181851988908335,-0.08448132697260541, ,0.012583466280749812,0.021931020656118055,-0.08487838423047381, ,0.000560638907911912, ,0.005736032095209619,0.003582394771111257,-0.013945248856218636,0.008786318858567541,0.0025587006690995385,-0.0006059795690843133, ,0.015498567100065325, ,0.009151274272424265, ,6.130612764742808e-05, ,0.16367560053631425,-0.2495832810291877,0.09475102126000001,1.6072734168088794,0.1908811901723203,-1.2917204080789808, ,0.044427407096662354,0.001978442370974272,0.015127076467236471,0.011852829326670925,0.04538364324346771,-0.009064026588424225, ,1.148859977722168
0.012203986246419557,0.02181851988908335,-0.08448132697260541, ,0.012615681128003289,0.021940425018374718,-0.08494631121682858, ,0.000632901164041892, ,0.005736032095209619,0.003582394771111257,-0.013945248856218636,0.008786318858567541,0.0025587006690995385,-0.0006059795690843133, ,0.015498567100065325, ,0.009151274272424265, ,6.247983408766312e-05, ,0.16367560053631425,-0.2495832810291877,0.09475102126000001,1.6072734168088794,0.1908811901723203,-1.2917204080789808, ,0.044427407096662354,0.001978442370974272,0.015127076467236471,0.011852829326670925,0.04538364324346771,-0.009064026588424225, ,1.1513540744781494
0.012203986246419557,0.02181851988908335,-0.08448132697260541, ,0.012647998491737138,0.021949491102915976,-0.08501450071275497, ,0.0007060981305950515, ,0.005736032095209619,0.003582394771111257,-0.013945248856218636,0.008786318858567541,0.0025587006690995385,-0.0006059795690843133, ,0.015498567100065325, ,0.009151274272424265, ,6.379872403952253e-05, ,0.16367560053631425,-0.2495832810291877,0.09475102126000001,1.6072734168088794,0.1908811901723203,-1.2917204080789808, ,0.044427407096662354,0.001978442370974272,0.015127076467236471,0.011852829326670925,0.04538364324346771,-0.009064026588424225, ,1.1542048454284668
0.012254373785823754,0.021847872758510693,-0.08459825342909875, ,0.012680417966133159,0.021958221572389965,-0.08508295042023176, ,0.0006546920478465126, ,0.005534600025085472,0.003341832671615878,-0.013015041689846091,0.007130037370351006,0.022775972502444963,0.005076049009812506, ,0.01453241044118928, ,0.02386591676195838, ,6.500709484485378e-05, ,0.16367560053631425,-0.2495832810291877,0.09475102126000001,1.6072734168088794,0.1908811901723203,-1.2917204080789808, ,0.044427407096662354,0.001978442370974272,0.015127076467236471,0.011852829326670925,0.04538364324346771,-0.009064026588424225, ,1.1570188999176025
0.012254373785823754,0.021847872758510693,-0.08459825342909875, ,0.012712939146390038,0.021966619081426483,-0.08515165804785953, ,0.0007284501020543983, ,0.005534600025085472,0.003341832671615878,-0.013015041689846091,0.007130037370351006,0.022775972502444963,0.005076049009812506, ,0.01453241044118928, ,0.02386591676195838, ,6.63610601656896e-05, ,0.16407718264577392,-0.24956011283056503,0.09487805768,1.6072734168088794,0.19129109967161662,-1.2918096255696485, ,0.04611124468341632,0.0020319472908591186,0.01418415985752449,0.011852829326670925,0.06801814754185218,-0.007557601121281015, ,1.1595489978790283
0.012254373785823754,0.021847872758510693,-0.08459825342909875, ,0.012745561628721775,0.021974686276645655,-0.08522062131085319, ,0.0008029252428664054, ,0.005534600025085472,0.003341832671615878,-0.013015041689846091,0.007130037370351006,0.022775972502444963,0.005076049009812506, ,0.01453241044118928, ,0.02386591676195838, ,0.0003702204969339367, ,0.16407718264577392,-0.24956011283056503,0.09487805768,1.6072734168088794,0.19129109967161662,-1.2918096255696485, ,0.04611124468341632,0.0020319472908591186,0.01418415985752449,0.011852829326670925,0.06801814754185218,-0.007557601121281015, ,1.1620678901672363
0.012254373785823754,0.021847872758510693,-0.08459825342909875, ,0.012778285010356723,0.021982425796668884,-0.08528983793103542, ,0.000877995794174564, ,0.005534600025085472,0.003341832671615878,-0.013015041689846091,0.007130037370351006,0.022775972502444963,0.005076049009812506, ,0.01453241044118928, ,0.02386591676195838, ,0.0003758004452552623, ,0.16407718264577392,-0.24956011283056503,0.09487805768,1.6072734168088794,0.19129109967161662,-1.2918096255696485, ,0.04611124468341632,0.0020319472908591186,0.01418415985752449,0.011852829326670925,0.06801814754185218,-0.007557601121281015, ,1.164452075958252
0.012339478688189147,0.021892186649313618,-0.08477767490876922, ,0.012811108889536182,0.021989840272127522,-0.08535930563682871, ,0.000755159308155792, ,0.006634258896397868,0.0034267362609590336,-0.013604974407330349,-0.00014830508378060306,-0.026414398103428986,-0.005803703654789604, ,0.01551938275611242, ,0.02641480561075675, ,0.000379923911156355, ,0.16477222860445415,-0.24951377643331968,0.09507379747000001,1.6072734168088794,0.1918376456706784,-1.2919285822238717, ,0.05260362614105919,0.003031342590565452,0.014694475571955721,0.011852829326670925,0.024838421826247913,-0.016780755180483706, ,1.1667840480804443
0.012339478688189147,0.021892186649313618,-0.08477767490876922, ,0.012844032865513434,0.02199693232567336,-0.08542902216324834, ,0.0008305418836452068, ,0.006634258896397868,0.0034267362609590336,-0.013604974407330349,-0.00014830508378060306,-0.026414398103428986,-0.005803703654789604, ,0.01551938275611242, ,0.02641480561075675, ,0.0003847692656992459, ,0.16477222860445415,-0.24951377643331968,0.09507379747000001,1.6072734168088794,0.1918376456706784,-1.2919285822238717, ,0.05260362614105919,0.003031342590565452,0.014694475571955721,0.011852829326670925,0.024838421826247913,-0.016780755180483706, ,1.1690359115600586
0.012339478688189147,0.021892186649313618,-0.08477767490876922, ,0.012877056538552208,0.02200370457198768,-0.0854989852518953, ,0.0009064848610865813, ,0.006634258896397868,0.0034267362609590336,-0.013604974407330349,-0.00014830508378060306,-0.026414398103428986,-0.005803703654789604, ,0.01551938275611242, ,0.02641480561075675, ,0.00039031943160762185, ,0.16477222860445415,-0.24951377643331968,0.09507379747000001,1.6072734168088794,0.1918376456706784,-1.2919285822238717, ,0.05260362614105919,0.003031342590565452,0.014694475571955721,0.011852829326670925,0.024838421826247913,-0.016780755180483706, ,1.1713080406188965
0.012339478688189147,0.021892186649313618,-0.08477767490876922, ,0.012910179509925662,0.02201015961779136,-0.08556919265094873, ,0.0009829127048762382, ,0.006634258896397868,0.0034267362609590336,-0.013604974407330349,-0.00014830508378060306,-0.026414398103428986,-0.005803703654789604, ,0.01551938275611242, ,0.02641480561075675, ,0.00039655725553676516, ,0.16477222860445415,-0.24951377643331968,0.09507379747000001,1.6072734168088794,0.1918376456706784,-1.2919285822238717, ,0.05260362614105919,0.003031342590565452,0.014694475571955721,0.011852829326670925,0.024838421826247913,-0.016780755180483706, ,1.1735410690307617
0.012414352343487579,0.02193098380804268,-0.08494645447939735, ,0.012943401381915038,0.022016300061853844,-0.08563964211515857, ,0.0008761739819223231, ,0.008555185003649927,0.004760882369966456,-0.02140116280069358,0.010169440786674814,-0.006143917554048143,-0.0004191285551538202, ,0.023534378271140383, ,0.011881109352228006, ,0.00040155326310328137, ,0.16536687903576944,-0.24943654910457744,0.09525657436000001,1.6074831067523636,0.19238419166974016,-1.2922108963583763, ,0.06301257739606293,0.010812063526535786,0.02298529800865801,0.012407817929617518,0.055318515921985834,-0.019109931943818517, ,1.1758270263671875
0.012414352343487579,0.02193098380804268,-0.08494645447939735, ,0.012976721757808528,0.022022128495003755,-0.0857103314058389, ,0.0009529295204130906, ,0.008555185003649927,0.004760882369966456,-0.02140116280069358,0.010169440786674814,-0.006143917554048143,-0.0004191285551538202, ,0.023534378271140383, ,0.011881109352228006, ,0.00040723755441575367, ,0.16536687903576944,-0.24943654910457744,0.09525657436000001,1.6074831067523636,0.19238419166974016,-1.2922108963583763, ,0.06301257739606293,0.010812063526535786,0.02298529800865801,0.012407817929617518,0.055318515921985834,-0.019109931943818517, ,1.1781740188598633
0.012414352343487579,0.02193098380804268,-0.08494645447939735, ,0.013010140241899974,0.022027647500137748,-0.08578125829085936, ,0.001030147801480749, ,0.008555185003649927,0.004760882369966456,-0.02140116280069358,0.010169440786674814,-0.006143917554048143,-0.0004191285551538202, ,0.023534378271140383, ,0.011881109352228006, ,0.00041359378142662097, ,0.16536687903576944,-0.24943654910457744,0.09525657436000001,1.6074831067523636,0.19238419166974016,-1.2922108963583763, ,0.06301257739606293,0.010812063526535786,0.02298529800865801,0.012407817929617518,0.055318515921985834,-0.019109931943818517, ,1.1805310249328613
0.012414352343487579,0.02193098380804268,-0.08494645447939735, ,0.013043656439487593,0.022032859652230542,-0.08585242054463962, ,0.0011077801425562566, ,0.008555185003649927,0.004760882369966456,-0.02140116280069358,0.010169440786674814,-0.006143917554048143,-0.0004191285551538202, ,0.023534378271140383, ,0.011881109352228006, ,0.00042060576487237486, ,0.16536687903576944,-0.24943654910457744,0.09525657436000001,1.6074831067523636,0.19238419166974016,-1.2922108963583763, ,0.06301257739606293,0.010812063526535786,0.02298529800865801,0.012407817929617518,0.055318515921985834,-0.019109931943818517, ,1.182762861251831
0.012414352343487579,0.02193098380804268,-0.08494645447939735, ,0.013077269956872924,0.02203776751834464,-0.08592381594814073, ,0.0011857900166161825, ,0.008555185003649927,0.004760882369966456,-0.02140116280069358,0.010169440786674814,-0.006143917554048143,-0.0004191285551538202, ,0.023534378271140383, ,0.011881109352228006, ,0.0004282576073898129, ,0.16536687903576944,-0.24943654910457744,0.09525657436000001,1.6074831067523636,0.19238419166974016,-1.2922108963583763, ,0.06301257739606293,0.010812063526535786,0.02298529800865801,0.012407817929617518,0.055318515921985834,-0.019109931943818517, ,1.1849658489227295
0.012502615356067795,0.021991061960449802,-0.08520261301981556, ,0.013110980401359476,0.022042373657639783,-0.08599544228885839, ,0.0010006593668438054, ,0.009782105834645383,0.007060941711963795,-0.029688923286037453,0.1094631251428876,0.062163102023501726,0.012118816051163044, ,0.03204650773959887, ,0.12588250058381592, ,0.00043392495154282275, ,0.16601558859720428,-0.24934387631008675,0.09553138784000001,1.607692796695848,0.1936139201676291,-1.2931319787515037, ,0.06846821180264846,0.009256945930881975,0.031794034970059885,0.01572969820376386,0.12938940540499427,-0.11670322366238114, ,1.1879069805145264
0.012502615356067795,0.021991061960449802,-0.08520261301981556, ,0.013144787381251424,0.022046680621382615,-0.0860672973608156, ,0.0010784977306156343, ,0.009782105834645383,0.007060941711963795,-0.029688923286037453,0.1094631251428876,0.062163102023501726,0.012118816051163044, ,0.03204650773959887, ,0.12588250058381592, ,0.0004402442925141248, ,0.16601558859720428,-0.24934387631008675,0.09553138784000001,1.607692796695848,0.1936139201676291,-1.2931319787515037, ,0.06846821180264846,0.009256945930881975,0.031794034970059885,0.01572969820376386,0.12938940540499427,-0.11670322366238114, ,1.190155029296875
0.012502615356067795,0.021991061960449802,-0.08520261301981556, ,0.01317869050585254,0.022050690952956673,-0.08613937896455537, ,0.0011567902403323224, ,0.009782105834645383,0.007060941711963795,-0.029688923286037453,0.1094631251428876,0.062163102023501726,0.012118816051163044, ,0.03204650773959887, ,0.12588250058381592, ,0.00044720104928905877, ,0.16601558859720428,-0.24934387631008675,0.09553138784000001,1.607692796695848,0.1936139201676291,-1.2931319787515037, ,0.06846821180264846,0.009256945930881975,0.031794034970059885,0.01572969820376386,0.12938940540499427,-0.11670322366238114, ,1.1923799514770508
0.012502615356067795,0.021991061960449802,-0.08520261301981556, ,0.01321268938546481,0.022054407187871328,-0.08621168490713324, ,0.0012354933503811582, ,0.009782105834645383,0.007060941711963795,-0.029688923286037453,0.1094631251428876,0.062163102023501726,0.012118816051163044, ,0.03204650773959887, ,0.12588250058381592, ,0.0004547807829534059, ,0.16601558859720428,-0.24934387631008675,0.09553138784000001,1.607692796695848,0.1936139201676291,-1.2931319787515037, ,0.06846821180264846,0.009256945930881975,0.031794034970059885,0.01572969820376386,0.12938940540499427,-0.11670322366238114, ,1.1945700645446777
0.01261508032305196,0.022069275284109808,-0.0855374635575365, ,0.013246783631387362,0.022057831853772473,-0.0862842130021108, ,0.0009781690829461964, ,0.011667512257374585,0.0079193687163684,-0.034747277596089574,0.04177120345639977,0.0035541777070206416,0.002804974469463, ,0.037499607244363097, ,0.04192153342275495, ,0.00045976543342952773, ,0.16675697095312983,-0.24922031258409916,0.09588916388,1.6081121765828172,0.1945703756659872,-1.293830225337238, ,0.07425425787047792,0.014238100758960356,0.037043747720930234,0.012770068006995641,0.07641007974120737,-0.054102573503632574, ,1.1967558860778809
0.01261508032305196,0.022069275284109808,-0.0855374635575365, ,0.013280972855915044,0.02206096747045118,-0.0863569610695469, ,0.0010559630946590183, ,0.011667512257374585,0.0079193687163684,-0.034747277596089574,0.04177120345639977,0.0035541777070206416,0.002804974469463, ,0.037499607244363097, ,0.04192153342275495, ,0.0004653899396675418, ,0.16675697095312983,-0.24922031258409916,0.09588916388,1.6081121765828172,0.1945703756659872,-1.293830225337238, ,0.07425425787047792,0.014238100758960356,0.037043747720930234,0.012770068006995641,0.07641007974120737,-0.054102573503632574, ,1.1989500522613525
0.01261508032305196,0.022069275284109808,-0.0855374635575365, ,0.013315256672337461,0.022063816549854197,-0.08642992693599198, ,0.0011343577917758687, ,0.011667512257374585,0.0079193687163684,-0.034747277596089574,0.04177120345639977,0.0035541777070206416,0.002804974469463, ,0.037499607244363097, ,0.04192153342275495, ,0.00047164197566855416, ,0.16675697095312983,-0.24922031258409916,0.09588916388,1.6081121765828172,0.1945703756659872,-1.293830225337238, ,0.07425425787047792,0.014238100758960356,0.037043747720930234,0.012770068006995641,0.07641007974120737,-0.054102573503632574, ,1.2011919021606445
0.01261508032305196,0.022069275284109808,-0.0855374635575365, ,0.013349634694937405,0.022066381596092758,-0.08650310843448, ,0.0012132800695031632, ,0.011667512257374585,0.0079193687163684,-0.034747277596089574,0.04177120345639977,0.0035541777070206416,0.002804974469463, ,0.037499607244363097, ,0.04192153342275495, ,0.0004785089950559117, ,0.16675697095312983,-0.24922031258409916,0.09588916388,1.6081121765828172,0.1945703756659872,-1.293830225337238, ,0.07425425787047792,0.014238100758960356,0.037043747720930234,0.012770068006995641,0.07641007974120737,-0.054102573503632574, ,1.2034239768981934
0.012740705087796745,0.022152837482022094,-0.08591895835625493, ,0.013384106538989879,0.022068665105452894,-0.08657650340452076, ,0.0009238051238619817, ,0.012256865448610188,0.008207069836988183,-0.038225609382972404,0.07631162689184823,0.06271577025430711,-0.007974631351094481, ,0.040972966192773054, ,0.09877575928372566, ,0.0004825942806412885, ,0.16675697095312983,-0.24922031258409916,0.09588916388,1.6081121765828172,0.1945703756659872,-1.293830225337238, ,0.07425425787047792,0.014238100758960356,0.037043747720930234,0.012770068006995641,0.07641007974120737,-0.054102573503632574, ,1.2059118747711182
0.012740705087796745,0.022152837482022094,-0.08591895835625493, ,0.01341867182076073,0.022070669566404955,-0.08665010969209361, ,0.0010004862484119432, ,0.012256865448610188,0.008207069836988183,-0.038225609382972404,0.07631162689184823,0.06271577025430711,-0.007974631351094481, ,0.040972966192773054, ,0.09877575928372566, ,0.00048730238943920355, ,0.16755241243917496,-0.24902724426224354,0.09629490265000001,1.608321866526302,0.1955268311643453,-1.2944467931828316, ,0.07974532904073174,0.02137799990053408,0.04063472326530613,0.037194941007022295,0.13647316531127895,-0.0919871559884056, ,1.2087249755859375
0.012740705087796745,0.022152837482022094,-0.08591895835625493, ,0.013453330157505522,0.02207239745961307,-0.08672392514963961, ,0.0010780893402842918, ,0.012256865448610188,0.008207069836988183,-0.038225609382972404,0.07631162689184823,0.06271577025430711,-0.007974631351094481, ,0.040972966192773054, ,0.09877575928372566, ,0.0004926247944017719, ,0.16755241243917496,-0.24902724426224354,0.09629490265000001,1.608321866526302,0.1955268311643453,-1.2944467931828316, ,0.07974532904073174,0.02137799990053408,0.04063472326530613,0.037194941007022295,0.13647316531127895,-0.0919871559884056, ,1.2110199928283691
0.012740705087796745,0.022152837482022094,-0.08591895835625493, ,0.013488081167468226,0.02207385125794503,-0.08679794763605385, ,0.0011564739435285527, ,0.012256865448610188,0.008207069836988183,-0.038225609382972404,0.07631162689184823,0.06271577025430711,-0.007974631351094481, ,0.040972966192773054, ,0.09877575928372566, ,0.0004985520189475467, ,0.16755241243917496,-0.24902724426224354,0.09629490265000001,1.608321866526302,0.1955268311643453,-1.2944467931828316, ,0.07974532904073174,0.02137799990053408,0.04063472326530613,0.037194941007022295,0.13647316531127895,-0.0919871559884056, ,1.2133090496063232
0.012740705087796745,0.022152837482022094,-0.08591895835625493, ,0.01352292446987999,0.022075033426481705,-0.08687217501667918, ,0.0012355333400906605, ,0.013212861698296954,0.007571650567367253,-0.03884994326138118,0.07761078234850834,0.06222899591734496,0.06222906692630814, ,0.04172802053758568, ,0.09947760033224035, ,0.0005050739775417336, ,0.16838646758959122,-0.24877239407739413,0.09669804884000001,1.6085315564697864,0.19716646916153055,-1.2956204505469078, ,0.09159936443867836,0.028852825040580957,0.04126635108808291,-0.030879415832511622,0.16524917244683485,-0.11180507230161307, ,1.216027021408081
0.012863879047084888,0.02223014470689364,-0.08629851686383377, ,0.013557859684957908,0.022075946422527064,-0.08694660516329819, ,0.0009619795634767504, ,0.013212861698296954,0.007571650567367253,-0.03884994326138118,0.07761078234850834,0.06222899591734496,0.06222906692630814, ,0.04172802053758568, ,0.09947760033224035, ,0.0005090819212780057, ,0.16838646758959122,-0.24877239407739413,0.09669804884000001,1.6085315564697864,0.19716646916153055,-1.2956204505469078, ,0.09159936443867836,0.028852825040580957,0.04126635108808291,-0.030879415832511622,0.16524917244683485,-0.11180507230161307, ,1.218324899673462
0.012863879047084888,0.02223014470689364,-0.08629851686383377, ,0.013592886433903845,0.022076592695617354,-0.0870212359541257, ,0.001037956103925394, ,0.013212861698296954,0.007571650567367253,-0.03884994326138118,0.07761078234850834,0.06222899591734496,0.06222906692630814, ,0.04172802053758568, ,0.09947760033224035, ,0.0005136808272140699, ,0.16838646758959122,-0.24877239407739413,0.09669804884000001,1.6085315564697864,0.19716646916153055,-1.2956204505469078, ,0.09159936443867836,0.028852825040580957,0.04126635108808291,-0.030879415832511622,0.16524917244683485,-0.11180507230161307, ,1.2205250263214111
0.012863879047084888,0.02223014470689364,-0.08629851686383377, ,0.013628004338903089,0.022076974687531174,-0.08709606527380266, ,0.0011150928134786133, ,0.013212861698296954,0.007571650567367253,-0.03884994326138118,0.07761078234850834,0.06222899591734496,0.06222906692630814, ,0.04172802053758568, ,0.09947760033224035, ,0.0005188654133025574, ,0.16838646758959122,-0.24877239407739413,0.09669804884000001,1.6085315564697864,0.19716646916153055,-1.2956204505469078, ,0.09159936443867836,0.028852825040580957,0.04126635108808291,-0.030879415832511622,0.16524917244683485,-0.11180507230161307, ,1.2228178977966309
0.012863879047084888,0.02223014470689364,-0.08629851686383377, ,0.013663213023123186,0.0220770948322987,-0.08717109101338705, ,0.0011932077421100403, ,0.013212861698296954,0.007571650567367253,-0.03884994326138118,0.07761078234850834,0.06222899591734496,0.06222906692630814, ,0.04172802053758568, ,0.09947760033224035, ,0.0005246290229504846, ,0.16838646758959122,-0.24877239407739413,0.09669804884000001,1.6085315564697864,0.19716646916153055,-1.2956204505469078, ,0.09159936443867836,0.028852825040580957,0.04126635108808291,-0.030879415832511622,0.16524917244683485,-0.11180507230161307, ,1.2250909805297852
0.01300477397975094,0.02230054132963439,-0.08667668606551521, ,0.013698512110712787,0.02207695555621202,-0.08724631107034879, ,0.0009250599107944166, ,0.014143586510809065,0.0060203400547879805,-0.03457262996120729,-0.016923608812339237,-0.029580226320326072,0.0348835215524799, ,0.03783585965983319, ,0.03407856997838799, ,0.000528022505050857, ,0.1693595319317435,-0.2484480392966767,0.09709989874000001,1.6085315564697864,0.1982595611596541,-1.2962667575560574, ,0.10063302392202628,0.03397670660883308,0.036787093579676675,-0.02268250792631436,0.07884653470734168,-0.0206187096266447, ,1.2273218631744385
0.01300477397975094,0.02230054132963439,-0.08667668606551521, ,0.013733901226800233,0.02207655927783418,-0.08732172334856034, ,0.0009989332302193952, ,0.014143586510809065,0.0060203400547879805,-0.03457262996120729,-0.016923608812339237,-0.029580226320326072,0.0348835215524799, ,0.03783585965983319, ,0.03407856997838799, ,0.0005319797380354665, ,0.1693595319317435,-0.2484480392966767,0.09709989874000001,1.6085315564697864,0.1982595611596541,-1.2962667575560574, ,0.10063302392202628,0.03397670660883308,0.036787093579676675,-0.02268250792631436,0.07884653470734168,-0.0206187096266447, ,1.2295548915863037
0.01300477397975094,0.02230054132963439,-0.08667668606551521, ,0.013769379997492476,0.022075908408008882,-0.08739732575829078, ,0.001074431886462909, ,0.014143586510809065,0.0060203400547879805,-0.03457262996120729,-0.016923608812339237,-0.029580226320326072,0.0348835215524799, ,0.03783585965983319, ,0.03407856997838799, ,0.0005365001726056952, ,0.1693595319317435,-0.2484480392966767,0.09709989874000001,1.6085315564697864,0.1982595611596541,-1.2962667575560574, ,0.10063302392202628,0.03397670660883308,0.036787093579676675,-0.02268250792631436,0.07884653470734168,-0.0206187096266447, ,1.2317769527435303
0.01300477397975094,0.02230054132963439,-0.08667668606551521, ,0.013804948049873703,0.022075005349870495,-0.08747311621619834, ,0.001151280159466863, ,0.014143586510809065,0.0060203400547879805,-0.03457262996120729,-0.016923608812339237,-0.029580226320326072,0.0348835215524799, ,0.03783585965983319, ,0.03407856997838799, ,0.0005415809989433907, ,0.1693595319317435,-0.2484480392966767,0.09709989874000001,1.6085315564697864,0.1982595611596541,-1.2962667575560574, ,0.10063302392202628,0.03397670660883308,0.036787093579676675,-0.02268250792631436,0.07884653470734168,-0.0206187096266447, ,1.2340400218963623
0.013142759551196452,0.02234828401649265,-0.08699339580245091, ,0.01384060501200418,0.022073852498853328,-0.08754909264532242, ,0.0009333273414087513, ,0.014165832550546808,0.004024700177488406,-0.03060947959665818,0.05462916807630993,0.003960898212274933,0.018019001908976914, ,0.03396776802421731, ,0.054772327398160806, ,0.0005447920345373691, ,0.17040982360263804,-0.24805417992009124,0.09743693414000001,1.608321866526302,0.19935265315777762,-1.2968313858250666, ,0.11164346065702443,0.04501752445847759,0.03257425668711657,0.00044027004013139244,0.11789417228902693,-0.09952797117756697, ,1.2362709045410156
0.013142759551196452,0.02234828401649265,-0.08699339580245091, ,0.01387635051291913,0.022072452242701775,-0.08762525297507723, ,0.001006718606738321, ,0.014165832550546808,0.004024700177488406,-0.03060947959665818,0.05462916807630993,0.003960898212274933,0.018019001908976914, ,0.03396776802421731, ,0.054772327398160806, ,0.0005485475351243687, ,0.17040982360263804,-0.24805417992009124,0.09743693414000001,1.608321866526302,0.19935265315777762,-1.2968313858250666, ,0.11164346065702443,0.04501752445847759,0.03257425668711657,0.00044027004013139244,0.11789417228902693,-0.09952797117756697, ,1.2385249137878418
0.013142759551196452,0.02234828401649265,-0.08699339580245091, ,0.013912184182627253,0.02207080696147917,-0.08770159514124368, ,0.0010819214772699022, ,0.014165832550546808,0.004024700177488406,-0.03060947959665818,0.05462916807630993,0.003960898212274933,0.018019001908976914, ,0.03396776802421731, ,0.054772327398160806, ,0.0005528489378836068, ,0.17040982360263804,-0.24805417992009124,0.09743693414000001,1.608321866526302,0.19935265315777762,-1.2968313858250666, ,0.11164346065702443,0.04501752445847759,0.03257425668711657,0.00044027004013139244,0.11789417228902693,-0.09952797117756697, ,1.2408530712127686
0.013142759551196452,0.02234828401649265,-0.08699339580245091, ,0.013948105652109598,0.022068919027578446,-0.08777811708596267, ,0.001158626183064832, ,0.014165832550546808,0.004024700177488406,-0.03060947959665818,0.05462916807630993,0.003960898212274933,0.018019001908976914, ,0.03396776802421731, ,0.054772327398160806, ,0.0005576951558450567, ,0.17040982360263804,-0.24805417992009124,0.09743693414000001,1.608321866526302,0.19935265315777762,-1.2968313858250666, ,0.11164346065702443,0.04501752445847759,0.03257425668711657,0.00044027004013139244,0.11789417228902693,-0.09952797117756697, ,1.2432279586791992
0.013285018747329102,0.022381305306681778,-0.08728177461550876, ,0.013984114553318494,0.0220667908057308,-0.0878548167577277, ,0.0009570954048679119, ,0.014167668493674868,0.002907938619168826,-0.028315014515144937,0.0719455645658295,0.029648083196720052,0.02325168885570053, ,0.0317949521866662, ,0.07781487581053782, ,0.0005608649990912698, ,0.1715682335337717,-0.24757537048188932,0.09774415487000002,1.608321866526302,0.20058238165566658,-1.2976707894780533, ,0.11862117694808846,0.050638709476238414,0.030168203636363643,0.001650613516273871,0.1509577560645053,-0.12237209939451826, ,1.2463579177856445
0.013285018747329102,0.022381305306681778,-0.08728177461550876, ,0.014020210519176023,0.022064424653016286,-0.08793169211137736, ,0.0010311707140405952, ,0.014167668493674868,0.002907938619168826,-0.028315014515144937,0.0719455645658295,0.029648083196720052,0.02325168885570053, ,0.0317949521866662, ,0.07781487581053782, ,0.00056456819369717, ,0.1715682335337717,-0.24757537048188932,0.09774415487000002,1.608321866526302,0.20058238165566658,-1.2976707894780533, ,0.11862117694808846,0.050638709476238414,0.030168203636363643,0.001650613516273871,0.1509577560645053,-0.12237209939451826, ,1.2486190795898438
0.013285018747329102,0.022381305306681778,-0.08728177461550876, ,0.014056393183572966,0.02206182291887275,-0.08800874110808828, ,0.0011070536564882743, ,0.014167668493674868,0.002907938619168826,-0.028315014515144937,0.0719455645658295,0.029648083196720052,0.02325168885570053, ,0.0317949521866662, ,0.07781487581053782, ,0.0005688063613752255, ,0.1715682335337717,-0.24757537048188932,0.09774415487000002,1.608321866526302,0.20058238165566658,-1.2976707894780533, ,0.11862117694808846,0.050638709476238414,0.030168203636363643,0.001650613516273871,0.1509577560645053,-0.12237209939451826, ,1.2508580684661865
0.013285018747329102,0.022381305306681778,-0.08728177461550876, ,0.014092662181367503,0.022058987945105562,-0.08808596171536764, ,0.0011844379636343286, ,0.014167668493674868,0.002907938619168826,-0.028315014515144937,0.0719455645658295,0.029648083196720052,0.02325168885570053, ,0.0317949521866662, ,0.07781487581053782, ,0.0005735786993772341, ,0.1715682335337717,-0.24757537048188932,0.09774415487000002,1.608321866526302,0.20058238165566658,-1.2976707894780533, ,0.11862117694808846,0.050638709476238414,0.030168203636363643,0.001650613516273871,0.1509577560645053,-0.12237209939451826, ,1.2530579566955566
0.013285018747329102,0.022381305306681778,-0.08728177461550876, ,0.014129017148384005,0.022055922065897744,-0.08816335190704616, ,0.0012630859334664332, ,0.014167668493674868,0.002907938619168826,-0.028315014515144937,0.0719455645658295,0.029648083196720052,0.02325168885570053, ,0.0317949521866662, ,0.07781487581053782, ,0.0005788826011779202, ,0.1715682335337717,-0.24757537048188932,0.09774415487000002,1.608321866526302,0.20058238165566658,-1.2976707894780533, ,0.11862117694808846,0.050638709476238414,0.030168203636363643,0.001650613516273871,0.1509577560645053,-0.12237209939451826, ,1.2552618980407715
0.013432801109112713,0.02240420018669129,-0.08756699194788083, ,0.014165457721411808,0.022052627607819373,-0.08824090966327043, ,0.0010557244322625962, ,0.014527886131509089,0.0017951408453187045,-0.027935818862077407,0.04771136036255633,0.03378478357125489,0.0046663262339761286, ,0.03153873779337761, ,0.05846168398685307, ,0.0005825226151556659, ,0.1728270389922703,-0.24698844278344828,0.09804748673000001,1.6087412464132707,0.20222201965285186,-1.2990078043224103, ,0.12292349942807097,0.061661430512326684,0.02960745635687733,0.02056071451761273,0.1551142499166275,-0.10581074379453732, ,1.2574889659881592
0.013432801109112713,0.02240420018669129,-0.08756699194788083, ,0.014201983538203934,0.022049106889836915,-0.08831863297049615, ,0.0011325621773535396, ,0.014527886131509089,0.0017951408453187045,-0.027935818862077407,0.04771136036255633,0.03378478357125489,0.0046663262339761286, ,0.03153873779337761, ,0.05846168398685307, ,0.0005866895815359528, ,0.1728270389922703,-0.24698844278344828,0.09804748673000001,1.6087412464132707,0.20222201965285186,-1.2990078043224103, ,0.12292349942807097,0.061661430512326684,0.02960745635687733,0.02056071451761273,0.1551142499166275,-0.10581074379453732, ,1.2597589492797852
0.013432801109112713,0.02240420018669129,-0.08756699194788083, ,0.01423859423747583,0.02204536222332321,-0.08839651982148043, ,0.0012108607445738973, ,0.014527886131509089,0.0017951408453187045,-0.027935818862077407,0.04771136036255633,0.03378478357125489,0.0046663262339761286, ,0.03153873779337761, ,0.05846168398685307, ,0.000591382597799396, ,0.1728270389922703,-0.24698844278344828,0.09804748673000001,1.6087412464132707,0.20222201965285186,-1.2990078043224103, ,0.12292349942807097,0.061661430512326684,0.02960745635687733,0.02056071451761273,0.1551142499166275,-0.10581074379453732, ,1.2619619369506836
0.013432801109112713,0.02240420018669129,-0.08756699194788083, ,0.014275289458904229,0.02204139591206723,-0.08847456821527445, ,0.0012903907324357507, ,0.014527886131509089,0.0017951408453187045,-0.027935818862077407,0.04771136036255633,0.03378478357125489,0.0046663262339761286, ,0.03153873779337761, ,0.05846168398685307, ,0.0005965990764160852, ,0.1728270389922703,-0.24698844278344828,0.09804748673000001,1.6087412464132707,0.20222201965285186,-1.2990078043224103, ,0.12292349942807097,0.061661430512326684,0.02960745635687733,0.02056071451761273,0.1551142499166275,-0.10581074379453732, ,1.2641949653625488
0.013432801109112713,0.02240420018669129,-0.08756699194788083, ,0.014312068843125813,0.022037210252283442,-0.0885527761572165, ,0.0013709718696635516, ,0.015133628611951427,0.0009874555948249516,-0.028537404928564974,0.021014657121662807,0.008397860253130968,-0.000531439091642774, ,0.03231695009701736, ,0.02263008935425483, ,0.0006023351711808813, ,0.17401633985490086,-0.24634745595488763,0.09833137424,1.6089509363567556,0.20358838465050627,-1.300040304619234, ,0.12535923587644754,0.07156632093399003,0.03005436135849057,0.01865426565415682,0.13212608133218404,-0.08903375188428522, ,1.2664198875427246
0.013574659218638412,0.022416863478785506,-0.08783574657121195, ,0.014348932031736015,0.02203280753262171,-0.08863114165892437, ,0.0011745853329762385, ,0.015133628611951427,0.0009874555948249516,-0.028537404928564974,0.021014657121662807,0.008397860253130968,-0.000531439091642774, ,0.03231695009701736, ,0.02263008935425483, ,0.0006065428929587882, ,0.17401633985490086,-0.24634745595488763,0.09833137424,1.6089509363567556,0.20358838465050627,-1.300040304619234, ,0.12535923587644754,0.07156632093399003,0.03005436135849057,0.01865426565415682,0.13212608133218404,-0.08903375188428522, ,1.2686760425567627
0.013574659218638412,0.022416863478785506,-0.08783574657121195, ,0.01438587866728784,0.022028190034176637,-0.08870966273828884, ,0.001254142538744931, ,0.015133628611951427,0.0009874555948249516,-0.028537404928564974,0.021014657121662807,0.008397860253130968,-0.000531439091642774, ,0.03231695009701736, ,0.02263008935425483, ,0.0006112698976725558, ,0.17401633985490086,-0.24634745595488763,0.09833137424,1.6089509363567556,0.20358838465050627,-1.300040304619234, ,0.12535923587644754,0.07156632093399003,0.03005436135849057,0.01865426565415682,0.13212608133218404,-0.08903375188428522, ,1.2709259986877441
0.013574659218638412,0.022416863478785506,-0.08783574657121195, ,0.014422908393290447,0.022023360030497468,-0.08878833741946478, ,0.0013348411704347022, ,0.015133628611951427,0.0009874555948249516,-0.028537404928564974,0.021014657121662807,0.008397860253130968,-0.000531439091642774, ,0.03231695009701736, ,0.02263008935425483, ,0.000616513167765035, ,0.17401633985490086,-0.24634745595488763,0.09833137424,1.6089509363567556,0.20358838465050627,-1.300040304619234, ,0.12535923587644754,0.07156632093399003,0.03005436135849057,0.01865426565415682,0.13212608133218404,-0.08903375188428522, ,1.2732410430908203
0.013574659218638412,0.022416863478785506,-0.08783574657121195, ,0.014460020854208186,0.02201831978759799,-0.08886716373286602, ,0.0014165181470347273, ,0.015133628611951427,0.0009874555948249516,-0.028537404928564974,0.021014657121662807,0.008397860253130968,-0.000531439091642774, ,0.03231695009701736, ,0.02263008935425483, ,0.0006222685992705723, ,0.17401633985490086,-0.24634745595488763,0.09833137424,1.6089509363567556,0.20358838465050627,-1.300040304619234, ,0.12535923587644754,0.07156632093399003,0.03005436135849057,0.01865426565415682,0.13212608133218404,-0.08903375188428522, ,1.2756059169769287
0.01372411126935134,0.02242287775627311,-0.08812377866374259, ,0.014497215695459056,0.02201307156396538,-0.08894613971515596, ,0.0012007952647320023, ,0.016090679140505337,0.0005607948984425624,-0.03125159671849549,0.0055201402108431465,0.0013720576509343493,-0.0033307789001162974, ,0.03515518089238471, ,0.005685479769372328, ,0.0006264009325952969, ,0.17524425438190258,-0.24559062813321364,0.09863340981,1.6089509363567556,0.20495474964816068,-1.300991126175917, ,0.12946376747403926,0.0830971467237047,0.03270803186858317,0.01865426565415682,0.1291417601000622,-0.0848624103465724, ,1.279094934463501
0.01372411126935134,0.02242287775627311,-0.08812377866374259, ,0.014534492563413747,0.022007617610570834,-0.08902526340924194, ,0.0012813405389446504, ,0.016090679140505337,0.0005607948984425624,-0.03125159671849549,0.0055201402108431465,0.0013720576509343493,-0.0033307789001162974, ,0.03515518089238471, ,0.005685479769372328, ,0.0006310458943424553, ,0.17524425438190258,-0.24559062813321364,0.09863340981,1.6089509363567556,0.20495474964816068,-1.300991126175917, ,0.12946376747403926,0.0830971467237047,0.03270803186858317,0.01865426565415682,0.1291417601000622,-0.0848624103465724, ,1.2814018726348877
0.01372411126935134,0.02242287775627311,-0.08812377866374259, ,0.014571851105394057,0.02200196017087816,-0.08910453286426662, ,0.0013629795468582692, ,0.016090679140505337,0.0005607948984425624,-0.03125159671849549,0.0055201402108431465,0.0013720576509343493,-0.0033307789001162974, ,0.03515518089238471, ,0.005685479769372328, ,0.000636200356684116, ,0.17524425438190258,-0.24559062813321364,0.09863340981,1.6089509363567556,0.20495474964816068,-1.300991126175917, ,0.12946376747403926,0.0830971467237047,0.03270803186858317,0.01865426565415682,0.1291417601000622,-0.0848624103465724, ,1.2836899757385254
0.013905374064288527,0.02242949818064942,-0.08847950138050444, ,0.014609290969672126,0.02199610148085472,-0.08918394613560211, ,0.0014455573871379182, ,0.01721843784428345,0.00046365076135632756,-0.03364135356647264,-0.0019609144602884157,-0.00831781207025558,-0.004427533654095233, ,0.03779457955329547, ,0.008543306974946851, ,0.0006418601960579189, ,0.17668068269650833,-0.24465617745543247,0.09900544504000001,1.6089509363567556,0.20632111464581507,-1.3021053052128813, ,0.13576100366018712,0.09012055228724672,0.03516293933774835,0.01746227966250203,0.125920698761453,-0.08446006368404574, ,1.2867059707641602
0.013905374064288527,0.02242949818064942,-0.08847950138050444, ,0.014646811805468698,0.02199004376897997,-0.08926350128484122, ,0.0011651205748686169, ,0.01721843784428345,0.00046365076135632756,-0.03364135356647264,-0.0019609144602884157,-0.00831781207025558,-0.004427533654095233, ,0.03779457955329547, ,0.008543306974946851, ,0.0006454939486885487, ,0.17668068269650833,-0.24465617745543247,0.09900544504000001,1.6089509363567556,0.20632111464581507,-1.3021053052128813, ,0.13576100366018712,0.09012055228724672,0.03516293933774835,0.01746227966250203,0.125920698761453,-0.08446006368404574, ,1.2890100479125977
0.013905374064288527,0.02242949818064942,-0.08847950138050444, ,0.01468441326295232,0.021983789256255538,-0.08934319637979132, ,0.0012456032956492421, ,0.01721843784428345,0.00046365076135632756,-0.03364135356647264,-0.0019609144602884157,-0.00831781207025558,-0.004427533654095233, ,0.03779457955329547, ,0.008543306974946851, ,0.0006496326338400018, ,0.17668068269650833,-0.24465617745543247,0.09900544504000001,1.6089509363567556,0.20632111464581507,-1.3021053052128813, ,0.13576100366018712,0.09012055228724672,0.03516293933774835,0.01746227966250203,0.125920698761453,-0.08446006368404574, ,1.2912569046020508
0.013905374064288527,0.02242949818064942,-0.08847950138050444, ,0.014722094993237709,0.021977340156214824,-0.08942302949446632, ,0.0013272999874484577, ,0.01721843784428345,0.00046365076135632756,-0.03364135356647264,-0.0019609144602884157,-0.00831781207025558,-0.004427533654095233, ,0.03779457955329547, ,0.008543306974946851, ,0.000654274191056498, ,0.17668068269650833,-0.24465617745543247,0.09900544504000001,1.6089509363567556,0.20632111464581507,-1.3021053052128813, ,0.13576100366018712,0.09012055228724672,0.03516293933774835,0.01746227966250203,0.125920698761453,-0.08446006368404574, ,1.2935428619384766
0.013905374064288527,0.02242949818064942,-0.08847950138050444, ,0.01475985664838483,0.021970698674933002,-0.0895029987090798, ,0.001410029877190701, ,0.01721843784428345,-0.00044573685491265474,-0.03382909300347381,-0.01756207200043112,-0.0343643268117776,-0.0084924708329541, ,0.03779457955329547, ,0.008543306974946851, ,0.0006594153862002682, ,0.1780939428124914,-0.2436908358461544,0.09936451737000002,1.6089509363567556,0.20755084314370403,-1.3030263876060086, ,0.141426142412028,0.09968166130091469,0.03524073345132744,0.014727185916278284,0.10564344866345034,-0.07860598704209454, ,1.2968878746032715
0.01408478212572414,0.022429536196136593,-0.08882362436638058, ,0.014797697881397487,0.021963867011035802,-0.0895831021100376, ,0.0011410096878423472, ,0.018055867370866535,-0.00044573685491265474,-0.03382909300347381,-0.01756207200043112,-0.0343643268117776,-0.0084924708329541, ,0.03834867091954858, ,0.03859130763881968, ,0.0006626694017519038, ,0.1780939428124914,-0.2436908358461544,0.09936451737000002,1.6089509363567556,0.20755084314370403,-1.3030263876060086, ,0.141426142412028,0.09968166130091469,0.03524073345132744,0.014727185916278284,0.10564344866345034,-0.07860598704209454, ,1.2992169857025146
0.01408478212572414,0.022429536196136593,-0.08882362436638058, ,0.014835618346222079,0.021956847355710324,-0.08966333778993069, ,0.0012216007545697554, ,0.018055867370866535,-0.00044573685491265474,-0.03382909300347381,-0.01756207200043112,-0.0343643268117776,-0.0084924708329541, ,0.03834867091954858, ,0.03859130763881968, ,0.0006664206188849095, ,0.1780939428124914,-0.2436908358461544,0.09936451737000002,1.6089509363567556,0.20755084314370403,-1.3030263876060086, ,0.141426142412028,0.09968166130091469,0.03524073345132744,0.014727185916278284,0.10564344866345034,-0.07860598704209454, ,1.30149507522583
0.01408478212572414,0.022429536196136593,-0.08882362436638058, ,0.014873617697746491,0.02194964189271381,-0.08974370384752726, ,0.0013034977383074413, ,0.018055867370866535,-0.00044573685491265474,-0.03382909300347381,-0.01756207200043112,-0.0343643268117776,-0.0084924708329541, ,0.03834867091954858, ,0.03859130763881968, ,0.0006706677996810598, ,0.1780939428124914,-0.2436908358461544,0.09936451737000002,1.6089509363567556,0.20755084314370403,-1.3030263876060086, ,0.141426142412028,0.09968166130091469,0.03524073345132744,0.014727185916278284,0.10564344866345034,-0.07860598704209454, ,1.3037290573120117
0.01408478212572414,0.022429536196136593,-0.08882362436638058, ,0.014911695591798665,0.02194225279838348,-0.08982419838776645, ,0.0013864989586629675, ,0.018055867370866535,-0.00044573685491265474,-0.03382909300347381,-0.01756207200043112,-0.0343643268117776,-0.0084924708329541, ,0.03834867091954858, ,0.03859130763881968, ,0.0006754084033829267, ,0.1780939428124914,-0.2436908358461544,0.09936451737000002,1.6089509363567556,0.20755084314370403,-1.3030263876060086, ,0.141426142412028,0.09968166130091469,0.03524073345132744,0.014727185916278284,0.10564344866345034,-0.07860598704209454, ,1.3061270713806152
0.01426644216494375,0.022418828403100628,-0.08915677750823095, ,0.01494985168514553,0.02193468224164642,-0.08990481952175014, ,0.0011229483211364255, ,0.017955357143717543,-0.0016194820489269864,-0.03277623169294971,-0.014428618003932752,-0.03320233444450917,-0.008408185160074398, ,0.03740720433626611, ,0.036201411625242784, ,0.0006783527449470945, ,0.17951492566134872,-0.2426482669081341,0.09971062680000001,1.6089509363567556,0.20850729864206213,-1.3036429554516022, ,0.141426142412028,0.10845364749539518,0.033963350788912584,0.01275962842886569,0.10714723428732059,-0.09069732518366358, ,1.3100738525390625
0.01426644216494375,0.022418828403100628,-0.08915677750823095, ,0.014988085635491675,0.02192693238402894,-0.08998556536673599, ,0.0012040017884406987, ,0.017955357143717543,-0.0016194820489269864,-0.03277623169294971,-0.014428618003932752,-0.03320233444450917,-0.008408185160074398, ,0.03740720433626611, ,0.036201411625242784, ,0.0006817883596104513, ,0.17951492566134872,-0.2426482669081341,0.09971062680000001,1.6089509363567556,0.20850729864206213,-1.3036429554516022, ,0.141426142412028,0.10845364749539518,0.033963350788912584,0.01275962842886569,0.10714723428732059,-0.09069732518366358, ,1.3124408721923828
0.01426644216494375,0.022418828403100628,-0.08915677750823095, ,0.015026397101478125,0.021919005379666685,-0.09006643404613061, ,0.0012864017946431882, ,0.017955357143717543,-0.0016194820489269864,-0.03277623169294971,-0.014428618003932752,-0.03320233444450917,-0.008408185160074398, ,0.03740720433626611, ,0.036201411625242784, ,0.0006857144208768977, ,0.17951492566134872,-0.2426482669081341,0.09971062680000001,1.6089509363567556,0.20850729864206213,-1.3036429554516022, ,0.141426142412028,0.10845364749539518,0.033963350788912584,0.01275962842886569,0.10714723428732059,-0.09069732518366358, ,1.314749002456665
0.01426644216494375,0.022418828403100628,-0.08915677750823095, ,0.015064785742681115,0.02191090337531353,-0.09014742368948152, ,0.0013699343628047855, ,0.01753393901338951,-0.0028263807140028667,-0.031157353678736014,-0.009466186339412153,-0.01650774294704195,-0.004970071988151805, ,0.03586374399763074, ,0.019028528525771794, ,0.0006901287430828841, ,0.18094363124308027,-0.24150530244274887,0.10004247704000001,1.6089509363567556,0.2097370271399511,-1.3046457165848702, ,0.14058806156810486,0.11601093100057551,0.03211453935483872,0.01123543805252842,0.12366627489899272,-0.10342766845620577, ,1.3170158863067627
0.014445210037434868,0.022394854635119504,-0.08947806166747568, ,0.015103251219610814,0.021902628510352316,-0.09022853243247057, ,0.0011128841469150576, ,0.01753393901338951,-0.0028263807140028667,-0.031157353678736014,-0.009466186339412153,-0.01650774294704195,-0.004970071988151805, ,0.03586374399763074, ,0.019028528525771794, ,0.0006928387136202698, ,0.18094363124308027,-0.24150530244274887,0.10004247704000001,1.6089509363567556,0.2097370271399511,-1.3046457165848702, ,0.14058806156810486,0.11601093100057551,0.03211453935483872,0.01123543805252842,0.12366627489899272,-0.10342766845620577, ,1.3194360733032227
0.014445210037434868,0.022394854635119504,-0.08947806166747568, ,0.015141793193710106,0.0218941829168032,-0.09030975841690549, ,0.001194830425684027, ,0.01753393901338951,-0.0028263807140028667,-0.031157353678736014,-0.009466186339412153,-0.01650774294704195,-0.004970071988151805, ,0.03586374399763074, ,0.019028528525771794, ,0.0006960361130601663, ,0.18094363124308027,-0.24150530244274887,0.10004247704000001,1.6089509363567556,0.2097370271399511,-1.3046457165848702, ,0.14058806156810486,0.11601093100057551,0.03211453935483872,0.01123543805252842,0.12366627489899272,-0.10342766845620577, ,1.3217029571533203
0.014445210037434868,0.022394854635119504,-0.08947806166747568, ,0.015180411327353387,0.021885568719334447,-0.09039109979071439, ,0.0012780969036822404, ,0.01753393901338951,-0.0028263807140028667,-0.031157353678736014,-0.009466186339412153,-0.01650774294704195,-0.004970071988151805, ,0.03586374399763074, ,0.019028528525771794, ,0.0006997200421147364, ,0.18094363124308027,-0.24150530244274887,0.10004247704000001,1.6089509363567556,0.2097370271399511,-1.3046457165848702, ,0.14058806156810486,0.11601093100057551,0.03211453935483872,0.01123543805252842,0.12366627489899272,-0.10342766845620577, ,1.3240020275115967
0.01461987911083744,0.022360880400835108,-0.08978325825709076, ,0.015219105283845149,0.021876788035271252,-0.09047255470793679, ,0.0013624695452817772, ,0.017368169152171486,-0.0037004543544853137,-0.030432860544599732,-0.008464823084490846,-0.006656455938078599,-0.004970071988151805, ,0.03586374399763074, ,0.01076733630465109, ,0.0007038882779837116, ,0.18094363124308027,-0.24150530244274887,0.10004247704000001,1.6089509363567556,0.2097370271399511,-1.3046457165848702, ,0.14058806156810486,0.11601093100057551,0.03211453935483872,0.01123543805252842,0.12366627489899272,-0.10342766845620577, ,1.3269000053405762
0.01461987911083744,0.022360880400835108,-0.08978325825709076, ,0.015257874727419077,0.021867842974606096,-0.09055412132871762, ,0.0011155062463464385, ,0.017368169152171486,-0.0037004543544853137,-0.030432860544599732,-0.008464823084490846,-0.006656455938078599,-0.0031402417749528664, ,0.03523500621619252, ,0.01076733630465109, ,0.0007064608902859787, ,0.18234916862618913,-0.24030827884724407,0.10035617922000001,1.6089509363567556,0.21096675563784006,-1.305648477718138, ,0.14017273494604252,0.12244766652705909,0.031232963764705888,0.010042659101431418,0.13354730667043882,-0.1109994041734515, ,1.3298778533935547
0.01461987911083744,0.022360880400835108,-0.08978325825709076, ,0.015296719323236457,0.021858735640007794,-0.09063579781929866, ,0.0011987851096323776, ,0.017368169152171486,-0.0037004543544853137,-0.030432860544599732,-0.008464823084490846,-0.006656455938078599,-0.0031402417749528664, ,0.03523500621619252, ,0.01076733630465109, ,0.000709518804691857, ,0.18234916862618913,-0.24030827884724407,0.10035617922000001,1.6089509363567556,0.21096675563784006,-1.305648477718138, ,0.14017273494604252,0.12244766652705909,0.031232963764705888,0.010042659101431418,0.13354730667043882,-0.1109994041734515, ,1.3321809768676758
