NicholasDascanio/dvrk_moveit_final/test/execution/third_experiment_notsharpbends/thirdexp_500vel4.0/thirdexp_500vel4.0_18.csv
Current Position (x),Current Position (y),Current Position (z), ,Planned Position (x),Planned Position (y),Planned Position (z), ,Position Error,,Cartesian linear Velocity(x),Cartesian linear Velocity(y),Cartesian linear Velocity(z),Cartesian Angular Velocity(x),Cartesian Angular Velocity(y),Cartesian Angular Velocity(z), ,Total Linear Velocity, ,Total Angular Velocity, ,MSE, ,Joint 1 Position,Joint 2 Position,Joint 3 Position,Joint 4 Position,Joint 5 Position,Joint 6 Position, ,Joint 1 Velocity,Joint 2 Velocity,Joint 3 Velocity,Joint 4 Velocity,Joint 5 Velocity,Joint 6 Velocity, ,Time Stamp
0.008176265687956447,0.019882325274081732,-0.07397847129560765, ,0.008370326002951763,0.01983426964076388,-0.07424424293523058, ,0.000332570765668778, ,0.00017549820759507032,0.00018981124408125942,-0.0008250754353733076,0.1310615959260552,0.0035954502481885093,-0.05045777914204675, ,0.0008646255856179662, ,0.13111090415816445, ,2.7714230472398167e-05, ,0.17173813365700466,-0.2544717709385718,0.08465940361,1.6882137349939055,0.532335803086156,-1.1644554471381654, ,0.0004358281870804774,0.00031283568705065494,0.0008614623890984315,-0.0008586402442404692,0.0,-0.1411991843651288, ,0.024710893630981445
0.008192410324016132,0.019892984965795526,-0.07404582717582095, ,0.008450961027703492,0.01984818949678836,-0.07451235359816026, ,0.0005352588188545037, ,0.0015695136864386009,0.0016103973736437446,-0.007689175580608117,0.3175783409961056,0.0070093565262549125,-0.1253875740271586, ,0.00801125296207634, ,0.3176556842272349, ,3.94467992965128e-05, ,0.17178447005425,-0.25439454360982955,0.08472810698000001,1.6880040450504212,0.5321991665863905,-1.1689180386823403, ,0.003129358772636974,0.0052749733928089204,0.007980366492985972,-0.001292847048969822,0.0,-0.3467519822646885, ,0.0472109317779541
0.008295213287851714,0.019968125350974326,-0.07441219779199532, ,0.0085314571134997,0.019862028422619714,-0.07477932454786292, ,0.0004492769282268434, ,0.003390434478400566,0.0023963553901314165,-0.01299599113158226,0.25406847514578756,-0.05504192139194748,-0.12020951063531012, ,0.013643069691249985, ,0.2599623103503701, ,4.115957852344141e-05, ,0.17193120197886025,-0.2541474161578544,0.08509625334000001,1.6880040450504212,0.5286466175924891,-1.175985979483382, ,0.00908018293516052,0.01264112715578404,0.013251923061564062,-0.0012818903092392175,-0.05626190458816452,-0.2903282842364068, ,0.07196497917175293
0.008368297296543396,0.020009431848722233,-0.07467140960810287, ,0.008611814206829221,0.019875786572243117,-0.07504515837907275, ,0.0004656712244940935, ,0.004347030371127399,0.0017057388841694439,-0.012261855380644556,-0.04371811967813131,-0.17763972670649442,-0.04286753089080149, ,0.013120949491721759, ,0.1829402804615683, ,4.2447088982005204e-05, ,0.17211654756784164,-0.2538307841100112,0.08535680763,1.6877943551069365,0.5268703430955384,-1.181153524686714, ,0.011139446127300244,0.0179593000678408,0.011994586987951809,-0.0009639700324194632,-0.1725175307374287,0.014347064632509787, ,0.09489893913269043
0.008452068761676217,0.020034739886930962,-0.0749716945137866, ,0.008692032255168762,0.01988946409989685,-0.07530985768341862, ,0.00043936529426332816, ,0.0015632982883821984,-0.00021210743334067238,-0.006551945467143226,-0.1835517936509266,0.03608173216705994,0.07551592255322087, ,0.006739204738406138, ,0.1870645672931509, ,4.273351983668359e-05, ,0.17250268421155288,-0.2531666290828279,0.08566013949000001,1.687584665163452,0.5265970700960074,-1.1770917880927148, ,0.011261597237836238,0.024552895616680667,0.006645311439299125,-0.003019351923499511,0.055167877829823006,0.17439355596272574, ,0.12401795387268066
0.008516640310119136,0.02002853440541358,-0.07523001120407816, ,0.008772111206981058,0.019903061160071654,-0.07557342504942743, ,0.0004460291286649867, ,0.003025808403225154,0.00030379787115480527,-0.010317355032891964,0.026233267788895617,-0.0023138141938895576,-0.013274639153673825, ,0.01075619005569757, ,0.0263351088492223, ,4.3035034841492474e-05, ,0.17295832545113213,-0.25224762387079513,0.08592199007000001,1.687165285276483,0.5285099810927236,-1.1770180639416534, ,0.017731117630506495,0.029738934991686238,0.010404187798824299,-0.009312793451335727,0.01665562231870996,-0.05988240468159366, ,0.1540229320526123
0.008579260179296971,0.02003473702729354,-0.0754415884564916, ,0.008852051011712735,0.0199165779075094,-0.07583586306252628, ,0.0004937903206848537, ,0.003203161101860041,0.00017356278795494732,-0.010918759809561123,0.013079814183177248,-0.01773337925500964,-0.01487204786898626, ,0.01138023202156789, ,0.022035292684179166, ,4.3916145567463713e-05, ,0.17330584843047223,-0.2516298052408572,0.08613458163000001,1.687165285276483,0.5286466175924891,-1.178436341687599, ,0.01685259129079573,0.03298468597791824,0.010902677289527722,-0.009312793451335727,0.0,-0.050491291961675636, ,0.175886869430542
0.008649178935660556,0.020044673954996123,-0.07567477535490652, ,0.00893185161979257,0.019930014497202008,-0.07609717430504553, ,0.000521029280074142, ,0.003711766281277378,0.0007130660325787718,-0.01191544811052384,-0.0025468929074344434,-0.02213587221126154,-0.008381866776535862, ,0.012500543018934478, ,0.022281904358625024, ,4.4914533669896696e-05, ,0.17368426234130924,-0.25100426387804503,0.08636921012000001,1.6869555953329984,0.5286466175924891,-1.1791714503488637, ,0.021055456303188547,0.029562910142825787,0.012058146495079488,-0.007755380598841149,0.0,-0.029854976806646113, ,0.1995830535888672
0.008723821135530158,0.02006201035881737,-0.07592080839331175, ,0.009011512982629592,0.019943371084391034,-0.07635736135622138, ,0.0005361160002733283, ,0.0035089710045854874,0.0008137225985848493,-0.011976093117471848,-0.029584336680305533,-0.021108123819207236,0.006366206871333095, ,0.01250607165887138, ,0.0363426144026192, ,4.585986696961802e-05, ,0.17407812171789466,-0.2504327816453524,0.0866180978,1.6867459053895137,0.5285099810927236,-1.179141711185308, ,0.018193432047252833,0.028034546989208504,0.012122383196347033,-0.011761002082205374,0.0,0.0, ,0.22206401824951172
0.008816040866040034,0.020073604586559622,-0.07623201103333023, ,0.009091035052611178,0.019956647824566503,-0.07661642679219789, ,0.0004869046749515158, ,0.003026397042627801,0.00046857587922439895,-0.009568644844701877,-0.009623652713974438,0.008247150267119807,-0.014498411548523053, ,0.010046770952811507, ,0.012673993012199111, ,4.613737682506248e-05, ,0.17461871301909038,-0.24959100376206192,0.08693309627000001,1.686326525502545,0.5290565270917854,-1.180077455240937, ,0.019708606761883858,0.02603482621631572,0.00977227700613497,0.012583617198469971,0.025434124978014255,-0.012952015607566949, ,0.24789690971374512
0.008885381005631559,0.020086761775772184,-0.07644614012337, ,0.009170417783101204,0.019969844873465675,-0.07687437318602978, ,0.0005275405979734687, ,0.0035577016041071666,0.0006015978530744255,-0.010863378540400271,-0.015473016804134387,-0.019882745762314,0.006631088236021535, ,0.011446927709770845, ,0.025194000809217344, ,4.714912643360217e-05, ,0.17503574059429852,-0.2490504124608662,0.08715087299,1.6865362154460295,0.5291931635915509,-1.1801888731446335, ,0.021631397665482284,0.02664895859547059,0.011031032908587259,-0.015541164650819944,0.0053931087438374,-0.01393022882556843, ,0.27125096321105957
0.008951213408664208,0.020101715306825262,-0.07667051319936315, ,0.009249661128438225,0.019982962387072607,-0.0771312031076849, ,0.0005616124010539604, ,0.0031373735353279605,0.0007613950051683686,-0.010745050219828788,0.008962147547973264,0.01768677900206683,0.01259809806995519, ,0.011219578391397526, ,0.01982781119808418, ,4.829304529319835e-05, ,0.17542959997088398,-0.24854843482404163,0.08738031632000001,1.6859071456155759,0.5297397095906126,-1.1807979022397004, ,0.020259808189255078,0.024220760989910866,0.011069361723419043,-0.01902051759379262,0.04323422232602995,-0.03532123909859186, ,0.291409969329834
0.009024451715645093,0.020121675526836507,-0.07691192907820209, ,0.00932876504393371,0.019996000521617006,-0.0773869191240459, ,0.0005779414783191473, ,0.003810093980229045,0.001276675837425006,-0.01302915191471002,-0.013985360307415347,-0.009767739021360217,0.01310173084551309, ,0.013634717340254409, ,0.017058682629173913, ,4.940392956203837e-05, ,0.17583118208034362,-0.24802328898859435,0.08762661142000001,1.6859071456155759,0.529876346090378,-1.1809093201433967, ,0.020774286680926176,0.024783740286881895,0.013363096912751681,-0.018945566075137615,0.015869822623158076,-0.013396729388842328, ,0.3116469383239746
0.009097589516423303,0.020149808226737776,-0.0771622807142933, ,0.009407729485870195,0.020008959433573382,-0.07764152379891384, ,0.0005879618332349409, ,0.0035530641769692954,0.0011131206267057565,-0.01254344876006039,0.037401020832350154,0.025186399691023688,-0.0015626643886193494, ,0.013084395644106794, ,0.0450909168035127, ,5.0442527150274566e-05, ,0.1762636551213002,-0.2475676477490151,0.08788586942000001,1.6859071456155759,0.5305595285892053,-1.1821198395830035, ,0.02191615278486623,0.025668634449140054,0.012971344885993488,-0.013922425787295776,0.05053911438197192,-0.06583820792301091, ,0.33257293701171875
0.009196721209873578,0.020174705551924504,-0.07748060451071595, ,0.0094865544114995,0.02002183927965996,-0.07789501969300933, ,0.0005283098761863552, ,0.0035158180216559145,0.0009230525231094087,-0.011755088144429783,-0.014382583800853244,-0.002128999427411548,0.006583895405214105, ,0.012304271599941737, ,0.01453929609353215, ,5.094815389744385e-05, ,0.17680424642249593,-0.2469034927218318,0.08820994192,1.6852780757851225,0.5305595285892053,-1.1826099120238467, ,0.02004582626921647,0.025278886936193606,0.012039918004535148,-0.01020306828919606,0.0208502620561836,-0.011549798548649601, ,0.3529338836669922
0.009270007772785588,0.020192776243557854,-0.07771864191740673, ,0.00956523977904105,0.020034640216838442,-0.07814740936397511, ,0.0005440684365969091, ,0.0038612529305734364,0.0007613352422328198,-0.012330647444736659,0.009937063407849424,0.014236193806916037,-0.0009763431000692356, ,0.012943483764092198, ,0.01736128331155876, ,5.149645550975099e-05, ,0.17725988766207518,-0.2463706241535103,0.08845494073000001,1.6852780757851225,0.5312427110880324,-1.1832486802824695, ,0.025018966928149425,0.029253064598788774,0.012682174777070065,-0.007969162433635732,0.041602464965295995,-0.039823089474067264, ,0.37291908264160156
0.009388188252595226,0.020211811600007616,-0.07808541450863686, ,0.009643785547680028,0.020047362402312294,-0.07839869536637842, ,0.0004364841482855803, ,0.0034715915034791156,0.00044839022289202017,-0.010759248757392882,0.0022405500721034443,-0.008577409473976092,0.0005055804698209016, ,0.011314346431962998, ,0.008865205791649164, ,5.133291641094991e-05, ,0.1779626563536296,-0.2454902326058487,0.08882827225,1.6846490059546686,0.5316526205873288,-1.1839913276942615, ,0.020861055519558316,0.02733206842121854,0.010940117802197802,-0.013626473842622635,0.015228384906351033,-0.03257467758513158, ,0.400130033493042
0.00946064061640898,0.020214466343176814,-0.07829821830589204, ,0.009722191677565634,0.020060005993526416,-0.07864888025171282, ,0.00046392969020436005, ,0.003747263736581173,0.00015576318463119126,-0.010623478765258355,-0.026793854077152145,-0.012884212309271,-0.016123328672396665, ,0.011266079564652379, ,0.02973068125399896, ,5.1344028149489055e-05, ,0.17841829759320885,-0.24487241397591075,0.08904345639000001,1.6844393160111841,0.5319258935868597,-1.1844591997220761, ,0.02359446582756608,0.03176998378254797,0.010740938314227916,0.012405645097671902,0.007935149445017619,-0.001915426850253833, ,0.41991496086120605
0.009533427358730376,0.020218060999394737,-0.07851218515560711, ,0.009800458129809498,0.020072571148166324,-0.0788979665684005, ,0.0004912229921028086, ,0.003561604793406934,0.00021057561663962332,-0.010820589228395277,0.012598978256232976,0.004309993944791691,0.002044545054074359, ,0.011393617601289166, ,0.01331578584111518, ,5.1503190656360137e-05, ,0.17889710703141076,-0.24423914988022435,0.08926123311,1.6846490059546686,0.5324724395859214,-1.1851499075572833, ,0.023202186200115105,0.030068739403824703,0.011023398975778548,-0.016414361688651676,0.031333368383313555,-0.045878224315915136, ,0.4412848949432373
0.00961200601954744,0.02022621865539625,-0.07875483718173464, ,0.009878584866483783,0.02008505802415655,-0.07914595686179474, ,0.000493928344576636, ,0.0038297938892794285,0.0006214604785618103,-0.012894383802136701,0.0059278230755494,-0.006057766123338557,-0.010275251527890345, ,0.01346546204174152, ,0.00847556843913833, ,5.16615220556799e-05, ,0.17932958007236735,-0.24360588578453793,0.08950623192000001,1.6844393160111841,0.5324724395859214,-1.1854766225178457, ,0.02003736097096089,0.03163231385282359,0.013088587937551356,-0.005923850343359714,0.014843574904818165,-0.039660091481130394, ,0.46111106872558594
0.009688674888881768,0.020241073562814432,-0.0790204805646258, ,0.00995657185061961,0.020097466779661,-0.07939285367418147, ,0.0004806801670510337, ,0.003881407130248198,0.0007022155048153651,-0.012458552585088656,-0.0017847666150401504,-0.011212654548850511,0.002245012219013733, ,0.013068051134020094, ,0.011353797327427336, ,5.173976319274415e-05, ,0.17973888491470125,-0.2429957898874742,0.08977715653000001,1.684019936124215,0.5330189855849832,-1.1862490090931936, ,0.021455333836416634,0.028687104461448235,0.012692280095617531,-0.015308080977199804,0.013570530146869743,-0.030147586976565312, ,0.4837319850921631
0.00976542410968374,0.02025037646373036,-0.07925502671236603, ,0.010034419046205396,0.020109797573081227,-0.07963865954478118, ,0.0004891777289261014, ,0.0034857653815336545,0.00020184137521832334,-0.010723623876443879,0.0003388389157605263,-0.005710997663260182,0.0015377094224203157, ,0.011277739546526411, ,0.005721028256377335, ,5.209985708453434e-05, ,0.18018680342140625,-0.24239341672328468,0.09001567389000001,1.684019936124215,0.5332922585845141,-1.1866352023808675, ,0.020787939005141462,0.029343519343992198,0.010872908887372013,-0.014360269239163198,0.018272855438625762,-0.032593624039623695, ,0.5021579265594482
0.009794628283508466,0.020252419197633056,-0.07934372813058381, ,0.010112126418185012,0.020122050563055657,-0.07988337700975158, ,0.0006395482461798264, ,0.003614606256032356,0.0004562786001169676,-0.011398972829812684,-0.0012855893227830327,-0.00839761191195829,-0.002780424527760248, ,0.01196704433525174, ,0.008495436026242921, ,5.3126351967039185e-05, ,0.18034898081176498,-0.24216173473705796,0.0901051179,1.6838102461807307,0.5332922585845141,-1.1867168811210083, ,0.020359781497204632,0.0285061404501264,0.01158459019636364,-0.009653246166499886,0.013958090750267953,-0.029414668429420816, ,0.5223910808563232
0.009879547456070873,0.0202711512258734,-0.07963621730851256, ,0.010189693932456247,0.020134225908458873,-0.080127008602189, ,0.0005965027018479757, ,0.0036916103448146067,0.0010452747355537836,-0.01316081230762894,0.04363131567674737,0.024274602064659093,-0.006601486071039187, ,0.013708667579577772, ,0.04992942637612114, ,5.388853812753546e-05, ,0.18080462205134423,-0.2415130251756231,0.09040456089000001,1.6836005562372458,0.5339754410833412,-1.1877640430803336, ,0.02048282787793455,0.02662652681214107,0.013579549462915603,-0.012868974833687022,0.04746914705928357,-0.07367534989009453, ,0.5413610935211182
0.009954554423861575,0.020291845200016666,-0.07988736685130576, ,0.010267121555869162,0.020146323768401225,-0.08036955685213074, ,0.000592774743023387, ,0.003938947760657252,0.0010435586287579827,-0.013025698409099173,-0.008540386661654745,-0.0011122394167203844,0.0012740205478405351, ,0.013648191935844498, ,0.008612485464328959, ,5.458238550093934e-05, ,0.181175313229307,-0.24101877027167273,0.09066122631000001,1.6833908662937616,0.5341120775831066,-1.1881204972044517, ,0.021187082285883185,0.026265414214910264,0.013374316977329978,-0.007213946243500471,0.02206638490753698,-0.018257421305247337, ,0.5600159168243408
0.010045900284251135,0.02030809730196054,-0.08017267528625195, ,0.010344409256224369,0.020158344302227408,-0.08061102428655675, ,0.0005510747801758017, ,0.0042917812208421,0.001143294155970297,-0.01347223027598649,-0.021984322805061098,-0.010243734275880463,-0.002620056994187786, ,0.014185467781636804, ,0.024253743985239995, ,5.5057139426948826e-05, ,0.18169273633188004,-0.24037006071023787,0.09095289156000001,1.683181176350277,0.5345219870824031,-1.1889448233563844, ,0.023460306936581153,0.02662652681214107,0.013839106446568205,0.0,0.013593859110766082,-0.003515587100775562, ,0.5773918628692627
0.010084955141391978,0.020320640263210326,-0.0803122566104103, ,0.01042155700227141,0.020170287669515705,-0.08085141342939167, ,0.000653143774855356, ,0.004049163753006196,0.001395819990395745,-0.014450033282196685,0.01815008298284689,0.02043917095379843,0.010295363176469688, ,0.015071413417488072, ,0.02733467745479131, ,5.5911302717871576e-05, ,0.18192441831810677,-0.24012293325826267,0.09109807604,1.682761796463308,0.5352051695812303,-1.1896652703551478, ,0.021606771757393162,0.02546201812676973,0.01495663053521127,-0.020450222455500877,0.04724826941577071,-0.046674164726111286, ,0.5969228744506836
0.01018471101543995,0.020351621444986943,-0.08063750191346894, ,0.010498564763707162,0.020182154030077535,-0.08109072680150703, ,0.000576746199948118, ,0.004689821191902087,0.0017758029870617534,-0.016033585091064024,-0.01849182915066375,0.0003144990400215106,-0.03173585190317294, ,0.016799516360099832, ,0.018494474725064543, ,5.6415021699214556e-05, ,0.18241095048918293,-0.23955145102557007,0.09143122257000001,1.6823424165763388,0.5352051695812303,-1.1896652703551476, ,0.022302453950286905,0.028092641077107988,0.01652366340248963,0.030993924702103843,0.015728522645050147,-0.0028073366542733878, ,0.614948034286499
0.010269265389015627,0.02037694033972805,-0.08092001475785796, ,0.010575432511174166,0.020193943543956257,-0.08132896692072257, ,0.0005426490628990638, ,0.003804668335729491,0.0006451203046036195,-0.012333151431840035,0.022242339266393,0.027226489549195623,0.005373962777324857, ,0.012922782424579173, ,0.03515683580569719, ,5.675965901734794e-05, ,0.18286659172876216,-0.23900313699150014,0.09172288782000002,1.6825521065198237,0.5358883520800574,-1.1903857173539107, ,0.023771778947512718,0.028076018212565317,0.012743049216000004,-0.015883113323269332,0.05521038597809268,-0.052393145412446676, ,0.6361539363861084
0.010360301888566048,0.020381253317020023,-0.08116030395772404, ,0.01065216021625904,0.02020565637142662,-0.08156613630180815, ,0.00052982587918134, ,0.0036409588568235775,-4.33162859794007e-05,-0.008783405150643816,-0.022602430287571428,-0.009209955024595422,0.00896799121953561, ,0.009508241884705575, ,0.024406824336281944, ,5.703712644241225e-05, ,0.18345351942720323,-0.23834670469719105,0.09196788663000001,1.6825521065198237,0.5361616250795883,-1.190935268121866, ,0.02617846663681953,0.025878631458541256,0.008989171286681715,-0.010398271809907442,0.020012335029120015,-0.003581446456141213, ,0.6545119285583496
0.010436475036293233,0.020377962201241072,-0.08136473128799154, ,0.010728747851490793,0.020217292672993686,-0.08180223745648625, ,0.0005501361134134577, ,0.003906389722598986,0.00034527004284163536,-0.011344232226984165,-0.018471479601731376,-0.016199711510178752,0.01251216880482037, ,0.012002945342167353, ,0.02456880183916919, ,5.737107342417083e-05, ,0.18395549706402783,-0.23774433153300153,0.09217529303000001,1.6819230366893698,0.5365715345788846,-1.1912695218329552, ,0.02275706032577237,0.027861697462851078,0.011550987324147935,-0.020118310091067237,0.011333398435802949,-0.012566396792399154, ,0.6720468997955322
0.010516705416583892,0.020395033677601128,-0.08163652280110832, ,0.010805195390339422,0.020228852609392535,-0.0820372728934333, ,0.0005210021582363067, ,0.004421024169753206,0.0009885453541020083,-0.014047018935574425,-0.005326732867541931,-0.0018445245433877863,0.007467277041408172, ,0.014759451805641196, ,0.005637003363228229, ,5.758572245822944e-05, ,0.1841408426530092,-0.23750492681390056,0.09227899623000001,1.6819230366893698,0.5371180805779463,-1.1917151934477408, ,0.02190603452411606,0.02857480926180993,0.012971344885993488,-0.018710462724029705,0.08024762314113552,-0.06924758835337533, ,0.6914548873901367
0.010560924400931189,0.02040476142384258,-0.08176956006846083, ,0.010881502807214066,0.020240336341586798,-0.08227124511828139, ,0.0006176520148620531, ,0.004281117152643893,0.0006684365035933568,-0.012864450742608342,-0.014151414206221735,-0.011590057777381943,0.006263791870445087, ,0.013574566819718196, ,0.018291845477800668, ,5.831056015300798e-05, ,0.18465826575558225,-0.2368793854510884,0.09259269841000001,1.6819230366893698,0.5378012630767736,-1.192272282966223, ,0.024006309526554716,0.02859202818875287,0.013164307041322315,-0.014047376415411499,0.015792794780923446,-0.01649590794163155, ,0.7067179679870605
0.010610106191391196,0.020413962871723826,-0.08191551514219728, ,0.010957670077461566,0.020251744030768366,-0.08250415663362015, ,0.0007025769799002935, ,0.004928335413835786,0.0011538072667561159,-0.014957799139564035,-0.018045331741382946,-0.015773108272123557,-0.006482409205666777, ,0.015790994783724987, ,0.02396714821308224, ,5.928218740987015e-05, ,0.1849208386733059,-0.23657819886899362,0.09274177176000001,1.6817133467458854,0.5378012630767736,-1.1923539617063634, ,0.02640426865845041,0.029618271397774898,0.015360473982642238,-0.00024038898387678957,0.01074327934734896,-0.011129256694530156, ,0.723581075668335
0.010716020896373784,0.020442056741985338,-0.08226921836139235, ,0.01103369717736488,0.02026307583835658,-0.08273600993899922, ,0.0005923231890554462, ,0.004218654656260365,0.0013556301927295433,-0.014267681213006037,0.025674236535688642,0.030739911159513373,0.0037843852001140424, ,0.01493992997052505, ,0.04005131668922931, ,5.985427733627774e-05, ,0.1855232118374954,-0.23590632110893608,0.09310862183000002,1.6812939668589162,0.539167628074428,-1.1937131769637495, ,0.02380159055893423,0.02468060898789877,0.014858965970149254,-0.01287705439024962,0.05805242299841587,-0.05183548340578034, ,0.7416479587554932
0.010808028059690798,0.020463592649354483,-0.08256104555761529, ,0.01110958408414141,0.020274331925996977,-0.08296680753092887, ,0.0005398133346589358, ,0.004284766064609273,0.0008113505066606296,-0.013492356304062182,-0.01995743777962741,-0.008519061271668368,0.005047325127261896, ,0.01417960466687461, ,0.021699614755630755, ,6.023545523313892e-05, ,0.18596340761132618,-0.23532711614336926,0.09340676853,1.6812939668589162,0.539167628074428,-1.1938765344440305, ,0.022229314021660992,0.02839525480504811,0.013815101058109283,-0.009979585723775879,0.016327030165026686,-0.009279736620641415, ,0.7576968669891357
0.010886694282885438,0.0204696029802284,-0.08279207692769057, ,0.011185330775941593,0.02028551245556113,-0.08319655190288258, ,0.0005354186042842816, ,0.0038635852018838526,0.0001288149793252783,-0.01066848276786244,-0.016226340431971166,-0.02006951442918623,0.00786119684220098, ,0.011347264361038403, ,0.025808514002860827, ,6.05865984974979e-05, ,0.186403603385157,-0.23477880210929933,0.09363491557,1.680874586971947,0.5395775375737243,-1.1942924668952604, ,0.022271049415271246,0.027450662874883073,0.010828559836845685,-0.01742665909042427,0.006298537967479277,-0.014709408277348974, ,0.7754850387573242
0.010924001709635502,0.020471274990889916,-0.08289919783013752, ,0.01126093723184719,0.020296617589145593,-0.08342524554529877, ,0.000648657808662251, ,0.0039899508083281795,0.0002874942152485541,-0.01212253193239931,0.016403071780181848,0.01973414025664487,0.005528166345929955, ,0.01276550589787655, ,0.025661192367006508, ,6.126500218082046e-05, ,0.1866584535700064,-0.23447761552720456,0.09375287796000001,1.680874586971947,0.5399874470730207,-1.1946267206063497, ,0.024642155689034217,0.030183505584755334,0.012473619044635868,-0.01733049332815051,0.0486514000351074,-0.04924532741476496, ,0.7907578945159912
0.011010193469917794,0.02048935002061746,-0.08317052533993914, ,0.011336403431869731,0.020307647489070737,-0.08365289094558194, ,0.0006100043661764361, ,0.004747951706612478,0.0012304758777571618,-0.01583283243608522,-0.007623128405164747,-0.005642210155051586,0.00396563690313755, ,0.016575153068470256, ,0.009483966848536213, ,6.180094700600002e-05, ,0.1871063720767114,-0.2339215787602604,0.09403158031000002,1.680874586971947,0.5403973565723169,-1.1952060105378606, ,0.02246613199774403,0.029489416270500553,0.01625388930612245,-0.013668987724675518,0.01998888089016871,-0.0241003652859555, ,0.8089380264282227
0.01106300190420119,0.02050351709184696,-0.08334699478825802, ,0.011411729356949006,0.020318602317880435,-0.08387949058810484, ,0.0006628394125167698, ,0.005084978476752501,0.0016831475381275539,-0.01671706486077808,-0.01147206245126457,-0.014404822250338012,-0.0003214546186079382, ,0.01755420887717821, ,0.01841482596658523, ,6.246828840737616e-05, ,0.18736122226156082,-0.2336126694452914,0.09421306091000001,1.6804552070849783,0.5406706295718479,-1.195510525085394, ,0.023477719336583564,0.0269517016638656,0.01722033677837838,-0.008384917937613305,0.010901963361647995,-0.016929324060888602, ,0.8246510028839111
0.011162394754331445,0.020532250798173942,-0.0836731217889235, ,0.011486914988951649,0.020329482238341752,-0.08410504695421059, ,0.0005770509682364737, ,0.00483907848244473,0.0011548421825839429,-0.01571755271723574,0.01523598251753064,0.01579675299234084,0.006952028047372164, ,0.01648610943931343, ,0.021947018228939127, ,6.286537064994673e-05, ,0.18786319989838543,-0.2330411872125988,0.09455009631000001,1.6802455171414936,0.5413538120706751,-1.1961492933440168, ,0.025949396105679735,0.029673840387264155,0.01625388930612245,-0.01896448019332951,0.04630729862910888,-0.047989942173505794, ,0.8402540683746338
0.011196832829112983,0.020539731102820435,-0.08377836928626993, ,0.011561960310669257,0.020340287413443077,-0.08432956252221335, ,0.000690586595851571, ,0.004605870812757227,0.0009308501232963718,-0.01397111913907084,0.005446801834256045,0.0026298644267445993,0.0066119900495465265, ,0.014740172926189208, ,0.0060484134138885405, ,6.356322302126133e-05, ,0.18805626822024105,-0.23283267342499475,0.09465898467000002,1.6802455171414936,0.541627085070206,-1.1963721291514096, ,0.025745236451023,0.027395190981082788,0.014428271304347828,-0.01720722606061989,0.03241232898305192,-0.03574032419353916, ,0.8562600612640381
0.01129955625950629,0.0205533899507344,-0.08407196064432183, ,0.011636865305817187,0.020351018006393926,-0.08455303976740129, ,0.000621424910381143, ,0.004560797150038341,0.0005252185879708389,-0.013057426027107397,-0.005325800044969501,-0.0012815543102650602,-0.006942786135348914, ,0.013840993449255353, ,0.0054777867795908226, ,6.422088212332593e-05, ,0.1886509186515563,-0.23218396386355988,0.09496102024000001,1.6800358271980091,0.5421736310692676,-1.1969811582464762, ,0.02631640087589317,0.030116452414621003,0.013419386284751476,-0.0011840446841509737,0.025457483981080345,-0.02443692439941077, ,0.8694429397583008
0.011343277380542131,0.02055850941396717,-0.08421096060569445, ,0.011711629959032797,0.02036167418062448,-0.08477548116203686, ,0.0007022187619958094, ,0.004086750800386376,0.0007040865074590379,-0.013878373113461377,0.034617561735475325,0.048735570607906724,0.006757365506954606, ,0.014484699175022316, ,0.05977901728970951, ,6.50750424178161e-05, ,0.18891349156927995,-0.23186733181571667,0.09510490843000001,1.6798261372545245,0.5428568135680949,-1.1975382477649583, ,0.023747983372990687,0.029562910142825787,0.014415214045248871,-0.017725431853848832,0.07721076914707457,-0.06630052058696305, ,0.8837060928344727
0.011443769393368136,0.020582398641088552,-0.08453118862501875, ,0.011786254255874047,0.02037225609978431,-0.08499688917535969, ,0.000615087612701923, ,0.0054234978672338275,0.0014995513571069707,-0.01704629546067561,-0.018221518097875845,-0.016488165675535685,0.008033955821535418, ,0.017951021484058815, ,0.02457400842026649, ,6.567089747934137e-05, ,0.189430914671853,-0.23128040411727563,0.09543546238000002,1.6794067573675557,0.543539996066922,-1.1981770160235812, ,0.026149611892662104,0.028791547802934095,0.01756208546857773,-0.015473154406653408,0.013273744888157578,-0.012893093236427714, ,0.9006409645080566
0.011498034838200244,0.02059598306301757,-0.08469520832147055, ,0.011860738182817887,0.020382763927741673,-0.08521726627358785, ,0.0006704928196584418, ,0.005463416092110071,0.0012421930686740924,-0.016498638564986387,-0.02283406289222101,-0.021586079024817663,0.007990589999403804, ,0.017424036085633126, ,0.03142215799965068, ,6.639274456754604e-05, ,0.18969348758957663,-0.23098694026805508,0.09560398008000001,1.6794067573675557,0.543539996066922,-1.1981770160235812, ,0.02735570526332395,0.030097349051211794,0.016963590543130992,-0.015473154406653408,0.009344243420265701,-0.009598405864582533, ,0.9140980243682861
0.011581693797811363,0.0206174356630682,-0.08495909127338178, ,0.011935081727258684,0.0203931978285832,-0.08543661491991894, ,0.0006349759586753962, ,0.005098923106583481,0.001143411277311138,-0.0164614481615049,0.02749366507290777,0.035132133145444805,0.0037427675298646454, ,0.017270949069748492, ,0.04461128993573459, ,6.700102089471859e-05, ,0.19013368336340744,-0.23050813082985316,0.09587749727000001,1.6794067573675557,0.5442231785657493,-1.1988974630223443, ,0.028335903720056965,0.031277831759548715,0.017109357164339423,-0.015473154406653408,0.06747339916467988,-0.06075253340525689, ,0.9342920780181885
0.01165502931264043,0.020630878881561263,-0.08518756113317384, ,0.012009284877506894,0.02040355796661258,-0.08565493757453303, ,0.0006289773776134914, ,0.004387235031119292,0.0006993297364701522,-0.012436844198888151,0.0075631652685716425,0.005420077377095777,0.0015295830105951775, ,0.013206513049477125, ,0.00930475201763003, ,6.757563165989627e-05, ,0.19058160187011244,-0.2300447668573997,0.09611601463000001,1.6791970674240708,0.5454529070636382,-1.2000635816358933, ,0.025850433549024998,0.02540068028866991,0.01288738796116505,-0.010916124009282234,0.033866513702669,-0.03465525992656439, ,0.9480140209197998
0.01174684317916565,0.020630050474852467,-0.08542445750899992, ,0.01208334762278738,0.020413844506350136,-0.0858722366945927, ,0.0006004052468486001, ,0.004636817589110779,0.00018245171299011436,-0.011872769052311721,-0.026558035752366906,-0.03182250769430817,-0.001972446530284083, ,0.012747392319678214, ,0.0414487758933944, ,6.806179489403398e-05, ,0.19112219317130816,-0.22941922549458751,0.09635712457000001,1.678777687537102,0.5455895435634037,-1.2001749995395896, ,0.026331004871939727,0.029498583014756222,0.012094769567198179,-0.006419938631272018,-0.004285007636278021,-0.004131638304189309, ,0.9616000652313232
0.01177959759968748,0.020631276591491957,-0.08550759059507342, ,0.012157269953237872,0.020424057612532336,-0.08608851473424653, ,0.0007232212437085792, ,0.004757107281227976,0.00024407941244186898,-0.012492788998443128,-0.023895159937083684,-0.02784948627064827,-0.002601725633634999, ,0.013370094293022463, ,0.03669567072096228, ,6.883538328308649e-05, ,0.19129981602741533,-0.22921071170698346,0.09644138342000001,1.678777687537102,0.5454529070636382,-1.2000635816358933, ,0.026663934127134248,0.030435196138059905,0.012743049216000004,-0.006162748817991381,0.0,-0.007625774709738617, ,0.9770979881286621
0.011884470837150937,0.0206448780059374,-0.08581946211379267, ,0.012231051859907664,0.02043419745011037,-0.08630377414462896, ,0.0006317142116111198, ,0.004702848726743905,0.0009660897302904467,-0.016161065195772213,0.04644162104344241,0.05937154176979288,-0.008639163229053098, ,0.016859126423857475, ,0.07537773567067264, ,6.936492786398867e-05, ,0.19190218919160484,-0.22852338848117745,0.09676415963000001,1.678777687537102,0.5465459990617618,-1.2011999610858863, ,0.025489374579229326,0.032365941868509815,0.01682028671594509,-0.004877862383899264,0.08649196556808716,-0.07886715318551205, ,0.9902100563049316
0.011937999429964891,0.020656772237365582,-0.08599480843479987, ,0.012304693334755826,0.020444264184249876,-0.08651801737386307, ,0.0006733288099921832, ,0.005505175134641903,0.0014855119756904708,-0.017518157955726428,0.0007016247041471275,0.000482084262418492,-0.010174108639809205, ,0.01842279992983641, ,0.0008503132482622748, ,6.997862534085801e-05, ,0.1921724848422027,-0.22819903370046005,0.09694564023,1.6785679975936174,0.5470925450608235,-1.2017273114408125, ,0.02610644884689705,0.03002117733580221,0.018100922181818184,0.0,0.026566867137708273,-0.03051400310489384, ,1.0046710968017578
0.011995696932168549,0.020670033593484752,-0.08617301627246418, ,0.01237819437064986,0.02045425798032986,-0.08673124686706152, ,0.0007102709359263056, ,0.005671776882235332,0.00143338922026978,-0.01792159037349658,-0.012354896488024545,-0.014069636162790772,0.008034225561147352, ,0.018852242815486173, ,0.01872421641120821, ,7.066191753822543e-05, ,0.19243505775992634,-0.22789784711836528,0.09712841712,1.6781486177066482,0.5470925450608235,-1.2017273114408125, ,0.026171246982479534,0.030484080166550197,0.018457487276940906,-0.018376874212578345,0.016154605957599162,-0.02139012540310491, ,1.0186760425567627
0.012111456824538045,0.020700643035589984,-0.08652650179726298, ,0.0124515549613642,0.020464179003942595,-0.08694346506632897, ,0.00058774173638236, ,0.005707410716998037,0.0011235157779923457,-0.016538439868529584,-0.015710533609722042,-0.017933033367814655,0.0067818860472658084, ,0.01753159485274716, ,0.023841420150233703, ,7.120710858169341e-05, ,0.1929910945268705,-0.22731864215279846,0.09748748945,1.6781486177066482,0.5475024545601199,-1.2021432438920423, ,0.02920804603215475,0.030193108990922937,0.017183183948220066,-0.015891481476437243,0.014865587641606665,-0.01718470666765267, ,1.0297060012817383
0.012111456824538045,0.020700643035589984,-0.08652650179726298, ,0.012524775101578725,0.020474027420892275,-0.087154674410763, ,0.0007853581777202875, ,0.005707410716998037,0.0011235157779923457,-0.016538439868529584,-0.015710533609722042,-0.017933033367814655,0.0067818860472658084, ,0.01753159485274716, ,0.023841420150233703, ,7.219405716746772e-05, ,0.1929910945268705,-0.22731864215279846,0.09748748945,1.6781486177066482,0.5475024545601199,-1.2021432438920423, ,0.02920804603215475,0.030193108990922937,0.017183183948220066,-0.015891481476437243,0.014865587641606665,-0.01718470666765267, ,1.0407640933990479
0.012214744967677596,0.02071887989396856,-0.08684063247596467, ,0.012597854786877043,0.020483803397194265,-0.08736487733645583, ,0.0006905554044782374, ,0.005272324613612367,0.0009695693864132369,-0.016048775590858197,0.007901520909182768,0.009694596963790563,-0.005888768847978176, ,0.016920421672999123, ,0.012506725323283481, ,7.294311425528795e-05, ,0.19357802222531156,-0.22668537805711203,0.09782063598000001,1.677938927763164,0.5487321830580089,-1.2033910412457318, ,0.02722230107816144,0.031123955906353157,0.016592512,-0.005289586592734226,0.038171480500855344,-0.039683159368179316, ,1.0566020011901855
0.01227105697798777,0.020728101846487913,-0.0870010897641764, ,0.012670794013745358,0.02049350709907498,-0.0875740762764963, ,0.0007369789254588739, ,0.005388676990459556,0.0009945156642411934,-0.015434469415339866,-0.005349038557610725,-0.009212394020706447,-0.004480164430189446, ,0.016378331638081795, ,0.01065267765284834, ,7.377966111861927e-05, ,0.19385604060878364,-0.22636874600926882,0.09798526481000001,1.677938927763164,0.5487321830580089,-1.2033910412457318, ,0.028176051531612463,0.029118423307293886,0.01594475627627628,-0.005289586592734226,0.020083037604991257,-0.024589123412610263, ,1.0674700736999512
0.012324254301701672,0.02073680430252994,-0.08715475915890349, ,0.012743592779570682,0.020503138692970397,-0.0877822736609709, ,0.0007900752030137649, ,0.005449580456717395,0.0007315965696806173,-0.01565984058622708,-0.026448989658658533,-0.02908996223646498,0.0029329859394391137, ,0.016597101189094722, ,0.03931633267651623, ,7.471560977955409e-05, ,0.1941263362593815,-0.2260752821600483,0.09814341219000002,1.6777292378196795,0.5488688195577742,-1.203502459149428, ,0.026537176051026505,0.0318981316162927,0.01602496128772636,-0.012354516619028564,0.0,-0.0076767678205554475, ,1.0786230564117432
0.012433034698896655,0.020753046531907852,-0.08749393189141139, ,0.012816251082639486,0.020512698345525836,-0.08798947191696628, ,0.0006709560077926139, ,0.005925827972320207,0.0008014522080635987,-0.017233105614595512,-0.01837313961275725,-0.01578876535079299,0.00175263491455493, ,0.0182410989779439, ,0.024225107855749696, ,7.53691877111911e-05, ,0.19470554122494835,-0.22540340439999076,0.09849470678000001,1.6771001679892257,0.5500985480556632,-1.2047502565031176, ,0.030367021298710647,0.030011682972318397,0.01867387048065651,-0.022090352553721927,0.09909405830921877,-0.08749975209589694, ,1.0899078845977783
0.012494068484333229,0.020766809571083275,-0.08767695112219198, ,0.01288876892213613,0.020522186223595022,-0.08819567346856942, ,0.0006962053507187926, ,0.006720060856469368,0.001219677746365884,-0.01900503689076077,-0.03173605488764206,-0.028408032042846015,0.014841614481094589, ,0.02019500579199743, ,0.04259332089654423, ,7.606344730284944e-05, ,0.19502989600566578,-0.22507904961927333,0.09868526141000002,1.6771001679892257,0.5506450940547251,-1.2053592855981845, ,0.033952394117520844,0.03447037470340384,0.01959263409594096,-0.022090352553721927,0.010629407180765642,-0.006000241216576141, ,1.1011788845062256
0.012565782913625236,0.020781361149190224,-0.08788291372146566, ,0.01296114629814155,0.020531602494239666,-0.08840088073687076, ,0.0006978405409451187, ,0.007172429975218351,0.0014648976965489847,-0.02042140202935543,-0.050861389526243,-0.049808476502819804,0.01608008944913223, ,0.021693854840837468, ,0.07118821338144174, ,7.674629311882981e-05, ,0.1953851417178801,-0.22470835844131057,0.09889785297,1.6771001679892257,0.5507817305544904,-1.2055523822420215, ,0.033807246725497245,0.035108006495919636,0.020986576442687747,-0.022090352553721927,-0.011065499117090687,0.01237991972259055, ,1.1121830940246582
0.012635129639565972,0.020796951003517514,-0.08807942792334114, ,0.013033383211631326,0.02054094732472785,-0.08860509613996473, ,0.000707439654800944, ,0.0068494620733001305,0.0014687999619403729,-0.01984817580685918,-0.0358163835491756,-0.03572751505641446,0.014560028883719135, ,0.02104810174057896, ,0.05058918443973209, ,7.74350339469294e-05, ,0.19570949649859753,-0.2243762809277189,0.09910007421000001,1.6771001679892257,0.5506450940547251,-1.2055226430784658, ,0.03244339882340882,0.033520643432875585,0.02044776831835687,-0.022090352553721927,0.001646514364615262,-0.0012329241246247765, ,1.1240530014038086
0.01270136914406363,0.020812120432163517,-0.08827606032329971, ,0.013105479664474966,0.020550220882534616,-0.08880832209295171, ,0.000717773835017704, ,0.006275872738113645,0.0012200664586460995,-0.018407231392948125,0.03183362494738348,0.010383137419384524,-0.0012879224301453347, ,0.01948592590415057, ,0.03348413216363761, ,7.813103113699899e-05, ,0.19605701947793763,-0.22403648068125304,0.09930488803000001,1.6771001679892257,0.5511916400537868,-1.2061316721735325, ,0.033053619490933744,0.03285905178617409,0.019122222713085234,-0.019435861287233312,0.04723584397649463,-0.06943738912052727, ,1.1368029117584229
0.012764095670743054,0.020820813907791856,-0.08845651112525589, ,0.013177435659433577,0.02055942333534022,-0.08901056100793983, ,0.0007390170837804516, ,0.005987530206243784,0.0005863586489672436,-0.01677025103822668,-0.0019818411133370913,0.013348949651104195,0.0017634162807111465, ,0.017816724006422827, ,0.013495214874726817, ,7.885678515386451e-05, ,0.1963890969915293,-0.2236812349690387,0.09949155379,1.6768904780457412,0.551601549553083,-1.206792640845184, ,0.033461544978304225,0.035959432193433415,0.017370568724100328,-0.009698045625348784,0.049492976359561895,-0.034382733790622094, ,1.1477880477905273
0.01282797017776827,0.02082613578616163,-0.08862609108249847, ,0.013249251200159002,0.020568554851029767,-0.08921181529404583, ,0.0007660930034680917, ,0.006524058023775866,0.0006884311583127815,-0.01676861151128616,-0.026762467537158594,-0.036275197006988585,0.0003206981682486532, ,0.018006210111341275, ,0.045079022402336986, ,7.978791296967573e-05, ,0.1967443427037436,-0.22331826652395015,0.09966655294000001,1.676680788102257,0.551874822552614,-1.207178834132858, ,0.03503024789902945,0.03448290027560711,0.017257650617551468,-0.010764338343560758,0.0008913165370775452,-0.009689976616331574, ,1.1568539142608643
0.01289137061514261,0.020830955095596952,-0.0887930352772351, ,0.013320926291191974,0.0205776155976923,-0.08941208735739724, ,0.0007949367635088186, ,0.006460282990228537,0.0005272996132232319,-0.016818733633908657,-0.01997947719970454,-0.033092546522899086,9.620089514300427e-05, ,0.018024513925327137, ,0.038656109462636395, ,8.076288246072106e-05, ,0.19707642021733526,-0.22297074354461005,0.09983766322000001,1.6762614082152878,0.551874822552614,-1.2070971553927174, ,0.03435805270038768,0.03604137544947618,0.017276368242950108,-0.013572430951054038,0.0038418775367727535,-0.018968820462329408, ,1.1666889190673828
0.012952091134510551,0.02083844349478642,-0.08896467775654256, ,0.013392460937960992,0.020586605743620815,-0.08961137960113416, ,0.0008219313186035145, ,0.006242925229648831,0.0009652080947253972,-0.018328910891008333,0.04107017626094156,0.043099695287004365,-0.002670628553056705, ,0.0193869728565249, ,0.059534368589119556, ,8.177686577121015e-05, ,0.19742394319667536,-0.2226154978323957,0.10001655124000002,1.6762614082152878,0.5525580050514411,-1.2076542449111993, ,0.03521222321279064,0.03539609905202192,0.019145206153846156,-0.013572430951054038,0.08152175439377557,-0.07863700248973378, ,1.1755619049072266
0.013014460909498567,0.0208494895539497,-0.08915814832331652, ,0.013463855146780394,0.020595525457310176,-0.08980969442540987, ,0.0008312432051073161, ,0.006359705920954097,0.0011829371061350576,-0.020428214651195698,0.04762055517681695,0.057876472460014816,-0.0035425975772632075, ,0.021427952618797166, ,0.07494931475473621, ,8.279326847690063e-05, ,0.19776374344314124,-0.22224480665443294,0.10021877248000001,1.6762614082152878,0.5535144605497992,-1.208515848977215, ,0.032813603581767214,0.03805009685584233,0.02129520256684492,-0.013572430951054038,0.09400318424955258,-0.08765295268760154, ,1.1850149631500244
0.013086171254385194,0.020863264350981535,-0.08936952209413422, ,0.013535108924849338,0.020604374907458003,-0.09000703422739365, ,0.0008215780522766406, ,0.007531369487264912,0.0016833741141462507,-0.022438479140726685,-0.0029437878736040084,-0.005797773240519491,0.004237630165159815, ,0.02372847700360706, ,0.006501874613912155, ,8.37740784336387e-05, ,0.19811898915535558,-0.22187411547647015,0.10043784549000001,1.676051718271803,0.5539243700490956,-1.2088501026883043, ,0.03589143024147911,0.03706911779627765,0.023253739445255477,-0.01755894355248427,0.033908444569103476,-0.03719077719233837, ,1.193713903427124
0.01316804962512429,0.020881558537312057,-0.08960703503150833, ,0.013606222280250014,0.020613154262962747,-0.09020340140127102, ,0.0007872032629333036, ,0.00796582709911248,0.0016275476931909682,-0.023294699118814564,-0.019672544890938937,-0.023084724081227276,0.004523797888752831, ,0.024672785004994185, ,0.030329962891535434, ,8.467111603125526e-05, ,0.19848968033331835,-0.22148025609988473,0.1006828443,1.676051718271803,0.5539243700490956,-1.2088501026883043, ,0.03715620264622975,0.03952392401435684,0.02406164882175227,-0.017005897675241428,0.01768803343499447,-0.022785828554244818, ,1.203307867050171
0.013248112174359547,0.020898591436774666,-0.08984454961850814, ,0.013677195221946327,0.020621863692923383,-0.09039879833824635, ,0.0007535795573626066, ,0.008224379404805169,0.0018503236038275148,-0.023210411430019777,-0.019316185411528693,-0.02725060803532127,0.0032508954857491347, ,0.02469387196824057, ,0.03340215443589452, ,8.548783865573869e-05, ,0.19887581697702958,-0.2210941194561735,0.1009291394,1.6756323383848342,0.554334279548392,-1.2091843563993936, ,0.03973908775480351,0.03698244020205409,0.02406164882175227,-0.014711717736197442,0.015600664834102574,-0.020171564676586456, ,1.2128989696502686
0.013325887474895382,0.020916585734355266,-0.09008161581258829, ,0.013748027759782356,0.020630503366638735,-0.09059322742654384, ,0.0007223517043497257, ,0.007338051803821483,0.0015732126539801537,-0.022612921873520823,0.04187381614810994,0.05729742067958882,0.00021964342643265421, ,0.023825747375227656, ,0.0709676333455795, ,8.623080808879879e-05, ,0.19926967635361503,-0.22070798281246226,0.10117673079000002,1.6754226484413495,0.5551540985469845,-1.2099345425617125, ,0.03835769666874324,0.03865455867962149,0.023668367786032693,-0.014437115875272744,0.09939443354026396,-0.08206935476350939, ,1.2216169834136963
0.013325887474895382,0.020916585734355266,-0.09008161581258829, ,0.013818719904480947,0.020639073453606844,-0.09078669105140934, ,0.0009038959907068715, ,0.007681630626277957,0.0012117322173060816,-0.022003319066317775,0.011048250247223947,0.01833345709384361,0.0011085522149176564, ,0.02333713337107221, ,0.021405007008089474, ,8.731408862824003e-05, ,0.19926967635361503,-0.22070798281246226,0.10117673079000002,1.6754226484413495,0.5551540985469845,-1.2099345425617125, ,0.03835769666874324,0.03865455867962149,0.023668367786032693,-0.014437115875272744,0.09939443354026396,-0.08206935476350939, ,1.2304179668426514
0.01340036838991672,0.020930869502409452,-0.09029913033094755, ,0.01388927166764221,0.020647574123524075,-0.09097919159511157, ,0.0008841753274576838, ,0.007681630626277957,0.0012117322173060816,-0.022003319066317775,0.011048250247223947,0.01833345709384361,0.0011085522149176564, ,0.02333713337107221, ,0.021405007008089474, ,8.834277896082603e-05, ,0.19965581299732624,-0.22032184616875103,0.10140358154000001,1.6754226484413495,0.5558372810458118,-1.2105733108203354, ,0.04000714230964198,0.040658501096174283,0.022886223448275865,-0.014437115875272744,0.06177892712789195,-0.05356815259493023, ,1.2403769493103027
0.013449586482455058,0.02093855308925948,-0.09043917556183814, ,0.013959683061742107,0.020656005546284554,-0.09117073143694418, ,0.0009355242555079357, ,0.007802022497145284,0.0012066665151112212,-0.021659313538080153,-0.02345135944068637,-0.018653069562971393,0.005037534328894778, ,0.02305327443261616, ,0.02996495447978563, ,8.962479792569307e-05, ,0.19990294044930143,-0.2200592732510274,0.10154876602000001,1.6754226484413495,0.5561105540453426,-1.2108778253678687, ,0.038686074830195996,0.03954039231602949,0.022403391729957808,-0.014437115875272744,0.023359351577683787,-0.017896715309008937, ,1.2476608753204346
0.013449586482455058,0.02093855308925948,-0.09043917556183814, ,0.014029954100130746,0.020664367891979025,-0.09136131295322683, ,0.0011235397023031328, ,0.007802022497145284,0.0012066665151112212,-0.021659313538080153,-0.02345135944068637,-0.018653069562971393,0.005037534328894778, ,0.02305327443261616, ,0.02996495447978563, ,9.124963691528632e-05, ,0.19990294044930143,-0.2200592732510274,0.10154876602000001,1.6754226484413495,0.5561105540453426,-1.2108778253678687, ,0.038686074830195996,0.03954039231602949,0.022403391729957808,-0.014437115875272744,0.023359351577683787,-0.017896715309008937, ,1.2544429302215576
0.013617018567218125,0.020948731328333123,-0.09086100251505462, ,0.014100084797031384,0.020672661330895077,-0.091550938517307, ,0.0008863291223216332, ,0.00646436405888812,-0.00044336614419500267,-0.014891399064942842,-0.04347156517155411,-0.039579284745056315,0.004855170065016554, ,0.01624002285512688, ,0.05879027153462003, ,9.240763353452219e-05, ,0.20079105472983724,-0.21914799077186892,0.10198302317,1.675212958497865,0.5562471905451081,-1.2110709220117057, ,0.03673904047946991,0.04022761405615548,0.015213764584527223,-0.012847701408243236,0.0,0.0016601355407151993, ,1.2610900402069092
0.013617018567218125,0.020948731328333123,-0.09086100251505462, ,0.014170075167538527,0.02068088603351554,-0.09173961049956118, ,0.0010721775485210293, ,0.00646436405888812,-0.00044336614419500267,-0.014891399064942842,-0.04347156517155411,-0.039579284745056315,0.004855170065016554, ,0.01624002285512688, ,0.05879027153462003, ,9.390190918850238e-05, ,0.20079105472983724,-0.21914799077186892,0.10198302317,1.675212958497865,0.5562471905451081,-1.2110709220117057, ,0.03673904047946991,0.04022761405615548,0.015213764584527223,-0.012847701408243236,0.0,0.0016601355407151993, ,1.2676548957824707
0.013687579632234999,0.0209467447234234,-0.09104923340003324, ,0.014239925227616673,0.020689042170518028,-0.09192733126739709, ,0.0010689023001099931, ,0.007932914074032996,0.0009110760895660844,-0.024317385059647333,0.07511869748726985,0.1008588561551615,-0.009914085334131446, ,0.025594851073724362, ,0.12575897214065107, ,9.537330465120236e-05, ,0.2012158050379196,-0.21867690406654122,0.10217876296000002,1.6750032685543808,0.5572036460434662,-1.2119325260777212, ,0.04409709180226338,0.04927151690470964,0.025486098432000007,-0.01050574638335517,0.14797591195852025,-0.12498106092149218, ,1.2742290496826172
0.01377974312274012,0.020968948087895654,-0.09134764264070411, ,0.014309634994098923,0.02069712991277473,-0.09211410318525459, ,0.0009706349890720139, ,0.009427269148575827,0.003062181097674974,-0.030333229780052543,0.06419770455841017,0.06916640652763256,-0.004283034321389076, ,0.03191167788700735, ,0.09436795739348076, ,9.66456375045823e-05, ,0.2016868917432473,-0.21820581736121353,0.10249246514000002,1.6745838886674116,0.5588432840406514,-1.2134328984023595, ,0.04405614742733091,0.04043329423028154,0.031857623040000005,-0.0156493641830458,0.11688645946259145,-0.10715186345394855, ,1.2840509414672852
0.01377974312274012,0.020968948087895654,-0.09134764264070411, ,0.014379204484685121,0.020705149431350628,-0.09229992861460687, ,0.0011557647821904965, ,0.009427269148575827,0.003062181097674974,-0.030333229780052543,0.06419770455841017,0.06916640652763256,-0.004283034321389076, ,0.03191167788700735, ,0.09436795739348076, ,9.824605870546354e-05, ,0.2016868917432473,-0.21820581736121353,0.10249246514000002,1.6745838886674116,0.5588432840406514,-1.2134328984023595, ,0.04405614742733091,0.04043329423028154,0.031857623040000005,-0.0156493641830458,0.11688645946259145,-0.10715186345394855, ,1.292327880859375
0.013849322216367971,0.02098852650633702,-0.0915637358180142, ,0.014448633717941074,0.020713100897504205,-0.09248480991396352, ,0.0011328773244034752, ,0.010485559183827124,0.002886456580980804,-0.03147843851906921,-0.02977512822007422,-0.02751815320220027,0.052197779119580824, ,0.03330421406654492, ,0.04054350883356438, ,9.978675566922656e-05, ,0.2020035237910905,-0.21791235351199298,0.10271801960000002,1.6741645087804424,0.5593898300397131,-1.2139602487572856, ,0.04582179698622442,0.04189710444082595,0.03270803186858317,-0.06429835210687079,0.032450357826813665,-0.023547432158718063, ,1.2988970279693604
0.013984054852131946,0.021028368912055072,-0.09196988131520809, ,0.01451792271329654,0.020720984482685553,-0.09266874943887045, ,0.0009316204886511658, ,0.010455911626243238,0.002854115410167256,-0.03163275020980353,-0.04500805923442035,-0.03751168219739664,-0.026725024247065524, ,0.033438046422394174, ,0.058590272440495327, ,0.00010094262444736821, ,0.20255956055803467,-0.21737176221079726,0.10313931385000001,1.6739548188369582,0.5595264665394786,-1.214071666660982, ,0.04163972863469539,0.04620104262827205,0.03270803186858317,0.019665866961589187,0.0,0.0038711005220614936, ,1.305588960647583
0.014094510453091055,0.0210532751571579,-0.09229436505549717, ,0.014587071491043796,0.02072880035853601,-0.09285174954191171, ,0.0008115280258533289, ,0.010846644049529819,0.002264736980178551,-0.031154311989176446,-0.042377664778995544,-0.04781307568828772,-0.006500305971152209, ,0.0330661439579146, ,0.06388996267069459, ,0.00010186753381557045, ,0.20300747906473968,-0.21685433910822424,0.10347375667000001,1.6741645087804424,0.5593898300397131,-1.2139602487572856, ,0.046609499783138886,0.049632291610078864,0.03217941721212122,-0.006674616186442332,0.0,-0.008082858774771313, ,1.3120980262756348
0.014094510453091055,0.0210532751571579,-0.09229436505549717, ,0.01465608007233659,0.020736548696888017,-0.09303381257271226, ,0.000981049804347482, ,0.010846644049529819,0.002264736980178551,-0.031154311989176446,-0.042377664778995544,-0.04781307568828772,-0.006500305971152209, ,0.0330661439579146, ,0.06388996267069459, ,0.0001030889573289534, ,0.20300747906473968,-0.21685433910822424,0.10347375667000001,1.6741645087804424,0.5593898300397131,-1.2139602487572856, ,0.046609499783138886,0.049632291610078864,0.03217941721212122,-0.006674616186442332,0.0,-0.008082858774771313, ,1.31864595413208
0.014178984984229814,0.021071255008120186,-0.0925393087099281, ,0.014724948479188201,0.02074422966976354,-0.09321494087793769, ,0.0009281705318548912, ,0.009905861509155612,0.0017716928488575958,-0.02716544732090351,0.015200190646686498,0.006891366840993715,-0.011640876862768875, ,0.028969406551292133, ,0.016688976561713056, ,0.00010438984492750653, ,0.20340906117419935,-0.2164604797316388,0.10372912580000002,1.6741645087804424,0.559936376038775,-1.2145692778523525, ,0.049867021312911604,0.04566744059599171,0.028343080996441283,-0.006581187962461338,0.05805195173937959,-0.061953682069878745, ,1.324218988418579
0.014178984984229814,0.021071255008120186,-0.0925393087099281, ,0.014793676734470488,0.020751843449374346,-0.09339513680129718, ,0.0011010501412973142, ,0.009905861509155612,0.0017716928488575958,-0.02716544732090351,0.015200190646686498,0.006891366840993715,-0.011640876862768875, ,0.028969406551292133, ,0.016688976561713056, ,0.0001059917667433814, ,0.20340906117419935,-0.2164604797316388,0.10372912580000002,1.6741645087804424,0.559936376038775,-1.2145692778523525, ,0.049867021312911604,0.04566744059599171,0.028343080996441283,-0.006581187962461338,0.05805195173937959,-0.061953682069878745, ,1.3297340869903564
0.014178984984229814,0.021071255008120186,-0.0925393087099281, ,0.014862264861911887,0.02075939020812003,-0.0935744026835441, ,0.0012788864605353025, ,0.009905861509155612,0.0017716928488575958,-0.02716544732090351,0.015200190646686498,0.006891366840993715,-0.011640876862768875, ,0.028969406551292133, ,0.016688976561713056, ,0.00010790035874167933, ,0.20340906117419935,-0.2164604797316388,0.10372912580000002,1.6741645087804424,0.559936376038775,-1.2145692778523525, ,0.049867021312911604,0.04566744059599171,0.028343080996441283,-0.006581187962461338,0.05805195173937959,-0.061953682069878745, ,1.3349390029907227
0.014317003754343147,0.02108106668233812,-0.0928901291843355, ,0.014930712886096374,0.020766870118588646,-0.0937527408624781, ,0.0011042903994589865, ,0.009302855444144739,0.0003486416357384053,-0.02181060395838953,-0.01280912976074391,-0.02424496726360938,-0.003311690145505112, ,0.023714280833171827, ,0.027420563583888512, ,0.00010948411931561092, ,0.20419677992737026,-0.21574998830721012,0.10409597587000001,1.6737451288934733,0.5611661045366639,-1.2157353964659015, ,0.0525162930594747,0.047235909187889884,0.02265833786628734,-0.012813761744084133,0.030828487670868057,-0.036636029838653515, ,1.3396449089050293
0.014317003754343147,0.02108106668233812,-0.0928901291843355, ,0.014999020832461768,0.020774283353555117,-0.09393015367294626, ,0.001280981749508837, ,0.009302855444144739,0.0003486416357384053,-0.02181060395838953,-0.01280912976074391,-0.02424496726360938,-0.003311690145505112, ,0.023714280833171827, ,0.027420563583888512, ,0.00011137046658182337, ,0.20419677992737026,-0.21574998830721012,0.10409597587000001,1.6737451288934733,0.5611661045366639,-1.2157353964659015, ,0.0525162930594747,0.047235909187889884,0.02265833786628734,-0.012813761744084133,0.030828487670868057,-0.036636029838653515, ,1.3441078662872314
0.014432948249298288,0.021088299812861228,-0.09315652230057275, ,0.015067188727298602,0.020781630085981172,-0.094106643446845, ,0.0011828091553215314, ,0.011283422480475432,0.0012085532442489095,-0.027630176847236586,-0.02823408255358974,-0.048923049283502426,0.008923263648896809, ,0.029869765590420216, ,0.05648550314382796, ,0.00011306970237325325, ,0.20483004402305668,-0.2152093970060144,0.10437208564000001,1.673535438949989,0.5611661045366639,-1.2157353964659015, ,0.059052234946154816,0.05088307858363044,0.0287005612972973,-0.02681054341585348,0.015488768656290773,-0.02786335858885879, ,1.3485569953918457
0.014432948249298288,0.021088299812861228,-0.09315652230057275, ,0.015135216597748186,0.02078891048901393,-0.09428221251312092, ,0.001360144571394908, ,0.011283422480475432,0.0012085532442489095,-0.027630176847236586,-0.02823408255358974,-0.048923049283502426,0.008923263648896809, ,0.029869765590420216, ,0.05648550314382796, ,0.00011506971148550793, ,0.20483004402305668,-0.2152093970060144,0.10437208564000001,1.673535438949989,0.5611661045366639,-1.2157353964659015, ,0.059052234946154816,0.05088307858363044,0.0287005612972973,-0.02681054341585348,0.015488768656290773,-0.02786335858885879, ,1.3529810905456543
0.014550703878806446,0.021106362127403255,-0.09348209485370061, ,0.015203104471801725,0.020796124735986084,-0.09445686319777345, ,0.0012132794803261242, ,0.011691259047747269,0.0023636974535888645,-0.03518800894486013,0.05797098411140708,0.05906342496286566,0.0014000336161726122, ,0.03715465754487842, ,0.08275910354409749, ,0.00011679754989913729, ,0.20541697172149773,-0.21464563750619603,0.10471171362000001,1.6733257490065043,0.5619859235352566,-1.2166489401085014, ,0.055076576644498415,0.05611883001683665,0.036787093579676675,-0.029311277078513033,0.12030141222392851,-0.11980152718861053, ,1.357475996017456
0.014550703878806446,0.021106362127403255,-0.09348209485370061, ,0.015270852378298139,0.020803273000414048,-0.09463059782385508, ,0.0013890773746169966, ,0.011691259047747269,0.0023636974535888645,-0.03518800894486013,0.05797098411140708,0.05906342496286566,0.0014000336161726122, ,0.03715465754487842, ,0.08275910354409749, ,0.00011882116158883733, ,0.20541697172149773,-0.21464563750619603,0.10471171362000001,1.6733257490065043,0.5619859235352566,-1.2166489401085014, ,0.055076576644498415,0.05611883001683665,0.036787093579676675,-0.029311277078513033,0.12030141222392851,-0.11980152718861053, ,1.36195707321167
0.014665311892597396,0.021135146281281197,-0.09384332481080329, ,0.015338460346923505,0.020810355455998603,-0.09480341871147342, ,0.0012167161624032808, ,0.012372952475362006,0.0032015724227462917,-0.039229685622867605,0.03940304475729255,0.03352960288803771,-0.0022652858792250896, ,0.041259038440136744, ,0.05173723314476867, ,0.00012052984193652599, ,0.2059112266254481,-0.21410504620500032,0.10508893401000001,1.6733257490065043,0.56307901553338,-1.2178669982986352, ,0.05045026132826729,0.056185282154215976,0.040843106461538464,-0.02616510244307992,0.08911068253831339,-0.10125372385937792, ,1.366429090499878
0.014665311892597396,0.021135146281281197,-0.09384332481080329, ,0.015405928408208872,0.020817372276623294,-0.09497532817779336, ,0.0013895771889714005, ,0.012372952475362006,0.0032015724227462917,-0.039229685622867605,0.03940304475729255,0.03352960288803771,-0.0022652858792250896, ,0.041259038440136744, ,0.05173723314476867, ,0.0001225272636845231, ,0.2059112266254481,-0.21410504620500032,0.10508893401000001,1.6733257490065043,0.56307901553338,-1.2178669982986352, ,0.05045026132826729,0.056185282154215976,0.040843106461538464,-0.02616510244307992,0.08911068253831339,-0.10125372385937792, ,1.3710999488830566
0.014665311892597396,0.021135146281281197,-0.09384332481080329, ,0.015473256593529168,0.020824323636353913,-0.09514632853703725, ,0.0015643542012418112, ,0.012372952475362006,0.0032015724227462917,-0.039229685622867605,0.03940304475729255,0.03352960288803771,-0.0022652858792250896, ,0.041259038440136744, ,0.05173723314476867, ,0.0001248137449217376, ,0.20645954065951805,-0.21354900943805613,0.10550893197000001,1.6729063691195354,0.5634889250326764,-1.2185279669702866, ,0.059384819498417264,0.058542221812751864,0.046304684651162796,-0.023362842663451813,0.02904051146334282,-0.02605712470721138, ,1.3780748844146729
0.01479971553565228,0.02116932087210897,-0.09424763188922135, ,0.01554044493510168,0.020831209709438078,-0.09531642210048775, ,0.0013436188883869655, ,0.014874524614570225,0.004117540516260495,-0.04455748238753249,-0.03600285511386113,-0.03534791488275886,0.007659053460539938, ,0.047154796777504726, ,0.050452998236783314, ,0.00012670319466015468, ,0.20645954065951805,-0.21354900943805613,0.10550893197000001,1.6729063691195354,0.5634889250326764,-1.2185279669702866, ,0.059384819498417264,0.058542221812751864,0.046304684651162796,-0.023362842663451813,0.02904051146334282,-0.02605712470721138, ,1.3834009170532227
0.01498956686734903,0.02121998327006472,-0.09480515673645307, ,0.015607493465984577,0.020838030670304167,-0.09548561117648838, ,0.0009953588874013779, ,0.01587659728437615,0.003721608749953989,-0.04459370636200271,-0.04815327688309745,-0.0784095637952648,0.04954785378814533, ,0.047481737121955796, ,0.09201424575703514, ,0.000127980221334993, ,0.20723181394694049,-0.2128385180136275,0.10608837360000001,1.6720676093455973,0.5637621980322073,-1.2187508027776794, ,0.06701761409496525,0.059571212528857984,0.046304684651162796,-0.07364896407820805,0.0034835256073234423,-0.026507579165556322, ,1.387990951538086
0.01498956686734903,0.02121998327006472,-0.09480515673645307, ,0.01567440222007553,0.020844786693561025,-0.0956538980704454, ,0.0011533142604646875, ,0.01587659728437615,0.003721608749953989,-0.04459370636200271,-0.04815327688309745,-0.0784095637952648,0.04954785378814533, ,0.047481737121955796, ,0.09201424575703514, ,0.00012951942170856884, ,0.20723181394694049,-0.2128385180136275,0.10608837360000001,1.6720676093455973,0.5637621980322073,-1.2187508027776794, ,0.06701761409496525,0.059571212528857984,0.046304684651162796,-0.07364896407820805,0.0034835256073234423,-0.026507579165556322, ,1.3924188613891602
0.01498956686734903,0.02121998327006472,-0.09480515673645307, ,0.015741171232110197,0.02085147795399703,-0.09582128508482925, ,0.0013165189362374882, ,0.01587659728437615,0.003721608749953989,-0.04459370636200271,-0.04815327688309745,-0.0784095637952648,0.04954785378814533, ,0.047481737121955796, ,0.09201424575703514, ,0.00013132707998689424, ,0.20723181394694049,-0.2128385180136275,0.10608837360000001,1.6720676093455973,0.5637621980322073,-1.2187508027776794, ,0.06701761409496525,0.059571212528857984,0.046304684651162796,-0.07364896407820805,0.0034835256073234423,-0.026507579165556322, ,1.396826982498169
0.015143798570861363,0.02124980947364867,-0.09521782092059104, ,0.01580780053766076,0.020858104626579284,-0.0959877745191765, ,0.0010895686500197324, ,0.015055626353184562,0.0020947766858330106,-0.03842626350252328,-0.02549805780118907,-0.04910269284287215,0.024203329720974928, ,0.04132357318789807, ,0.05532758458465286, ,0.00013296230450913457, ,0.20795002810424337,-0.21220525391794107,0.10651874188000002,1.6720676093455973,0.5641721075315036,-1.2191667352289095, ,0.07356352058796184,0.06330683226048751,0.040022139497487445,-0.0485185001131187,0.034238131313757664,-0.04745270489331482, ,1.3991169929504395
0.015143798570861363,0.02124980947364867,-0.09521782092059104, ,0.015874290173134558,0.020864666886453217,-0.09615336867009006, ,0.0012478791548286778, ,0.015055626353184562,0.0020947766858330106,-0.03842626350252328,-0.02549805780118907,-0.04910269284287215,0.024203329720974928, ,0.04132357318789807, ,0.05532758458465286, ,0.0001348616517839549, ,0.20795002810424337,-0.21220525391794107,0.10651874188000002,1.6720676093455973,0.5641721075315036,-1.2191667352289095, ,0.07356352058796184,0.06330683226048751,0.040022139497487445,-0.0485185001131187,0.034238131313757664,-0.04745270489331482, ,1.401339054107666
0.015143798570861363,0.02124980947364867,-0.09521782092059104, ,0.01594064017577258,0.02087116490894176,-0.09631806983124241, ,0.0014102751203538618, ,0.015055626353184562,0.0020947766858330106,-0.03842626350252328,-0.02549805780118907,-0.04910269284287215,0.024203329720974928, ,0.04132357318789807, ,0.05532758458465286, ,0.00013703072230873367, ,0.20795002810424337,-0.21220525391794107,0.10651874188000002,1.6720676093455973,0.5641721075315036,-1.2191667352289095, ,0.07356352058796184,0.06330683226048751,0.040022139497487445,-0.0485185001131187,0.034238131313757664,-0.04745270489331482, ,1.4035840034484863
0.015143798570861363,0.02124980947364867,-0.09521782092059104, ,0.01600685058364821,0.02087759886954489,-0.09648188029337608, ,0.0015751970062530042, ,0.015055626353184562,0.0020947766858330106,-0.03842626350252328,-0.02549805780118907,-0.04910269284287215,0.024203329720974928, ,0.04132357318789807, ,0.05532758458465286, ,0.00013947243077043868, ,0.20795002810424337,-0.21220525391794107,0.10651874188000002,1.6720676093455973,0.5641721075315036,-1.2191667352289095, ,0.07356352058796184,0.06330683226048751,0.040022139497487445,-0.0485185001131187,0.034238131313757664,-0.04745270489331482, ,1.4059488773345947
0.015287496999445664,0.021265102293798965,-0.09558038363710993, ,0.01607292143566531,0.02088396894393825,-0.09664480234430509, ,0.0013766413329600474, ,0.014809866746231234,0.0013604813464047133,-0.03698272538689994,0.037320755467915925,0.026852574599589583,-0.03692917954329227, ,0.03986107173142606, ,0.04597641100707456, ,0.00014156932721482785, ,0.20870685592591737,-0.211548821623632,0.10689855485000001,1.6718579194021128,0.5651285630298617,-1.2202733755153465, ,0.07875264859624131,0.07024199967318341,0.03875623240875913,0.008553248943361805,0.1035595620816303,-0.10551268361088723, ,1.4082679748535156
0.015287496999445664,0.021265102293798965,-0.09558038363710993, ,0.016138852771557317,0.02089027530797335,-0.09680683826891681, ,0.0015393157193673778, ,0.014809866746231234,0.0013604813464047133,-0.03698272538689994,0.037320755467915925,0.026852574599589583,-0.03692917954329227, ,0.03986107173142606, ,0.04597641100707456, ,0.0007876409145936651, ,0.20870685592591737,-0.211548821623632,0.10689855485000001,1.6718579194021128,0.5651285630298617,-1.2202733755153465, ,0.07875264859624131,0.07024199967318341,0.03875623240875913,0.008553248943361805,0.1035595620816303,-0.10551268361088723, ,1.41056489944458
0.015287496999445664,0.021265102293798965,-0.09558038363710993, ,0.016204644631885645,0.020896518137676623,-0.0969679903491735, ,0.001703662656513479, ,0.014809866746231234,0.0013604813464047133,-0.03698272538689994,0.037320755467915925,0.026852574599589583,-0.03692917954329227, ,0.03986107173142606, ,0.04597641100707456, ,0.0007960447837855899, ,0.20870685592591737,-0.211548821623632,0.10689855485000001,1.6718579194021128,0.5651285630298617,-1.2202733755153465, ,0.07875264859624131,0.07024199967318341,0.03875623240875913,0.008553248943361805,0.1035595620816303,-0.10551268361088723, ,1.4129278659820557
0.015287496999445664,0.021265102293798965,-0.09558038363710993, ,0.016270297058037807,0.020902697609247994,-0.0971282608641135, ,0.001868998935374088, ,0.014809866746231234,0.0013604813464047133,-0.03698272538689994,0.037320755467915925,0.026852574599589583,-0.03692917954329227, ,0.03986107173142606, ,0.04597641100707456, ,0.0008057989124363945, ,0.20870685592591737,-0.211548821623632,0.10689855485000001,1.6718579194021128,0.5651285630298617,-1.2202733755153465, ,0.07875264859624131,0.07024199967318341,0.03875623240875913,0.008553248943361805,0.1035595620816303,-0.10551268361088723, ,1.4152629375457764
0.015287496999445664,0.021265102293798965,-0.09558038363710993, ,0.016335810092226608,0.02090881389906127,-0.09728765208985277, ,0.0020348629758417747, ,0.014809866746231234,0.0013604813464047133,-0.03698272538689994,0.037320755467915925,0.026852574599589583,-0.03692917954329227, ,0.03986107173142606, ,0.04597641100707456, ,0.0008168715616562629, ,0.20870685592591737,-0.211548821623632,0.10689855485000001,1.6718579194021128,0.5651285630298617,-1.2202733755153465, ,0.07875264859624131,0.07024199967318341,0.03875623240875913,0.008553248943361805,0.1035595620816303,-0.10551268361088723, ,1.4177169799804688
0.015439150479501977,0.0212824197292139,-0.09595854165513705, ,0.01640118377748846,0.020914867183662988,-0.09744616629958686, ,0.0018093175572436464, ,0.01726107458715896,0.0024558585591961347,-0.04398578782344075,0.03761426750290005,0.019500823591208694,-0.025302667629401653, ,0.04731517164308918, ,0.04236685721719479, ,0.0008257326866168644, ,0.2095022974119625,-0.210861498397826,0.10729521959,1.6720676093455973,0.5660850185282198,-1.221134979581362, ,0.08827622470555421,0.07367774965719781,0.04617046817391306,-0.005769962066916604,0.1087034557400019,-0.11220572046535882, ,1.4214189052581787
0.015439150479501977,0.0212824197292139,-0.09595854165513705, ,0.016466418157681528,0.020920857639771303,-0.09760380576359139, ,0.00197304333802442, ,0.01726107458715896,0.0024558585591961347,-0.04398578782344075,0.03761426750290005,0.019500823591208694,-0.025302667629401653, ,0.04731517164308918, ,0.04236685721719479, ,0.0008358858782222411, ,0.2095022974119625,-0.210861498397826,0.10729521959,1.6720676093455973,0.5660850185282198,-1.221134979581362, ,0.08827622470555421,0.07367774965719781,0.04617046817391306,-0.005769962066916604,0.1087034557400019,-0.11220572046535882, ,1.4236738681793213
0.015439150479501977,0.0212824197292139,-0.09595854165513705, ,0.016531513277485126,0.020926785444276338,-0.09776057274922523, ,0.0021370653455384235, ,0.01726107458715896,0.0024558585591961347,-0.04398578782344075,0.03761426750290005,0.019500823591208694,-0.025302667629401653, ,0.04731517164308918, ,0.04236685721719479, ,0.0008472997331986988, ,0.2095022974119625,-0.210861498397826,0.10729521959,1.6720676093455973,0.5660850185282198,-1.221134979581362, ,0.08827622470555421,0.07367774965719781,0.04617046817391306,-0.005769962066916604,0.1087034557400019,-0.11220572046535882, ,1.4259140491485596
0.015439150479501977,0.0212824197292139,-0.09595854165513705, ,0.016596469182397627,0.020932650774238674,-0.09791646952092996, ,0.002301131554167407, ,0.01726107458715896,0.0024558585591961347,-0.04398578782344075,0.03761426750290005,0.019500823591208694,-0.025302667629401653, ,0.04731517164308918, ,0.04236685721719479, ,0.0008599417490332093, ,0.2095022974119625,-0.210861498397826,0.10729521959,1.6720676093455973,0.5660850185282198,-1.221134979581362, ,0.08827622470555421,0.07367774965719781,0.04617046817391306,-0.005769962066916604,0.1087034557400019,-0.11220572046535882, ,1.428191900253296
0.015664757235446265,0.02132405161516428,-0.09654474017249774, ,0.01666128591873503,0.020938453806888628,-0.09807149834023322, ,0.0018635304100312483, ,0.01981125817830536,0.003951017201294521,-0.05214969867639637,0.0029587580437611272,-0.0434492919714711,0.004985297757810856, ,0.05592573253495508, ,0.04354548786791592, ,0.0008685933754211234, ,0.21059120274722815,-0.2100042750487871,0.10790966105000001,1.6714385395151437,0.5670414740265779,-1.2222416198677992, ,0.09124705919083728,0.07384975996768155,0.054550724383561656,-0.040433938226871115,0.0552092230865947,-0.08607710804130553, ,1.4303898811340332
0.015664757235446265,0.02132405161516428,-0.09654474017249774, ,0.01672596353363,0.020944194719626354,-0.0982256614657487, ,0.0020238444758669074, ,0.01981125817830536,0.003951017201294521,-0.05214969867639637,0.0029587580437611272,-0.0434492919714711,0.004985297757810856, ,0.05592573253495508, ,0.04354548786791592, ,0.0008784673164505746, ,0.21059120274722815,-0.2100042750487871,0.10790966105000001,1.6714385395151437,0.5670414740265779,-1.2222416198677992, ,0.09124705919083728,0.07384975996768155,0.054550724383561656,-0.040433938226871115,0.0552092230865947,-0.08607710804130553, ,1.4326090812683105
0.015664757235446265,0.02132405161516428,-0.09654474017249774, ,0.016790502075029745,0.020949873690020066,-0.09837896115317858, ,0.0021844168946160087, ,0.01981125817830536,0.003951017201294521,-0.05214969867639637,0.0029587580437611272,-0.0434492919714711,0.004985297757810856, ,0.05592573253495508, ,0.04354548786791592, ,0.0008895346857570614, ,0.21059120274722815,-0.2100042750487871,0.10790966105000001,1.6714385395151437,0.5670414740265779,-1.2222416198677992, ,0.09124705919083728,0.07384975996768155,0.054550724383561656,-0.040433938226871115,0.0552092230865947,-0.08607710804130553, ,1.4348368644714355
0.015664757235446265,0.02132405161516428,-0.09654474017249774, ,0.016854901591695157,0.020955490895806263,-0.09853139965531489, ,0.0023450152437099617, ,0.01981125817830536,0.003951017201294521,-0.05214969867639637,0.0029587580437611272,-0.0434492919714711,0.004985297757810856, ,0.05592573253495508, ,0.04354548786791592, ,0.0009017656148154891, ,0.21059120274722815,-0.2100042750487871,0.10790966105000001,1.6714385395151437,0.5670414740265779,-1.2222416198677992, ,0.09124705919083728,0.07384975996768155,0.054550724383561656,-0.040433938226871115,0.0552092230865947,-0.08607710804130553, ,1.4370920658111572
0.015664757235446265,0.02132405161516428,-0.09654474017249774, ,0.016919162133199203,0.02096104651488886,-0.09868297922204049, ,0.0025054681365609083, ,0.023036603760879952,0.006172702386817919,-0.06980844271468807,0.05277734964032431,0.04740233007917124,0.0471408338844278, ,0.07376995351660391, ,0.07092793316406952, ,0.000915129802496701, ,0.2114561488291413,-0.20923972449423886,0.10850206558000001,1.6705997797412053,0.5681345660247014,-1.223296320577652, ,0.09285415025290683,0.08682245339292843,0.07306794275229357,-0.09013279849249486,0.15852947182684646,-0.15800738820377233, ,1.4394659996032715
0.015863782096245848,0.021368129862841645,-0.09711102478956321, ,0.01698328374992538,0.02096654072533821,-0.09883370210033138, ,0.0020933644940591225, ,0.023036603760879952,0.006172702386817919,-0.06980844271468807,0.05277734964032431,0.04740233007917124,0.0471408338844278, ,0.07376995351660391, ,0.07092793316406952, ,0.0009248672792864731, ,0.2114561488291413,-0.20923972449423886,0.10850206558000001,1.6705997797412053,0.5681345660247014,-1.223296320577652, ,0.09285415025290683,0.08682245339292843,0.07306794275229357,-0.09013279849249486,0.15852947182684646,-0.15800738820377233, ,1.441917896270752
0.015863782096245848,0.021368129862841645,-0.09711102478956321, ,0.01704726649306629,0.0209719737053906,-0.0989835705342574, ,0.0022503338829107386, ,0.023036603760879952,0.006172702386817919,-0.06980844271468807,0.05277734964032431,0.04740233007917124,0.0471408338844278, ,0.07376995351660391, ,0.07092793316406952, ,0.000935731759644049, ,0.2114561488291413,-0.20923972449423886,0.10850206558000001,1.6705997797412053,0.5681345660247014,-1.223296320577652, ,0.09285415025290683,0.08682245339292843,0.07306794275229357,-0.09013279849249486,0.15852947182684646,-0.15800738820377233, ,1.444108009338379
0.015863782096245848,0.021368129862841645,-0.09711102478956321, ,0.01711111041462223,0.02097734563344759,-0.09913258676498436, ,0.0024073331859623065, ,0.023036603760879952,0.006172702386817919,-0.06980844271468807,0.05277734964032431,0.04740233007917124,0.0471408338844278, ,0.07376995351660391, ,0.07092793316406952, ,0.0009476959988824089, ,0.2114561488291413,-0.20923972449423886,0.10850206558000001,1.6705997797412053,0.5681345660247014,-1.223296320577652, ,0.09285415025290683,0.08682245339292843,0.07306794275229357,-0.09013279849249486,0.15852947182684646,-0.15800738820377233, ,1.4463438987731934
0.015863782096245848,0.021368129862841645,-0.09711102478956321, ,0.017174815567399762,0.02098265668807524,-0.09928075303077477, ,0.0025641994796936885, ,0.023036603760879952,0.006172702386817919,-0.06980844271468807,0.05277734964032431,0.04740233007917124,0.0471408338844278, ,0.07376995351660391, ,0.07092793316406952, ,0.0009607323172760483, ,0.2114561488291413,-0.20923972449423886,0.10850206558000001,1.6705997797412053,0.5681345660247014,-1.223296320577652, ,0.09285415025290683,0.08682245339292843,0.07306794275229357,-0.09013279849249486,0.15852947182684646,-0.15800738820377233, ,1.4485290050506592
0.016132917864868385,0.021455533621300628,-0.09794823089648817, ,0.01723838200501033,0.020987907048003615,-0.09942807156699025, ,0.0019054275077434251, ,0.02674902682435708,0.00913122554625526,-0.08253880323362313,0.08254868273641103,0.04513229307225176,-0.012623187050067815, ,0.08724416172596029, ,0.09406050227108283, ,0.0009682898787997874, ,0.2124060449726709,-0.20835933294657727,0.10932002457000001,1.670390089797721,0.5699108405216521,-1.2250714682862676, ,0.09844081074530164,0.08595737460006411,0.08563877161290323,-0.038503354308523606,0.151503275845246,-0.17840409924821385, ,1.4507160186767578
0.016132917864868385,0.021455533621300628,-0.09794823089648817, ,0.017301809781868724,0.020993096892126084,-0.09957454460609255, ,0.002055493207034636, ,0.02674902682435708,0.00913122554625526,-0.08253880323362313,0.08254868273641103,0.04513229307225176,-0.012623187050067815, ,0.08724416172596029, ,0.09406050227108283, ,0.0009769184766429211, ,0.2124060449726709,-0.20835933294657727,0.10932002457000001,1.670390089797721,0.5699108405216521,-1.2250714682862676, ,0.09844081074530164,0.08595737460006411,0.08563877161290323,-0.038503354308523606,0.151503275845246,-0.17840409924821385, ,1.4558460712432861
0.016132917864868385,0.021455533621300628,-0.09794823089648817, ,0.017365098953191584,0.02099822639949811,-0.09972017437764477, ,0.0022061694925701977, ,0.02674902682435708,0.00913122554625526,-0.08253880323362313,0.08254868273641103,0.04513229307225176,-0.012623187050067815, ,0.08724416172596029, ,0.09406050227108283, ,0.000986597618500616, ,0.2124060449726709,-0.20835933294657727,0.10932002457000001,1.670390089797721,0.5699108405216521,-1.2250714682862676, ,0.09844081074530164,0.08595737460006411,0.08563877161290323,-0.038503354308523606,0.151503275845246,-0.17840409924821385, ,1.4582419395446777
0.016392232547124574,0.021538317765519614,-0.09871518166477215, ,0.01742824957499626,0.021003295749337805,-0.09986496310831347, ,0.0016375522000080735, ,0.02789960448814003,0.008294665509090034,-0.08036510118190658,0.018975372623233115,-0.01253931049070303,-0.013624093665532236, ,0.08547361519486825, ,0.022670395131948556, ,0.000991683201168643, ,0.21348722757506233,-0.20746349593316724,0.11018465000000001,1.670390089797721,0.571140569019541,-1.2264009443800976, ,0.11034528088194276,0.08927275781605906,0.08427942603174604,-0.024095196451010752,0.1021144714338318,-0.11321892066669949, ,1.4607229232788086
0.016392232547124574,0.021538317765519614,-0.09871518166477215, ,0.01749126170409886,0.02100830512102359,-0.10000891302186954, ,0.0017783473551424994, ,0.02789960448814003,0.008294665509090034,-0.08036510118190658,0.018975372623233115,-0.01253931049070303,-0.013624093665532236, ,0.08547361519486825, ,0.022670395131948556, ,0.0009977813729048746, ,0.21348722757506233,-0.20746349593316724,0.11018465000000001,1.670390089797721,0.571140569019541,-1.2264009443800976, ,0.11034528088194276,0.08927275781605906,0.08427942603174604,-0.024095196451010752,0.1021144714338318,-0.11321892066669949, ,1.4630990028381348
0.016392232547124574,0.021538317765519614,-0.09871518166477215, ,0.017554135398113294,0.021013254694094912,-0.10015202633919014, ,0.0019209976789452366, ,0.02789960448814003,0.008294665509090034,-0.08036510118190658,0.018975372623233115,-0.01253931049070303,-0.013624093665532236, ,0.08547361519486825, ,0.022670395131948556, ,0.0010048830367974928, ,0.21348722757506233,-0.20746349593316724,0.11018465000000001,1.670390089797721,0.571140569019541,-1.2264009443800976, ,0.11034528088194276,0.08927275781605906,0.08427942603174604,-0.024095196451010752,0.1021144714338318,-0.11321892066669949, ,1.4653699398040771
0.016392232547124574,0.021538317765519614,-0.09871518166477215, ,0.017616870715449828,0.021018144648251382,-0.1002943052782602, ,0.0020649334376495404, ,0.02789960448814003,0.008294665509090034,-0.08036510118190658,0.018975372623233115,-0.01253931049070303,-0.013624093665532236, ,0.08547361519486825, ,0.022670395131948556, ,0.0010129750245902566, ,0.21348722757506233,-0.20746349593316724,0.11018465000000001,1.670390089797721,0.571140569019541,-1.2264009443800976, ,0.11034528088194276,0.08927275781605906,0.08427942603174604,-0.024095196451010752,0.1021144714338318,-0.11321892066669949, ,1.4676179885864258
0.016666888702301853,0.021607682994251066,-0.09946735372270636, ,0.01767946771531292,0.02102297516335077,-0.10043575205417327, ,0.0015182209435699676, ,0.027160187496368192,0.005099686306536919,-0.0704631591236188,-0.009061696919331447,-0.06227431824909739,-0.041438440402393806, ,0.07568843623000397, ,0.06291635734464608, ,0.0010168026451885877, ,0.21462246930757334,-0.20655221345400873,0.11097279432000001,1.6701803998542366,0.5718237515183683,-1.2272030701190013, ,0.11862117694808846,0.099368525192116,0.07374449777777779,0.0,0.05511341283129138,-0.09108942844608012, ,1.4698410034179688
0.016666888702301853,0.021607682994251066,-0.09946735372270636, ,0.017741926457700997,0.021027746419410465,-0.10057636887913407, ,0.0016498324834836576, ,0.027160187496368192,0.005099686306536919,-0.0704631591236188,-0.009061696919331447,-0.06227431824909739,-0.041438440402393806, ,0.07568843623000397, ,0.06291635734464608, ,0.0010215622680329116, ,0.21462246930757334,-0.20655221345400873,0.11097279432000001,1.6701803998542366,0.5718237515183683,-1.2272030701190013, ,0.11862117694808846,0.099368525192116,0.07374449777777779,0.0,0.05511341283129138,-0.09108942844608012, ,1.4720940589904785
0.016666888702301853,0.021607682994251066,-0.09946735372270636, ,0.01780424700340375,0.02103245859660473,-0.10071615796245864, ,0.0017843707691946355, ,0.027160187496368192,0.005099686306536919,-0.0704631591236188,-0.009061696919331447,-0.06227431824909739,-0.041438440402393806, ,0.07568843623000397, ,0.06291635734464608, ,0.0010272548687878498, ,0.21462246930757334,-0.20655221345400873,0.11097279432000001,1.6701803998542366,0.5718237515183683,-1.2272030701190013, ,0.11862117694808846,0.099368525192116,0.07374449777777779,0.0,0.05511341283129138,-0.09108942844608012, ,1.474379062652588
0.016666888702301853,0.021607682994251066,-0.09946735372270636, ,0.017866429414001444,0.021037111875265288,-0.10085512151057732, ,0.001921028046098678, ,0.027160187496368192,0.005099686306536919,-0.0704631591236188,-0.009061696919331447,-0.06227431824909739,-0.041438440402393806, ,0.07568843623000397, ,0.06291635734464608, ,0.001033875410842004, ,0.21462246930757334,-0.20655221345400873,0.11097279432000001,1.6701803998542366,0.5718237515183683,-1.2272030701190013, ,0.11862117694808846,0.099368525192116,0.07374449777777779,0.0,0.05511341283129138,-0.09108942844608012, ,1.4766578674316406
0.016666888702301853,0.021607682994251066,-0.09946735372270636, ,0.01792847375186356,0.021041706435880665,-0.10099326172703502, ,0.002059204103428478, ,0.027160187496368192,0.005099686306536919,-0.0704631591236188,-0.009061696919331447,-0.06227431824909739,-0.041438440402393806, ,0.07568843623000397, ,0.06291635734464608, ,0.0010414145924051398, ,0.21462246930757334,-0.20655221345400873,0.11097279432000001,1.6701803998542366,0.5718237515183683,-1.2272030701190013, ,0.11862117694808846,0.099368525192116,0.07374449777777779,0.0,0.05511341283129138,-0.09108942844608012, ,1.4788808822631836
0.01694779135095447,0.021639735301703458,-0.10015442096069026, ,0.01799038008014696,0.02104624245909492,-0.10113058081249343, ,0.0015466457476549574, ,0.026841442129870753,0.0018787284555685738,-0.06166947007850589,-0.03208118180968549,-0.05799567735798818,0.05009452862347835, ,0.06728384780900017, ,0.06627072390432164, ,0.0010451024110565983, ,0.21595077936193996,-0.20545558538586886,0.11169223527000001,1.6693416400802985,0.5726435705169609,-1.228034935021461, ,0.13576100366018712,0.10722818255194438,0.06475126634146343,-0.08879216272065968,0.09561316056630804,-0.09232403387290655, ,1.4818708896636963
0.01694779135095447,0.021639735301703458,-0.10015442096069026, ,0.018052148462794477,0.021050720125707086,-0.10126708096473226, ,0.001674680803204118, ,0.026841442129870753,0.0018787284555685738,-0.06166947007850589,-0.03208118180968549,-0.05799567735798818,0.05009452862347835, ,0.06728384780900017, ,0.06627072390432164, ,0.0010496645733185368, ,0.21595077936193996,-0.20545558538586886,0.11169223527000001,1.6693416400802985,0.5726435705169609,-1.228034935021461, ,0.13576100366018712,0.10722818255194438,0.06475126634146343,-0.08879216272065968,0.09561316056630804,-0.09232403387290655, ,1.48415207862854
0.01694779135095447,0.021639735301703458,-0.10015442096069026, ,0.01811377896453378,0.021055139616670892,-0.10140276437865046, ,0.0018054474567662277, ,0.026841442129870753,0.0018787284555685738,-0.06166947007850589,-0.03208118180968549,-0.05799567735798818,0.05009452862347835, ,0.06728384780900017, ,0.06627072390432164, ,0.001055101860249815, ,0.21595077936193996,-0.20545558538586886,0.11169223527000001,1.6693416400802985,0.5726435705169609,-1.228034935021461, ,0.13576100366018712,0.10722818255194438,0.06475126634146343,-0.08879216272065968,0.09561316056630804,-0.09232403387290655, ,1.486382007598877
0.01694779135095447,0.021639735301703458,-0.10015442096069026, ,0.01817527165087566,0.02105950111309372,-0.10153763324626819, ,0.0019382094384508438, ,0.026841442129870753,0.0018787284555685738,-0.06166947007850589,-0.03208118180968549,-0.05799567735798818,0.05009452862347835, ,0.06728384780900017, ,0.06627072390432164, ,0.0010614097715226796, ,0.21595077936193996,-0.20545558538586886,0.11169223527000001,1.6693416400802985,0.5726435705169609,-1.228034935021461, ,0.13576100366018712,0.10722818255194438,0.06475126634146343,-0.08879216272065968,0.09561316056630804,-0.09232403387290655, ,1.488619089126587
0.01716814107631221,0.021649533917549688,-0.10064409898256976, ,0.01823662658811244,0.021063804796235697,-0.10167168975672798, ,0.001593951910070483, ,0.02543870533398584,0.0006302084762259087,-0.05419179961375219,0.017125442321077707,-0.007637209458179911,0.01884916525702901, ,0.059868823582645565, ,0.01873873969694472, ,0.0010651866661223095, ,0.21711691202594788,-0.20455202563958458,0.11220815869000002,1.6687125702498449,0.5737366625150844,-1.2290896357313135, ,0.14017273494604252,0.10474276110206487,0.057297883165467633,-0.05983362424189421,0.1443974657838479,-0.13328862030925098, ,1.4909939765930176
0.01716814107631221,0.021649533917549688,-0.10064409898256976, ,0.018297843843317306,0.02106805084751009,-0.10180493609629601, ,0.0017210153128679388, ,0.02543870533398584,0.0006302084762259087,-0.05419179961375219,0.017125442321077707,-0.007637209458179911,0.01884916525702901, ,0.059868823582645565, ,0.01873873969694472, ,0.0010698051777191097, ,0.21711691202594788,-0.20455202563958458,0.11220815869000002,1.6687125702498449,0.5737366625150844,-1.2290896357313135, ,0.14017273494604252,0.10474276110206487,0.057297883165467633,-0.05983362424189421,0.1443974657838479,-0.13328862030925098, ,1.4934310913085938
0.01716814107631221,0.021649533917549688,-0.10064409898256976, ,0.018358923484341847,0.02107223944848133,-0.10193737444836469, ,0.0018503494474603596, ,0.02543870533398584,0.0006302084762259087,-0.05419179961375219,0.017125442321077707,-0.007637209458179911,0.01884916525702901, ,0.059868823582645565, ,0.01873873969694472, ,0.0010752635292557617, ,0.21711691202594788,-0.20455202563958458,0.11220815869000002,1.6687125702498449,0.5737366625150844,-1.2290896357313135, ,0.14017273494604252,0.10474276110206487,0.057297883165467633,-0.05983362424189421,0.1443974657838479,-0.13328862030925098, ,1.4958598613739014
0.01716814107631221,0.021649533917549688,-0.10064409898256976, ,0.018419865579815356,0.021076370780865245,-0.102069006993453, ,0.001981336178795355, ,0.02543870533398584,0.0006302084762259087,-0.05419179961375219,0.017125442321077707,-0.007637209458179911,0.01884916525702901, ,0.059868823582645565, ,0.01873873969694472, ,0.00108155570043312, ,0.21711691202594788,-0.20455202563958458,0.11220815869000002,1.6687125702498449,0.5737366625150844,-1.2290896357313135, ,0.14017273494604252,0.10474276110206487,0.057297883165467633,-0.05983362424189421,0.1443974657838479,-0.13328862030925098, ,1.4984018802642822
0.017468211116326612,0.021638413067478265,-0.10123244226402976, ,0.01848067019914309,0.02108044502652787,-0.10219983590920781, ,0.0015073991488091236, ,0.02498898912705599,-0.0018154935388206498,-0.04591536235310117,0.004462249370055849,-0.016301948764196324,-0.051874698290255525, ,0.052306463218212355, ,0.016895594923584917, ,0.0010844925518012304, ,0.21886997238839684,-0.20322371558521798,0.11283167418000001,1.6685028803063602,0.5755129370120351,-1.230701425959648, ,0.15015338854188412,0.11392189862961677,0.04871196183486239,0.016100761432898732,0.1305448742588875,-0.11292098741576588, ,1.5009410381317139
0.017468211116326612,0.021638413067478265,-0.10123244226402976, ,0.01854133741250477,0.02108446236748514,-0.10232986337040635, ,0.0016318071302371315, ,0.02498898912705599,-0.0018154935388206498,-0.04591536235310117,0.004462249370055849,-0.016301948764196324,-0.051874698290255525, ,0.052306463218212355, ,0.016895594923584917, ,0.0010882412817905176, ,0.21886997238839684,-0.20322371558521798,0.11283167418000001,1.6685028803063602,0.5755129370120351,-1.230701425959648, ,0.15015338854188412,0.11392189862961677,0.04871196183486239,0.016100761432898732,0.1305448742588875,-0.11292098741576588, ,1.5032260417938232
0.017468211116326612,0.021638413067478265,-0.10123244226402976, ,0.018601867290853297,0.02108842298590177,-0.10245909154895744, ,0.0017585033068176399, ,0.02498898912705599,-0.0018154935388206498,-0.04591536235310117,0.004462249370055849,-0.016301948764196324,-0.051874698290255525, ,0.052306463218212355, ,0.016895594923584917, ,0.001092800887402947, ,0.21886997238839684,-0.20322371558521798,0.11283167418000001,1.6685028803063602,0.5755129370120351,-1.230701425959648, ,0.15015338854188412,0.11392189862961677,0.04871196183486239,0.016100761432898732,0.1305448742588875,-0.11292098741576588, ,1.5054659843444824
0.017468211116326612,0.021638413067478265,-0.10123244226402976, ,0.018662259905913282,0.021092327064091136,-0.10258752261390211, ,0.001886850600768085, ,0.02498898912705599,-0.0018154935388206498,-0.04591536235310117,0.004462249370055849,-0.016301948764196324,-0.051874698290255525, ,0.052306463218212355, ,0.016895594923584917, ,0.0010981660881689277, ,0.21886997238839684,-0.20322371558521798,0.11283167418000001,1.6685028803063602,0.5755129370120351,-1.230701425959648, ,0.15015338854188412,0.11392189862961677,0.04871196183486239,0.016100761432898732,0.1305448742588875,-0.11292098741576588, ,1.50773286819458
0.017699263479487734,0.02162087188028508,-0.10166161533888679, ,0.01872251533017966,0.02109617478451432,-0.1027151587314163, ,0.0015595849038116897, ,0.025430075393022774,-0.001775957115940668,-0.04827710763863229,-0.010109188849000632,-0.027263894505328498,-0.047970231396939296, ,0.0545941560986574, ,0.029073241965552308, ,0.0011012628587437113, ,0.2202446188400088,-0.20216570118144922,0.11328667197000002,1.6685028803063602,0.576742665509924,-1.231704187092916, ,0.14712704117592368,0.11730153468290579,0.05056765561904762,0.012317877496947578,0.11714815301275784,-0.1019968595274532, ,1.510124921798706
0.017699263479487734,0.02162087188028508,-0.10166161533888679, ,0.01878263363691609,0.021099966329779382,-0.10284200206481174, ,0.0016847392419284976, ,0.025430075393022774,-0.001775957115940668,-0.04827710763863229,-0.010109188849000632,-0.027263894505328498,-0.047970231396939296, ,0.0545941560986574, ,0.029073241965552308, ,0.0011051527012982767, ,0.2202446188400088,-0.20216570118144922,0.11328667197000002,1.6685028803063602,0.576742665509924,-1.231704187092916, ,0.14712704117592368,0.11730153468290579,0.05056765561904762,0.012317877496947578,0.11714815301275784,-0.1019968595274532, ,1.5123600959777832
0.017699263479487734,0.02162087188028508,-0.10166161533888679, ,0.01884261490015355,0.021103701882640692,-0.10296805477453724, ,0.0018114914508836934, ,0.025430075393022774,-0.001775957115940668,-0.04827710763863229,-0.010109188849000632,-0.027263894505328498,-0.047970231396939296, ,0.0545941560986574, ,0.029073241965552308, ,0.0011098304413617562, ,0.2202446188400088,-0.20216570118144922,0.11328667197000002,1.6685028803063602,0.576742665509924,-1.231704187092916, ,0.14712704117592368,0.11730153468290579,0.05056765561904762,0.012317877496947578,0.11714815301275784,-0.1019968595274532, ,1.5145900249481201
0.017699263479487734,0.02162087188028508,-0.10166161533888679, ,0.018902459194688925,0.02110738162599823,-0.10309331901818031, ,0.001939362677693028, ,0.025430075393022774,-0.001775957115940668,-0.04827710763863229,-0.010109188849000632,-0.027263894505328498,-0.047970231396939296, ,0.0545941560986574, ,0.029073241965552308, ,0.0011152878902849883, ,0.2202446188400088,-0.20216570118144922,0.11328667197000002,1.6685028803063602,0.576742665509924,-1.231704187092916, ,0.14712704117592368,0.11730153468290579,0.05056765561904762,0.012317877496947578,0.11714815301275784,-0.1019968595274532, ,1.5168089866638184
0.017699263479487734,0.02162087188028508,-0.10166161533888679, ,0.018962166596083817,0.021111005742897447,-0.10321779695046931, ,0.002067991530009315, ,0.025430075393022774,-0.001775957115940668,-0.04827710763863229,-0.010109188849000632,-0.027263894505328498,-0.047970231396939296, ,0.0545941560986574, ,0.029073241965552308, ,0.0011215147114596571, ,0.2202446188400088,-0.20216570118144922,0.11328667197000002,1.6685028803063602,0.576742665509924,-1.231704187092916, ,0.14712704117592368,0.11730153468290579,0.05056765561904762,0.012317877496947578,0.11714815301275784,-0.1019968595274532, ,1.5190179347991943
0.01797734568940571,0.021606556074468604,-0.10219892323000838, ,0.019021737180662548,0.021114574416527563,-0.10334149072327353, ,0.0016242721494338023, ,0.026978347183683134,-0.0011901128330362373,-0.053455855115526786,-0.04969967353864989,-0.07026993454618188,-0.03397537733757602, ,0.05988969887594103, ,0.08606674595251551, ,0.0011247793701478009, ,0.2217891654148537,-0.20092234118869906,0.11385315070000002,1.6687125702498449,0.5775624845085168,-1.2323726945150943, ,0.14599529470533967,0.11966827434863908,0.05628555307420496,0.0,0.07566357687832391,-0.06754173904054732, ,1.5212409496307373
0.01797734568940571,0.021606556074468604,-0.10219892323000838, ,0.019081171025511226,0.021118087830221875,-0.10346440248560594, ,0.0017488480050060634, ,0.026978347183683134,-0.0011901128330362373,-0.053455855115526786,-0.04969967353864989,-0.07026993454618188,-0.03397537733757602, ,0.05988969887594103, ,0.08606674595251551, ,0.001128805619404951, ,0.2217891654148537,-0.20092234118869906,0.11385315070000002,1.6687125702498449,0.5775624845085168,-1.2323726945150943, ,0.14599529470533967,0.11966827434863908,0.05628555307420496,0.0,0.07566357687832391,-0.06754173904054732, ,1.5235710144042969
0.01797734568940571,0.021606556074468604,-0.10219892323000838, ,0.019140468208476154,0.02112154616745658,-0.10358653438362454, ,0.001874447470031784, ,0.026978347183683134,-0.0011901128330362373,-0.053455855115526786,-0.04969967353864989,-0.07026993454618188,-0.03397537733757602, ,0.05988969887594103, ,0.08606674595251551, ,0.0011335853748576873, ,0.2217891654148537,-0.20092234118869906,0.11385315070000002,1.6687125702498449,0.5775624845085168,-1.2323726945150943, ,0.14599529470533967,0.11966827434863908,0.05628555307420496,0.0,0.07566357687832391,-0.06754173904054732, ,1.525770902633667
0.01797734568940571,0.021606556074468604,-0.10219892323000838, ,0.01919962880816238,0.021124949611850394,-0.1037078885606328, ,0.0020007241629619067, ,0.026978347183683134,-0.0011901128330362373,-0.053455855115526786,-0.04969967353864989,-0.07026993454618188,-0.03397537733757602, ,0.05988969887594103, ,0.08606674595251551, ,0.0011391085518519817, ,0.2217891654148537,-0.20092234118869906,0.11385315070000002,1.6687125702498449,0.5775624845085168,-1.2323726945150943, ,0.14599529470533967,0.11966827434863908,0.05628555307420496,0.0,0.07566357687832391,-0.06754173904054732, ,1.5280320644378662
0.01797734568940571,0.021606556074468604,-0.10219892323000838, ,0.019258652903932062,0.021128298347163472,-0.10382846715708272, ,0.002127414402975872, ,0.026978347183683134,-0.0011901128330362373,-0.053455855115526786,-0.04969967353864989,-0.07026993454618188,-0.03397537733757602, ,0.05988969887594103, ,0.08606674595251551, ,0.0011453636521755505, ,0.2217891654148537,-0.20092234118869906,0.11385315070000002,1.6687125702498449,0.5775624845085168,-1.2323726945150943, ,0.14599529470533967,0.11966827434863908,0.05628555307420496,0.0,0.07566357687832391,-0.06754173904054732, ,1.5303940773010254
0.01824858745956667,0.021596075837771803,-0.10275701814616117, ,0.019317540575903104,0.021131592557296675,-0.10394827231057449, ,0.001666580921227165, ,0.027642872117259527,-0.0006087511945983507,-0.05801277687681172,-0.0026229639431740656,-0.007920943706330454,-0.020974831002288988, ,0.06426493007750674, ,0.00830446921916644, ,0.0011486417482073218, ,0.2232410391952079,-0.19971759486032004,0.11444166636000001,1.6682931903628757,0.5787922130064057,-1.2332937769082217, ,0.14577103157983223,0.12119660480009038,0.061264659692307696,-0.018964287101568635,0.14164068068599556,-0.12027523073200384, ,1.5361449718475342
0.01824858745956667,0.021596075837771803,-0.10275701814616117, ,0.01937629190494834,0.02113483242629213,-0.1040673061558599, ,0.0017892225879211497, ,0.027642872117259527,-0.0006087511945983507,-0.05801277687681172,-0.0026229639431740656,-0.007920943706330454,-0.020974831002288988, ,0.06426493007750674, ,0.00830446921916644, ,0.0011526453784555333, ,0.2232410391952079,-0.19971759486032004,0.11444166636000001,1.6682931903628757,0.5787922130064057,-1.2332937769082217, ,0.14577103157983223,0.12119660480009038,0.061264659692307696,-0.018964287101568635,0.14164068068599556,-0.12027523073200384, ,1.5384578704833984
0.018541090637146505,0.021585810020578407,-0.10336320976910912, ,0.01943490697269306,0.021138018138330796,-0.10418557082484249, ,0.0012944894427857, ,0.027382254786794107,-0.001192187935586835,-0.05553822169167677,-0.012225937448159733,-0.019801937482956486,0.04737241026422982, ,0.061933054647389255, ,0.023260736836286645, ,0.0011535263974886399, ,0.22479330850292703,-0.1984510666689472,0.11508203362000001,1.6674544305889376,0.5802952145038256,-1.2345193738488824, ,0.14735549931439562,0.11730153468290579,0.058777902287822884,-0.08993191578621,0.14525265928746856,-0.12244717124187975, ,1.5407788753509521
0.018541090637146505,0.021585810020578407,-0.10336320976910912, ,0.01949338586151432,0.02114114987773306,-0.10430306844657897, ,0.0014099372931461731, ,0.027382254786794107,-0.001192187935586835,-0.05553822169167677,-0.012225937448159733,-0.019801937482956486,0.04737241026422982, ,0.061933054647389255, ,0.023260736836286645, ,0.001155109180795168, ,0.22479330850292703,-0.1984510666689472,0.11508203362000001,1.6674544305889376,0.5802952145038256,-1.2345193738488824, ,0.14735549931439562,0.11730153468290579,0.058777902287822884,-0.08993191578621,0.14525265928746856,-0.12244717124187975, ,1.543017864227295
0.018541090637146505,0.021585810020578407,-0.10336320976910912, ,0.019551728654539084,0.021144227828957265,-0.1044198011472817, ,0.001527340621663926, ,0.027382254786794107,-0.001192187935586835,-0.05553822169167677,-0.012225937448159733,-0.019801937482956486,0.04737241026422982, ,0.061933054647389255, ,0.023260736836286645, ,0.0011573928092667555, ,0.22479330850292703,-0.1984510666689472,0.11508203362000001,1.6674544305889376,0.5802952145038256,-1.2345193738488824, ,0.14735549931439562,0.11730153468290579,0.058777902287822884,-0.08993191578621,0.14525265928746856,-0.12244717124187975, ,1.5452749729156494
