NicholasDascanio/dvrk_moveit_final/test/execution/third_experiment_notsharpbends/thirdexp_500vel4.0/thirdexp_500vel4.0_15.csv
Current Position (x),Current Position (y),Current Position (z), ,Planned Position (x),Planned Position (y),Planned Position (z), ,Position Error,,Cartesian linear Velocity(x),Cartesian linear Velocity(y),Cartesian linear Velocity(z),Cartesian Angular Velocity(x),Cartesian Angular Velocity(y),Cartesian Angular Velocity(z), ,Total Linear Velocity, ,Total Angular Velocity, ,MSE, ,Joint 1 Position,Joint 2 Position,Joint 3 Position,Joint 4 Position,Joint 5 Position,Joint 6 Position, ,Joint 1 Velocity,Joint 2 Velocity,Joint 3 Velocity,Joint 4 Velocity,Joint 5 Velocity,Joint 6 Velocity, ,Time Stamp
0.009908236108921656,0.020466854272944455,-0.07760329770393797, ,0.010053420098384364,0.020396077631274993,-0.07772039914114684, ,0.0001995005523769275, ,0.00016188441920782977,0.00010302941245170616,-0.0008726952178752844,0.26150045803280936,0.005118681385243598,-0.09471306223441016, ,0.0008935427064862598, ,0.26155055046872344, ,1.6625046031410624e-05, ,0.18468143395420492,-0.2493593217758352,0.08845494073000001,1.6940850534114722,0.523044521102106,-1.2789070674568086, ,0.0,0.001363669263723319,0.0008847931605282795,-0.0020173472270029256,0.0,-0.28034923793285493, ,0.02292609214782715
0.009922906230362884,0.020467340273968553,-0.07762676746419911, ,0.010079213977529642,0.020396227272166733,-0.0778441083614649, ,0.0002769950116408415, ,0.0008596362257847645,0.00010125154377533154,-0.001474376967455097,0.27978795709301363,-0.06353909390126997,-0.12246686758272683, ,0.0017096823558662734, ,0.28691203771900103, ,2.1658889273534952e-05, ,0.18468915668707914,-0.24931298537858984,0.08847438508000001,1.693875363467988,0.521814792604217,-1.2833767819129585, ,0.00018491556225758084,0.0027132417120521563,0.0012551224146537055,-0.0021547935608175316,-0.07165509766720282,-0.3069057204846284, ,0.04834294319152832
0.009958608310308793,0.020473691599793047,-0.07768376944797543, ,0.010105182861998203,0.020396340512436044,-0.07796781221747248, ,0.00032885800100015066, ,0.002309078905370823,0.0006325769524724066,-0.004465304290285639,-0.011804934047020876,-0.17689744022738318,-0.049700226127424973, ,0.005066649918523198, ,0.17729089323786454, ,2.5167298906809987e-05, ,0.18468915668707914,-0.2492357580498476,0.08852234781000001,1.693875363467988,0.5186721531096119,-1.287511826819467, ,0.00016316220853878003,0.00478403790627808,0.003990183246492986,-0.002125381516868248,-0.1833644816783265,-0.007615739073939531, ,0.07129788398742676
0.009989354622072837,0.02049099334586157,-0.0777841248705801, ,0.010131325905836994,0.02039641763239208,-0.07809150881737734, ,0.00035154701213429467, ,0.001529812995899743,0.0012158689130978282,-0.00689671106069482,0.4060000245061896,-0.020309038128248042,-0.1561149064656481, ,0.007168213757343715, ,0.4065076591075722, ,2.754525183695748e-05, ,0.18468915668707914,-0.24914308525535692,0.08862086585000001,1.693875363467988,0.5171691516121921,-1.2912686330273806, ,0.00014516560190271224,0.006489344699954899,0.007007836128464585,-0.002052643305143577,-0.028919269687600287,-0.4410429384836809, ,0.09381389617919922
0.010071166576314513,0.020510804820148703,-0.07797109482940337, ,0.010157642265160277,0.020396458911932917,-0.0782151962760925, ,0.00028308752668170824, ,0.0019973162159757207,0.000691954082609674,-0.005764179658965853,-0.3603853684383939,-0.1122319651228153,0.09197431755469669, ,0.00613953089900812, ,0.37745678927983584, ,2.7692078919883126e-05, ,0.18468915668707914,-0.2488573441390106,0.08879197613,1.6936656735245033,0.5112937821222782,-1.2956256820641774, ,0.0005535607676136621,0.008673093133499519,0.005523166269070736,-0.0010420544366933574,-0.10942858524719602,0.36425953973518244, ,0.11796903610229492
0.010071350778264368,0.020515380761595883,-0.07807150776692334, ,0.010184131098147498,0.020396464630545386,-0.07833887271522663, ,0.00031359920656497304, ,-0.0011362987273962892,1.3329083631168136e-05,-0.004219201688117912,-0.12753306427072786,0.2296903142560377,0.1112263569285085, ,0.004369555509130181, ,0.26272099829283135, ,2.828366629675638e-05, ,0.1847046021528276,-0.24859477122128698,0.08889956820000001,1.6934559835810188,0.513753239118056,-1.289790045277219, ,0.00022682980485646138,0.01445718183401444,0.004896652788195512,-0.0037916939548190043,0.24252337268781343,0.13900618002810805, ,0.14053010940551758
0.010074722819811168,0.02051482026015635,-0.07821422320653115, ,0.010210791565041146,0.02039643506730556,-0.0784625362630773, ,0.0003069024785922512, ,0.0012369537940025111,4.3936858477880384e-05,-0.004756942283496375,0.0780957277102388,-0.028811845577776485,-0.060320515349566776, ,0.004915331629152383, ,0.08324100629950128, ,2.861791373598815e-05, ,0.1847046021528276,-0.2481622981803304,0.08904864155000002,1.6928269137505652,0.5166226056131303,-1.2878825267675347, ,0.0007376715889999405,0.014765355773840172,0.0047463681525625745,0.015991029674848275,0.017080628267460003,-0.08328271606753151, ,0.16545701026916504
0.010096026783114557,0.02051164149530312,-0.07831324556388908, ,0.010237622828144706,0.020396370500878377,-0.07858618505462255, ,0.00032837906103418536, ,0.001137691807965734,3.754437805119152e-05,-0.005038410006131884,0.06774578185729899,-0.016937425974040767,-0.05366015224882791, ,0.005165397140600661, ,0.06983099136369153, ,2.913254695152844e-05, ,0.18471232488570183,-0.24782249793386452,0.08914456701000001,1.6928269137505652,0.5163493326135995,-1.2908451618256236, ,1.0818623163371095e-05,0.015695822288863837,0.004899665186096586,0.015991029674848275,-0.02334225498969869,-0.08720832888174283, ,0.1874229907989502
0.010121619965045068,0.02051252153342983,-0.07842604865729962, ,0.010264624051820399,0.02039627120951861,-0.0787098172315128, ,0.0003383620994657809, ,0.001344823765502097,0.0003526427896718,-0.006206774251946024,-0.019862792075747013,-0.01291225441236616,-0.02028245323603154, ,0.006360578158625745, ,0.02369085928881729, ,2.9643814668381665e-05, ,0.18472004761857605,-0.24758309321476354,0.08922104812000001,1.6928269137505652,0.5160760596140685,-1.2916024708999174, ,0.0007113953461043513,0.016182970934254907,0.0052657228165289265,0.015991029674848275,-0.019206441030212146,-0.058029052813785044, ,0.21129989624023438
0.010144802515161236,0.020517605442469073,-0.07854364234188374, ,0.010291794402487085,0.020396137471070077,-0.07883343094206324, ,0.00034689842289840114, ,0.0010698821654484163,2.4515412669795882e-05,-0.005343838782221659,-0.02896469545073498,-0.0033674913532044464,0.010637922390475828, ,0.005449941447738611, ,0.029159793830031446, ,3.0138523258720727e-05, ,0.18472777035145027,-0.24718151110530387,0.08937141776,1.6930366036940496,0.5158027866145377,-1.291134598872103, ,0.0009709799115320538,0.015498438928380006,0.005277936222664017,-0.00957644587634551,0.00018150231214288172,0.012788363921205264, ,0.23855090141296387
0.010170839795460827,0.020513619127177782,-0.07868152126885167, ,0.010319133048618262,0.02039596956296619,-0.07895702434124563, ,0.00033426673748625555, ,0.0008050117708782964,-0.0002569080775222176,-0.003976222467308614,-0.018812547624017267,-0.0027245281327670447,0.010719572112569537, ,0.004065020396145458, ,0.019008813762521646, ,3.070627126014207e-05, ,0.1847354930843245,-0.2467490380643473,0.08950623192000001,1.6924075338635962,0.5158027866145377,-1.2912979563523843, ,0.001003971114673647,0.014465997188791277,0.0038652782140257223,-0.012711041440250547,0.001486897374701939,0.0025915518009842157, ,0.25893592834472656
0.010187895594528262,0.020512784536317476,-0.07877196871740937, ,0.010346639160739753,0.0203957677622301,-0.07908059559068019, ,0.0003662553646518809, ,0.0010423669311003837,0.00014596482143747726,-0.005385090722993789,-0.01413843261397861,-0.0027672088481162376,0.009189179272712664, ,0.005486987939026537, ,0.014406690010564355, ,3.145542895439709e-05, ,0.18475093855007294,-0.246463296948001,0.08959567593000001,1.6924075338635962,0.5159394231143032,-1.29132769551594, ,0.0006288199302137625,0.013920631004616515,0.0053488285829415725,-0.012711041440250547,0.0009656479066407256,-0.0018459099764616556, ,0.2827129364013672
0.010211723681683063,0.02052106422496574,-0.07889613035264753, ,0.010374311911427698,0.02039553234547497,-0.07920414285862841, ,0.00037022275600049237, ,0.0011200704490826577,0.00028178775410667015,-0.00605513973674588,-0.014277304444134515,-0.001815204977212452,0.008563168918832636, ,0.006164306885675929, ,0.014392233431954426, ,3.213080798859026e-05, ,0.18475866128294716,-0.24618527856452893,0.08972011977000001,1.6924075338635962,0.5159394231143032,-1.29132769551594, ,5.872253067221305e-05,0.014317583216425886,0.006038215132676271,-0.01211277269997691,0.001205035438446142,-0.0019808255797163048, ,0.3024179935455322
0.010237064870924382,0.020527124400988632,-0.07901874119732996, ,0.010402150475306352,0.020395263588903503,-0.07932766431998367, ,0.00037426464733932447, ,0.001362423882798544,0.0004297344580231562,-0.006491089140517506,-0.012039835964324392,-0.004983830455788613,0.008328369857184123, ,0.006646435794542561, ,0.013030587267513823, ,3.274738317295267e-05, ,0.1848049976801925,-0.24590726018105682,0.08984326732,1.691988153976627,0.5160760596140685,-1.2917658283801987, ,0.0019283837652015966,0.013851545987223877,0.006520184821940238,-0.012857315669827483,0.0,-0.0041084123782777985, ,0.32364988327026367
0.010260387191477205,0.0205305929681937,-0.07913072448619896, ,0.010430154029046037,0.020394961768308763,-0.07945115815626501, ,0.00038716190209310336, ,0.0011112136577094295,-4.5972849821490474e-05,-0.00522728025337331,-0.005396190175960736,-0.0034614742968094624,0.0006748758372061561, ,0.0053442836885131025, ,0.0064109803321944535, ,3.33761957820447e-05, ,0.18483588861168943,-0.24562151906471053,0.08995474826000001,1.6917784640331426,0.5160760596140685,-1.292092543340761, ,0.0017068390629064111,0.01586905377231953,0.00515495518446602,-0.0081411666020658,0.0,-0.012379820474709691, ,0.34413790702819824
0.010285002108863968,0.020535246544543962,-0.07924896266997025, ,0.010458321751360867,0.02039462715907388,-0.0795746225556077, ,0.00039480105263110625, ,0.0012605056901777037,0.00030056511960056245,-0.006247422463723935,0.003052102999775491,-0.002456139979466144,-0.003062693250999599, ,0.006380399785776226, ,0.003917645568817598, ,3.39814220037928e-05, ,0.1848667795431863,-0.24532033248261578,0.09007271065000001,1.6917784640331426,0.5160760596140685,-1.2922559008210421, ,0.0011816220438836279,0.014867137953700574,0.0062416973040752355,-0.006734940414172479,0.0,-0.02004183452106024, ,0.36499595642089844
0.010311955797663492,0.0205402153466153,-0.07938028216827717, ,0.01048665282300686,0.020394260036172285,-0.0796980557127562, ,0.0003908990008699301, ,0.0013072723773791663,0.00010139785046206262,-0.006325478927126825,0.007999524347605595,-0.0010108781791857157,-0.012369613968660879, ,0.006459947851977014, ,0.008063141717371028, ,3.449697474825216e-05, ,0.18489767047468322,-0.24499597770189835,0.09020363594000001,1.691568774089658,0.5160760596140685,-1.2925826157816045, ,0.0015303563780593103,0.01777096283866494,0.0062736555809373784,0.0,3.285292926299305e-05,-0.02705032632689319, ,0.38503289222717285
0.010335503611733445,0.020539472301854392,-0.07949060309935854, ,0.010515146426779465,0.02039386067416795,-0.07982145582905568, ,0.00040365556587665694, ,0.0014014574967207841,1.9875081599245802e-05,-0.006416665784800263,-0.005319270126996062,-0.00508078984561295,0.0027964381770404106, ,0.006567958429208413, ,0.007355885348568546, ,3.5032508042173935e-05, ,0.18493628413905433,-0.24467934565405514,0.0903125243,1.6911493942026892,0.5160760596140685,-1.2929093307421666, ,0.0025601048587172294,0.018334030440199146,0.006353734152373355,-0.01200296648838092,0.00010361050156410196,-0.015758764403891727, ,0.4074380397796631
0.010364605818784877,0.020539309837436008,-0.0796317996963256, ,0.01054380174751174,0.020393429347215327,-0.07994482111244416, ,0.0003890690237582299, ,0.001124599105960072,-0.00026020965126707566,-0.005228821180230752,-0.01220896001700265,-0.003990797273966107,0.003026240010765278, ,0.005354717840051746, ,0.012844655062323986, ,3.5435658049707616e-05, ,0.18498262053629969,-0.2442545953459728,0.09045252362,1.6911493942026892,0.516212696113834,-1.2935108210867066, ,0.0018550088003634123,0.018141262006972046,0.005107025174735492,-0.009410432026296763,0.0,-0.007756758054810216, ,0.42726898193359375
0.010387479436540753,0.020531835339162495,-0.07973718140129647, ,0.01057261797207208,0.020392966329059414,-0.08006814977744472, ,0.00040385758048587533, ,0.0011515843402593292,-0.0002685398899283905,-0.005569121150621567,-0.004682575544784566,-0.0029630793207413007,-0.0017545719683371651, ,0.005693274150742589, ,0.005541330836222929, ,3.58780364769915e-05, ,0.1850212342006708,-0.24385301323651312,0.09055493053000001,1.6911493942026892,0.516212696113834,-1.2935924998268469, ,0.0013893780153565233,0.019276242445352584,0.005436454443686007,-0.007746320064386462,0.0,-0.016621159526794858, ,0.45062804222106934
0.010390555433134042,0.02053186450853786,-0.07975024516833883, ,0.010601594289362073,0.02039247189303626,-0.08019144004515771, ,0.0005085475586664895, ,0.001177061385113041,-0.00026489181946336826,-0.005511308035813242,-0.005687263744874183,-0.0033919121047726974,-0.0014254682464623582, ,0.005641822174259169, ,0.006621935634349607, ,3.698565281124429e-05, ,0.18502895693354504,-0.243814399572142,0.09056789343,1.6911493942026892,0.516212696113834,-1.2935924998268469, ,0.0018318848733610295,0.019078597016178284,0.005384993752535498,-0.007593352268665947,0.0,-0.015318593704665573, ,0.4687340259552002
0.01044096824625224,0.020523583441648625,-0.07998423320133904, ,0.010630729890314404,0.020391946312072605,-0.08031469014325207, ,0.000403162009493329, ,0.0012404499218773759,-0.00012626184192251864,-0.005692357861506362,0.03434580283612986,-0.003559065449847595,-0.012968012884277064, ,0.005827314654698555, ,0.03452971348502492, ,3.7501406594914366e-05, ,0.1851139069951615,-0.243057571750468,0.09079733676000001,1.6905203243722353,0.516212696113834,-1.2948176809289556, ,0.002195552541860429,0.017777621123730006,0.00560281798100598,-0.009915931432276362,0.0,-0.05692106978712401, ,0.4862940311431885
0.010470911965215955,0.020526124654973176,-0.08011705708253819, ,0.01066002396789076,0.02039138985868646,-0.08043789830595835, ,0.0003960503825674742, ,0.0016349869407971697,0.00037287789500907464,-0.006946560159210466,-0.012474880935362722,-0.005978229050644045,0.003227450782606489, ,0.007146112108461063, ,0.013833360428987059, ,3.794603219587806e-05, ,0.1851756888581553,-0.24269460330537945,0.09092955834000001,1.6905203243722353,0.516212696113834,-1.2951443958895175, ,0.0044047018159416125,0.015805619846514123,0.006995525480895917,-0.008124426651434395,0.0,-0.004722789502883266, ,0.5077130794525146
0.01049941998218545,0.02052951039950119,-0.08025195592497705, ,0.01068947571707955,0.02039080280498709,-0.08056106277405961, ,0.0003884688189440324, ,0.0013890076114552211,0.0001178300158609475,-0.006357371708066575,-0.002101046352188196,-0.002011197896147239,-0.00848727173600728, ,0.006508410027944125, ,0.00290848798638609, ,3.832505255916827e-05, ,0.18522974798827488,-0.24234708032603933,0.0910643725,1.6903106344287508,0.5163493326135995,-1.2952558137932142, ,0.002417726127296413,0.017320120744382328,0.006323466264390632,0.0,0.00012881996064692327,-0.015839816044959605, ,0.5255908966064453
0.010526628713075536,0.020531870515705538,-0.08038323409819931, ,0.010719084334893948,0.020390185422674633,-0.08068418179488442, ,0.0003842959121520287, ,0.0014534647337077554,0.00020187048664778253,-0.0067875076566192485,-0.010231199880917771,-0.0036817135256984757,0.008157913724230078, ,0.006944319377316721, ,0.01087347465543233, ,3.865994691985225e-05, ,0.1852760843855202,-0.24199955734669923,0.09119529779,1.6901009444852664,0.516485969113365,-1.295448910437051, ,0.0025110537539834925,0.016787005405708613,0.006775334547001277,-0.014454198970692694,0.0022079183255124817,-0.009232299748494065, ,0.5434720516204834
0.010554709408410187,0.020537208693253848,-0.08052054985123816, ,0.01074884902036969,0.020389537983041085,-0.08080725362229849, ,0.00038356512971374565, ,0.0013961669621309907,0.00020557984472569467,-0.0066025509986499045,-0.004915588056794835,0.009855314565547368,0.0013315432774588544, ,0.006751683119672928, ,0.011013183853112023, ,3.896947006299778e-05, ,0.185337866248514,-0.2416752025659818,0.09133140824000001,1.6898912545417817,0.5168958786126612,-1.2959465216284214, ,0.0031098418656795475,0.016757362097557967,0.006634240533111204,-0.004975953599041263,0.014731361313203219,-0.012079588011379176, ,0.5623800754547119
0.0105699328501709,0.02053892616199216,-0.08058813751772692, ,0.010778768974562855,0.020388860756969936,-0.08093027651669685, ,0.0004280084663317761, ,0.0013816419060239818,0.00024178155365622226,-0.006820766983515967,-0.00477871497860962,0.010641221995210849,0.0008026988023885517, ,0.00696349444744458, ,0.011664977824043984, ,3.9438230973593724e-05, ,0.18537647991288514,-0.24148985697700043,0.09140140790000001,1.6898912545417817,0.5168958786126612,-1.2959465216284214, ,0.002697349763211956,0.01696405819779599,0.006859953281653747,-0.0045369700929547615,0.014731361313203219,-0.012355043927803918, ,0.5798399448394775
0.010601634257015886,0.020545140704861204,-0.0807345492547405, ,0.010808843400547871,0.02038815401493601,-0.08105324874499563, ,0.0004112782696250921, ,0.001731782348929158,0.000456345058639881,-0.007903953208555326,-0.005027179209339541,0.004205227472331118,0.011429436560550225, ,0.008104307326332069, ,0.006554116115025284, ,3.981234199639194e-05, ,0.1854305390430047,-0.24115777946340877,0.09154788867000001,1.6894718746548125,0.5168958786126612,-1.296191557848843, ,0.004360055330842787,0.016933786859113273,0.007992379086803815,-0.016966278714172247,0.012812162595132537,-0.014576580615348533, ,0.6000039577484131
0.010630319387661107,0.02054872608040091,-0.08086258561043098, ,0.010839071503415265,0.020387418027006284,-0.08117616858062418, ,0.0004097950867409081, ,0.0013307396063620119,-0.00018150200996292556,-0.005701024168575799,0.004508214183446203,-0.002122236460345054,0.003220514763299141, ,0.00585708864968309, ,0.004982757940650472, ,4.01581615068835e-05, ,0.18550004363887274,-0.24082570194981712,0.09167622138,1.6894718746548125,0.5170325151124266,-1.296793048193383, ,0.003707656718328467,0.017932150710217455,0.005632535898161245,-0.014709221975369256,0.0047995877779262895,-0.025937612144090877, ,0.6178131103515625
0.010660289393603146,0.0205453738008835,-0.08098874113606579, ,0.010869452490269646,0.02038665306283983,-0.08129903430351747, ,0.0004064767194556696, ,0.0013684968156538481,-0.00011245901152054355,-0.005417048937090603,0.01739464889815074,-0.0006984077446367453,-0.012485856342027294, ,0.005588367360022185, ,0.01740866390631722, ,4.047143881350336e-05, ,0.18557727096761498,-0.24043184257323166,0.09180066522000001,1.6892621847113283,0.5170325151124266,-1.2972014418940858, ,0.00462142403419877,0.016967091285262074,0.00537772164753545,-0.001954204695044371,0.0038764453505316272,-0.03626168678543089, ,0.6374900341033936
0.010674478047512141,0.02054385647010038,-0.08104783868674828, ,0.010899985570227397,0.020385859391687362,-0.08142184420010762, ,0.0004644317426828224, ,0.0014023792963589264,-0.0001437442250126795,-0.006124178560340381,-0.003339955487579803,-0.0023604481997845862,0.002045190557047584, ,0.006284337127495106, ,0.004089866715212033, ,4.1120656272242787e-05, ,0.18561588463198608,-0.2402542197171245,0.09185899827,1.6890524947678438,0.5170325151124266,-1.2973647993743669, ,0.003453001718011467,0.018810097434781126,0.00605428031927024,-0.01115870145313984,0.0035508507730570567,-0.01793983798355067, ,0.6531939506530762
0.010704969767152208,0.020545566326596282,-0.08119165498413036, ,0.01093066995441479,0.020385037282392014,-0.08154459656331627, ,0.00044864006383930975, ,0.0017010294296405265,0.00029370626736680515,-0.007935268054858311,0.012856349331078517,-0.0032996081597739357,0.0002911583638860626, ,0.008120852393342003, ,0.01327302153494821, ,4.168287819508757e-05, ,0.1856853892278541,-0.23986808307341326,0.09200288646,1.6888428048243591,0.5173057881119575,-1.2981593863627436, ,0.002900984738762748,0.018632817898776903,0.007940584007976072,-0.015823886094477765,0.002811867263216663,-0.03590600555485094, ,0.6689889430999756
0.01074024873774708,0.020550562311304844,-0.08134861083547502, ,0.010961504855965504,0.020384187003389103,-0.08166728969254636, ,0.0004221270269450114, ,0.0017078973372436745,0.00010175818069849487,-0.007229373900726288,0.004192274733728962,-0.004687327911118261,0.0002743250593491871, ,0.007429072286524443, ,0.006288576201518558, ,4.2127748091263e-05, ,0.18575489382372212,-0.23947422369682783,0.09215973755000001,1.6888428048243591,0.5173057881119575,-1.298649458803587, ,0.0045048883662364625,0.018968007507189844,0.007214135652173914,-0.012646920409953607,0.0024302445007418094,-0.026477123094911754, ,0.6890730857849121
0.01075757591510878,0.020551007699067043,-0.08142023930986045, ,0.010992489490018874,0.020383308822706385,-0.08178992189367422, ,0.00046901227445014, ,0.0016484881802052564,-1.5409232550550073e-05,-0.006933243426663602,-0.016557883645281556,-0.0048888471764437025,0.0063490855120219136, ,0.007126543000508612, ,0.017264539423470764, ,4.270814155063399e-05, ,0.18585528935108706,-0.23908036432024238,0.09229844058000002,1.6886331148808746,0.5173057881119575,-1.2991395312444303, ,0.00500184073414686,0.019606806107122062,0.006593051125827815,0.0,0.002115226341293599,-0.02671782331756137, ,0.704401969909668
0.010790855058400413,0.020548181797939477,-0.08155787256060248, ,0.011023623073717473,0.02038240300796461,-0.08191249147904243, ,0.0004554318099075804, ,0.0016426156286950498,-6.435444134011162e-05,-0.006946633629702988,-0.032256289749301885,-0.006229760520865545,0.015156832122792254, ,0.007138490483503774, ,0.03285236868723809, ,4.321783151497648e-05, ,0.18589390301545816,-0.23887957326551254,0.09236714395000001,1.6882137349939055,0.5173057881119575,-1.299221209984571, ,0.00431036915636405,0.019819745521819296,0.006892605590653397,-0.015384330507612145,0.0019856173667414305,0.010788099866512168, ,0.7203280925750732
0.010822018282338641,0.02054944405278045,-0.08169973077703224, ,0.011054904826205084,0.02038146982637655,-0.08203499676745012, ,0.0004414235691271179, ,0.0017270470107511482,0.00012668175243000344,-0.007816310990027856,0.0038704943665401966,0.0027409936679423648,0.001967833958243045, ,0.008005838940209418, ,0.004742756978196813, ,4.366018421727674e-05, ,0.18598657580994887,-0.2384857138889271,0.09250973585000001,1.6882137349939055,0.5177156976112539,-1.299800499916082, ,0.004070448233047342,0.0202080369587885,0.00781974055964654,-0.012900827879773931,0.009714425459285126,-0.026927508407949306, ,0.7358460426330566
0.010841041498913344,0.020551261073469256,-0.08178422542692727, ,0.011086333968624521,0.020380509544748203,-0.0821574360841463, ,0.00047813248678524697, ,0.0018989131620182913,0.00036488988318495315,-0.008843432512357792,0.011105686886941562,0.0053726648799105586,-0.00954210806122015, ,0.009052365128758554, ,0.01233700754049319, ,4.4197602277290165e-05, ,0.18602518947431998,-0.23827720010132303,0.09259399470000002,1.6880040450504212,0.5177156976112539,-1.2998821786562225, ,0.004207833281985687,0.020976335446169492,0.008883888187395427,-0.0032961063893390064,0.009688808218970788,-0.02866782323517654, ,0.7515099048614502
0.010881269342541989,0.02055625384364346,-0.08195660628900779, ,0.011117909724115587,0.020379522429478405,-0.08227980776082204, ,0.00043782628327565726, ,0.0019243771444812808,0.00022110259746558415,-0.00805288404197811,0.005651042225726385,0.0017364275711093105,-0.007726820297029095, ,0.008282575393339542, ,0.005911803877089617, ,4.458919699477378e-05, ,0.1861178622688107,-0.23784472706036644,0.09276640127,1.6880040450504212,0.5177156976112539,-1.3002905723569251, ,0.005633138666838746,0.020220954945337904,0.008089797623158965,-0.0032961063893390064,0.007938285433190527,-0.02713381387176093, ,0.7693080902099609
0.01090180810135248,0.02055608057364205,-0.08204272896338623, ,0.011149631317812794,0.020378508746559235,-0.08240211013560157, ,0.0004712779724675673, ,0.001924234775252149,6.990143475698481e-05,-0.008114377286228882,-0.013435324642576497,-0.0014071503151744384,0.007168828895132891, ,0.00833970529600045, ,0.01350881138674039, ,4.506428234851752e-05, ,0.18617192139893027,-0.23762076780701394,0.09285195641,1.687584665163452,0.5177156976112539,-1.3006172873174875, ,0.00548454880738493,0.021538116558890326,0.008110392830957231,-0.013357572512242078,0.007290126356308329,-0.010211017737025919, ,0.7846980094909668
0.010940856453759733,0.020555922886799645,-0.08219710819000087, ,0.011181497976843351,0.020377468761575594,-0.08252434155303508, ,0.0004436619110585941, ,0.0018641604006030248,-6.258501605985878e-05,-0.007885094261894567,-0.022320546133197908,-0.006562061781963979,0.005883042792579959, ,0.008102698464238582, ,0.023265154287757495, ,4.543917104623381e-05, ,0.18630320785779206,-0.23718057203318313,0.09300621492000001,1.687584665163452,0.5178523341110194,-1.3010554201817464, ,0.004611908620858353,0.022381354141148765,0.007823581296660118,-0.010937034351202654,0.0006104140018341735,-0.0016983947535771631, ,0.8003408908843994
0.010957500976845511,0.020555708486616878,-0.08226701775708523, ,0.011213508930324958,0.02037640273970604,-0.08264650036409044, ,0.0004916275746329315, ,0.0019919315620359505,1.3657458703183311e-05,-0.008027172086917058,0.016507832541502176,0.00023388196398166665,-0.006516646284045773, ,0.008270639007174329, ,0.01650948826169596, ,4.606845997828993e-05, ,0.18635726698791164,-0.2369797809784533,0.09307621458000001,1.687584665163452,0.5179889706107847,-1.3013301955657237, ,0.0065569175895776825,0.022043424287681943,0.00802863483870968,-0.009892020668282816,0.008667764218697409,-0.04177540302610168, ,0.8154580593109131
0.01100014367804357,0.020555282728140747,-0.08243844173899867, ,0.011245663409363662,0.020375310945722418,-0.08276858492614496, ,0.0004490704899605749, ,0.002010075529091189,-0.00021080500318822315,-0.007693965535695158,-0.006746563290290191,-0.009696211857790654,0.008966869379478935, ,0.007954995163196851, ,0.011812392376614845, ,4.655619932882901e-05, ,0.18649627617964767,-0.23652413973887407,0.09324732486000001,1.6869555953329984,0.5181256071105501,-1.3019316859102634, ,0.00689913182947916,0.02297746768970237,0.007628741149425289,-0.020659567008652544,0.0017285128267828223,-0.020640028837298707, ,0.8293819427490234
0.011019144106249615,0.020553619871532196,-0.08251376337300563, ,0.011277960647051749,0.02037419364399008,-0.08289059360297794, ,0.0004911016138680112, ,0.0019096410923667715,-0.00023102627055049093,-0.0074030020450622964,0.0018665162348839525,-0.005950477017936723,0.005751392808779086, ,0.007648826152981696, ,0.006236348078881196, ,4.714443382298189e-05, ,0.1865657807755157,-0.23629245775264732,0.09332250968000001,1.6869555953329984,0.5182622436103156,-1.3021247825541005, ,0.006632010084382606,0.022444877379013902,0.007343850401106501,-0.01922861428534338,0.004829299212080905,-0.028726561802486374, ,0.8443009853363037
0.011044591939874107,0.020551364749829305,-0.08260585149402763, ,0.011310399878465632,0.020373051098468372,-0.08301252476476281, ,0.0005175256202454079, ,0.0020870967654684257,-0.0001728706442383227,-0.007155070211276074,-0.0022602625861107223,-0.0009952194652020094,0.007231170082169788, ,0.007455259009340882, ,0.0024696619179845423, ,4.778557867901336e-05, ,0.18667389903575485,-0.23600671663630102,0.09341454627000001,1.6869555953329984,0.5183988801100811,-1.3024812366782188, ,0.009996711306691877,0.02136837233921882,0.007175140324324325,-0.0161258035851655,0.012815356682071904,-0.022027133679328972, ,0.8590219020843506
0.011085300740774365,0.020549880725091882,-0.08275084255678163, ,0.011342980340663599,0.020371883572710137,-0.08313437678805848, ,0.0004951568125515491, ,0.0022744444750356268,-9.13695254146199e-06,-0.008510199702151909,0.0026993696416605295,0.002641163157557241,0.0022328164822595893, ,0.008808897781472338, ,0.003776545332677724, ,4.8345910239436666e-05, ,0.1868437991589878,-0.23558196632821868,0.09355973075000001,1.6869555953329984,0.5185355166098464,-1.302592654581915, ,0.009341049640552022,0.023350625383481982,0.008554678582169711,-0.013025078054322174,0.015026886990429268,-0.02860362497845957, ,0.8731598854064941
0.01112879828196578,0.020551747553688667,-0.08292706908267938, ,0.01137570127268384,0.02037069132986233,-0.08325614805580209, ,0.0004494834964303668, ,0.002285954949215225,6.509621496932786e-05,-0.008831711100106047,0.005254853765040811,0.0023660992691589035,0.004014609564861071, ,0.009122990107567874, ,0.005762973200749648, ,4.8767624617727e-05, ,0.1870059765493465,-0.23514177055438787,0.09373732248000001,1.686326525502545,0.5189454261091428,-1.303171944513426, ,0.008714674103035284,0.023128672083468384,0.008883888187395427,-0.016024198466824076,0.014738146229951355,-0.03169578911990129, ,0.8895208835601807
0.011153451898946218,0.020552229298143578,-0.08301854697468039, ,0.011408561915542117,0.02036947463266587,-0.08337783695730014, ,0.0004770426395327025, ,0.0021791467939388854,5.488860635354346e-05,-0.008189795599641591,-0.0011089048285916794,0.001552817790639592,0.0048512798027461855, ,0.008474930411074201, ,0.0019081080068813175, ,4.924792902352476e-05, ,0.1871063720767114,-0.23490236583528692,0.09382935907,1.6861168355590603,0.5190820626089083,-1.3034467198974036, ,0.008741670848387628,0.021538116558890326,0.00824472645962733,-0.01382360514849608,0.01355177802965664,-0.022946603664482413, ,0.9033811092376709
0.011176369760397022,0.020550579660393833,-0.08310194534753922, ,0.011441561512229826,0.02036823374345616,-0.08349944188822164, ,0.000511449116255457, ,0.0023112744470913213,-9.782436311761428e-07,-0.008301842674326518,0.009056739503302342,0.011332710687809645,-0.0414635919667912, ,0.008617574038904846, ,0.014507061126572851, ,4.98016765674076e-05, ,0.1871913221383279,-0.23466296111618595,0.09391232163,1.6859071456155759,0.5190820626089083,-1.3036100773776846, ,0.009550855770777775,0.024887737098995746,0.008392419135932562,0.032078182171951554,0.01355177802965664,-0.027591885212700736, ,0.9175870418548584
0.011199548912623331,0.02055141164011435,-0.08318199869005038, ,0.01147469930771167,0.02036696892416261,-0.08362096125058903, ,0.000549922708150487, ,0.002169937399683195,-0.00011013789287133223,-0.007637292761455511,0.02120415747992836,-0.0010788271400321335,0.004441685088088904, ,0.007940340005199446, ,0.021231583465398877, ,5.0435799417776395e-05, ,0.18728399493281858,-0.23443900186283345,0.09399269161000001,1.6861168355590603,0.5190820626089083,-1.3038551135981065, ,0.009877745413274961,0.02139728107293591,0.007672837919075146,-0.02222866785286668,0.01355177802965664,-0.048113458771737026, ,0.9317560195922852
0.011257330703571692,0.020554149730260596,-0.08338810861127678, ,0.011507974548923659,0.020365680436309243,-0.08374239345277168, ,0.0004731392616222071, ,0.0023579655072522784,0.00014298426990518414,-0.008644436456156148,0.0066099841270184975,-0.006727751418557723,-0.0003127740699241008, ,0.008961402093386575, ,0.009431568323383993, ,5.085998962950662e-05, ,0.18751567691904533,-0.23389841056163774,0.09420009801000001,1.6861168355590603,0.5192186991086737,-1.3046199614229272, ,0.008944670021863067,0.021557687768848425,0.008694766113537119,-0.01376277653911386,0.005008842663207996,-0.031790123262561705, ,0.9452910423278809
0.011271482937416845,0.020555478528205617,-0.08343831196543151, ,0.011541386484770896,0.020364368541014633,-0.08386373690947632, ,0.0005388481558787844, ,0.0024756683460525567,0.00021365812911485334,-0.00922081943176827,0.0034765061284938456,-0.0066367183045499805,-0.0007733731466346365, ,0.009549769345332838, ,0.007492133077977469, ,5.155912527503795e-05, ,0.18756973604916488,-0.23377484683565014,0.09425065332,1.6861168355590603,0.5192186991086737,-1.3047016401630678, ,0.009014890079211118,0.022376076764553353,0.009282524195804198,-0.012509244921040313,0.004925208673888823,-0.029080983178292996, ,0.9565000534057617
0.011307177106478689,0.02055809128824238,-0.0835774801257469, ,0.011574934366125405,0.020363033498991993,-0.08398499004173977, ,0.000525172184024716, ,0.0024391123475068876,0.0003450842653014503,-0.009560331725731553,0.014352471212527692,-0.005289050592308771,-0.004831706680333825, ,0.009872603248381273, ,0.015295993142254908, ,5.2208097502342624e-05, ,0.18768557704227826,-0.23345821478780693,0.09438417119,1.6856974556720912,0.5193553356084392,-1.3052214517674672, ,0.007798862774569053,0.021592023107729414,0.00960724458383595,-0.01199599461838761,0.004751304862063751,-0.05007108716484722, ,0.9694859981536865
0.011319462025111622,0.020559160436690167,-0.08362530362608728, ,0.011608617445824105,0.020361675570549544,-0.08410615127692106, ,0.0005948324074849651, ,0.0025243645951662343,0.0001614657573604248,-0.009754509003229403,-0.0044514775472628675,-0.008511717681556001,0.008725921134195246, ,0.010077149085639859, ,0.0096054620883539, ,5.300855774208663e-05, ,0.1877319134395236,-0.23333465106181933,0.09443861537,1.6854877657286067,0.5193553356084392,-1.3053848092477482, ,0.008368129478645127,0.023849444975740333,0.009790295955746774,-0.02103499269427809,0.004436483188562129,-0.02388234396061703, ,0.9809579849243164
0.011357985318746995,0.02056363202405663,-0.08377378605000825, ,0.011642434978666643,0.020360295015590404,-0.0842272190486939, ,0.0005725897591971579, ,0.002682414412864833,0.0003637154743465923,-0.009609482679390368,0.014426537406138024,-0.00884667181431658,0.0017137372429322753, ,0.009983476017606675, ,0.01692301692311843, ,5.3737342032339534e-05, ,0.18787864536413387,-0.23298712808247923,0.09458898501000002,1.6852780757851225,0.5196286086079701,-1.3060977174959845, ,0.010584376674853579,0.02130122144971286,0.00972454915750916,-0.018862276035649512,0.005536597302506858,-0.04077531187780343, ,0.9923820495605469
0.011413623169754581,0.020572881533039163,-0.08398118109261349, ,0.011676386221413057,0.020358892093612548,-0.08434819179703747, ,0.000499532540146061, ,0.0027662777753763063,0.00041705916433235193,-0.010721614200914003,0.0073011794400176366,0.00042758020676209285,0.005407955777354234, ,0.011080579504264897, ,0.00731367926361642, ,5.427796458499612e-05, ,0.1880794364188637,-0.23252376411002576,0.09479898399000002,1.6852780757851225,0.5197652451077354,-1.3065358503602431, ,0.01000559798242501,0.024073298213716583,0.010777274370771315,-0.018862276035649512,0.014540431587028141,-0.051396715670956654, ,1.0034101009368896
0.011415982186366963,0.02057366517789348,-0.08399007921093508, ,0.011710470432781842,0.020357467063709292,-0.08446906796822928, ,0.0006024078198924301, ,0.0027132089100201096,0.00032988919024410214,-0.010523707953517177,0.021976301906248386,0.000922301857259056,-3.0268173882873444e-05, ,0.010872845007548535, ,0.021995644048650724, ,5.50442099483467e-05, ,0.18808715915173793,-0.23250831864427732,0.09480805802000002,1.6852780757851225,0.5197652451077354,-1.3065358503602431, ,0.009704534000962045,0.02406719288827562,0.01064048865731463,-0.018862276035649512,0.014540431587028141,-0.05101645953190045, ,1.016042947769165
0.011473555830712169,0.02058205877536254,-0.08420200608966703, ,0.011744686873447858,0.020356020184569487,-0.0845898460148376, ,0.000524428540812722, ,0.0028942761125719213,0.0005282310797509451,-0.011119850461180822,0.0014820408462973252,-0.0013788096273371598,-0.0005940093790740635, ,0.011502475236593321, ,0.0020242013340073814, ,5.5614478806632715e-05, ,0.18828795020646777,-0.23203723193894962,0.09502194587000001,1.6850683858416375,0.5197652451077354,-1.3068625653208052, ,0.010064721699269316,0.023742041921058485,0.011273044246284503,-0.01088817986264972,0.011061775301856907,-0.027630795030500734, ,1.0269091129302979
0.011500809993111875,0.020582612626987525,-0.08430856346189566, ,0.011779034806040036,0.020354551714477472,-0.0847105243957128, ,0.0005394380582226067, ,0.002725826467746049,-2.6289649383419337e-05,-0.009918138159800556,0.017685788869297777,0.0006190199202266869,-0.00625376858664345, ,0.010285926581247874, ,0.017696615993393748, ,5.620580383873553e-05, ,0.18839606846670692,-0.231774659021226,0.09512953794000001,1.6846490059546686,0.5200385181072663,-1.3073304373486199, ,0.011011480802793083,0.026633999876079364,0.00997420884157796,-0.011899927426225936,0.013954694693926904,-0.04784392304052456, ,1.0383129119873047
0.01152809698388295,0.020583133569568184,-0.08441108198393363, ,0.011813513495139214,0.02035306191131268,-0.08483110157597927, ,0.0005575051663727627, ,0.0027986533729064253,0.00010309165668475297,-0.0103841717467012,0.008508389491486898,0.0022968412315330666,-0.002063316136591358, ,0.010755189977696627, ,0.00881294789723914, ,5.682431870938225e-05, ,0.18851190945982027,-0.23151208610350235,0.09523324114000001,1.6844393160111841,0.5203117911067973,-1.307716630636294, ,0.010979853040998834,0.026374914274171976,0.01047259140039448,-0.012195622053253119,0.01590834194804831,-0.037748609389074955, ,1.050412893295288
0.011555980641014502,0.02058307719438154,-0.08450809613011183, ,0.011848122207276088,0.02035155103255067,-0.0849515760270279, ,0.0005793319232690283, ,0.0028850889569840984,-9.585200751947619e-05,-0.01019617587349647,0.00602835374283022,0.000895967436820262,-0.0020914749449653697, ,0.010596930137560056, ,0.006094562846937409, ,5.747743890788252e-05, ,0.18862002772005942,-0.23124951318577872,0.09533046289000001,1.6844393160111841,0.5203117911067973,-1.3079616668567156, ,0.0123639885689066,0.028067714155122974,0.010256800721184806,-0.012195622053253119,0.01590834194804831,-0.03687986292753745, ,1.0620360374450684
0.011555980641014502,0.02058307719438154,-0.08450809613011183, ,0.0118828602109291,0.02035001933526286,-0.08507194622650834, ,0.0006921655511009518, ,0.0028712034335885207,-0.00011448638316036657,-0.010434654391206045,0.005476083699415505,-0.00041304778229906184,-0.0029048506870114434, ,0.010823073895751394, ,0.005491627941474682, ,5.849115775759616e-05, ,0.1888362642405377,-0.23078614921332524,0.09550286946000001,1.6844393160111841,0.5204484276065626,-1.3084814784611147, ,0.011411913191202452,0.028756648957112357,0.01047259140039448,-0.012195622053253119,0.013565162955171819,-0.03718300582924718, ,1.0709600448608398
0.011606377724665214,0.02058302255535443,-0.08467938856260532, ,0.011917726776522206,0.02034846707611646,-0.08519221065832026, ,0.0006441591470950874, ,0.0028712034335885207,-0.00011448638316036657,-0.010434654391206045,0.005476083699415505,-0.00041304778229906184,-0.0029048506870114434, ,0.010823073895751394, ,0.005491627941474682, ,5.9382884966432466e-05, ,0.1888362642405377,-0.23078614921332524,0.09550286946000001,1.6844393160111841,0.5204484276065626,-1.3084814784611147, ,0.011411913191202452,0.028756648957112357,0.01047259140039448,-0.012195622053253119,0.013565162955171819,-0.03718300582924718, ,1.0799129009246826
0.0116403003599514,0.020582163332342536,-0.08480338428165188, ,0.011952721176422688,0.020346894511374704,-0.08531236781260601, ,0.0006418897253163637, ,0.0035094418262359398,6.345090453754043e-05,-0.012406314446791022,0.010530054429302207,-0.010038754399474813,-0.004796796762229035, ,0.012893286861839246, ,0.014548482473005218, ,6.0254346573007105e-05, ,0.18896755069939952,-0.2304540716997336,0.09562731330000002,1.6842296260676997,0.5205850641063281,-1.308837932585233, ,0.013777140179801218,0.03175935125785501,0.012473619044635868,-0.015966491702344918,0.006761487891476158,-0.046911442475211854, ,1.088789939880371
0.011712664432094672,0.020591081796559215,-0.08507308547088252, ,0.011987842684939264,0.02034530189689721,-0.08543241618574206, ,0.0005150236815506003, ,0.0038199282842448397,0.000515973640548885,-0.014348938579263589,-0.015004015585074446,0.007822795696838095,0.004043580943375213, ,0.01485766197105029, ,0.01692087491585894, ,6.08398301098844e-05, ,0.1892455690828716,-0.22985169853554407,0.09590083049,1.6838102461807307,0.5209949736056244,-1.3098256162174466, ,0.01464911107725699,0.032124895585128904,0.014573478060384264,-0.01032822377456463,0.025326114029472692,-0.0177459446539069, ,1.1028399467468262
0.011752692934859305,0.020593535233332374,-0.08521210714511576, ,0.01202309057831962,0.020343689488140148,-0.08555235428033217, ,0.0005013041940803247, ,0.0035747350742879468,0.00024397133099814624,-0.012728311386822717,0.015293337426647598,0.005910485255954782,-0.005516813923843093, ,0.013223016434294192, ,0.016395721134597346, ,6.1386323486242e-05, ,0.1894000237403561,-0.22951962102195242,0.09604082981,1.6836005562372458,0.5209949736056244,-1.3099889736977277, ,0.01519323431931969,0.03072092637049879,0.012908275137763372,-0.011403712883623934,0.023575771954268125,-0.04879045866501919, ,1.1120219230651855
0.011788965649908306,0.020593431376898307,-0.08533074977515288, ,0.012058464134748486,0.02034205754015567,-0.08567218060519799, ,0.0005023875504380619, ,0.0034416656461709137,-0.0002774168193699735,-0.011538666032026669,-0.005040726407340017,4.578613384798258e-06,-0.0010199003708434803, ,0.012044203431956323, ,0.005040708198008052, ,6.192590805870649e-05, ,0.1895544783978406,-0.22920298897410923,0.09616008849,1.6836005562372458,0.5209949736056244,-1.3103156886582898, ,0.01576361155456325,0.03325050510107595,0.01160146505462491,-0.011403712883623934,0.018410475340950756,-0.030210143509850077, ,1.1213960647583008
0.011788965649908306,0.020593431376898307,-0.08533074977515288, ,0.012093962634345345,0.020340406307592818,-0.0857918936753719, ,0.0006080284063445931, ,0.0034416656461709137,-0.0002774168193699735,-0.011538666032026669,-0.005040726407340017,4.578613384798258e-06,-0.0010199003708434803, ,0.012044203431956323, ,0.005040708198008052, ,6.267658467143516e-05, ,0.1895544783978406,-0.22920298897410923,0.09616008849,1.6836005562372458,0.5209949736056244,-1.3103156886582898, ,0.01576361155456325,0.03325050510107595,0.01160146505462491,-0.011403712883623934,0.018410475340950756,-0.030210143509850077, ,1.1304140090942383
0.011822464628813206,0.02058825582287111,-0.08544099476175485, ,0.012129585359162422,0.020338736044697252,-0.08591149201208903, ,0.0006147771346449017, ,0.00334909573926485,-0.0005240400438185763,-0.010730805014415394,0.0025265471521086517,-0.014164215404992403,-0.0006384688196301063, ,0.011253498855719937, ,0.01438778288219093, ,6.342879705978054e-05, ,0.18970893305532507,-0.22886318872764336,0.09627027314000002,1.6833908662937616,0.5211316101053899,-1.3105087853021269, ,0.015239592349200382,0.03328549335618056,0.010697657165883145,-0.018963496268142782,0.004797046971260901,-0.04073878907716805, ,1.1432631015777588
0.011838048713111256,0.020586019230150247,-0.0854925369963007, ,0.01216533159318252,0.020337047005311592,-0.0860309741427794, ,0.0006775070575550992, ,0.0031958585275783926,-0.0005473018414856707,-0.010207079705075128,-0.007405974972273874,-0.010046856975632236,0.004629450095800564, ,0.010709693139382925, ,0.012481493884426638, ,6.42972230214936e-05, ,0.18978616038406732,-0.22870101133728463,0.09632212474000001,1.6833908662937616,0.5212682466051554,-1.3107835606861045, ,0.015005841486159199,0.03215755389985455,0.010184662097186702,-0.018963496268142782,0.009032301086990137,-0.02871429275931256, ,1.1520719528198242
0.011876578172981676,0.020579311771196627,-0.08561259343636664, ,0.012201200622316747,0.020335339442875265,-0.08615033860105929, ,0.0006738487172572024, ,0.0031650634106653356,-0.0007532396662024479,-0.009129732625873436,-0.013794896556781951,-0.008821520165853663,0.005293068133621362, ,0.00969211092632617, ,0.01637431908872923, ,6.514409258484977e-05, ,0.18998695143879715,-0.22830715196069917,0.09644267971,1.6833908662937616,0.5215415196046862,-1.3112514327139193, ,0.017222675418960214,0.03176998378254797,0.009107382229845628,-0.01603236453569366,0.012046040523780393,-0.020740719120914873, ,1.161633014678955
0.011928449098004053,0.02056829399446444,-0.0857753839259365, ,0.012237191734402507,0.020333613610424815,-0.08626958392672392, ,0.0006281962583154498, ,0.003207484787169779,-0.00049144916230565,-0.011210570699501885,-0.005733706444378309,0.007337608788455123,-0.008172070461669597, ,0.01167074874837029, ,0.00931212732168754, ,6.601836325264956e-05, ,0.19023407889077235,-0.22776656065950346,0.09660471596,1.683181176350277,0.5216781561044516,-1.311281171877475, ,0.013930848731425539,0.03479902514062001,0.011225378097251586,-0.0029791731225117775,0.022129059195452182,-0.029183123578179992, ,1.1681160926818848
0.011961573609829647,0.02056495487973063,-0.08589265196612736, ,0.012273304219201305,0.02033186976059432,-0.08638870866573936, ,0.0006305369892496118, ,0.0037589264476220047,-3.444794863733182e-05,-0.012898263297904073,-0.011166042097398644,-0.002899527576218755,0.0051334349524819215, ,0.013434876657485797, ,0.011536351212407533, ,6.688680080182962e-05, ,0.1903808108153826,-0.22744220587878602,0.09672267835000001,1.682761796463308,0.5219514291039825,-1.3115856864250084, ,0.01606788715856261,0.03341441604171506,0.013013734901960786,-0.016458615994868604,0.016968801647437953,-0.02498846139712548, ,1.1754789352416992
0.011961573609829647,0.02056495487973063,-0.08589265196612736, ,0.01230953736839661,0.020330108145614558,-0.08650771137023441, ,0.0007446676012702297, ,0.0037589264476220047,-3.444794863733182e-05,-0.012898263297904073,-0.011166042097398644,-0.002899527576218755,0.0051334349524819215, ,0.013434876657485797, ,0.011536351212407533, ,6.79726435141345e-05, ,0.1903808108153826,-0.22744220587878602,0.09672267835000001,1.682761796463308,0.5219514291039825,-1.3115856864250084, ,0.01606788715856261,0.03341441604171506,0.013013734901960786,-0.016458615994868604,0.016968801647437953,-0.02498846139712548, ,1.1827259063720703
0.011999758130845835,0.02056518719177254,-0.08604075558152673, ,0.012345890475591715,0.020328329017314694,-0.08662659059849236, ,0.000720494317805425, ,0.0037084517586717597,0.0003235689379288169,-0.015524099867090772,0.03397951417832614,0.04262999698859878,0.03907599407665783, ,0.01596417827473108, ,0.054515347613356996, ,6.899759666346587e-05, ,0.19054298820574134,-0.2270869601665717,0.09687304799000002,1.6821327266328545,0.5224979751030443,-1.3123580730003561, ,0.014818385627493876,0.03438294984002565,0.015570685747800588,-0.05714066153990154,0.07729464581530343,-0.0830832401182256, ,1.1895980834960938
0.012049042650949424,0.020574487807358394,-0.08622869359386029, ,0.01238236283630752,0.02032653262712056,-0.08674534491494432, ,0.0006629575438531511, ,0.00513091240990677,0.0014332360421259488,-0.01909825898614997,0.024943901544517012,0.02108193096519926,-0.04553246576842507, ,0.019827352925003434, ,0.03265950851885681, ,6.989693542848117e-05, ,0.1907283337947227,-0.2267085462557347,0.09706489891000002,1.6819230366893698,0.5229078846023405,-1.3128556841917265, ,0.019159487494139062,0.0355952518974009,0.01959263409594096,0.029535177136560696,0.03363270536115889,-0.05542798012930454, ,1.1961169242858887
0.012049042650949424,0.020574487807358394,-0.08622869359386029, ,0.012418953747980563,0.020324719226056186,-0.08686397289015904, ,0.0007764008940092329, ,0.00513091240990677,0.0014332360421259488,-0.01909825898614997,0.024943901544517012,0.02108193096519926,-0.04553246576842507, ,0.019827352925003434, ,0.03265950851885681, ,7.100813167891996e-05, ,0.1907283337947227,-0.2267085462557347,0.09706489891000002,1.6819230366893698,0.5229078846023405,-1.3128556841917265, ,0.019159487494139062,0.0355952518974009,0.01959263409594096,0.029535177136560696,0.03363270536115889,-0.05542798012930454, ,1.2028799057006836
0.012073261218729193,0.020580857994242835,-0.08631512495288371, ,0.012455662509960622,0.020322889064743357,-0.08698247310083741, ,0.0008112535156779342, ,0.005515008990282766,0.0016238871032541436,-0.020336328609350935,-0.009115268934323184,0.010345762257080941,-0.03162610433499771, ,0.021133352663373604, ,0.013788380838930074, ,7.21742703156474e-05, ,0.1908132838563392,-0.2265540915982502,0.09715304663,1.6819230366893698,0.5229078846023405,-1.3130190416720078, ,0.020028902819432415,0.0363450561311646,0.0208492297382199,0.024610155215623517,0.02524267015480743,-0.021599315864500875, ,1.2098779678344727
0.012163603919927438,0.020607626855476364,-0.0866420330804258, ,0.012492488423508795,0.020321042393402013,-0.08710084412980229, ,0.0006330902381401553, ,0.005764065078366341,0.0015136799508083082,-0.020690409953573803,-0.01417562660897718,-0.01936041798715173,-0.014803235145043022, ,0.021531575355000557, ,0.023995215827199334, ,7.298157153113813e-05, ,0.19112991590418238,-0.22599033209843183,0.09748748945,1.6821327266328545,0.523044521102106,-1.3132121383158446, ,0.019782560258176107,0.03678176029398092,0.02109776360264901,0.0,0.0,-0.023290899641179728, ,1.2177059650421143
0.012163603919927438,0.020607626855476364,-0.0866420330804258, ,0.012529430791795255,0.02031917946184986,-0.08721908456599219, ,0.0007416330737398991, ,0.0044856506139384035,0.0004704917971751903,-0.01652020573725683,0.02900699003227589,0.035395144758819864,-0.016147764265746108, ,0.021531575355000557, ,0.023995215827199334, ,7.398867819616027e-05, ,0.19133070695891222,-0.22559647272184638,0.09768063666000001,1.6821327266328545,0.5235910671011678,-1.3138211674109117, ,0.01935882120735838,0.03767246588267994,0.016891634697773068,0.0,0.055294070793057724,-0.066152929243448, ,1.2250349521636963
0.0122136585126843,0.02061632767400246,-0.08683069892149098, ,0.012566488919897074,0.020317300519502826,-0.08733719300445215, ,0.0006858883228753506, ,0.0044856506139384035,0.0004704917971751903,-0.01652020573725683,0.02900699003227589,0.035395144758819864,-0.016147764265746108, ,0.017124824716265818, ,0.045762654126948535, ,7.48774182120355e-05, ,0.19133070695891222,-0.22559647272184638,0.09768063666000001,1.6821327266328545,0.5235910671011678,-1.3138211674109117, ,0.01935882120735838,0.03767246588267994,0.016891634697773068,0.0,0.055294070793057724,-0.066152929243448, ,1.2320210933685303
0.012257493700841936,0.02061733301347537,-0.0869926628801415, ,0.012603662114796145,0.020315405815375737,-0.08745516804632689, ,0.0006518463258468521, ,0.004476484496736649,-0.00016703717803129056,-0.015395304589194546,0.037929967494719864,0.03547114254159208,-3.845400449975343e-05, ,0.016033783653973968, ,0.05193152724988143, ,7.583560807734615e-05, ,0.19154694347939052,-0.22521805881100937,0.09784656178000001,1.6815036568024009,0.5244108860997605,-1.3146530323133712, ,0.02243426514384652,0.040658501096174283,0.01569341036453202,-0.02126592570731901,0.06309140271191474,-0.08243078235218271, ,1.2364580631256104
0.012257493700841936,0.02061733301347537,-0.0869926628801415, ,0.012640949685377047,0.020313495598081165,-0.08757300829885196, ,0.0007590497164793936, ,0.004476484496736649,-0.00016703717803129056,-0.015395304589194546,0.037929967494719864,0.03547114254159208,-3.845400449975343e-05, ,0.016033783653973968, ,0.05193152724988143, ,7.699032005514977e-05, ,0.19154694347939052,-0.22521805881100937,0.09784656178000001,1.6815036568024009,0.5244108860997605,-1.3146530323133712, ,0.02243426514384652,0.040658501096174283,0.01569341036453202,-0.02126592570731901,0.06309140271191474,-0.08243078235218271, ,1.240891933441162
0.012304375651698255,0.020613520795128785,-0.0871469240151301, ,0.012678350942424718,0.02031157011583057,-0.08769071237534573, ,0.0007257668437649895, ,0.005156685885727055,-0.00038449366255642587,-0.016357604740065364,-0.03156643002236094,-0.027966268565804833,0.04167065593809271, ,0.01715547951917438, ,0.04217286462571656, ,7.807324847116244e-05, ,0.1917631799998688,-0.22480103123580125,0.09800211658,1.6810842769154317,0.5246841590992912,-1.3149575468609047, ,0.023162543704776856,0.043134973435668536,0.01643840198142415,-0.0580021980310974,0.007953094467635738,-0.022335993149287484, ,1.2454071044921875
0.012304375651698255,0.020613520795128785,-0.0871469240151301, ,0.012715865198622656,0.02030962961643442,-0.087808278895202, ,0.0008361003367486511, ,0.005156685885727055,-0.00038449366255642587,-0.016357604740065364,-0.03156643002236094,-0.027966268565804833,0.04167065593809271, ,0.01715547951917438, ,0.04217286462571656, ,7.935618024438192e-05, ,0.1917631799998688,-0.22480103123580125,0.09800211658,1.6810842769154317,0.5246841590992912,-1.3149575468609047, ,0.023162543704776856,0.043134973435668536,0.01643840198142415,-0.0580021980310974,0.007953094467635738,-0.022335993149287484, ,1.2500789165496826
0.012304375651698255,0.020613520795128785,-0.0871469240151301, ,0.012753491768550356,0.020307674347301435,-0.08792570648388194, ,0.0009496049018934768, ,0.005156685885727055,-0.00038449366255642587,-0.016357604740065364,-0.03156643002236094,-0.027966268565804833,0.04167065593809271, ,0.01715547951917438, ,0.04217286462571656, ,8.084282035980431e-05, ,0.1917631799998688,-0.22480103123580125,0.09800211658,1.6810842769154317,0.5246841590992912,-1.3149575468609047, ,0.023162543704776856,0.043134973435668536,0.01643840198142415,-0.0580021980310974,0.007953094467635738,-0.022335993149287484, ,1.2550380229949951
0.012353706473935088,0.02061332965527075,-0.08730726119694614, ,0.012791229968681544,0.02030570455544003,-0.08804299377290584, ,0.0009095946535843902, ,0.005928855399538071,0.0004231942502410634,-0.018681223394639016,-0.023361646915623535,-0.017897204068380836,-0.04504520173646026, ,0.019604043645189043, ,0.029429138363854773, ,8.224339903558106e-05, ,0.19197941652034708,-0.22439944912634158,0.09816415283,1.680874586971947,0.5248207955990567,-1.3151506435047418, ,0.025421093372212905,0.04469945433748034,0.018940322853745546,0.032761056345864875,-5.615689026403061e-05,-0.01532042866948145, ,1.2601969242095947
0.012353706473935088,0.02061332965527075,-0.08730726119694614, ,0.012829079117381641,0.020303720487456885,-0.08816013939984492, ,0.0010243232965776064, ,0.005928855399538071,0.0004231942502410634,-0.018681223394639016,-0.023361646915623535,-0.017897204068380836,-0.04504520173646026, ,0.019604043645189043, ,0.029429138363854773, ,8.384757160742143e-05, ,0.19197941652034708,-0.22439944912634158,0.09816415283,1.680874586971947,0.5248207955990567,-1.3151506435047418, ,0.025421093372212905,0.04469945433748034,0.018940322853745546,0.032761056345864875,-5.615689026403061e-05,-0.01532042866948145, ,1.264693021774292
0.012420286047982069,0.02062113577467296,-0.08754144782821943, ,0.012867038534906117,0.02030172238955861,-0.08827714200831423, ,0.0009180733204861055, ,0.006069717850238868,0.0009019617983391662,-0.0226135560030166,0.04041833032880181,0.055044300373415796,-0.009121466697776035, ,0.023431344924454076, ,0.06828990054664745, ,8.524232658376208e-05, ,0.1922728803695676,-0.2238743032908943,0.09840396648000001,1.6810842769154317,0.525503978097884,-1.316034447983786, ,0.02606342805780576,0.047495966745981374,0.023219841865889216,-0.010157798933527966,0.08432550392722414,-0.08855969454344037, ,1.2691099643707275
0.012420286047982069,0.02062113577467296,-0.08754144782821943, ,0.012905107543397843,0.020299710507550715,-0.08839400024796394, ,0.0010320909422982124, ,0.006069717850238868,0.0009019617983391662,-0.0226135560030166,0.04041833032880181,0.055044300373415796,-0.009121466697776035, ,0.023431344924454076, ,0.06828990054664745, ,8.683789378585594e-05, ,0.1922728803695676,-0.2238743032908943,0.09840396648000001,1.6810842769154317,0.525503978097884,-1.316034447983786, ,0.02606342805780576,0.047495966745981374,0.023219841865889216,-0.010157798933527966,0.08432550392722414,-0.08855969454344037, ,1.2735559940338135
0.012487589563907763,0.020633284054355293,-0.0877863919685897, ,0.012943285466885212,0.02029768508683841,-0.08851071277447127, ,0.0009191985927000525, ,0.007152439268724007,0.0014525755262652217,-0.02631182073417717,0.02125575985951796,0.006637654925475373,-0.013509893612137747, ,0.027305297535455745, ,0.022267760977936434, ,8.821339711635102e-05, ,0.19251228508866858,-0.22343410751706352,0.09863600239,1.680874586971947,0.5259138875971804,-1.3166954166554374, ,0.025326111971836346,0.04945124625246002,0.026636808561872914,-0.013626023675022752,0.03701870412017314,-0.07716165479847928, ,1.2779760360717773
0.012487589563907763,0.020633284054355293,-0.0877863919685897, ,0.012981571631279862,0.020295646372426146,-0.08862727824953333, ,0.0010320403212195288, ,0.007152439268724007,0.0014525755262652217,-0.02631182073417717,0.02125575985951796,0.006637654925475373,-0.013509893612137747, ,0.027305297535455745, ,0.022267760977936434, ,8.978621609978269e-05, ,0.19251228508866858,-0.22343410751706352,0.09863600239,1.680874586971947,0.5259138875971804,-1.3166954166554374, ,0.025326111971836346,0.04945124625246002,0.026636808561872914,-0.013626023675022752,0.03701870412017314,-0.07716165479847928, ,1.2824389934539795
0.012564560338096675,0.020645078357053728,-0.08806550164507626, ,0.013019965364374813,0.02029359460891865,-0.0887436953408586, ,0.0008893150466293634, ,0.00815663900952824,0.0012473617112498917,-0.02948833544136685,-0.031016531644985093,-0.030820283318245777,0.05644753030885568, ,0.0306210482882775, ,0.0437251964186776, ,9.108611099800576e-05, ,0.1928057489378891,-0.2228626252843709,0.09893803796000002,1.6800358271980091,0.5261871605967111,-1.3172449674233926, ,0.028285228482405594,0.05638558619041639,0.029941375037593993,-0.08090903900097436,0.015028033614200775,-0.040859357391045695, ,1.2868859767913818
0.012564560338096675,0.020645078357053728,-0.08806550164507626, ,0.013058465995841899,0.020291530040520044,-0.08885996272215865, ,0.001000053805490214, ,0.00815663900952824,0.0012473617112498917,-0.02948833544136685,-0.031016531644985093,-0.030820283318245777,0.05644753030885568, ,0.0306210482882775, ,0.0437251964186776, ,9.257859563941855e-05, ,0.1928057489378891,-0.2228626252843709,0.09893803796000002,1.6800358271980091,0.5261871605967111,-1.3172449674233926, ,0.028285228482405594,0.05638558619041639,0.029941375037593993,-0.08090903900097436,0.015028033614200775,-0.040859357391045695, ,1.2915890216827393
0.012650734918514735,0.020662441494219922,-0.08837163831861616, ,0.013097072857229943,0.020289452911034553,-0.08897607907314091, ,0.0008388603366792436, ,0.008294835405272313,0.0014754475864452382,-0.029191326342365955,0.0027202773079711947,0.006437806215149826,0.03144947316219776, ,0.030382803912861873, ,0.006987421609776718, ,9.376714681287383e-05, ,0.1931146582528581,-0.22233747944892363,0.09922581434000001,1.6798261372545245,0.5267337065957729,-1.3179356752586, ,0.033449750284973837,0.05463266641247599,0.030111174896030254,-0.05744044876738614,0.05209291940450155,-0.06755921213648391, ,1.29640793800354
0.012650734918514735,0.020662441494219922,-0.08837163831861616, ,0.013135785281962391,0.02028736346386642,-0.08909204307950007, ,0.0009460128981355185, ,0.008294835405272313,0.0014754475864452382,-0.029191326342365955,0.0027202773079711947,0.006437806215149826,0.03144947316219776, ,0.030382803912861873, ,0.006987421609776718, ,9.514120225582632e-05, ,0.1931146582528581,-0.22233747944892363,0.09922581434000001,1.6798261372545245,0.5267337065957729,-1.3179356752586, ,0.033449750284973837,0.05463266641247599,0.030111174896030254,-0.05744044876738614,0.05209291940450155,-0.06755921213648391, ,1.3014659881591797
0.012650734918514735,0.020662441494219922,-0.08837163831861616, ,0.013174602605335445,0.020285261942020228,-0.08920785343291085, ,0.0010563888892199304, ,0.008294835405272313,0.0014754475864452382,-0.029191326342365955,0.0027202773079711947,0.006437806215149826,0.03144947316219776, ,0.030382803912861873, ,0.006987421609776718, ,9.687944400440517e-05, ,0.1931146582528581,-0.22233747944892363,0.09922581434000001,1.6798261372545245,0.5267337065957729,-1.3179356752586, ,0.033449750284973837,0.05463266641247599,0.030111174896030254,-0.05744044876738614,0.05209291940450155,-0.06755921213648391, ,1.3037281036376953
0.012728815299668865,0.020673229670581883,-0.08864089568714019, ,0.013213524164515517,0.02028314858810077,-0.0893235088310192, ,0.0009236160667544412, ,0.008454250421768315,0.0008241720130936082,-0.02793421396769789,0.020110314350294176,0.02446932875363785,-0.024042575261203892, ,0.02919715602065147, ,0.031672634620194505, ,9.837174837760019e-05, ,0.19348534943082085,-0.22174282901760833,0.09952784991000001,1.67961644731104,0.5274168890946002,-1.3187378009975037, ,0.03821866353542923,0.06098775164426143,0.02859750721723519,0.0,0.06305236094124356,-0.08061922173789351, ,1.305974006652832
0.012728815299668865,0.020673229670581883,-0.08864089568714019, ,0.013252549298537454,0.020281023644313105,-0.08943900797743434, ,0.0010320397746845843, ,0.008454250421768315,0.0008241720130936082,-0.02793421396769789,0.020110314350294176,0.02446932875363785,-0.024042575261203892, ,0.02919715602065147, ,0.031672634620194505, ,0.00010005403310968485, ,0.19348534943082085,-0.22174282901760833,0.09952784991000001,1.67961644731104,0.5274168890946002,-1.3187378009975037, ,0.03821866353542923,0.06098775164426143,0.02859750721723519,0.0,0.06305236094124356,-0.08061922173789351, ,1.3082900047302246
0.012728815299668865,0.020673229670581883,-0.08864089568714019, ,0.01329167734830221,0.020278887352463432,-0.08955434958172212, ,0.0011431174774176346, ,0.008454250421768315,0.0008241720130936082,-0.02793421396769789,0.020110314350294176,0.02446932875363785,-0.024042575261203892, ,0.02919715602065147, ,0.031672634620194505, ,0.00010193004649872792, ,0.19348534943082085,-0.22174282901760833,0.09952784991000001,1.67961644731104,0.5274168890946002,-1.3187378009975037, ,0.03821866353542923,0.06098775164426143,0.02859750721723519,0.0,0.06305236094124356,-0.08061922173789351, ,1.310575008392334
0.012728815299668865,0.020673229670581883,-0.08864089568714019, ,0.013330907656574659,0.020276739953958196,-0.08966953235939551, ,0.0012561101484906507, ,0.008454250421768315,0.0008241720130936082,-0.02793421396769789,0.020110314350294176,0.02446932875363785,-0.024042575261203892, ,0.02919715602065147, ,0.031672634620194505, ,0.0005735565940770631, ,0.19348534943082085,-0.22174282901760833,0.09952784991000001,1.67961644731104,0.5274168890946002,-1.3187378009975037, ,0.03821866353542923,0.06098775164426143,0.02859750721723519,0.0,0.06305236094124356,-0.08061922173789351, ,1.3127999305725098
0.012728815299668865,0.020673229670581883,-0.08864089568714019, ,0.013370239567981586,0.020274581689804665,-0.08978455503190705, ,0.001370511583836789, ,0.010299931374064028,0.0006520330093125822,-0.031198146527742235,-0.014825166491091226,-0.016580347570981563,-0.01128883886131234, ,0.03286088982547698, ,0.02224104159382319, ,0.0005813698782903937, ,0.19393326793752588,-0.22107867399042505,0.09982988548,1.6798261372545245,0.5278267985938964,-1.3193170909290146, ,0.04876512926951222,0.06982850740137658,0.031857623040000005,-0.01382122497414489,0.03520176517746598,-0.05737842466767384, ,1.3156540393829346
0.012824503270516454,0.020680920731649906,-0.08893631704782463, ,0.013409672429009405,0.02027241280061128,-0.08989941632664135, ,0.0011986917429556627, ,0.010299931374064028,0.0006520330093125822,-0.031198146527742235,-0.014825166491091226,-0.016580347570981563,-0.01128883886131234, ,0.03286088982547698, ,0.02224104159382319, ,0.0005873632944521925, ,0.19393326793752588,-0.22107867399042505,0.09982988548,1.6798261372545245,0.5278267985938964,-1.3193170909290146, ,0.04876512926951222,0.06982850740137658,0.031857623040000005,-0.01382122497414489,0.03520176517746598,-0.05737842466767384, ,1.3187470436096191
0.012824503270516454,0.020680920731649906,-0.08893631704782463, ,0.013449205588002123,0.020270233526587307,-0.09001411497690687, ,0.0013117032216961447, ,0.010299931374064028,0.0006520330093125822,-0.031198146527742235,-0.014825166491091226,-0.016580347570981563,-0.01128883886131234, ,0.03286088982547698, ,0.02224104159382319, ,0.0005943281014449228, ,0.19393326793752588,-0.22107867399042505,0.09982988548,1.6798261372545245,0.5278267985938964,-1.3193170909290146, ,0.04876512926951222,0.06982850740137658,0.031857623040000005,-0.01382122497414489,0.03520176517746598,-0.05737842466767384, ,1.3209710121154785
0.012824503270516454,0.020680920731649906,-0.08893631704782463, ,0.013488838395159087,0.020268044107543584,-0.09012864972192772, ,0.0014259963079549629, ,0.010299931374064028,0.0006520330093125822,-0.031198146527742235,-0.014825166491091226,-0.016580347570981563,-0.01128883886131234, ,0.03286088982547698, ,0.02224104159382319, ,0.0006022487510307326, ,0.19393326793752588,-0.22107867399042505,0.09982988548,1.6798261372545245,0.5278267985938964,-1.3193170909290146, ,0.04876512926951222,0.06982850740137658,0.031857623040000005,-0.01382122497414489,0.03520176517746598,-0.05737842466767384, ,1.3232109546661377
0.01293076630670007,0.020689204641941586,-0.0892866766077693, ,0.013528570202532904,0.020265844782891746,-0.09024301930683606, ,0.0012046553142645879, ,0.010976031889782748,0.0013486425302918418,-0.03751802212040118,0.04972184422086051,0.05531218466705555,0.020702223106778175, ,0.03911386067044459, ,0.07437489649930637, ,0.0006079318318159577, ,0.19442752284147627,-0.22032956890162525,0.10018895781,1.6791970674240708,0.5287832540922546,-1.3205054099555924, ,0.0496063468679931,0.07561509287527553,0.038568550895883784,-0.05547749797243645,0.11799854852881678,-0.1347155400087397, ,1.3260090351104736
0.01293076630670007,0.020689204641941586,-0.0892866766077693, ,0.013568400364027252,0.020263635791645244,-0.09035722248266352, ,0.001316721119925971, ,0.010976031889782748,0.0013486425302918418,-0.03751802212040118,0.04972184422086051,0.05531218466705555,0.020702223106778175, ,0.03911386067044459, ,0.07437489649930637, ,0.0006145560307702568, ,0.19442752284147627,-0.22032956890162525,0.10018895781,1.6791970674240708,0.5287832540922546,-1.3205054099555924, ,0.0496063468679931,0.07561509287527553,0.038568550895883784,-0.05547749797243645,0.11799854852881678,-0.1347155400087397, ,1.3282558917999268
0.01293076630670007,0.020689204641941586,-0.0892866766077693, ,0.01360832823539479,0.020261417372418947,-0.09047125800633417, ,0.0014301486653519758, ,0.010976031889782748,0.0013486425302918418,-0.03751802212040118,0.04972184422086051,0.05531218466705555,0.020702223106778175, ,0.03911386067044459, ,0.07437489649930637, ,0.0006221078144237912, ,0.19442752284147627,-0.22032956890162525,0.10018895781,1.6791970674240708,0.5287832540922546,-1.3205054099555924, ,0.0496063468679931,0.07561509287527553,0.038568550895883784,-0.05547749797243645,0.11799854852881678,-0.1347155400087397, ,1.3307290077209473
0.01293076630670007,0.020689204641941586,-0.0892866766077693, ,0.013648353174234934,0.02025918976342965,-0.09058512464065595, ,0.001544607070522252, ,0.010976031889782748,0.0013486425302918418,-0.03751802212040118,0.04972184422086051,0.05531218466705555,0.020702223106778175, ,0.03911386067044459, ,0.07437489649930637, ,0.0006305711103513001, ,0.19442752284147627,-0.22032956890162525,0.10018895781,1.6791970674240708,0.5287832540922546,-1.3205054099555924, ,0.0496063468679931,0.07561509287527553,0.038568550895883784,-0.05547749797243645,0.11799854852881678,-0.1347155400087397, ,1.33331298828125
0.01293076630670007,0.020689204641941586,-0.0892866766077693, ,0.013688474539991767,0.02025695320249553,-0.0906988211543127, ,0.001659853997806275, ,0.010976031889782748,0.0013486425302918418,-0.03751802212040118,0.04972184422086051,0.05531218466705555,0.020702223106778175, ,0.03911386067044459, ,0.07437489649930637, ,0.0006399282275099817, ,0.19458970023183497,-0.22008244144965008,0.10031729052,1.678777687537102,0.5291931635915509,-1.3210030211469628, ,0.04909308926977277,0.0760392159923644,0.040531327022900764,-0.11106452560941078,0.12482131572281309,-0.135715480069104, ,1.3360490798950195
0.01296681715617167,0.020693013829516542,-0.08941165803480577, ,0.013728691693951807,0.02025470792703696,-0.09081234632185642, ,0.0016536301137034864, ,0.011240548608454236,0.0014703229927187987,-0.03945044783127524,0.040130444183212266,0.05039739440184037,0.07503562915203074, ,0.04104691969941361, ,0.06442246779235317, ,0.0006490606769351483, ,0.19458970023183497,-0.22008244144965008,0.10031729052,1.678777687537102,0.5291931635915509,-1.3210030211469628, ,0.04909308926977277,0.0760392159923644,0.040531327022900764,-0.11106452560941078,0.12482131572281309,-0.135715480069104, ,1.3402340412139893
0.01296681715617167,0.020693013829516542,-0.08941165803480577, ,0.013769003999241984,0.020252454174076367,-0.09092569892369887, ,0.0017691569615036614, ,0.011240548608454236,0.0014703229927187987,-0.03945044783127524,0.040130444183212266,0.05039739440184037,0.07503562915203074, ,0.04104691969941361, ,0.06442246779235317, ,0.0006590615366187958, ,0.19458970023183497,-0.22008244144965008,0.10031729052,1.678777687537102,0.5291931635915509,-1.3210030211469628, ,0.04909308926977277,0.0760392159923644,0.040531327022900764,-0.11106452560941078,0.12482131572281309,-0.135715480069104, ,1.3427560329437256
0.01296681715617167,0.020693013829516542,-0.08941165803480577, ,0.013809410820827402,0.020250192180238404,-0.09103887774610422, ,0.0018851787940738134, ,0.011240548608454236,0.0014703229927187987,-0.03945044783127524,0.040130444183212266,0.05039739440184037,0.07503562915203074, ,0.04104691969941361, ,0.06442246779235317, ,0.0006699121318175127, ,0.19458970023183497,-0.22008244144965008,0.10031729052,1.678777687537102,0.5291931635915509,-1.3210030211469628, ,0.04909308926977277,0.0760392159923644,0.040531327022900764,-0.11106452560941078,0.12482131572281309,-0.135715480069104, ,1.3450379371643066
0.013175197285775746,0.02073453806651524,-0.09014788150970346, ,0.013849911525509184,0.020247922181749613,-0.09115188158118094, ,0.0013038598345420777, ,0.013472290491366879,0.0029054631565236873,-0.04777425249831742,0.045355607192326876,0.05256801588440523,-0.016297525510459505, ,0.04972246503353066, ,0.06942822574106731, ,0.0006754730765782545, ,0.19545464631374812,-0.21878502232678035,0.10107562017,1.6775195478761948,0.5312427110880324,-1.3234910771038149, ,0.05283794073411513,0.08412849428942444,0.049162998518518526,-0.020109737326615248,0.11032007972167404,-0.13263410493767863, ,1.3472380638122559
0.013175197285775746,0.02073453806651524,-0.09014788150970346, ,0.013890505481922345,0.020245644414439712,-0.09126470922687299, ,0.001413501669030624, ,0.013472290491366879,0.0029054631565236873,-0.04777425249831742,0.045355607192326876,0.05256801588440523,-0.016297525510459505, ,0.04972246503353066, ,0.06942822574106731, ,0.0006818907165126229, ,0.19545464631374812,-0.21878502232678035,0.10107562017,1.6775195478761948,0.5312427110880324,-1.3234910771038149, ,0.05283794073411513,0.08412849428942444,0.049162998518518526,-0.020109737326615248,0.11032007972167404,-0.13263410493767863, ,1.3495690822601318
0.013175197285775746,0.02073453806651524,-0.09014788150970346, ,0.013931192060533731,0.020243359113740384,-0.09137735948695343, ,0.001524598622475127, ,0.013472290491366879,0.0029054631565236873,-0.04777425249831742,0.045355607192326876,0.05256801588440523,-0.016297525510459505, ,0.04972246503353066, ,0.06942822574106731, ,0.0006891554398398859, ,0.19545464631374812,-0.21878502232678035,0.10107562017,1.6775195478761948,0.5312427110880324,-1.3234910771038149, ,0.05283794073411513,0.08412849428942444,0.049162998518518526,-0.020109737326615248,0.11032007972167404,-0.13263410493767863, ,1.3519020080566406
0.013175197285775746,0.02073453806651524,-0.09014788150970346, ,0.01397197063363962,0.020241066514685924,-0.09148983117101456, ,0.001636823397261907, ,0.013472290491366879,0.0029054631565236873,-0.04777425249831742,0.045355607192326876,0.05256801588440523,-0.016297525510459505, ,0.04972246503353066, ,0.06942822574106731, ,0.0006972551659716981, ,0.19545464631374812,-0.21878502232678035,0.10107562017,1.6775195478761948,0.5312427110880324,-1.3234910771038149, ,0.05283794073411513,0.08412849428942444,0.049162998518518526,-0.020109737326615248,0.11032007972167404,-0.13263410493767863, ,1.3542160987854004
0.01331388866829068,0.020760791138314718,-0.09062845379342224, ,0.014012840575363887,0.020238766851913902,-0.09160212309446236, ,0.0013073159647849142, ,0.014260623996660109,0.0020224868217082292,-0.047653069008728635,-0.041411721183720565,-0.011211648113920617,-0.009244030295674317, ,0.049782234136976564, ,0.042899720010503135, ,0.0007024251727413015, ,0.1959797921491954,-0.21790463077911876,0.10156821037000001,1.6775195478761948,0.5319258935868597,-1.3242932028427186, ,0.055658030239572304,0.0921329529693891,0.04871196183486239,-0.01579554715586559,0.04822838282534743,-0.05201889363103746, ,1.356429100036621
0.01331388866829068,0.020760791138314718,-0.09062845379342224, ,0.014053801261655598,0.020236460359664216,-0.09171423407850551, ,0.001414677432751279, ,0.014260623996660109,0.0020224868217082292,-0.047653069008728635,-0.041411721183720565,-0.011211648113920617,-0.009244030295674317, ,0.049782234136976564, ,0.042899720010503135, ,0.0007084104858506291, ,0.1959797921491954,-0.21790463077911876,0.10156821037000001,1.6775195478761948,0.5319258935868597,-1.3242932028427186, ,0.055658030239572304,0.0921329529693891,0.04871196183486239,-0.01579554715586559,0.04822838282534743,-0.05201889363103746, ,1.3586630821228027
0.01331388866829068,0.020760791138314718,-0.09062845379342224, ,0.01409485207028701,0.020234147271780276,-0.09182616295015014, ,0.0015237338420885343, ,0.014260623996660109,0.0020224868217082292,-0.047653069008728635,-0.041411721183720565,-0.011211648113920617,-0.009244030295674317, ,0.049782234136976564, ,0.042899720010503135, ,0.0007152048471526117, ,0.1959797921491954,-0.21790463077911876,0.10156821037000001,1.6775195478761948,0.5319258935868597,-1.3242932028427186, ,0.055658030239572304,0.0921329529693891,0.04871196183486239,-0.01579554715586559,0.04822838282534743,-0.05201889363103746, ,1.3608739376068115
0.01331388866829068,0.020760791138314718,-0.09062845379342224, ,0.014135992380851411,0.020231827821708463,-0.0919379085421903, ,0.001634113962853405, ,0.014260623996660109,0.0020224868217082292,-0.047653069008728635,-0.041411721183720565,-0.011211648113920617,-0.009244030295674317, ,0.049782234136976564, ,0.042899720010503135, ,0.0007227991373650149, ,0.1959797921491954,-0.21790463077911876,0.10156821037000001,1.6775195478761948,0.5319258935868597,-1.3242932028427186, ,0.055658030239572304,0.0921329529693891,0.04871196183486239,-0.01579554715586559,0.04822838282534743,-0.05201889363103746, ,1.3631160259246826
0.01331388866829068,0.020760791138314718,-0.09062845379342224, ,0.014177221574760857,0.020229502242498525,-0.09204946969320073, ,0.001745536532311797, ,0.014260623996660109,0.0020224868217082292,-0.047653069008728635,-0.041411721183720565,-0.011211648113920617,-0.009244030295674317, ,0.049782234136976564, ,0.042899720010503135, ,0.000731182230766218, ,0.1959797921491954,-0.21790463077911876,0.10156821037000001,1.6775195478761948,0.5319258935868597,-1.3242932028427186, ,0.055658030239572304,0.0921329529693891,0.04871196183486239,-0.01579554715586559,0.04822838282534743,-0.05201889363103746, ,1.3653879165649414
0.013466484574706353,0.020781162140187107,-0.09112160293849825, ,0.014218539035244126,0.020227170766803252,-0.09216084524752838, ,0.0013973249193644148, ,0.015780359747868233,0.0015793679490802685,-0.048985430495102664,-0.0030553755088625167,0.002027447427220098,-0.02401603086323851, ,0.05148870320450162, ,0.0036281961114471807, ,0.0007365980249824635, ,0.196620778977756,-0.2169392891698407,0.10207376347000001,1.6775195478761948,0.5326090760856869,-1.325177007321763, ,0.07066041813735724,0.09968166130091469,0.0502486167823344,-0.011703895720104945,0.07546626348905194,-0.09801083184844456, ,1.3685269355773926
0.013466484574706353,0.020781162140187107,-0.09112160293849825, ,0.014259944147344565,0.020224833626879574,-0.0922720340552848, ,0.0015041845839526894, ,0.015780359747868233,0.0015793679490802685,-0.048985430495102664,-0.0030553755088625167,0.002027447427220098,-0.02401603086323851, ,0.05148870320450162, ,0.0036281961114471807, ,0.0007427882391677072, ,0.196620778977756,-0.2169392891698407,0.10207376347000001,1.6775195478761948,0.5326090760856869,-1.325177007321763, ,0.07066041813735724,0.09968166130091469,0.0502486167823344,-0.011703895720104945,0.07546626348905194,-0.09801083184844456, ,1.3708341121673584
0.013466484574706353,0.020781162140187107,-0.09112160293849825, ,0.014301436297917884,0.02022249105458745,-0.0923830349723378, ,0.001612596830573465, ,0.015780359747868233,0.0015793679490802685,-0.048985430495102664,-0.0030553755088625167,0.002027447427220098,-0.02401603086323851, ,0.05148870320450162, ,0.0036281961114471807, ,0.0007497467078989532, ,0.196620778977756,-0.2169392891698407,0.10207376347000001,1.6775195478761948,0.5326090760856869,-1.325177007321763, ,0.07066041813735724,0.09968166130091469,0.0502486167823344,-0.011703895720104945,0.07546626348905194,-0.09801083184844456, ,1.373147964477539
0.013466484574706353,0.020781162140187107,-0.09112160293849825, ,0.014343014875630016,0.0202201432813909,-0.09249384686030418, ,0.0017222371814868162, ,0.015780359747868233,0.0015793679490802685,-0.048985430495102664,-0.0030553755088625167,0.002027447427220098,-0.02401603086323851, ,0.05148870320450162, ,0.0036281961114471807, ,0.0007574648862607616, ,0.196620778977756,-0.2169392891698407,0.10207376347000001,1.6775195478761948,0.5326090760856869,-1.325177007321763, ,0.07066041813735724,0.09968166130091469,0.0502486167823344,-0.011703895720104945,0.07546626348905194,-0.09801083184844456, ,1.3754749298095703
0.013614985620854784,0.02078881024702276,-0.09158200603506939, ,0.014384679270955074,0.020217790538357983,-0.09260446858654098, ,0.0014013998329706317, ,0.015780359747868233,0.0015793679490802685,-0.048985430495102664,-0.0030553755088625167,0.002027447427220098,-0.02401603086323851, ,0.05148870320450162, ,0.0036281961114471807, ,0.000762535240171863, ,0.19730810220356199,-0.2159662248276884,0.10254561303000001,1.676680788102257,0.533565531584045,-1.3262836476082, ,0.07875264859624131,0.10650610724856428,0.05009060226415095,-0.03961198410443349,0.12281244275137086,-0.13202516708457124, ,1.3783950805664062
0.013614985620854784,0.02078881024702276,-0.09158200603506939, ,0.014426428876173038,0.020215433056160446,-0.09271489902413799, ,0.0015068669763066136, ,0.016174968400362998,0.0006845622430151795,-0.048740462634336366,0.019779159570390534,0.0347011080155296,0.0005882313092112596, ,0.051358844671842485, ,0.03993879038784778, ,0.0007683503318604158, ,0.19730810220356199,-0.2159662248276884,0.10254561303000001,1.676680788102257,0.533565531584045,-1.3262836476082, ,0.07875264859624131,0.10650610724856428,0.05009060226415095,-0.03961198410443349,0.12281244275137086,-0.13202516708457124, ,1.38114595413208
0.013614985620854784,0.02078881024702276,-0.09158200603506939, ,0.014468263085367717,0.020213071065074372,-0.0928251370519097, ,0.001613980409455659, ,0.016174968400362998,0.0006845622430151795,-0.048740462634336366,0.019779159570390534,0.0347011080155296,0.0005882313092112596, ,0.051358844671842485, ,0.03993879038784778, ,0.0007749056037797588, ,0.19730810220356199,-0.2159662248276884,0.10254561303000001,1.676680788102257,0.533565531584045,-1.3262836476082, ,0.07875264859624131,0.10650610724856428,0.05009060226415095,-0.03961198410443349,0.12281244275137086,-0.13202516708457124, ,1.3835179805755615
0.013786343152367557,0.020785297561674916,-0.0920784292307379, ,0.01451018129442447,0.020210704794980036,-0.09293518155438732, ,0.0012602075414443257, ,0.016048275734595666,-0.0006577611752953195,-0.044052607650863836,0.0003670666042579836,0.01588211104530662,0.03397592517871348, ,0.046889359610238705, ,0.01588112982978353, ,0.0007786386956079478, ,0.19730810220356199,-0.2159662248276884,0.10254561303000001,1.676680788102257,0.533565531584045,-1.3262836476082, ,0.07875264859624131,0.10650610724856428,0.05009060226415095,-0.03961198410443349,0.12281244275137086,-0.13202516708457124, ,1.3862760066986084
0.013786343152367557,0.020785297561674916,-0.0920784292307379, ,0.014552182901028348,0.020208334475362116,-0.0930450314218107, ,0.0013615126585467868, ,0.016048275734595666,-0.0006577611752953195,-0.044052607650863836,0.0003670666042579836,0.01588211104530662,0.03397592517871348, ,0.046889359610238705, ,0.01588112982978353, ,0.0007830881151723663, ,0.1981884937512236,-0.21480781489655473,0.103055055,1.6756323383848342,0.5349318965816994,-1.327642862865586, ,0.08619159087962833,0.10710715751520403,0.04525230545454546,-0.07136599049779373,0.11817233936836274,-0.11897255547633127, ,1.3885960578918457
0.013786343152367557,0.020785297561674916,-0.0920784292307379, ,0.01459426730466152,0.020205960335309695,-0.09315468555011999, ,0.001465162353707719, ,0.016048275734595666,-0.0006577611752953195,-0.044052607650863836,0.0003670666042579836,0.01588211104530662,0.03397592517871348, ,0.046889359610238705, ,0.01588112982978353, ,0.0007882553442521796, ,0.1981884937512236,-0.21480781489655473,0.103055055,1.6756323383848342,0.5349318965816994,-1.327642862865586, ,0.08619159087962833,0.10710715751520403,0.04525230545454546,-0.07136599049779373,0.11817233936836274,-0.11897255547633127, ,1.39084792137146
0.013786343152367557,0.020785297561674916,-0.0920784292307379, ,0.014636433906601444,0.02020358260351654,-0.09326414284094915, ,0.0015706569798715853, ,0.016048275734595666,-0.0006577611752953195,-0.044052607650863836,0.0003670666042579836,0.01588211104530662,0.03397592517871348, ,0.046889359610238705, ,0.01588112982978353, ,0.0007941380633169872, ,0.1981884937512236,-0.21480781489655473,0.103055055,1.6756323383848342,0.5349318965816994,-1.327642862865586, ,0.08619159087962833,0.10710715751520403,0.04525230545454546,-0.07136599049779373,0.11817233936836274,-0.11897255547633127, ,1.3930580615997314
0.013786343152367557,0.020785297561674916,-0.0920784292307379, ,0.014678682109918687,0.020201201508281204,-0.09337340220161607, ,0.0016776149767031045, ,0.016048275734595666,-0.0006577611752953195,-0.044052607650863836,0.0003670666042579836,0.01588211104530662,0.03397592517871348, ,0.046889359610238705, ,0.01588112982978353, ,0.0008007311746109135, ,0.1981884937512236,-0.21480781489655473,0.103055055,1.6756323383848342,0.5349318965816994,-1.327642862865586, ,0.08619159087962833,0.10710715751520403,0.04525230545454546,-0.07136599049779373,0.11817233936836274,-0.11897255547633127, ,1.3952839374542236
0.01395163435581479,0.02077316278523738,-0.0925236580475035, ,0.014721011319474588,0.020198817277507178,-0.09348246254511583, ,0.0013568786751592325, ,0.016516110284848538,-0.0016215316572762435,-0.04409864135064088,-0.013433756208653388,0.01584295994618166,-0.034738943296268504, ,0.04711795234121791, ,0.020767725263313906, ,0.0008048507857260862, ,0.19907660803175942,-0.21364940496542106,0.10351134908000001,1.6754226484413495,0.5360249885798228,-1.3285342060951573, ,0.08868873042847737,0.11951755863787251,0.04512411195467422,0.0,0.10536491045190546,-0.10347400961600271, ,1.3975830078125
0.01395163435581479,0.02077316278523738,-0.0925236580475035, ,0.01476342094191925,0.02019643013870233,-0.09359132279011226, ,0.0014599746605911668, ,0.016516110284848538,-0.0016215316572762435,-0.04409864135064088,-0.013433756208653388,0.01584295994618166,-0.034738943296268504, ,0.04711795234121791, ,0.020767725263313906, ,0.0008096678730412705, ,0.19907660803175942,-0.21364940496542106,0.10351134908000001,1.6754226484413495,0.5360249885798228,-1.3285342060951573, ,0.08868873042847737,0.11951755863787251,0.04512411195467422,0.0,0.10536491045190546,-0.10347400961600271, ,1.3999030590057373
0.01395163435581479,0.02077316278523738,-0.0925236580475035, ,0.014805910385689503,0.020194040318980786,-0.09369998186093066, ,0.0015648987443849045, ,0.016516110284848538,-0.0016215316572762435,-0.04409864135064088,-0.013433756208653388,0.01584295994618166,-0.034738943296268504, ,0.04711795234121791, ,0.020767725263313906, ,0.0008151805071386694, ,0.19907660803175942,-0.21364940496542106,0.10351134908000001,1.6754226484413495,0.5360249885798228,-1.3285342060951573, ,0.08868873042847737,0.11951755863787251,0.04512411195467422,0.0,0.10536491045190546,-0.10347400961600271, ,1.40220308303833
0.01395163435581479,0.02077316278523738,-0.0925236580475035, ,0.014848479061006356,0.020191648045060594,-0.09380843868754833, ,0.0016712723031591947, ,0.016516110284848538,-0.0016215316572762435,-0.04409864135064088,-0.013433756208653388,0.01584295994618166,-0.034738943296268504, ,0.04711795234121791, ,0.020767725263313906, ,0.0008213840708779486, ,0.19907660803175942,-0.21364940496542106,0.10351134908000001,1.6754226484413495,0.5360249885798228,-1.3285342060951573, ,0.08868873042847737,0.11951755863787251,0.04512411195467422,0.0,0.10536491045190546,-0.10347400961600271, ,1.404500961303711
0.014108281337971387,0.020757674930735433,-0.09294656044040087, ,0.014891126379873377,0.020189253543266318,-0.09391669220558868, ,0.0013700747699265422, ,0.016903812876971635,-0.0018134136290881306,-0.04595741660630328,-0.017118760107235956,0.021955326581730366,-0.03292615589598979, ,0.04900113774082348, ,0.02783672576842475, ,0.0008253314859790176, ,0.19991066318217565,-0.21249871776716162,0.10394430994000001,1.6756323383848342,0.5371180805779463,-1.329425549324729, ,0.0885232663791705,0.12453666871190391,0.04698764460176992,-0.002074612043613779,0.11193706821381863,-0.10475088476335723, ,1.406810998916626
0.014108281337971387,0.020757674930735433,-0.09294656044040087, ,0.014933851756074088,0.020186857039526995,-0.09402474135631105, ,0.0014730491056318623, ,0.016903812876971635,-0.0018134136290881306,-0.04595741660630328,-0.017118760107235956,0.021955326581730366,-0.03292615589598979, ,0.04900113774082348, ,0.02783672576842475, ,0.0008299580404051093, ,0.19991066318217565,-0.21249871776716162,0.10394430994000001,1.6756323383848342,0.5371180805779463,-1.329425549324729, ,0.0885232663791705,0.12453666871190391,0.04698764460176992,-0.002074612043613779,0.11193706821381863,-0.10475088476335723, ,1.4090549945831299
0.014108281337971387,0.020757674930735433,-0.09294656044040087, ,0.014976654605170088,0.020184458759378018,-0.09413258508660488, ,0.001577752633239558, ,0.016903812876971635,-0.0018134136290881306,-0.04595741660630328,-0.017118760107235956,0.021955326581730366,-0.03292615589598979, ,0.04900113774082348, ,0.02783672576842475, ,0.0008352615481557082, ,0.19991066318217565,-0.21249871776716162,0.10394430994000001,1.6756323383848342,0.5371180805779463,-1.329425549324729, ,0.0885232663791705,0.12453666871190391,0.04698764460176992,-0.002074612043613779,0.11193706821381863,-0.10475088476335723, ,1.411350965499878
0.014108281337971387,0.020757674930735433,-0.09294656044040087, ,0.015019534344498738,0.020182058927959982,-0.09424022234897991, ,0.0016838280667172364, ,0.016903812876971635,-0.0018134136290881306,-0.04595741660630328,-0.017118760107235956,0.021955326581730366,-0.03292615589598979, ,0.04900113774082348, ,0.02783672576842475, ,0.0008412373687089584, ,0.19991066318217565,-0.21249871776716162,0.10394430994000001,1.6756323383848342,0.5371180805779463,-1.329425549324729, ,0.0885232663791705,0.12453666871190391,0.04698764460176992,-0.002074612043613779,0.11193706821381863,-0.10475088476335723, ,1.4145770072937012
0.014258063078997824,0.020739118211016042,-0.09335011382336109, ,0.015062490393171143,0.020179657770019496,-0.09434765210155922, ,0.0013982781930998761, ,0.01704897828731148,-0.0021458685515269296,-0.04566827703763118,-0.017702388065733193,0.02199307648334068,-0.010315750290802698, ,0.04879409738961755, ,0.028228909179982335, ,0.0008451327590893145, ,0.20069838193534656,-0.21140208969902172,0.10435653016000002,1.675212958497865,0.5380745360763045,-1.3303688321308849, ,0.09055051675426601,0.1251938542987741,0.04671205724340176,-0.025985333588218536,0.1190918061639015,-0.1093387542744695, ,1.417593002319336
0.014258063078997824,0.020739118211016042,-0.09335011382336109, ,0.015105522172069988,0.020177255509909283,-0.09445487330807135, ,0.0015014560028129287, ,0.01704897828731148,-0.0021458685515269296,-0.04566827703763118,-0.017702388065733193,0.02199307648334068,-0.010315750290802698, ,0.04879409738961755, ,0.028228909179982335, ,0.0008496905593929507, ,0.20069838193534656,-0.21140208969902172,0.10435653016000002,1.675212958497865,0.5380745360763045,-1.3303688321308849, ,0.09055051675426601,0.1251938542987741,0.04671205724340176,-0.025985333588218536,0.1190918061639015,-0.1093387542744695, ,1.4199299812316895
0.014258063078997824,0.020739118211016042,-0.09335011382336109, ,0.015148629103847244,0.020174852371587927,-0.09456188493784189, ,0.0016062045374271778, ,0.01704897828731148,-0.0021458685515269296,-0.04566827703763118,-0.017702388065733193,0.02199307648334068,-0.010315750290802698, ,0.04879409738961755, ,0.028228909179982335, ,0.0008549078971724971, ,0.20069838193534656,-0.21140208969902172,0.10435653016000002,1.675212958497865,0.5380745360763045,-1.3303688321308849, ,0.09055051675426601,0.1251938542987741,0.04671205724340176,-0.025985333588218536,0.1190918061639015,-0.1093387542744695, ,1.4225080013275146
0.014258063078997824,0.020739118211016042,-0.09335011382336109, ,0.015191810612922105,0.020172448578620043,-0.09466868596578533, ,0.001712200754633274, ,0.01704897828731148,-0.0021458685515269296,-0.04566827703763118,-0.017702388065733193,0.02199307648334068,-0.010315750290802698, ,0.04879409738961755, ,0.028228909179982335, ,0.0008607797660592148, ,0.20069838193534656,-0.21140208969902172,0.10435653016000002,1.675212958497865,0.5380745360763045,-1.3303688321308849, ,0.09055051675426601,0.1251938542987741,0.04671205724340176,-0.025985333588218536,0.1190918061639015,-0.1093387542744695, ,1.4248430728912354
0.014457103986061764,0.020706880318704265,-0.09388189297304853, ,0.015235066125478963,0.020170044354176984,-0.09477527537239815, ,0.0013005960382240925, ,0.01744075103339533,-0.0032834583450308923,-0.044702107916652946,-0.0372483623193078,0.0036960383925044426,0.06370929948319036, ,0.048096146909129, ,0.037428901861160824, ,0.000863771713488908, ,0.20176411907198954,-0.20990387952142217,0.10489967567000001,1.674374198723927,0.5395775375737243,-1.3318394652919672, ,0.0962443626353659,0.12964063054435898,0.04564129375358167,-0.10365687196562874,0.12265687979847198,-0.10925847484144233, ,1.4272279739379883
0.014457103986061764,0.020706880318704265,-0.09388189297304853, ,0.015278395069465139,0.0201676399210364,-0.09488165214374941, ,0.00140171953312901, ,0.01744075103339533,-0.0032834583450308923,-0.044702107916652946,-0.0372483623193078,0.0036960383925044426,0.06370929948319036, ,0.048096146909129, ,0.037428901861160824, ,0.0008674064960540438, ,0.20176411907198954,-0.20990387952142217,0.10489967567000001,1.674374198723927,0.5395775375737243,-1.3318394652919672, ,0.0962443626353659,0.12964063054435898,0.04564129375358167,-0.10365687196562874,0.12265687979847198,-0.10925847484144233, ,1.429495096206665
0.014457103986061764,0.020706880318704265,-0.09388189297304853, ,0.015321796874588555,0.020165235501582272,-0.09498781527147383, ,0.0015047049642831103, ,0.01744075103339533,-0.0032834583450308923,-0.044702107916652946,-0.0372483623193078,0.0036960383925044426,0.06370929948319036, ,0.048096146909129, ,0.037428901861160824, ,0.0008716836669817557, ,0.20176411907198954,-0.20990387952142217,0.10489967567000001,1.674374198723927,0.5395775375737243,-1.3318394652919672, ,0.0962443626353659,0.12964063054435898,0.04564129375358167,-0.10365687196562874,0.12265687979847198,-0.10925847484144233, ,1.4316840171813965
0.014457103986061764,0.020706880318704265,-0.09388189297304853, ,0.015365270972316006,0.02016283131780551,-0.09509376375276364, ,0.001609157349990475, ,0.01744075103339533,-0.0032834583450308923,-0.044702107916652946,-0.0372483623193078,0.0036960383925044426,0.06370929948319036, ,0.048096146909129, ,0.037428901861160824, ,0.0008766001582018138, ,0.20176411907198954,-0.20990387952142217,0.10489967567000001,1.674374198723927,0.5395775375737243,-1.3318394652919672, ,0.0962443626353659,0.12964063054435898,0.04564129375358167,-0.10365687196562874,0.12265687979847198,-0.10925847484144233, ,1.4339709281921387
0.014642109628652722,0.02067721125729177,-0.09433152338721061, ,0.015408816795870542,0.02016042759130358,-0.09519949659036006, ,0.0012681808700185004, ,0.01869220923222886,-0.0032575010229621442,-0.04450887776744556,-0.0372483623193078,0.0036960383925044426,0.06370929948319036, ,0.048384400368439315, ,0.03742895295457921, ,0.0008791934079489443, ,0.20279896527713562,-0.20859873766567824,0.10535985862000001,1.6741645087804424,0.5405339930720824,-1.3327827480981234, ,0.10509074369708835,0.1303529417011961,0.04551089005714286,-0.05231673849668699,0.08381550943769572,-0.07922561478133232, ,1.436405897140503
0.014642109628652722,0.02067721125729177,-0.09433152338721061, ,0.015452433780229763,0.020158024543281184,-0.09530501279254659, ,0.0013688906811486301, ,0.01869220923222886,-0.0032575010229621442,-0.04450887776744556,-0.05848730862946332,-0.032778872422729345,0.01565148962440544, ,0.048384400368439315, ,0.0670450973004773, ,0.0008824151005357842, ,0.20279896527713562,-0.20859873766567824,0.10535985862000001,1.6741645087804424,0.5405339930720824,-1.3327827480981234, ,0.10509074369708835,0.1303529417011961,0.04551089005714286,-0.05231673849668699,0.08381550943769572,-0.07922561478133232, ,1.4387149810791016
0.014642109628652722,0.02067721125729177,-0.09433152338721061, ,0.015496121362123281,0.020155622394549794,-0.09541031137313931, ,0.001471453193691852, ,0.01869220923222886,-0.0032575010229621442,-0.04450887776744556,-0.05848730862946332,-0.032778872422729345,0.01565148962440544, ,0.048384400368439315, ,0.0670450973004773, ,0.0008862650227132749, ,0.20279896527713562,-0.20859873766567824,0.10535985862000001,1.6741645087804424,0.5405339930720824,-1.3327827480981234, ,0.10509074369708835,0.1303529417011961,0.04551089005714286,-0.05231673849668699,0.08381550943769572,-0.07922561478133232, ,1.440958023071289
0.014642109628652722,0.02067721125729177,-0.09433152338721061, ,0.0155398789800308,0.02015322136552802,-0.09551539135147993, ,0.0015754677311095866, ,0.01869220923222886,-0.0032575010229621442,-0.04450887776744556,-0.05848730862946332,-0.032778872422729345,0.01565148962440544, ,0.048384400368439315, ,0.0670450973004773, ,0.0008907403649755886, ,0.20279896527713562,-0.20859873766567824,0.10535985862000001,1.6741645087804424,0.5405339930720824,-1.3327827480981234, ,0.10509074369708835,0.1303529417011961,0.04551089005714286,-0.05231673849668699,0.08381550943769572,-0.07922561478133232, ,1.443166971206665
0.014642109628652722,0.02067721125729177,-0.09433152338721061, ,0.015583706074179896,0.020150821676241933,-0.09562025175242836, ,0.0016806280542059381, ,0.01869220923222886,-0.0032575010229621442,-0.04450887776744556,-0.05848730862946332,-0.032778872422729345,0.01565148962440544, ,0.048384400368439315, ,0.0670450973004773, ,0.0008958364145835264, ,0.20279896527713562,-0.20859873766567824,0.10535985862000001,1.6741645087804424,0.5405339930720824,-1.3327827480981234, ,0.10509074369708835,0.1303529417011961,0.04551089005714286,-0.05231673849668699,0.08381550943769572,-0.07922561478133232, ,1.4453859329223633
0.014837150096169267,0.020643206653240508,-0.09478618072465829, ,0.015627602086543894,0.020148423546325154,-0.09572489160635365, ,0.0013231790473663455, ,0.019126698229259397,-0.003480017123854152,-0.04448046525445715,-0.05228070409328005,-0.036866921057230856,-0.007001528682853366, ,0.048543309462668924, ,0.06397083530447353, ,0.0008985757904346983, ,0.20390331607814974,-0.2072395366798147,0.10582522673000001,1.6741645087804424,0.5413538120706751,-1.333614613000583, ,0.10796011553864708,0.13235277762687694,0.04551089005714286,-0.03234560166368655,0.07819165640816403,-0.08407549059778341, ,1.447632074356079
0.014837150096169267,0.020643206653240508,-0.09478618072465829, ,0.015671566460839767,0.020146027195018464,-0.0958293099491265, ,0.0014253268615470455, ,0.019126698229259397,-0.003480017123854152,-0.04448046525445715,-0.05228070409328005,-0.036866921057230856,-0.007001528682853366, ,0.048543309462668924, ,0.06397083530447353, ,0.000901930892798471, ,0.20390331607814974,-0.2072395366798147,0.10582522673000001,1.6741645087804424,0.5413538120706751,-1.333614613000583, ,0.10796011553864708,0.13235277762687694,0.04551089005714286,-0.03234560166368655,0.07819165640816403,-0.08407549059778341, ,1.4499239921569824
0.014837150096169267,0.020643206653240508,-0.09478618072465829, ,0.015715598642525763,0.02014363284117037,-0.09593350582211127, ,0.0015289214242555499, ,0.019126698229259397,-0.003480017123854152,-0.04448046525445715,-0.05228070409328005,-0.036866921057230856,-0.007001528682853366, ,0.048543309462668924, ,0.06397083530447353, ,0.000905899187301364, ,0.20390331607814974,-0.2072395366798147,0.10582522673000001,1.6741645087804424,0.5413538120706751,-1.333614613000583, ,0.10796011553864708,0.13235277762687694,0.04551089005714286,-0.03234560166368655,0.07819165640816403,-0.08407549059778341, ,1.4521739482879639
0.014837150096169267,0.020643206653240508,-0.09478618072465829, ,0.0157596980787994,0.020141240703237133,-0.09603747827215763, ,0.0016336493343418505, ,0.019126698229259397,-0.003480017123854152,-0.04448046525445715,-0.05228070409328005,-0.036866921057230856,-0.007001528682853366, ,0.048543309462668924, ,0.06397083530447353, ,0.0009104762322513041, ,0.20390331607814974,-0.2072395366798147,0.10582522673000001,1.6741645087804424,0.5413538120706751,-1.333614613000583, ,0.10796011553864708,0.13235277762687694,0.04551089005714286,-0.03234560166368655,0.07819165640816403,-0.08407549059778341, ,1.4544739723205566
0.015004642362881843,0.02061299805199204,-0.09517296657576838, ,0.015803864218595445,0.020138850999282837,-0.09614122635159375, ,0.0013420499229628243, ,0.018798064003154223,-0.003782420004595634,-0.04264414785846954,-0.02080009401976487,-0.006435823425807466,-0.04096338573488865, ,0.046756788362042785, ,0.0217697659391175, ,0.0009131735678182512, ,0.20486093495455357,-0.20608884948155526,0.10622189147000001,1.6739548188369582,0.5421736310692676,-1.3344464779030425, ,0.10945437319316122,0.13216844228199273,0.04376047120879121,0.0,0.10365490407154501,-0.108910740637519, ,1.4572110176086426
0.015004642362881843,0.02061299805199204,-0.09517296657576838, ,0.01584809651258367,0.020136463946980137,-0.09624474911821738, ,0.0014447205522824089, ,0.018798064003154223,-0.003782420004595634,-0.04264414785846954,-0.02080009401976487,-0.006435823425807466,-0.04096338573488865, ,0.046756788362042785, ,0.0217697659391175, ,0.0009164751018832459, ,0.20486093495455357,-0.20608884948155526,0.10622189147000001,1.6739548188369582,0.5421736310692676,-1.3344464779030425, ,0.10945437319316122,0.13216844228199273,0.04376047120879121,0.0,0.10365490407154501,-0.108910740637519, ,1.4596679210662842
0.015004642362881843,0.02061299805199204,-0.09517296657576838, ,0.01589239441316657,0.0201340797636091,-0.09634804563528754, ,0.0015486372157005733, ,0.018798064003154223,-0.003782420004595634,-0.04264414785846954,-0.02080009401976487,-0.006435823425807466,-0.04096338573488865, ,0.046756788362042785, ,0.0217697659391175, ,0.0009203773371537231, ,0.20486093495455357,-0.20608884948155526,0.10622189147000001,1.6739548188369582,0.5421736310692676,-1.3344464779030425, ,0.10945437319316122,0.13216844228199273,0.04376047120879121,0.0,0.10365490407154501,-0.108910740637519, ,1.4621000289916992
