NicholasDascanio/dvrk_moveit_final/test/execution/third_experiment_notsharpbends/thirdexp_500vel4.0/thirdexp_500vel4.0_30.csv
Current Position (x),Current Position (y),Current Position (z), ,Planned Position (x),Planned Position (y),Planned Position (z), ,Position Error,,Cartesian linear Velocity(x),Cartesian linear Velocity(y),Cartesian linear Velocity(z),Cartesian Angular Velocity(x),Cartesian Angular Velocity(y),Cartesian Angular Velocity(z), ,Total Linear Velocity, ,Total Angular Velocity, ,MSE, ,Joint 1 Position,Joint 2 Position,Joint 3 Position,Joint 4 Position,Joint 5 Position,Joint 6 Position, ,Joint 1 Velocity,Joint 2 Velocity,Joint 3 Velocity,Joint 4 Velocity,Joint 5 Velocity,Joint 6 Velocity, ,Time Stamp
0.009557717874155599,0.02023556393858349,-0.07940997223483068, ,0.009697630856687841,0.02016524108159739,-0.07955314034429592, ,0.00021217458486728918, ,2.0546800044796765e-05,-1.3050829584568487e-05,-8.526684566140481e-07,0.01980864540329473,8.38451144852244e-05,-0.014229417052186239, ,2.4356152988992597e-05, ,0.019808822850353642, ,1.7681215405607433e-05, ,0.20135481422965565,-0.23073209008320567,0.09165807332,1.7924296369057142,0.8243280030849022,-1.139059891643964, ,0.0002095478929896424,8.706290720025626e-05,0.0,-0.0009254341358793597,0.0,-0.19914054739032272, ,0.024183988571166992
0.00956606873256868,0.020240631680703742,-0.07943136983744922, ,0.009735935449415811,0.020190244017215777,-0.07963668446365647, ,0.00027119681756765336, ,0.0004043880849647025,0.00030494827928646844,-0.0012335367912970714,0.26958777991202815,0.006159488953192406,-0.20433287843369952, ,0.001333467731812312, ,0.2696581361317655, ,2.197142738340648e-05, ,0.20138570516115253,-0.23073209008320567,0.09167492509000001,1.7924296369057142,0.8241913665851368,-1.1432774469677174, ,0.001841606453642352,8.413587245185241e-05,0.0013132572681402036,0.0017850911390866534,0.0,-0.33711200145685405, ,0.05091714859008789
0.009590499311254053,0.020250987452274233,-0.07947016116937605, ,0.00977430207270946,0.020214879363907538,-0.07972027514185337, ,0.00031248079683800537, ,0.0012704230693978942,0.0006363603553417845,-0.0023992031077040192,-0.024774378116728855,-0.10320128057516559,-0.04878238439018096, ,0.0027883874962289067, ,0.10613328471005319, ,2.487038122727962e-05, ,0.20140115062690098,-0.23072436735033144,0.09170344347,1.7930587067361679,0.8218685460891243,-1.1456306370921876, ,0.00038590479812067975,0.0,0.0019145206153846155,0.027843845383418366,-0.1146866536342881,0.013177291075545439, ,0.07335305213928223
0.0096238487075817,0.020272784065685914,-0.07955876691172518, ,0.009812730236895821,0.02023914943034312,-0.07980391152007474, ,0.0003112931091648831, ,0.001985900904866961,0.0005527934085150011,-0.003790098417979236,0.05289375863050228,-0.1588916234890124,-0.07878370727020212, ,0.00431442104741966, ,0.16746431774038859, ,2.6360602581853117e-05, ,0.201470655222769,-0.23073209008320567,0.09178899861,1.793268396679652,0.8203655445917044,-1.1510210181029124, ,0.0033094223474656663,-6.476302832243835e-05,0.003046826993114002,-0.028373986680686292,-0.15936355244254935,-0.10697676587727367, ,0.09979915618896484
0.009673136131806467,0.020299921453532106,-0.07968236635835535, ,0.009851219454242133,0.02026305651902891,-0.07988759274171255, ,0.0002742089742359372, ,0.000766233195627236,0.0009898829030082193,-0.004078049475385518,-0.060939307906616814,0.07911350901591714,0.09774176879903994, ,0.004265849152916826, ,0.09986263843811245, ,2.6564505436034e-05, ,0.20157877348300815,-0.23073209008320567,0.09190566471000002,1.793268396679652,0.8179060875959265,-1.1470552060730033, ,0.006852849959613787,-0.00010710436572015687,0.004865244813683569,-0.018033327022249385,0.09682860275361763,0.09237785347573602, ,0.12165093421936035
0.009692132942017675,0.020320590378799505,-0.079757069701467, ,0.009889769238952828,0.020286602926313468,-0.0799713179523597, ,0.00029345794554469984, ,0.0007646086278653972,0.00037207209105064373,-0.0014691314334215944,-0.006558827764388395,0.008998078644503795,0.023758476192648665, ,0.0016974719919375378, ,0.011134794157448238, ,2.701310045513658e-05, ,0.201779564537738,-0.23073209008320567,0.09199770130000001,1.793268396679652,0.8199556350924082,-1.1461944336840924, ,0.007463489143406592,-0.0007528439018326938,0.0017263426571380736,-0.012529571110311775,0.020582271635351777,0.010456663796593879, ,0.1499779224395752
0.009712694053805274,0.02033096625306681,-0.0797989170352795, ,0.009928379107166839,0.020309790942395003,-0.08005508629980974, ,0.0003355460149004838, ,0.00099029084442616,0.0006255272621817872,-0.002767483548761801,-0.0008401089036218136,0.0006490687629312925,0.012884859104430562, ,0.003005149830699649, ,0.001061636974967393, ,2.7921642265540992e-05, ,0.20192629646234825,-0.23073209008320567,0.09204307145000001,1.793268396679652,0.8199556350924082,-1.146439469904514, ,0.006099629322650719,-8.394886614505641e-05,0.0030014719276427364,-0.01041712235658814,0.009631247037433377,0.0006730064625533744, ,0.17206096649169922
0.009758882701066214,0.02036474305219433,-0.07992566073239121, ,0.009967048576954511,0.020332622851327958,-0.08013889693405372, ,0.0002997239010948134, ,0.0016694100049320087,0.0012196307728005664,-0.004804550706563627,0.005756477985029609,-0.0023144342232645694,-0.006194132288684049, ,0.005230500595399091, ,0.0062043244600687745, ,2.8171733466021522e-05, ,0.20208075111983276,-0.23073209008320567,0.09212603401000001,1.793268396679652,0.8199556350924082,-1.147174578565779, ,0.007868197154293361,-8.394886614505641e-05,0.005013790217186026,0.003122517136131068,0.006344343708555657,0.03895063420646408, ,0.19504213333129883
0.009789122401615308,0.02038657789892524,-0.08000367875060962, ,0.010005777168314953,0.020355100931029463,-0.08022274900727931, ,0.00030971255189112364, ,0.0011998782578599967,0.0005353564256394411,-0.0029627309414106467,-0.010522709815530574,-0.009929650005978452,0.029401492844598094, ,0.0032410012291498127, ,0.014468081105482334, ,2.8788952704449323e-05, ,0.20233560130468214,-0.23074753554895414,0.09226344075000001,1.7938974665101057,0.8199556350924082,-1.1465211486446547, ,0.007992521048675053,0.0003488187698322304,0.0031592248155493854,-0.025077419200330735,0.004160322276000417,0.007471503797826153, ,0.22191810607910156
0.009814532458669766,0.0203990018484685,-0.08005648328872839, ,0.010044564403173036,0.020377227453286947,-0.08030664167386888, ,0.00034054080142264154, ,0.0011664326993863104,0.0005641090664699525,-0.0027159646621804333,0.004514591303192404,-0.009131720721890602,0.01409768445055351, ,0.003009193966377726, ,0.01018674912961368, ,2.96033549752753e-05, ,0.20251322416078932,-0.23073981281607991,0.09232047751000001,1.7938974665101057,0.8199556350924082,-1.1465211486446547, ,0.008032244949499487,-0.00026493486124735586,0.00291950357771261,-0.019673222410027582,0.003380883788849244,-0.009385925691524412, ,0.24244093894958496
0.0098424901217378,0.020418275296037222,-0.0801318681504569, ,0.010083409805376543,0.020399004683764085,-0.0803905740903974, ,0.0003540373056931581, ,0.001359436744758412,0.0008890133735235807,-0.0042480939479706045,-0.00011460258312378179,-0.009491162089813883,0.01154194584379235, ,0.00454804520998721, ,0.009491853885501307, ,3.040708993780448e-05, ,0.20267540155114802,-0.23074753554895414,0.09240214378000002,1.7938974665101057,0.8200922715921736,-1.1466325665483508, ,0.006191768831172899,0.0005258822055090589,0.004480678345991561,-0.014791399914180001,0.0,-0.004114173278581096, ,0.2652621269226074
0.00988772511522493,0.02044792260020241,-0.08025303716647152, ,0.010122312900693282,0.020420434882008405,-0.08047454541563104, ,0.00032380998778322906, ,0.0017996588269822626,0.001093334252444582,-0.004547631643733862,2.2675713853582036e-05,-0.00992213430149882,-0.0023172365115144925, ,0.005011497306014768, ,0.00992216011460951, ,3.083205755088065e-05, ,0.20292252900312321,-0.23074753554895414,0.09253177278000001,1.7938974665101057,0.8200922715921736,-1.146632566548351, ,0.01045643942034201,0.00044479695487571297,0.004872686301621292,0.0023361799732148085,0.0,0.0, ,0.28481602668762207
0.009914104059394245,0.020465256739259696,-0.08031788584898596, ,0.010161273216808197,0.020441520301457242,-0.08055855481052517, ,0.00034579988418828865, ,0.0018302307982197197,0.0011183568107277248,-0.004447735371540505,0.001320865681471,-0.008969116255004532,-0.00831159528465713, ,0.004937895975626222, ,0.009065855216342886, ,3.136994232434807e-05, ,0.2030769836606077,-0.23074753554895414,0.09260177244000001,1.7941071564535904,0.8200922715921736,-1.1465508878082102, ,0.010944267756963699,0.0003826242175841345,0.004786301538461539,0.008636094284352861,0.0,0.0, ,0.3070719242095947
0.009948961763024958,0.020485361104871227,-0.08040159236492367, ,0.010200290283320666,0.02046226318944597,-0.08064260143822337, ,0.00034897695084890994, ,0.00168347553191115,0.0010318393023097518,-0.00395671048870894,0.0015693918375275584,-0.008651586810374954,-0.007215650485873792, ,0.004422028957819469, ,0.008792777951670118, ,3.1859997250302324e-05, ,0.20330094291396023,-0.23073981281607991,0.09269251274000001,1.7941071564535904,0.820228908091939,-1.1465806269717662, ,0.010386272886220096,-8.017951789724427e-05,0.0042738963026562925,0.007584939663611675,0.0,0.0, ,0.3305399417877197
0.009992816024549857,0.020509973909715668,-0.08049780053630429, ,0.01023936363174118,0.020482665787212695,-0.08072668446405361, ,0.00033751934544313264, ,0.00173965700563921,0.0008036409867112275,-0.0031577208805581946,0.000909033813721405,-0.011650023334223806,-0.005948606331035224, ,0.00369370362810892, ,0.011685434773618487, ,3.221019980333964e-05, ,0.20360212949605497,-0.23074753554895414,0.09279751223,1.7941071564535904,0.8203655445917044,-1.1466920448754627, ,0.013061879851445224,0.0003125631784453332,0.0034537752645273207,0.006173159874879481,0.0,0.0, ,0.3509070873260498
0.01002889820486855,0.02052697983601083,-0.08056285318455636, ,0.010278492795489019,0.020502730329907248,-0.08081080305552929, ,0.0003526537065291663, ,0.0018234437894850838,0.000797309642334711,-0.0034939965741512344,-0.007280358074327499,-0.01341746144271499,0.004320924956651807, ,0.004021027478064803, ,0.015265381906013334, ,3.261774466242477e-05, ,0.20387242514665282,-0.23073981281607991,0.09286880818000001,1.794316846397075,0.8203655445917044,-1.146447008655041, ,0.013316999938039682,0.0008765513176629507,0.0037871639372325256,0.00033429107988307814,-1.5127709354027636e-05,0.008082549640653944, ,0.371812105178833
0.010069966357131813,0.02055016817463712,-0.08064860225040452, ,0.010317677309888891,0.020522459046596688,-0.08089495638234535, ,0.0003504552328285369, ,0.0022171064566923067,0.001267284911210929,-0.005047839925680364,-0.01911043128463927,-0.0037354635261870432,0.009035486965293065, ,0.005657054003788752, ,0.019472089470906943, ,3.296679699903038e-05, ,0.20418133446162182,-0.23073981281607991,0.09296473364,1.7945265363405596,0.8207754540910007,-1.1463728686654273, ,0.014696754151846179,0.0006929050991984701,0.005509792985126254,0.010298570558223124,0.009650329585473655,0.02757697807876111, ,0.393571138381958
0.010112321572692635,0.020574419596576597,-0.0807490860455062, ,0.010356916712168264,0.020541854160272207,-0.0809791436163772, ,0.00033736297338603585, ,0.00225093307008665,0.0013844850320046472,-0.005178986985305413,-0.011824638909799266,-0.0005217972277941546,0.006565201826565828, ,0.005814241539858614, ,0.011836146077513293, ,3.339737359197654e-05, ,0.20445163011221967,-0.23073209008320567,0.09307362200000001,1.7945265363405596,0.8209120905907662,-1.1459942141282804, ,0.015031988208216501,-0.0002991883364148101,0.005692927634024303,0.009608236792719447,0.013402951785163491,0.02034138289934296, ,0.41309213638305664
0.010158154927051077,0.02059751790271956,-0.08084135637937756, ,0.010396210541454481,0.020560917887856394,-0.08106336393167891, ,0.00032756280301005574, ,0.0018664837044323828,0.0009763567069593452,-0.0034399923962996847,0.0018348922787540904,-0.0003909115665037638,-0.0023475029813594572, ,0.004033680890295584, ,0.0018760706398603074, ,3.3734713336525387e-05, ,0.20478370762581133,-0.23073209008320567,0.09317473262,1.7945265363405596,0.8210487270905317,-1.1460239532918362, ,0.01471955042011335,-0.0005221816129995154,0.0038671550182083035,0.008221202434063213,0.013182329372560184,0.003202177357972338, ,0.4310131072998047
0.010176182692607547,0.02060674256158533,-0.08087569671529415, ,0.01043555833877183,0.02057965244021025,-0.08114761650448188, ,0.0003767624878503065, ,0.0019434894611293563,0.0009545665046983328,-0.0037922367916742076,0.0015432102225513848,-0.002330682485221859,-0.003650162146798173, ,0.004366853373029641, ,0.0027952777775412637, ,3.430628970635481e-05, ,0.20491499408467315,-0.23073981281607991,0.09321232503000002,1.7945265363405596,0.8210487270905317,-1.1460239532918362, ,0.01460627082629995,0.0006467207908423312,0.00419842159198735,0.007746180731799765,0.01109933251306968,0.0015767549182579763, ,0.44898104667663574
0.010230336753751883,0.020635718661352952,-0.08098286434426585, ,0.010474959647038542,0.020598060022138657,-0.08123190051319192, ,0.00035110902361058474, ,0.002025970312602623,0.0009799734923367045,-0.003882608052142175,-0.0011829685183122475,-0.013518234612688362,-0.003175336867748082, ,0.004487710890842793, ,0.0135698961188618, ,3.469941127537915e-05, ,0.20530113072838438,-0.23073209008320567,0.09333028742,1.7949459162275283,0.8211853635902971,-1.1460536924553921, ,0.014561445689499889,0.00022731398359786997,0.00423413384370016,0.004768907314353068,0.0,0.002375621342457713, ,0.4688839912414551
0.010272233233686267,0.02065637319062421,-0.0810708465816384, ,0.010514414011064134,0.020616142832398977,-0.0813162151383892, ,0.0003470961528110706, ,0.002075687605170418,0.001135113930629167,-0.004220279073707691,0.0025040188825152503,-0.010474750383820897,-0.00393980015049771, ,0.004838152346685825, ,0.010769888802981176, ,3.504178005669954e-05, ,0.2055945945776049,-0.23071664461745722,0.09342621288000001,1.7949459162275283,0.8213220000900625,-1.1461651103590884, ,0.014510235712304403,-0.0005913278463399246,0.0046237479013062415,0.004768907314353068,0.0030910303919068,-0.0005548912290034555, ,0.48772311210632324
0.01031640547070859,0.020679791481306227,-0.08116541626984042, ,0.010553920977546278,0.020633903063706594,-0.08140055956282435, ,0.00033735994292964243, ,0.002142325319056369,0.0013195032487853388,-0.004847411826535764,0.0025643711944922302,-0.010122186476427961,-0.0037922759626575304, ,0.005461506020528022, ,0.010441966098888247, ,3.5312044049477e-05, ,0.20588805842682542,-0.23071664461745722,0.09352861979,1.7949459162275283,0.8213220000900625,-1.1461651103590884, ,0.01366603421060927,-0.0010111201652356178,0.00527968562147829,0.004768907314353068,0.002579971952908815,-0.00022632234104987215, ,0.5057399272918701
0.010337883750609525,0.020692949939707182,-0.08121220257941807, ,0.010593480095067978,0.020651342902742117,-0.08148493297141879, ,0.00037608842516940663, ,0.0021674838076164676,0.0013087203524691086,-0.004792677166319691,0.0021566454115903516,-0.012550172409622074,-0.004986659637731939, ,0.005420377241282067, ,0.012734125192329086, ,3.5739405112370114e-05, ,0.20603479035143568,-0.23071664461745722,0.09358047139,1.795155606171013,0.821458636589828,-1.1461131707825039, ,0.013892100945464905,-0.0010107496798934365,0.005212307434554975,0.005425653657224901,0.00010483141713338152,-8.548299143038159e-05, ,0.5253710746765137
0.010383399124448842,0.02071816025161089,-0.08131062724852023, ,0.010633090914094763,0.020668464530158314,-0.08156933455126109, ,0.0003629671101335831, ,0.0017889576633153535,0.0008224747786269146,-0.0032959039620149067,0.001458480334368834,-0.0074534616054373285,-0.00372223153781372, ,0.0038392469586414576, ,0.007594817601531841, ,3.60788406596592e-05, ,0.20634369966640467,-0.23072436735033144,0.09368806346000001,1.795155606171013,0.8215952730895935,-1.1459795524657785, ,0.013445302006017396,0.0004924264152814932,0.003633396788321168,0.005174391688644721,0.005065440627279968,-4.57306557677512e-05, ,0.5467629432678223
0.010422236702327715,0.02073647616481497,-0.08138611937582205, ,0.010672752986971654,0.02068527012058682,-0.0816537634916068, ,0.0003701538066149011, ,0.002048720044784847,0.001120041712991504,-0.004373428640273625,0.005494627657192308,-0.004744298372083391,-0.004467213032275991, ,0.004957683464311712, ,0.007259428251217288, ,3.658141297588692e-05, ,0.20662944078275097,-0.23071664461745722,0.09377102602000001,1.795155606171013,0.8217319095893589,-1.1460092916293345, ,0.014100585669906506,6.671088734108635e-05,0.004800726799276674,0.0046243076673406795,0.008661364334343457,-0.0039177258597422795, ,0.5623860359191895
0.010463133725692901,0.020759634731814268,-0.08147891693416222, ,0.010712465867920263,0.02070176184264465,-0.08173821898387548, ,0.00036435331950460413, ,0.0021254417354298403,0.0012324923754331032,-0.005062595167891316,0.0007945155865114723,-0.008487827408251752,-0.0009953500058569615, ,0.005627291520808589, ,0.008524932011688423, ,3.703072180855661e-05, ,0.2068920137004746,-0.23070119915170878,0.09387213664,1.7953652961144975,0.8218685460891243,-1.1460390307928903, ,0.012974698052839868,0.00039260299564537044,0.005475700075627365,0.0021044857420633822,0.004219826194421255,-3.91853484801182e-05, ,0.5786290168762207
0.010486381793055364,0.02077164285896362,-0.08153515628206544, ,0.010752229113035965,0.020717941858941505,-0.08182270022164952, ,0.0003952722000543108, ,0.0023145594232342795,0.0012229694191574559,-0.00533956763568723,0.005021481298624946,-0.00446073541439102,-0.0026259021904243237, ,0.005946748864712167, ,0.006716653223833672, ,3.75793393383728e-05, ,0.20703874562508487,-0.23067803095308612,0.09393306227,1.7953652961144975,0.8220051825888897,-1.1461504486965868, ,0.014979785565662315,0.001405965892388422,0.005802845726775957,0.0021044857420633822,0.010467588924693239,-0.00519754887987387, ,0.5939080715179443
0.0105086580602642,0.02078525181081902,-0.08158976597121727, ,0.010792042280284986,0.020733812326086284,-0.08190720640067206, ,0.0004286269508544723, ,0.0023231581786064747,0.0013309315988009195,-0.005776453150831268,0.008147621328606034,-0.0006834265714112805,-0.003718427023685187, ,0.006366777351789632, ,0.008176233776101056, ,3.822863963439579e-05, ,0.2071777548168209,-0.23067803095308612,0.09399269161000001,1.7953652961144975,0.8221418190886551,-1.1461801878601425, ,0.0141933804305221,0.0013873967412950943,0.006271185637795276,0.0021044857420633822,0.013551334468016185,-0.00840639860605787, ,0.6115930080413818
0.010566771169457076,0.02081964858929697,-0.08173209041349482, ,0.010831904929501415,0.020749375394694024,-0.08199173671884538, ,0.0003776909271840561, ,0.0025199172663636525,0.001456376393822971,-0.005981720149645155,0.0015941253330006542,-0.003933054752641858,-0.002366642272942778, ,0.006652217012280442, ,0.004243836425491327, ,3.864883219066788e-05, ,0.20750983233041256,-0.23065486275446342,0.09414565383000001,1.7955749860579822,0.8221418190886551,-1.1458534728995802, ,0.015716618343569192,0.0008170111111094558,0.006509526571311812,0.005892830243415463,0.011014693448879872,0.0008525995374482048, ,0.6275680065155029
0.01061158016769851,0.02084188471246648,-0.08183358348269061, ,0.010871816622384388,0.020764633209392307,-0.08207629037622925, ,0.00036413931845637225, ,0.002337688603592277,0.0010305816806752376,-0.005005444076048937,0.01774194716364024,-0.002434377119291535,-0.015235171089631525, ,0.0056197292645075, ,0.017908179080361082, ,3.8996778261752255e-05, ,0.20781874164538156,-0.23061624909009232,0.09425713477000001,1.7955749860579822,0.8225517285879514,-1.1459426903902479, ,0.016084227382791656,0.0029987363259336166,0.005451338644763861,0.00529000689835861,0.012653809441908125,-0.021704098089119227, ,0.6427781581878662
0.010659534553738184,0.020863909089163545,-0.08193242849727499, ,0.010911776922495054,0.020779587908828702,-0.0821608665750388, ,0.00035059981377856005, ,0.002493347339564347,0.0012002686030833198,-0.004902891315317558,0.0010031387429386453,-0.012034629781363257,-0.0033850884714812074, ,0.0056298995484001775, ,0.012076365284263462, ,3.9278018718079406e-05, ,0.208143096426099,-0.2305853581585954,0.09436213426000001,1.7955749860579822,0.8226883650877169,-1.1460541082939444, ,0.0175702539452825,0.0006725799904019915,0.005354222359663867,0.00480528458509107,0.004685267512130763,0.00013538734229073725, ,0.6625139713287354
0.0106868402915218,0.020876022369956025,-0.08198627404103861, ,0.010951785395253828,0.02079424162567724,-0.08224546451964276, ,0.00037955724512307135, ,0.0024223365864023,0.0008493968383238987,-0.004767688659388226,-0.0033854958089721116,-0.012657098615058917,0.0005432212310890754, ,0.005414798673970888, ,0.013102050402912842, ,3.964766929792575e-05, ,0.2083361647479546,-0.23055446722709852,0.09442305989000001,1.7957846760014666,0.8226883650877169,-1.1460541082939444, ,0.017129411833658986,0.003946927421573555,0.005139984356243951,0.0001525783929427157,0.004685267512130763,0.0004497908524134756, ,0.6789090633392334
0.010709308414015743,0.020884114506874493,-0.08202879631135904, ,0.0109918416079372,0.020808596486644664,-0.08233008341656209, ,0.00041988319424397916, ,0.002201775285958984,0.0008055404413403006,-0.003961764465527054,0.010292741109646394,-0.00567927662316074,-0.005343006179215814, ,0.004603508172340672, ,0.011755624251250959, ,4.013852967433437e-05, ,0.20850606487118753,-0.2305235762956016,0.09446972633,1.7957846760014666,0.8228250015874824,-1.1460838474575001, ,0.01702492672380172,0.0023196312828470227,0.004367647798190294,0.0001525783929427157,0.011645564417391304,-0.013099816625862487, ,0.6962630748748779
0.010755778681791815,0.02090154475583292,-0.08211687716928408, ,0.011031945129675298,0.02082265461247859,-0.08241472247446766, ,0.00041376731078584015, ,0.0025671115167109054,0.0009824732805060962,-0.004863018320404718,-0.0008807127782234759,-0.011670102525208136,0.0008546098740753801, ,0.005586077556813018, ,0.011703287795608634, ,4.0722773366023e-05, ,0.2090312107066348,-0.2304540716997336,0.09461879968,1.7957846760014666,0.8229616380872479,-1.1461135866210561, ,0.0190098039980911,0.002151072095359546,0.0057838821786492375,0.0001525783929427157,0.0063948944251224675,0.003500249084517268, ,0.7104301452636719
0.010810003900563091,0.020927194780077384,-0.08222737406537724, ,0.011072095531448375,0.020836418117972617,-0.08249938090417894, ,0.0003884844214609964, ,0.002727798101114268,0.0013660999280698386,-0.006034411252425903,-0.004823727544662355,-0.014678648290766809,-0.0013465650131336646, ,0.006761747603787011, ,0.015450924084584983, ,4.1200083900012594e-05, ,0.2092165562956162,-0.23043090350111092,0.09468620676000002,1.7959943659449509,0.8230982745870132,-1.1461433257846119, ,0.017141788576313363,0.0018214825879680422,0.006509526571311812,0.004768923739981594,0.0015579174950482815,0.005317873994419131, ,0.7245490550994873
0.010837428546213394,0.020939050554907634,-0.08228755511552424, ,0.011112292386084424,0.020849889111974756,-0.08258405791866164, ,0.0004140215038411081, ,0.002603337735471144,0.0010952019790139453,-0.005503889686940579,0.0034396112956186194,-0.0018779787689401693,-0.0036141074704624833, ,0.006186245745666345, ,0.003918893347728636, ,4.174171052482114e-05, ,0.2094019018845976,-0.230400012569614,0.09475102126000001,1.7959943659449509,0.8233715475865442,-1.1462844828518641, ,0.01811701824331248,0.003570701554593326,0.006006339185520362,0.004768923739981594,0.015765495622461455,-0.00415291300681086, ,0.7395310401916504
0.010890125691404032,0.0209629403193698,-0.08240182995390578, ,0.01115253526825584,0.02086306969739281,-0.08266875273302667, ,0.0003874025002129315, ,0.0027001068429612384,0.0012619550420988803,-0.0060539279804478815,0.015409337042569202,0.009051209275206216,-0.007603688425384088, ,0.006747825685666062, ,0.01787098344533066, ,4.217786414604409e-05, ,0.20976487032968613,-0.23033823070662024,0.09487676139000001,1.7959943659449509,0.823644820586075,-1.1464256399191164, ,0.018581739095059873,0.0034308531325004674,0.006661987252195735,0.004768923739981594,0.02763266360680545,-0.01622701447866453, ,0.7533609867095947
0.010916588429612012,0.020974929104005474,-0.08245846795255216, ,0.011192823754476815,0.02087596197120239,-0.08275346456452727, ,0.0004160810607985216, ,0.0028089147806036785,0.0013649902385381044,-0.006273454693480795,0.007480156980231934,0.0027069213603617553,-0.0035183584596636796, ,0.007007812382416808, ,0.00795488290190741, ,4.268728250830114e-05, ,0.20992704772004483,-0.23031506250799755,0.09493509444,1.7959943659449509,0.823644820586075,-1.1463439611789759, ,0.018960427883810346,0.0028415499140899947,0.00678110324393359,0.004723742046111374,0.02161421681707517,-0.007043944409747444, ,0.7674541473388672
0.010970060810206968,0.020996358254228756,-0.08256874012427899, ,0.011233157423100224,0.020888568024452506,-0.08283819263255857, ,0.00039171828597765876, ,0.0026886279716303125,0.0010700073363496701,-0.0050973191724534,-0.00821815600132474,-0.017952124740010702,0.00018849216967573262, ,0.005861424640438198, ,0.019743780471374275, ,4.310321683630069e-05, ,0.21029773889800762,-0.23024555791212953,0.0950569457,1.7959943659449509,0.8237814570858404,-1.1463737003425318, ,0.018772886559539223,0.0026167398003383883,0.005521251826689776,0.004298810919572774,0.0,0.008124750311865391, ,0.7832980155944824
0.010996535886814924,0.021005992504512117,-0.08262467248036477, ,0.01127353585431478,0.020900889942273522,-0.08292293615865472, ,0.0004204007045321012, ,0.0025118759258472025,0.0007691954294833871,-0.005191483511692364,0.0003866527646826799,-0.004532959821747731,-0.004656736442592671, ,0.005818305881247784, ,0.0045494198899429465, ,4.35905102203799e-05, ,0.21049852995273746,-0.23019149878200995,0.09511916762000001,1.7959943659449509,0.8241913665851368,-1.1466262753134806, ,0.01733277471387594,0.006385197561403129,0.0055929815730337085,0.0040854386890366735,0.012409681525529044,-0.004560709023928682, ,0.7962851524353027
0.011025097436793765,0.021016040497209138,-0.08268150695891081, ,0.011313958630142125,0.020912929803883314,-0.08300769436648744, ,0.00044773968883976935, ,0.0028062807852639302,0.0011334990352210182,-0.005709278685996521,0.0048404171701478815,-0.006663673773941993,-0.005311174602710711, ,0.006461880146131053, ,0.008236150829151417, ,4.414138781658549e-05, ,0.21069159827459308,-0.23014516238476462,0.09518009325000001,1.7959943659449509,0.8241913665851368,-1.14654459657334, ,0.01947003314699852,0.0037030869191289344,0.006219762405310426,0.003913912513473415,0.012409681525529044,-0.006880025021828157, ,0.809636116027832
0.01108462572573225,0.0210409197819639,-0.08281156901414129, ,0.011354425334433848,0.020924689682593874,-0.08309246648186444, ,0.00040645375164756795, ,0.0031048761817685814,0.0013256698592901718,-0.006856408555951803,0.0037074075184384083,-0.005258673333890886,-0.002668374892025212, ,0.007642512346478308, ,0.006434166658385407, ,4.455303149317867e-05, ,0.21107001218543006,-0.2300447668573997,0.09532009257000001,1.7962040558884358,0.8243280030849022,-1.1465743357368956, ,0.02026413443486457,0.004545994664706865,0.007429482985074627,0.0020409961558465316,0.01518934599245122,-0.0063715861433292055, ,0.823369026184082
0.011117277507199395,0.021054419062586115,-0.08288490887690407, ,0.011394935552868628,0.020936171645818895,-0.08317725173272736, ,0.00042016757043814555, ,0.003273690744516176,0.001282002118071144,-0.007463733857187012,-0.0034996182120540687,-0.012318542013550558,-0.002165751211726666, ,0.008250327485160178, ,0.012806005692935711, ,4.511865445298455e-05, ,0.21127852597303415,-0.2299907077272801,0.09539916626000002,1.7962040558884358,0.8244646395846676,-1.1466040749004516, ,0.020139418836687347,0.0065831819612697864,0.007980366492985972,0.0020409961558465316,0.0077199102060385265,-0.0014835325921721064, ,0.834212064743042
0.011148277676485014,0.02106718752077501,-0.08296046015260082, ,0.011435488872949214,0.0209473777550794,-0.08326204934914996, ,0.0004333597752509936, ,0.0034352692988606913,0.001417662803141369,-0.007991328629507516,-0.003203645969707246,-0.010001441352290199,-0.0010650592877266705, ,0.008813181959082199, ,0.010502006666905471, ,4.5705565478368934e-05, ,0.21147159429488974,-0.2299212031314121,0.09548083253,1.7962040558884358,0.8247379125841986,-1.1467452319677038, ,0.020902410034905457,0.006531442813725912,0.008563877161290324,0.0020409961558465316,0.010973407480869212,-0.0010928501848273533, ,0.8464951515197754
0.011187544736663165,0.021083434434843073,-0.08305283505407543, ,0.011476084883999574,0.02095831006601171,-0.08334685856333625, ,0.0004305361172984329, ,0.0030506814274192996,0.0012958137146100875,-0.007502321107758622,0.019035951813846767,0.015095169512442743,-0.008239025671783383, ,0.008201866394820949, ,0.024294682140362834, ,4.6268262664738265e-05, ,0.21171872174686493,-0.22984397580266985,0.09558064686000001,1.7962040558884358,0.8250111855837294,-1.146886389034956, ,0.01933515516676259,0.006830941172098422,0.008164434402870324,0.0020113502992083116,0.03529906405912564,-0.023920926894217785, ,0.8605201244354248
0.011219782489083919,0.02109598784592393,-0.08312598569930293, ,0.011516723177162031,0.020968970628373825,-0.0834316786096194, ,0.0004446968644011651, ,0.0031286447400518088,0.001197040647988838,-0.0069745653626529834,0.00540246740113472,0.0029836739158461663,-0.0020016705203770987, ,0.007737304842146917, ,0.0061716243852454325, ,4.685440428857748e-05, ,0.21191179006872055,-0.22978219393967605,0.09565842426000001,1.7962040558884358,0.8250111855837294,-1.146723031554675, ,0.02075157261282982,0.006411248124853659,0.007574327874465051,0.0019459437708892436,0.02435930843312568,-0.008810958823285538, ,0.8720099925994873
0.011286550017251887,0.021118348336391833,-0.08327270461810261, ,0.01155740334539403,0.0209793614860514,-0.08351650872445884, ,0.0003900247584569338, ,0.003223332815984168,0.0009522992133103903,-0.006749506707651614,-0.00842855484307561,-0.007502242433182863,0.002579882800442395, ,0.007540065585318615, ,0.011283800966939192, ,4.727649842682693e-05, ,0.21235198584255136,-0.22962001654931735,0.09581657164000001,1.7962040558884358,0.8254210950830257,-1.1468122490453427, ,0.021641263753357075,0.008437378521002485,0.0072502555848884855,0.0018199947638309916,0.014539038298417902,0.0037931638912062993, ,0.8833291530609131
0.011312296337840172,0.021125430145861226,-0.0833239467040238, ,0.01159812498346572,0.020989484677066073,-0.08360134814643923, ,0.00042086903592475496, ,0.0028847119757825458,0.000811959585957337,-0.005890676052570123,0.029952940951212113,0.03521045024639833,-0.0077301618130868575, ,0.006609153191504519, ,0.046227204880762165, ,4.7769777955678856e-05, ,0.2125527768972812,-0.22955051195344933,0.0958736084,1.7962040558884358,0.8258310045823221,-1.1471465027564318, ,0.023106145984531475,0.008311475728467377,0.006628718901373285,0.0017726172334587536,0.060310088778488084,-0.03401947575073833, ,0.8946840763092041
0.011326227827563925,0.021129246361825157,-0.0833524820025495, ,0.011638887687956484,0.020999342233580805,-0.08368619611626817, ,0.00047539076613945576, ,0.0030949215770046724,0.000893276195808422,-0.00634389117961798,0.007130823374667127,0.008221856061308251,-0.002010290874777005, ,0.0071148743649232385, ,0.010883361099340873, ,4.839389900148641e-05, ,0.2126531724246461,-0.2295118982890782,0.09590471936000002,1.7962040558884358,0.8259676410820875,-1.1472579206601283, ,0.022344464694718808,0.008075607130825937,0.006889624359861593,0.0017483735818163535,0.03231601841805275,-0.011930615593635065, ,0.9102239608764648
0.011384198085005228,0.021146836360899184,-0.08346970186758167, ,0.011679691057252507,0.021008936181907925,-0.08377105187677529, ,0.000444009441402263, ,0.0034764895368221992,0.0009330320662449341,-0.006891476132860629,-0.02352603443274285,-0.029275640718401504,0.0051929863753956565, ,0.007774893672974777, ,0.037557122095011275, ,4.892004469522295e-05, ,0.21303930906835733,-0.22936516636446794,0.09603045949000001,1.79641374583192,0.826104277581853,-1.147124302343403, ,0.022573011788408842,0.008741243931185675,0.0072834071879286704,0.001570071884163362,-0.007077487648955146,0.017517628241235757, ,0.9211771488189697
0.011418700037269455,0.021155635076583593,-0.08353626710412904, ,0.011720534691543317,0.021018268542514602,-0.08385591467290929, ,0.0004605955833807725, ,0.0033047387651554713,0.0007900393867591074,-0.006470202506894108,-0.013270757798018291,-0.017497038402541156,0.0017595259369253171, ,0.007308144841118765, ,0.02196040423248811, ,4.9602816356562845e-05, ,0.21326326832170983,-0.22928021630285148,0.09610045915000001,1.79641374583192,0.8259676410820875,-1.1470128844397067, ,0.022460814570052258,0.009353734123932806,0.006895589402597403,0.001570071884163362,0.004988809388884647,0.00659936395947518, ,0.930138111114502
0.011451222132023433,0.021163732324183063,-0.08360062983515504, ,0.011761418192819362,0.021027341330030917,-0.08394078375173669, ,0.00048013413374281284, ,0.003510016956623182,0.0007664894697474525,-0.006999393389175007,-0.006012627505981438,-0.010055510163020039,0.003786952382845962, ,0.007867606558505755, ,0.011716012861232483, ,5.032149714308468e-05, ,0.21349495030793658,-0.22917209804261232,0.09617045881000001,1.796623435775405,0.8262409140816184,-1.1472357202470995, ,0.024357531200839524,0.010796011553864707,0.007495911303529413,-0.003988945387862246,0.015957208439912697,-0.003254275137206345, ,0.9393141269683838
0.011460719591301006,0.021166115082518117,-0.083620707790994, ,0.011802341164868769,0.021036156553255587,-0.08402565836244022, ,0.000545508463884492, ,0.0035696276093717533,0.000847029239597166,-0.007254989984983701,0.00047198062413944894,-0.0034920650917049855,0.001989010817186654, ,0.008129857285619192, ,0.003523813873464609, ,5.119074581811538e-05, ,0.2135644549038046,-0.22914120711111544,0.09619249574000001,1.796623435775405,0.8263775505813838,-1.147347138150796, ,0.02492041532522867,0.010681780904825617,0.007815903591756624,-0.003988945387862246,0.023336007197560172,-0.009600123566163084, ,0.9489860534667969
0.011529222230783957,0.021186489130407833,-0.08376308523851157, ,0.011843303213274387,0.021044716215163562,-0.08411053775631666, ,0.000489356388727182, ,0.003863038755308676,0.0012946652461528676,-0.008733408769556373,0.010660205554901596,0.005181391280917005,-0.0010355050802810229, ,0.009636994098824438, ,0.01185271054536713, ,5.190222933175218e-05, ,0.21402009614338383,-0.22897130698788248,0.09634545796,1.796623435775405,0.8266508235809147,-1.1474882952180483, ,0.02516492748832426,0.009711818564530711,0.00944769366548043,-0.003988945387862246,0.032536994051149806,-0.019122122637769544, ,0.9580039978027344
0.011572325163323167,0.021199638247839058,-0.08385784746974047, ,0.011884303945411165,0.02105302231291232,-0.08419542118677543, ,0.00048247591367896924, ,0.00439964685368138,0.001289019189945249,-0.009634417452801565,-0.018577250256256325,-0.027785082406243628,0.005871825521693841, ,0.010669604611418502, ,0.03342341916076092, ,5.2582593184108514e-05, ,0.21429039179398168,-0.2288554659947691,0.09644656858,1.796623435775405,0.8267874600806802,-1.147518034381604, ,0.026731532833372047,0.011803094383894843,0.010184662097186702,-0.003988945387862246,0.0,0.0077275152148263155, ,0.9671781063079834
0.01161407369731159,0.021213352306252573,-0.08395533271102973, ,0.011925342970442827,0.021061076837848827,-0.08428030790933601, ,0.0004750634254364726, ,0.004341304723761466,0.0014766670373249965,-0.010203711332069055,-0.007670066174980084,-0.018498821662367746,0.0014106448609688493, ,0.011186742027590976, ,0.020025888430118897, ,5.3231448705432143e-05, ,0.21453751924595688,-0.22873962500165576,0.09655027178000002,1.796623435775405,0.8269240965804455,-1.14754777354516, ,0.02511830110070693,0.011246378473390708,0.010821203478260872,-0.003988945387862246,0.007856237777349,-0.003475056245674695, ,0.9759609699249268
0.011655479413617954,0.021229093580375627,-0.08405642055420498, ,0.01196641989931916,0.02106888177551634,-0.08436519718162713, ,0.0004665777681229261, ,0.004321653291033467,0.0016001158507345443,-0.010607571287392875,0.03479374967806898,0.02885199816531128,-0.010252755199378702, ,0.011565363224767049, ,0.045200029651429226, ,5.384710883480398e-05, ,0.2148000921636805,-0.2286315067414166,0.09666045643000001,1.796623435775405,0.8274706425795073,-1.1479934451599456, ,0.02745860577502048,0.011635247803128777,0.011559369753265604,-0.0039221016459983354,0.05932931984038373,-0.04572650480075081, ,0.985152006149292
0.011703455829573406,0.021243801496976005,-0.0841635287569268, ,0.012007534344773106,0.021076439105661135,-0.08445008826338472, ,0.0004501002823528266, ,0.004321653291033467,0.0016001158507345443,-0.010607571287392875,0.03479374967806898,0.02885199816531128,-0.010252755199378702, ,0.011565363224767049, ,0.045200029651429226, ,5.441132000550977e-05, ,0.21509355601290103,-0.2285002202825548,0.09677452995000001,1.796623435775405,0.8276072790792728,-1.1480231843235016, ,0.02926208497023459,0.012789345223513583,0.010486380197498356,-0.0037822624927542087,0.03515715768828463,-0.02554737442237691, ,0.9941949844360352
0.011703455829573406,0.021243801496976005,-0.0841635287569268, ,0.012048685921317685,0.021083750802239475,-0.08453498041644912, ,0.0005317672202132201, ,0.004439063586720363,0.0012616350103350578,-0.00971822156403506,0.013310213390382478,0.0037459923593326115,-0.0050280012971223, ,0.010758291629897651, ,0.013827297370443935, ,5.515922938691735e-05, ,0.21509355601290103,-0.2285002202825548,0.09677452995000001,1.796623435775405,0.8276072790792728,-1.1480231843235016, ,0.02926208497023459,0.012789345223513583,0.010486380197498356,-0.0037822624927542087,0.03515715768828463,-0.02554737442237691, ,1.0028331279754639
0.011750909779109715,0.021256425771390395,-0.08426180540548475, ,0.012089874245243182,0.02109081883342402,-0.08461987290476458, ,0.0005201296965606323, ,0.004801694405439367,0.0011835070944901619,-0.009566463425100867,-0.01728367086809235,-0.03217835139350362,0.0036382662682141434, ,0.010769130915247008, ,0.03652631239199166, ,5.599765021055773e-05, ,0.21540246532787002,-0.22836893382369297,0.09687952944000001,1.796623435775405,0.8277439155790383,-1.1479712447469166, ,0.03125722712729604,0.012869126872588931,0.010152206195028681,-0.0036530845896518113,0.0,0.004909967561551269, ,1.0094270706176758
0.011796539359230177,0.021268050049633898,-0.08435834586900885, ,0.012131098934614087,0.021097645161610973,-0.08470476499437682, ,0.0005108562868007744, ,0.004732222735301029,0.001156821367862093,-0.01002536523506088,-0.00823315676146829,-0.01536464704778284,0.001768189938357548, ,0.0111463050285738, ,0.0174314987275088, ,5.6802493722691775e-05, ,0.21570365190996477,-0.22822992463195693,0.09698323264000001,1.796623435775405,0.8280171885785692,-1.1481124018141693, ,0.030396201652296857,0.014541364014476064,0.010683307525150905,-0.0035348276494276127,0.016579397928944035,-0.004801714138446796, ,1.0167169570922852
0.011796539359230177,0.021268050049633898,-0.08435834586900885, ,0.012172359609266234,0.0211042317434266,-0.08478965595343128, ,0.0005950678000953149, ,0.004732222735301029,0.001156821367862093,-0.01002536523506088,-0.00823315676146829,-0.01536464704778284,0.001768189938357548, ,0.0111463050285738, ,0.0174314987275088, ,5.779237791599536e-05, ,0.21570365190996477,-0.22822992463195693,0.09698323264000001,1.796623435775405,0.8280171885785692,-1.1481124018141693, ,0.030396201652296857,0.014541364014476064,0.010683307525150905,-0.0035348276494276127,0.016579397928944035,-0.004801714138446796, ,1.0239369869232178
0.011812711789541996,0.021272594828456625,-0.08439306337963613, ,0.012213655890803855,0.021110580529734278,-0.08487454505217118, ,0.0006471703070400558, ,0.0048337916349968845,0.0012109897658308636,-0.010176119929676658,-0.003783014652736249,-0.011544985459543628,0.0005504934977351784, ,0.011330730541614492, ,0.012148982673549295, ,5.8889121372689966e-05, ,0.21581177017020392,-0.22818358823471158,0.09702082505000001,1.796623435775405,0.8281538250783346,-1.1482238197178654, ,0.03151675242725698,0.014428605984258899,0.010887772740943269,-0.0034962861413623454,0.021686988820742138,-0.009096530795460364, ,1.0317940711975098
0.011885008691353541,0.021290099850033658,-0.08455077020880312, ,0.01225498740259675,0.021116693465641247,-0.0849594315629364, ,0.0005778910998477751, ,0.004255271762386319,0.0010783988817366081,-0.009057713038565528,0.013845994854579166,0.010692314667206547,-0.004885391747414125, ,0.01006540845713144, ,0.01749391624219343, ,5.9811474788160556e-05, ,0.21630602507415428,-0.22795190624848485,0.09719193533,1.79641374583192,0.8289736440769272,-1.1488106483999034, ,0.02894964660111982,0.013196626555203837,0.009826533942011105,-0.001801260856520322,0.04167513484830255,-0.02482619051426844, ,1.0385890007019043
0.011938403341706117,0.021301395924081524,-0.08465878730126772, ,0.012296353769777038,0.02112257249050506,-0.08504431476016067, ,0.0005556417469131401, ,0.0055849238403603615,0.0012405553530045208,-0.01184494975437849,-0.004598684671056911,-0.014856121196051677,-0.004021761868828834, ,0.0131542079415769, ,0.01555159170403824, ,6.067039561589722e-05, ,0.21664582532062018,-0.2277820061252519,0.09730600885000001,1.79641374583192,0.8289736440769272,-1.148728969659763, ,0.035702385838401345,0.018676823766674035,0.012611885605700713,-0.001801260856520322,0.022126234176957648,-0.012712457770703778, ,1.045201063156128
0.011938403341706117,0.021301395924081524,-0.08465878730126772, ,0.012337754619236613,0.021128219537940772,-0.08512919392037048, ,0.0006409008432493289, ,0.0055849238403603615,0.0012405553530045208,-0.01184494975437849,-0.004598684671056911,-0.014856121196051677,-0.004021761868828834, ,0.0131542079415769, ,0.01555159170403824, ,6.171096173018665e-05, ,0.21664582532062018,-0.2277820061252519,0.09730600885000001,1.79641374583192,0.8289736440769272,-1.148728969659763, ,0.035702385838401345,0.018676823766674035,0.012611885605700713,-0.001801260856520322,0.022126234176957648,-0.012712457770703778, ,1.0518059730529785
0.011997617205634498,0.021317429975183783,-0.08479125096418452, ,0.012379189579623789,0.021133636535827432,-0.08521406832218269, ,0.0005984580379331608, ,0.006207075505938443,0.0019456285307761264,-0.014161199129282756,-0.01704433110477191,-0.026790498474857496,0.002288024712979528, ,0.015583735672020035, ,0.03175278667821169, ,6.264187423636367e-05, ,0.21700879376570872,-0.22759666053627053,0.09744730446000001,1.79641374583192,0.8292469170764581,-1.1488701267270152, ,0.03602769231528883,0.016769206848996427,0.015027180679245284,-0.001801260856520322,0.010207465744651721,0.0025310071654626697, ,1.0587849617004395
0.012039572945858366,0.021330562753170447,-0.08488562631712812, ,0.012420658281340802,0.021138825406315242,-0.0852989372463038, ,0.0005939824637772561, ,0.005819244631483461,0.0017216436959148211,-0.01286825077415271,0.030087803772108294,0.02239900724089571,-0.01145863467427042, ,0.014227422222005438, ,0.03750988014311075, ,6.36927682168671e-05, ,0.21727908941630658,-0.22748081954315716,0.09754971137000001,1.79641374583192,0.8296568265757545,-1.149122701697964, ,0.03851336913898976,0.016555642281659243,0.014009508812664908,-0.001801260856520322,0.063677473059299,-0.044406766745788, ,1.0651509761810303
0.012039572945858366,0.021330562753170447,-0.08488562631712812, ,0.012462160356540491,0.021143788065831833,-0.08538379997552667, ,0.0006794423429693311, ,0.005819244631483461,0.0017216436959148211,-0.01286825077415271,0.030087803772108294,0.02239900724089571,-0.01145863467427042, ,0.014227422222005438, ,0.03750988014311075, ,6.492503787431263e-05, ,0.21727908941630658,-0.22748081954315716,0.09754971137000001,1.79641374583192,0.8296568265757545,-1.149122701697964, ,0.03851336913898976,0.016555642281659243,0.014009508812664908,-0.001801260856520322,0.063677473059299,-0.044406766745788, ,1.0699589252471924
0.012107855513503844,0.021350719376348536,-0.08504945220875182, ,0.012503695439123472,0.021148526425089336,-0.08546865579472986, ,0.0006109851739202051, ,0.005301585514462987,0.0014802717466323827,-0.013123147724653124,0.07831683215682099,0.08520663120512817,-0.026504918909206854, ,0.014230777196418696, ,0.11573113587618039, ,6.599422698136059e-05, ,0.21775017612163428,-0.2272414148240562,0.09773119197,1.79641374583192,0.8311598280731742,-1.1503482986386244, ,0.036178780617030414,0.02051382221324487,0.014520338669097542,-0.001801260856520322,0.1262840797944646,-0.09590587295309559, ,1.0748951435089111
0.012107855513503844,0.021350719376348536,-0.08504945220875182, ,0.012545263164735377,0.021153042389091374,-0.08555350399087538, ,0.0006960386797505561, ,0.005301585514462987,0.0014802717466323827,-0.013123147724653124,0.07831683215682099,0.08520663120512817,-0.026504918909206854, ,0.014230777196418696, ,0.11573113587618039, ,6.724212571097969e-05, ,0.21775017612163428,-0.2272414148240562,0.09773119197,1.79641374583192,0.8311598280731742,-1.1503482986386244, ,0.036178780617030414,0.02051382221324487,0.014520338669097542,-0.001801260856520322,0.1262840797944646,-0.09590587295309559, ,1.0794200897216797
0.012107855513503844,0.021350719376348536,-0.08504945220875182, ,0.012586863170763681,0.021157337857139517,-0.08563834385300674, ,0.0007833505705355747, ,0.005301585514462987,0.0014802717466323827,-0.013123147724653124,0.07831683215682099,0.08520663120512817,-0.026504918909206854, ,0.014230777196418696, ,0.11573113587618039, ,6.86713466781903e-05, ,0.2181672036968424,-0.22700973283782946,0.0978958208,1.79641374583192,0.8315697375724705,-1.1503558373891516, ,0.0423269141652412,0.02329902812631249,0.016421455175257733,-0.001801260856520322,0.02877999808754034,-0.010829892912029092, ,1.084218978881836
0.012176110816774185,0.021367854048070446,-0.08520361015809809, ,0.012628495096334723,0.021161414722839812,-0.0857231746722474, ,0.0007191773187179857, ,0.006964591857489418,0.0016798437252541075,-0.015439143494532664,-0.009497250250037972,-0.01519052166142005,-0.0022047163648762284, ,0.017020416167868924, ,0.017915044890336778, ,6.994729980398329e-05, ,0.2181672036968424,-0.22700973283782946,0.0978958208,1.79641374583192,0.8315697375724705,-1.1503558373891516, ,0.0423269141652412,0.02329902812631249,0.016421455175257733,-0.001801260856520322,0.02877999808754034,-0.010829892912029092, ,1.089064121246338
0.012176110816774185,0.021367854048070446,-0.08520361015809809, ,0.01267015858231109,0.021165274874110487,-0.08580799574179923, ,0.0008064759451713849, ,0.006964591857489418,0.0016798437252541075,-0.015439143494532664,-0.009497250250037972,-0.01519052166142005,-0.0022047163648762284, ,0.017020416167868924, ,0.017915044890336778, ,7.140271758905627e-05, ,0.2181672036968424,-0.22700973283782946,0.0978958208,1.79641374583192,0.8315697375724705,-1.1503558373891516, ,0.0423269141652412,0.02329902812631249,0.016421455175257733,-0.001801260856520322,0.02877999808754034,-0.010829892912029092, ,1.093454122543335
0.012247807946009347,0.02138422999786268,-0.085362788027158, ,0.01271185327128836,0.02116892019318799,-0.08589280635693983, ,0.0007366246030422027, ,0.007584992543168471,0.0019707760837109705,-0.01702485080497944,-0.043484925916853615,-0.03457786419074214,0.016660855368948308, ,0.018741974687419078, ,0.055556872155678894, ,7.269362882354342e-05, ,0.2185842312720505,-0.2267780508516027,0.09806304221,1.7962040558884358,0.8315697375724705,-1.1499474436884487, ,0.0440152790159883,0.02387945182648988,0.017998657084745767,-0.0032517983573193366,0.01125102430324397,0.026607407061007483, ,1.0978951454162598
0.012247807946009347,0.02138422999786268,-0.085362788027158, ,0.012753578807592238,0.02117235255663355,-0.08597760581502144, ,0.0008238307634468396, ,0.007584992543168471,0.0019707760837109705,-0.01702485080497944,-0.043484925916853615,-0.03457786419074214,0.016660855368948308, ,0.018741974687419078, ,0.055556872155678894, ,7.416212126033942e-05, ,0.2185842312720505,-0.2267780508516027,0.09806304221,1.7962040558884358,0.8315697375724705,-1.1499474436884487, ,0.0440152790159883,0.02387945182648988,0.017998657084745767,-0.0032517983573193366,0.01125102430324397,0.026607407061007483, ,1.1025779247283936
0.012326826179287188,0.021404948829349162,-0.085544035716179, ,0.012795334837275631,0.02117557383534103,-0.08606239341546906, ,0.00073539646103286, ,0.008240160600526816,0.0021847654530046416,-0.018578211804271993,-0.0008007395212667091,-0.006837019029909286,-0.0003298314769674791, ,0.020440728965756293, ,0.006883589165684508, ,7.542736311058118e-05, ,0.2190553179773782,-0.22653092339962755,0.09825618942000001,1.7959943659449509,0.8319796470717669,-1.150118339919257, ,0.04981466748476156,0.02582229702271314,0.01986136099750624,-0.006663403864784368,0.04636530888671855,-0.02226598619590609, ,1.1072559356689453
0.012326826179287188,0.021404948829349162,-0.085544035716179, ,0.012837121008115725,0.02117858589454242,-0.08614716845977838, ,0.0008218333754388332, ,0.008240160600526816,0.0021847654530046416,-0.018578211804271993,-0.0008007395212667091,-0.006837019029909286,-0.0003298314769674791, ,0.020440728965756293, ,0.006883589165684508, ,7.686723145654185e-05, ,0.2190553179773782,-0.22653092339962755,0.09825618942000001,1.7959943659449509,0.8319796470717669,-1.150118339919257, ,0.04981466748476156,0.02582229702271314,0.01986136099750624,-0.006663403864784368,0.04636530888671855,-0.02226598619590609, ,1.1123361587524414
0.012406067866904232,0.021425910663307547,-0.08573055696945708, ,0.012878936969611026,0.02118139059381558,-0.08623193025151413, ,0.0007312799878567277, ,0.007988351230904366,0.002325241786795168,-0.019357468382445404,0.06275053077461427,0.03999750836167645,-0.02948281284745881, ,0.021069695938307303, ,0.07441389030066811, ,7.810130309103682e-05, ,0.21954185014845437,-0.2262683504819039,0.09845711437000002,1.7957846760014666,0.8327994660703596,-1.1507051686012948, ,0.04797620907910555,0.02662652681214107,0.020903952125984254,-0.007512984235279806,0.09246000665889231,-0.09273803095795365, ,1.1176340579986572
0.012406067866904232,0.021425910663307547,-0.08573055696945708, ,0.012920782372978366,0.021183989787090712,-0.08631667809630808, ,0.0008166974399701169, ,0.007988351230904366,0.002325241786795168,-0.019357468382445404,0.06275053077461427,0.03999750836167645,-0.02948281284745881, ,0.021069695938307303, ,0.07441389030066811, ,7.950661124803265e-05, ,0.21954185014845437,-0.2262683504819039,0.09845711437000002,1.7957846760014666,0.8327994660703596,-1.1507051686012948, ,0.04797620907910555,0.02662652681214107,0.020903952125984254,-0.007512984235279806,0.09246000665889231,-0.09273803095795365, ,1.1222610473632812
0.012492645309226811,0.021446934106220984,-0.08593298881330556, ,0.012962656871150046,0.021186385322656924,-0.08640141130185774, ,0.0007128928143414326, ,0.00856846429082452,0.0017600250602652083,-0.019172792153665644,0.026785502982530143,0.006776604267195578,-0.014494242641384233, ,0.02107397037778025, ,0.027629385528155775, ,8.085138025672352e-05, ,0.2200592732510274,-0.22596716389980914,0.09867359480000001,1.7955749860579822,0.8334826485691867,-1.1513439368599174, ,0.052896845907731756,0.03165341613024376,0.02050040092664093,-0.012611599422702102,0.06450313124992954,-0.061416484774288516, ,1.124690055847168
0.012492645309226811,0.021446934106220984,-0.08593298881330556, ,0.0130045601187708,0.02118857904316933,-0.08648612917792406, ,0.0007967235240691508, ,0.00856846429082452,0.0017600250602652083,-0.019172792153665644,0.026785502982530143,0.006776604267195578,-0.014494242641384233, ,0.02107397037778025, ,0.027629385528155775, ,8.236805852751256e-05, ,0.2200592732510274,-0.22596716389980914,0.09867359480000001,1.7955749860579822,0.8334826485691867,-1.1513439368599174, ,0.052896845907731756,0.03165341613024376,0.02050040092664093,-0.012611599422702102,0.06450313124992954,-0.061416484774288516, ,1.127223014831543
0.012492645309226811,0.021446934106220984,-0.08593298881330556, ,0.013046491772194871,0.021190572785655684,-0.08657083103632952, ,0.0008827852132293349, ,0.00856846429082452,0.0017600250602652083,-0.019172792153665644,0.026785502982530143,0.006776604267195578,-0.014494242641384233, ,0.02107397037778025, ,0.027629385528155775, ,8.406027238523311e-05, ,0.2200592732510274,-0.22596716389980914,0.09867359480000001,1.7955749860579822,0.8334826485691867,-1.1513439368599174, ,0.052896845907731756,0.03165341613024376,0.02050040092664093,-0.012611599422702102,0.06450313124992954,-0.061416484774288516, ,1.1295099258422852
0.012492645309226811,0.021446934106220984,-0.08593298881330556, ,0.013088451489483103,0.021192368381523077,-0.08665551619095667, ,0.0009704815938893157, ,0.00856846429082452,0.0017600250602652083,-0.019172792153665644,0.026785502982530143,0.006776604267195578,-0.014494242641384233, ,0.02107397037778025, ,0.027629385528155775, ,8.593035956140205e-05, ,0.2200592732510274,-0.22596716389980914,0.09867359480000001,1.7955749860579822,0.8334826485691867,-1.1513439368599174, ,0.052896845907731756,0.03165341613024376,0.02050040092664093,-0.012611599422702102,0.06450313124992954,-0.061416484774288516, ,1.1318039894104004
0.012584298612080486,0.02146383290622249,-0.08613654795444485, ,0.013130438930400013,0.021193967656565046,-0.08674018395774649, ,0.0008575971809356705, ,0.009560217753506961,0.001716631755562683,-0.021294708535725862,-0.004376866985022712,-0.02465305501245703,-0.00788102330138148, ,0.02340532417421711, ,0.02503848452318189, ,0.0004780297426786235, ,0.22061531001797158,-0.2256041954547206,0.09889007523000001,1.7955749860579822,0.8340291945682485,-1.1517896084747032, ,0.05645267195625864,0.03719989869011007,0.022498321355932206,-0.012611599422702102,0.035701151446379566,-0.03549181276691109, ,1.1347320079803467
0.012584298612080486,0.02146383290622249,-0.08613654795444485, ,0.013172453756410699,0.021195372430967946,-0.08682483365469607, ,0.0009443170578499019, ,0.009560217753506961,0.001716631755562683,-0.021294708535725862,-0.004376866985022712,-0.02465305501245703,-0.00788102330138148, ,0.02340532417421711, ,0.02503848452318189, ,0.0004833284621692062, ,0.22061531001797158,-0.2256041954547206,0.09889007523000001,1.7955749860579822,0.8340291945682485,-1.1517896084747032, ,0.05645267195625864,0.03719989869011007,0.022498321355932206,-0.012611599422702102,0.035701151446379566,-0.03549181276691109, ,1.1372699737548828
0.012584298612080486,0.02146383290622249,-0.08613654795444485, ,0.013214495630678015,0.02119658451931793,-0.08690946460185661, ,0.0010324582928131004, ,0.009560217753506961,0.001716631755562683,-0.021294708535725862,-0.004376866985022712,-0.02465305501245703,-0.00788102330138148, ,0.02340532417421711, ,0.02503848452318189, ,0.0004894984602663286, ,0.22061531001797158,-0.2256041954547206,0.09889007523000001,1.7955749860579822,0.8340291945682485,-1.1517896084747032, ,0.05645267195625864,0.03719989869011007,0.022498321355932206,-0.012611599422702102,0.035701151446379566,-0.03549181276691109, ,1.1395471096038818
0.012584298612080486,0.02146383290622249,-0.08613654795444485, ,0.013256564218059715,0.021197605730607902,-0.08699407612133288, ,0.0011216828923651648, ,0.009560217753506961,0.001716631755562683,-0.021294708535725862,-0.004376866985022712,-0.02465305501245703,-0.00788102330138148, ,0.02340532417421711, ,0.02503848452318189, ,0.0004965227317340935, ,0.22061531001797158,-0.2256041954547206,0.09889007523000001,1.7955749860579822,0.8340291945682485,-1.1517896084747032, ,0.05645267195625864,0.03719989869011007,0.022498321355932206,-0.012611599422702102,0.035701151446379566,-0.03549181276691109, ,1.1422600746154785
0.012683304758525749,0.02148584322432929,-0.08636686163216681, ,0.013298659185105212,0.0211984378682438,-0.08707866753727975, ,0.0009838346179979723, ,0.009560217753506961,0.001716631755562683,-0.021294708535725862,-0.004376866985022712,-0.02465305501245703,-0.00788102330138148, ,0.02340532417421711, ,0.02503848452318189, ,0.0005018778074073229, ,0.22120223771641262,-0.2252257815438836,0.09913637033000001,1.7955749860579822,0.8348490135668412,-1.152376437156741, ,0.06334909316319812,0.0412774865413096,0.02794528336842106,-0.012611599422702102,0.11806019678529459,-0.1018740756046435, ,1.1450650691986084
0.012683304758525749,0.02148584322432929,-0.08636686163216681, ,0.01334078020005293,0.021199082730052034,-0.08716323817590166, ,0.0010717840905240964, ,0.01076382154814241,0.0025460359960027224,-0.02602171788509439,0.05900294928147288,0.04802310706538923,-0.026714544033097108, ,0.028274935106992513, ,0.07607598113099934, ,0.0005080724409194618, ,0.22120223771641262,-0.2252257815438836,0.09913637033000001,1.7955749860579822,0.8348490135668412,-1.152376437156741, ,0.06334909316319812,0.0412774865413096,0.02794528336842106,-0.012611599422702102,0.11806019678529459,-0.1018740756046435, ,1.1483969688415527
0.012683304758525749,0.02148584322432929,-0.08636686163216681, ,0.01338292693282718,0.021199542108285795,-0.08724778736545014, ,0.0011608056096447763, ,0.01076382154814241,0.0025460359960027224,-0.02602171788509439,0.05900294928147288,0.04802310706538923,-0.026714544033097108, ,0.028274935106992513, ,0.07607598113099934, ,0.0005150910771423145, ,0.22120223771641262,-0.2252257815438836,0.09913637033000001,1.7955749860579822,0.8348490135668412,-1.152376437156741, ,0.06334909316319812,0.0412774865413096,0.02794528336842106,-0.012611599422702102,0.11806019678529459,-0.1018740756046435, ,1.1507041454315186
0.012683304758525749,0.02148584322432929,-0.08636686163216681, ,0.013425099055035253,0.021199817789631835,-0.08733231443622201, ,0.001250667199732188, ,0.01076382154814241,0.0025460359960027224,-0.02602171788509439,0.05900294928147288,0.04802310706538923,-0.026714544033097108, ,0.028274935106992513, ,0.07607598113099934, ,0.0005229163550422068, ,0.22120223771641262,-0.2252257815438836,0.09913637033000001,1.7955749860579822,0.8348490135668412,-1.152376437156741, ,0.06334909316319812,0.0412774865413096,0.02794528336842106,-0.012611599422702102,0.11806019678529459,-0.1018740756046435, ,1.1532020568847656
0.012796765440127268,0.021510568204189357,-0.08663916901541334, ,0.013467296239964502,0.02119991155521759,-0.08741681872055809, ,0.0010727805791458246, ,0.011287403415287,0.0029936393251520474,-0.02707397233462023,0.0757880625150873,0.06136340644951675,-0.019290822840671896, ,0.029485035700238027, ,0.09751555529418231, ,0.0005287043995064554, ,0.22188956094221862,-0.22480875396867547,0.09942933187000001,1.7949459162275283,0.8362153785644955,-1.1534906161937053, ,0.06773514743645309,0.03838873040391213,0.029280903529411772,-0.02425462053060657,0.13900863363137572,-0.11809249488370312, ,1.1555521488189697
0.012796765440127268,0.021510568204189357,-0.08663916901541334, ,0.013509518162579347,0.02119982518061769,-0.08750129955284053, ,0.0011609680157634863, ,0.011287403415287,0.0029936393251520474,-0.02707397233462023,0.0757880625150873,0.06136340644951675,-0.019290822840671896, ,0.029485035700238027, ,0.09751555529418231, ,0.0005352904788424661, ,0.22188956094221862,-0.22480875396867547,0.09942933187000001,1.7949459162275283,0.8362153785644955,-1.1534906161937053, ,0.06773514743645309,0.03838873040391213,0.029280903529411772,-0.02425462053060657,0.13900863363137572,-0.11809249488370312, ,1.1577939987182617
0.012796765440127268,0.021510568204189357,-0.08663916901541334, ,0.013551764499518299,0.021199560435860628,-0.08758575626949212, ,0.001250110731586035, ,0.011287403415287,0.0029936393251520474,-0.02707397233462023,0.0757880625150873,0.06136340644951675,-0.019290822840671896, ,0.029485035700238027, ,0.09751555529418231, ,0.0005426597597985854, ,0.22188956094221862,-0.22480875396867547,0.09942933187000001,1.7949459162275283,0.8362153785644955,-1.1534906161937053, ,0.06773514743645309,0.03838873040391213,0.029280903529411772,-0.02425462053060657,0.13900863363137572,-0.11809249488370312, ,1.160041093826294
0.012796765440127268,0.021510568204189357,-0.08663916901541334, ,0.013594034929091147,0.021199119085435904,-0.08767018820897332, ,0.0013400148391320534, ,0.011287403415287,0.0029936393251520474,-0.02707397233462023,0.0757880625150873,0.06136340644951675,-0.019290822840671896, ,0.029485035700238027, ,0.09751555529418231, ,0.0005507960361183147, ,0.22188956094221862,-0.22480875396867547,0.09942933187000001,1.7949459162275283,0.8362153785644955,-1.1534906161937053, ,0.06773514743645309,0.03838873040391213,0.029280903529411772,-0.02425462053060657,0.13900863363137572,-0.11809249488370312, ,1.1623690128326416
0.012922657493779674,0.021538443792647303,-0.08693879898366172, ,0.013636329131275887,0.02119850288830078,-0.0877545947117812, ,0.0011359620128474552, ,0.011287403415287,0.0029936393251520474,-0.03295595275509309,0.017980505053613736,0.007098481975434187,0.05091475679811154, ,0.029485035700238027, ,0.09751555529418231, ,0.0005567068035600232, ,0.22262322056526995,-0.22436083546197044,0.09974951550000001,1.794316846397075,0.8373084705626191,-1.1543819594232767, ,0.07941166657612617,0.05379645213065237,0.03500837696703297,-0.09139670387839331,0.1104596891656255,-0.08898393349908454, ,1.1652700901031494
0.012922657493779674,0.021538443792647303,-0.08693879898366172, ,0.013678646787715793,0.02119771359788658,-0.08783897512044746, ,0.0012239011215805823, ,0.01378359656021206,0.002465774773637087,-0.03295595275509309,0.017980505053613736,0.007098481975434187,0.05091475679811154, ,0.035807295365119694, ,0.019329980171537982, ,0.0005633787467402288, ,0.22262322056526995,-0.22436083546197044,0.09974951550000001,1.794316846397075,0.8373084705626191,-1.1543819594232767, ,0.07941166657612617,0.05379645213065237,0.03500837696703297,-0.09139670387839331,0.1104596891656255,-0.08898393349908454, ,1.167497158050537
0.012922657493779674,0.021538443792647303,-0.08693879898366172, ,0.013720987581716316,0.02119675296210585,-0.08792332877953611, ,0.0013127766268278497, ,0.01378359656021206,0.002465774773637087,-0.03295595275509309,0.017980505053613736,0.007098481975434187,0.05091475679811154, ,0.035807295365119694, ,0.019329980171537982, ,0.0005707985277311953, ,0.22262322056526995,-0.22436083546197044,0.09974951550000001,1.794316846397075,0.8373084705626191,-1.1543819594232767, ,0.07941166657612617,0.05379645213065237,0.03500837696703297,-0.09139670387839331,0.1104596891656255,-0.08898393349908454, ,1.169754981994629
0.012922657493779674,0.021538443792647303,-0.08693879898366172, ,0.013763351198242568,0.021195622723359155,-0.0880076550356429, ,0.0014024070201365225, ,0.01378359656021206,0.002465774773637087,-0.03295595275509309,0.017980505053613736,0.007098481975434187,0.05091475679811154, ,0.035807295365119694, ,0.019329980171537982, ,0.0005789515521665417, ,0.22262322056526995,-0.22436083546197044,0.09974951550000001,1.794316846397075,0.8373084705626191,-1.1543819594232767, ,0.07941166657612617,0.05379645213065237,0.03500837696703297,-0.09139670387839331,0.1104596891656255,-0.08898393349908454, ,1.1719450950622559
0.012922657493779674,0.021538443792647303,-0.08693879898366172, ,0.013805737323915835,0.021194324618541725,-0.08809195323739182, ,0.0014926529152070923, ,0.01378359656021206,0.002465774773637087,-0.03295595275509309,0.017980505053613736,0.007098481975434187,0.05091475679811154, ,0.035807295365119694, ,0.019329980171537982, ,0.000587822439186353, ,0.22262322056526995,-0.22436083546197044,0.09974951550000001,1.794316846397075,0.8373084705626191,-1.1543819594232767, ,0.07941166657612617,0.05379645213065237,0.03500837696703297,-0.09139670387839331,0.1104596891656255,-0.08898393349908454, ,1.1741769313812256
0.013069698611482536,0.02157237486646066,-0.0873031858313601, ,0.01384814564701105,0.02119286037905042,-0.08817622273543488, ,0.0012297172313803957, ,0.015385195771625712,0.003828963246151117,-0.03923355992561191,0.0475972467219144,0.04350794167434719,-0.0024521342416141353, ,0.042315924105568184, ,0.06448523804606465, ,0.000593994504495911, ,0.22343410751706352,-0.22378163049640362,0.10013840250000001,1.7941071564535904,0.8386748355602734,-1.155496138460241, ,0.08180770824006102,0.0584340773143293,0.04180790425196851,-0.043346520088635335,0.13945613734022527,-0.1126339884134918, ,1.1779530048370361
0.013069698611482536,0.02157237486646066,-0.0873031858313601, ,0.013890575857453638,0.02119123173079046,-0.08826046288244915, ,0.001317379556302348, ,0.015385195771625712,0.003828963246151117,-0.03923355992561191,0.0475972467219144,0.04350794167434719,-0.0024521342416141353, ,0.042315924105568184, ,0.06448523804606465, ,0.0006008838859416866, ,0.22343410751706352,-0.22378163049640362,0.10013840250000001,1.7941071564535904,0.8386748355602734,-1.155496138460241, ,0.08180770824006102,0.0584340773143293,0.04180790425196851,-0.043346520088635335,0.13945613734022527,-0.1126339884134918, ,1.1802799701690674
0.013069698611482536,0.02157237486646066,-0.0873031858313601, ,0.013933027646816473,0.02118944039418151,-0.08834467303313566, ,0.00140594147274082, ,0.015385195771625712,0.003828963246151117,-0.03923355992561191,0.0475972467219144,0.04350794167434719,-0.0024521342416141353, ,0.042315924105568184, ,0.06448523804606465, ,0.0006084787688360181, ,0.22343410751706352,-0.22378163049640362,0.10013840250000001,1.7941071564535904,0.8386748355602734,-1.155496138460241, ,0.08180770824006102,0.0584340773143293,0.04180790425196851,-0.043346520088635335,0.13945613734022527,-0.1126339884134918, ,1.1826329231262207
0.013228773421440344,0.02161263887331412,-0.08769904026810137, ,0.013975500708317243,0.021187488084166057,-0.08842885254421709, ,0.0011273778394349293, ,0.016056734409636446,0.003795419450123616,-0.03865910935990043,0.05453762046123171,0.04787014594222122,-0.04296396475582908, ,0.042032733258791546, ,0.0725659463434691, ,0.000613328292860307, ,0.22429133086610242,-0.22319470279796255,0.10056099304,1.7938974665101057,0.8400412005579279,-1.156446960016924, ,0.08927275781605906,0.06032863417576019,0.04137353641558442,0.0,0.14176399485554464,-0.1115054822725353, ,1.1851160526275635
0.013228773421440344,0.02161263887331412,-0.08769904026810137, ,0.014017994736815104,0.021185376510214366,-0.08851300077443613, ,0.0012115919764657593, ,0.016056734409636446,0.003795419450123616,-0.03865910935990043,0.05453762046123171,0.04787014594222122,-0.04296396475582908, ,0.042032733258791546, ,0.0725659463434691, ,0.0006188677714122092, ,0.22429133086610242,-0.22319470279796255,0.10056099304,1.7938974665101057,0.8400412005579279,-1.156446960016924, ,0.08927275781605906,0.06032863417576019,0.04137353641558442,0.0,0.14176399485554464,-0.1115054822725353, ,1.188176155090332
0.013228773421440344,0.02161263887331412,-0.08769904026810137, ,0.014060509428808026,0.021183107376332423,-0.08859711708455395, ,0.0012972370874673904, ,0.016056734409636446,0.003795419450123616,-0.03865910935990043,0.05453762046123171,0.04787014594222122,-0.04296396475582908, ,0.042032733258791546, ,0.0725659463434691, ,0.0006250913431191375, ,0.22429133086610242,-0.22319470279796255,0.10056099304,1.7938974665101057,0.8400412005579279,-1.156446960016924, ,0.08927275781605906,0.06032863417576019,0.04137353641558442,0.0,0.14176399485554464,-0.1115054822725353, ,1.1904470920562744
0.013228773421440344,0.02161263887331412,-0.08769904026810137, ,0.01410304448242982,0.02118068238106869,-0.08868120083734804, ,0.0013840432374241747, ,0.016056734409636446,0.003795419450123616,-0.03865910935990043,0.05453762046123171,0.04787014594222122,-0.04296396475582908, ,0.042032733258791546, ,0.0725659463434691, ,0.0006319909057946379, ,0.22429133086610242,-0.22319470279796255,0.10056099304,1.7938974665101057,0.8400412005579279,-1.156446960016924, ,0.08927275781605906,0.06032863417576019,0.04137353641558442,0.0,0.14176399485554464,-0.1115054822725353, ,1.1927261352539062
0.0133981050582123,0.021640404656015202,-0.08809759500411093, ,0.014145599597446872,0.021178103217519884,-0.08876525139761061, ,0.0011037371815796296, ,0.016658670158825908,0.002320405035822509,-0.038163422895711896,0.00997009066220896,0.00014649871521759793,0.054487992126695924, ,0.041705424324753895, ,0.009967106701824918, ,0.0006362408722431513, ,0.2252566724753805,-0.2225151023050308,0.10098487987000002,1.7930587067361679,0.8414075655555823,-1.1574794603137477, ,0.09663639669905374,0.06706497636641044,0.040531327022900764,-0.09929362618232962,0.12263661510627304,-0.09525804569454935, ,1.1957600116729736
0.0133981050582123,0.021640404656015202,-0.08809759500411093, ,0.01418817447525559,0.0211753715733391,-0.0888492681321459, ,0.0011855285501160369, ,0.016658670158825908,0.002320405035822509,-0.038163422895711896,0.00997009066220896,0.00014649871521759793,0.054487992126695924, ,0.041705424324753895, ,0.009967106701824918, ,0.0006411452265098735, ,0.2252566724753805,-0.2225151023050308,0.10098487987000002,1.7930587067361679,0.8414075655555823,-1.1574794603137477, ,0.09663639669905374,0.06706497636641044,0.040531327022900764,-0.09929362618232962,0.12263661510627304,-0.09525804569454935, ,1.1980481147766113
0.0133981050582123,0.021640404656015202,-0.08809759500411093, ,0.014230768818879361,0.021172489130741767,-0.08893325040977043, ,0.001269091735899366, ,0.016658670158825908,0.002320405035822509,-0.038163422895711896,0.00997009066220896,0.00014649871521759793,0.054487992126695924, ,0.041705424324753895, ,0.009967106701824918, ,0.0006467022752655328, ,0.2252566724753805,-0.2225151023050308,0.10098487987000002,1.7930587067361679,0.8414075655555823,-1.1574794603137477, ,0.09663639669905374,0.06706497636641044,0.040531327022900764,-0.09929362618232962,0.12263661510627304,-0.09525804569454935, ,1.2002370357513428
0.0133981050582123,0.021640404656015202,-0.08809759500411093, ,0.0142733823329653,0.021169457566512534,-0.08901719760130879, ,0.0013540939426727782, ,0.016658670158825908,0.002320405035822509,-0.038163422895711896,0.00997009066220896,0.00014649871521759793,0.054487992126695924, ,0.041705424324753895, ,0.009967106701824918, ,0.0006529074653305086, ,0.2252566724753805,-0.2225151023050308,0.10098487987000002,1.7930587067361679,0.8414075655555823,-1.1574794603137477, ,0.09663639669905374,0.06706497636641044,0.040531327022900764,-0.09929362618232962,0.12263661510627304,-0.09525804569454935, ,1.2024290561676025
0.01357094243911323,0.02165786697663031,-0.08848448134136767, ,0.014316014723781627,0.02116627855201218,-0.08910110907959343, ,0.0010849062891093075, ,0.017326545867963145,0.0011559640992229708,-0.03725980674411183,0.0037116521189862126,-0.0014949978342409394,0.036468591643372475, ,0.04110764701757915, ,0.003992438727138545, ,0.0006566639768416286, ,0.22628379594765236,-0.22177371994910525,0.1013958038,1.792010257018745,0.8427739305532367,-1.1585119606105714, ,0.10520725228211839,0.07816881512229883,0.039525586898263035,-0.08273287361666673,0.12589506230256545,-0.09603583926105382, ,1.2049469947814941
0.01357094243911323,0.02165786697663031,-0.08848448134136767, ,0.01435866569921461,0.021162953753184357,-0.08918498421946207, ,0.0011645391000155126, ,0.017326545867963145,0.0011559640992229708,-0.03725980674411183,0.0037116521189862126,-0.0014949978342409394,0.036468591643372475, ,0.04110764701757915, ,0.003992438727138545, ,0.0006610422106620932, ,0.22628379594765236,-0.22177371994910525,0.1013958038,1.792010257018745,0.8427739305532367,-1.1585119606105714, ,0.10520725228211839,0.07816881512229883,0.039525586898263035,-0.08273287361666673,0.12589506230256545,-0.09603583926105382, ,1.2075259685516357
0.01357094243911323,0.02165786697663031,-0.08848448134136767, ,0.014401334968765594,0.021159484830562333,-0.08926882239775641, ,0.0012462453247891326, ,0.017326545867963145,0.0011559640992229708,-0.03725980674411183,0.0037116521189862126,-0.0014949978342409394,0.036468591643372475, ,0.04110764701757915, ,0.003992438727138545, ,0.000666043946680273, ,0.22628379594765236,-0.22177371994910525,0.1013958038,1.792010257018745,0.8427739305532367,-1.1585119606105714, ,0.10520725228211839,0.07816881512229883,0.039525586898263035,-0.08273287361666673,0.12589506230256545,-0.09603583926105382, ,1.209761142730713
0.01357094243911323,0.02165786697663031,-0.08848448134136767, ,0.014444022243548094,0.021155873439276003,-0.08935262299331982, ,0.0013296374634883432, ,0.017326545867963145,0.0011559640992229708,-0.03725980674411183,0.0037116521189862126,-0.0014949978342409394,0.036468591643372475, ,0.04110764701757915, ,0.003992438727138545, ,0.0006716676205515277, ,0.22628379594765236,-0.22177371994910525,0.1013958038,1.792010257018745,0.8427739305532367,-1.1585119606105714, ,0.10520725228211839,0.07816881512229883,0.039525586898263035,-0.08273287361666673,0.12589506230256545,-0.09603583926105382, ,1.2120540142059326
0.01357094243911323,0.02165786697663031,-0.08848448134136767, ,0.014486727236284604,0.021152121229057828,-0.08943638538699547, ,0.0014144121987597644, ,0.017326545867963145,0.0011559640992229708,-0.03725980674411183,0.0037116521189862126,-0.0014949978342409394,0.036468591643372475, ,0.04110764701757915, ,0.003992438727138545, ,0.0006779091716289079, ,0.22628379594765236,-0.22177371994910525,0.1013958038,1.792010257018745,0.8427739305532367,-1.1585119606105714, ,0.10520725228211839,0.07816881512229883,0.039525586898263035,-0.08273287361666673,0.12589506230256545,-0.09603583926105382, ,1.2142620086669922
0.013746105449720464,0.021668066644260187,-0.08884251090044365, ,0.014529449661304095,0.021148229844251118,-0.08952010896162575, ,0.0011588777265022366, ,0.01743712438250938,0.0001638117750368082,-0.03365400790540287,0.0014420469314066415,-0.008684227552924943,-0.0068598050491042685, ,0.03790346143989573, ,0.008800689595319412, ,0.0006819172429195189, ,0.227372701282918,-0.22095511026443745,0.10177691306000002,1.792010257018745,0.8440036590511257,-1.159514721743839, ,0.1131072009040176,0.08280710432676333,0.03579508206741574,-0.036218369523283,0.11604095423964814,-0.08823973903111154, ,1.2165861129760742
0.013746105449720464,0.021668066644260187,-0.08884251090044365, ,0.014572189234538603,0.021144200923815165,-0.08960379310204829, ,0.0012395161568438096, ,0.01743712438250938,0.0001638117750368082,-0.03365400790540287,0.0014420469314066415,-0.008684227552924943,-0.0068598050491042685, ,0.03790346143989573, ,0.008800689595319412, ,0.0006865254984064965, ,0.227372701282918,-0.22095511026443745,0.10177691306000002,1.792010257018745,0.8440036590511257,-1.159514721743839, ,0.1131072009040176,0.08280710432676333,0.03579508206741574,-0.036218369523283,0.11604095423964814,-0.08823973903111154, ,1.2192020416259766
0.013746105449720464,0.021668066644260187,-0.08884251090044365, ,0.014614945673520644,0.021140036101333408,-0.08968743719509638, ,0.0013219682417336227, ,0.01743712438250938,0.0001638117750368082,-0.03365400790540287,0.0014420469314066415,-0.008684227552924943,-0.0068598050491042685, ,0.03790346143989573, ,0.008800689595319412, ,0.0006917340454829484, ,0.227372701282918,-0.22095511026443745,0.10177691306000002,1.792010257018745,0.8440036590511257,-1.159514721743839, ,0.1131072009040176,0.08280710432676333,0.03579508206741574,-0.036218369523283,0.11604095423964814,-0.08823973903111154, ,1.2215149402618408
0.013746105449720464,0.021668066644260187,-0.08884251090044365, ,0.014657718697379985,0.021135737005019282,-0.0897710406295953, ,0.0014059093199922726, ,0.01743712438250938,0.0001638117750368082,-0.03365400790540287,0.0014420469314066415,-0.008684227552924943,-0.0068598050491042685, ,0.03790346143989573, ,0.008800689595319412, ,0.0006975403485277397, ,0.227372701282918,-0.22095511026443745,0.10177691306000002,1.792010257018745,0.8440036590511257,-1.159514721743839, ,0.1131072009040176,0.08280710432676333,0.03579508206741574,-0.036218369523283,0.11604095423964814,-0.08823973903111154, ,1.2238011360168457
0.013909539606743487,0.02166175506148308,-0.08914111557179416, ,0.014700508026840736,0.02113130525772325,-0.0898546027963619, ,0.001189988258564493, ,0.017053767551124373,-0.0013958670187191105,-0.030315011340063935,0.007641502983119863,0.005845119074123561,-0.04634146248882903, ,0.034810621151739524, ,0.009619375341481025, ,0.0007015117026409394, ,0.2284693293510579,-0.2201287778468954,0.10209450411000001,1.7918005670752608,0.8450967510492492,-1.1604060649734105, ,0.11658100928559063,0.09349452370292687,0.03224455773279353,0.0,0.1264065260272952,-0.09688046314688631, ,1.2261791229248047
0.013909539606743487,0.02166175506148308,-0.08914111557179416, ,0.014743313384218623,0.02112674247693992,-0.0899381230882018, ,0.0012714708643279985, ,0.017053767551124373,-0.0013958670187191105,-0.030315011340063935,0.007641502983119863,0.005845119074123561,-0.04634146248882903, ,0.034810621151739524, ,0.009619375341481025, ,0.0007060713759344358, ,0.2284693293510579,-0.2201287778468954,0.10209450411000001,1.7918005670752608,0.8450967510492492,-1.1604060649734105, ,0.11658100928559063,0.09349452370292687,0.03224455773279353,0.0,0.1264065260272952,-0.09688046314688631, ,1.2320029735565186
0.013909539606743487,0.02166175506148308,-0.08914111557179416, ,0.014786134493417624,0.021122050274814057,-0.09002160089990807, ,0.0013546048372571834, ,0.017053767551124373,-0.0013958670187191105,-0.030315011340063935,0.007641502983119863,0.005845119074123561,-0.04634146248882903, ,0.034810621151739524, ,0.009619375341481025, ,0.0007112184668973148, ,0.2284693293510579,-0.2201287778468954,0.10209450411000001,1.7918005670752608,0.8450967510492492,-1.1604060649734105, ,0.11658100928559063,0.09349452370292687,0.03224455773279353,0.0,0.1264065260272952,-0.09688046314688631, ,1.2345471382141113
0.014040661129826859,0.02164463717179392,-0.08937452601536859, ,0.014828971079927486,0.021117230258148535,-0.09010503562825965, ,0.0011971779001112802, ,0.01711443698372602,-0.001971609299519299,-0.02994214223824721,0.015795120773835138,0.01694020534766803,-0.01956951939784056, ,0.03454450865644651, ,0.023161008848991114, ,0.000715044919127346, ,0.22938061183021638,-0.21938739549096986,0.10234209550000001,1.791171497244807,0.8461898430473727,-1.1612974082029819, ,0.11951755863787251,0.09604953599035504,0.03192146597194389,-0.0344508508054572,0.14854159821878915,-0.11519663956810568, ,1.236799955368042
0.014040661129826859,0.02164463717179392,-0.08937452601536859, ,0.014871822870820494,0.021112284028410165,-0.09018842667201889, ,0.0012793216905289768, ,0.01711443698372602,-0.001971609299519299,-0.02994214223824721,0.015795120773835138,0.01694020534766803,-0.01956951939784056, ,0.03454450865644651, ,0.023161008848991114, ,0.0007194533314039213, ,0.22938061183021638,-0.21938739549096986,0.10234209550000001,1.791171497244807,0.8461898430473727,-1.1612974082029819, ,0.11951755863787251,0.09604953599035504,0.03192146597194389,-0.0344508508054572,0.14854159821878915,-0.11519663956810568, ,1.239063024520874
0.014040661129826859,0.02164463717179392,-0.08937452601536859, ,0.014914689594748405,0.021107213181736507,-0.09027177343192995, ,0.0013630125564749495, ,0.01711443698372602,-0.001971609299519299,-0.02994214223824721,0.015795120773835138,0.01694020534766803,-0.01956951939784056, ,0.03454450865644651, ,0.023161008848991114, ,0.0007244421626060223, ,0.22938061183021638,-0.21938739549096986,0.10234209550000001,1.791171497244807,0.8461898430473727,-1.1612974082029819, ,0.11951755863787251,0.09604953599035504,0.03192146597194389,-0.0344508508054572,0.14854159821878915,-0.11519663956810568, ,1.2412879467010498
0.014040661129826859,0.02164463717179392,-0.08937452601536859, ,0.014957570981939759,0.021102019308942992,-0.09035507531071753, ,0.0014479760849530304, ,0.01711443698372602,-0.001971609299519299,-0.02994214223824721,0.015795120773835138,0.01694020534766803,-0.01956951939784056, ,0.03454450865644651, ,0.023161008848991114, ,0.0007300078081625378, ,0.22938061183021638,-0.21938739549096986,0.10234209550000001,1.791171497244807,0.8461898430473727,-1.1612974082029819, ,0.11951755863787251,0.09604953599035504,0.03192146597194389,-0.0344508508054572,0.14854159821878915,-0.11519663956810568, ,1.2435131072998047
0.014245884565602586,0.02161114015158467,-0.08972778035064953, ,0.015000466764196738,0.021096703995529712,-0.09043833171308385, ,0.0011571180111592143, ,0.01720007110204652,-0.003215711359484983,-0.028311704542162187,-0.05264151015925346,-0.06134916901595973,0.07049075655554025, ,0.03328266605225104, ,0.08083830120001892, ,0.0007332681913915201, ,0.23082476287769638,-0.21824443102558463,0.10271542702000001,1.7894939776969307,0.8476928445447925,-1.1624413264035018, ,0.12088782364136405,0.09793286022546002,0.02971793194029851,-0.11675411678283144,0.0874194320989055,-0.06788129824557686, ,1.2457549571990967
0.014245884565602586,0.02161114015158467,-0.08972778035064953, ,0.015043376674892382,0.021091268821688224,-0.09052154204570845, ,0.0012394827520262604, ,0.01720007110204652,-0.003215711359484983,-0.028311704542162187,-0.05264151015925346,-0.06134916901595973,0.07049075655554025, ,0.03328266605225104, ,0.08083830120001892, ,0.0007371031501842074, ,0.23082476287769638,-0.21824443102558463,0.10271542702000001,1.7894939776969307,0.8476928445447925,-1.1624413264035018, ,0.12088782364136405,0.09793286022546002,0.02971793194029851,-0.11675411678283144,0.0874194320989055,-0.06788129824557686, ,1.2479801177978516
0.014245884565602586,0.02161114015158467,-0.08972778035064953, ,0.015086300448967431,0.021085715362307734,-0.09060470571724487, ,0.0013233926721789694, ,0.01720007110204652,-0.003215711359484983,-0.028311704542162187,-0.05264151015925346,-0.06134916901595973,0.07049075655554025, ,0.03328266605225104, ,0.08083830120001892, ,0.000741511342078905, ,0.23082476287769638,-0.21824443102558463,0.10271542702000001,1.7894939776969307,0.8476928445447925,-1.1624413264035018, ,0.12088782364136405,0.09793286022546002,0.02971793194029851,-0.11675411678283144,0.0874194320989055,-0.06788129824557686, ,1.2501680850982666
0.014245884565602586,0.02161114015158467,-0.08972778035064953, ,0.01512923782292755,0.02108004518698282,-0.09068782213831975, ,0.0014085648983007796, ,0.01720007110204652,-0.003215711359484983,-0.028311704542162187,-0.05264151015925346,-0.06134916901595973,0.07049075655554025, ,0.03328266605225104, ,0.08083830120001892, ,0.000746489353692501, ,0.23082476287769638,-0.21824443102558463,0.10271542702000001,1.7894939776969307,0.8476928445447925,-1.1624413264035018, ,0.12088782364136405,0.09793286022546002,0.02971793194029851,-0.11675411678283144,0.0874194320989055,-0.06788129824557686, ,1.25239896774292
0.014245884565602586,0.02161114015158467,-0.08972778035064953, ,0.015172188534840078,0.021074259860019214,-0.09077089072153037, ,0.0014947771528678463, ,0.01720007110204652,-0.003215711359484983,-0.028311704542162187,-0.05264151015925346,-0.06134916901595973,0.07049075655554025, ,0.03328266605225104, ,0.08083830120001892, ,0.000752032226278985, ,0.23082476287769638,-0.21824443102558463,0.10271542702000001,1.7894939776969307,0.8476928445447925,-1.1624413264035018, ,0.12088782364136405,0.09793286022546002,0.02971793194029851,-0.11675411678283144,0.0874194320989055,-0.06788129824557686, ,1.254673957824707
0.014442228499446241,0.021574518233541153,-0.09005096684028015, ,0.015215152324331663,0.021068360940441802,-0.0908539108814441, ,0.0012240611004659299, ,0.018346417322386826,-0.0029185308732800116,-0.031246561003143228,0.012524264270930447,0.013375921963628926,-0.06021047814175491, ,0.03635184212042926, ,0.01832328294759468, ,0.0007555030268244772, ,0.23219940932930833,-0.2170628528958283,0.10305635129000001,1.7890745978099616,0.8489225730426815,-1.1632807300564885, ,0.12652925541129437,0.11034528088194276,0.033185024,0.0,0.14398850968087032,-0.12012901012206059, ,1.2577719688415527
0.014442228499446241,0.021574518233541153,-0.09005096684028015, ,0.015258128932584639,0.02106234998200007,-0.09093688203459449, ,0.0013087610806404265, ,0.018346417322386826,-0.0029185308732800116,-0.031246561003143228,0.012524264270930447,0.013375921963628926,-0.06021047814175491, ,0.03635184212042926, ,0.01832328294759468, ,0.0007595414067793383, ,0.23219940932930833,-0.2170628528958283,0.10305635129000001,1.7890745978099616,0.8489225730426815,-1.1632807300564885, ,0.12652925541129437,0.11034528088194276,0.033185024,0.0,0.14398850968087032,-0.12012901012206059, ,1.2600319385528564
0.014442228499446241,0.021574518233541153,-0.09005096684028015, ,0.015301118102334336,0.021056228533175514,-0.09101980359948161, ,0.0013946183095866673, ,0.018346417322386826,-0.0029185308732800116,-0.031246561003143228,0.012524264270930447,0.013375921963628926,-0.06021047814175491, ,0.03635184212042926, ,0.01832328294759468, ,0.0007641434133214203, ,0.23219940932930833,-0.2170628528958283,0.10305635129000001,1.7890745978099616,0.8489225730426815,-1.1632807300564885, ,0.12652925541129437,0.11034528088194276,0.033185024,0.0,0.14398850968087032,-0.12012901012206059, ,1.2622830867767334
0.014442228499446241,0.021574518233541153,-0.09005096684028015, ,0.015344119577866286,0.021049998137188733,-0.09110267499656843, ,0.0014814246166493013, ,0.018346417322386826,-0.0029185308732800116,-0.031246561003143228,0.012524264270930447,0.013375921963628926,-0.06021047814175491, ,0.03635184212042926, ,0.01832328294759468, ,0.0007693037097482396, ,0.23219940932930833,-0.2170628528958283,0.10305635129000001,1.7890745978099616,0.8489225730426815,-1.1632807300564885, ,0.12652925541129437,0.11034528088194276,0.033185024,0.0,0.14398850968087032,-0.12012901012206059, ,1.2645771503448486
0.014442228499446241,0.021574518233541153,-0.09005096684028015, ,0.01538713310501307,0.021043660332005717,-0.09118549564828066, ,0.0015690157556337884, ,0.018346417322386826,-0.0029185308732800116,-0.031246561003143228,0.012524264270930447,0.013375921963628926,-0.06021047814175491, ,0.03635184212042926, ,0.01832328294759468, ,0.000775015938647422, ,0.23219940932930833,-0.2170628528958283,0.10305635129000001,1.7890745978099616,0.8489225730426815,-1.1632807300564885, ,0.12652925541129437,0.11034528088194276,0.033185024,0.0,0.14398850968087032,-0.12012901012206059, ,1.266963005065918
0.014442228499446241,0.021574518233541153,-0.09005096684028015, ,0.015430158431151418,0.021037216650344803,-0.09126826497900341, ,0.001657260782074871, ,0.018346417322386826,-0.0029185308732800116,-0.031246561003143228,0.012524264270930447,0.013375921963628926,-0.06021047814175491, ,0.03635184212042926, ,0.01832328294759468, ,0.000781272994274567, ,0.23219940932930833,-0.2170628528958283,0.10305635129000001,1.7890745978099616,0.8489225730426815,-1.1632807300564885, ,0.12652925541129437,0.11034528088194276,0.033185024,0.0,0.14398850968087032,-0.12012901012206059, ,1.2693150043487549
0.014442228499446241,0.021574518233541153,-0.09005096684028015, ,0.015473195305199122,0.021030668619683324,-0.09135098241508031, ,0.0017460542522443614, ,0.018346417322386826,-0.0029185308732800116,-0.031246561003143228,0.012524264270930447,0.013375921963628926,-0.06021047814175491, ,0.03635184212042926, ,0.01832328294759468, ,0.000788067228485622, ,0.23219940932930833,-0.2170628528958283,0.10305635129000001,1.7890745978099616,0.8489225730426815,-1.1632807300564885, ,0.12652925541129437,0.11034528088194276,0.033185024,0.0,0.14398850968087032,-0.12012901012206059, ,1.2716970443725586
0.014614190048023508,0.021551322141811016,-0.09035295569554005, ,0.015516243477612558,0.021024017762264962,-0.09143364738481174, ,0.00150321150400824, ,0.018346417322386826,-0.0029185308732800116,-0.031246561003143228,0.012524264270930447,0.013375921963628926,-0.06021047814175491, ,0.03635184212042926, ,0.01832328294759468, ,0.0007930682374053605, ,0.23337326472619047,-0.21603572942355642,0.10337912750000001,1.7892842877534463,0.8505622110398667,-1.164536066160705, ,0.1287611147333389,0.1120388920406975,0.03611975401360545,0.0,0.1862027154964933,-0.15609319320283932, ,1.2741849422454834
0.014674062924023604,0.021543200391291914,-0.09045996145305195, ,0.01555930270038296,0.02101726559510538,-0.09151625931845231, ,0.001475134587736961, ,0.01909271298986374,-0.00257743299315836,-0.03406560942776797,0.040594428727368785,0.046597237185513715,-0.07035649799273541, ,0.039136180138495465, ,0.06179938738793531, ,0.0007978048092826633, ,0.23377484683565014,-0.2156804837113421,0.10349320102000001,1.7892842877534463,0.8511087570389285,-1.1649817377754907, ,0.1284126408098387,0.11297254947436998,0.0363671495890411,0.0,0.18014051746989562,-0.15092599356200762, ,1.277217149734497
0.014674062924023604,0.021543200391291914,-0.09045996145305195, ,0.015602372727034018,0.021010413629999967,-0.09159881764820954, ,0.0015628865143131865, ,0.01909271298986374,-0.00257743299315836,-0.03406560942776797,0.040594428727368785,0.046597237185513715,-0.07035649799273541, ,0.039136180138495465, ,0.06179938738793531, ,0.0008030812348345979, ,0.23377484683565014,-0.2156804837113421,0.10349320102000001,1.7892842877534463,0.8511087570389285,-1.1649817377754907, ,0.1284126408098387,0.11297254947436998,0.0363671495890411,0.0,0.18014051746989562,-0.15092599356200762, ,1.2794981002807617
0.014674062924023604,0.021543200391291914,-0.09045996145305195, ,0.015645453312618945,0.021003463373530623,-0.09168132180824214, ,0.0016512529947368937, ,0.01909271298986374,-0.00257743299315836,-0.03406560942776797,0.040594428727368785,0.046597237185513715,-0.07035649799273541, ,0.039136180138495465, ,0.06179938738793531, ,0.0008088906304503671, ,0.23377484683565014,-0.2156804837113421,0.10349320102000001,1.7892842877534463,0.8511087570389285,-1.1649817377754907, ,0.1284126408098387,0.11297254947436998,0.0363671495890411,0.0,0.18014051746989562,-0.15092599356200762, ,1.281738042831421
0.014674062924023604,0.021543200391291914,-0.09045996145305195, ,0.01568854421371718,0.020996416327071984,-0.09176377123465773, ,0.0017401336289590314, ,0.01909271298986374,-0.00257743299315836,-0.03406560942776797,0.040594428727368785,0.046597237185513715,-0.07035649799273541, ,0.039136180138495465, ,0.06179938738793531, ,0.0008152256168347798, ,0.23377484683565014,-0.2156804837113421,0.10349320102000001,1.7892842877534463,0.8511087570389285,-1.1649817377754907, ,0.1284126408098387,0.11297254947436998,0.0363671495890411,0.0,0.18014051746989562,-0.15092599356200762, ,1.283998966217041
0.015008868905701134,0.021484094728319046,-0.09104868973661574, ,0.01573164518843162,0.020989273986798368,-0.09184616536551135, ,0.0011845760844281887, ,0.02033565707820749,-0.003917583304201229,-0.03663130140632563,-0.07457109909255802,-0.07188850057025087,0.07542714094534633, ,0.04208014556140319, ,0.10357962819484545, ,0.0008177212281023029, ,0.2359989939034268,-0.21376524595853444,0.10411282764000002,1.7869776983751167,0.8531583045354102,-1.1665713275907965, ,0.12946376747403926,0.12104201729396784,0.038198588776978425,-0.13197852593889944,0.08795822313015363,-0.07365222801094966, ,1.2862050533294678
0.015008868905701134,0.021484094728319046,-0.09104868973661574, ,0.015774755996385722,0.02098203784369094,-0.09192850364080407, ,0.0012699278156977636, ,0.02033565707820749,-0.003917583304201229,-0.03663130140632563,-0.07457109909255802,-0.07188850057025087,0.07542714094534633, ,0.04208014556140319, ,0.10357962819484545, ,0.000820756171643212, ,0.2359989939034268,-0.21376524595853444,0.10411282764000002,1.7869776983751167,0.8531583045354102,-1.1665713275907965, ,0.12946376747403926,0.12104201729396784,0.038198588776978425,-0.13197852593889944,0.08795822313015363,-0.07365222801094966, ,1.2884650230407715
0.015008868905701134,0.021484094728319046,-0.09104868973661574, ,0.015817876398720346,0.020974709383543844,-0.09201078550247979, ,0.0013563166355709548, ,0.02033565707820749,-0.003917583304201229,-0.03663130140632563,-0.07457109909255802,-0.07188850057025087,0.07542714094534633, ,0.04208014556140319, ,0.10357962819484545, ,0.0008243265747360635, ,0.2359989939034268,-0.21376524595853444,0.10411282764000002,1.7869776983751167,0.8531583045354102,-1.1665713275907965, ,0.12946376747403926,0.12104201729396784,0.038198588776978425,-0.13197852593889944,0.08795822313015363,-0.07365222801094966, ,1.2907071113586426
0.015008868905701134,0.021484094728319046,-0.09104868973661574, ,0.015861006158091103,0.020967290086971655,-0.09209301039442513, ,0.001443547910724259, ,0.02033565707820749,-0.003917583304201229,-0.03663130140632563,-0.07457109909255802,-0.07188850057025087,0.07542714094534633, ,0.04208014556140319, ,0.10357962819484545, ,0.0008284273782856543, ,0.2359989939034268,-0.21376524595853444,0.10411282764000002,1.7869776983751167,0.8531583045354102,-1.1665713275907965, ,0.12946376747403926,0.12104201729396784,0.038198588776978425,-0.13197852593889944,0.08795822313015363,-0.07365222801094966, ,1.2929260730743408
0.01520234059702558,0.021453752630174534,-0.09140353645998948, ,0.015904145038665156,0.02095978142941591,-0.09217517776246625, ,0.0011541088861853543, ,0.020770238360820918,-0.0030506011252905063,-0.03838335606734506,-0.03563221000124519,-0.02798676883316794,-0.027368896231742754, ,0.043749182755607394, ,0.045308170410200535, ,0.0008305700197849945, ,0.2359989939034268,-0.21376524595853444,0.10411282764000002,1.7869776983751167,0.8531583045354102,-1.1665713275907965, ,0.12946376747403926,0.12104201729396784,0.038198588776978425,-0.13197852593889944,0.08795822313015363,-0.07365222801094966, ,1.2958400249481201
0.01520234059702558,0.021453752630174534,-0.09140353645998948, ,0.015947292806118125,0.02095218488115115,-0.09225728705436799, ,0.0012391182663869893, ,0.020770238360820918,-0.0030506011252905063,-0.03838335606734506,-0.03563221000124519,-0.02798676883316794,-0.027368896231742754, ,0.043749182755607394, ,0.045308170410200535, ,0.0008332402697627853, ,0.23720374023180582,-0.21261455876027496,0.10448486287000001,1.7865583184881475,0.8541147600337682,-1.1673512529166714, ,0.12823911021414972,0.12276447808340334,0.04032610511392406,-0.029490829332875466,0.10945613570584635,-0.09080379067846557, ,1.2981579303741455
0.01520234059702558,0.021453752630174534,-0.09140353645998948, ,0.015990449227631695,0.02094450190729343,-0.09233933771983167, ,0.001325207723458101, ,0.020770238360820918,-0.0030506011252905063,-0.03838335606734506,-0.03563221000124519,-0.02798676883316794,-0.027368896231742754, ,0.043749182755607394, ,0.045308170410200535, ,0.0008364348636179496, ,0.23720374023180582,-0.21261455876027496,0.10448486287000001,1.7865583184881475,0.8541147600337682,-1.1673512529166714, ,0.12823911021414972,0.12276447808340334,0.04032610511392406,-0.029490829332875466,0.10945613570584635,-0.09080379067846557, ,1.3004131317138672
0.01520234059702558,0.021453752630174534,-0.09140353645998948, ,0.016033614071889846,0.0209367339678049,-0.09242132921049223, ,0.00141217065903075, ,0.020770238360820918,-0.0030506011252905063,-0.03838335606734506,-0.03563221000124519,-0.02798676883316794,-0.027368896231742754, ,0.043749182755607394, ,0.045308170410200535, ,0.0008401492881044837, ,0.23720374023180582,-0.21261455876027496,0.10448486287000001,1.7865583184881475,0.8541147600337682,-1.1673512529166714, ,0.12823911021414972,0.12276447808340334,0.04032610511392406,-0.029490829332875466,0.10945613570584635,-0.09080379067846557, ,1.302638053894043
0.01520234059702558,0.021453752630174534,-0.09140353645998948, ,0.016076787109076722,0.02092888251750249,-0.09250326097991919, ,0.0014998464445900434, ,0.020770238360820918,-0.0030506011252905063,-0.03838335606734506,-0.03563221000124519,-0.02798676883316794,-0.027368896231742754, ,0.043749182755607394, ,0.045308170410200535, ,0.0008443781160306731, ,0.23720374023180582,-0.21261455876027496,0.10448486287000001,1.7865583184881475,0.8541147600337682,-1.1673512529166714, ,0.12823911021414972,0.12276447808340334,0.04032610511392406,-0.029490829332875466,0.10945613570584635,-0.09080379067846557, ,1.3048970699310303
0.0154316442365959,0.021424682219035412,-0.09182432818398038, ,0.01611996811087319,0.02092094900606387,-0.0925851324836114, ,0.0011429611052383966, ,0.019940818421233374,-0.0028716695027124514,-0.03620398108425025,-0.018145689676663912,-0.017032094727818275,-0.04185326662970751, ,0.04143200419229269, ,0.024885660648466427, ,0.0008462799185097032, ,0.23862472308066313,-0.2112939714387826,0.10492949034000001,1.7865583184881475,0.8554811250314226,-1.168383753213495, ,0.12388634668207675,0.11572797751033022,0.038198588776978425,-0.017322726580249852,0.1134863213437557,-0.09975339650332618, ,1.3072240352630615
0.0154316442365959,0.021424682219035412,-0.09182432818398038, ,0.01616315685045379,0.02091293487803376,-0.09266694317899782, ,0.0012275976845382577, ,0.019940818421233374,-0.0028716695027124514,-0.03620398108425025,-0.018145689676663912,-0.017032094727818275,-0.04185326662970751, ,0.04143200419229269, ,0.024885660648466427, ,0.0008486933220921624, ,0.23862472308066313,-0.2112939714387826,0.10492949034000001,1.7865583184881475,0.8554811250314226,-1.168383753213495, ,0.12388634668207675,0.11572797751033022,0.038198588776978425,-0.017322726580249852,0.1134863213437557,-0.09975339650332618, ,1.309602975845337
0.0154316442365959,0.021424682219035412,-0.09182432818398038, ,0.016206353102484188,0.020904841572831727,-0.09274869252543472, ,0.0013133383265875116, ,0.019940818421233374,-0.0028716695027124514,-0.03620398108425025,-0.018145689676663912,-0.017032094727818275,-0.04185326662970751, ,0.04143200419229269, ,0.024885660648466427, ,0.0008516156177179193, ,0.23862472308066313,-0.2112939714387826,0.10492949034000001,1.7865583184881475,0.8554811250314226,-1.168383753213495, ,0.12388634668207675,0.11572797751033022,0.038198588776978425,-0.017322726580249852,0.1134863213437557,-0.09975339650332618, ,1.312108039855957
0.0154316442365959,0.021424682219035412,-0.09182432818398038, ,0.016249556643117957,0.0208966705247582,-0.0928303799842035, ,0.0013999704563912654, ,0.019940818421233374,-0.0028716695027124514,-0.03620398108425025,-0.018145689676663912,-0.017032094727818275,-0.04185326662970751, ,0.04143200419229269, ,0.024885660648466427, ,0.0008550428354596277, ,0.23862472308066313,-0.2112939714387826,0.10492949034000001,1.7865583184881475,0.8554811250314226,-1.168383753213495, ,0.12388634668207675,0.11572797751033022,0.038198588776978425,-0.017322726580249852,0.1134863213437557,-0.09975339650332618, ,1.3144350051879883
0.015626348062937348,0.021388735138149182,-0.09217818941509458, ,0.016292767249993626,0.020888423163001723,-0.0929120050185096, ,0.0011103656808313465, ,0.019861916232060912,-0.003625884606092311,-0.03623261749726856,-0.037929528419411246,-0.03040904506496426,-0.012739539946405833, ,0.041478251244350624, ,0.04861375014083939, ,0.0008566286916420606, ,0.23982946940904215,-0.21013556150764892,0.10530022928,1.7857195587142094,0.8564375805297808,-1.1692453572795107, ,0.12181892369508443,0.1204275908102421,0.03801625661097852,-0.04658888385163672,0.1038371133245017,-0.09125968244063337, ,1.3167309761047363
0.015626348062937348,0.021388735138149182,-0.09217818941509458, ,0.016335984702231705,0.02088010091164521,-0.09299356709348022, ,0.0011946270106647716, ,0.019861916232060912,-0.003625884606092311,-0.03623261749726856,-0.037929528419411246,-0.03040904506496426,-0.012739539946405833, ,0.041478251244350624, ,0.04861375014083939, ,0.0008587151010187441, ,0.23982946940904215,-0.21013556150764892,0.10530022928,1.7857195587142094,0.8564375805297808,-1.1692453572795107, ,0.12181892369508443,0.1204275908102421,0.03801625661097852,-0.04658888385163672,0.1038371133245017,-0.09125968244063337, ,1.3189871311187744
0.015626348062937348,0.021388735138149182,-0.09217818941509458, ,0.016379208780431833,0.02087170518967308,-0.09307506567616258, ,0.0012800415052781828, ,0.019861916232060912,-0.003625884606092311,-0.03623261749726856,-0.037929528419411246,-0.03040904506496426,-0.012739539946405833, ,0.041478251244350624, ,0.04861375014083939, ,0.000861299925584753, ,0.23982946940904215,-0.21013556150764892,0.10530022928,1.7857195587142094,0.8564375805297808,-1.1692453572795107, ,0.12181892369508443,0.1204275908102421,0.03801625661097852,-0.04658888385163672,0.1038371133245017,-0.09125968244063337, ,1.3212060928344727
