NicholasDascanio/dvrk_moveit_final/test/execution/third_experiment_notsharpbends/thirdexp_500vel4.0/thirdexp_500vel4.0_5.csv
Current Position (x),Current Position (y),Current Position (z), ,Planned Position (x),Planned Position (y),Planned Position (z), ,Position Error,,Cartesian linear Velocity(x),Cartesian linear Velocity(y),Cartesian linear Velocity(z),Cartesian Angular Velocity(x),Cartesian Angular Velocity(y),Cartesian Angular Velocity(z), ,Total Linear Velocity, ,Total Angular Velocity, ,MSE, ,Joint 1 Position,Joint 2 Position,Joint 3 Position,Joint 4 Position,Joint 5 Position,Joint 6 Position, ,Joint 1 Velocity,Joint 2 Velocity,Joint 3 Velocity,Joint 4 Velocity,Joint 5 Velocity,Joint 6 Velocity, ,Time Stamp
0.008470231533927234,0.02051402349678831,-0.08001010105783604, ,0.008687255863791259,0.020457575199189525,-0.0800772511865726, ,0.00023408355312594563, ,3.026702741304164e-05,-9.122447530390994e-06,8.652735858373934e-07,0.12664510447890068,0.0014089609358898722,-0.004323274806566007, ,3.1623736271112856e-05, ,0.12665294177156144, ,1.9506962760495468e-05, ,0.12433599927501461,-0.24922031258409916,0.08964493495,1.5963695397476838,0.16765298521219543,-1.2815189896456292, ,0.0003753502820701378,8.816416787634833e-05,0.0,-0.0013801239805270329,0.0,-0.12704148171811136, ,0.023094892501831055
0.008484202644788797,0.020514453757512447,-0.0800171560093606, ,0.008759268701351575,0.020463174218358884,-0.08014729630016583, ,0.0003085894066549733, ,0.0013738571014892656,0.00017769004076838301,-0.0006172831083334221,0.2842906553544183,-0.060429427806315675,-0.02757958636937568, ,0.001516606581066602, ,0.2906422069604538, ,2.4666952717314498e-05, ,0.12444411753525375,-0.24920486711835071,0.08965271269000001,1.5961598498041993,0.1672430757128991,-1.286412175303536, ,0.009280070830904645,6.667715536055965e-05,0.0007013089478222094,0.0008583887095062601,-0.05765861704677756,-0.30650730827140116, ,0.046063899993896484
0.008521613920032664,0.020518309089458307,-0.08003291230757599, ,0.00883114914031417,0.020468604283129247,-0.08021737002424632, ,0.0003637406625690382, ,0.002509192613415739,0.00043320997285877807,-0.0016454108039027362,0.08912544770704979,-0.137391041143914,-0.070394649620754, ,0.0030316819037300496, ,0.1637670406876142, ,2.832542569843616e-05, ,0.12462946312423513,-0.24918169891972802,0.08966956446,1.5969986095781377,0.1649202552168866,-1.2903989402308174, ,0.012948143206231515,0.0008763227817422982,0.0017658084921137027,0.03372321083174805,-0.13839844976840973,-0.08537282657558382, ,0.06854104995727539
0.008588258297251296,0.020532759806752808,-0.08010157658702345, ,0.008902897095023102,0.020473866651274444,-0.08028747231455499, ,0.0003701664468046325, ,0.0029898255985726886,0.00039621866544901305,-0.002227651002053794,0.1426124693789054,-0.14566380244689936,-0.014776402735947323, ,0.003749463338623543, ,0.20385352527141562, ,3.0394763551299753e-05, ,0.12511599529531128,-0.24912763978960845,0.08974345299000001,1.5972082995216221,0.16287070772040502,-1.2964871519887247, ,0.019268414529638737,0.0021792308579170207,0.002386696362001798,-0.02357290769062506,-0.12670493004933725,-0.14717733143382827, ,0.0928659439086914
0.008650493086777343,0.020547136580865835,-0.08017377000132846, ,0.008974512481360749,0.02047896257722753,-0.08035760312573184, ,0.00037872269600089056, ,0.0030137108066485897,0.0006911332863413762,-0.003564041544180886,-0.14930093423352062,-0.06303576106400141,0.012652596781136432, ,0.0047183164555004995, ,0.16206256858184392, ,3.183274548375923e-05, ,0.12561797293213586,-0.24906585792661468,0.08982123039,1.5972082995216221,0.16150434272275063,-1.2959447241327442, ,0.02823473417389788,0.003062367758280989,0.0038793988114953727,-0.015617910949504087,-0.029801709360660684,0.14462150870997337, ,0.11565899848937988
0.008727293369516982,0.020556780705439714,-0.0802429972021759, ,0.009045995216745583,0.020483893312084153,-0.08042776241131919, ,0.00037552845704001464, ,0.0023978960548839885,0.00013478353338020215,-0.0014701270014917556,0.03648546923197884,0.050510623267503024,0.02024872820370043, ,0.0028159093542608556, ,0.0623098108482318, ,3.275534229347572e-05, ,0.12662192820578505,-0.2489500169335013,0.08990030408000001,1.5969986095781377,0.16300734422017046,-1.2929230265860956, ,0.037170756583811505,0.0037335891321316236,0.0018194922390755476,0.0,0.08987466297197375,-0.04068250835686835, ,0.14170503616333008
0.008788878831819998,0.0205610220635654,-0.08028171786238791, ,0.009117345220129873,0.020488660103606768,-0.08049795012376468, ,0.0003998534886161402, ,0.003420670981185275,0.000350539226960403,-0.0025296385561720254,0.023451897842690996,-0.02196680206764991,-0.003933711869992579, ,0.004268833439715482, ,0.032133034487887055, ,3.375950987238382e-05, ,0.1273633105617106,-0.2488573441390106,0.08994567423000001,1.5974179894651064,0.16341725371946678,-1.2930122440767633, ,0.039855918336191,0.00461424304560077,0.002906187104542967,0.0066312101533616725,0.01636645900766111,-0.027314292137628322, ,0.16373610496520996
0.008878871911063221,0.02057084393334805,-0.08035541522822301, ,0.009188562411997258,0.020493264196227334,-0.08056816621442353, ,0.0003836532341969617, ,0.003958456404724807,0.0005121710346921324,-0.0038418115615818644,0.008843900592824042,-0.03436481993287915,-0.004742883342476669, ,0.0055399650135708025, ,0.03548458011415731, ,3.432119445132435e-05, ,0.12835182036961135,-0.24872605768014877,0.09002863679,1.5974179894651064,0.16341725371946678,-1.2938290314781689, ,0.04333193678468985,0.006718725323554517,0.004259040513368985,0.005442563391684173,0.007648103886006789,-0.014882662256302439, ,0.18629693984985352
0.008954866892848865,0.020579934483630602,-0.08042617590631375, ,0.009259646714360484,0.020497706831051576,-0.08063841063356218, ,0.00038038888771825134, ,0.004032283498650647,0.00042030376482517944,-0.0033511477412106,0.002400864768561076,-0.0382297807773662,-0.000783406785171443, ,0.0052598627977959115, ,0.03830509482431493, ,3.472529166007444e-05, ,0.1292167664515245,-0.24859477122128698,0.09010771048,1.597627679408591,0.16382716321876312,-1.2941632851892582, ,0.04478383273169929,0.006290778460255355,0.0037728118237801995,0.0012761784357806542,0.006313045619101188,-0.008518386909988176, ,0.2105240821838379
0.00907518995853378,0.02058818182354386,-0.0805165187336883, ,0.009330598050759083,0.020501989245862554,-0.08070868333036038, ,0.0003310433298462014, ,0.0036491625587325638,0.00021597506641697633,-0.0026158834747476885,0.019487445940130407,-0.01344709195924842,-0.0050554518626339615, ,0.00449509498929972, ,0.023676672724593315, ,3.49086154710203e-05, ,0.130575967437388,-0.24837853470080867,0.09021011739000001,1.5980470592955602,0.16410043621829398,-1.2943044422565104, ,0.04138549566440069,0.006896429926124307,0.003113528444096951,0.012317360465792833,0.02097905433912268,-0.02074898546971256, ,0.23256397247314453
0.009147095738196203,0.020593730258617216,-0.0805775385048888, ,0.009401416346256932,0.020506112675124307,-0.08077898425291515, ,0.0003360598191087547, ,0.0033949443473827124,0.00041123963088069,-0.002940958213147421,0.009605856687330811,-0.02269985855274221,-0.00807171036776085, ,0.004510432392499857, ,0.024648652311881694, ,3.510754528801641e-05, ,0.1314177453206785,-0.24823952550907263,0.09027882076,1.5980470592955602,0.16464698221735574,-1.294750113871296, ,0.03820327760002849,0.005164384831094401,0.0033226557196495625,0.010580255649401718,0.013119394562565397,-0.013459132082937848, ,0.2567460536956787
0.009217381657255642,0.02060023992161165,-0.08064016651065163, ,0.009472101527439844,0.02051007834998482,-0.08084931334824184, ,0.00034169243617449794, ,0.0032697036957310237,0.00032939816513594144,-0.003009395627821658,0.011121569249087417,-0.015474815851259408,-0.004935514508665172, ,0.004455999041048387, ,0.019056737075003348, ,3.532371779711179e-05, ,0.1322054640738494,-0.24810823905021082,0.09034882042,1.5980470592955602,0.1649202552168866,-1.2950546284188293, ,0.03725832020356135,0.0062530773827397836,0.0033661900929839394,0.008835797248261784,0.020000734579271248,-0.016309257943788236, ,0.2771320343017578
0.009288770157685486,0.02060700828860232,-0.08070505289258342, ,0.009542653522413356,0.02051388749828054,-0.08091967056227949, ,0.0003452375828635482, ,0.003132669149261403,0.0003744771442398587,-0.002985055073572903,0.008583467838292006,-0.016377607106260756,-0.012331731186403417, ,0.004343317041450639, ,0.01849059042921639, ,3.5537187505623836e-05, ,0.13301635102564296,-0.24796150712560056,0.09042141266,1.5986761291260139,0.16533016471618295,-1.2953072033897781, ,0.0350173216082918,0.005718841450994312,0.003334480117228386,0.015496128192039618,0.015135572539116732,-0.012342044522865069, ,0.29964494705200195
0.009352268885824608,0.02061535125394315,-0.08077174430478215, ,0.00961307226080012,0.020517541344539324,-0.08099005583989045, ,0.00035389985184730636, ,0.002981581093892918,0.0004956807099422353,-0.003542568183129922,0.012919766825871374,-0.0109553038623855,0.015333611240029264, ,0.004656749350973591, ,0.016939275574656094, ,3.578583833990626e-05, ,0.1337268424500716,-0.24783794339961296,0.09049530119,1.5988858190694981,0.16574007421547926,-1.2954780996205861, ,0.03336741967597425,0.005438896005781882,0.0039002966503428015,-0.01083901751225847,0.025592573296890526,-0.019848691319607665, ,0.32136988639831543
0.009420984314544328,0.020625285903909885,-0.08084814987225017, ,0.009683357673737635,0.020521041109984463,-0.0810604691248662, ,0.0003532509330580208, ,0.0028368319432631258,0.00033901334796141217,-0.0029594453710178703,-0.0020029279148662516,-0.019119730908459538,0.013289598348336628, ,0.004113497590670639, ,0.01922435512616847, ,3.599938894263821e-05, ,0.13446050207312293,-0.24770665694075114,0.09057826375000001,1.5988858190694981,0.16601334721501013,-1.295374220467417, ,0.03153770075057188,0.005474865636384575,0.003307477475083057,-0.01083901751225847,0.007381903269555321,0.0015483557512797385, ,0.34575605392456055
0.009475512186005631,0.020629785528698985,-0.0809031353731304, ,0.009753509693875824,0.02052438801253786,-0.08113091035992859, ,0.00037452996596518877, ,0.0027161413579872176,0.00020786583894930472,-0.0026846836426077463,0.009610186353954858,0.006601773740531369,-0.005106905281983345, ,0.0038246775477752816, ,0.011659292351572826, ,3.632542420380882e-05, ,0.13511693436743202,-0.24758309321476354,0.09064048567,1.5986761291260139,0.16669652971383736,-1.2956862737654773, ,0.03266676129379373,0.006634295897108201,0.0029924500319368783,0.013354062515722184,0.036930756522870985,-0.014648099739174185, ,0.36840295791625977
0.009534031764234873,0.020632367571188293,-0.08095426076602355, ,0.009823528255374546,0.020527583266823798,-0.08120137948673235, ,0.00039478555058169106, ,0.002842198662221535,0.00016922913838657413,-0.0024190546838392347,-0.006535843892812001,-0.014202819995883511,-0.006735057024400683, ,0.0037361152685935007, ,0.01563449235325019, ,3.673918476934182e-05, ,0.13578881212748956,-0.24743636129015328,0.09069752243000001,1.5990955090129826,0.16710643921313365,-1.2958571699962853, ,0.032299843961358335,0.006243681671366176,0.0027149840668143858,0.010314163294311042,0.016089337375104987,0.001622249054733584, ,0.388232946395874
0.009588547561358567,0.020636213423895156,-0.08100819398514027, ,0.009893413293901247,0.020530628084172935,-0.08127187644586945, ,0.0004166771159293929, ,0.003013392855361377,0.00029720993113243265,-0.0034217187406012472,0.01387487061541577,0.002809646742715413,-0.0014553434031327821, ,0.004569138801096824, ,0.014156487874622247, ,3.723643594278296e-05, ,0.1364066307574275,-0.24730507483129147,0.09075715177,1.5990955090129826,0.16751634871242999,-1.2960280662270935, ,0.03488858145532014,0.007749290187756483,0.003760342662889519,0.009026819181865917,0.03632472372699777,-0.020565523535193298, ,0.4105958938598633
0.00965860268559476,0.020645459190360854,-0.08109137535513339, ,0.009963164746628466,0.020533523672625217,-0.08134240117687012, ,0.0004102457462673404, ,0.003176712692673354,0.00040431275386096,-0.0037490792867326973,-0.017538202689253518,-0.027728378934437723,-0.003424058183542793, ,0.004930574797418124, ,0.0328093211017912, ,3.785717770369499e-05, ,0.13714801311335306,-0.24714289744093276,0.09084789207,1.5993051989564673,0.16778962171196088,-1.2958425083337834, ,0.032734371010165846,0.007335286901785181,0.004079081055057619,0.003989586263806127,0.004309343227085048,0.010784979760727006, ,0.4286830425262451
0.009720535033891479,0.020650786739669174,-0.08116858717671019, ,0.010032782552231393,0.02053627123693385,-0.08141295361820655, ,0.0004127072458847248, ,0.0031442150710524305,0.0002515529618482703,-0.003690824362296112,0.012027670733236418,0.02000796620473746,0.00873417024492725, ,0.004855054250877778, ,0.023344883255912514, ,3.843839370504506e-05, ,0.13788939546927861,-0.24695755185195137,0.09093215092000001,1.5993051989564673,0.1688827137100844,-1.2964071366027927, ,0.03835769666874324,0.009041816212684359,0.00405829592866242,0.003989586263806127,0.058913411862683236,-0.020780510777200674, ,0.4473550319671631
0.009799510011994939,0.020655216137961497,-0.08124490078885821, ,0.010102266650885441,0.02053887197856886,-0.08148353370729546, ,0.00040267010763021647, ,0.0038088503762688645,0.0002081883380994368,-0.0035839003851327778,-0.035738852988076476,-0.03827465269746466,-0.00883800891961687, ,0.005234025749218182, ,0.05236615941066922, ,3.8921454405501185e-05, ,0.13876206428406598,-0.24675676079722153,0.09101640977000001,1.5995148888999517,0.1692926232093807,-1.2959246029124762, ,0.040040903611169104,0.009388702894545332,0.0039437513047784105,0.008781708601925587,0.0,0.027635375471183655, ,0.46611905097961426
0.009871491961818992,0.020660491606358956,-0.08132369653307812, ,0.010171616984263764,0.020541327095720634,-0.08155414138050128, ,0.00039671152919599763, ,0.0036398454887250293,0.00027172139767496484,-0.004176192575658616,0.00670848881874054,0.010072037096335829,0.005691520033291052, ,0.005546430575490198, ,0.012101642542681666, ,3.933774657112064e-05, ,0.13960384216735647,-0.2465559697424917,0.09110326120000001,1.599934268786921,0.1702490787077388,-1.2964594920179295, ,0.04268868266238002,0.010367115785725219,0.004585150120898101,0.005519761276230644,0.05280933260353798,-0.01650937752124469, ,0.48381590843200684
0.009907531019818,0.02066300482232964,-0.08136156840827662, ,0.010240833495534805,0.020543637783303408,-0.08162477657313794, ,0.00044115481225359573, ,0.0039022159012547884,0.00023225148442253572,-0.004030161933481233,-0.032016924895032675,-0.020964191561039906,-0.0008107005169302173, ,0.00561457343901595, ,0.03826984199704705, ,3.9931421874804345e-05, ,0.14052284737938917,-0.2463397332220134,0.09119789037,1.6001439587304052,0.17065898820703512,-1.2963853520283162, ,0.04557970295795907,0.01018221104972198,0.004522660851788757,0.011865003752838806,0.009947724328587424,0.012391406382451741, ,0.5026419162750244
0.009993772325149981,0.020667947166198575,-0.08144978138244582, ,0.010309916129359753,0.020545805232958972,-0.08169543921947224, ,0.0004185849133547832, ,0.0039386780094567055,0.00016170794971570105,-0.004054746663851274,0.01836472246539706,0.004665478287654957,-0.0019421088871482053, ,0.005655113122758211, ,0.018948079527688788, ,4.037998992166565e-05, ,0.14095532042034575,-0.24623161496177426,0.09124196423000001,1.6001439587304052,0.17106889770633144,-1.2965562482591242, ,0.045910470033125685,0.011470339071439234,0.004475642461365553,0.011865003752838806,0.048794270597228774,-0.02837446627711281, ,0.5204610824584961
0.010075795039695903,0.02066874517413077,-0.08152063612570745, ,0.010378864831890194,0.020547830633060465,-0.08176612925272707, ,0.0004083362592236977, ,0.004303678778272512,1.4129542228200795e-05,-0.003570101064810664,-0.0281395671780451,-0.0404188239154087,-0.011490312881237197, ,0.005591732493912687, ,0.0492495336738589, ,4.075246302144894e-05, ,0.14189749383100114,-0.24600765570842176,0.09132103792000001,1.6001439587304052,0.17175208020515864,-1.2968683015571847, ,0.04606647648469455,0.011769433406730843,0.00395648572280179,0.011637651148734239,0.0031552865185355463,0.018078561645035934, ,0.5383529663085938
0.010158146667965204,0.02067264882102408,-0.0816011652854393, ,0.01044767955076548,0.02054971516871545,-0.081836846605083, ,0.0003930491795202912, ,0.0038413524665298327,0.00022046799123702564,-0.004229323017182273,0.024624176933612695,0.024669013952013933,0.0013707596577049092, ,0.005717671562003425, ,0.034855563941347235, ,4.103528781194978e-05, ,0.14283966724165653,-0.24578369645506926,0.09141048193000001,1.6005633386173743,0.1725718992037513,-1.297373451499082, ,0.04649531678514002,0.011321560225648761,0.004682190335097002,0.013502220492912834,0.0695405866295357,-0.034345496638009676, ,0.5561559200286865
0.010245204224146503,0.02067814968835032,-0.08169219736914314, ,0.010516360235110298,0.02055146002176974,-0.08190759120768178, ,0.0003687415891657799, ,0.004270103815232067,0.00023108640633645562,-0.004531445137113286,-0.022546158882602255,-0.026720211327162176,-0.004655806000487152, ,0.006230664695738377, ,0.03496139258978523, ,4.120042775754236e-05, ,0.14375867245368926,-0.2455520144688425,0.09151029626000001,1.600773028560859,0.17284517220328216,-1.2971062148656314, ,0.04534015363519865,0.011953261312315252,0.004957613295985062,0.007879819983836456,0.017388012650742718,0.01172843830147058, ,0.577523946762085
0.010325002184860458,0.020680709074584618,-0.08177054999104968, ,0.010584906835532178,0.020553066370811158,-0.08197836299062904, ,0.0003564117423171626, ,0.0035082770854099514,-0.00019597606341517548,-0.00255144013360752,0.0015755315934233712,0.021655821834141983,0.00743306028392374, ,0.004342379702516514, ,0.021713058720637467, ,4.13063894976879e-05, ,0.14466995493284773,-0.24532805521549,0.09159714769,1.600773028560859,0.1736649912018748,-1.297366328587107, ,0.04491099931778078,0.01104351699737819,0.002928090352941177,0.007203667158896508,0.06668495512391258,-0.011859138051597624, ,0.5960369110107422
0.01035976136946567,0.020678003101963882,-0.08179546926403913, ,0.010653319304118967,0.020554535391172923,-0.08204916188299662, ,0.0004071614931687129, ,0.0036301788945677796,-0.0002253102484234874,-0.002656409773558469,0.03077688073118269,0.01128552470753939,0.004369288816197031, ,0.004503940097255619, ,0.03278077874812696, ,4.176030013878366e-05, ,0.14511787343955276,-0.24521221422237663,0.09162566607000001,1.600773028560859,0.17434817370070202,-1.2976783818851678, ,0.04497485381918047,0.011674689322997237,0.0030231185272347697,0.006541571444648218,0.055803528435922164,-0.04173855833144694, ,0.6119918823242188
0.010414986560707436,0.020677806635124925,-0.08184178180102188, ,0.010721597594436225,0.020555868254936986,-0.08211998781282547, ,0.00043159921173555624, ,0.004003263000797371,6.060928519891766e-05,-0.003593299154735326,-0.02025367457898031,-0.019087909339146638,-0.011426849202092863, ,0.005379738558185435, ,0.027830911165315077, ,4.2281937257750215e-05, ,0.14574341480236494,-0.24505003683201793,0.09167751767000001,1.601192408447828,0.17475808319999833,-1.2978492781159758, ,0.04405614742733091,0.011281139034530525,0.003994185436308927,0.01612931209010466,0.021866214102212407,0.011258480803066427, ,0.6287729740142822
0.01051148855922816,0.020680455646671817,-0.08194684788480998, ,0.010789741661524944,0.02055706613093817,-0.08219084070712862, ,0.00039010544583969304, ,0.003788176428519229,0.00022357515102330058,-0.004361566363936616,0.017610377720317982,0.006663993802006922,-0.004755209777523082, ,0.005781308472030105, ,0.01882907898084969, ,4.2625484283427006e-05, ,0.14684776560337906,-0.24474112751704893,0.09179288748000002,1.6014020983913126,0.1759878116978873,-1.2985253242886814, ,0.04272712361930247,0.011532013799789862,0.004786301538461539,0.01426051385325068,0.04699808645596573,-0.02725234107078757, ,0.6449449062347412
0.01054990751643569,0.020682784221165817,-0.08199210591356555, ,0.010857751461898735,0.020558130184767313,-0.08226172049189369, ,0.00042778329139384676, ,0.0039893036152679135,0.00024379941616096962,-0.004721403482987689,-0.003917713912758112,-0.015110385806933543,-0.008137058152043688, ,0.006185922109053617, ,0.015610004458373745, ,4.308599994680729e-05, ,0.14725707044571296,-0.24462528652393556,0.09184214650000001,1.6014020983913126,0.17626108469741816,-1.2986664813559337, ,0.04200838493070862,0.01228814634203632,0.005131704742268042,0.01261346313314182,0.024496492238913835,-0.006574160578511466, ,0.6617050170898438
0.010631987353817837,0.020688341053092692,-0.08209130560512407, ,0.010925626953541509,0.020559061578775004,-0.08233262709208503, ,0.0004014641417048167, ,0.003983959345523153,0.00022780673107141434,-0.004596603781085904,-0.02246678940744051,-0.021360301504235256,-0.006730448710823141, ,0.006087084219377611, ,0.031000308136824677, ,4.3432743495686336e-05, ,0.14810657106187763,-0.2443781590719604,0.09194973857000001,1.6014020983913126,0.1766709941967145,-1.2985923413663198, ,0.04138549566440069,0.012032791350978417,0.005001196709576139,0.010184266711567348,0.0182708471474317,0.011931556067902506, ,0.6780540943145752
0.010703347630937223,0.02068967129212779,-0.08217530622187978, ,0.010993368095904777,0.02055986147207503,-0.08240356043164741, ,0.0003912319564641569, ,0.0035312641187886795,-8.169579257792066e-05,-0.003706376860145512,0.0310205324024809,0.022388417967361386,0.0024974501607926526, ,0.005119934560967691, ,0.03825591050955658, ,4.372834604481974e-05, ,0.14895607167804234,-0.24411558615423676,0.09204177516,1.602031168221766,0.17803735919436892,-1.2994614841828627, ,0.042383627315082974,0.012992461878213412,0.004081171283627979,0.01015582754977131,0.06368076963505219,-0.04274758006317586, ,0.6938209533691406
0.010741762014149064,0.02068879591452943,-0.08221051940607815, ,0.011060974849905243,0.0205605310205479,-0.08247452043350778, ,0.00043364185686288817, ,0.003929598733346322,-9.187868921077243e-05,-0.0036255021695124645,-0.0029733203744905286,-0.01119878358720663,-0.0038592661691497655, ,0.005347378224867556, ,0.011586776396222756, ,4.415067529829374e-05, ,0.14938082198612468,-0.24399202242824916,0.09208066386000001,1.602031168221766,0.17831063219389978,-1.2995209625099744, ,0.04371116607944301,0.012918178812751263,0.0040052329695750575,0.009607322053306003,0.03101301981430057,-0.008575142677101188, ,0.7107019424438477
0.010822971272681918,0.020688549974603253,-0.08229206932162722, ,0.011128447177922197,0.020561071376844955,-0.0825455070195788, ,0.00041688965963644024, ,0.004129029048236547,-5.253175554181726e-05,-0.004073768705997358,0.013234889404144004,-0.017484173815242424,-0.003963542487226799, ,0.005800623409297047, ,0.021928489013599648, ,4.4499655662527996e-05, ,0.1502612135337863,-0.24372944951052553,0.09217010787,1.602031168221766,0.17885717819296154,-1.2994765616839166, ,0.04461539330440563,0.013731289474529125,0.004466856848008975,0.007675321255111656,0.025712272278672843,-0.025845393712429728, ,0.7268669605255127
0.010860377323123937,0.020689141722531237,-0.08233581006825419, ,0.011195785043794901,0.020561483690390923,-0.08261652011076098, ,0.00045562379242067156, ,0.0037430669209462027,6.186251058993508e-05,-0.004422261666371244,0.04178783983615148,0.022178743790633778,0.005485053415559516, ,0.005794029270788571, ,0.04730877542920678, ,4.495575124095513e-05, ,0.15070140930761708,-0.2435981630516637,0.09221807060000001,1.602031168221766,0.17954036069178875,-1.2998702937221176, ,0.04361072681915018,0.01335260187962161,0.00484011288969918,0.006988865034557665,0.06534372864566176,-0.05434929204627944, ,0.7429039478302002
0.010941712115715905,0.02069134482826548,-0.08242450401003339, ,0.011262988412820151,0.020561769107388547,-0.08268755962694493, ,0.00043497883179587955, ,0.004403939004366273,5.237255899539222e-05,-0.00449381357519635,-0.02422174355658946,-0.02468373508687028,-0.013068868983740971, ,0.00629220009914921, ,0.03458293852360354, ,4.546893237247733e-05, ,0.15158180085527867,-0.24333559013394007,0.09231529235000001,1.6024505481087352,0.18022354319061595,-1.300182347020178, ,0.04615609997980096,0.013932894077003492,0.004925421001855288,0.01645194837817104,0.018219659061338298,0.012774387656626696, ,0.7566709518432617
0.010986689973447162,0.02069413794590651,-0.08247513348848348, ,0.01133005725174966,0.020561928770821435,-0.08275862548701506, ,0.00046448688573195177, ,0.0043284227763813465,0.0003144504572233225,-0.005085373068191412,-0.005621037755896332,0.0038341563441458026,-0.00023077843191911436, ,0.006685442548091435, ,0.006804176432420543, ,4.605330216362699e-05, ,0.1520683330263548,-0.24320430367507825,0.09237103282,1.6026602380522197,0.18063345268991227,-1.3003532432509863, ,0.04756738925236631,0.012557488627559982,0.005596911988756149,0.010792912026517094,0.05023548276943403,-0.0054574473113113385, ,0.7697060108184814
0.011029866366661372,0.020696829258186566,-0.08252942512600975, ,0.011396991528787448,0.020561963820457912,-0.0828297176088518, ,0.0004930975017289001, ,0.004221507397979504,0.0001289972712095747,-0.004802888606372832,0.02115360372513352,0.023669575662684683,0.004786793298300155, ,0.006395741080781895, ,0.03174466506447693, ,4.6702337159875906e-05, ,0.15257031066317941,-0.24306529448334221,0.09243066216000001,1.6026602380522197,0.18145327168850492,-1.3007767144527431, ,0.04909308926977277,0.013863687590718885,0.005300769224625625,0.009946377161350465,0.07208356300864946,-0.033773911559521835, ,0.7828099727630615
0.011124233640449694,0.020702881353914696,-0.08264065061616005, ,0.011463791213587357,0.02056187539285458,-0.08290083590933398, ,0.00045042026299182877, ,0.004989492131965998,0.00035257819905035626,-0.005817654883997549,-0.017396312963437997,-0.02113098374095804,-0.0025490033649863807, ,0.007672317216506154, ,0.027370607810540862, ,4.7202943748207004e-05, ,0.1535742659368286,-0.24278727609987014,0.09255251342000001,1.6026602380522197,0.18227309068709754,-1.3010368281742188, ,0.051630544917557544,0.014255211290141321,0.006371524608000002,0.007981267249955704,0.02951820331043659,0.004340760345920191, ,0.798227071762085
0.011171951353131327,0.02070557039991355,-0.08269489519878635, ,0.011530456277250344,0.020561664621359717,-0.08297198030434136, ,0.00047540594173736927, ,0.00475875083009054,0.00019711703051993645,-0.004979848406165299,-0.03148870736698142,-0.014709160242565177,0.00021412978884078715, ,0.006890823951821398, ,0.03475482820591001, ,4.775840120268136e-05, ,0.15408396630652743,-0.2426482669081341,0.09261214276000002,1.6026602380522197,0.18268300018639388,-1.3010443669247458, ,0.051047305841027846,0.013593602858970173,0.005509792985126254,0.007278617195290795,0.035909956301522016,0.018958116178659473, ,0.8115849494934082
0.0112671565092925,0.02070899514572555,-0.08279915917892455, ,0.011596986692322085,0.020561332636117015,-0.0830431507087582, ,0.00043603214676418657, ,0.005020182115863036,0.0001389704022538602,-0.0054176674933825815,0.001941003179313297,-0.00782137597108869,-0.00471277933410888, ,0.007387331204026795, ,0.008058623378466738, ,4.818306523548846e-05, ,0.1551497034431704,-0.24234708032603933,0.09272751257,1.603289307882673,0.18391272868428285,-1.3017204130974513, ,0.05407233137234802,0.015669904484555942,0.005968082248032972,0.013040608112639207,0.04423458695895227,-0.015695079241692732, ,0.8251540660858154
0.01131910976593011,0.020711300549890056,-0.08285419940642014, ,0.011663382432790212,0.02056088056406914,-0.08311434703647474, ,0.00045697552527937467, ,0.005060741181930481,0.00021114102417589127,-0.005323499192274149,-0.003966653258752133,-0.015449924284467597,-0.005817206633446045, ,0.007348151161531768, ,0.015951002921304348, ,4.865199577701484e-05, ,0.15570574021011457,-0.24220034840142907,0.0927884382,1.603289307882673,0.18432263818357916,-1.3018096305881188, ,0.05379645213065237,0.014565915818644786,0.005890832662721894,0.012581184099923272,0.03629405367545331,-0.008718218823282838, ,0.839756965637207
0.011370786214820388,0.020711674276390032,-0.08290703808350412, ,0.011729643474081857,0.020560309528961193,-0.08318556920039107, ,0.00047882084579008996, ,0.005038922875349305,2.9249215019247067e-05,-0.005150619820644324,0.03290730574911265,-0.002236545865058194,-0.0021820574470606787, ,0.007205586984910523, ,0.03298322157472158, ,4.9165481686707144e-05, ,0.15626177697705873,-0.24203817101107036,0.09284677125000002,1.603289307882673,0.18473254768287548,-1.3018988480787863, ,0.05539809781580314,0.016130705687314426,0.005703119054779808,0.011089440201833712,0.051410500724505606,-0.04745936243112002, ,0.8537368774414062
0.011468892166734117,0.020711159762188226,-0.08300267817669968, ,0.011795769793060936,0.02055962065134401,-0.08325681711241828, ,0.0004409077946200241, ,0.005182902465907215,1.989099219869167e-05,-0.005124451034409896,-0.0020766880215702115,-0.011088098609087483,-0.000914944619978776, ,0.007288543889333616, ,0.011280893598027752, ,4.9559846293463305e-05, ,0.15734295957945016,-0.24172926169610137,0.09295306703,1.603289307882673,0.18568900318123358,-1.3024337371842396, ,0.056218567273975575,0.016130705687314426,0.005688861257142857,0.009015021100005283,0.04410955823577076,-0.012728713459606304, ,0.8678359985351562
0.011510084577884966,0.020711929909588915,-0.0830460098082669, ,0.011861761368025666,0.02055881504857839,-0.0833280906834826, ,0.0004761200957199679, ,0.005003101052165837,3.9243806117030756e-05,-0.0054372792318560775,-0.003267574286696349,0.0036990629069826664,0.011582179837365359, ,0.007388948887336742, ,0.004935595542236698, ,5.003527453271646e-05, ,0.1577908780861552,-0.24159797523723955,0.09300102976,1.6034989978261578,0.1860989126805299,-1.3025229546749073, ,0.05520473621784223,0.01656431167018167,0.005997293493975904,6.055611814090159e-06,0.060516040219530345,-0.013417391769841656, ,0.8829610347747803
0.011571707378438094,0.02071236086378663,-0.08311287679222079, ,0.011927618178706034,0.02055789383483839,-0.08339938982352692, ,0.00048230931764552045, ,0.004783040941125483,2.525720152058816e-05,-0.005165276975928715,0.014026232676706944,0.007198424202727202,-0.005590483676288363, ,0.007039758860129407, ,0.015765548212058684, ,5.064454735419137e-05, ,0.15847820131196116,-0.2413894614496355,0.09307491829,1.6037086877696423,0.1869187316791225,-1.3031097833569452, ,0.052662009743879454,0.01618849224811852,0.005701077852541161,0.01665878955376649,0.057204933651510435,-0.027772772508727974, ,0.8937890529632568
0.011673707953914838,0.020710367171629142,-0.08321373824173545, ,0.011993340206260862,0.02055685812111425,-0.08347071444151408, ,0.00043791160361703404, ,0.005213241252449239,-1.369408351990892e-05,-0.005279369151031731,-0.008894780481333955,-0.01413529633721523,-0.006546492730700758, ,0.0074195559514722625, ,0.016701009497956023, ,5.112301592115012e-05, ,0.1595593839143526,-0.24105738393604384,0.09318380665,1.6037086877696423,0.18773855067771517,-1.3032882183382806, ,0.05546285304410916,0.016945882421155495,0.005781782765880218,0.013699561475473963,0.03910950581969426,-0.005329881671497384, ,0.9052178859710693
0.011673707953914838,0.020710367171629142,-0.08321373824173545, ,0.012058927433275574,0.020555709015216708,-0.08354206444542904, ,0.0005292554096612489, ,0.005213241252449239,-1.369408351990892e-05,-0.005279369151031731,-0.008894780481333955,-0.01413529633721523,-0.006546492730700758, ,0.0074195559514722625, ,0.016701009497956023, ,5.1822863312596405e-05, ,0.1595593839143526,-0.24105738393604384,0.09318380665,1.6037086877696423,0.18773855067771517,-1.3032882183382806, ,0.05546285304410916,0.016945882421155495,0.005781782765880218,0.013699561475473963,0.03910950581969426,-0.005329881671497384, ,0.916795015335083
0.0117739865212906,0.02071265141300406,-0.08332919548236012, ,0.012124379843759402,0.02055444762178045,-0.0836134397422821, ,0.0004781199841952244, ,0.004801168790346653,0.0001266113455815737,-0.0056899087113768,-0.0014271984302426431,0.011972449813621033,0.0079513526601952, ,0.0074459595305125265, ,0.012057215430401596, ,5.237590792782934e-05, ,0.1606637347153667,-0.24070986095670374,0.09331343565000001,1.6041280676566114,0.18896827917560413,-1.3038825857708454, ,0.05240029903836045,0.016218926945559868,0.0062539503415783276,0.0048385752258360785,0.06494249802965002,-0.014178012276201957, ,0.927757978439331
0.011826306762443742,0.020712162547796144,-0.08338574145340655, ,0.012189697423142836,0.020553075042267364,-0.08368484023811075, ,0.0004968115233267287, ,0.005371721849706087,-1.36323189748987e-05,-0.0058282407998304355,-0.004484661718460308,-0.009035462515504572,-0.009861457251544187, ,0.007926157473299313, ,0.01008720808118811, ,5.296177322380835e-05, ,0.1612274942151851,-0.24052451536772235,0.09337565757,1.6043377576000957,0.18951482517466592,-1.3040832211652094, ,0.0565536004520088,0.01856719654832142,0.006402255434083603,0.017949393518796243,0.044399385375886814,-0.01127678878939478, ,0.9385049343109131
0.011876270572003663,0.020712912471267712,-0.08344363478344322, ,0.012254880158274917,0.02055159237497034,-0.08375626583798276, ,0.0005168245045935738, ,0.0052438880573957266,0.00023646245017581408,-0.0063184421431823545,-0.007451705274873855,0.005880009872258428,-0.006043494633949936, ,0.008214437751032233, ,0.009492229323555234, ,5.358250139739094e-05, ,0.16176036278350658,-0.24035461524448942,0.09343917578000001,1.6043377576000957,0.19006137117372765,-1.3042021778194328, ,0.0555602702332967,0.0170739369482675,0.0069406586143790855,0.017949393518796243,0.05880024296900698,-0.006902380652362507, ,0.9495639801025391
0.01193017330218844,0.020714823101558397,-0.08350852056543026, ,0.012319928037420727,0.020550000715016465,-0.08382771644599879, ,0.0005300577165868707, ,0.00541718371156573,0.0001419900594651376,-0.006571258472570425,0.0174286198290266,0.01534438551335692,-0.0020908380884533625, ,0.008517480757546127, ,0.023220829952313247, ,5.422032429179463e-05, ,0.1623395677490734,-0.24017699238838225,0.09351047173,1.6043377576000957,0.19074455367255488,-1.3045959098576339, ,0.05836220268048633,0.018858692678551427,0.007207607022624436,0.015836225385637434,0.0715881805491914,-0.033954023922093, ,0.9616348743438721
0.01198884056728396,0.020717277618860077,-0.08358221552792153, ,0.012384841050258718,0.020548301154371344,-0.08389919196529462, ,0.0005346433296292883, ,0.005581014280583138,0.0003861004331861134,-0.0075618202180510906,-0.016405637573422435,-0.0015172184789837896,0.006193174102034739, ,0.00940627019358394, ,0.01647564479402004, ,5.485383801335788e-05, ,0.16294194091326292,-0.2399762013336524,0.09359084171000001,1.6045474475435806,0.19129109967161662,-1.3047148665118573, ,0.05658732352920142,0.018574464975234056,0.008219200990712074,0.004274987524351569,0.055659805209238015,-0.001541587902096209, ,0.972836971282959
0.012041563402068732,0.02071942216973091,-0.08365141723801596, ,0.012449619187878128,0.020546494781841736,-0.08397069229804492, ,0.0005462142160097942, ,0.005588932986942389,0.00012678898792032619,-0.006935648949160326,0.009071082663525175,6.044953184630727e-05,0.005828410463788933, ,0.008908168932276675, ,0.009071283194006675, ,5.5499788193745065e-05, ,0.16348253221445866,-0.23979085574467102,0.09366602653000002,1.6045474475435806,0.1918376456706784,-1.3050788593865024, ,0.05807646362207514,0.01976196200717842,0.007563538233618236,0.004274987524351569,0.05845673933840211,-0.028221577627645576, ,0.9841408729553223
0.012098348539783439,0.020720300654884304,-0.08371605163677334, ,0.012514262442776224,0.020544582683079734,-0.08404221734546397, ,0.0005569966336015505, ,0.0055853586441009405,4.7982227182218556e-05,-0.006206574483435418,-0.01485979724396476,-0.0018102035635560263,-0.0019830424980159717, ,0.00834985630390069, ,0.014969649356723383, ,5.628801756039582e-05, ,0.1640926281115224,-0.2395977874228154,0.09373732248000001,1.6047571374870648,0.19252082816950558,-1.3053092339444223, ,0.059052234946154816,0.018810097434781126,0.006842272989690722,0.012750189363944038,0.055816357902667584,-0.0019682407973647467, ,0.992995023727417
0.012217326853780706,0.020720584429787487,-0.08385333277539544, ,0.012578770808855876,0.02054256594058601,-0.08411376700780963, ,0.0005997838160357678, ,0.005970995539008987,8.7180955252116e-05,-0.007156852334408669,-0.015070493273499658,-0.0005823668321793818,-0.0037246956622990013, ,0.009113584484327327, ,0.015081740611000758, ,5.716128503310953e-05, ,0.1653282653713983,-0.23917303711473306,0.09388769212,1.605176517374034,0.1936139201676291,-1.3054654685127285, ,0.061862413010737145,0.021088209235215725,0.007831274100294987,0.014977056244530782,0.05941066652798383,-0.0036381482512693047, ,1.0058789253234863
0.012217326853780706,0.020720584429787487,-0.08385333277539544, ,0.012643144281422727,0.020540445633713437,-0.08418534118438586, ,0.0005692100237829845, ,0.005970995539008987,8.7180955252116e-05,-0.007156852334408669,-0.015070493273499658,-0.0005823668321793818,-0.0037246956622990013, ,0.009320993701443785, ,0.015081740611000758, ,5.794780901382672e-05, ,0.1653282653713983,-0.23917303711473306,0.09388769212,1.605176517374034,0.1936139201676291,-1.3054654685127285, ,0.061862413010737145,0.021088209235215725,0.007831274100294987,0.014977056244530782,0.05941066652798383,-0.0036381482512693047, ,1.0148959159851074
0.012278209779675954,0.020721305861565783,-0.08392157361308275, ,0.01270738285718272,0.020538222838670916,-0.08425693977354477, ,0.0005746123783142773, ,0.0057166957838135244,-5.320625524148274e-05,-0.005995235618647253,0.009878826921187975,0.0062088165627759385,-0.002624225152502116, ,0.008284098726679014, ,0.011667931123545994, ,5.873229675354977e-05, ,0.1659615294670847,-0.23897224606000322,0.09396287694000001,1.605176517374034,0.1941604661666909,-1.305747782647233, ,0.06174166659627246,0.019426190697742228,0.0066592021404682285,0.014977056244530782,0.06596976133875312,-0.0269909274243504, ,1.0236639976501465
0.012337423024440585,0.020719733866525862,-0.08398609423791684, ,0.012771486534239308,0.020535898628526103,-0.08432856267268939, ,0.0005826586943355208, ,0.006158586291360139,-8.48027873357038e-05,-0.0072503823304770785,-0.0027099040723427108,0.012449629350287168,-0.0005696795746556792, ,0.00951332857410923, ,0.012741147162054533, ,5.95207990377251e-05, ,0.1665639026312742,-0.2387714550052734,0.09402898773000001,1.605176517374034,0.19484364866551807,-1.3060598359452935, ,0.06544616659204881,0.023270461392464633,0.007889455928677564,0.014977056244530782,0.07378526481025012,-0.019398625132149638, ,1.03261399269104
0.012398399126639878,0.020719645034109186,-0.08406096375146097, ,0.012835455312091036,0.020533474073210357,-0.08440020977827684, ,0.0005837513191706416, ,0.006158225112896375,8.268476718194614e-05,-0.007685739351215956,0.02875437096228903,0.019369734773614682,0.004700543824524612, ,0.00984891682809135, ,0.03466987810504953, ,6.0297581336645864e-05, ,0.167243503124206,-0.2385243275532982,0.09411583916,1.6053862073175185,0.19566346766411072,-1.3064833071470505, ,0.06522126567592494,0.022524790305832133,0.00841458611727417,0.010464381927918818,0.08389753387312436,-0.04973719926271147, ,1.0423059463500977
0.012428146160778785,0.0207205583244978,-0.0840974705445247, ,0.012899289191628681,0.020530950239520916,-0.08447188098582009, ,0.0006309597134192003, ,0.006483448514478788,0.0001381581954030899,-0.007672367969982481,0.031570076025477116,0.008797848145660965,0.0028146866226872605, ,0.010045865945435831, ,0.032773034733800215, ,6.116566460629535e-05, ,0.16756013517204918,-0.2384239320259333,0.09415602415,1.6053862073175185,0.19607337716340703,-1.3067358821179993, ,0.06812415043680602,0.02196180086981504,0.008450297888594166,0.010464381927918818,0.07596571246721834,-0.051958029789493355, ,1.0520939826965332
0.012530833789962751,0.020722473528782436,-0.08421683641091618, ,0.012962988175132514,0.020528328191124802,-0.0845435761898906, ,0.0005755073482762014, ,0.006803036873481496,3.317167836308506e-05,-0.008095301744651208,-0.03924545928592682,-0.03472359031008936,-0.006457348319589382, ,0.010574323685188911, ,0.05240165802548076, ,6.189600608499517e-05, ,0.16858725864432106,-0.2380841317794674,0.09428694944,1.6053862073175185,0.19675655966223426,-1.3068845779357785, ,0.06594645000588659,0.024189890787272697,0.00881018336283186,0.010464381927918818,0.02983673887285689,0.01695149511319596, ,1.0609190464019775
0.012601653492529959,0.020722760030723517,-0.08430104248314704, ,0.013026552266270147,0.020525608988563166,-0.08461529528412211, ,0.0005640587950484435, ,0.007119270341815699,0.0001351409550490803,-0.008332678627164086,0.018415013813500233,-0.01688634518280596,-0.003063981685595227, ,0.010960648082170385, ,0.024985222576801382, ,6.258851105372266e-05, ,0.1692977500687497,-0.237829281594618,0.09437898603000001,1.6055958972610032,0.197303105661296,-1.3069218558498612, ,0.07140477167680269,0.023855440311330012,0.009149231200459506,0.010864477385298088,0.05295358668153815,-0.04045743024148221, ,1.0696079730987549
0.012664275072114527,0.020724656966962178,-0.08438107524103132, ,0.013089981470093277,0.02052279368925376,-0.0846870381612114, ,0.0005617722213605342, ,0.0065294189280295425,0.00018532159661471925,-0.008700132854455218,0.036803891706872906,0.04411196758610289,0.011844312339060064, ,0.0108793367131022, ,0.057449038975797694, ,6.340156907154737e-05, ,0.16997735056168145,-0.2376053223412655,0.09446713375000002,1.6058055872044876,0.19839619765941952,-1.307568162859011, ,0.07013816818807891,0.024171406408168818,0.009532502405745064,0.009841078341247273,0.1144393988224489,-0.05964874987141348, ,1.0765659809112549
0.012664275072114527,0.020724656966962178,-0.08438107524103132, ,0.013153275793035582,0.020519883347495292,-0.0847588047129226, ,0.0006509481501825999, ,0.0065294189280295425,0.00018532159661471925,-0.008700132854455218,0.036803891706872906,0.04411196758610289,0.011844312339060064, ,0.0108793367131022, ,0.057449038975797694, ,6.439669529826002e-05, ,0.16997735056168145,-0.2376053223412655,0.09446713375000002,1.6058055872044876,0.19839619765941952,-1.307568162859011, ,0.07013816818807891,0.024171406408168818,0.009532502405745064,0.009841078341247273,0.1144393988224489,-0.05964874987141348, ,1.083590030670166
0.012704220026197295,0.02072489368161996,-0.08443208886563737, ,0.0132164352429095,0.020516879014470156,-0.08483059483008816, ,0.0006814994744560188, ,0.006722610252470734,-0.00010971937307451624,-0.008457509940314049,0.029603515317655833,0.030306184685169445,0.008084686183905055, ,0.010804397314888204, ,0.04236546832104802, ,6.544456952264036e-05, ,0.17039437813688957,-0.237450867683781,0.09452287422000001,1.6060152771479719,0.1989427436584813,-1.3078504769935155, ,0.07140477167680269,0.026814620389508555,0.009239449837587009,0.010210208829999168,0.10150831654499065,-0.05490230245780334, ,1.0913100242614746
0.012816277886885915,0.020725958440748964,-0.08456615923616197, ,0.013279459828904217,0.02051378173824911,-0.08490240840261298, ,0.0006104260532075616, ,0.008146408300654339,0.00032961436572870003,-0.010054401411683562,-0.06126235041559112,-0.058161269004622373,-0.02235632009289145, ,0.012944636015675724, ,0.0844737159589946, ,6.6327495630614e-05, ,0.17149100620502947,-0.23705700830719556,0.09466935499000001,1.6062249670914566,0.19962592615730848,-1.3078358153310137, ,0.07507669427094206,0.026663934127134248,0.010947636783505157,0.02290596784619541,0.01238687770286626,0.038747016470678755, ,1.0983860492706299
0.012816277886885915,0.020725958440748964,-0.08456615923616197, ,0.013342349561582388,0.020510592563793582,-0.08497424531947592, ,0.0006997629021813296, ,0.008146408300654339,0.00032961436572870003,-0.010054401411683562,-0.06126235041559112,-0.058161269004622373,-0.02235632009289145, ,0.012944636015675724, ,0.0844737159589946, ,6.73884710867358e-05, ,0.17149100620502947,-0.23705700830719556,0.09466935499000001,1.6062249670914566,0.19962592615730848,-1.3078358153310137, ,0.07507669427094206,0.026663934127134248,0.010947636783505157,0.02290596784619541,0.01238687770286626,0.038747016470678755, ,1.1049950122833252
0.01289251125719315,0.02072830750285382,-0.08466614566731201, ,0.013405104452877932,0.020507312532960214,-0.08504610546873251, ,0.0006752481111977422, ,0.007609751401385494,0.00017009102339782018,-0.009975799517811345,0.027826731387377457,0.02462530853042756,-0.004839700569290739, ,0.012548060542039717, ,0.03715821175902021, ,6.838443466134113e-05, ,0.17224011129382924,-0.2367867126565977,0.09477824335000001,1.6062249670914566,0.20030910865613571,-1.308147868629074, ,0.0779121030857724,0.02821794277682747,0.010902677289527722,0.02290596784619541,0.09931893656453393,-0.052364610770979834, ,1.1116139888763428
0.012974691058857124,0.020728453025654032,-0.08477040544424033, ,0.013467724516093143,0.020503942684503767,-0.08511798873751826, ,0.0006436622010056514, ,0.00812135486862274,9.79731856260694e-05,-0.010095722491296252,-0.0027005389896854913,0.007232868826721371,-0.00461344957123431, ,0.012957222552247414, ,0.007720569760110681, ,6.930181729109349e-05, ,0.17308961190999395,-0.2364778033416287,0.09489231687,1.6062249670914566,0.20140220065425923,-1.3086308181579427, ,0.08201982848614588,0.029379858067638008,0.011061674666666669,0.020207162205431065,0.08667735894997572,-0.02334100464230708, ,1.121048927307129
0.013053930622700273,0.020729724090975864,-0.0848700784299875, ,0.013530209765896094,0.020500484054080847,-0.08518989501205013, ,0.0006177988854968835, ,0.00832810029894139,-5.3733424099792064e-05,-0.010310003894519157,-0.0036353725889749526,-0.02003924053648697,0.0002770132065753042, ,0.013253539986550513, ,0.020366319712907813, ,7.015398659176628e-05, ,0.1738696079302906,-0.2361920622252824,0.09500120523000001,1.606434657034941,0.2020853831530864,-1.3088611927158624, ,0.08103923275702031,0.031308789692666046,0.011225378097251586,0.008144991583694458,0.06046925005856198,-0.02617041111473516, ,1.1293880939483643
0.013053930622700273,0.020729724090975864,-0.0848700784299875, ,0.013592560218318027,0.02049693767425391,-0.08526182417763, ,0.000705532485348169, ,0.00832810029894139,-5.3733424099792064e-05,-0.010310003894519157,-0.0036353725889749526,-0.02003924053648697,0.0002770132065753042, ,0.013253539986550513, ,0.020366319712907813, ,7.117685957848708e-05, ,0.1738696079302906,-0.2361920622252824,0.09500120523000001,1.606434657034941,0.2020853831530864,-1.3088611927158624, ,0.08103923275702031,0.031308789692666046,0.011225378097251586,0.008144991583694458,0.06046925005856198,-0.02617041111473516, ,1.1361050605773926
0.013141470182957233,0.020728598838827307,-0.08497057759708149, ,0.013654775890750512,0.020493304574493932,-0.08533377611864687, ,0.0006713861083971158, ,0.008373064719425446,-0.0002638033169069354,-0.008587883544420005,-0.026711191557254814,-0.032604249288493176,-0.007854157405671195, ,0.01199706417246395, ,0.04214884078313808, ,7.211701467019477e-05, ,0.17472683127932953,-0.2358754301774392,0.09511138988000001,1.6066443469784255,0.2026319291521482,-1.3088984706299454, ,0.08360964013962183,0.029181101340243164,0.009515419068100361,0.01497484381327984,0.04889341556441686,0.0002463095988715167, ,1.1435089111328125
0.013222430594417302,0.02072449578297236,-0.0850549813779715, ,0.01371685680194305,0.020489585781184656,-0.08540575071857934, ,0.0006501377653533497, ,0.008230305100469182,-0.0006418718014077554,-0.008784135257249767,0.006943251267596586,-0.0016015357492354945,-0.0033586101831126233, ,0.012054499312452172, ,0.007125559811120648, ,7.315158263750146e-05, ,0.17555316369687154,-0.2355665208624702,0.09520472276000001,1.6070637268653947,0.20331511165097538,-1.3092922026681464, ,0.08472941210577749,0.033867573718226546,0.009653825163636366,0.01612785241650341,0.08117930056173736,-0.03798072153542054, ,1.1480059623718262
0.013222430594417302,0.02072449578297236,-0.0850549813779715, ,0.01377880297200004,0.020485782317625732,-0.08547774785999843, ,0.0007384211802218866, ,0.008230305100469182,-0.0006418718014077554,-0.008784135257249767,0.006943251267596586,-0.0016015357492354945,-0.0033586101831126233, ,0.012054499312452172, ,0.007125559811120648, ,7.43575256414666e-05, ,0.17555316369687154,-0.2355665208624702,0.09520472276000001,1.6070637268653947,0.20331511165097538,-1.3092922026681464, ,0.08472941210577749,0.033867573718226546,0.009653825163636366,0.01612785241650341,0.08117930056173736,-0.03798072153542054, ,1.1525170803070068
0.013308770705694918,0.02071801298214293,-0.08514985129445189, ,0.013840614422378552,0.02048189520403679,-0.08554976742457009, ,0.0007060752475780137, ,0.009061113135205214,-0.0005408480786634402,-0.010046904749292774,-0.016578014617400667,-0.01607059959995474,-0.005221624929606138, ,0.013540184006672291, ,0.023088842279106896, ,7.548807370697387e-05, ,0.1764181097787847,-0.2352112751502559,0.09530842596000001,1.6070637268653947,0.20399829414980258,-1.3096042559662067, ,0.09055051675426601,0.0362894613990328,0.011008162764340015,0.01612785241650341,0.0725526595506359,-0.016780358071619685, ,1.1570870876312256
0.013308770705694918,0.02071801298214293,-0.08514985129445189, ,0.01390229117588533,0.020477925457560355,-0.08562180929305739, ,0.00079539482047782, ,0.009061113135205214,-0.0005408480786634402,-0.010046904749292774,-0.016578014617400667,-0.01607059959995474,-0.005221624929606138, ,0.013540184006672291, ,0.023088842279106896, ,7.678992961215341e-05, ,0.1764181097787847,-0.2352112751502559,0.09530842596000001,1.6070637268653947,0.20399829414980258,-1.3096042559662067, ,0.09055051675426601,0.0362894613990328,0.011008162764340015,0.01612785241650341,0.0725526595506359,-0.016780358071619685, ,1.1631748676300049
0.013339437437740914,0.020716756718413342,-0.08518401191194534, ,0.013963833256674081,0.020473874092265414,-0.08569387334532354, ,0.0008419149541564176, ,0.009468412568641409,-0.0004087342663510506,-0.010801655539201569,0.0002849311840479007,-0.01570823795070876,-0.005028713802034963, ,0.014369887357180642, ,0.015710817236868062, ,7.817490968243935e-05, ,0.17672701909375368,-0.2350954341571425,0.09534601837000001,1.6070637268653947,0.20427156714933348,-1.3096637342933186, ,0.09395736787967403,0.036953637678532235,0.011834183893016346,0.01612785241650341,0.07620054381228655,-0.03432271057932637, ,1.1679999828338623
0.013339437437740914,0.020716756718413342,-0.08518401191194534, ,0.014025240690243164,0.020469742119151816,-0.08576595946033454, ,0.0009327407262831358, ,0.009468412568641409,-0.0004087342663510506,-0.010801655539201569,0.0002849311840479007,-0.01570823795070876,-0.005028713802034963, ,0.014369887357180642, ,0.015710817236868062, ,7.973080328347794e-05, ,0.17672701909375368,-0.2350954341571425,0.09534601837000001,1.6070637268653947,0.20427156714933348,-1.3096637342933186, ,0.09395736787967403,0.036953637678532235,0.011834183893016346,0.01612785241650341,0.07620054381228655,-0.03432271057932637, ,1.173248052597046
0.01351140144783537,0.020721569972023905,-0.08541959733779105, ,0.014086513503432535,0.020465530546152765,-0.08583806751616098, ,0.000755928140948982, ,0.010498125255389481,0.0008776282969636506,-0.016228978643149716,0.013887784465797828,0.03671002021389666,0.008484620995761723, ,0.019348400789349164, ,0.03924914031780693, ,8.092135524831233e-05, ,0.1784028521274604,-0.23446217006145612,0.09560268379,1.6070637268653947,0.20618447814604965,-1.3106518337640845, ,0.10020796363090896,0.03734629734689916,0.01762036672566372,0.01612785241650341,0.13635488113187133,-0.04863662535052365, ,1.1778810024261475
0.01351140144783537,0.020721569972023905,-0.08541959733779105, ,0.014147651724421215,0.02046124037813892,-0.08591019738998164, ,0.0008445556956869663, ,0.010498125255389481,0.0008776282969636506,-0.016228978643149716,0.013887784465797828,0.03671002021389666,0.008484620995761723, ,0.019348400789349164, ,0.03924914031780693, ,8.227863752503268e-05, ,0.1784028521274604,-0.23446217006145612,0.09560268379,1.6070637268653947,0.20618447814604965,-1.3106518337640845, ,0.10020796363090896,0.03734629734689916,0.01762036672566372,0.01612785241650341,0.13635488113187133,-0.04863662535052365, ,1.1822819709777832
0.01351140144783537,0.020721569972023905,-0.08541959733779105, ,0.014208655382724705,0.020456872616921907,-0.08598234895808536, ,0.0009343003401800363, ,0.010498125255389481,0.0008776282969636506,-0.016228978643149716,0.013887784465797828,0.03671002021389666,0.008484620995761723, ,0.019348400789349164, ,0.03924914031780693, ,8.380288121835936e-05, ,0.1784028521274604,-0.23446217006145612,0.09560268379,1.6070637268653947,0.20618447814604965,-1.3106518337640845, ,0.10020796363090896,0.03734629734689916,0.01762036672566372,0.01612785241650341,0.13635488113187133,-0.04863662535052365, ,1.1868629455566406
0.013620467425317313,0.020730525324106668,-0.08558822067334435, ,0.014269524509192161,0.02045242826125771,-0.08605452209587347, ,0.0008461974303589106, ,0.011686534323118834,0.0009467655870785641,-0.018165056443618186,-0.032949152865268116,-0.022078293904867964,-0.004225275252367092, ,0.02162037754439421, ,0.03966227122193364, ,8.514132632274238e-05, ,0.17942225286685803,-0.23406831068487066,0.09578546068,1.6074831067523636,0.20741420664393861,-1.311164522456509, ,0.10348630486201829,0.041749644328407734,0.01959263409594096,0.016016903720367456,0.07984858537962981,-0.005774212259140689, ,1.191788911819458
0.013743489876643242,0.020738685499271815,-0.08577050465388035, ,0.01433025913600368,0.020447908306850084,-0.08612671667786301, ,0.0009346949223595103, ,0.01191446385247369,0.0006143573455559037,-0.01701622874666856,-0.031219384749052958,-0.036680200297376876,-0.011984895173028424, ,0.020664546700115645, ,0.048167267426312756, ,8.664311860115893e-05, ,0.18051115820212368,-0.23362811491103988,0.09598249676000001,1.6079024866393328,0.2080973891427658,-1.311149860794007, ,0.10662577703198964,0.04242152058939239,0.018436124444444448,0.020715440142252853,0.06692207213962417,-0.007236014670738561, ,1.197145938873291
0.013743489876643242,0.020738685499271815,-0.08577050465388035, ,0.014390859296667769,0.02044331374635463,-0.08619893257768843, ,0.000830591430429406, ,0.01191446385247369,0.0006143573455559037,-0.01701622874666856,-0.031219384749052958,-0.036680200297376876,-0.011984895173028424, ,0.020781817163060844, ,0.048167267426312756, ,8.792943013389296e-05, ,0.18051115820212368,-0.23362811491103988,0.09598249676000001,1.6079024866393328,0.2080973891427658,-1.311149860794007, ,0.10662577703198964,0.04242152058939239,0.018436124444444448,0.020715440142252853,0.06692207213962417,-0.007236014670738561, ,1.2019410133361816
0.013743489876643242,0.020738685499271815,-0.08577050465388035, ,0.014451325026018815,0.020438645569382116,-0.08627116966810562, ,0.0009174530040764737, ,0.01191446385247369,0.0006143573455559037,-0.01701622874666856,-0.031219384749052958,-0.036680200297376876,-0.011984895173028424, ,0.020781817163060844, ,0.048167267426312756, ,8.937503275340308e-05, ,0.18051115820212368,-0.23362811491103988,0.09598249676000001,1.6079024866393328,0.2080973891427658,-1.311149860794007, ,0.10662577703198964,0.04242152058939239,0.018436124444444448,0.020715440142252853,0.06692207213962417,-0.007236014670738561, ,1.2072949409484863
0.013810602744952178,0.02074152881331493,-0.0858660349418217, ,0.014511656360213702,0.020433904762501114,-0.08634342782099211, ,0.0009022265176733442, ,0.01191446385247369,0.0006143573455559037,-0.01701622874666856,-0.031219384749052958,-0.036680200297376876,-0.011984895173028424, ,0.020781817163060844, ,0.048167267426312756, ,9.077984139838664e-05, ,0.18112897683206164,-0.2333809874590647,0.09608619996000001,1.6081121765828172,0.20864393514182755,-1.3113504961883709, ,0.10820631876678537,0.043391377027192854,0.017408537180327872,0.05207941895640267,0.10830560279063656,-0.05354999594156308, ,1.2124650478363037
0.013810602744952178,0.02074152881331493,-0.0858660349418217, ,0.014571853336730027,0.020429092309243266,-0.08641570690735204, ,0.0009895748088187338, ,0.01151886311984,0.00033647765297972906,-0.015997442362326367,0.01943242067571356,0.009797909455949138,-0.033934554389162944, ,0.01971587144714935, ,0.021762742365949567, ,9.252169211044158e-05, ,0.18112897683206164,-0.2333809874590647,0.09608619996000001,1.6081121765828172,0.20864393514182755,-1.3113504961883709, ,0.10820631876678537,0.043391377027192854,0.017408537180327872,0.05207941895640267,0.10830560279063656,-0.05354999594156308, ,1.2151000499725342
0.01398024601587159,0.02073808941137346,-0.08608080281765335, ,0.014631915994362824,0.02042420919010543,-0.08648800679731704, ,0.0008300660426881592, ,0.01151886311984,0.00033647765297972906,-0.015997442362326367,0.01943242067571356,0.009797909455949138,-0.033934554389162944, ,0.01971587144714935, ,0.021762742365949567, ,9.39482769278066e-05, ,0.18276619620139725,-0.23271683243188138,0.09632082845,1.608321866526302,0.21028357313901283,-1.3121157598517441, ,0.11405882398854661,0.0451245561381221,0.014415214045248871,-0.011884976993051466,0.108215174903023,-0.05426443513790422, ,1.2176079750061035
0.01398024601587159,0.02073808941137346,-0.08608080281765335, ,0.014691844373222063,0.020419256382553673,-0.08656032736014972, ,0.0009154072914865, ,0.01155364040017576,-0.0006440033411972346,-0.013093944593981036,0.007219634281597716,-0.010901016398125279,0.026781834507964085, ,0.017474344961408192, ,0.013074971998752235, ,9.553410514124037e-05, ,0.18276619620139725,-0.23271683243188138,0.09632082845,1.608321866526302,0.21028357313901283,-1.3121157598517441, ,0.11405882398854661,0.0451245561381221,0.014415214045248871,-0.011884976993051466,0.108215174903023,-0.05426443513790422, ,1.219939947128296
0.01398024601587159,0.02073808941137346,-0.08608080281765335, ,0.01475163851472985,0.020414234861026937,-0.08663266846424576, ,0.0010022394169876803, ,0.01155364040017576,-0.0006440033411972346,-0.013093944593981036,0.007219634281597716,-0.010901016398125279,0.026781834507964085, ,0.017474344961408192, ,0.013074971998752235, ,9.728112886348785e-05, ,0.18276619620139725,-0.23271683243188138,0.09632082845,1.608321866526302,0.21028357313901283,-1.3121157598517441, ,0.11405882398854661,0.0451245561381221,0.014415214045248871,-0.011884976993051466,0.108215174903023,-0.05426443513790422, ,1.222264051437378
0.01398024601587159,0.02073808941137346,-0.08608080281765335, ,0.01481129846161793,0.02040914559694023,-0.08670502997713653, ,0.0010901888585338314, ,0.01155364040017576,-0.0006440033411972346,-0.013093944593981036,0.007219634281597716,-0.010901016398125279,0.026781834507964085, ,0.017474344961408192, ,0.013074971998752235, ,0.0005429378393545688, ,0.18276619620139725,-0.23271683243188138,0.09632082845,1.608321866526302,0.21028357313901283,-1.3121157598517441, ,0.11405882398854661,0.0451245561381221,0.014415214045248871,-0.011884976993051466,0.108215174903023,-0.05426443513790422, ,1.2245259284973145
0.01398024601587159,0.02073808941137346,-0.08608080281765335, ,0.014870824257925002,0.02040398955868921,-0.08677741176549184, ,0.0011789895432069066, ,0.01155364040017576,-0.0006440033411972346,-0.013093944593981036,0.007219634281597716,-0.010901016398125279,0.026781834507964085, ,0.017474344961408192, ,0.013074971998752235, ,0.0005495633779363639, ,0.18276619620139725,-0.23271683243188138,0.09632082845,1.608321866526302,0.21028357313901283,-1.3121157598517441, ,0.11405882398854661,0.0451245561381221,0.014415214045248871,-0.011884976993051466,0.108215174903023,-0.05426443513790422, ,1.226773977279663
0.01410006853170741,0.02073118860479288,-0.08621484191384865, ,0.01493021594899362,0.020398767711651666,-0.08684981369512193, ,0.0010967395076485257, ,0.01347782107193972,-0.0007960433592434373,-0.015524844520699648,0.032986858846204614,0.0029457815804261587,-0.003213546318671297, ,0.020574405052611263, ,0.03311811564393237, ,0.0005552043689643244, ,0.18394777433115359,-0.2322534684594279,0.09646860551000001,1.6081121765828172,0.21137666513713638,-1.3126803881207534, ,0.1327229951866724,0.05441338392114149,0.01707268115755627,0.02271803235214539,0.13303747885168998,-0.08320101699886653, ,1.2290370464324951
0.01410006853170741,0.02073118860479288,-0.08621484191384865, ,0.014989473581468071,0.020393481018193438,-0.08692223563098127, ,0.0011855351650732623, ,0.01347782107193972,-0.0007960433592434373,-0.015524844520699648,0.032986858846204614,0.0029457815804261587,-0.003213546318671297, ,0.020574405052611263, ,0.03311811564393237, ,0.0005616363158633951, ,0.18394777433115359,-0.2322534684594279,0.09646860551000001,1.6081121765828172,0.21137666513713638,-1.3126803881207534, ,0.1327229951866724,0.05441338392114149,0.01707268115755627,0.02271803235214539,0.13303747885168998,-0.08320101699886653, ,1.2312650680541992
0.01410006853170741,0.02073118860479288,-0.08621484191384865, ,0.015048597203291185,0.02038813043766994,-0.08699467743716909, ,0.00127496627025137, ,0.01347782107193972,-0.0007960433592434373,-0.015524844520699648,0.032986858846204614,0.0029457815804261587,-0.003213546318671297, ,0.020574405052611263, ,0.03311811564393237, ,0.0005688416689380212, ,0.18394777433115359,-0.2322534684594279,0.09646860551000001,1.6081121765828172,0.21137666513713638,-1.3126803881207534, ,0.1327229951866724,0.05441338392114149,0.01707268115755627,0.02271803235214539,0.13303747885168998,-0.08320101699886653, ,1.2335200309753418
0.01410006853170741,0.02073118860479288,-0.08621484191384865, ,0.015107586863702088,0.02038271692643134,-0.08706713897693391, ,0.0013648941291064338, ,0.01347782107193972,-0.0007960433592434373,-0.015524844520699648,0.032986858846204614,0.0029457815804261587,-0.003213546318671297, ,0.020574405052611263, ,0.03311811564393237, ,0.0005768021935397053, ,0.18394777433115359,-0.2322534684594279,0.09646860551000001,1.6081121765828172,0.21137666513713638,-1.3126803881207534, ,0.1327229951866724,0.05441338392114149,0.01707268115755627,0.02271803235214539,0.13303747885168998,-0.08320101699886653, ,1.2357618808746338
0.014242081235304911,0.020728026458070162,-0.0864063963742622, ,0.01516644261323303,0.02037724143782482,-0.0871396201126752, ,0.00123089850841003, ,0.015512533681252267,0.0006028992115235071,-0.02358566474055964,0.08556543788092,0.06141084327193785,0.02671660961887184, ,0.02823624921843055, ,0.10532202301753694, ,0.0005832783946770353, ,0.18532242078276556,-0.23166654076098683,0.0966773082,1.608321866526302,0.2131529396340871,-1.3138021059082448, ,0.14577103157983223,0.06013747880764941,0.025609021736334413,0.006753517032665593,0.20950827767856775,-0.14467422289151907, ,1.2379930019378662
0.014242081235304911,0.020728026458070162,-0.0864063963742622, ,0.01522516450370731,0.02037170492219921,-0.08721212070594558, ,0.0013200793340571657, ,0.015512533681252267,0.0006028992115235071,-0.02358566474055964,0.08556543788092,0.06141084327193785,0.02671660961887184, ,0.02823624921843055, ,0.10532202301753694, ,0.000590501933298409, ,0.18532242078276556,-0.23166654076098683,0.0966773082,1.608321866526302,0.2131529396340871,-1.3138021059082448, ,0.14577103157983223,0.06013747880764941,0.025609021736334413,0.006753517032665593,0.20950827767856775,-0.14467422289151907, ,1.2402260303497314
0.014242081235304911,0.020728026458070162,-0.0864063963742622, ,0.015283752588235784,0.020366108326907204,-0.08728464061745411, ,0.0014097435553607105, ,0.015512533681252267,0.0006028992115235071,-0.02358566474055964,0.08556543788092,0.06141084327193785,0.02671660961887184, ,0.02823624921843055, ,0.10532202301753694, ,0.0005984557354543538, ,0.18532242078276556,-0.23166654076098683,0.0966773082,1.608321866526302,0.2131529396340871,-1.3138021059082448, ,0.14577103157983223,0.06013747880764941,0.025609021736334413,0.006753517032665593,0.20950827767856775,-0.14467422289151907, ,1.2425220012664795
0.014242081235304911,0.020728026458070162,-0.0864063963742622, ,0.015342206921214801,0.020360452596310294,-0.08735717970706824, ,0.0014997919904405196, ,0.015512533681252267,0.0006028992115235071,-0.02358566474055964,0.08556543788092,0.06141084327193785,0.02671660961887184, ,0.02823624921843055, ,0.10532202301753694, ,0.0006071224302138361, ,0.18532242078276556,-0.23166654076098683,0.0966773082,1.608321866526302,0.2131529396340871,-1.3138021059082448, ,0.14577103157983223,0.06013747880764941,0.025609021736334413,0.006753517032665593,0.20950827767856775,-0.14467422289151907, ,1.2448699474334717
0.014396820162427184,0.02073989978698963,-0.0866560879870163, ,0.015400527558323327,0.020354738671781347,-0.08742973783381686, ,0.0013245043249078645, ,0.017570144052006402,0.0017470108987359882,-0.029024555197691572,0.044393086255509584,0.07638669420351711,-0.003498450506786362, ,0.03397332502879874, ,0.08834960418981765, ,0.0006139546387347317, ,0.1867511263644971,-0.23108733579542,0.09694823281,1.6087412464132707,0.21533912363033417,-1.3151763986666845, ,0.15842561195070248,0.06284565666123892,0.031479864664031625,0.043896953540490655,0.22974675822629068,-0.09946884392885452, ,1.2496750354766846
0.014396820162427184,0.02073989978698963,-0.0866560879870163, ,0.015458714556520177,0.02034896749170877,-0.08750231485589237, ,0.0014129924547949609, ,0.017570144052006402,0.0017470108987359882,-0.029024555197691572,0.044393086255509584,0.07638669420351711,-0.003498450506786362, ,0.03397332502879874, ,0.08834960418981765, ,0.0006214927313390735, ,0.1867511263644971,-0.23108733579542,0.09694823281,1.6087412464132707,0.21533912363033417,-1.3151763986666845, ,0.15842561195070248,0.06284565666123892,0.031479864664031625,0.043896953540490655,0.22974675822629068,-0.09946884392885452, ,1.2521488666534424
0.014396820162427184,0.02073989978698963,-0.0866560879870163, ,0.01551676797404126,0.020343139991499403,-0.08757491063065326, ,0.0015019775253034317, ,0.017570144052006402,0.0017470108987359882,-0.029024555197691572,0.044393086255509584,0.07638669420351711,-0.003498450506786362, ,0.03397332502879874, ,0.08834960418981765, ,0.0006297215611892077, ,0.1867511263644971,-0.23108733579542,0.09694823281,1.6087412464132707,0.21533912363033417,-1.3151763986666845, ,0.15842561195070248,0.06284565666123892,0.031479864664031625,0.043896953540490655,0.22974675822629068,-0.09946884392885452, ,1.2545158863067627
0.014396820162427184,0.02073989978698963,-0.0866560879870163, ,0.015574687870397121,0.020337257103582616,-0.08764752501462703, ,0.0015913644609884794, ,0.017570144052006402,0.0017470108987359882,-0.029024555197691572,0.044393086255509584,0.07638669420351711,-0.003498450506786362, ,0.03397332502879874, ,0.08834960418981765, ,0.000638625662113275, ,0.1867511263644971,-0.23108733579542,0.09694823281,1.6087412464132707,0.21533912363033417,-1.3151763986666845, ,0.15842561195070248,0.06284565666123892,0.031479864664031625,0.043896953540490655,0.22974675822629068,-0.09946884392885452, ,1.2572178840637207
0.01454958041617662,0.020757883689152774,-0.08692088706932022, ,0.015632474306370003,0.020331319757413785,-0.08772015786351273, ,0.0014118958062576377, ,0.01899481153644718,0.0025213012386822013,-0.03384657783858124,0.0931855910496357,0.0774929123541358,-0.03781082297720383, ,0.03889409539537417, ,0.12119678801387287, ,0.0006457198836191866, ,0.18810260461748637,-0.23053129902847583,0.0972347129,1.609580006187209,0.21738867112681573,-1.3161942373010063, ,0.16277348466290012,0.06749426853376299,0.036533971376146786,0.07638254728541642,0.22716673104014778,-0.14671811805960125, ,1.259566068649292
0.01454958041617662,0.020757883689152774,-0.08692088706932022, ,0.01569012734401122,0.020325328879477383,-0.08779280903218277, ,0.001499399502230257, ,0.01899481153644718,0.0025213012386822013,-0.03384657783858124,0.0931855910496357,0.0774929123541358,-0.03781082297720383, ,0.03889409539537417, ,0.12119678801387287, ,0.0006534806074247418, ,0.18810260461748637,-0.23053129902847583,0.0972347129,1.609580006187209,0.21738867112681573,-1.3161942373010063, ,0.16277348466290012,0.06749426853376299,0.036533971376146786,0.07638254728541642,0.22716673104014778,-0.14671811805960125, ,1.2618329524993896
0.01454958041617662,0.020757883689152774,-0.08692088706932022, ,0.015747647046638405,0.02031928539329093,-0.08786547837468625, ,0.0015874460149347045, ,0.01899481153644718,0.0025213012386822013,-0.03384657783858124,0.0931855910496357,0.0774929123541358,-0.03781082297720383, ,0.03889409539537417, ,0.12119678801387287, ,0.0006618947101951017, ,0.18810260461748637,-0.23053129902847583,0.0972347129,1.609580006187209,0.21738867112681573,-1.3161942373010063, ,0.16277348466290012,0.06749426853376299,0.036533971376146786,0.07638254728541642,0.22716673104014778,-0.14671811805960125, ,1.2642090320587158
0.01454958041617662,0.020757883689152774,-0.08692088706932022, ,0.015805033478833122,0.020313190219408642,-0.08793816574425081, ,0.001675938715178813, ,0.01899481153644718,0.0025213012386822013,-0.03384657783858124,0.0931855910496357,0.0774929123541358,-0.03781082297720383, ,0.03889409539537417, ,0.12119678801387287, ,0.0006709486745253134, ,0.18810260461748637,-0.23053129902847583,0.0972347129,1.609580006187209,0.21738867112681573,-1.3161942373010063, ,0.16277348466290012,0.06749426853376299,0.036533971376146786,0.07638254728541642,0.22716673104014778,-0.14671811805960125, ,1.2664010524749756
0.01480804179015727,0.020791613405783293,-0.08738613184061109, ,0.01586228670643757,0.02030704427542446,-0.08801087099328629, ,0.001317777900287035, ,0.021047691214097917,0.0021789310395011127,-0.03656840963734692,-0.010801851451959155,-0.00888160576764238,0.02194210130629338, ,0.042249279630825934, ,0.013982042874231297, ,0.0006766728269656826, ,0.1902186334250239,-0.22962001654931735,0.09773508084000002,1.6097896961306934,0.21971149162282821,-1.316863160561737, ,0.17191474920012823,0.07622244301885203,0.039330398814814815,0.0,0.16671781224696752,-0.06487252876598418, ,1.2686009407043457
0.01480804179015727,0.020791613405783293,-0.08738613184061109, ,0.015919406796552404,0.0203008484759761,-0.08808359397338582, ,0.001400869665751598, ,0.021047691214097917,0.0021789310395011127,-0.03656840963734692,-0.010801851451959155,-0.00888160576764238,0.02194210130629338, ,0.042249279630825934, ,0.013982042874231297, ,0.0006830254308146818, ,0.1902186334250239,-0.22962001654931735,0.09773508084000002,1.6097896961306934,0.21971149162282821,-1.316863160561737, ,0.17191474920012823,0.07622244301885203,0.039330398814814815,0.0,0.16671781224696752,-0.06487252876598418, ,1.2708079814910889
0.01480804179015727,0.020791613405783293,-0.08738613184061109, ,0.015976393817533775,0.02029460373274813,-0.08815633453532958, ,0.0014850175978475572, ,0.021047691214097917,0.0021789310395011127,-0.03656840963734692,-0.010801851451959155,-0.00888160576764238,0.02194210130629338, ,0.042249279630825934, ,0.013982042874231297, ,0.0006899992757454025, ,0.1902186334250239,-0.22962001654931735,0.09773508084000002,1.6097896961306934,0.21971149162282821,-1.316863160561737, ,0.17191474920012823,0.07622244301885203,0.039330398814814815,0.0,0.16671781224696752,-0.06487252876598418, ,1.2730679512023926
0.01480804179015727,0.020791613405783293,-0.08738613184061109, ,0.01603324783899077,0.02028831095447615,-0.08822909252908623, ,0.0015700401083744509, ,0.021047691214097917,0.0021789310395011127,-0.03656840963734692,-0.010801851451959155,-0.00888160576764238,0.02194210130629338, ,0.042249279630825934, ,0.013982042874231297, ,0.0006975858346473771, ,0.1902186334250239,-0.22962001654931735,0.09773508084000002,1.6097896961306934,0.21971149162282821,-1.316863160561737, ,0.17191474920012823,0.07622244301885203,0.039330398814814815,0.0,0.16671781224696752,-0.06487252876598418, ,1.2753360271453857
0.015018766414508541,0.020805864345437675,-0.0877415849046792, ,0.016089968931782512,0.02028197104694964,-0.08830186780381662, ,0.001317518860692547, ,0.021964552514144645,0.0008126436239903846,-0.03515579676968482,-0.0161121433488124,0.018771238927112747,0.02722726022880524, ,0.041461210827924595, ,0.02473675146134746, ,0.000702884407519558, ,0.19197941652034708,-0.22880912959752378,0.09811748639000001,1.609580006187209,0.22162440261954441,-1.3174428663318, ,0.18791473575934806,0.08730169416602647,0.03792574171428572,0.002409100732809205,0.21087532141644463,-0.07027451250117739, ,1.2783350944519043
0.015018766414508541,0.020805864345437675,-0.0877415849046792, ,0.016146557168015566,0.020275584913015763,-0.08837466020787504, ,0.0013978170837638778, ,0.021964552514144645,0.0008126436239903846,-0.03515579676968482,-0.0161121433488124,0.018771238927112747,0.02722726022880524, ,0.041461210827924595, ,0.02473675146134746, ,0.0007087736674877302, ,0.19197941652034708,-0.22880912959752378,0.09811748639000001,1.609580006187209,0.22162440261954441,-1.3174428663318, ,0.18791473575934806,0.08730169416602647,0.03792574171428572,0.002409100732809205,0.21087532141644463,-0.07027451250117739, ,1.280622959136963
0.015018766414508541,0.020805864345437675,-0.0877415849046792, ,0.016203012621041384,0.020269153452583087,-0.08844746958881348, ,0.0014794495082602688, ,0.021964552514144645,0.0008126436239903846,-0.03515579676968482,-0.0161121433488124,0.018771238927112747,0.02722726022880524, ,0.041461210827924595, ,0.02473675146134746, ,0.0007152499350572474, ,0.19197941652034708,-0.22880912959752378,0.09811748639000001,1.609580006187209,0.22162440261954441,-1.3174428663318, ,0.18791473575934806,0.08730169416602647,0.03792574171428572,0.002409100732809205,0.21087532141644463,-0.07027451250117739, ,1.2828600406646729
0.015018766414508541,0.020805864345437675,-0.0877415849046792, ,0.01625933536545325,0.020262677562625033,-0.08852029579338183, ,0.0015621952026729697, ,0.021964552514144645,0.0008126436239903846,-0.03515579676968482,-0.0161121433488124,0.018771238927112747,0.02722726022880524, ,0.041461210827924595, ,0.02473675146134746, ,0.0007223078122873784, ,0.19197941652034708,-0.22880912959752378,0.09811748639000001,1.609580006187209,0.22162440261954441,-1.3174428663318, ,0.18791473575934806,0.08730169416602647,0.03792574171428572,0.002409100732809205,0.21087532141644463,-0.07027451250117739, ,1.2850940227508545
0.015018766414508541,0.020805864345437675,-0.0877415849046792, ,0.01631552547708387,0.020256158137183233,-0.08859313866753288, ,0.0016458750842014017, ,0.021964552514144645,0.0008126436239903846,-0.03515579676968482,-0.0161121433488124,0.018771238927112747,0.02722726022880524, ,0.041461210827924595, ,0.02473675146134746, ,0.0007299405996585687, ,0.19197941652034708,-0.22880912959752378,0.09811748639000001,1.609580006187209,0.22162440261954441,-1.3174428663318, ,0.18791473575934806,0.08730169416602647,0.03792574171428572,0.002409100732809205,0.21087532141644463,-0.07027451250117739, ,1.2874140739440918
0.01524788062460661,0.020810551608917052,-0.08809312318881947, ,0.016371583033002488,0.02024959606737116,-0.08866599805642278, ,0.0013804216153615002, ,0.022894491557809142,-0.00028620060824037947,-0.03283297273409151,0.05861033604242862,0.04166280479310358,0.03102000910522116, ,0.04002803708697627, ,0.071909127649223, ,0.000735272411262691, ,0.1940027725333939,-0.22789784711836528,0.09849859565,1.609580006187209,0.22422049611508776,-1.3187430191006264, ,0.2054046354079454,0.09321899956627777,0.03571482403587444,0.003632616415603774,0.2508949953851961,-0.1508690832339945, ,1.2903320789337158
0.01524788062460661,0.020810551608917052,-0.08809312318881947, ,0.016427508111512206,0.020242992241377558,-0.08873887380441486, ,0.001459670682409863, ,0.022894491557809142,-0.00028620060824037947,-0.03283297273409151,0.05861033604242862,0.04166280479310358,0.03102000910522116, ,0.04002803708697627, ,0.071909127649223, ,0.000741161828101286, ,0.1940027725333939,-0.22789784711836528,0.09849859565,1.609580006187209,0.22422049611508776,-1.3187430191006264, ,0.2054046354079454,0.09321899956627777,0.03571482403587444,0.003632616415603774,0.2508949953851961,-0.1508690832339945, ,1.2927908897399902
0.01524788062460661,0.020810551608917052,-0.08809312318881947, ,0.016483300792147656,0.020236347544470776,-0.0888117657550819, ,0.0015402663523034006, ,0.022894491557809142,-0.00028620060824037947,-0.03283297273409151,0.05861033604242862,0.04166280479310358,0.03102000910522116, ,0.04002803708697627, ,0.071909127649223, ,0.0007476062194254966, ,0.1940027725333939,-0.22789784711836528,0.09849859565,1.609580006187209,0.22422049611508776,-1.3187430191006264, ,0.2054046354079454,0.09321899956627777,0.03571482403587444,0.003632616415603774,0.2508949953851961,-0.1508690832339945, ,1.2954320907592773
0.015283829722134655,0.020809695133617245,-0.08814438434100318, ,0.016538961155671376,0.02022966285900073,-0.08888467375120818, ,0.0015683815753541677, ,0.02296874326922545,-0.0006462415064546739,-0.03216554236097846,0.04770123880561243,0.038072999299897645,0.02928355199357047, ,0.03952977246112294, ,0.06103218026502848, ,0.000754172422272926, ,0.19432712731411134,-0.2277433924608808,0.09855433612000002,1.6097896961306934,0.2246304056143841,-1.3189139153314346, ,0.20719856235473968,0.09537381061152843,0.03500837696703297,0.004777641421529714,0.2489235447172324,-0.141795575028265, ,1.2984740734100342
0.015283829722134655,0.020809695133617245,-0.08814438434100318, ,0.016594489284072006,0.02022293906440398,-0.08895759763479219, ,0.0016502808952574067, ,0.02296874326922545,-0.0006462415064546739,-0.03216554236097846,0.04770123880561243,0.038072999299897645,0.02928355199357047, ,0.03952977246112294, ,0.06103218026502848, ,0.0007612843942807393, ,0.19432712731411134,-0.2277433924608808,0.09855433612000002,1.6097896961306934,0.2246304056143841,-1.3189139153314346, ,0.20719856235473968,0.09537381061152843,0.03500837696703297,0.004777641421529714,0.2489235447172324,-0.141795575028265, ,1.3007309436798096
0.015283829722134655,0.020809695133617245,-0.08814438434100318, ,0.016649885260561346,0.0202161770372066,-0.08903053724705022, ,0.0017331008158006202, ,0.02296874326922545,-0.0006462415064546739,-0.03216554236097846,0.04770123880561243,0.038072999299897645,0.02928355199357047, ,0.03952977246112294, ,0.06103218026502848, ,0.0007689364920879825, ,0.19432712731411134,-0.2277433924608808,0.09855433612000002,1.6097896961306934,0.2246304056143841,-1.3189139153314346, ,0.20719856235473968,0.09537381061152843,0.03500837696703297,0.004777641421529714,0.2489235447172324,-0.141795575028265, ,1.303027868270874
0.015283829722134655,0.020809695133617245,-0.08814438434100318, ,0.01670514916957131,0.020209377651027656,-0.08910349242841699, ,0.001816705362712106, ,0.02296874326922545,-0.0006462415064546739,-0.03216554236097846,0.04770123880561243,0.038072999299897645,0.02928355199357047, ,0.03952977246112294, ,0.06103218026502848, ,0.0007771221863897335, ,0.19432712731411134,-0.2277433924608808,0.09855433612000002,1.6097896961306934,0.2246304056143841,-1.3189139153314346, ,0.20719856235473968,0.09537381061152843,0.03500837696703297,0.004777641421529714,0.2489235447172324,-0.141795575028265, ,1.3054769039154053
0.015283829722134655,0.020809695133617245,-0.08814438434100318, ,0.016760281096751414,0.020202541776582424,-0.08917646301854947, ,0.001900981393178815, ,0.02296874326922545,-0.0006462415064546739,-0.03216554236097846,0.04770123880561243,0.038072999299897645,0.02928355199357047, ,0.03952977246112294, ,0.06103218026502848, ,0.0007858342732640675, ,0.19432712731411134,-0.2277433924608808,0.09855433612000002,1.6097896961306934,0.2246304056143841,-1.3189139153314346, ,0.20719856235473968,0.09537381061152843,0.03500837696703297,0.004777641421529714,0.2489235447172324,-0.141795575028265, ,1.307866096496582
0.015726266219169904,0.020775108197099816,-0.08866560884431487, ,0.01681528112896628,0.020195670281687273,-0.08924944885632946, ,0.0013647603933312378, ,0.023880413556086447,-0.0031862769479396058,-0.026059374198341225,-0.02853413003306778,-0.0006706822547606711,-0.04177778814001983, ,0.03548968154277889, ,0.028541800464773254, ,0.000790287551110738, ,0.19842017573745033,-0.22590538203681534,0.09912859259000001,1.6106284559046316,0.22859286410758187,-1.320429780995679, ,0.22381354141148768,0.10820631876678537,0.02875236736462094,0.06962215031160564,0.21225941322555528,-0.06529305029568214, ,1.3103020191192627
0.015726266219169904,0.020775108197099816,-0.08866560884431487, ,0.016870149354292634,0.020188764031261578,-0.08932244977986509, ,0.0014435054978229993, ,0.023880413556086447,-0.0031862769479396058,-0.026059374198341225,-0.02853413003306778,-0.0006706822547606711,-0.04177778814001983, ,0.03548968154277889, ,0.028541800464773254, ,0.0007952739476505263, ,0.19842017573745033,-0.22590538203681534,0.09912859259000001,1.6106284559046316,0.22859286410758187,-1.320429780995679, ,0.22381354141148768,0.10820631876678537,0.02875236736462094,0.06962215031160564,0.21225941322555528,-0.06529305029568214, ,1.3125278949737549
0.015726266219169904,0.020775108197099816,-0.08866560884431487, ,0.016924885862016646,0.020181823887332213,-0.08939546562649459, ,0.001523603046376646, ,0.023880413556086447,-0.0031862769479396058,-0.026059374198341225,-0.02853413003306778,-0.0006706822547606711,-0.04177778814001983, ,0.03548968154277889, ,0.028541800464773254, ,0.0008007915923378455, ,0.19842017573745033,-0.22590538203681534,0.09912859259000001,1.6106284559046316,0.22859286410758187,-1.320429780995679, ,0.22381354141148768,0.10820631876678537,0.02875236736462094,0.06962215031160564,0.21225941322555528,-0.06529305029568214, ,1.314742088317871
0.015726266219169904,0.020775108197099816,-0.08866560884431487, ,0.016979490742631366,0.020174850709036782,-0.08946849623278798, ,0.0016048392183487144, ,0.023880413556086447,-0.0031862769479396058,-0.026059374198341225,-0.02853413003306778,-0.0006706822547606711,-0.04177778814001983, ,0.03548968154277889, ,0.028541800464773254, ,0.0008068370632101075, ,0.19842017573745033,-0.22590538203681534,0.09912859259000001,1.6106284559046316,0.22859286410758187,-1.320429780995679, ,0.22381354141148768,0.10820631876678537,0.02875236736462094,0.06962215031160564,0.21225941322555528,-0.06529305029568214, ,1.3169589042663574
0.015979655343920252,0.020736995683730972,-0.08892975918734042, ,0.017033964087833708,0.02016784535262712,-0.0895415414345498, ,0.001345279355705928, ,0.02536919533342182,-0.003901004615929509,-0.02539940294883107,-0.046214798361211985,-0.08182534627661882,-0.03794703260253529, ,0.03611015894503793, ,0.09397438113560709, ,0.0008108552892735092, ,0.20076788653121458,-0.22476241757143012,0.09942025784000001,1.6106284559046316,0.23036913860453262,-1.321061426342327, ,0.23316201857118127,0.11351308798860141,0.02814277653710248,0.048099148409039644,0.14359990587020405,-0.056476167984064934, ,1.3191890716552734
0.015979655343920252,0.020736995683730972,-0.08892975918734042, ,0.017088305990522135,0.02016080867147313,-0.08961460106682215, ,0.001424817928437686, ,0.02536919533342182,-0.003901004615929509,-0.02539940294883107,-0.046214798361211985,-0.08182534627661882,-0.03794703260253529, ,0.03611015894503793, ,0.09397438113560709, ,0.0008154031606747253, ,0.20076788653121458,-0.22476241757143012,0.09942025784000001,1.6106284559046316,0.23036913860453262,-1.321061426342327, ,0.23316201857118127,0.11351308798860141,0.02814277653710248,0.048099148409039644,0.14359990587020405,-0.056476167984064934, ,1.3214330673217773
0.015979655343920252,0.020736995683730972,-0.08892975918734042, ,0.01714251654479374,0.020153741516066234,-0.0896876749638864, ,0.0015056121415997258, ,0.02536919533342182,-0.003901004615929509,-0.02539940294883107,-0.046214798361211985,-0.08182534627661882,-0.03794703260253529, ,0.03611015894503793, ,0.09397438113560709, ,0.0008204782267109386, ,0.20076788653121458,-0.22476241757143012,0.09942025784000001,1.6106284559046316,0.23036913860453262,-1.321061426342327, ,0.23316201857118127,0.11351308798860141,0.02814277653710248,0.048099148409039644,0.14359990587020405,-0.056476167984064934, ,1.3236589431762695
0.015979655343920252,0.020736995683730972,-0.08892975918734042, ,0.017196595845941288,0.020146644734022216,-0.0897607629592656, ,0.001587458880801367, ,0.02536919533342182,-0.003901004615929509,-0.02539940294883107,-0.046214798361211985,-0.08182534627661882,-0.03794703260253529, ,0.03611015894503793, ,0.09397438113560709, ,0.0008260766256459051, ,0.20076788653121458,-0.22476241757143012,0.09942025784000001,1.6106284559046316,0.23036913860453262,-1.321061426342327, ,0.23316201857118127,0.11351308798860141,0.02814277653710248,0.048099148409039644,0.14359990587020405,-0.056476167984064934, ,1.325955867767334
0.015979655343920252,0.020736995683730972,-0.08892975918734042, ,0.01725054399045101,0.020139519170085884,-0.08983386488572827, ,0.0016701925787452328, ,0.02536919533342182,-0.003901004615929509,-0.02539940294883107,-0.046214798361211985,-0.08182534627661882,-0.03794703260253529, ,0.03611015894503793, ,0.09397438113560709, ,0.0008321934079147408, ,0.20293025173599744,-0.22365806677041603,0.09968858987000001,1.6106284559046316,0.23187214010195245,-1.3217152721020036, ,0.2337363092573172,0.12166274558778303,0.03005436135849057,0.025796539744136104,0.17210412358973454,-0.07708144671419978, ,1.3340981006622314
0.01648863120554913,0.02065177230059053,-0.08947140569804675, ,0.017304361075999565,0.020132365666134043,-0.08990698057528987, ,0.001060624319515566, ,0.025503535882943098,-0.0040739720342663896,-0.027224448544276438,0.012658465220398667,-0.05494158790591813,-0.008048472864856307, ,0.03752596686573854, ,0.056380846641820415, ,0.0008338367957679842, ,0.2054092489886235,-0.22236837038042054,0.10001655124000002,1.6106284559046316,0.23392168759843407,-1.3229781469567472, ,0.23033238242347276,0.1178843994515165,0.03005436135849057,0.019859517411571128,0.17375358652300646,-0.12522291903177496, ,1.338533878326416
0.01648863120554913,0.02065177230059053,-0.08947140569804675, ,0.017358047201451204,0.02012518506117863,-0.0899801098592155, ,0.0011366433997662825, ,0.025503535882943098,-0.0040739720342663896,-0.027224448544276438,0.012658465220398667,-0.05494158790591813,-0.008048472864856307, ,0.03752596686573854, ,0.056380846641820415, ,0.0008359997000822577, ,0.2054092489886235,-0.22236837038042054,0.10001655124000002,1.6106284559046316,0.23392168759843407,-1.3229781469567472, ,0.23033238242347276,0.1178843994515165,0.03005436135849057,0.019859517411571128,0.17375358652300646,-0.12522291903177496, ,1.3408889770507812
0.01648863120554913,0.02065177230059053,-0.08947140569804675, ,0.01741160246685544,0.020117978191371125,-0.09005325256802235, ,0.001214643108215375, ,0.025503535882943098,-0.0040739720342663896,-0.027224448544276438,0.012658465220398667,-0.05494158790591813,-0.008048472864856307, ,0.03752596686573854, ,0.056380846641820415, ,0.0008386851143243365, ,0.2054092489886235,-0.22236837038042054,0.10001655124000002,1.6106284559046316,0.23392168759843407,-1.3229781469567472, ,0.23033238242347276,0.1178843994515165,0.03005436135849057,0.019859517411571128,0.17375358652300646,-0.12522291903177496, ,1.3434419631958008
0.01648863120554913,0.02065177230059053,-0.08947140569804675, ,0.0174650269734439,0.02011074589000522,-0.09012640853148282, ,0.0012942515150939262, ,0.025503535882943098,-0.0040739720342663896,-0.027224448544276438,0.012658465220398667,-0.05494158790591813,-0.008048472864856307, ,0.03752596686573854, ,0.056380846641820415, ,0.0008418933284142631, ,0.2054092489886235,-0.22236837038042054,0.10001655124000002,1.6106284559046316,0.23392168759843407,-1.3229781469567472, ,0.23033238242347276,0.1178843994515165,0.03005436135849057,0.019859517411571128,0.17375358652300646,-0.12522291903177496, ,1.3457610607147217
0.01648863120554913,0.02065177230059053,-0.08947140569804675, ,0.01751832082362805,0.020103488987521113,-0.090199577578626, ,0.0013751762027595634, ,0.025503535882943098,-0.0040739720342663896,-0.027224448544276438,0.012658465220398667,-0.05494158790591813,-0.008048472864856307, ,0.03752596686573854, ,0.056380846641820415, ,0.0008456225792838108, ,0.20649815432388915,-0.2218200563463506,0.10015395798000001,1.6106284559046316,0.23460487009726125,-1.323371878994948, ,0.2297746768970237,0.11615292724415029,0.027847572587412592,0.01762429263155706,0.13957460007817019,-0.0856731213941285, ,1.3487520217895508
0.016609635983010185,0.020632046175385183,-0.08959546920112871, ,0.01757148412099626,0.02009620831150875,-0.09027275953774141, ,0.0012926702042593435, ,0.025378393804837068,-0.0044351580484362696,-0.025069457451190234,-0.025387048152325665,-0.08870581920893732,-0.01212935683055055, ,0.03594733920507941, ,0.09226708336875719, ,0.0008487270766794742, ,0.20649815432388915,-0.2218200563463506,0.10015395798000001,1.6106284559046316,0.23460487009726125,-1.323371878994948, ,0.2297746768970237,0.11615292724415029,0.027847572587412592,0.01762429263155706,0.13957460007817019,-0.0856731213941285, ,1.3510620594024658
0.016609635983010185,0.020632046175385183,-0.08959546920112871, ,0.017624516970310703,0.02008890468671091,-0.0903459542363807, ,0.001374122950554484, ,0.025378393804837068,-0.0044351580484362696,-0.025069457451190234,-0.025387048152325665,-0.08870581920893732,-0.01212935683055055, ,0.03594733920507941, ,0.09226708336875719, ,0.0008523504964993018, ,0.20649815432388915,-0.2218200563463506,0.10015395798000001,1.6106284559046316,0.23460487009726125,-1.323371878994948, ,0.2297746768970237,0.11615292724415029,0.027847572587412592,0.01762429263155706,0.13957460007817019,-0.0856731213941285, ,1.3533859252929688
0.016609635983010185,0.020632046175385183,-0.08959546920112871, ,0.017677419477505528,0.02008157893502751,-0.09041916150136012, ,0.0014565866878714052, ,0.025378393804837068,-0.0044351580484362696,-0.025069457451190234,-0.025387048152325665,-0.08870581920893732,-0.01212935683055055, ,0.03594733920507941, ,0.09226708336875719, ,0.0008564891005497957, ,0.20649815432388915,-0.2218200563463506,0.10015395798000001,1.6106284559046316,0.23460487009726125,-1.323371878994948, ,0.2297746768970237,0.11615292724415029,0.027847572587412592,0.01762429263155706,0.13957460007817019,-0.0856731213941285, ,1.3556699752807617
0.016986606728886973,0.02053702923439602,-0.08990295327380422, ,0.017730191749683287,0.020074231875518597,-0.09049238115876354, ,0.0010557108079887155, ,0.025378393804837068,-0.0044351580484362696,-0.025069457451190234,-0.025387048152325665,-0.08870581920893732,-0.01212935683055055, ,0.03594733920507941, ,0.09226708336875719, ,0.0008578443502602646, ,0.20993477045291908,-0.21995115499078827,0.10049747483000002,1.610838145848116,0.23556132559561932,-1.3232533381792768, ,0.2297746768970237,0.13017413108157858,0.020931421182654404,0.0,0.012124293541761104,0.03743752124401325, ,1.3583309650421143
0.016986606728886973,0.02053702923439602,-0.08990295327380422, ,0.017782833895112638,0.02006686432440813,-0.09056561303394471, ,0.0011376074457074912, ,0.0253612859543555,-0.007341394354970958,-0.018687069964861896,-0.16481123872766495,-0.2184361720124742,-0.023371725682288833, ,0.03234652191821298, ,0.2736368092483381, ,0.0008597346414457187, ,0.20993477045291908,-0.21995115499078827,0.10049747483000002,1.610838145848116,0.23556132559561932,-1.3232533381792768, ,0.2297746768970237,0.13017413108157858,0.020931421182654404,0.0,0.012124293541761104,0.03743752124401325, ,1.3610398769378662
0.016986606728886973,0.02053702923439602,-0.08990295327380422, ,0.017835346023225493,0.020059477095087395,-0.09063885695152973, ,0.0012206427234872715, ,0.0253612859543555,-0.007341394354970958,-0.018687069964861896,-0.16481123872766495,-0.2184361720124742,-0.023371725682288833, ,0.03234652191821298, ,0.2736368092483381, ,0.0008621568433386151, ,0.20993477045291908,-0.21995115499078827,0.10049747483000002,1.610838145848116,0.23556132559561932,-1.3232533381792768, ,0.2297746768970237,0.13017413108157858,0.020931421182654404,0.0,0.012124293541761104,0.03743752124401325, ,1.3632769584655762
0.016986606728886973,0.02053702923439602,-0.08990295327380422, ,0.017887728244614536,0.020052070998118777,-0.09071211273541999, ,0.001304585570732171, ,0.0253612859543555,-0.007341394354970958,-0.018687069964861896,-0.16481123872766495,-0.2184361720124742,-0.023371725682288833, ,0.03234652191821298, ,0.2736368092483381, ,0.0008651063681879054, ,0.20993477045291908,-0.21995115499078827,0.10049747483000002,1.610838145848116,0.23556132559561932,-1.3232533381792768, ,0.2297746768970237,0.13017413108157858,0.020931421182654404,0.0,0.012124293541761104,0.03743752124401325, ,1.3654839992523193
0.017231494447888872,0.020471188088464744,-0.09011548092082376, ,0.01793998067103018,0.02004464684123895,-0.09078538020879355, ,0.001064262758903271, ,0.02413830485321544,-0.005909031182791855,-0.02359153205260937,0.02947833360677616,0.0035440947332665007,-0.006082370142948001, ,0.03426565037023616, ,0.029690494303909576, ,0.0008664252846827092, ,0.21222069938368954,-0.21866145860079278,0.1007346959,1.6112575257350852,0.2372009635928046,-1.3242636380630715, ,0.2248742690959023,0.12669818632639623,0.02619870315789474,0.026315088589235747,0.22640093165017966,-0.14937740002413355, ,1.3684370517730713
0.017231494447888872,0.020471188088464744,-0.09011548092082376, ,0.017992103415377922,0.02003720542936259,-0.09085865919410921, ,0.0011485560046030293, ,0.02413830485321544,-0.005909031182791855,-0.02359153205260937,0.02947833360677616,0.0035440947332665007,-0.006082370142948001, ,0.03426565037023616, ,0.029690494303909576, ,0.0008682814078400799, ,0.21222069938368954,-0.21866145860079278,0.1007346959,1.6112575257350852,0.2372009635928046,-1.3242636380630715, ,0.2248742690959023,0.12669818632639623,0.02619870315789474,0.026315088589235747,0.22640093165017966,-0.14937740002413355, ,1.370866060256958
0.017231494447888872,0.020471188088464744,-0.09011548092082376, ,0.01804409659171572,0.0200297475645859,-0.0909319495131082, ,0.001233617826744313, ,0.02413830485321544,-0.005909031182791855,-0.02359153205260937,0.02947833360677616,0.0035440947332665007,-0.006082370142948001, ,0.03426565037023616, ,0.029690494303909576, ,0.00087066922757148, ,0.21222069938368954,-0.21866145860079278,0.1007346959,1.6112575257350852,0.2372009635928046,-1.3242636380630715, ,0.2248742690959023,0.12669818632639623,0.02619870315789474,0.026315088589235747,0.22640093165017966,-0.14937740002413355, ,1.3732149600982666
0.017231494447888872,0.020471188088464744,-0.09011548092082376, ,0.018095960315251434,0.020022274046190485,-0.09100525098681646, ,0.0013192861037404158, ,0.02413830485321544,-0.005909031182791855,-0.02359153205260937,0.02947833360677616,0.0035440947332665007,-0.006082370142948001, ,0.03426565037023616, ,0.029690494303909576, ,0.0008735823241699795, ,0.21222069938368954,-0.21866145860079278,0.1007346959,1.6112575257350852,0.2372009635928046,-1.3242636380630715, ,0.2248742690959023,0.12669818632639623,0.02619870315789474,0.026315088589235747,0.22640093165017966,-0.14937740002413355, ,1.3755910396575928
0.017231494447888872,0.020471188088464744,-0.09011548092082376, ,0.01814769470233968,0.02001478567064597,-0.09107856343554752, ,0.0014054372997089463, ,0.02413830485321544,-0.005909031182791855,-0.02359153205260937,0.02947833360677616,0.0035440947332665007,-0.006082370142948001, ,0.03426565037023616, ,0.029690494303909576, ,0.0008770136465928115, ,0.21222069938368954,-0.21866145860079278,0.1007346959,1.6112575257350852,0.2372009635928046,-1.3242636380630715, ,0.2248742690959023,0.12669818632639623,0.02619870315789474,0.026315088589235747,0.22640093165017966,-0.14937740002413355, ,1.3782060146331787
0.017231494447888872,0.020471188088464744,-0.09011548092082376, ,0.018199299870479333,0.02000728323161448,-0.0911518866789051, ,0.0014919758535542455, ,0.02413830485321544,-0.005909031182791855,-0.02359153205260937,0.02947833360677616,0.0035440947332665007,-0.006082370142948001, ,0.03426565037023616, ,0.029690494303909576, ,0.0008809557120220515, ,0.21222069938368954,-0.21866145860079278,0.1007346959,1.6112575257350852,0.2372009635928046,-1.3242636380630715, ,0.2248742690959023,0.12669818632639623,0.02619870315789474,0.026315088589235747,0.22640093165017966,-0.14937740002413355, ,1.3805410861968994
0.017439469653753953,0.02042395093190399,-0.09033162036222259, ,0.018250775938311075,0.019999767519953863,-0.0912252205357857, ,0.0012793243234331029, ,0.02413830485321544,-0.005909031182791855,-0.02359153205260937,0.02947833360677616,0.0035440947332665007,-0.006082370142948001, ,0.03426565037023616, ,0.029690494303909576, ,0.0008834930917125677, ,0.21415910533511986,-0.21758027599840132,0.10097450955000001,1.6114672156785694,0.23952378408881708,-1.3259943849456297, ,0.22172182607119342,0.12292349942807097,0.028495190554561723,0.02049353189643049,0.26722732916086783,-0.19668990646261342, ,1.3841369152069092
0.017439469653753953,0.02042395093190399,-0.09033162036222259, ,0.018302123025614125,0.019992239323721173,-0.09129856482438065, ,0.0013658430896408482, ,0.024044475582224795,-0.005142106510356722,-0.02569546263369403,0.0790995752210984,0.04590009323548416,0.00736904861176761, ,0.035564516942419216, ,0.09145244752071417, ,0.0008865459398007214, ,0.21415910533511986,-0.21758027599840132,0.10097450955000001,1.6114672156785694,0.23952378408881708,-1.3259943849456297, ,0.22172182607119342,0.12292349942807097,0.028495190554561723,0.02049353189643049,0.26722732916086783,-0.19668990646261342, ,1.3863608837127686
0.017698609133777472,0.02037597536948283,-0.09061754896722565, ,0.01835334125330385,0.01998469942817584,-0.09137191936217869, ,0.0010727747682373816, ,0.024044475582224795,-0.005142106510356722,-0.02569546263369403,0.0790995752210984,0.04590009323548416,0.00736904861176761, ,0.035564516942419216, ,0.09145244752071417, ,0.0008877171902940338, ,0.21645275699876457,-0.21631374780702853,0.10129080431000001,1.6118865955655386,0.24170996808506415,-1.3273686777040696, ,0.20277124264630508,0.11488733844851184,0.030573534587332057,-0.03228965588527801,0.13085319588464164,-0.06766429733158703, ,1.3886029720306396
0.017698609133777472,0.02037597536948283,-0.09061754896722565, ,0.018404430743429106,0.019977148615784115,-0.09144528396596943, ,0.0011586164819570117, ,0.0241008712910371,-0.004125865058002291,-0.02784334111787307,-0.05212473306812205,-0.08116562145379999,0.03277100737054104, ,0.03705572026111787, ,0.0964615424360182, ,0.0008894103108669273, ,0.21645275699876457,-0.21631374780702853,0.10129080431000001,1.6118865955655386,0.24170996808506415,-1.3273686777040696, ,0.20277124264630508,0.11488733844851184,0.030573534587332057,-0.03228965588527801,0.13085319588464164,-0.06766429733158703, ,1.3910510540008545
0.017698609133777472,0.02037597536948283,-0.09061754896722565, ,0.018455391619169474,0.019969587666221922,-0.09151865845184447, ,0.0012449373473503627, ,0.0241008712910371,-0.004125865058002291,-0.02784334111787307,-0.05212473306812205,-0.08116562145379999,0.03277100737054104, ,0.03705572026111787, ,0.0964615424360182, ,0.0008916185533295575, ,0.21645275699876457,-0.21631374780702853,0.10129080431000001,1.6118865955655386,0.24170996808506415,-1.3273686777040696, ,0.20277124264630508,0.11488733844851184,0.030573534587332057,-0.03228965588527801,0.13085319588464164,-0.06766429733158703, ,1.3933730125427246
0.017698609133777472,0.02037597536948283,-0.09061754896722565, ,0.018506224004832216,0.019962017356378196,-0.0915920426352009, ,0.0013316309269036097, ,0.0241008712910371,-0.004125865058002291,-0.02784334111787307,-0.05212473306812205,-0.08116562145379999,0.03277100737054104, ,0.03705572026111787, ,0.0964615424360182, ,0.0008943346790923602, ,0.21645275699876457,-0.21631374780702853,0.10129080431000001,1.6118865955655386,0.24170996808506415,-1.3273686777040696, ,0.20277124264630508,0.11488733844851184,0.030573534587332057,-0.03228965588527801,0.13085319588464164,-0.06766429733158703, ,1.3957099914550781
