NicholasDascanio/dvrk_moveit_final/test/execution/third_experiment_notsharpbends/thirdexp_500vel4.0/thirdexp_500vel4.0_6.csv
Current Position (x),Current Position (y),Current Position (z), ,Planned Position (x),Planned Position (y),Planned Position (z), ,Position Error,,Cartesian linear Velocity(x),Cartesian linear Velocity(y),Cartesian linear Velocity(z),Cartesian Angular Velocity(x),Cartesian Angular Velocity(y),Cartesian Angular Velocity(z), ,Total Linear Velocity, ,Total Angular Velocity, ,MSE, ,Joint 1 Position,Joint 2 Position,Joint 3 Position,Joint 4 Position,Joint 5 Position,Joint 6 Position, ,Joint 1 Velocity,Joint 2 Velocity,Joint 3 Velocity,Joint 4 Velocity,Joint 5 Velocity,Joint 6 Velocity, ,Time Stamp
0.007158728407536286,0.02030081067126371,-0.07602995765873574, ,0.007418359513783872,0.020248142573825057,-0.07620419499909334, ,0.0003170818357995958, ,0.0005188746291654242,0.00026853918362334026,-0.0012416688372702187,0.25127261620878555,-0.00043902097944682056,-0.012038675072638245, ,0.0013722556887769215, ,0.2512729997349995, ,2.6423486316632985e-05, ,0.1123580405870924,-0.2594374881766982,0.08561606563,1.5946920201998076,0.15576560973260212,-1.2723973832050246, ,0.00492910836342227,0.0009017091184053612,0.0013109157420509814,0.0007951413301969374,0.0,-0.25236639385939963, ,0.02271103858947754
0.007188203714270547,0.02031209570964195,-0.07610112357651583, ,0.00754915797813603,0.02025596244714161,-0.07643598714955856, ,0.000495552758354293, ,0.0019252562661540504,0.0011715685439107684,-0.005986384920727609,0.3585153308460925,-0.009654013667321373,-0.01872265334871579, ,0.006396560713583631, ,0.3586452877480531, ,3.693793609790404e-05, ,0.11262061350481603,-0.25932936991645905,0.08568995416000001,1.5951114000867768,0.15562897323283667,-1.2787385857724327, ,0.016227247188520994,0.005635491152250072,0.006236809522317934,0.0021491941477822254,0.0,-0.36428413346758814, ,0.04533505439758301
0.007262285520705,0.020348735560568303,-0.07628111799884826, ,0.007679456265938183,0.020263659786314604,-0.0766667449982418, ,0.0005744366811969281, ,0.004057997175898659,0.0022332290270957456,-0.011183837661229396,0.0854843562872349,-0.1070533020068741,-0.02876617503351935, ,0.012105076530109072, ,0.13699629361939564, ,4.334597735471303e-05, ,0.11306080927864683,-0.25917491525897457,0.08587661992000001,1.5953210900302612,0.15344278923658963,-1.2817749449815832, ,0.026092092812337306,0.009850315266991795,0.01160146505462491,0.0017138347480056449,-0.08578295135288458,-0.09478875833990963, ,0.06731796264648438
0.007323330697655521,0.020384584999668054,-0.07647622357456413, ,0.007809255280562676,0.02027123539326347,-0.07689647154179981, ,0.000652364305822511, ,0.004259262643498265,0.0023975704178069157,-0.013346818632739088,0.3318385120654951,-0.029531465264345677,-0.017439685576659435, ,0.014213628311936188, ,0.3331499738960916, ,4.855799002793638e-05, ,0.11353189598397452,-0.2589664014713705,0.08607884116,1.5953210900302612,0.15316951623705874,-1.2855543674410779, ,0.035409306551668206,0.014993986657998228,0.013851140452173914,0.001672558041964597,2.3948420203959734e-05,-0.3468837326147478, ,0.09197616577148438
0.007459691507093756,0.02042065652529483,-0.07674265052865469, ,0.007938555925711565,0.02027869006814345,-0.07712516977137775, ,0.0006291157106826303, ,0.005714715150108943,0.000592181004066592,-0.008764247144338407,-0.15520921451186756,-0.0927767776981458,-0.02213812932113278, ,0.010479536039133885, ,0.18082430892369605, ,5.131829407415304e-05, ,0.11530812454504616,-0.2582559100469418,0.08645087639000001,1.595950159860715,0.15152987823987346,-1.2868310722812188, ,0.06424979117025781,0.024816145805039432,0.009838672958616432,0.01385895588342766,0.023677705989276807,0.15260899848561432, ,0.11423707008361816
0.007645131477598387,0.020426351441543044,-0.07703095848693872, ,0.008067359105420082,0.02028602460934371,-0.07735284267262742, ,0.0005491604670107906, ,0.005701248836136316,-0.0003264060661295227,-0.007553216764216341,0.024588433036388174,0.00868973154474644,0.004771153682141334, ,0.009468994809312688, ,0.026078773915203517, ,5.18985767559153e-05, ,0.1169298984486333,-0.2575917550197585,0.08665439392,1.595950159860715,0.15385269873588595,-1.285539705778576, ,0.07092447052202598,0.03002117733580221,0.007827425808353808,0.010249983226223927,0.07882249758469582,-0.05366651092855304, ,0.14119911193847656
0.007775723191179602,0.02042285594469568,-0.0771986248493276, ,0.008195665724059793,0.020293239813486765,-0.07757949322572621, ,0.0005815606524962915, ,0.007138690169512232,-7.890597401136423e-05,-0.00891117850048618,0.013870702174897031,-0.06809799457550039,-0.016951020974771292, ,0.011418240922162766, ,0.06949628182742883, ,5.2767672380042226e-05, ,0.1184126631604844,-0.25696621365694633,0.08682809678,1.5965792296911685,0.1543992447349477,-1.2855769836926587, ,0.07855707082654866,0.03156917550181995,0.009255555793143523,0.013801459211224441,0.006536733186893128,-0.043705883148731896, ,0.16340112686157227
0.007926039489447758,0.020427009522141375,-0.07740515925185418, ,0.00832347668634157,0.020300336475426877,-0.07780512440539353, ,0.0005779052779517594, ,0.007310588075265879,0.000298118573163687,-0.010523931547596047,0.03434487366099111,-0.04664081035093513,-0.009134774990285508, ,0.01281743764987262, ,0.05792180425273448, ,5.338021572335121e-05, ,0.1200807734613169,-0.25631750409551146,0.08704328092000001,1.5965792296911685,0.15494579073400946,-1.2870028001891312, ,0.08069467819597856,0.03203813016828858,0.01096270579490709,0.011349609931521802,0.03126593585946356,-0.06503577756957432, ,0.18648314476013184
0.008081991256270776,0.02043322611126976,-0.07762144433421257, ,0.00845079289731826,0.020307315388249376,-0.07802973918090773, ,0.0005644225743613192, ,0.007249200481392543,0.00033679201407079784,-0.010513707975206895,-0.02438816517757047,-0.06297224442332675,-0.0016403901722358265, ,0.012775069153162844, ,0.06752988997456034, ,5.371304634430563e-05, ,0.12176432922789784,-0.2556610718012024,0.08726883538,1.596788919634653,0.15521906373354036,-1.287634029697227, ,0.07753018101182253,0.03116484123430896,0.010947636783505157,0.0013923358625339479,0.014592887408656297,-0.006458540126009999, ,0.21261096000671387
0.008273413264884597,0.02043928301350943,-0.0778971559669555, ,0.008577615262386956,0.020314177343270717,-0.07825334051612166, ,0.00048482751270426865, ,0.0063596540953830315,-0.00017777555330880911,-0.00850373354326101,-0.02202554753104014,-0.050647112485895485,-0.006628616775320391, ,0.01062027723437853, ,0.05522911100799102, ,5.3727007686934526e-05, ,0.12390352623405804,-0.2548038484521635,0.08755661176000001,1.5972082995216221,0.1564487922314293,-1.288391754610073, ,0.0691164905742686,0.03072092637049879,0.00881018336283186,0.0071884091248067125,0.017107748562817843,-0.007689772884223116, ,0.23219895362854004
0.008338302413108286,0.020437944548164607,-0.07798721869064885, ,0.008703944687291248,0.02032092313003661,-0.07847593136947772, ,0.0006214727406881708, ,0.0061719194078085045,-1.2424582626234979e-05,-0.008603780696790369,-0.007491149990014324,-0.051085181634157165,-0.00710521790866602, ,0.01058856863911262, ,0.051631512311974014, ,5.498091379153235e-05, ,0.12492292697345567,-0.2543482072125842,0.08769401850000001,1.5974179894651064,0.15713197473025653,-1.2888671653884145, ,0.06416290842357726,0.02737938302321719,0.009107382229845628,0.003809547729142805,0.07523798172706017,-0.07090544030835956, ,0.25603508949279785
0.008545939452944518,0.020454169864907206,-0.07834802817569936, ,0.008829782078123145,0.020327553536322974,-0.078697514694022, ,0.00046769558157174114, ,0.005738030066857004,0.000598734174200982,-0.010248596947111097,-0.0034210237186026787,-0.03737123149603329,-0.015918747839685353, ,0.011760833773327723, ,0.03752748637665392, ,5.475290839193529e-05, ,0.12681499652764067,-0.2534909838635453,0.08802457245,1.597627679408591,0.1580884302286146,-1.2894837332340083, ,0.056218567273975575,0.028176051531612463,0.011459576633093526,0.01639657130719243,0.0,-0.004858031002402813, ,0.27619409561157227
0.00859807191606057,0.02046205164239388,-0.0784632853391839, ,0.008955128341324718,0.020334069348135066,-0.07891809343741871, ,0.0005922154715018231, ,0.004954381249056156,0.0008277891831184562,-0.01115702786838499,0.05360899584913937,0.03275640793484354,0.001598773236665915, ,0.012235620104784493, ,0.06282441025483475, ,5.552977789173533e-05, ,0.1273633105617106,-0.2532129654800732,0.08814383113,1.597627679408591,0.1587716127274418,-1.28995914401235, ,0.05394936984563433,0.026374914274171976,0.011576171162790699,0.014368537716364994,0.08474209455988525,-0.07849441023055737, ,0.2986280918121338
0.008723831905053662,0.020479527518517414,-0.07871837129311174, ,0.0090799843836896,0.020340471349707318,-0.07913767054196244, ,0.0005674443287313985, ,0.00546256171396875,0.0007236955484623461,-0.010628603191986516,-0.019178754029859513,-0.04655111704758251,-0.02104479132515019, ,0.011972072566539486, ,0.05034710487086331, ,5.602376568520818e-05, ,0.12863756148595765,-0.25258742411726104,0.08840827429,1.5982567492390447,0.15972806822579988,-1.2908207480783653, ,0.05118497387188284,0.025878631458541256,0.01099296861283644,0.018314198564383204,0.0,-0.004213786908253669, ,0.31912899017333984
0.008839185929260484,0.020491164137246342,-0.0789502041572285, ,0.009204351112364352,0.020346760323503653,-0.07935624894459184, ,0.00056486320620098, ,0.004769908820600805,0.0005204838225646893,-0.01024761585645668,0.027049432550578588,0.013198326385241767,-0.007625513013818925, ,0.011315324312979248, ,0.030097632924706377, ,5.643917195256507e-05, ,0.12982686234858823,-0.2519773282201973,0.08864808794000001,1.598466439182529,0.1608211602239234,-1.2917120913079367, ,0.049554538672830696,0.026898226065326186,0.010583927920265782,0.018069086984516987,0.0594495448720546,-0.05177563481128258, ,0.3417789936065674
0.008984236564646338,0.020500167718611358,-0.07921460190504302, ,0.009328229434849443,0.020352937050217214,-0.07957383157690154, ,0.0005187040790373002, ,0.005498399453417346,0.0002819341374461605,-0.010274307238975907,-0.00946096090080804,-0.01697397000757717,-0.011933509722158907, ,0.011656469132978065, ,0.01943258409208658, ,5.650853667168904e-05, ,0.1312941815946909,-0.2512359458642717,0.08892160513000001,1.598466439182529,0.16164097922251605,-1.2921355625096935, ,0.05546285304410916,0.029785606264428992,0.01060506758988016,0.01691296466745313,0.03515534125378599,-0.0181140616423952, ,0.3625631332397461
0.009034168921763263,0.02050365795684459,-0.07931465504592074, ,0.009451620259000322,0.02035900230877091,-0.07979042136515391, ,0.0006492645577861956, ,0.00512709803650965,0.0005010866761912891,-0.010726563777264482,0.06801916739955928,0.04760142798648335,0.0048577738361395935, ,0.01189947026555216, ,0.08302109935478333, ,5.7366388670109734e-05, ,0.13184249562876083,-0.25095792748079965,0.08902530833000001,1.598466439182529,0.16246079822110868,-1.292640712451591, ,0.05765306291523134,0.0285061404501264,0.011146824016794963,0.014770843595609564,0.10356576564485619,-0.09499497407175429, ,0.38385701179504395
0.009229929340017555,0.020514626236232434,-0.07965936569566578, ,0.009574524493028055,0.02036495687631732,-0.0800060212302899, ,0.0005111915457646546, ,0.0058275388711101096,0.00023830427449748076,-0.010344696242004474,0.023156547922733087,0.005147060136940853,0.006229811330117839, ,0.011875594240326862, ,0.023721674082713612, ,5.733687449515984e-05, ,0.13383496071031076,-0.24997714040577315,0.08938308437,1.5990955090129826,0.16369052671899764,-1.2930717224038748, ,0.06239115158347849,0.03020271851001616,0.0107554432950709,0.005116524513437833,0.06770287196512835,-0.05279434692419014, ,0.4045071601867676
0.009279808686250895,0.02051810715353659,-0.07975487234787482, ,0.00969694304550007,0.020370801528239477,-0.08022063408794126, ,0.0006423659544372806, ,0.005392371096292867,0.0003523881274432187,-0.010285731590795539,0.07630808253900857,0.06807732049581086,0.021637027491918724, ,0.011618869040934534, ,0.10226164927059814, ,5.8351631171822826e-05, ,0.13441416567587758,-0.24971456748804952,0.08948289870000001,1.5990955090129826,0.16478361871712116,-1.2938813868933057, ,0.06438055736666945,0.028643809706752423,0.010769987505070995,0.004670937830962364,0.1341007456729237,-0.10483015801798432, ,0.42383408546447754
0.009405306440208894,0.020528049174661424,-0.0799808476838791, ,0.009818876825340387,0.020376537038150948,-0.0804342628484397, ,0.0006321247522612103, ,0.0061446813772175965,0.0005543296712836572,-0.010756596773115966,-0.016572140293226793,-0.0319956529644109,0.0019470669092781449, ,0.012400353412358818, ,0.03603272815807102, ,5.922629626646106e-05, ,0.13573475299736998,-0.24911219432386,0.08971882348000002,1.5993051989564673,0.16614998371477557,-1.2947505297098483, ,0.06079240330459371,0.027466553273074033,0.011225378097251586,0.0012992391979602458,0.029246988834988316,-0.010627246354811876, ,0.44168806076049805
0.009535220118615005,0.020535907786691864,-0.08020743123760121, ,0.009940326741830194,0.02038216417789667,-0.08064691041682853, ,0.0006171632056372939, ,0.006002041303106042,0.0006820609527747651,-0.012348648034025881,0.054673807315541306,0.05202075421790749,0.006300115670692307, ,0.013746956580121367, ,0.07546776655390466, ,5.995397563450983e-05, ,0.13703989485311394,-0.24848665296104783,0.08995474826000001,1.5995148888999517,0.16696980271336823,-1.2950923221714645, ,0.06562720716353443,0.030951383417635606,0.012897823093117412,0.01619179351879767,0.1161541061784004,-0.08383793229639552, ,0.46010398864746094
0.009703611132912722,0.02055687014998468,-0.08052282782299515, ,0.010061293704607748,0.020387683717553284,-0.08085857969287134, ,0.0005189317769597379, ,0.007166009465224873,0.0011082843680071549,-0.013385509027583746,-0.038549704187628105,-0.04033526937620829,-0.009365913405409858, ,0.015223397709564953, ,0.05579438339919092, ,6.0145682814430114e-05, ,0.13876206428406598,-0.24774527060512228,0.09028530221000002,1.5995148888999517,0.16874607721031895,-1.2962957186990964, ,0.06744629819365372,0.0289231763360167,0.014021841126760566,0.012392148932773054,0.025002751866735663,0.011436497353844907, ,0.4791250228881836
0.009778073663736522,0.020563544579121965,-0.08065179700461109, ,0.010181778623668675,0.02039309642543013,-0.08106927357106253, ,0.0006052412339777095, ,0.007247353044030421,0.00022836790634656967,-0.011453775471054866,-0.005978162671469676,-0.05091239213437922,-0.013033048848196845, ,0.013556004226423222, ,0.05126216835684594, ,6.0728198173407906e-05, ,0.13948027844136887,-0.24741319309153062,0.09042011637000001,1.599934268786921,0.16901935020984984,-1.2961101608057863, ,0.07060784342148123,0.03341441604171506,0.011949596039009755,0.01223059200926337,0.016879815697431577,-0.02556551345376742, ,0.49678993225097656
0.00996797736563871,0.020568290051187838,-0.08095785759978281, ,0.010301782409365526,0.020398403068069237,-0.0812789949406358, ,0.0004933726643630833, ,0.006413211689453434,-1.3431932056817917e-05,-0.008850819526430711,-0.048816270105495496,-0.020052002180962772,-0.012510175755121285, ,0.010930071860696439, ,0.052774150530002124, ,6.076234785203152e-05, ,0.1415345253859126,-0.24650191061237212,0.09074159629,1.6003536486738899,0.17147880720562775,-1.297380574411057, ,0.06735056178741716,0.028420767163363513,0.009336935240328255,0.02085350017691169,0.043867060119167155,0.023320567897258053, ,0.519644021987915
0.010038002250793975,0.02056421838756034,-0.08105065766723166, ,0.010421305972408024,0.020403604410247127,-0.08148774668557426, ,0.0006031296731775464, ,0.006633013178347493,-0.0004926032761230321,-0.008513610471823191,-0.04009972410183192,-0.03987376623373887,-0.01843276748441201, ,0.010803753286599809, ,0.05655002265232956, ,6.12733997750066e-05, ,0.1422681850089639,-0.24616211036590624,0.09083881804,1.6003536486738899,0.17188871670492406,-1.2973064344214436, ,0.0682711809773171,0.0329388898155053,0.00889877738547486,0.02085350017691169,0.024192879541263333,0.010239578106390243, ,0.537222146987915
0.01015392248284446,0.020561782341905147,-0.08123244016796519, ,0.010540350223862347,0.02040870121497479,-0.08169553168461814, ,0.0006222652033067496, ,0.00604426571792384,0.00023926883715349317,-0.010459539864367678,0.03342619623491747,0.0404505418148908,0.0025768188899137076, ,0.01208273031312041, ,0.05247434423282851, ,6.183069093579436e-05, ,0.14353471320033673,-0.24556745993459095,0.09102937267000001,1.6003536486738899,0.17352835470210937,-1.2979900193446758, ,0.06626881393747959,0.02991706858715977,0.011000560441988952,0.01753945665199154,0.10480295107421482,-0.06121653789146268, ,0.5573811531066895
0.010288858138070284,0.02056700134590984,-0.08146285515415125, ,0.010658916075150906,0.020413694243499054,-0.08190235281127425, ,0.0005946462268126889, ,0.006911002448911062,0.0005062345670296508,-0.012706157509567497,-0.0316966290078043,-0.030797907911081494,-0.0019852093381266664, ,0.014472894214484153, ,0.04419487629773891, ,6.223885705549368e-05, ,0.14489391418620026,-0.2449110276402819,0.09127048261000001,1.600773028560859,0.17475808319999833,-1.2984210292969596, ,0.06459968792271667,0.03299615492297315,0.013240907331670824,0.00560120739097143,0.033451778950094435,-0.0003478662405326481, ,0.5753381252288818
0.01040747676919979,0.020580806491016797,-0.08169569578781699, ,0.010777004438051786,0.02041858425530336,-0.08210821293382362, ,0.0005770937077776083, ,0.006525918842476459,0.0007970359864108921,-0.013017910520181227,0.009254027472517697,0.015910222694219246,0.005489622034621161, ,0.014583856740028281, ,0.01840575553417985, ,6.28000543110062e-05, ,0.1460446013844597,-0.2443549908733377,0.09151418513000001,1.601192408447828,0.1759878116978873,-1.2990970754696651, ,0.06407626033657716,0.030435196138059905,0.013637681095890414,0.008634210099124856,0.07978965575281116,-0.03857808184615038, ,0.5921511650085449
0.010484499310412787,0.020589313062903205,-0.0818533276759855, ,0.010894616224697954,0.02042337200810824,-0.08231311491533014, ,0.0006380725840477888, ,0.00618479375947804,0.00047212810636412827,-0.01258799506297709,0.01701865016527531,-0.002775679861991609,0.04434662649082402, ,0.01403325331138981, ,0.01724350707004302, ,6.356635625645308e-05, ,0.14679370647325948,-0.2439688542296265,0.09167881396000001,1.601611788334797,0.1769442671962454,-1.2996319645751186, ,0.059052234946154816,0.03182325337306196,0.013088587937551356,-0.03606074563591238,0.06627418331765023,-0.053971416719558775, ,0.6076390743255615
0.010612271926247868,0.020598490173212556,-0.08209441232080492, ,0.011011752347576962,0.02042805825787353,-0.08251706161364804, ,0.0006060231592374916, ,0.0063631357544976005,0.0004935279774796239,-0.012381977403620762,0.0025504136912548143,0.002140229338882072,0.00014892306614983628, ,0.013930054950304253, ,0.0033293994325290692, ,6.417183996112346e-05, ,0.1479984528016385,-0.24335103559968851,0.09193029422000001,1.6014020983913126,0.17790072269460347,-1.3002485324207123, ,0.06067579383533937,0.03173810754463906,0.012918744136253043,0.009532270531444958,0.06193058034542897,-0.032922215475441996, ,0.6230039596557617
0.010666872453194745,0.020601900814989756,-0.08220262254582399, ,0.011128413719529565,0.0204326437587981,-0.08272005588143017, ,0.000713726522133759, ,0.006725203833665949,0.0006581280225156918,-0.013525010400173062,-0.0018670667617112515,-0.002133634899529149,0.001470454605114648, ,0.015119107295841414, ,0.0028351161536704713, ,6.514079103220732e-05, ,0.14924953552726286,-0.24270232603825367,0.09219862625000001,1.6014020983913126,0.17926708769225788,-1.3011993539773954, ,0.06230921967069651,0.03296177198974323,0.014108779025686451,0.007431883308522168,0.05975940430186652,-0.029999986861214807, ,0.6401820182800293
0.010811561307308662,0.020615428009893962,-0.08248420847629744, ,0.011244601253749285,0.020437129263321696,-0.08292210056613519, ,0.0006411423559436843, ,0.006777470430043036,0.0005246284704324619,-0.012706216108666684,0.0031413737236882394,-0.010307056511948853,-0.008969388463305387, ,0.014410318118009635, ,0.010775124668390458, ,6.580206538477244e-05, ,0.1498827996229493,-0.24237024852466202,0.09233732928,1.6018214782782818,0.1798136336913196,-1.3015633468520407, ,0.0631383510036399,0.03225592846990849,0.013285080500417015,0.015840008281560788,0.05007770162391897,-0.033017247508755794, ,0.6555750370025635
0.010944761909754342,0.020619877943850454,-0.08272742814232316, ,0.01136031586378129,0.020441515522125833,-0.08312319851003469, ,0.0006009429474995309, ,0.006816448399628759,0.00029231557850199405,-0.012534447083892989,0.005226420251514623,0.008111194979381769,-0.0018578308065054752, ,0.014271011908100626, ,0.009649178370980758, ,6.629101482660563e-05, ,0.15117249601294477,-0.24169064803173027,0.09259140212000001,1.602031168221766,0.18117999868897403,-1.3023508109284425, ,0.06590065386004916,0.03425882366731797,0.013110132938271608,0.013502147817878323,0.07242039035270718,-0.0375162215254729, ,0.671334981918335
0.011016415242688923,0.020624260608215504,-0.08286122891687682, ,0.01147555846352128,0.020445803284134936,-0.08332335255022116, ,0.0006754389433913965, ,0.007183559157725112,0.0005383813802281991,-0.013440019428998381,0.01285376122966536,0.007791885555813627,-0.0005162880358947258, ,0.015248852380915973, ,0.015031041871206732, ,6.701006870281364e-05, ,0.15185209650587653,-0.24134312505239014,0.09273140144000001,1.602031168221766,0.18186318118780123,-1.302826221706784, ,0.06866638318268507,0.03400105394427473,0.014096293380530976,0.012510511201626188,0.07507583843676043,-0.045048699016089294, ,0.6870591640472412
0.011171053879988778,0.020634556964666963,-0.0831389008194802, ,0.011590329967214496,0.020449993296517765,-0.08352256551861499, ,0.0005975406147553399, ,0.007718630009893888,0.0005176043536785265,-0.013839249743529236,0.018094519870093476,-0.011575751470732637,0.0033932622303435834, ,0.01585465221820887, ,0.02148043676914679, ,6.743687977867958e-05, ,0.1533194157519792,-0.2406326336279615,0.09302306669,1.6022408581652505,0.18322954618545564,-1.3033686495627643, ,0.07221989464114975,0.035120999836591706,0.014533587153284672,0.004310836644388861,0.060690881342599985,-0.05251802471416552, ,0.7027499675750732
0.011316175969864176,0.02064440486902094,-0.08339620444688942, ,0.011704631289454362,0.02045408630468789,-0.08372084024197046, ,0.0005408392466302809, ,0.007320040466933367,0.00017672702259607557,-0.012356488525088995,0.007161136656405417,0.010072525454347298,0.0020048589525507744, ,0.014363044020983635, ,0.012358695691100742, ,6.766019500004167e-05, ,0.1547017849364654,-0.2399762013336524,0.0932939913,1.6026602380522197,0.18459591118311003,-1.304237792379307, ,0.07194612703447369,0.0347607844536523,0.013013734901960786,0.011251992246834134,0.0811789231998905,-0.040263197164325, ,0.7217769622802734
0.011390384252721764,0.02064369265715442,-0.08351046369669557, ,0.01181846334518144,0.02045808305230589,-0.08391817954188394, ,0.0006196247616346458, ,0.0070044096787326236,-0.0003049369957661282,-0.010172706121265323,0.0013309972295653435,0.00238118034486747,0.0010470364438904245, ,0.012354703207626603, ,0.002727904785933275, ,6.834065229824038e-05, ,0.15543544455951672,-0.2396286783543123,0.09341454627000001,1.6026602380522197,0.18527909368193726,-1.3046315244175077, ,0.07113713760005305,0.03398887591635773,0.010748185910931175,0.010428346303834492,0.07270770026848587,-0.03374390633027933, ,0.7353241443634033
0.011465381728177144,0.02063978499199951,-0.08361592109232961, ,0.011931827049682016,0.020461984281279946,-0.08411458623479955, ,0.000705585753116321, ,0.0074393573693580005,-0.0003634190854075335,-0.01031444448061043,-0.022787187804099253,-0.02378190505334598,0.01128945276676906, ,0.012722573499267144, ,0.032936830740723864, ,6.926422054613687e-05, ,0.1561922723811907,-0.23926570990922377,0.09352602721000002,1.602869927995704,0.18596227618076444,-1.3050252564557088, ,0.0736205908133986,0.0347607844536523,0.010902677289527722,-0.0047874474163946855,0.0523243851894056,-0.012552012769203466, ,0.7483100891113281
0.011617101286760693,0.02064074505721657,-0.08385119611109186, ,0.012044723318586598,0.0204657907317672,-0.08431006313201639, ,0.0006511747545693943, ,0.007669225070586517,0.0004398194472739651,-0.01306273570822519,-0.0057306753646548005,0.0054520796890267275,-0.008079475550209082, ,0.0151540594730407, ,0.007909831397172716, ,6.9986887513292e-05, ,0.1583932512503447,-0.23826175463557459,0.09391491421,1.6026602380522197,0.1878751871774806,-1.3059316771863343, ,0.0687658996800513,0.030810695311191814,0.014363220486925161,0.017805392688785147,0.05400333825707758,-0.028100821088966294, ,0.7708179950714111
0.011775003357257112,0.020652706587930884,-0.0841187828279501, ,0.012157153067868765,0.02046950314217539,-0.08450461303969459, ,0.0005731202807020984, ,0.007692347714247823,0.0004710391816336997,-0.012835304855843409,-0.014774161383841907,-0.046425305441591014,-0.003765168306864012, ,0.014971277233755484, ,0.04871944664688519, ,7.04483301507087e-05, ,0.1590882972090249,-0.23793739985485715,0.09405750611000001,1.602869927995704,0.18801182367724606,-1.3057163801294684, ,0.06768683420718315,0.03204895020549503,0.013533399762107054,0.0032667678308464124,0.020868277826474484,-0.016494668547555498, ,0.7848081588745117
0.011847367317977624,0.020656720666885408,-0.08423628830613777, ,0.01226911721384339,0.020473122249163655,-0.08469823875886218, ,0.0006519045746311311, ,0.007778743884840952,0.00045975098994795936,-0.012213900690320656,-0.013024907846290758,-0.04525074645756041,-0.013119615306885598, ,0.014487912115681957, ,0.04708798156171827, ,7.11264798362912e-05, ,0.1597524522362082,-0.23763621327276238,0.09418194995000001,1.6030796179391889,0.1884217331765424,-1.3060506338405578, ,0.06972589387102922,0.030671280400281442,0.012950253268292683,0.013470202952295026,0.02172242501845199,-0.015302709303122823, ,0.7978219985961914
0.011922424142558615,0.020659869956718792,-0.08435987765306528, ,0.012380616673165373,0.020476648787644273,-0.08489094308542088, ,0.0007249419875713443, ,0.007169533386919923,0.0003343316123549882,-0.01265360714280373,0.04147700809631889,0.026430053712386947,-0.005514226384771656, ,0.014547431399996114, ,0.049182208322406266, ,7.19932911983656e-05, ,0.16046294366063688,-0.23730413575917073,0.09431287524000001,1.6034989978261578,0.18910491567536958,-1.3066077233590399, ,0.06901595749706967,0.03326215967699642,0.013374316977329978,0.02070705536186926,0.09228287485856071,-0.07162227208063018, ,0.8121790885925293
0.012096044217865419,0.020673861742374965,-0.08465059244197864, ,0.012491652362827815,0.020480083490783906,-0.08508272881015251, ,0.0006170880454592971, ,0.007978397086758876,0.0005719725740996585,-0.013430590685713456,-0.03507098560713654,-0.0655554145225368,0.02476731709960786, ,0.0156321060278741, ,0.07434706428423057, ,7.252222919342019e-05, ,0.16203838116697866,-0.23661681253336475,0.09462139226,1.6037086877696423,0.1901980076734931,-1.3075807453287518, ,0.06773514743645309,0.03159019359469733,0.014171540498220642,-0.028880661248252316,0.009202327813608729,-0.0006843368568592969, ,0.8257899284362793
0.012172962009799084,0.020680309922337464,-0.08479067350545849, ,0.012602225200160556,0.020483427090004686,-0.08527359871872525, ,0.000675460211911429, ,0.0072757712549046125,0.0007843977382383736,-0.013827313673478869,0.025878869552896644,0.009905760431168474,0.005293776554490337, ,0.01564438335602351, ,0.027709916520857445, ,7.319730457755195e-05, ,0.16271798165991042,-0.23629245775264732,0.09476916932000001,1.6034989978261578,0.19074455367255488,-1.3080264169435374, ,0.06553656184977263,0.0308006950855147,0.014613588550458717,0.0060853495634288,0.07541811397679289,-0.05577010960741197, ,0.8389270305633545
0.012247400407174345,0.020688338300389342,-0.08493067740287928, ,0.012712336102828415,0.020486680314986325,-0.08546355559169962, ,0.0007353844629107814, ,0.007464004065676702,0.0008936605582603497,-0.01428228047365256,0.014493161561628462,-0.004457721439301653,0.002292639290357463, ,0.016139811690782074, ,0.015163192876384167, ,7.401553837712507e-05, ,0.16336669122134528,-0.23598354843767835,0.09491694638,1.6034989978261578,0.19129109967161662,-1.3083904098181827, ,0.06504245480361259,0.03072092637049879,0.015084101818181822,0.005844137096055752,0.06033608317708825,-0.044251558542843135, ,0.8530600070953369
0.012329762932061897,0.020700195630624467,-0.08508876132018539, ,0.012821985988829455,0.020489843893666357,-0.08565260220453404, ,0.0007774624966633151, ,0.007873103203355877,0.0009818304488933354,-0.014813019456573462,-0.0001998272549095471,-0.022597912244656758,-0.013914457508682228, ,0.016804026020626445, ,0.022598779956849918, ,7.512557871711878e-05, ,0.1640694599128997,-0.23565919365696092,0.09508416779000001,1.6039183777131267,0.1918376456706784,-1.3086727239526872, ,0.06692308995660845,0.03109336224065229,0.01625388930612245,0.018163385750948894,0.04197784253687216,-0.029450393210780308, ,0.8658840656280518
0.012509105633062644,0.02071717179726811,-0.08541886160675921, ,0.012931175776493282,0.02049291855224275,-0.08584074132759124, ,0.0006375070373958844, ,0.007666394518434988,0.0005705848381342723,-0.014331270745118379,0.026629638457636103,0.012973284679039425,-0.008909610497129648, ,0.016262979220907976, ,0.02962166698904624, ,7.58295549101572e-05, ,0.16562172922061882,-0.23491008856816115,0.09543286980000001,1.6041280676566114,0.19306737416856737,-1.309430448865533, ,0.0682711809773171,0.03448290027560711,0.015127076467236471,0.020638761924168674,0.07787904670083586,-0.057789003148171224, ,0.8773391246795654
0.01258627995822207,0.02072361577430453,-0.08556515610538214, ,0.013039906384479228,0.020495905015174544,-0.08602797572614375, ,0.000686899647535445, ,0.008027645983321655,0.0007400122817678,-0.015312860064443302,0.019461860777469083,0.0036541909713119327,-0.008564782455723213, ,0.017305328704301747, ,0.019801926538485635, ,7.664587287563375e-05, ,0.16629360698067636,-0.23457028832169527,0.09558712831,1.6041280676566114,0.19375055666739455,-1.3099058596438748, ,0.06947067464016894,0.03513400279839718,0.016154981257606494,0.018416729470938246,0.07013545295444033,-0.05156523467235268, ,0.8883571624755859
0.012664680176688165,0.020732128578253347,-0.08571745429355052, ,0.013148178731774552,0.020498804005183804,-0.08621430816037998, ,0.0007314881913962086, ,0.008690324625629027,0.0011665271586015643,-0.01737015576154459,0.01664422065170518,-0.0020250189048293095,-0.006652389212768097, ,0.019457770655727496, ,0.016766907924597563, ,7.75575451976705e-05, ,0.1669654847407339,-0.23423821080810361,0.09574786827000001,1.6041280676566114,0.19443373916622175,-1.3103812704222164, ,0.07260668826202814,0.03586430142043491,0.018330047779056387,0.015819126343706743,0.06815788251186691,-0.049866831025136275, ,0.9016721248626709
0.012767896929167055,0.020746077056362857,-0.08592263036854467, ,0.013255993737692416,0.020501616243256277,-0.08639974138540912, ,0.0007250065558674692, ,0.008778676017621338,0.0011435645706679449,-0.01696726467858844,0.0039032965257568973,-0.014254153110287123,-0.006545906799253504, ,0.01913794563747431, ,0.014778876764503497, ,7.842891168314626e-05, ,0.1678149853568986,-0.23382118323289547,0.09596434870000001,1.6041280676566114,0.19511692166504896,-1.310856681200558, ,0.07282957909322392,0.03487575948492127,0.017937850810810813,0.01341615675688209,0.05655832154575159,-0.03645762939328145, ,0.9128079414367676
0.012827141736294402,0.020752600473090663,-0.08603280206296371, ,0.01336335232187015,0.02050434244864381,-0.08658427815126828, ,0.0008082572082929092, ,0.009165091285736364,0.0008049050775298966,-0.01653490717165887,-0.012260432166945822,-0.03133719261151777,0.0004259221288124738, ,0.018922207208333017, ,0.03365020953455046, ,7.949042354507783e-05, ,0.1683169629937232,-0.23358177851379452,0.0960810148,1.6043377576000957,0.1955268311643453,-1.311027577431366, ,0.07671539333748648,0.037287599826511114,0.01748497422612514,0.003391546411903381,0.04554080982749479,-0.02421940974031894, ,0.9238770008087158
0.012941027787887643,0.02076106965697851,-0.08624407850371762, ,0.013470255404267259,0.020506983338865383,-0.08676792120292615, ,0.0007867991487700046, ,0.008963552916952208,0.00037613649470885125,-0.016179864721078952,0.012840308565727265,-0.000297181165802047,-0.0016469639080443355, ,0.0185006697703102, ,0.012843703977211345, ,8.047114654519023e-05, ,0.16928230460300125,-0.23307980087696992,0.09630397668000001,1.6047571374870648,0.19634665016293792,-1.3114510486331228, ,0.0774668910681394,0.04099219937730919,0.017183183948220066,0.011482339027549526,0.07635015214458017,-0.05183961235492388, ,0.9355440139770508
0.013042465218653774,0.020765769381387127,-0.08641627138607919, ,0.013576703905163382,0.02050953962970824,-0.08695067328028999, ,0.0007979035307260106, ,0.008949609661017615,0.00036482624154804877,-0.014379988807317664,0.005695888671344057,-0.010585840342266437,-0.0002918189747744468, ,0.016941448856862367, ,0.012020921288526163, ,8.145509629145902e-05, ,0.1701781416164113,-0.23264732783601336,0.09648675357000001,1.6049668274305493,0.19716646916153055,-1.3120378773151609, ,0.08008180722233821,0.03637291742371437,0.015330906179018288,0.009328523755334548,0.06872835415464065,-0.04039479559773449, ,0.9473400115966797
0.013130242686275767,0.020766956016428105,-0.08655672185826963, ,0.013682698745156418,0.020512012035230016,-0.08713253711821022, ,0.0008377155508426003, ,0.009268457788949467,0.0001448836252310985,-0.01556839773151843,0.0035965536443385037,-0.008254904951202194,-0.0005877600802499125, ,0.018119059274066807, ,0.009004317813939544, ,8.251268859953103e-05, ,0.17178447005425,-0.23183644088421979,0.09680434462000001,1.6049668274305493,0.19839619765941952,-1.3126322447477257, ,0.08110849705852202,0.04163972863469539,0.01648945291925466,0.009328523755334548,0.07212906023512555,-0.04349675938012147, ,0.9589250087738037
0.013225787609028927,0.020767741978574877,-0.08671599747775127, ,0.013788240845160404,0.020514401267759788,-0.08731351544648698, ,0.0008588148121411926, ,0.009268457788949467,0.0001448836252310985,-0.01556839773151843,0.0035965536443385037,-0.008254904951202194,-0.0005877600802499125, ,0.018119059274066807, ,0.009004317813939544, ,8.379921915365043e-05, ,0.17178447005425,-0.23183644088421979,0.09680434462000001,1.6049668274305493,0.19839619765941952,-1.3126322447477257, ,0.08110849705852202,0.04163972863469539,0.01648945291925466,0.009328523755334548,0.07212906023512555,-0.04349675938012147, ,0.9679710865020752
0.013413032697790867,0.02077402543416778,-0.08704140199042203, ,0.013893331126403455,0.020516708037899543,-0.08749361098987385, ,0.0007080902499930395, ,0.010122247940514233,0.0007235090623271827,-0.018368659189236473,0.007707998642767874,-0.003346141028069367,0.0011863137247971587, ,0.02098549520842517, ,0.008402845452378039, ,8.46977574027551e-05, ,0.17341396669071135,-0.23101010846667777,0.09714915776000001,1.6049668274305493,0.20003583565660482,-1.3137242233716613, ,0.08549274014276646,0.042497510774057674,0.019472874718826406,0.009328523755334548,0.08159897909939687,-0.04850172217697084, ,0.9804911613464355
0.013515341707535844,0.020780391732253,-0.08722232075026227, ,0.01399797051042584,0.020518933054526393,-0.0876728264680847, ,0.0007101032342753268, ,0.010318245120591183,0.0007011958682901242,-0.01801707436258099,-0.004185636749817563,-0.017476442076493515,-0.0012501870223565125, ,0.020774330954355283, ,0.0179706339372724, ,8.558394404873195e-05, ,0.17427119003975028,-0.2305853581585954,0.09734100868000001,1.6049668274305493,0.20071901815543203,-1.3139545979295808, ,0.0866638735693797,0.04173128476625804,0.019145206153846156,0.009169139667052588,0.06847885728779289,-0.03579179610680091, ,0.9895651340484619
0.013515341707535844,0.020780391732253,-0.08722232075026227, ,0.01410215991907767,0.020521077024793003,-0.08785116459579825, ,0.0008983564509540117, ,0.010318245120591183,0.0007011958682901242,-0.01801707436258099,-0.004185636749817563,-0.017476442076493515,-0.0012501870223565125, ,0.020774330954355283, ,0.0179706339372724, ,8.689841372901349e-05, ,0.17427119003975028,-0.2305853581585954,0.09734100868000001,1.6049668274305493,0.20071901815543203,-1.3139545979295808, ,0.0866638735693797,0.04173128476625804,0.019145206153846156,0.009169139667052588,0.06847885728779289,-0.03579179610680091, ,0.9982631206512451
0.01362118100928798,0.020785676861783432,-0.0874015162032937, ,0.014205900274516806,0.020523140654129773,-0.0880286280826634, ,0.000896711318488566, ,0.010730562649620797,0.00034517762663301187,-0.01789553596725854,-0.0016882076704540583,-0.013940909830861289,-0.0024728157406760567, ,0.02086898008832269, ,0.014042691219318273, ,8.818440357344558e-05, ,0.17516702705316034,-0.23014516238476462,0.09753156331000001,1.6053862073175185,0.20140220065425923,-1.3143483299677818, ,0.09195440073495231,0.0453185012218103,0.019030838136200722,0.011593945489054217,0.07691782403831672,-0.04142673353117119, ,1.0079901218414307
0.01372793880427442,0.020790317412873023,-0.08758309194117617, ,0.014309192499206888,0.02052512464624638,-0.08820521963330454, ,0.0008917544093845059, ,0.010411327103967048,0.00046618010228241855,-0.018055806948423934,0.01255307459222424,-0.0003409573225983671,0.0007993937601194467, ,0.020847667028046975, ,0.012557627744587406, ,8.943502258757721e-05, ,0.17607830953231882,-0.2296972438780596,0.09772471052000001,1.6055958972610032,0.20222201965285186,-1.3148534799096794, ,0.08877169462906527,0.044138112352777106,0.019191339180722893,0.010516502840632448,0.08770519583141707,-0.054733371548634446, ,1.016862154006958
0.013833817396868061,0.02079497054799224,-0.08776851759171213, ,0.014412037515915077,0.020527029703133387,-0.08838094194732665, ,0.0008838520202863641, ,0.010702862436787891,0.0004406934803203198,-0.01867456002049417,0.008766882955349668,-0.0003518079337346936,0.0004903931053718263, ,0.021528694039431216, ,0.008773809571290895, ,9.064447530007388e-05, ,0.1769818692786031,-0.22924160263848034,0.09792174660000001,1.6058055872044876,0.20317847515120993,-1.3153883690151327, ,0.09055051675426601,0.04588826961241333,0.01983662704856787,0.010919106327849705,0.0894554868964492,-0.052586633338796894, ,1.026845932006836
0.013940467102832371,0.020800346856025335,-0.08795625233519203, ,0.0145144362477096,0.020528856525062932,-0.08855579771932084, ,0.0008732710041604182, ,0.011035246435716451,0.0007770158126644862,-0.019867284207738273,0.008578608381722601,0.0016835455555811042,0.0013264265242197662, ,0.022739599804331868, ,0.008742067957729041, ,9.180778532959581e-05, ,0.17788542902488735,-0.22879368413177534,0.09812137526,1.6058055872044876,0.20413493064956803,-1.315923258120586, ,0.09177653922482666,0.045189019789747986,0.021125744721485415,0.010919106327849705,0.09280601443461531,-0.0517235081752513, ,1.0359749794006348
0.014052321499709376,0.020808494722343834,-0.08815612383722718, ,0.014616389617957954,0.02053060581059159,-0.08872978963886888, ,0.0008511683389744658, ,0.011365349110009354,0.0007993428495635753,-0.020325781799546704,-0.012909556482346034,-0.010603015261501416,-0.0008459517046300323, ,0.02330123419792014, ,0.016705601214890065, ,9.311037578883943e-05, ,0.17880443423692008,-0.2283457656250703,0.09833396682000001,1.6058055872044876,0.20495474964816068,-1.3163467293223428, ,0.09294509457244934,0.045977200367476156,0.02161304141112619,0.010919106327849705,0.0816459294738482,-0.030931147454504152, ,1.0426361560821533
0.014169078931104072,0.020815098316395657,-0.08837117122657656, ,0.014717898550324467,0.020532278256560874,-0.08890292039054905, ,0.0008148296349983885, ,0.011228213683285054,0.0005636636808244937,-0.021074597631776847,0.023085398312980752,0.04703901661564174,0.011155811872426017, ,0.0238857523348938, ,0.05239847843476272, ,9.431374322172004e-05, ,0.17976977584619813,-0.2278437879882457,0.09856211386000001,1.6058055872044876,0.2060478416462842,-1.3167480001110707, ,0.09556590287862111,0.050210021988608876,0.022371926292134834,0.010919106327849705,0.14300237664366502,-0.07146727978974284, ,1.0494301319122314
0.014169078931104072,0.020815098316395657,-0.08837117122657656, ,0.014818963968767992,0.020533874558099192,-0.08907519265394001, ,0.0009985407025237837, ,0.011228213683285054,0.0005636636808244937,-0.021074597631776847,0.023085398312980752,0.04703901661564174,0.011155811872426017, ,0.0238857523348938, ,0.05239847843476272, ,9.59110634736366e-05, ,0.17976977584619813,-0.2278437879882457,0.09856211386000001,1.6058055872044876,0.2060478416462842,-1.3167480001110707, ,0.09556590287862111,0.050210021988608876,0.022371926292134834,0.010919106327849705,0.14300237664366502,-0.07146727978974284, ,1.0562801361083984
0.014270192475693087,0.020822521611833053,-0.0885625929510719, ,0.014919586797539807,0.02053539540862369,-0.08924660910362762, ,0.000985917105426885, ,0.011727916429250782,0.001168333957697559,-0.02273627986387473,0.02481787768595715,0.03435371730806763,0.005373430699547259, ,0.02560951873926246, ,0.042380406675819146, ,9.745914310779619e-05, ,0.18061927646236284,-0.22741131494728914,0.09876563139000001,1.6060152771479719,0.20727757014417317,-1.3174240462837763, ,0.0959524181582111,0.04785524032197215,0.024171185918057666,0.014122594188633703,0.12963755478643177,-0.0702154539687586, ,1.0650579929351807
0.014411398373883607,0.020835204524044616,-0.08882619396494448, ,0.015019767961181145,0.020536841499840856,-0.08941717240920814, ,0.0008991048718280228, ,0.012785051430701981,0.0009659539014988791,-0.023033303088116262,-0.05795382960286615,-0.039196239911456626,-0.008278380528242035, ,0.026361404707916113, ,0.06996417015700625, ,9.879554716617644e-05, ,0.18173134999625115,-0.22684755544747076,0.09904563003000001,1.6062249670914566,0.20823402564253127,-1.3175505416885267, ,0.099368525192116,0.05080136057733982,0.024505863876923082,0.013375499926372497,0.058738664496212734,0.010190788855897706, ,1.0716769695281982
0.014411398373883607,0.020835204524044616,-0.08882619396494448, ,0.015119508384521162,0.020538213521749536,-0.08958688523529448, ,0.0010808675457224402, ,0.012785051430701981,0.0009659539014988791,-0.023033303088116262,-0.05795382960286615,-0.039196239911456626,-0.008278380528242035, ,0.026361404707916113, ,0.06996417015700625, ,0.00010051213557804495, ,0.18173134999625115,-0.22684755544747076,0.09904563003000001,1.6062249670914566,0.20823402564253127,-1.3175505416885267, ,0.099368525192116,0.05080136057733982,0.024505863876923082,0.013375499926372497,0.058738664496212734,0.010190788855897706, ,1.0783460140228271
0.014538987377024111,0.02084675261817477,-0.08906248890787324, ,0.015218808992674176,0.020539512162640963,-0.08975575024152077, ,0.0010184131790940422, ,0.012954848095269507,0.001149789444011126,-0.02427491479663671,0.02128298853858101,0.02282545211902218,0.006043244843892317, ,0.027539455211042924, ,0.031208307168576102, ,0.00010207056334404476, ,0.18274302800277456,-0.22634557781064615,0.09929711029,1.606434657034941,0.2091904811408893,-1.3180037520538395, ,0.10485849895963623,0.051658650821159925,0.02585846025974026,0.011944871145492728,0.1274388177217963,-0.07073059359484737, ,1.0849261283874512
0.014670526290135245,0.020856343389229853,-0.08931146369746158, ,0.015317670711037885,0.02054073810910146,-0.08992377008254698, ,0.0009451569729768095, ,0.013396841868958642,0.000940460956421666,-0.025590479837493976,0.021671366909628672,0.03287062043064513,0.00932472071228996, ,0.02890038922204375, ,0.03937149802255699, ,0.00010345057475429244, ,0.1837933196736691,-0.22579726377657622,0.09956155345,1.606434657034941,0.21042020963877828,-1.3185981194864045, ,0.10771503014582383,0.05689265081443092,0.027182272218430035,0.010397396178434461,0.14094193141214412,-0.07661883719270464, ,1.0917739868164062
0.014670526290135245,0.020856343389229853,-0.08931146369746158, ,0.015416094465290752,0.02054189204601367,-0.09009094740806492, ,0.0011235419022676105, ,0.013396841868958642,0.000940460956421666,-0.025590479837493976,0.021671366909628672,0.03287062043064513,0.00932472071228996, ,0.02890038922204375, ,0.03937149802255699, ,0.00010519561805473178, ,0.1837933196736691,-0.22579726377657622,0.09956155345,1.606434657034941,0.21042020963877828,-1.3185981194864045, ,0.10771503014582383,0.05689265081443092,0.027182272218430035,0.010397396178434461,0.14094193141214412,-0.07661883719270464, ,1.0993969440460205
0.01480694480227388,0.020867924124750574,-0.0895709213413555, ,0.0155140811813894,0.02054297465655779,-0.09025728486280156, ,0.0010376554819010123, ,0.013636874181900694,0.0012742060070564342,-0.02530676627860728,0.016061883834266197,0.009195581046243328,0.01328142934392253, ,0.02877534288034572, ,0.018507632031680175, ,0.0001067352100115267, ,0.18488222500893475,-0.22524122700963206,0.09983766322000001,1.6066443469784255,0.21178657463643272,-1.3194672623029469, ,0.10808307694586651,0.05228481628565883,0.02699798562711865,0.0020933668615156662,0.11902481461075724,-0.06780619101669641, ,1.106112003326416
0.014954197208300915,0.020877288853806554,-0.08983348852524167, ,0.015611631785566927,0.020543986622213826,-0.09042278508652545, ,0.0009437060125433717, ,0.014066337611414955,0.0007146584465542999,-0.02445119152572028,-0.037980039655274994,-0.024449301984723282,-0.013258894916550624, ,0.02821760722529452, ,0.04516904958025753, ,0.00010828560405084797, ,0.18604835767294267,-0.224654299311191,0.10011766186000001,1.6068540369219102,0.21287966663455624,-1.3199502118318156, ,0.11021712143840974,0.056285255965878286,0.026070067954173493,0.022035563209544407,0.08281649637727465,-0.01384379196566178, ,1.1106250286102295
0.014954197208300915,0.020877288853806554,-0.08983348852524167, ,0.015708747204329625,0.02054492862276218,-0.09058745071405071, ,0.0011172591471276959, ,0.014066337611414955,0.0007146584465542999,-0.02445119152572028,-0.037980039655274994,-0.024449301984723282,-0.013258894916550624, ,0.02821760722529452, ,0.04516904958025753, ,0.00011018980688176974, ,0.18604835767294267,-0.224654299311191,0.10011766186000001,1.6068540369219102,0.21287966663455624,-1.3199502118318156, ,0.11021712143840974,0.056285255965878286,0.026070067954173493,0.022035563209544407,0.08281649637727465,-0.01384379196566178, ,1.1151630878448486
0.014954197208300915,0.020877288853806554,-0.08983348852524167, ,0.015805428364455337,0.0205458013362864,-0.09075128437524196, ,0.0012949238115647676, ,0.014066337611414955,0.0007146584465542999,-0.02445119152572028,-0.037980039655274994,-0.024449301984723282,-0.013258894916550624, ,0.02821760722529452, ,0.04516904958025753, ,0.00011245200519293023, ,0.18604835767294267,-0.224654299311191,0.10011766186000001,1.6068540369219102,0.21287966663455624,-1.3199502118318156, ,0.11021712143840974,0.056285255965878286,0.026070067954173493,0.022035563209544407,0.08281649637727465,-0.01384379196566178, ,1.1196441650390625
0.015109795584553175,0.020883841605810735,-0.09010348503655227, ,0.015901676192990863,0.02054660543917424,-0.09091428869502001, ,0.0011824574845177252, ,0.015234925000578985,0.0007693783624295219,-0.027283251658255722,-0.023639696040653673,-0.0029652581116518884,-0.0008070132620887262, ,0.031258130204565256, ,0.023824627322163592, ,0.00011445945482423392, ,0.18726854946707014,-0.22402103521550457,0.10040543824,1.6070637268653947,0.21383612213291428,-1.3201583859767063, ,0.11951755863787251,0.062432198393730785,0.029067174306569344,0.014800244553496187,0.11578229001393951,-0.03569322991231497, ,1.1240370273590088
0.015109795584553175,0.020883841605810735,-0.09010348503655227, ,0.015997491617249268,0.020547341606118687,-0.09107646629336547, ,0.0013593855311746232, ,0.015234925000578985,0.0007693783624295219,-0.027283251658255722,-0.023639696040653673,-0.0029652581116518884,-0.0008070132620887262, ,0.031258130204565256, ,0.023824627322163592, ,0.00011681951040153279, ,0.18726854946707014,-0.22402103521550457,0.10040543824,1.6070637268653947,0.21383612213291428,-1.3201583859767063, ,0.11951755863787251,0.062432198393730785,0.029067174306569344,0.014800244553496187,0.11578229001393951,-0.03569322991231497, ,1.1284630298614502
0.015259902831659372,0.02089457003514906,-0.09038574690467926, ,0.01609287556480786,0.02054801051012078,-0.0912378197853242, ,0.0012409574015602852, ,0.01602187917933104,0.0015742141330697002,-0.031185289734212182,0.04842610950276236,0.05376229711117423,0.012464909048814357, ,0.03509559884630262, ,0.07235636238236866, ,0.00011891372740934405, ,0.18845012759682647,-0.22341093931844083,0.10070617752000001,1.6070637268653947,0.21533912363033417,-1.3211389466969454, ,0.12535923587644754,0.06326462770564718,0.03325430379958247,0.01324722592261258,0.1793606611152736,-0.10925855668680617, ,1.1331870555877686
0.015259902831659372,0.02089457003514906,-0.09038574690467926, ,0.0161878289635053,0.02054861282248992,-0.09139835178101263, ,0.0014163692790820981, ,0.01602187917933104,0.0015742141330697002,-0.031185289734212182,0.04842610950276236,0.05376229711117423,0.012464909048814357, ,0.03509559884630262, ,0.07235636238236866, ,0.00012135377259415443, ,0.18845012759682647,-0.22341093931844083,0.10070617752000001,1.6070637268653947,0.21533912363033417,-1.3211389466969454, ,0.12535923587644754,0.06326462770564718,0.03325430379958247,0.01324722592261258,0.1793606611152736,-0.10925855668680617, ,1.1380219459533691
0.015427185246379416,0.020914048263667155,-0.09072011550736757, ,0.016282352741439667,0.020549149212846538,-0.09155806488562145, ,0.0012516476830216519, ,0.01743002571753812,0.0022058145579304314,-0.03536201179022588,0.06886458063096247,0.04521163438977677,0.019037265965212952, ,0.03948598855581676, ,0.08237940916761606, ,0.0001234340615381407, ,0.189739823986822,-0.222762229757006,0.10106265727000001,1.6072734168088794,0.2172520346270503,-1.322372082388133, ,0.13071204071414708,0.06631512338118153,0.03765676482269504,0.0043535336895583684,0.17773827944602535,-0.13429636488664018, ,1.144214153289795
0.015427185246379416,0.020914048263667155,-0.09072011550736757, ,0.016376447826965672,0.02054962034912292,-0.09171696169942133, ,0.0014239415305455539, ,0.01743002571753812,0.0022058145579304314,-0.03536201179022588,0.06886458063096247,0.04521163438977677,0.019037265965212952, ,0.03948598855581676, ,0.08237940916761606, ,0.00012585105005450472, ,0.189739823986822,-0.222762229757006,0.10106265727000001,1.6072734168088794,0.2172520346270503,-1.322372082388133, ,0.13071204071414708,0.06631512338118153,0.03765676482269504,0.0043535336895583684,0.17773827944602535,-0.13429636488664018, ,1.1493871212005615
0.015611267972098344,0.02093940261408726,-0.09108721697837847, ,0.016470115148692163,0.020550026897565053,-0.09187504481776679, ,0.001228781764950805, ,0.01833927075563554,0.0025586897176341876,-0.036473375403216504,-0.022164080705067143,-0.018616780037902056,-0.010944374423708879, ,0.040904557915024516, ,0.02894419501259772, ,0.00012784916797851657, ,0.19109130223981127,-0.22209807472982268,0.10145413685000002,1.6074831067523636,0.21875503612447017,-1.3231076068879504, ,0.1303529417011961,0.06526612211724263,0.03885075980487805,0.022661808954803304,0.10899902165598403,-0.03836841505782382, ,1.1538770198822021
0.015611267972098344,0.02093940261408726,-0.09108721697837847, ,0.016563355635479917,0.020550369522734563,-0.092032316831102, ,0.0013967932547620785, ,0.01833927075563554,0.0025586897176341876,-0.036473375403216504,-0.022164080705067143,-0.018616780037902056,-0.010944374423708879, ,0.040904557915024516, ,0.02894419501259772, ,0.00013017319021640873, ,0.19109130223981127,-0.22209807472982268,0.10145413685000002,1.6074831067523636,0.21875503612447017,-1.3231076068879504, ,0.1303529417011961,0.06526612211724263,0.03885075980487805,0.022661808954803304,0.10899902165598403,-0.03836841505782382, ,1.1582939624786377
0.015795319846472474,0.020957880239894935,-0.09144835825278623, ,0.016656170216439104,0.020550648887510042,-0.09218878032496533, ,0.001206285861148553, ,0.018975259233306237,0.0015350924708658759,-0.03663484900055652,-0.04801622896306996,-0.005117252339396149,-0.0070437659628034156, ,0.04128594352995774, ,0.04828745723545369, ,0.00013209193155660294, ,0.19240416682842942,-0.22138758330539401,0.10183783869000002,1.6074831067523636,0.2198481281225937,-1.3233455201963973, ,0.13773141009937706,0.07591755324677663,0.03894574943765281,0.0218445570464528,0.13079454163540186,-0.023217152649012533, ,1.1632800102233887
0.015795319846472474,0.020957880239894935,-0.09144835825278623, ,0.01674855982092632,0.02055086565308804,-0.09234443787999279, ,0.0013701408763572456, ,0.018975259233306237,0.0015350924708658759,-0.03663484900055652,-0.04801622896306996,-0.005117252339396149,-0.0070437659628034156, ,0.04128594352995774, ,0.04828745723545369, ,0.00013432618814901513, ,0.19240416682842942,-0.22138758330539401,0.10183783869000002,1.6074831067523636,0.2198481281225937,-1.3233455201963973, ,0.13773141009937706,0.07591755324677663,0.03894574943765281,0.0218445570464528,0.13079454163540186,-0.023217152649012533, ,1.1677489280700684
0.01598451972542855,0.020971869611583312,-0.09180703296957639, ,0.016840525378543154,0.02055102047898639,-0.09249929207192496, ,0.0011785933715052863, ,0.018771593860546634,0.0012801879449103565,-0.03517492752644608,0.04919910570305743,0.04048401301624835,0.0045226783121665, ,0.03989094062228089, ,0.06371384044551824, ,0.00013643156553481406, ,0.1938174269444125,-0.22063847821659424,0.10222024424000001,1.6074831067523636,0.22148776611977897,-1.3241107838597705, ,0.1422742752001061,0.07466321129698723,0.03756795169811321,0.018516577331822773,0.1816470493257624,-0.12016382916247302, ,1.171255111694336
0.01598451972542855,0.020971869611583312,-0.09180703296957639, ,0.01693206781913225,0.020551114023043472,-0.09265334547160954, ,0.0013383301185681505, ,0.018771593860546634,0.0012801879449103565,-0.03517492752644608,0.04919910570305743,0.04048401301624835,0.0045226783121665, ,0.03989094062228089, ,0.06371384044551824, ,0.00013884987248256726, ,0.1938174269444125,-0.22063847821659424,0.10222024424000001,1.6074831067523636,0.22148776611977897,-1.3241107838597705, ,0.1422742752001061,0.07466321129698723,0.03756795169811321,0.018516577331822773,0.1816470493257624,-0.12016382916247302, ,1.1735799312591553
0.01598451972542855,0.020971869611583312,-0.09180703296957639, ,0.017023188072776176,0.020551146941421874,-0.09280660064500769, ,0.0015016574305535713, ,0.018771593860546634,0.0012801879449103565,-0.03517492752644608,0.04919910570305743,0.04048401301624835,0.0045226783121665, ,0.03989094062228089, ,0.06371384044551824, ,0.0001415864338441556, ,0.1938174269444125,-0.22063847821659424,0.10222024424000001,1.6074831067523636,0.22148776611977897,-1.3241107838597705, ,0.1422742752001061,0.07466321129698723,0.03756795169811321,0.018516577331822773,0.1816470493257624,-0.12016382916247302, ,1.1758220195770264
0.01598451972542855,0.020971869611583312,-0.09180703296957639, ,0.01711388706979413,0.020551119888609037,-0.09295906015319795, ,0.0016672335048532711, ,0.018771593860546634,0.0012801879449103565,-0.03517492752644608,0.04919910570305743,0.04048401301624835,0.0045226783121665, ,0.03989094062228089, ,0.06371384044551824, ,0.00014464384280409373, ,0.1938174269444125,-0.22063847821659424,0.10222024424000001,1.6074831067523636,0.22148776611977897,-1.3241107838597705, ,0.1422742752001061,0.07466321129698723,0.03756795169811321,0.018516577331822773,0.1816470493257624,-0.12016382916247302, ,1.1781001091003418
0.016155035564200657,0.02097989957053929,-0.09211506480566282, ,0.017204165740739488,0.02055103351741862,-0.09311072655238074, ,0.0015086227270994807, ,0.020279969346386487,0.0008157544812482331,-0.03673629408673641,0.004899328740871642,0.020948392785583005,0.01427576635189887, ,0.041970202707292674, ,0.02151212854683469, ,0.000809735167981783, ,0.1938174269444125,-0.22063847821659424,0.10222024424000001,1.6074831067523636,0.22148776611977897,-1.3241107838597705, ,0.1422742752001061,0.07466321129698723,0.03756795169811321,0.018516577331822773,0.1816470493257624,-0.12016382916247302, ,1.1851580142974854
0.016155035564200657,0.02097989957053929,-0.09211506480566282, ,0.017294025016397607,0.020550888478993123,-0.09326160239388409, ,0.001672093277927335, ,0.020279969346386487,0.0008157544812482331,-0.03673629408673641,0.004899328740871642,0.020948392785583005,0.01427576635189887, ,0.041970202707292674, ,0.02151212854683469, ,0.0008191086256985825, ,0.19511484606728224,-0.21995115499078827,0.1025495019,1.607692796695848,0.2229907676171988,-1.3248463083595876, ,0.15330685227539706,0.08273490981558046,0.03923352591133005,0.006261444960255098,0.17611902744325864,-0.08599870590486358, ,1.1876871585845947
0.016155035564200657,0.02097989957053929,-0.09211506480566282, ,0.017383465827782885,0.02055068542280422,-0.09341169022416704, ,0.0018369820829316405, ,0.020279969346386487,0.0008157544812482331,-0.03673629408673641,0.004899328740871642,0.020948392785583005,0.01427576635189887, ,0.041970202707292674, ,0.02151212854683469, ,0.0008300535015828088, ,0.19511484606728224,-0.21995115499078827,0.1025495019,1.607692796695848,0.2229907676171988,-1.3248463083595876, ,0.15330685227539706,0.08273490981558046,0.03923352591133005,0.006261444960255098,0.17611902744325864,-0.08599870590486358, ,1.190000057220459
0.016420580750545196,0.020999137010345083,-0.09259967339165262, ,0.017472489106136593,0.020550424996655478,-0.09356099258482524, ,0.0014939840196449335, ,0.023289537398509773,0.0023627760654718723,-0.044187187251913014,0.062349674007032715,0.07239389140847603,0.0032315789231074886, ,0.05000492755926936, ,0.09554155592132457, ,0.000837116592200491, ,0.19713047934745484,-0.21893947698426486,0.10306931419000001,1.608321866526302,0.22558686111274218,-1.3263914973488358, ,0.1738039222682615,0.08472941210577749,0.04740717714285715,0.030755294581675606,0.24368495052507003,-0.14103215093790036, ,1.192237138748169
0.016420580750545196,0.020999137010345083,-0.09259967339165262, ,0.017561095782924068,0.020550107846683423,-0.0937095120125953, ,0.0016535245669287188, ,0.023289537398509773,0.0023627760654718723,-0.044187187251913014,0.062349674007032715,0.07239389140847603,0.0032315789231074886, ,0.05000492755926936, ,0.09554155592132457, ,0.0008457103603555249, ,0.19713047934745484,-0.21893947698426486,0.10306931419000001,1.608321866526302,0.22558686111274218,-1.3263914973488358, ,0.1738039222682615,0.08472941210577749,0.04740717714285715,0.030755294581675606,0.24368495052507003,-0.14103215093790036, ,1.1944780349731445
0.016420580750545196,0.020999137010345083,-0.09259967339165262, ,0.017649286789832293,0.020549734617359153,-0.09385725103935935, ,0.0018147128097342736, ,0.023289537398509773,0.0023627760654718723,-0.044187187251913014,0.062349674007032715,0.07239389140847603,0.0032315789231074886, ,0.05000492755926936, ,0.09554155592132457, ,0.0008558041358698869, ,0.19713047934745484,-0.21893947698426486,0.10306931419000001,1.608321866526302,0.22558686111274218,-1.3263914973488358, ,0.1738039222682615,0.08472941210577749,0.04740717714285715,0.030755294581675606,0.24368495052507003,-0.14103215093790036, ,1.1966960430145264
0.016420580750545196,0.020999137010345083,-0.09259967339165262, ,0.01773706305876735,0.020549305951490127,-0.09400421219214988, ,0.0019769175226788775, ,0.023289537398509773,0.0023627760654718723,-0.044187187251913014,0.062349674007032715,0.07239389140847603,0.0032315789231074886, ,0.05000492755926936, ,0.09554155592132457, ,0.00086736200583699, ,0.19713047934745484,-0.21893947698426486,0.10306931419000001,1.608321866526302,0.22558686111274218,-1.3263914973488358, ,0.1738039222682615,0.08472941210577749,0.04740717714285715,0.030755294581675606,0.24368495052507003,-0.14103215093790036, ,1.1989490985870361
0.016420580750545196,0.020999137010345083,-0.09259967339165262, ,0.017824425521851664,0.02054882249022145,-0.0941503979931542, ,0.002139698599957691, ,0.025060693205072926,0.002563131900361763,-0.04810210277609942,0.059881593303247764,0.06889129366738533,-0.032920282956312164, ,0.05429935801222582, ,0.09127736868556029, ,0.0008803450323076093, ,0.19893759884002338,-0.2180436399708548,0.10357616358,1.6087412464132707,0.2280463181085201,-1.3276619109541064, ,0.1817949072001356,0.09195440073495231,0.0515495518446602,0.06593135376806747,0.24050842416813237,-0.13871338810598227, ,1.2017199993133545
0.016667026796913474,0.021025095184662262,-0.09307246721895433, ,0.017911375111421844,0.020548284873038232,-0.09429581095971941, ,0.0018089556957426888, ,0.025060693205072926,0.002563131900361763,-0.04810210277609942,0.059881593303247764,0.06889129366738533,-0.032920282956312164, ,0.05429935801222582, ,0.09127736868556029, ,0.0008897249379988727, ,0.19893759884002338,-0.2180436399708548,0.10357616358,1.6087412464132707,0.2280463181085201,-1.3276619109541064, ,0.1817949072001356,0.09195440073495231,0.0515495518446602,0.06593135376806747,0.24050842416813237,-0.13871338810598227, ,1.2043769359588623
0.016667026796913474,0.021025095184662262,-0.09307246721895433, ,0.017997912760025766,0.0205476937377663,-0.0944404536043568, ,0.001967372953700996, ,0.025060693205072926,0.002563131900361763,-0.04810210277609942,0.059881593303247764,0.06889129366738533,-0.032920282956312164, ,0.05429935801222582, ,0.09127736868556029, ,0.000900501418155894, ,0.19893759884002338,-0.2180436399708548,0.10357616358,1.6087412464132707,0.2280463181085201,-1.3276619109541064, ,0.1817949072001356,0.09195440073495231,0.0515495518446602,0.06593135376806747,0.24050842416813237,-0.13871338810598227, ,1.2065870761871338
0.016667026796913474,0.021025095184662262,-0.09307246721895433, ,0.018084039400420214,0.020547049720574542,-0.09458432843474651, ,0.0021265409753984045, ,0.025060693205072926,0.002563131900361763,-0.04810210277609942,0.059881593303247764,0.06889129366738533,-0.032920282956312164, ,0.05429935801222582, ,0.09127736868556029, ,0.0009126404236731466, ,0.19893759884002338,-0.2180436399708548,0.10357616358,1.6087412464132707,0.2280463181085201,-1.3276619109541064, ,0.1817949072001356,0.09195440073495231,0.0515495518446602,0.06593135376806747,0.24050842416813237,-0.13871338810598227, ,1.208838939666748
0.016667026796913474,0.021025095184662262,-0.09307246721895433, ,0.018169755965567986,0.02054635345597587,-0.0947274379537422, ,0.0022861138926385505, ,0.025060693205072926,0.002563131900361763,-0.04810210277609942,0.059881593303247764,0.06889129366738533,-0.032920282956312164, ,0.05429935801222582, ,0.09127736868556029, ,0.0009261058498394742, ,0.20084511385995682,-0.21705513016295408,0.10414523489000001,1.6089509363567556,0.23064241160406349,-1.3288803849827922, ,0.1905561075471301,0.09916085847280122,0.061264659692307696,-0.017815443958620506,0.20965110054032277,-0.08121914755734365, ,1.211333990097046
0.01693592355100128,0.021054316018045166,-0.09360454029044701, ,0.018255063388635796,0.020545605576829475,-0.09486978465937575, ,0.0018973032275685785, ,0.028282549527292377,0.0037025981492646264,-0.05738905160507842,-0.02063339029422282,0.011242998246190555,0.040430507592577894, ,0.06408677777005986, ,0.023484447963809312, ,0.0009355349505941257, ,0.20084511385995682,-0.21705513016295408,0.10414523489000001,1.6089509363567556,0.23064241160406349,-1.3288803849827922, ,0.1905561075471301,0.09916085847280122,0.061264659692307696,-0.017815443958620506,0.20965110054032277,-0.08121914755734365, ,1.2135939598083496
0.01693592355100128,0.021054316018045166,-0.09360454029044701, ,0.018339962602991297,0.02054480671434199,-0.09501137104486168, ,0.0020518523732569213, ,0.028282549527292377,0.0037025981492646264,-0.05738905160507842,-0.02063339029422282,0.011242998246190555,0.040430507592577894, ,0.06408677777005986, ,0.023484447963809312, ,0.0009462687719658833, ,0.20084511385995682,-0.21705513016295408,0.10414523489000001,1.6089509363567556,0.23064241160406349,-1.3288803849827922, ,0.1905561075471301,0.09916085847280122,0.061264659692307696,-0.017815443958620506,0.20965110054032277,-0.08121914755734365, ,1.2158589363098145
0.01693592355100128,0.021054316018045166,-0.09360454029044701, ,0.018424454542200784,0.020543957498069438,-0.09515219959860191, ,0.002207133812162662, ,0.028282549527292377,0.0037025981492646264,-0.05738905160507842,-0.02063339029422282,0.011242998246190555,0.040430507592577894, ,0.06408677777005986, ,0.023484447963809312, ,0.0009582770104439478, ,0.20084511385995682,-0.21705513016295408,0.10414523489000001,1.6089509363567556,0.23064241160406349,-1.3288803849827922, ,0.1905561075471301,0.09916085847280122,0.061264659692307696,-0.017815443958620506,0.20965110054032277,-0.08121914755734365, ,1.2182080745697021
0.01693592355100128,0.021054316018045166,-0.09360454029044701, ,0.018508540140026213,0.020543058555918436,-0.09529227280419042, ,0.00236282630902132, ,0.028282549527292377,0.0037025981492646264,-0.05738905160507842,-0.02063339029422282,0.011242998246190555,0.040430507592577894, ,0.06408677777005986, ,0.023484447963809312, ,0.0009715274755248664, ,0.20084511385995682,-0.21705513016295408,0.10414523489000001,1.6089509363567556,0.23064241160406349,-1.3288803849827922, ,0.1905561075471301,0.09916085847280122,0.061264659692307696,-0.017815443958620506,0.20965110054032277,-0.08121914755734365, ,1.2205810546875
0.01722242583769786,0.02109081233137048,-0.09419849063151038, ,0.01859222033042294,0.020542110514148032,-0.09543159314041785, ,0.0019230060930733102, ,0.030243704121721608,0.003755558822316739,-0.06254650599753814,-0.020583072253192062,0.02060359332795166,0.02358932784789785, ,0.06957622635333276, ,0.029106935490997275, ,0.0009804197990533564, ,0.2027294606812676,-0.21602028395780798,0.10477782441000001,1.6087412464132707,0.2326919591005451,-1.3295715086565516, ,0.19852916644031546,0.10970744688840552,0.06664774694560671,0.0,0.22329954902483473,-0.0882650791516121, ,1.2229530811309814
0.01722242583769786,0.02109081233137048,-0.09419849063151038, ,0.018675496047537397,0.02054111399737197,-0.09557016308127603, ,0.002072454246194581, ,0.030243704121721608,0.003755558822316739,-0.06254650599753814,-0.020583072253192062,0.02060359332795166,0.02358932784789785, ,0.06957622635333276, ,0.029106935490997275, ,0.0009905312291194788, ,0.2027294606812676,-0.21602028395780798,0.10477782441000001,1.6087412464132707,0.2326919591005451,-1.3295715086565516, ,0.19852916644031546,0.10970744688840552,0.06664774694560671,0.0,0.22329954902483473,-0.0882650791516121, ,1.225372076034546
0.01722242583769786,0.02109081233137048,-0.09419849063151038, ,0.01875836822570357,0.020540069628558887,-0.09570798509596246, ,0.0022228382942050384, ,0.030243704121721608,0.003755558822316739,-0.06254650599753814,-0.020583072253192062,0.02060359332795166,0.02358932784789785, ,0.06957622635333276, ,0.029106935490997275, ,0.0010018367985239337, ,0.2027294606812676,-0.21602028395780798,0.10477782441000001,1.6087412464132707,0.2326919591005451,-1.3295715086565516, ,0.19852916644031546,0.10970744688840552,0.06664774694560671,0.0,0.22329954902483473,-0.0882650791516121, ,1.2278180122375488
0.01722242583769786,0.02109081233137048,-0.09419849063151038, ,0.018840837799441436,0.02053897802903536,-0.09584506164888555, ,0.0023738101209676158, ,0.030243704121721608,0.003755558822316739,-0.06254650599753814,-0.020583072253192062,0.02060359332795166,0.02358932784789785, ,0.06957622635333276, ,0.029106935490997275, ,0.0010143092832734216, ,0.2027294606812676,-0.21602028395780798,0.10477782441000001,1.6087412464132707,0.2326919591005451,-1.3295715086565516, ,0.19852916644031546,0.10970744688840552,0.06664774694560671,0.0,0.22329954902483473,-0.0882650791516121, ,1.2300889492034912
0.017541865336031113,0.021131114630527085,-0.09485759250345434, ,0.018922905703453667,0.02053783981848669,-0.09598139519966815, ,0.0018767471857097937, ,0.03219694560690561,0.004046262027335131,-0.06558437787279468,0.11055386687032456,0.07684390506651195,0.032310336238911525, ,0.07317326126235876, ,0.13463257344108515, ,0.0010220789941061818, ,0.20486093495455357,-0.21487731949242275,0.10548170988000001,1.6087412464132707,0.23556132559561932,-1.3313395334531926, ,0.21567486717834267,0.11283821826215314,0.07017097585903086,0.0014596249470699254,0.29617027855313677,-0.22272439630145, ,1.2323589324951172
0.017541865336031113,0.021131114630527085,-0.09485759250345434, ,0.01900457287262323,0.020536655614958557,-0.09611698820315338, ,0.0020196465995848223, ,0.03219694560690561,0.004046262027335131,-0.06558437787279468,0.11055386687032456,0.07684390506651195,0.032310336238911525, ,0.07317326126235876, ,0.13463257344108515, ,0.0010309858477265267, ,0.20486093495455357,-0.21487731949242275,0.10548170988000001,1.6087412464132707,0.23556132559561932,-1.3313395334531926, ,0.21567486717834267,0.11283821826215314,0.07017097585903086,0.0014596249470699254,0.29617027855313677,-0.22272439630145, ,1.2345860004425049
0.017541865336031113,0.021131114630527085,-0.09485759250345434, ,0.01908584024201081,0.020535426034858986,-0.09625184310940785, ,0.0021639404255907263, ,0.03219694560690561,0.004046262027335131,-0.06558437787279468,0.11055386687032456,0.07684390506651195,0.032310336238911525, ,0.07317326126235876, ,0.13463257344108515, ,0.0010410119944332897, ,0.20486093495455357,-0.21487731949242275,0.10548170988000001,1.6087412464132707,0.23556132559561932,-1.3313395334531926, ,0.21567486717834267,0.11283821826215314,0.07017097585903086,0.0014596249470699254,0.29617027855313677,-0.22272439630145, ,1.23683500289917
0.017541865336031113,0.021131114630527085,-0.09485759250345434, ,0.019166708746852463,0.02053415169296014,-0.0963859623637276, ,0.00230919797512249, ,0.03219694560690561,0.004046262027335131,-0.06558437787279468,0.11055386687032456,0.07684390506651195,0.032310336238911525, ,0.07317326126235876, ,0.13463257344108515, ,0.001052136432860388, ,0.20486093495455357,-0.21487731949242275,0.10548170988000001,1.6087412464132707,0.23556132559561932,-1.3313395334531926, ,0.21567486717834267,0.11283821826215314,0.07017097585903086,0.0014596249470699254,0.29617027855313677,-0.22272439630145, ,1.2390940189361572
0.017541865336031113,0.021131114630527085,-0.09485759250345434, ,0.01924717932255622,0.020532833202399004,-0.09651934840664166, ,0.0024550904548832878, ,0.03463452353401189,0.0031249261407980578,-0.06602419392978984,0.036397955069118214,0.010084820030333935,0.020487361859750686, ,0.07462244680987058, ,0.037752617109693944, ,0.0010643360330518914, ,0.20704646835795912,-0.2137266322941633,0.10617911390000001,1.6089509363567556,0.2381574190911627,-1.3330480799227216, ,0.23145595502066044,0.1221324859182378,0.07079471786666668,0.0018715228359571163,0.24471495541724708,-0.15717743778648519, ,1.2417941093444824
0.017870616460131324,0.021168164695463006,-0.09550887851465437, ,0.019327252904700516,0.02053147117468027,-0.09665200367391762, ,0.001958035622963618, ,0.03463452353401189,0.0031249261407980578,-0.06602419392978984,0.036397955069118214,0.010084820030333935,0.020487361859750686, ,0.07462244680987058, ,0.037752617109693944, ,0.0010720403398614753, ,0.20704646835795912,-0.2137266322941633,0.10617911390000001,1.6089509363567556,0.2381574190911627,-1.3330480799227216, ,0.23145595502066044,0.1221324859182378,0.07079471786666668,0.0018715228359571163,0.24471495541724708,-0.15717743778648519, ,1.2441210746765137
0.017870616460131324,0.021168164695463006,-0.09550887851465437, ,0.019406930429030533,0.02053006621967674,-0.0967839305965649, ,0.0020959933414541124, ,0.03463452353401189,0.0031249261407980578,-0.06602419392978984,0.036397955069118214,0.010084820030333935,0.020487361859750686, ,0.07462244680987058, ,0.037752617109693944, ,0.0010807920749178225, ,0.20704646835795912,-0.2137266322941633,0.10617911390000001,1.6089509363567556,0.2381574190911627,-1.3330480799227216, ,0.23145595502066044,0.1221324859182378,0.07079471786666668,0.0018715228359571163,0.24471495541724708,-0.15717743778648519, ,1.246307134628296
0.017870616460131324,0.021168164695463006,-0.09550887851465437, ,0.019486212831456462,0.020528618945631946,-0.09691513160084068, ,0.0022353340116355027, ,0.03463452353401189,0.0031249261407980578,-0.06602419392978984,0.036397955069118214,0.010084820030333935,0.020487361859750686, ,0.07462244680987058, ,0.037752617109693944, ,0.0010905763286188199, ,0.20704646835795912,-0.2137266322941633,0.10617911390000001,1.6089509363567556,0.2381574190911627,-1.3330480799227216, ,0.23145595502066044,0.1221324859182378,0.07079471786666668,0.0018715228359571163,0.24471495541724708,-0.15717743778648519, ,1.2485260963439941
0.017870616460131324,0.021168164695463006,-0.09550887851465437, ,0.019565101048050242,0.020527129959161037,-0.09704560910825351, ,0.0023756566395723207, ,0.03463452353401189,0.0031249261407980578,-0.06602419392978984,0.036397955069118214,0.010084820030333935,0.020487361859750686, ,0.07462244680987058, ,0.037752617109693944, ,0.0011013753228285132, ,0.20704646835795912,-0.2137266322941633,0.10617911390000001,1.6089509363567556,0.2381574190911627,-1.3330480799227216, ,0.23145595502066044,0.1221324859182378,0.07079471786666668,0.0018715228359571163,0.24471495541724708,-0.15717743778648519, ,1.250756025314331
0.018232320319719202,0.0211921227795714,-0.09616647095723464, ,0.019643596015043334,0.02052559986525307,-0.09717536553556852, ,0.0018584456283990407, ,0.03622096837568668,0.0018141816572721224,-0.06320725188823666,-0.041556228496929165,-0.0460990399029208,-0.026507558902339166, ,0.07287253595437086, ,0.06205668971517132, ,0.0011076842420416008, ,0.20947912921333983,-0.2124292131712936,0.10688559195000001,1.609580006187209,0.24034360308740974,-1.3340956577205993, ,0.2452117352932061,0.1287611147333389,0.06807184410256412,0.04046490323340737,0.1940513394854241,-0.0773568294802291, ,1.2530031204223633
0.018232320319719202,0.0211921227795714,-0.09616647095723464, ,0.01972169866882389,0.02052402926727194,-0.09730440329481153, ,0.0019898459269153596, ,0.03622096837568668,0.0018141816572721224,-0.06320725188823666,-0.041556228496929165,-0.0460990399029208,-0.026507558902339166, ,0.07287253595437086, ,0.06205668971517132, ,0.001114974834478574, ,0.20947912921333983,-0.2124292131712936,0.10688559195000001,1.609580006187209,0.24034360308740974,-1.3340956577205993, ,0.2452117352932061,0.1287611147333389,0.06807184410256412,0.04046490323340737,0.1940513394854241,-0.0773568294802291, ,1.255223035812378
0.018232320319719202,0.0211921227795714,-0.09616647095723464, ,0.019799409945934168,0.020522418766958508,-0.09743272479327386, ,0.002123127913806516, ,0.03622096837568668,0.0018141816572721224,-0.06320725188823666,-0.041556228496929165,-0.0460990399029208,-0.026507558902339166, ,0.07287253595437086, ,0.06205668971517132, ,0.0011232383843091309, ,0.20947912921333983,-0.2124292131712936,0.10688559195000001,1.609580006187209,0.24034360308740974,-1.3340956577205993, ,0.2452117352932061,0.1287611147333389,0.06807184410256412,0.04046490323340737,0.1940513394854241,-0.0773568294802291, ,1.2574961185455322
0.018232320319719202,0.0211921227795714,-0.09616647095723464, ,0.019876730783067974,0.02052076896443215,-0.09756033243351694, ,0.0022577979387307504, ,0.03622096837568668,0.0018141816572721224,-0.06320725188823666,-0.041556228496929165,-0.0460990399029208,-0.026507558902339166, ,0.07287253595437086, ,0.06205668971517132, ,0.0011324624457271929, ,0.20947912921333983,-0.2124292131712936,0.10688559195000001,1.609580006187209,0.24034360308740974,-1.3340956577205993, ,0.2452117352932061,0.1287611147333389,0.06807184410256412,0.04046490323340737,0.1940513394854241,-0.0773568294802291, ,1.2598600387573242
0.018531025854661574,0.021199549561500042,-0.09667111519156465, ,0.019953662117067807,0.020519080458191983,-0.09768722861337664, ,0.001876011359682163, ,0.035758400596822795,0.0001658924427273015,-0.058469885124782135,-0.0028296305879840014,-0.023455679998517522,-0.023479843328407, ,0.06853771370603655, ,0.023611276016507074, ,0.001138458807936507, ,0.21154109889075776,-0.21134030783602792,0.10743003375000001,1.609580006187209,0.2421198775843605,-1.334972339287669, ,0.2503877085975482,0.13365766416686023,0.06320956952380954,0.04046490323340737,0.22191241199018402,-0.12097339213662339, ,1.2622160911560059
0.018531025854661574,0.021199549561500042,-0.09667111519156465, ,0.0200302048849226,0.020517353845119136,-0.09781341572596802, ,0.002004439889625296, ,0.035758400596822795,0.0001658924427273015,-0.058469885124782135,-0.0028296305879840014,-0.023455679998517522,-0.023479843328407, ,0.06853771370603655, ,0.023611276016507074, ,0.0011453866565900174, ,0.21154109889075776,-0.21134030783602792,0.10743003375000001,1.609580006187209,0.2421198775843605,-1.334972339287669, ,0.2503877085975482,0.13365766416686023,0.06320956952380954,0.04046490323340737,0.22191241199018402,-0.12097339213662339, ,1.2644929885864258
0.018531025854661574,0.021199549561500042,-0.09667111519156465, ,0.020106360023764633,0.020515589720477848,-0.09793889615969018, ,0.0021346539278337393, ,0.035758400596822795,0.0001658924427273015,-0.058469885124782135,-0.0028296305879840014,-0.023455679998517522,-0.023479843328407, ,0.06853771370603655, ,0.023611276016507074, ,0.0011532379841395707, ,0.21154109889075776,-0.21134030783602792,0.10743003375000001,1.609580006187209,0.2421198775843605,-1.334972339287669, ,0.2503877085975482,0.13365766416686023,0.06320956952380954,0.04046490323340737,0.22191241199018402,-0.12097339213662339, ,1.2672181129455566
0.018531025854661574,0.021199549561500042,-0.09667111519156465, ,0.02018212847086747,0.02051378867791751,-0.09806367229823018, ,0.0022661913277608574, ,0.035758400596822795,0.0001658924427273015,-0.058469885124782135,-0.0028296305879840014,-0.023455679998517522,-0.023479843328407, ,0.06853771370603655, ,0.023611276016507074, ,0.001162001396294069, ,0.21154109889075776,-0.21134030783602792,0.10743003375000001,1.609580006187209,0.2421198775843605,-1.334972339287669, ,0.2503877085975482,0.13365766416686023,0.06320956952380954,0.04046490323340737,0.22191241199018402,-0.12097339213662339, ,1.269953966140747
0.018965237682714665,0.021180865884292015,-0.0973531493070073, ,0.020257511163642584,0.020511951309473666,-0.09818774652056778, ,0.0016774891852995334, ,0.036707977041532294,-0.002745848969524766,-0.05479885027202853,-0.005679560063325512,-0.0017366355615820307,-0.013927724107119257, ,0.06601461395919318, ,0.00589738563846095, ,0.001166028644645674, ,0.21464563750619603,-0.20959497020645318,0.10816762276000001,1.609580006187209,0.24512588057920015,-1.3367701032478656, ,0.26731532833372046,0.15281311040011397,0.05943586388059702,0.0338106237373816,0.26258825603968294,-0.13835223145185954, ,1.2730021476745605
0.018965237682714665,0.021180865884292015,-0.0973531493070073, ,0.020332509039637504,0.02051007820557052,-0.09831112120098072, ,0.0017991934923818566, ,0.036707977041532294,-0.002745848969524766,-0.05479885027202853,-0.005679560063325512,-0.0017366355615820307,-0.013927724107119257, ,0.06601461395919318, ,0.00589738563846095, ,0.0011709368992792878, ,0.21464563750619603,-0.20959497020645318,0.10816762276000001,1.609580006187209,0.24512588057920015,-1.3367701032478656, ,0.26731532833372046,0.15281311040011397,0.05943586388059702,0.0338106237373816,0.26258825603968294,-0.13835223145185954, ,1.275205135345459
0.018965237682714665,0.021180865884292015,-0.0973531493070073, ,0.020407123036532405,0.02050816995502162,-0.09843379870904825, ,0.0019233710814459464, ,0.036707977041532294,-0.002745848969524766,-0.05479885027202853,-0.005679560063325512,-0.0017366355615820307,-0.013927724107119257, ,0.06601461395919318, ,0.00589738563846095, ,0.0011767248545267238, ,0.21464563750619603,-0.20959497020645318,0.10816762276000001,1.609580006187209,0.24512588057920015,-1.3367701032478656, ,0.26731532833372046,0.15281311040011397,0.05943586388059702,0.0338106237373816,0.26258825603968294,-0.13835223145185954, ,1.2774250507354736
0.018965237682714665,0.021180865884292015,-0.0973531493070073, ,0.02048135409213806,0.020506227145032137,-0.09855578140965608, ,0.002049407321582142, ,0.036707977041532294,-0.002745848969524766,-0.05479885027202853,-0.005679560063325512,-0.0017366355615820307,-0.013927724107119257, ,0.06601461395919318, ,0.00589738563846095, ,0.0011833865527485208, ,0.21464563750619603,-0.20959497020645318,0.10816762276000001,1.609580006187209,0.24512588057920015,-1.3367701032478656, ,0.26731532833372046,0.15281311040011397,0.05943586388059702,0.0338106237373816,0.26258825603968294,-0.13835223145185954, ,1.2796931266784668
0.019301945473229144,0.02115465477447358,-0.09784421870874946, ,0.020555203144392964,0.020504250361200422,-0.09867707166300141, ,0.0016393061747405104, ,0.034953109105144486,-0.002625310745641974,-0.049814531543425175,0.008742022930448382,-0.021896529871300547,-0.012139611614632465, ,0.060910587302358356, ,0.023570622358595573, ,0.001186840489278763, ,0.2171014665601994,-0.20822032375484123,0.10870169424000001,1.609580006187209,0.24744870107521263,-1.338092456429721, ,0.25509930526470637,0.13934940023270306,0.05436454443686007,0.027185194401398983,0.2307889084697914,-0.14071114926663492, ,1.2821130752563477
0.019301945473229144,0.02115465477447358,-0.09784421870874946, ,0.020628671131360674,0.020502240187519383,-0.09879767182459698, ,0.0017592380763655892, ,0.034953109105144486,-0.002625310745641974,-0.049814531543425175,0.008742022930448382,-0.021896529871300547,-0.012139611614632465, ,0.060910587302358356, ,0.023570622358595573, ,0.001191144230535055, ,0.2171014665601994,-0.20822032375484123,0.10870169424000001,1.609580006187209,0.24744870107521263,-1.338092456429721, ,0.25509930526470637,0.13934940023270306,0.05436454443686007,0.027185194401398983,0.2307889084697914,-0.14071114926663492, ,1.284656047821045
0.019301945473229144,0.02115465477447358,-0.09784421870874946, ,0.020701758991227125,0.020500197206378086,-0.0989175842452753, ,0.001881463836646553, ,0.034953109105144486,-0.002625310745641974,-0.049814531543425175,0.008742022930448382,-0.021896529871300547,-0.012139611614632465, ,0.060910587302358356, ,0.023570622358595573, ,0.0011962958693866334, ,0.2171014665601994,-0.20822032375484123,0.10870169424000001,1.609580006187209,0.24744870107521263,-1.338092456429721, ,0.25509930526470637,0.13934940023270306,0.05436454443686007,0.027185194401398983,0.2307889084697914,-0.14071114926663492, ,1.2868659496307373
0.019301945473229144,0.02115465477447358,-0.09784421870874946, ,0.020774467662298034,0.0204981219985636,-0.0990368112711942, ,0.002005401182592351, ,0.034953109105144486,-0.002625310745641974,-0.049814531543425175,0.008742022930448382,-0.021896529871300547,-0.012139611614632465, ,0.060910587302358356, ,0.023570622358595573, ,0.0012022892420770462, ,0.2171014665601994,-0.20822032375484123,0.10870169424000001,1.609580006187209,0.24744870107521263,-1.338092456429721, ,0.25509930526470637,0.13934940023270306,0.05436454443686007,0.027185194401398983,0.2307889084697914,-0.14071114926663492, ,1.2891130447387695
0.019301945473229144,0.02115465477447358,-0.09784421870874946, ,0.02084679808299656,0.02049601514326289,-0.09915535524384039, ,0.002130599625306644, ,0.034953109105144486,-0.002625310745641974,-0.049814531543425175,0.008742022930448382,-0.021896529871300547,-0.012139611614632465, ,0.060910587302358356, ,0.023570622358595573, ,0.0012091150537184403, ,0.2171014665601994,-0.20822032375484123,0.10870169424000001,1.609580006187209,0.24744870107521263,-1.338092456429721, ,0.25509930526470637,0.13934940023270306,0.05436454443686007,0.027185194401398983,0.2307889084697914,-0.14071114926663492, ,1.291330099105835
0.01965678109987079,0.0211190078538515,-0.09832864703241113, ,0.020918751191859934,0.02049387721806365,-0.09927321850003468, ,0.0016957511852639516, ,0.036531477088181025,-0.004288853709568957,-0.04788254273319622,-0.1133356175800968,-0.10952133470115212,-0.023141014637081035, ,0.06037947484851736, ,0.15760594298869474, ,0.0012126671422698673, ,0.2196731366073162,-0.20677617270736123,0.10923058056000001,1.609580006187209,0.2492249755721634,-1.3387241017763687, ,0.26507525574991836,0.15039134953798858,0.05239740631578948,0.02254151937586469,0.15390596936288273,-0.029708627251430773, ,1.2935600280761719
0.01965678109987079,0.0211190078538515,-0.09832864703241113, ,0.020990327927537328,0.02049170879895644,-0.09939040337193604, ,0.0018163638871033097, ,0.036531477088181025,-0.004288853709568957,-0.04788254273319622,-0.1133356175800968,-0.10952133470115212,-0.023141014637081035, ,0.06037947484851736, ,0.15760594298869474, ,0.0012170417563628633, ,0.2196731366073162,-0.20677617270736123,0.10923058056000001,1.609580006187209,0.2492249755721634,-1.3387241017763687, ,0.26507525574991836,0.15039134953798858,0.05239740631578948,0.02254151937586469,0.15390596936288273,-0.029708627251430773, ,1.295753002166748
0.01965678109987079,0.0211190078538515,-0.09832864703241113, ,0.02106152922878737,0.02048951046033647,-0.09950691218704659, ,0.0019385285782688268, ,0.036531477088181025,-0.004288853709568957,-0.04788254273319622,-0.1133356175800968,-0.10952133470115212,-0.023141014637081035, ,0.06037947484851736, ,0.15760594298869474, ,0.0012222323090384456, ,0.2196731366073162,-0.20677617270736123,0.10923058056000001,1.609580006187209,0.2492249755721634,-1.3387241017763687, ,0.26507525574991836,0.15039134953798858,0.05239740631578948,0.02254151937586469,0.15390596936288273,-0.029708627251430773, ,1.2980260848999023
0.01965678109987079,0.0211190078538515,-0.09832864703241113, ,0.021132356034475018,0.020487282775004917,-0.0996227472682161, ,0.002061817980129783, ,0.036531477088181025,-0.004288853709568957,-0.04788254273319622,-0.1133356175800968,-0.10952133470115212,-0.023141014637081035, ,0.06037947484851736, ,0.15760594298869474, ,0.0012282293495462409, ,0.2196731366073162,-0.20677617270736123,0.10923058056000001,1.609580006187209,0.2492249755721634,-1.3387241017763687, ,0.26507525574991836,0.15039134953798858,0.05239740631578948,0.02254151937586469,0.15390596936288273,-0.029708627251430773, ,1.3003790378570557
0.02002984911690659,0.02107142443649492,-0.09881537407501441, ,0.021202809283568946,0.020485026314170388,-0.09973791093364573, ,0.0016033628927899198, ,0.036531477088181025,-0.004288853709568957,-0.04788254273319622,-0.1133356175800968,-0.10952133470115212,-0.023141014637081035, ,0.06037947484851736, ,0.15760594298869474, ,0.0012308898711295294, ,0.22237609311329476,-0.2052161806667679,0.10976335575000001,1.6097896961306934,0.25086461356934864,-1.3394076866996014, ,0.26142408142829415,0.15633763024459765,0.05188537954397395,0.002877401020989597,0.18002809695813665,-0.11277950130068216, ,1.3029839992523193
0.02002984911690659,0.02107142443649492,-0.09881537407501441, ,0.021272889915139388,0.020482741647451282,-0.09985240549689389, ,0.0017225365082205967, ,0.03612518134091784,-0.005201404742527172,-0.04747039074501425,-0.040391779388169465,-0.08318569809458415,-0.003427813862292038, ,0.05987922290489513, ,0.09247223991986858, ,0.001234352171390734, ,0.22237609311329476,-0.2052161806667679,0.10976335575000001,1.6097896961306934,0.25086461356934864,-1.3394076866996014, ,0.26142408142829415,0.15633763024459765,0.05188537954397395,0.002877401020989597,0.18002809695813665,-0.11277950130068216, ,1.305401086807251
0.02002984911690659,0.02107142443649492,-0.09881537407501441, ,0.021342598868354882,0.020480429342876465,-0.09996623326687988, ,0.0018431125820496917, ,0.03612518134091784,-0.005201404742527172,-0.04747039074501425,-0.040391779388169465,-0.08318569809458415,-0.003427813862292038, ,0.05987922290489513, ,0.09247223991986858, ,0.0012386092371995381, ,0.22237609311329476,-0.2052161806667679,0.10976335575000001,1.6097896961306934,0.25086461356934864,-1.3394076866996014, ,0.26142408142829415,0.15633763024459765,0.05188537954397395,0.002877401020989597,0.18002809695813665,-0.11277950130068216, ,1.30784010887146
0.02002984911690659,0.02107142443649492,-0.09881537407501441, ,0.021411937082479852,0.020478089966887447,-0.10007939654788853, ,0.0019646795538554415, ,0.03612518134091784,-0.005201404742527172,-0.04747039074501425,-0.040391779388169465,-0.08318569809458415,-0.003427813862292038, ,0.05987922290489513, ,0.09247223991986858, ,0.001243651392176315, ,0.22237609311329476,-0.2052161806667679,0.10976335575000001,1.6097896961306934,0.25086461356934864,-1.3394076866996014, ,0.26142408142829415,0.15633763024459765,0.05188537954397395,0.002877401020989597,0.18002809695813665,-0.11277950130068216, ,1.310244083404541
0.02002984911690659,0.02107142443649492,-0.09881537407501441, ,0.02148090549687225,0.020475724084340133,-0.10019189763957503, ,0.0020869213332531406, ,0.03612518134091784,-0.005201404742527172,-0.04747039074501425,-0.040391779388169465,-0.08318569809458415,-0.003427813862292038, ,0.05987922290489513, ,0.09247223991986858, ,0.001249467046942362, ,0.22237609311329476,-0.2052161806667679,0.10976335575000001,1.6097896961306934,0.25086461356934864,-1.3394076866996014, ,0.26142408142829415,0.15633763024459765,0.05188537954397395,0.002877401020989597,0.18002809695813665,-0.11277950130068216, ,1.3125951290130615
0.02007328054845532,0.021065324795987588,-0.09887347013102596, ,0.02154950505098023,0.020473332258505967,-0.10030373883696947, ,0.002139009704861146, ,0.0360321611776351,-0.005105116751524444,-0.04744533429680837,-0.037317764475950116,-0.07593468911962258,-0.007981255711069123, ,0.059794971383166244, ,0.08460763640982959, ,0.0012555598048733126, ,0.22269272516113797,-0.20502311234491227,0.10982687396000002,1.6099993860741781,0.25113788656887953,-1.3395488437668537, ,0.2607058834023922,0.15531414330355284,0.05188537954397395,0.008956711814400643,0.18544707423386256,-0.11353283659944023, ,1.3150150775909424
0.02007328054845532,0.021065324795987588,-0.09887347013102596, ,0.0216177366843405,0.020470915051074394,-0.10041492243048093, ,0.002261579733729538, ,0.0360321611776351,-0.005105116751524444,-0.04744533429680837,-0.037317764475950116,-0.07593468911962258,-0.007981255711069123, ,0.059794971383166244, ,0.08460763640982959, ,0.0012624034778587292, ,0.22269272516113797,-0.20502311234491227,0.10982687396000002,1.6099993860741781,0.25113788656887953,-1.3395488437668537, ,0.2607058834023922,0.15531414330355284,0.05188537954397395,0.008956711814400643,0.18544707423386256,-0.11353283659944023, ,1.317357063293457
0.02007328054845532,0.021065324795987588,-0.09887347013102596, ,0.021685601336574108,0.02046847302215299,-0.10052545070590262, ,0.002384292386327504, ,0.0360321611776351,-0.005105116751524444,-0.04744533429680837,-0.037317764475950116,-0.07593468911962258,-0.007981255711069123, ,0.059794971383166244, ,0.08460763640982959, ,0.001269983808321356, ,0.22269272516113797,-0.20502311234491227,0.10982687396000002,1.6099993860741781,0.25113788656887953,-1.3395488437668537, ,0.2607058834023922,0.15531414330355284,0.05188537954397395,0.008956711814400643,0.18544707423386256,-0.11353283659944023, ,1.3196690082550049
0.02007328054845532,0.021065324795987588,-0.09887347013102596, ,0.02175309994738553,0.020466006730270755,-0.10063532594441575, ,0.0025070124180171537, ,0.0360321611776351,-0.005105116751524444,-0.04744533429680837,-0.037317764475950116,-0.07593468911962258,-0.007981255711069123, ,0.059794971383166244, ,0.08460763640982959, ,0.001278286013755556, ,0.22763527420064164,-0.20210391931845542,0.11076798050000002,1.6104187659611469,0.2552369815618427,-1.3419112359960597, ,0.24907333742380783,0.14313264186798005,0.044618519663865555,0.012651391275166004,0.20606978965429268,-0.1281919486100252, ,1.3220901489257812
0.020746274825525456,0.02096015705694919,-0.09972945729685445, ,0.021820233456558726,0.020463516732378662,-0.10074455042259481, ,0.0015589909579871537, ,0.03350705508502589,-0.005616125666653013,-0.04027537324866815,-0.009896499398807523,-0.043133542309051996,-0.00614530242502514, ,0.05269126396561514, ,0.04425310383276028, ,0.0012801573800504333, ,0.22763527420064164,-0.20210391931845542,0.11076798050000002,1.6104187659611469,0.2552369815618427,-1.3419112359960597, ,0.24907333742380783,0.14313264186798005,0.044618519663865555,0.012651391275166004,0.20606978965429268,-0.1281919486100252, ,1.3245630264282227
0.020746274825525456,0.02096015705694919,-0.09972945729685445, ,0.021887002803955013,0.020461003583851604,-0.10085312641241158, ,0.0016772139970004725, ,0.03350705508502589,-0.005616125666653013,-0.04027537324866815,-0.009896499398807523,-0.043133542309051996,-0.00614530242502514, ,0.05269126396561514, ,0.04425310383276028, ,0.00128278689406997, ,0.22763527420064164,-0.20210391931845542,0.11076798050000002,1.6104187659611469,0.2552369815618427,-1.3419112359960597, ,0.24907333742380783,0.14313264186798005,0.044618519663865555,0.012651391275166004,0.20606978965429268,-0.1281919486100252, ,1.3267650604248047
0.020746274825525456,0.02096015705694919,-0.09972945729685445, ,0.021953408929510587,0.02045846783849048,-0.10096105618123995, ,0.0017960235602411496, ,0.03350705508502589,-0.005616125666653013,-0.04027537324866815,-0.009896499398807523,-0.043133542309051996,-0.00614530242502514, ,0.05269126396561514, ,0.04425310383276028, ,0.0012861634510842538, ,0.22763527420064164,-0.20210391931845542,0.11076798050000002,1.6104187659611469,0.2552369815618427,-1.3419112359960597, ,0.24907333742380783,0.14313264186798005,0.044618519663865555,0.012651391275166004,0.20606978965429268,-0.1281919486100252, ,1.3290259838104248
0.020746274825525456,0.02096015705694919,-0.09972945729685445, ,0.022019452773233274,0.020455910048522753,-0.10106834199186035, ,0.0019151656217041757, ,0.03350705508502589,-0.005616125666653013,-0.04027537324866815,-0.009896499398807523,-0.043133542309051996,-0.00614530242502514, ,0.05269126396561514, ,0.04425310383276028, ,0.0012902745763824235, ,0.22763527420064164,-0.20210391931845542,0.11076798050000002,1.6104187659611469,0.2552369815618427,-1.3419112359960597, ,0.24907333742380783,0.14313264186798005,0.044618519663865555,0.012651391275166004,0.20606978965429268,-0.1281919486100252, ,1.3312830924987793
0.021092595591596368,0.020900339560812414,-0.10015215770191693, ,0.022085135275200223,0.020453330764605072,-0.10117498610246378, ,0.0014936966975863616, ,0.03622028375294909,-0.005861725716270108,-0.04585016208941338,-0.1137208450918774,-0.11465647460916695,-0.020279481425994644, ,0.058723982725479455, ,0.16148787926008054, ,0.001291595499247384, ,0.23015288511763884,-0.20060570914085588,0.11123464490000001,1.6104187659611469,0.2570132560587935,-1.342787917563129, ,0.25441539291815224,0.15556875665323078,0.05040763139240506,0.012651391275166004,0.1396759817914509,-0.03589363234971518, ,1.3335380554199219
0.021092595591596368,0.020900339560812414,-0.10015215770191693, ,0.02215045737555531,0.020450730535824333,-0.10128099076665764, ,0.001611050563254745, ,0.03622028375294909,-0.005861725716270108,-0.04585016208941338,-0.1137208450918774,-0.11465647460916695,-0.020279481425994644, ,0.058723982725479455, ,0.16148787926008054, ,0.0012936564996603348, ,0.23015288511763884,-0.20060570914085588,0.11123464490000001,1.6104187659611469,0.2570132560587935,-1.342787917563129, ,0.25441539291815224,0.15556875665323078,0.05040763139240506,0.012651391275166004,0.1396759817914509,-0.03589363234971518, ,1.3357670307159424
0.021092595591596368,0.020900339560812414,-0.10015215770191693, ,0.02221542001450642,0.0204481099096997,-0.10138635823346906, ,0.0017287270733439594, ,0.03622028375294909,-0.005861725716270108,-0.04585016208941338,-0.1137208450918774,-0.11465647460916695,-0.020279481425994644, ,0.058723982725479455, ,0.16148787926008054, ,0.0012964454135942043, ,0.23015288511763884,-0.20060570914085588,0.11123464490000001,1.6104187659611469,0.2570132560587935,-1.342787917563129, ,0.25441539291815224,0.15556875665323078,0.05040763139240506,0.012651391275166004,0.1396759817914509,-0.03589363234971518, ,1.3379759788513184
0.021092595591596368,0.020900339560812414,-0.10015215770191693, ,0.022280024132322426,0.02044546943218379,-0.10149109074734976, ,0.0018465197192018984, ,0.03622028375294909,-0.005861725716270108,-0.04585016208941338,-0.1137208450918774,-0.11465647460916695,-0.020279481425994644, ,0.058723982725479455, ,0.16148787926008054, ,0.0012999490715917056, ,0.23015288511763884,-0.20060570914085588,0.11123464490000001,1.6104187659611469,0.2570132560587935,-1.342787917563129, ,0.25441539291815224,0.15556875665323078,0.05040763139240506,0.012651391275166004,0.1396759817914509,-0.03589363234971518, ,1.3402371406555176
0.021441538088370883,0.02085078240182574,-0.10061649370926397, ,0.022344270669331305,0.020442809647664893,-0.10159519054818086, ,0.0013925571382787049, ,0.03555195460858449,-0.004146231126900834,-0.048857244464166415,-0.03256227938553932,-0.07674132549391219,-0.015208244832520227, ,0.06056536176462462, ,0.08336218982833683, ,0.0013005351985960537, ,0.23255465504152267,-0.19913838989475321,0.11174408687000001,1.6104187659611469,0.2585162575562133,-1.3436051208030868, ,0.2408551816204842,0.14356572096591644,0.05363236202020203,0.012651391275166004,0.16359523159042125,-0.10547965207152464, ,1.3441669940948486
0.021441538088370883,0.02085078240182574,-0.10061649370926397, ,0.02240816056591638,0.0204401310989677,-0.10169865987127688, ,0.0015080043464264148, ,0.03555195460858449,-0.004146231126900834,-0.048857244464166415,-0.03256227938553932,-0.07674132549391219,-0.015208244832520227, ,0.06056536176462462, ,0.08336218982833683, ,0.0013018400360037918, ,0.23255465504152267,-0.19913838989475321,0.11174408687000001,1.6104187659611469,0.2585162575562133,-1.3436051208030868, ,0.2408551816204842,0.14356572096591644,0.05363236202020203,0.012651391275166004,0.16359523159042125,-0.10547965207152464, ,1.3465640544891357
0.021441538088370883,0.02085078240182574,-0.10061649370926397, ,0.022471694762514854,0.020437434327356,-0.10180150094739138, ,0.0016236753241844742, ,0.03555195460858449,-0.004146231126900834,-0.048857244464166415,-0.03256227938553932,-0.07674132549391219,-0.015208244832520227, ,0.06056536176462462, ,0.08336218982833683, ,0.001303851506554921, ,0.23255465504152267,-0.19913838989475321,0.11174408687000001,1.6104187659611469,0.2585162575562133,-1.3436051208030868, ,0.2408551816204842,0.14356572096591644,0.05363236202020203,0.012651391275166004,0.16359523159042125,-0.10547965207152464, ,1.349250078201294
0.021441538088370883,0.02085078240182574,-0.10061649370926397, ,0.022534874199613867,0.020434719872533234,-0.10190371600271968, ,0.0017393772199263114, ,0.03555195460858449,-0.004146231126900834,-0.048857244464166415,-0.03256227938553932,-0.07674132549391219,-0.015208244832520227, ,0.06056536176462462, ,0.08336218982833683, ,0.0013065566352094017, ,0.23255465504152267,-0.19913838989475321,0.11174408687000001,1.6104187659611469,0.2585162575562133,-1.3436051208030868, ,0.2408551816204842,0.14356572096591644,0.05363236202020203,0.012651391275166004,0.16359523159042125,-0.10547965207152464, ,1.351729154586792
0.021803748667911262,0.020813951332478865,-0.10112017437253967, ,0.022597699817749468,0.020431988272645463,-0.10200530725890546, ,0.0012488852765298042, ,0.03392191939308252,-0.0033582866789551302,-0.04662431573937597,-0.04998537554179179,-0.06782057818419909,-0.012529802771033868, ,0.057756398112190625, ,0.084249322068578, ,0.0013062006391681698, ,0.23497959316402917,-0.19772512977877013,0.11229760270000001,1.6104187659611469,0.26015589555339863,-1.344615420686882, ,0.22757060325772369,0.13017413108157858,0.05138326296774194,0.012651391275166004,0.1595222230900132,-0.07490341141661525, ,1.3540270328521729
0.021803748667911262,0.020813951332478865,-0.10112017437253967, ,0.022660172557501787,0.02042924006428115,-0.10210627693304355, ,0.0013615663400554409, ,0.03392191939308252,-0.0033582866789551302,-0.04662431573937597,-0.04998537554179179,-0.06782057818419909,-0.012529802771033868, ,0.057756398112190625, ,0.084249322068578, ,0.0013065403060447786, ,0.23497959316402917,-0.19772512977877013,0.11229760270000001,1.6104187659611469,0.26015589555339863,-1.344615420686882, ,0.22757060325772369,0.13017413108157858,0.05138326296774194,0.012651391275166004,0.1595222230900132,-0.07490341141661525, ,1.3562800884246826
