NicholasDascanio/dvrk_moveit_final/test/execution/third_experiment_notsharpbends/thirdexp_500vel4.0/thirdexp_500vel4.0_22.csv
Current Position (x),Current Position (y),Current Position (z), ,Planned Position (x),Planned Position (y),Planned Position (z), ,Position Error,,Cartesian linear Velocity(x),Cartesian linear Velocity(y),Cartesian linear Velocity(z),Cartesian Angular Velocity(x),Cartesian Angular Velocity(y),Cartesian Angular Velocity(z), ,Total Linear Velocity, ,Total Angular Velocity, ,MSE, ,Joint 1 Position,Joint 2 Position,Joint 3 Position,Joint 4 Position,Joint 5 Position,Joint 6 Position, ,Joint 1 Velocity,Joint 2 Velocity,Joint 3 Velocity,Joint 4 Velocity,Joint 5 Velocity,Joint 6 Velocity, ,Time Stamp
0.009898882322587559,0.02037598761317169,-0.07828100735850939, ,0.01003001714223201,0.020305637069556536,-0.0784431661167056, ,0.0002200931683852706, ,2.016573664739155e-05,-4.1126950078555276e-05,-7.065049075584036e-06,0.0019925209790814737,-0.0003383458748341254,-0.0013672864404071618, ,4.6346497987834413e-05, ,0.002021043736067348, ,1.8341097365439217e-05, ,0.20883041965190496,-0.23473246571205397,0.09068067066,1.8001881648146416,0.8310231915734089,-1.1297355169596468, ,0.00024611579989260927,0.00046219281210286634,-1.0506016423714216e-06,-0.0007130598869227042,0.0,-0.003241543661766544, ,0.023859024047851562
0.009904547744184025,0.02037872053148526,-0.07829794372712422, ,0.010056562442928458,0.020314699005927327,-0.07855008495161324, ,0.0003013012138308595, ,0.0005600007746642626,0.0005394493297038134,-0.0024198525092759262,0.26184927420987886,0.006689902368174478,-0.19719994634121915, ,0.0025417105684147957, ,0.261934719344063, ,2.3699744646187734e-05, ,0.2088458651176534,-0.23471702024630553,0.09069752243000001,1.8001881648146416,0.8308865550736434,-1.1345248234643843, ,0.0005995814351710208,0.0005849896056082978,0.0025360311288011466,-0.0006833144144426476,0.0,-0.3287697716349669, ,0.04601097106933594
0.00993244910452891,0.020385891042924122,-0.07834779329798156, ,0.010083312912191006,0.0203235907499749,-0.07865710461399125, ,0.0003497351929324751, ,0.0018612728063744683,0.0006897338611997193,-0.004165014916844413,-0.01124348194889275,-0.15556722571270495,-0.05861777030899298, ,0.004613829051511449, ,0.1559730027954498, ,2.7222799223393915e-05, ,0.20885358785052763,-0.23469385204768284,0.09073381855000001,1.8001881648146416,0.8281538250783346,-1.1387490858615603, ,-0.00039275978300622075,0.0016205248455202132,0.0032501145725362178,-0.0006643915714581135,-0.16755743587610764,-0.04801091654081646, ,0.06977701187133789
0.00998417752625945,0.02041463813249381,-0.07850637039159389, ,0.010110267359568288,0.02033231345116085,-0.07876422278945404, ,0.00029860317865463746, ,0.0021018400858606213,0.0007945367366517385,-0.004743115556465129,0.08450407684394964,-0.17404728977438771,-0.13836788931184804, ,0.005248444107962024, ,0.19347712546618331, ,2.7850779852458156e-05, ,0.20885358785052763,-0.23463207018468904,0.09088159561,1.7999784748711571,0.8251478220834948,-1.1459359833168252, ,-0.0006661176312667845,0.0016911338282011403,0.0038699736443148693,-0.0011749918533259843,-0.18744996194236152,-0.14871005374620516, ,0.096527099609375
0.010024809326943602,0.02043739599596626,-0.0786515143032334, ,0.010137424598102861,0.020340868256093755,-0.078871437171701, ,0.0002652656629460086, ,0.0004120664237903076,0.00036095950611779004,-0.0034747832528371964,-0.18396734822346314,0.05407170109532161,0.1565263709706379, ,0.0035176994125237565, ,0.19174914359967343, ,2.7596123399024063e-05, ,0.20885358785052763,-0.23456256558882102,0.09097233591000001,1.7999784748711571,0.8228250015874824,-1.143551806513143, ,-0.0005126743422646521,0.0012589793697731118,0.004335550223189984,-0.001158289918579066,0.010303124067232427,0.11289385746635633, ,0.12236499786376953
0.010022380723182286,0.020447684982794968,-0.07871139366553412, ,0.010164783444326852,0.02034925630853107,-0.07897874546250633, ,0.00031850231121766646, ,0.000152368579790326,0.0004298765904519273,-0.0032493269362449586,0.05943390777431256,0.10100076425792653,-0.006014410527392756, ,0.0032811789962958354, ,0.11719020340305125, ,2.8282269805918026e-05, ,0.20886131058340188,-0.23441583366421076,0.09109807604,1.7999784748711571,0.826104277581853,-1.138793070849066, ,0.0015305934707390547,0.005734034769935831,0.003921420856720828,-0.001107674243274077,0.1072290319304613,-0.05798062355222444, ,0.1448221206665039
0.010037086888826822,0.020455685571758232,-0.07879176391643154, ,0.010192342718257728,0.020357478749382547,-0.0790861453717086, ,0.00034700056735464995, ,0.0009146344539205694,0.00035541339798168917,-0.004068181200810209,0.025265448283881345,-0.00036580232160394094,-0.023899050738295333, ,0.004184850433455067, ,0.025268096232396998, ,2.917362910168844e-05, ,0.20886131058340188,-0.23430771540397163,0.09118103860000001,1.799559094984188,0.8263775505813838,-1.1397510153177237, ,0.0006925198834396209,0.007410903068832941,0.004122363229813665,-0.0023717539431170023,0.0,-0.041175904742890526, ,0.16773700714111328
0.01006039798465895,0.020469129394613605,-0.07888792520806877, ,0.010220101243394068,0.02036553671671364,-0.07919363461720104, ,0.00036013166564064305, ,0.0011412839384976406,0.000590091453526284,-0.004921276633479674,-0.0012488781562711862,-0.006742156813681269,-0.006073604758575947, ,0.005086226563478123, ,0.006856848566423566, ,3.000771903612452e-05, ,0.20887675604915032,-0.23419187441085826,0.09127696406000001,1.799559094984188,0.8262409140816184,-1.1409464572562762, ,0.000810871360354518,0.007003958735532266,0.0049980582114841545,-0.0023717539431170023,0.0,-0.015514063348778945, ,0.1906290054321289
0.010090088858215458,0.020486913742434946,-0.07902208098080661, ,0.010248057846711218,0.020373431345747,-0.07930121092492151, ,0.00034021461077678763, ,0.0011819730178738005,0.0007309689399066268,-0.0052888440980662105,-0.012592209916556107,-0.0049351911081586515,0.0037251646149167443, ,0.005468386206161714, ,0.013524786790132224, ,3.0443995344989115e-05, ,0.20889220151489876,-0.23401425155475108,0.09141566709000001,1.799559094984188,0.826104277581853,-1.1414067905335639, ,0.0004945711864494241,0.006389168996652762,0.005401428118006105,-0.0023717539431170023,-0.003963663991315418,0.006450498349078066, ,0.2153019905090332
0.010112766257511431,0.020498453075401192,-0.07912916070656162, ,0.010276211358657163,0.020381163768866423,-0.07940887202884232, ,0.00034454245939791753, ,0.0010337283399837205,0.0005872473081101417,-0.005040605984404158,-0.0258556113714653,-0.004442076855318832,0.017048549649774657, ,0.005178915173255797, ,0.026234417907146968, ,3.114247555581105e-05, ,0.20889992424777298,-0.23387524236301505,0.09152455545,1.7991397150972188,0.826104277581853,-1.1412434330532826, ,-0.0005302926317721755,0.006976218522295267,0.005113583152487962,-0.00690541418480806,-0.0030822205499275506,0.021334216888931713, ,0.23708510398864746
0.01013087914263175,0.02050751710087008,-0.07921460025450781, ,0.010304560613148156,0.02038873511561935,-0.07951661567096019, ,0.0003680865726914626, ,0.0008396836276323529,0.00021108839876192922,-0.003707098143633411,-0.011070368128220171,-0.004650303681211227,0.005647873417673153, ,0.0038068626916577886, ,0.012007429954893886, ,3.1940696398439805e-05, ,0.20889992424777298,-0.233736233171279,0.09161140688000001,1.7991397150972188,0.826104277581853,-1.1412434330532826, ,0.0006011605866310988,0.007611351747308027,0.0037138753835392873,-0.00690541418480806,-0.002535719631333312,0.002231352497461116, ,0.2573859691619873
0.01015206473281024,0.020516252692717705,-0.07930464096356109, ,0.01033310444756448,0.020396146512719673,-0.07962443960128616, ,0.0003866161422946942, ,0.0011526206895585576,0.0005176194421251766,-0.005040451649526826,-0.007179016814365668,-0.0027110673484843774,0.0035263126029601863, ,0.005196404254105153, ,0.00767386247827583, ,3.2773888622882966e-05, ,0.20891536971352143,-0.23358177851379452,0.09170214718000001,1.7991397150972188,0.8259676410820875,-1.1412136938897268, ,0.0011622278947963666,0.007856364278737281,0.005130052019323672,-0.00690541418480806,0.0,-0.0023700240408329348, ,0.2776639461517334
0.010180588881229155,0.020529721641344607,-0.07943332423042046, ,0.01036184170274625,0.020403399084050693,-0.07973234157783601, ,0.00037178131723449465, ,0.001197393180365167,0.0006067636692986054,-0.005383727593674005,-0.007198382898147372,-0.00211352387936681,0.0027416979835038105, ,0.005548552548336603, ,0.007502245997973603, ,3.3374016119981e-05, ,0.20893853791214412,-0.23340415565768735,0.09183307247000001,1.7987203352102499,0.8259676410820875,-1.1411320151495863, ,0.0007958886736480915,0.007836356312902842,0.00548890817367333,-0.005884568157606351,0.0,-0.0020645049566814953, ,0.3004131317138672
0.010205419368081472,0.020541319590016333,-0.07953653277511435, ,0.010390771222989065,0.020410493950667897,-0.07984031936661926, ,0.00037915293907179207, ,0.0013281762917457818,0.0005021336604915772,-0.005249629623583518,-0.0071100027529990934,-0.0029257493884838823,0.002332959389494202, ,0.005438271936907888, ,0.007688442276878671, ,3.3949102207513574e-05, ,0.20898487430938945,-0.23324197826732865,0.09193936825000001,1.7987203352102499,0.826104277581853,-1.141325111793423, ,0.0028362995121514857,0.008742066657402266,0.0053578242583249246,-0.005884568157606351,0.0012743127776974129,-0.0030033186538298137, ,0.32294297218322754
0.010240052049826635,0.020553201122322503,-0.07967155440209579, ,0.010419891856039826,0.02041743223080191,-0.0799483707416301, ,0.0003569353353714066, ,0.001047360511893947,0.00011477691884197633,-0.004251126200570868,-0.006878282686189942,-0.002773687601637753,0.0028161800705062603, ,0.004379750193350497, ,0.007416475863521846, ,3.430111190274498e-05, ,0.20906210163813171,-0.2330102962811019,0.09207677499000001,1.7985106452667654,0.826104277581853,-1.141570148013845, ,0.0020220900294285185,0.0101902295678405,0.00426360051391863,-0.008461951228061046,0.0011418653319331363,-0.00573785365302611, ,0.3442070484161377
0.010261969729780964,0.020558587213342073,-0.07976147165196425, ,0.010449202453092424,0.02042421503986126,-0.08005649348483665, ,0.00037436593802852235, ,0.0011754133689232027,0.0004684599303139903,-0.004918669268883377,0.013116987325104686,-0.001554223321208248,-0.012311400920830315, ,0.005078814691521134, ,0.01320874572925712, ,3.472469855373735e-05, ,0.20910071530250282,-0.23283267342499475,0.09216751529000002,1.798300955323281,0.826104277581853,-1.1419785417145478, ,0.0017949559475456548,0.00811844839263673,0.005010635898081159,-0.0057948420271631525,0.0010576188187157315,-0.027496529053197348, ,0.3655121326446533
0.010281858417189453,0.02056682786060981,-0.07983880917231685, ,0.010478701868783528,0.020430843490435075,-0.08016468538617125, ,0.0004042702068213331, ,0.001350461997782347,0.0004420234819917022,-0.00529910583129107,0.014104311730109747,-0.003932157926267682,-0.01004283112369735, ,0.005486315245892217, ,0.014642181229543388, ,3.5284137089333066e-05, ,0.20917794263124506,-0.23263960510313914,0.09230232945000001,1.7980912653797962,0.826104277581853,-1.142468614155391, ,0.0030222901184737997,0.009126002257692412,0.005392285551794178,-0.010760940752476578,0.0009684264451851191,-0.031226165851742545, ,0.38688111305236816
0.010308998710298539,0.020577693588256632,-0.07994276965308264, ,0.010508388961188242,0.020437318692296275,-0.08027294424352041, ,0.00041045930825903994, ,0.0013691669228154105,0.0005297401901281745,-0.0053296543884254095,-0.006709045074304722,-0.004433639371926504,0.005485811315831591, ,0.0055281514660536464, ,0.00804166895545223, ,3.582114330005586e-05, ,0.20920883356274197,-0.23255465504152267,0.09235288476,1.7980912653797962,0.826104277581853,-1.1427136503758129, ,0.0031461277477298293,0.008385155172415087,0.0054681810916580855,-0.009852129564772626,0.0009369298756809653,-0.003989026612970881, ,0.4122030735015869
0.010343078647377092,0.02058520844562517,-0.08007492616529471, ,0.010538262591815933,0.020443641752404408,-0.08038126786271435, ,0.0003898501460485946, ,0.0010717746378145737,0.00020546434833068698,-0.0041259961006840755,-0.018778157184398805,-0.005774177492515611,0.019388082656091474, ,0.004267875384258274, ,0.019645872639343417, ,3.639175655778043e-05, ,0.20929378362435844,-0.2323152503224217,0.09248640263,1.7974621955493428,0.826104277581853,-1.142877007856094, ,0.0027337532049671763,0.008121194815548377,0.004167663924646782,-0.01581575403315671,0.0008493893980806209,0.00970566357352659, ,0.4306330680847168
0.010365695297872776,0.02059121539070705,-0.08017041887786558, ,0.01056832162560591,0.02044981377490805,-0.08048965405751785, ,0.00040368669233552555, ,0.0013446684210350922,0.0008044456535267518,-0.0051690227932680655,-0.004776844298129477,0.005906240871238557,-0.033095456096828235, ,0.005401301936508631, ,0.007596177919686061, ,3.698727317086658e-05, ,0.2093401200216038,-0.23214535019918875,0.09258362438,1.7970428156623737,0.8262409140816184,-1.1429067470196497, ,0.0023173908689211207,0.008147052735718485,0.005350625300638227,0.03622029449813705,0.0,0.005153616509894449, ,0.4520730972290039
0.010391692004303215,0.02060312913802331,-0.08027874202313647, ,0.010598564930923197,0.020455835861148235,-0.08059810064961913, ,0.00040802162870343914, ,0.0011717377448076348,0.0006514921763620941,-0.00452885386990502,-0.0010224191699510308,0.004508273044607039,-0.023585989378298724, ,0.004723127012205111, ,0.004622755119905178, ,3.7556427705569655e-05, ,0.20938645641884912,-0.23197545007595582,0.09269510532000001,1.7970428156623737,0.8263775505813838,-1.1430181649233462, ,0.0022257422176214926,0.0070670740433136205,0.004683567044986769,0.022878676623862185,0.0015265098278150876,-0.001244766407798166, ,0.47103214263916016
0.010418171563194856,0.020613245486825662,-0.08038477050694845, ,0.010628991379554286,0.020461709109660893,-0.08070660546862041, ,0.0004135045478932939, ,0.0015742117727760726,0.0007329548319420073,-0.006417057404449615,-0.006531523354460977,0.0002738584072795601,-0.00292017529612587, ,0.0066478561373735775, ,0.0065372612672155, ,3.810790637019764e-05, ,0.2094405155489687,-0.231774659021226,0.09280399368000002,1.7972525056058584,0.8265141870811493,-1.1431295828270427, ,0.002779271783030384,0.009642364135786521,0.006584874543199669,0.0,0.0031544141255226543,-0.0029359650199446193, ,0.48871803283691406
0.010434136594749923,0.020621265033642453,-0.08044786479007224, ,0.010659599846702813,0.02046743461618001,-0.080815166352028, ,0.00045761109332377744, ,0.001632978333991014,0.0008124578250027579,-0.006310781815162493,-0.005542404956948205,-0.0007108241765288978,-0.002522569887447922, ,0.006569069422321391, ,0.005587800435516882, ,3.882503239067743e-05, ,0.2094714064804656,-0.23168970895960952,0.09286880818000001,1.7972525056058584,0.8265141870811493,-1.143211261567183, ,0.0037587217093750357,0.008430717264847287,0.006509526571311812,0.0,0.0031544141255226543,-0.0026912994383426624, ,0.5072760581970215
0.010474107355804578,0.020636968766120527,-0.08061973057088508, ,0.010690389210985403,0.020473013473640136,-0.08092378114524151, ,0.00040756095320733203, ,0.001742878284941612,0.0007554626036592535,-0.00795034636032818,-0.006599563499642414,-0.0006748397914264517,0.02455201314929521, ,0.008174127214010812, ,0.006633974326620981, ,3.926376856299378e-05, ,0.20954863380920785,-0.23145030424050855,0.09304510362000001,1.79641374583192,0.8267874600806802,-1.1436791335949976, ,0.0019071646947465724,0.011073304327619235,0.008126944653061225,-0.03301913244192469,0.009020911557796362,-0.01167646472233978, ,0.5252470970153809
0.01050621518751247,0.020647678580206615,-0.08075262499524272, ,0.010721358354427207,0.020478446772179554,-0.08103244770154473, ,0.0003914418655182329, ,0.0014790422547226022,0.0005243577196889655,-0.005577747602342954,0.0070957420395934435,0.012063507897980276,-0.03987473085206445, ,0.005794289026696452, ,0.013995634051314819, ,3.960146165039239e-05, ,0.20960269293932743,-0.23123406772003027,0.09317991778000001,1.7959943659449509,0.8267874600806802,-1.143842491075279, ,0.00352656304969397,0.012306697128578755,0.005744252261089074,0.03280897955253901,0.0081944133919393,-0.013815744200250892, ,0.5454120635986328
0.01053840318591959,0.020651588723895317,-0.08086169716204232, ,0.010752506162457936,0.020483735599142915,-0.08114116388209484, ,0.00039002102977742163, ,0.00114267441825812,-5.1521641937751745e-05,-0.003616945770380081,-0.01310123615659159,0.005777443578466715,-0.013646243119281726, ,0.003793501813839009, ,0.014318562864831146, ,3.9910361804714256e-05, ,0.20971081119956655,-0.23097149480230664,0.09329010243000001,1.7959943659449509,0.8267874600806802,-1.1442508847759816, ,0.004655016132133493,0.012343562243257365,0.003660954153068261,0.018106695458300664,0.0067897480540890474,0.007313030834339668, ,0.5633959770202637
0.010549151027086846,0.020649553012455156,-0.0808971100135911, ,0.010783831523907297,0.02048888103908452,-0.08124992755591269, ,0.0004531783719293745, ,0.0010541891031154024,-0.00015240021536554136,-0.0037841592961416234,-0.009643669200291432,0.006294112620986189,-0.015328723367624366, ,0.003931208728793955, ,0.01151591110396105, ,4.045687395774144e-05, ,0.2097494248639377,-0.23084793107631904,0.09332510226000001,1.7959943659449509,0.8267874600806802,-1.1444142422562626, ,0.0031783847321227164,0.013691666651056237,0.0037835656817102143,0.015193327256393465,0.006330795235975722,0.0005241595087971283, ,0.5808711051940918
0.010565018409946968,0.020649011815604613,-0.08095747634369123, ,0.010815333331001006,0.020493884173770353,-0.08135873659987275, ,0.0004977267705822221, ,0.001531823503408921,0.00031058080061801044,-0.0054575036019263,0.0006519496455934208,-0.00047045281417005614,-0.02212786418710738, ,0.005676908423107338, ,0.0008039647687299182, ,4.130817813582887e-05, ,0.20979576126118302,-0.23067030822021187,0.09338602789000001,1.7959943659449509,0.8269240965804455,-1.1445256601599592, ,0.004265652366308537,0.01271224937152991,0.005536604629822733,0.01249812351603927,0.0006997914508350211,-0.013006964060905426, ,0.5980110168457031
0.010613147620340732,0.02066351109872276,-0.08114601179366687, ,0.01084701047935627,0.020498746082181763,-0.08146758889869307, ,0.000430408157427004, ,0.0020374159143285273,0.0006944231866534396,-0.007675958167875602,0.004283282267191555,-0.001273678161060272,-0.011085222924627611, ,0.007972052493874915, ,0.004468639210151017, ,4.1853548446547794e-05, ,0.2099116022542964,-0.23030733977512333,0.09357917510000001,1.7959943659449509,0.8271973695799765,-1.1449935321877738, ,0.005212893968336367,0.013203971275702069,0.007858318460779478,-0.0033812433324099432,0.004495360616756337,-0.021337409304673562, ,0.613455057144165
0.010634257520062198,0.020668806575705675,-0.0812238911767214, ,0.01087886186797766,0.02050346784051789,-0.0815764823449249, ,0.0004598790235135311, ,0.0020068393382800536,0.0006577087441699494,-0.007302541629460239,0.000898533926540993,-0.0037478910613504375,-0.0016716401176584848, ,0.0076017826311876174, ,0.003854092611506074, ,4.248100778635116e-05, ,0.20996566138441597,-0.23019149878200995,0.09365306363,1.7955749860579822,0.8271973695799765,-1.145075210927914, ,0.006219931130183708,0.011888867647014629,0.007517136158565362,-0.010625168888344352,0.004480927244990357,-0.01766724459459996, ,0.6293151378631592
0.010661654607455686,0.020671688917857336,-0.0813275576284152, ,0.010910886399252983,0.02050805052219852,-0.08168541483894308, ,0.0004657851368421654, ,0.0019424607505928208,0.0006521896911160523,-0.00664011685241265,0.0068066746706333964,0.0075075071984375555,-0.04832010041166343, ,0.006949075979904534, ,0.010133778737363956, ,4.309792383887024e-05, ,0.21005833417890665,-0.22997526226153167,0.09376324828,1.7949459162275283,0.827334006079742,-1.1453499863118919, ,0.005895597480700982,0.014148940145887995,0.006836399793991417,0.039545165146844266,0.004290107360993478,-0.0148151211783602, ,0.6475129127502441
0.010708525837086785,0.020683165284956378,-0.08149367521462852, ,0.010943082978948675,0.020512495197867305,-0.081794384288936, ,0.0004178172791978188, ,0.0018049106353444152,0.0004319421643241152,-0.006224474786799828,0.0014334471289677642,0.007727308690357093,-0.023364953545102943, ,0.006495256946911889, ,0.007859138688433279, ,4.351268031146212e-05, ,0.21020506610351694,-0.22964318474794002,0.09393306227,1.7949459162275283,0.8274706425795073,-1.1455430829557287, ,0.0061440549501695745,0.013791155581815255,0.006402255434083603,0.016747903963660864,0.010324835668971521,-0.012158968831196968, ,0.6636431217193604
0.010724460476259846,0.020685384441681144,-0.08155015178934452, ,0.010975450516205873,0.02051680293539407,-0.08190338861089495, ,0.00046496448951847827, ,0.0014476179702541342,0.00016211260204690924,-0.005316740059052566,0.0015454763314073272,0.007991565173197419,-0.021670758960085544, ,0.0055126765857502836, ,0.008139631856539037, ,4.407148075514938e-05, ,0.21025140250076227,-0.2295118982890782,0.09399009903000001,1.7949459162275283,0.8274706425795073,-1.1456247616958692, ,0.004160241421382873,0.014069227807037923,0.0054087645229202045,0.013665510045884522,0.009222439935955487,-0.0136521091163261, ,0.6803691387176514
0.010759596037653248,0.020693388992827112,-0.08168646490629103, ,0.011007987923535892,0.020520974799878165,-0.08201242572860454, ,0.0004446072880485343, ,0.0017397160652932661,0.0003276503440847335,-0.006309298724017272,0.004044866845947568,0.007788060722474265,-0.010647503795243188, ,0.006552954839208363, ,0.008775809228815826, ,4.453442947202859e-05, ,0.21035952076100142,-0.22920298897410923,0.09413139464,1.795155606171013,0.8280171885785692,-1.146478827011358, ,0.005679842702834817,0.013883970966857466,0.006472495538399026,0.0,0.01376766547520992,-0.01903770538127386, ,0.6968979835510254
0.010778243970213758,0.02069367939489559,-0.08175247148111353, ,0.01104069411681623,0.02052501185365075,-0.0821214935736329, ,0.00048322471344976696, ,0.0018987194478521196,0.0002547666935774873,-0.006653421421184737,0.004186177585280537,0.004305875089234635,-0.0032986543802661483, ,0.006923731524090762, ,0.006005383419996657, ,4.510414278480456e-05, ,0.21042130262399522,-0.22905625704949895,0.09419750543000001,1.794736226284044,0.8280171885785692,-1.146642184491639, ,0.006876919070855955,0.014862481058491899,0.00680718441025641,-0.010456638020607735,0.01376766547520992,-0.02306443003916433, ,0.7137601375579834
0.010843143422519096,0.020704019029611852,-0.08197242263538655, ,0.011073568015286032,0.020528915156278433,-0.08223059008532102, ,0.00038782378938615993, ,0.0021746337879121644,0.00066610570592343,-0.007220026754036142,0.009868764417034721,0.00973348016019428,-0.035225468585187755, ,0.007569776433421969, ,0.013861209454014135, ,4.533821677796212e-05, ,0.21064526187734772,-0.22861606127566816,0.09442046731,1.7941071564535904,0.8280171885785692,-1.146642184491639, ,0.007953716440369,0.014321904853376212,0.007481827862846407,0.024090728749151382,0.012408016633436984,-0.021013224865921096, ,0.7357110977172852
0.010863612823405266,0.020709087384514362,-0.08204011641551327, ,0.011106608541542069,0.020532685764565458,-0.08233971321077316, ,0.00042417294855213436, ,0.001804668654906735,0.00016311849523356647,-0.006419574630865493,-0.0036252125713954306,-0.003532064248946012,0.0051948658106593226, ,0.006670410410067882, ,0.005061386484339677, ,4.582275068842187e-05, ,0.21072248920608996,-0.2284693293510579,0.09449046697,1.794316846397075,0.8281538250783346,-1.1468352811354758, ,0.00587348645336877,0.014536908939716727,0.00650155572244898,-0.017116940274613964,0.006190620848963679,-0.016235952018200193, ,0.749798059463501
0.010879468359053731,0.02071074667387144,-0.08209987235647187, ,0.011139814621534246,0.020536324732556815,-0.0824488609048464, ,0.00046903752184244307, ,0.0015717381817923915,1.2442573479472772e-05,-0.005659157618416823,-0.0062054928601238,-0.0020363972606358745,0.004399940851659433, ,0.005873378983159865, ,0.006531083343194386, ,4.642931636877159e-05, ,0.21076882560333532,-0.22832259742644762,0.0945513926,1.794316846397075,0.8282904615780999,-1.1470283777793129, ,0.004962043422016468,0.014413265728807835,0.005701077852541161,-0.013644133858786213,0.006068883372383778,-0.012012983691040795, ,0.763761043548584
0.010901337250134983,0.020711087384283143,-0.08217394084454935, ,0.011173185184561478,0.020539833111541048,-0.08255803113014092, ,0.0005007541041970481, ,0.00180264268965369,0.00011245187915983419,-0.005653547919600496,-0.0018465080797836358,-0.0016128212877212522,-0.009818707466264858, ,0.005935045928289651, ,0.002451688972753879, ,4.71108446079876e-05, ,0.21085377566495178,-0.22813725183746625,0.09462657742000001,1.7941071564535904,0.8284270980778654,-1.1474665106435715, ,0.00743470041344136,0.014358744372593551,0.005748398238902924,0.0,0.0058227852954132325,-0.01396822765949493, ,0.7775330543518066
0.010942483109940131,0.020713439795614068,-0.08231346131217503, ,0.011206719163267483,0.0205432119500532,-0.08266722185698969, ,0.0004732279940471345, ,0.0022014193056648476,0.0004079511926388566,-0.007486822315897003,0.01557510556878263,-0.007581476177730308,-0.005656934426119355, ,0.007814421253345812, ,0.017322317136846642, ,4.7684829326057514e-05, ,0.2110082303224363,-0.22782834252249726,0.09476787303,1.793478086623137,0.8285637345776309,-1.1480680009881115, ,0.00777698803974002,0.014204002628120159,0.00763239651173934,-0.02186034031481794,0.0044872429597633875,-0.04134683556874244, ,0.791499137878418
0.010964947065128216,0.020719781827439773,-0.08239083825809433, ,0.011240415493636356,0.020546462293877514,-0.08277643106344876, ,0.0005045833205329712, ,0.0023211866298568622,0.000550631156836086,-0.008357369704650485,0.0007697494568095006,-0.007149810731365014,0.004726338725192536, ,0.008691186939751938, ,0.007191124178451505, ,4.833120312658007e-05, ,0.2110777349183043,-0.22768933333076122,0.09484694672,1.793478086623137,0.8285637345776309,-1.148149679728252, ,0.006975050953125846,0.014881126165668931,0.008522638587479937,-0.02186034031481794,0.0044872429597633875,-0.02371346625480975, ,0.804772138595581
0.010991533927594374,0.0207292630752227,-0.08248434014306516, ,0.011274273114988395,0.020549585186050427,-0.082885656735287, ,0.0005227624691369739, ,0.002515938645346432,0.0005416801306021402,-0.008452566154225795,0.0043509758077654075,-0.008717289299218186,0.0004570231653748944, ,0.008835679895888049, ,0.009742796316242577, ,4.900787536604954e-05, ,0.21115496224704655,-0.22754260140615096,0.09494287218000001,1.793478086623137,0.8285637345776309,-1.1483947159486736, ,0.00791855782045363,0.013403522818993048,0.009918313524283935,-0.02186034031481794,0.0044872429597633875,-0.02790520031014861, ,0.8194141387939453
0.011042519003277185,0.020743567233506142,-0.08265713244376188, ,0.011308290969975881,0.020552581666863398,-0.08299489686597589, ,0.00047031375682867626, ,0.0023964995451310933,0.0004988562797567466,-0.007806819979596701,-0.010100629987237358,-0.005877796099973132,0.008184257497778723, ,0.008181595556582866, ,0.01168636744817449, ,4.9511493950713476e-05, ,0.2113325851031537,-0.2272491375569304,0.09512046391000001,1.793268396679652,0.8287003710773962,-1.1491595637734946, ,0.00923940310096645,0.014559211653646943,0.008004427899497488,-0.01457432818848116,0.0068306551185525685,-0.0074227938036695185, ,0.8329119682312012
0.011065484676248573,0.020747518337781864,-0.08273280182948455, ,0.011342468004578722,0.02055545277386581,-0.08310414945667972, ,0.0005015057379918287, ,0.0024857976801389366,0.00044073533804596886,-0.007859601918447253,0.01149642180373132,-0.0059284853616466135,-0.014383626619356922, ,0.008255106302237808, ,0.012935015383862207, ,5.008575455264479e-05, ,0.2114252578976444,-0.22710240563232015,0.09519824131000001,1.7930587067361679,0.8288370075771617,-1.1494343391574722, ,0.009933614099061185,0.01580298776993685,0.008044854303030305,-0.00856249413981964,0.005483818981642487,-0.034616266101243263, ,0.846411943435669
0.011115968625011026,0.02075429734196675,-0.08288959250623727, ,0.011376803168100151,0.020558199541867602,-0.08321341251624556, ,0.0004597264457848893, ,0.002443110164378312,0.0003139072444490544,-0.007716478008426847,-0.0003470417820069763,-0.0128269326945303,0.015166022791046542, ,0.008100083819809607, ,0.012831625500682252, ,5.0525566482117225e-05, ,0.21163377168524847,-0.2268012190502254,0.09535768498000001,1.7924296369057142,0.8288370075771617,-1.1498427328581748, ,0.01013608345046047,0.014855501183229614,0.007866079762962965,-0.03378759087214415,0.004602166737270442,-0.02531878054083861, ,0.8603510856628418
0.011139775062446613,0.02075810272489591,-0.08297054520619855, ,0.011411295413162673,0.020560823002942027,-0.08332268406119267, ,0.0004864610598431726, ,0.0024678161000702,0.0002597909406381087,-0.008475238913687858,-0.005670054989944693,-0.014113639317972814,0.015501051560224284, ,0.008831040837901965, ,0.015210006399039131, ,5.116271424078912e-05, ,0.21171872174686493,-0.22662359619411823,0.09544064754,1.7924296369057142,0.8289736440769272,-1.1498724720217308, ,0.008261966007180113,0.017370847804955295,0.008568483873050026,-0.03378759087214415,0.0013365125756888373,-0.02244098589158986, ,0.8717749118804932
0.011166738075035234,0.02076391630812766,-0.08305997051795912, ,0.011445943695703597,0.020563324186429394,-0.08343196211570325, ,0.0005065281104661925, ,0.002723355109926294,0.0004536580614422413,-0.009106797467684592,-0.0028559789034688083,-0.010150474508021565,0.011543122799148356, ,0.009516103656901795, ,0.01054460457288103, ,5.1836678056010214e-05, ,0.21181911727422986,-0.2264459733380111,0.09553268413,1.7924296369057142,0.8291102805766927,-1.1501472474057082, ,0.009901175454640313,0.017294868153539415,0.009287936746355686,-0.029082322300818617,0.006087789125666221,-0.023658691268028883, ,0.8826889991760254
0.011166738075035234,0.02076391630812766,-0.08305997051795912, ,0.011480746974970837,0.020565704118938963,-0.08354124471161205, ,0.0006078770522548301, ,0.002723355109926294,0.0004536580614422413,-0.009106797467684592,-0.0028559789034688083,-0.010150474508021565,0.011543122799148356, ,0.009516103656901795, ,0.01054460457288103, ,5.276159493127488e-05, ,0.21181911727422986,-0.2264459733380111,0.09553268413,1.7924296369057142,0.8291102805766927,-1.1501472474057082, ,0.009901175454640313,0.017294868153539415,0.009287936746355686,-0.029082322300818617,0.006087789125666221,-0.023658691268028883, ,0.8940911293029785
0.011211162025817026,0.020774245316741283,-0.0832081679002888, ,0.011515704213518677,0.020567963824351904,-0.083650529888396, ,0.0005753104611552334, ,0.003157899661565219,0.0007727055180450409,-0.01021167172403543,0.011415177292932406,-1.2965377792399315e-05,-0.015767417849449523, ,0.01071669928147635, ,0.011415179792227576, ,5.357704646661221e-05, ,0.2119890173974628,-0.22617567768741323,0.09568564635000001,1.7922199469622295,0.8293835535762235,-1.1505334406933823, ,0.012290757875724747,0.018502035788354607,0.010534928253968255,-0.006039917709328495,0.013560751299290845,-0.03546487926156146, ,0.9053170680999756
0.011280705539662692,0.020783621450219593,-0.0834346763465812, ,0.011550814377203435,0.02057010432382451,-0.08375981569316428, ,0.0004735651402691076, ,0.003118323576472998,0.00022308109875782177,-0.010150651065576029,-0.014278310149404567,-0.01663022053173308,0.05219412258211233, ,0.010621178096580912, ,0.021918810822982852, ,5.4108519096937904e-05, ,0.21225931304806064,-0.22575092737933086,0.09591638597,1.791171497244807,0.829520190075989,-1.1508898948175004, ,0.012898863879090767,0.019598707467672612,0.010329968560311285,-0.06920937475027648,0.011889844294566524,-0.02130460636236812, ,0.916579008102417
0.01130644841105272,0.02078918818861891,-0.0835148955924539, ,0.011586076435179306,0.020572126635791277,-0.0838691001806493, ,0.0005007678502974795, ,0.0031208293904417457,0.00044514150533894487,-0.010109722556998171,-0.009074621362263861,-0.011486854529211962,0.038759807706419555, ,0.010589816675632212, ,0.014638868611880036, ,5.4695828420439924e-05, ,0.2123674313082998,-0.22559647272184638,0.09599934853000001,1.791171497244807,0.8296568265757545,-1.1510829914613374, ,0.012886602601639159,0.018096289389487184,0.01035683453836151,-0.05457525745490708,0.013821802084874556,-0.02181814458224464, ,0.9278230667114258
0.011317380050984276,0.020790679350756573,-0.08355245957334934, ,0.011621489359893948,0.020574031775966707,-0.08397838141319454, ,0.000566416858051534, ,0.003117350606773511,0.0007740530546819816,-0.009844693768840378,0.008533831842341407,0.0034293499966594754,-0.030564106028242825, ,0.010355434724783806, ,0.009197099262309653, ,5.5433706798146055e-05, ,0.21241376770554513,-0.22552696812597836,0.09603823723,1.7909618073013225,0.8297934630755199,-1.151357766845315, ,0.012205394412665051,0.018896244834422697,0.010171654865900383,0.014137693751409247,0.012499745955402833,-0.02742341131914114, ,0.939755916595459
0.011381976290850592,0.02080103626311785,-0.08375024434362507, ,0.01165705212708437,0.020575820757349237,-0.08408765746074655, ,0.0004901391142563031, ,0.002946150639584356,0.000438068404943162,-0.009099176670399792,0.03377037916596751,0.012998866688225332,-0.03352337685327334, ,0.009574274050688156, ,0.036185756615227445, ,5.5963484360995735e-05, ,0.212684063356143,-0.22509449508502177,0.09624175476,1.791171497244807,0.8300667360750507,-1.1519889963534105, ,0.01324859962144881,0.01973730065691988,0.009436499715639812,0.0,0.02626025712064612,-0.06063696753728668, ,0.9509420394897461
0.011412635206391582,0.020801998248868376,-0.08384120339331987, ,0.011692763715772584,0.0205774945902238,-0.08419692640084361, ,0.000505383747853612, ,0.002890645183122642,4.3531131893677e-05,-0.008807062915040957,0.017087700876764814,0.006166703873761452,-0.023305724948395227, ,0.009269416471582437, ,0.01816638943035026, ,5.651770137831424e-05, ,0.2128153498150048,-0.2248782585645435,0.09633379135,1.7909618073013225,0.8300667360750507,-1.1521523538336917, ,0.012934025018191466,0.02296078915036796,0.009014607538200341,-0.004048620246645082,0.02001482554698492,-0.04611623770758781, ,0.9622490406036377
0.011443234231051935,0.020800749514250736,-0.0839286801991568, ,0.011728623108261355,0.020579054282164444,-0.08430618631860663, ,0.0005225958834383643, ,0.0029551638685485953,-2.6812110045047537e-05,-0.008637733345771273,0.016363997482509534,-0.0005447987572174205,-0.016318789575582065, ,0.009129301711076765, ,0.01637306236504411, ,5.723917358737777e-05, ,0.21295435900674087,-0.22464657657831677,0.09642193907,1.7907521173578382,0.8300667360750507,-1.1523157113139728, ,0.013967757073663642,0.02253013807181168,0.008819939933554817,-0.013431543216951532,0.01620396546569439,-0.04789156418736891, ,0.9721031188964844
0.011465482758793971,0.020798699915109235,-0.08399511207805735, ,0.011764629290129941,0.02058050083803725,-0.08441543530672811, ,0.0005601527479229428, ,0.003091340632678363,-0.00026545244125279646,-0.008968180024041646,-0.01469515656160931,-0.02299846220176596,0.02254282078452359, ,0.009489736816658033, ,0.027292431771532667, ,5.8037236367072786e-05, ,0.21306247726698,-0.22447667645508382,0.09648934615000002,1.790332737470869,0.8302033725748161,-1.1525904866979504, ,0.014042163592552647,0.023647381400067474,0.008999328542372884,-0.042251746518203244,0.0,-0.02133736383316446, ,0.9845890998840332
0.011506946260668227,0.020797915693939472,-0.08412398323107553, ,0.01180078125022976,0.02058183526000332,-0.08452467146546251, ,0.0005418309848991804, ,0.003193657494211416,0.00044707769753035687,-0.009538737425389044,0.007856341596170964,0.0038965548862054827,-0.038694111777709844, ,0.010069103154128444, ,0.008769558956317713, ,5.877633431320855e-05, ,0.2132555455888356,-0.22415232167436638,0.09662156773000001,1.7899133575839,0.8306132820741124,-1.1531697766294613, ,0.013556705936924398,0.022069056176388553,0.00981442484288355,0.02129647534519987,0.012729758501463484,-0.02854459948641272, ,0.9934589862823486
0.011542367996716017,0.020802775366465662,-0.0842312070477741, ,0.011837077980680275,0.020583058547521568,-0.08463389290261701, ,0.0005452388035216186, ,0.0035197383518034155,0.00021241052049038366,-0.010920318664740922,0.023840536582336598,0.013141671865358652,-0.019514073759256203, ,0.011475497202032676, ,0.027222684817054033, ,5.950951035639717e-05, ,0.21340227751344587,-0.22390519422239122,0.09673175238000001,1.7901230475273844,0.8307499185738779,-1.1533628732732983, ,0.015787213701292758,0.025942302230309123,0.01125711061484099,-0.012828104076484631,0.03211803147810002,-0.05791982052383575, ,1.0022120475769043
0.01158126263714385,0.020807048168849665,-0.0843456883053044, ,0.011873518476864601,0.020584171697351834,-0.08474309773353994, ,0.0005413147430550068, ,0.003681390123984035,0.0005456332509995243,-0.011671483836871525,-0.009285708279971487,0.006467823892976149,0.0028197025765065364, ,0.01225046463787871, ,0.011316223203228722, ,6.021976024311712e-05, ,0.2135644549038046,-0.2236503440375418,0.09684841848,1.7901230475273844,0.8307499185738779,-1.1535262307535794, ,0.015202970451533286,0.024128385852649575,0.012039918004535148,-0.011244062458114198,0.025052723105735027,-0.015498236317181158, ,1.0113699436187744
0.011607019220799476,0.02081030216586712,-0.08442641360199676, ,0.011910101737425282,0.020585175703556807,-0.08485228408111155, ,0.0005691279301686444, ,0.004095236821379294,0.000664909837891838,-0.01248568819156293,-0.019077321273115552,-0.011241753314117786,-0.0028692099956246792, ,0.01315695554954261, ,0.02214319085182655, ,6.098135859392031e-05, ,0.21367257316404373,-0.22348816664718307,0.09693138104000001,1.7899133575839,0.8308865550736434,-1.153801006137557, ,0.016489477247345053,0.02515158800913617,0.01279422612048193,-0.005071440245129448,0.0065458348946295505,-0.006802645881715072, ,1.0221970081329346
0.011659908605863798,0.020814517279161227,-0.08460210910061261, ,0.01194682676425997,0.020586071557506292,-0.08496145007573433, ,0.0005134543930684813, ,0.0037892987910134405,0.00030607632238234853,-0.012523423659087094,-0.002385908580173179,-0.01765430528788507,0.059392133507520165, ,0.013087727388193927, ,0.01781479011678049, ,6.160096539551295e-05, ,0.213888809684522,-0.2231483664007172,0.09711156535000001,1.7888649078664773,0.8312964645729397,-1.1544619748092084, ,0.015031988208216501,0.02275706032577237,0.0127737061106656,-0.09056247664691836,0.017299112888455873,-0.04451609218264228, ,1.0313639640808105
0.011659908605863798,0.020814517279161227,-0.08460210910061261, ,0.011983692562517278,0.020586860247878744,-0.08507059385532212, ,0.0006133039539035795, ,0.0037892987910134405,0.00030607632238234853,-0.012523423659087094,-0.002385908580173179,-0.01765430528788507,0.059392133507520165, ,0.013087727388193927, ,0.01781479011678049, ,6.243672870376245e-05, ,0.213888809684522,-0.2231483664007172,0.09711156535000001,1.7888649078664773,0.8312964645729397,-1.1544619748092084, ,0.015031988208216501,0.02275706032577237,0.0127737061106656,-0.09056247664691836,0.017299112888455873,-0.04451609218264228, ,1.040419101715088
0.01169812683193937,0.020822274748818138,-0.08472296164974491, ,0.01202069814059242,0.020587542760665396,-0.08517971356529083, ,0.0006064434580265083, ,0.003793726667994091,0.0003354747019263532,-0.012663475644421862,0.02052087114726071,0.009666384014807319,0.01888583269826379, ,0.013223786171288002, ,0.022683580116552714, ,6.32419127742172e-05, ,0.2140355416091323,-0.22291668441449047,0.09723600919000001,1.7888649078664773,0.8314331010727051,-1.154736750193186, ,0.015518714891000946,0.02568252816196773,0.013045709680589684,-0.05487211467982706,0.03778516248865556,-0.06319262154717546, ,1.0498130321502686
0.011740862513327118,0.02082773817885144,-0.08485268450380627, ,0.012057842510122985,0.020588120079171646,-0.08528880735854755, ,0.0005899968614243146, ,0.003823532864664852,0.0005512960622476364,-0.011783541294500405,0.02378436222291508,0.009533299071800049,-0.03126257388907757, ,0.012400611934683637, ,0.025623806320655838, ,6.413938166009538e-05, ,0.21420544173236522,-0.22265411149676684,0.09736823077000001,1.7886552179229929,0.8314331010727051,-1.1549817864136078, ,0.016227247188520994,0.02497287935749231,0.012177990458715598,0.0,0.02583890396525956,-0.05469462943154261, ,1.0567779541015625
0.011740862513327118,0.02082773817885144,-0.08485268450380627, ,0.012095124685984629,0.020588593184021304,-0.08539787339548148, ,0.0006927647097928466, ,0.003823532864664852,0.0005512960622476364,-0.011783541294500405,0.02378436222291508,0.009533299071800049,-0.03126257388907757, ,0.012400611934683637, ,0.025623806320655838, ,6.525373926546856e-05, ,0.21420544173236522,-0.22265411149676684,0.09736823077000001,1.7886552179229929,0.8314331010727051,-1.1549817864136078, ,0.016227247188520994,0.02497287935749231,0.012177990458715598,0.0,0.02583890396525956,-0.05469462943154261, ,1.0648019313812256
0.011794693234719772,0.020834151863000902,-0.08500927769601674, ,0.0121325436862868,0.020588963053158153,-0.08550690984395293, ,0.0006495369387153699, ,0.003984315946501363,3.0797139862876756e-05,-0.011188559754251657,-0.015012052108132131,-0.019929234419472076,-0.00430255375119712, ,0.011876851072562486, ,0.024950669684551795, ,6.625766785157247e-05, ,0.21443712371859197,-0.22229886578455252,0.09752897073000001,1.7888649078664773,0.8315697375724705,-1.1551748830574446, ,0.017932150710217455,0.027886259641043427,0.011345307350427351,-0.013145496186328688,0.0005424773887194645,-0.018525043176743673, ,1.0739989280700684
0.011794693234719772,0.020834151863000902,-0.08500927769601674, ,0.012170098532368627,0.02058923066185048,-0.08561591487928392, ,0.0007542706439986491, ,0.003984315946501363,3.0797139862876756e-05,-0.011188559754251657,-0.015012052108132131,-0.019929234419472076,-0.00430255375119712, ,0.011876851072562486, ,0.024950669684551795, ,6.747854178661407e-05, ,0.21443712371859197,-0.22229886578455252,0.09752897073000001,1.7888649078664773,0.8315697375724705,-1.1551748830574446, ,0.017932150710217455,0.027886259641043427,0.011345307350427351,-0.013145496186328688,0.0005424773887194645,-0.018525043176743673, ,1.0805809497833252
0.011866771695769648,0.020836331720853758,-0.08523510734666447, ,0.01220778824879443,0.02058939698269174,-0.08572488668424785, ,0.0006458737135630078, ,0.0040594128841086215,0.0003924022525930125,-0.01313070837709322,0.03938665476196587,0.03199734524645861,-0.005418186777472436, ,0.013749484171261598, ,0.05074582037785381, ,6.844674721937207e-05, ,0.21476920123218363,-0.2217891654148537,0.09776230293,1.7880261480925392,0.8323895565710632,-1.1563334629204665, ,0.018305737183346986,0.027796409361004918,0.013684545979381443,-0.03454350736032749,0.059013075244832555,-0.07972777688700863, ,1.087165117263794
0.011866771695769648,0.020836331720853758,-0.08523510734666447, ,0.012245611863349557,0.020589462985605735,-0.0858338234490594, ,0.0007502832906855373, ,0.0046405148762511395,0.0004449059769466633,-0.014726459643940459,-0.0019311380561939653,-0.011278753747820136,0.026040992726189666, ,0.015446712701725178, ,0.011442853126788896, ,6.96288362628155e-05, ,0.21496999228691346,-0.22148025609988473,0.09791526515000001,1.7876067682055703,0.8325261930708286,-1.1568532745248656, ,0.018491220101027044,0.029127360822121175,0.015069831144749293,-0.05582979384428727,0.0194729237231379,-0.04352466847837753, ,1.0940029621124268
0.011915628319308494,0.020840711637871035,-0.08538477852334089, ,0.012283568407036188,0.020589429637847604,-0.08594272337136491, ,0.00071402031142635, ,0.0046405148762511395,0.0004449059769466633,-0.014726459643940459,-0.0019311380561939653,-0.011278753747820136,0.026040992726189666, ,0.015446712701725178, ,0.011442853126788896, ,7.071748669953512e-05, ,0.21496999228691346,-0.22148025609988473,0.09791526515000001,1.7876067682055703,0.8325261930708286,-1.1568532745248656, ,0.018491220101027044,0.029127360822121175,0.015069831144749293,-0.05582979384428727,0.0194729237231379,-0.04352466847837753, ,1.1010849475860596
0.011948670121736098,0.020845816379283674,-0.08548767368293246, ,0.012321656914068899,0.020589297904007275,-0.08605158465623153, ,0.0007231296296100315, ,0.005111377052099305,0.001179425726111517,-0.016196399703311957,0.01948495236241207,0.0017762036879369007,-0.05623401705577239, ,0.017024705100576184, ,0.019565713725156995, ,7.181165622739685e-05, ,0.21509355601290103,-0.2212871877780291,0.09802026464000001,1.7873970782620854,0.8325261930708286,-1.1569349532650064, ,0.018484016665070272,0.030582320837405984,0.016696867421383647,0.02333471909517413,0.014720227133113306,-0.052415500282084276, ,1.1085479259490967
0.012019506101965293,0.020860939805725037,-0.08570814479440503, ,0.012359876421870595,0.020589068746013347,-0.08616040551613818, ,0.0006279375671225519, ,0.0055303185349895485,0.0010502775942845672,-0.01703887279586071,-0.004499945301190274,-0.023244799796158545,-0.01360653498863316, ,0.017944656371104668, ,0.02367633394578461, ,7.268932133046146e-05, ,0.21535612893062467,-0.22087016020282096,0.09824711539000001,1.7876067682055703,0.8326628295705941,-1.1572914073891245, ,0.020665710269701827,0.030991816315633827,0.017446671982475355,-0.01519832848507271,0.0,-0.03604634805289159, ,1.1154630184173584
0.012019506101965293,0.020860939805725037,-0.08570814479440503, ,0.012398225971068075,0.020588743123133944,-0.08626918417096435, ,0.0007295786148982855, ,0.0055303185349895485,0.0010502775942845672,-0.01703887279586071,-0.004499945301190274,-0.023244799796158545,-0.01360653498863316, ,0.017944656371104668, ,0.02367633394578461, ,7.392703313604909e-05, ,0.21535612893062467,-0.22087016020282096,0.09824711539000001,1.7876067682055703,0.8326628295705941,-1.1572914073891245, ,0.020665710269701827,0.030991816315633827,0.017446671982475355,-0.01519832848507271,0.0,-0.03604634805289159, ,1.1199181079864502
0.012070041608032139,0.02086933240905665,-0.08587222590012422, ,0.012436704605487826,0.02058832199198161,-0.08637791884798114, ,0.0006849335483972871, ,0.005648087936305266,0.0008937352522604225,-0.017601768332656278,0.0046698129038318876,-0.011053704987206836,-0.0035191924804441853, ,0.018507347418630027, ,0.011999577363820908, ,7.506011221226256e-05, ,0.2155569199853545,-0.22056897362072622,0.09841692938,1.7871873883186011,0.8330727390698903,-1.157952376060776, ,0.02198215000196219,0.03309973545813421,0.018080376299659483,-0.030649975771270096,0.017391480887283907,-0.05050019612449926, ,1.124506950378418
0.012070041608032139,0.02086933240905665,-0.08587222590012422, ,0.012475311372151828,0.02058780630651464,-0.08648660778184042, ,0.0007880137211389522, ,0.005648087936305266,0.0008937352522604225,-0.017601768332656278,0.0046698129038318876,-0.011053704987206836,-0.0035191924804441853, ,0.018507347418630027, ,0.011999577363820908, ,7.640022460031808e-05, ,0.2155569199853545,-0.22056897362072622,0.09841692938,1.7871873883186011,0.8330727390698903,-1.157952376060776, ,0.02198215000196219,0.03309973545813421,0.018080376299659483,-0.030649975771270096,0.017391480887283907,-0.05050019612449926, ,1.1290080547332764
0.012070041608032139,0.02086933240905665,-0.08587222590012422, ,0.012514045321273136,0.02058719701804083,-0.08659524921456536, ,0.0008941489749817417, ,0.005648087936305266,0.0008937352522604225,-0.017601768332656278,0.0046698129038318876,-0.011053704987206836,-0.0035191924804441853, ,0.018507347418630027, ,0.011999577363820908, ,7.795116293877227e-05, ,0.2155569199853545,-0.22056897362072622,0.09841692938,1.7871873883186011,0.8330727390698903,-1.157952376060776, ,0.02198215000196219,0.03309973545813421,0.018080376299659483,-0.030649975771270096,0.017391480887283907,-0.05050019612449926, ,1.1333820819854736
0.012130206474859658,0.020874183973833605,-0.08606398176588931, ,0.012552905506251773,0.020586495075219625,-0.08670384139553973, ,0.0008190602659035119, ,0.00597029739512201,0.00026797873326915556,-0.01905648132098717,0.031038711800442736,0.010518583461044489,0.03979675174981597, ,0.01997162346743044, ,0.032772545142785714, ,7.933274198049303e-05, ,0.2158040474373297,-0.2201905597098892,0.09861396546000001,1.7863486285446628,0.8334826485691867,-1.1586950234725681, ,0.025836357625502526,0.03906831682110777,0.01964095131935882,-0.09729573770547008,0.0581959938237529,-0.09967566384426658, ,1.139686107635498
0.012130206474859658,0.020874183973833605,-0.08606398176588931, ,0.012591890983670306,0.020585701424065947,-0.08681238258149854, ,0.0009254612622907231, ,0.00597029739512201,0.00026797873326915556,-0.01905648132098717,0.031038711800442736,0.010518583461044489,0.03979675174981597, ,0.01997162346743044, ,0.032772545142785714, ,8.092360459113564e-05, ,0.2158040474373297,-0.2201905597098892,0.09861396546000001,1.7863486285446628,0.8334826485691867,-1.1586950234725681, ,0.025836357625502526,0.03906831682110777,0.01964095131935882,-0.09729573770547008,0.0581959938237529,-0.09967566384426658, ,1.1444871425628662
0.012171630112417998,0.020880496885087682,-0.08619310739145467, ,0.01263100081328971,0.020584817007951797,-0.08692087103651723, ,0.0009099933810952755, ,0.0065851334606792595,0.0010966859546808724,-0.020670842076703454,0.023703129336488726,-0.005756082409372011,0.008162869418640098, ,0.0217221181043232, ,0.024391946440204874, ,8.246936114467491e-05, ,0.21597394756056265,-0.21994343225791405,0.09874748333000001,1.7861389386011783,0.8337559215687176,-1.159081216760242, ,0.02635294128255229,0.036484791064387075,0.021323710200803217,-0.05951734655951355,0.033370345904910025,-0.08263427846875421, ,1.1496961116790771
0.012268820107437338,0.02090158127404248,-0.08648749492202194, ,0.012670234058045064,0.020583842767610605,-0.0870293050320026, ,0.0007454187504277761, ,0.007324111749270285,0.0012843008923677057,-0.02216299223477386,-0.011614173254098572,-0.018001622230325774,-0.014578841883835236, ,0.023377131271748935, ,0.02142293341044125, ,8.366376449475398e-05, ,0.21635236147139963,-0.21944145462108944,0.09905081519000002,1.785929248657694,0.8338925580684831,-1.1595193496245009, ,0.028635166432851772,0.04120579312135075,0.022787999313304726,-0.01316166687241844,0.013348157012148894,-0.03637902365703753, ,1.154892921447754
0.012268820107437338,0.02090158127404248,-0.08648749492202194, ,0.01270958978404122,0.02058277964113833,-0.08713768284668179, ,0.0008477362362960066, ,0.007324111749270285,0.0012843008923677057,-0.02216299223477386,-0.011614173254098572,-0.018001622230325774,-0.014578841883835236, ,0.023377131271748935, ,0.02142293341044125, ,8.505804463267712e-05, ,0.21635236147139963,-0.21944145462108944,0.09905081519000002,1.785929248657694,0.8338925580684831,-1.1595193496245009, ,0.028635166432851772,0.04120579312135075,0.022787999313304726,-0.01316166687241844,0.013348157012148894,-0.03637902365703753, ,1.1596910953521729
0.012344824468031566,0.02091340717920397,-0.08672354569032208, ,0.012749067060548609,0.02058162856399798,-0.08724600276659275, ,0.000739222916080261, ,0.007576248328225374,0.0013252803983830241,-0.02291481299490902,0.010817767168656157,-0.005155732883265849,-0.03969780423696499, ,0.02417115143010211, ,0.011983294624194694, ,8.6219487136381e-05, ,0.2166535480534944,-0.21898581338151019,0.09929451771000002,1.7857195587142094,0.8343024675677794,-1.160425354516574, ,0.03000219461222598,0.04355068451513115,0.02363325151335312,0.0,0.024694169235063977,-0.0614334184023059, ,1.164428949356079
0.012344824468031566,0.02091340717920397,-0.08672354569032208, ,0.012788664959999013,0.0205803904690214,-0.08735426308507419, ,0.0008400588929435931, ,0.007576248328225374,0.0013252803983830241,-0.02291481299490902,0.010817767168656157,-0.005155732883265849,-0.03969780423696499, ,0.02417115143010211, ,0.011983294624194694, ,8.757643819059002e-05, ,0.2166535480534944,-0.21898581338151019,0.09929451771000002,1.7857195587142094,0.8343024675677794,-1.160425354516574, ,0.03000219461222598,0.04355068451513115,0.02363325151335312,0.0,0.024694169235063977,-0.0614334184023059, ,1.1689250469207764
0.012344824468031566,0.02091340717920397,-0.08672354569032208, ,0.012828382557981065,0.020579066286412488,-0.08746246210275527, ,0.0009442508795396228, ,0.007576248328225374,0.0013252803983830241,-0.02291481299490902,0.010817767168656157,-0.005155732883265849,-0.03969780423696499, ,0.02417115143010211, ,0.011983294624194694, ,8.913331673949375e-05, ,0.2166535480534944,-0.21898581338151019,0.09929451771000002,1.7857195587142094,0.8343024675677794,-1.160425354516574, ,0.03000219461222598,0.04355068451513115,0.02363325151335312,0.0,0.024694169235063977,-0.0614334184023059, ,1.173382043838501
0.012415125677070135,0.020918245476060745,-0.08694998479691149, ,0.012868218933236369,0.020577656943750196,-0.08757059812754599, ,0.0008405087467040537, ,0.007369575413759157,0.00015360693661053883,-0.023428404699882364,0.053945711093137984,0.02230405194907327,0.051997635567053994, ,0.024560626695007772, ,0.05837468132822901, ,9.046848229035074e-05, ,0.21695473463558915,-0.21853789487480518,0.09952914620000002,1.7846711089967866,0.835122286566372,-1.1616656131197365, ,0.03251008617967481,0.04821999062930426,0.0242079202431611,-0.13282533481589218,0.08438093151034241,-0.14361764164499238, ,1.1777780055999756
0.012415125677070135,0.020918245476060745,-0.08694998479691149, ,0.01290817316765478,0.02057616336599079,-0.0876786694746261, ,0.000943979532372274, ,0.007369575413759157,0.00015360693661053883,-0.023428404699882364,0.053945711093137984,0.02230405194907327,0.051997635567053994, ,0.024560626695007772, ,0.05837468132822901, ,9.200069628190008e-05, ,0.21695473463558915,-0.21853789487480518,0.09952914620000002,1.7846711089967866,0.835122286566372,-1.1616656131197365, ,0.03251008617967481,0.04821999062930426,0.0242079202431611,-0.13282533481589218,0.08438093151034241,-0.14361764164499238, ,1.1841120719909668
0.01247278496803923,0.020920926945143546,-0.0871263443686024, ,0.012948244346270569,0.020574586475471408,-0.08778667446643676, ,0.0008843354450584876, ,0.007773414669095634,0.00039893525185246727,-0.023360910122706843,0.011095452235795968,-0.0029254947104868888,0.022951796365776454, ,0.024623510040489124, ,0.011474346264112931, ,9.358854146982912e-05, ,0.21720186208756434,-0.2181672036968424,0.09971062680000001,1.7840420391663332,0.8355321960656683,-1.1622449030512474, ,0.033556202814169295,0.04909308926977277,0.02402535674208145,-0.07500847669803479,0.047192094996774916,-0.08372063451857176, ,1.189743995666504
0.01247278496803923,0.020920926945143546,-0.0871263443686024, ,0.012988431557257846,0.020572927191912577,-0.08789461143266858, ,0.0009885491970309242, ,0.007773414669095634,0.00039893525185246727,-0.023360910122706843,0.011095452235795968,-0.0029254947104868888,0.022951796365776454, ,0.024623510040489124, ,0.011474346264112931, ,9.537846278095132e-05, ,0.21720186208756434,-0.2181672036968424,0.09971062680000001,1.7840420391663332,0.8355321960656683,-1.1622449030512474, ,0.033556202814169295,0.04909308926977277,0.02402535674208145,-0.07500847669803479,0.047192094996774916,-0.08372063451857176, ,1.1957581043243408
0.01247278496803923,0.020920926945143546,-0.0871263443686024, ,0.013028733891926447,0.020571186432421607,-0.08800247871025343, ,0.0010949927017248396, ,0.007773414669095634,0.00039893525185246727,-0.023360910122706843,0.011095452235795968,-0.0029254947104868888,0.022951796365776454, ,0.024623510040489124, ,0.011474346264112931, ,9.737370078283533e-05, ,0.21720186208756434,-0.2181672036968424,0.09971062680000001,1.7840420391663332,0.8355321960656683,-1.1622449030512474, ,0.033556202814169295,0.04909308926977277,0.02402535674208145,-0.07500847669803479,0.047192094996774916,-0.08372063451857176, ,1.1983001232147217
0.01258880996740681,0.02093122616731033,-0.08745441252683787, ,0.013069150444717598,0.02056936511149378,-0.08811027464335287, ,0.0008898457808740558, ,0.007773414669095634,0.00039893525185246727,-0.023360910122706843,0.011095452235795968,-0.0029254947104868888,0.022951796365776454, ,0.024623510040489124, ,0.011474346264112931, ,9.895233042445129e-05, ,0.21770383972438892,-0.21745671227241375,0.10004766220000001,1.7840420391663332,0.8358054690651993,-1.1629578112994836, ,0.03879678722750236,0.05005112951396138,0.02328773614035088,-0.029744271494185622,0.005624928500736165,-0.015503755620410117, ,1.20088791847229
0.01258880996740681,0.02093122616731033,-0.08745441252683787, ,0.013109680313199626,0.0205674641410173,-0.08821799758334868, ,0.0009933231435065588, ,0.008457278314454541,0.00042165517950410293,-0.02275704820202742,-0.041787346228184336,-0.03951312794055628,0.009728706684300472, ,0.02428140425197738, ,0.05751055104005796, ,0.0005507325327889251, ,0.21770383972438892,-0.21745671227241375,0.10004766220000001,1.7840420391663332,0.8358054690651993,-1.1629578112994836, ,0.03879678722750236,0.05005112951396138,0.02328773614035088,-0.029744271494185622,0.005624928500736165,-0.015503755620410117, ,1.203437089920044
0.01258880996740681,0.02093122616731033,-0.08745441252683787, ,0.013150322598063834,0.020565484430275005,-0.08832564588883322, ,0.0010991410390166982, ,0.008457278314454541,0.00042165517950410293,-0.02275704820202742,-0.041787346228184336,-0.03951312794055628,0.009728706684300472, ,0.02428140425197738, ,0.05751055104005796, ,0.0005566293984472883, ,0.21770383972438892,-0.21745671227241375,0.10004766220000001,1.7840420391663332,0.8358054690651993,-1.1629578112994836, ,0.03879678722750236,0.05005112951396138,0.02328773614035088,-0.029744271494185622,0.005624928500736165,-0.015503755620410117, ,1.205718994140625
0.012670597124953886,0.020928632924573132,-0.0876732041872801, ,0.013191076403120084,0.020563426885947433,-0.08843321792559833, ,0.0009909061570509757, ,0.007160870033761832,-0.0006333604555954858,-0.018440109238504462,0.020462818433974437,0.019334100426476233,-0.04385326021755251, ,0.01979183755579855, ,0.02815194922939407, ,0.0005612493639643488, ,0.21811314456672282,-0.21689295277259535,0.10027321666000001,1.7838323492228487,0.8363520150642609,-1.1636485191346908, ,0.03789813960002826,0.05340289339249904,0.019030838136200722,0.0,0.058199538204573235,-0.07875456595344432, ,1.2079880237579346
0.012670597124953886,0.020928632924573132,-0.0876732041872801, ,0.013231940835292567,0.020561292412115743,-0.08854071206662685, ,0.001096638378845986, ,0.007160870033761832,-0.0006333604555954858,-0.018440109238504462,0.020462818433974437,0.019334100426476233,-0.04385326021755251, ,0.01979183755579855, ,0.02815194922939407, ,0.0005668850378052081, ,0.21811314456672282,-0.21689295277259535,0.10027321666000001,1.7838323492228487,0.8363520150642609,-1.1636485191346908, ,0.03789813960002826,0.05340289339249904,0.019030838136200722,0.0,0.058199538204573235,-0.07875456595344432, ,1.2102129459381104
0.012670597124953886,0.020928632924573132,-0.0876732041872801, ,0.01327291500461552,0.020559081910264045,-0.08864812669208048, ,0.0012040883151593234, ,0.007160870033761832,-0.0006333604555954858,-0.018440109238504462,0.020462818433974437,0.019334100426476233,-0.04385326021755251, ,0.01979183755579855, ,0.02815194922939407, ,0.0005735225719443134, ,0.21811314456672282,-0.21689295277259535,0.10027321666000001,1.7838323492228487,0.8363520150642609,-1.1636485191346908, ,0.03789813960002826,0.05340289339249904,0.019030838136200722,0.0,0.058199538204573235,-0.07875456595344432, ,1.2124230861663818
0.012670597124953886,0.020928632924573132,-0.0876732041872801, ,0.013313998024229116,0.020556796279283567,-0.08875546018929222, ,0.0013128233932481635, ,0.007160870033761832,-0.0006333604555954858,-0.018440109238504462,0.020462818433974437,0.019334100426476233,-0.04385326021755251, ,0.01979183755579855, ,0.02815194922939407, ,0.0005811442298958995, ,0.21811314456672282,-0.21689295277259535,0.10027321666000001,1.7838323492228487,0.8363520150642609,-1.1636485191346908, ,0.03789813960002826,0.05340289339249904,0.019030838136200722,0.0,0.058199538204573235,-0.07875456595344432, ,1.2146711349487305
0.012754406565474233,0.020918427714624287,-0.08790240383229543, ,0.013355189010374868,0.020554436415473786,-0.08886271095275386, ,0.0011897978725654253, ,0.009531887056508013,-0.0007363421190316043,-0.02677104599450111,0.041947064795532965,0.04116346300035929,0.0031406228098339885, ,0.02842688822600847, ,0.05877051284770811, ,0.0005873549813517109, ,0.21811314456672282,-0.21689295277259535,0.10027321666000001,1.7838323492228487,0.8363520150642609,-1.1636485191346908, ,0.03789813960002826,0.05340289339249904,0.019030838136200722,0.0,0.058199538204573235,-0.07875456595344432, ,1.2172191143035889
0.012754406565474233,0.020918427714624287,-0.08790240383229543, ,0.013396487082391686,0.020552003212546424,-0.08896987738410769, ,0.0012984737539691277, ,0.009531887056508013,-0.0007363421190316043,-0.02677104599450111,0.041947064795532965,0.04116346300035929,0.0031406228098339885, ,0.02842688822600847, ,0.05877051284770811, ,0.0005945379992569373, ,0.2185456176076794,-0.21626741140978317,0.10050914144,1.7829935894489106,0.8371718340628537,-1.1646437415174318, ,0.04795196642671591,0.06967470011635153,0.02770228090434783,-0.07565664873092715,0.1072642366252465,-0.13553441032319932, ,1.2195649147033691
0.012754406565474233,0.020918427714624287,-0.08790240383229543, ,0.013437891362711481,0.020549497561628497,-0.08907695789213545, ,0.0014081328649422978, ,0.009531887056508013,-0.0007363421190316043,-0.02677104599450111,0.041947064795532965,0.04116346300035929,0.0031406228098339885, ,0.02842688822600847, ,0.05877051284770811, ,0.0006026739479137909, ,0.2185456176076794,-0.21626741140978317,0.10050914144,1.7829935894489106,0.8371718340628537,-1.1646437415174318, ,0.04795196642671591,0.06967470011635153,0.02770228090434783,-0.07565664873092715,0.1072642366252465,-0.13553441032319932, ,1.2218410968780518
0.012754406565474233,0.020918427714624287,-0.08790240383229543, ,0.01347940097685484,0.02054692035126396,-0.08918395089274908, ,0.0015185511139640471, ,0.009531887056508013,-0.0007363421190316043,-0.02677104599450111,0.041947064795532965,0.04116346300035929,0.0031406228098339885, ,0.02842688822600847, ,0.05877051284770811, ,0.0006117420386667638, ,0.2185456176076794,-0.21626741140978317,0.10050914144,1.7829935894489106,0.8371718340628537,-1.1646437415174318, ,0.04795196642671591,0.06967470011635153,0.02770228090434783,-0.07565664873092715,0.1072642366252465,-0.13553441032319932, ,1.2240841388702393
0.012754406565474233,0.020918427714624287,-0.08790240383229543, ,0.013521015053426864,0.020544272467418107,-0.08929085480897994, ,0.0016295633886011028, ,0.009531887056508013,-0.0007363421190316043,-0.02677104599450111,0.041947064795532965,0.04116346300035929,0.0031406228098339885, ,0.02842688822600847, ,0.05877051284770811, ,0.0006217206793523945, ,0.2185456176076794,-0.21626741140978317,0.10050914144,1.7829935894489106,0.8371718340628537,-1.1646437415174318, ,0.04795196642671591,0.06967470011635153,0.02770228090434783,-0.07565664873092715,0.1072642366252465,-0.13553441032319932, ,1.226351022720337
0.012869065540841176,0.020919313165885446,-0.0882474080143873, ,0.01356273272411279,0.020541554793478467,-0.08939766807096897, ,0.0013953400111939782, ,0.012929238024813279,0.0019151107198159662,-0.04067467622802158,0.020946473600391383,0.0252897008785862,0.07542715286556889, ,0.042723086630366676, ,0.03283614463801983, ,0.0006292315466518274, ,0.21906304071025245,-0.21554147451960606,0.10086562119,1.7813160699010344,0.8382649260609771,-1.166106835927987, ,0.052227265579785784,0.06926784055362831,0.04225148944297083,-0.14522789647041912,0.11067115349727775,-0.12688027410256844, ,1.2287139892578125
0.012869065540841176,0.020919313165885446,-0.0882474080143873, ,0.013604553123673849,0.020538768210260024,-0.08950438911595712, ,0.0015052434811208106, ,0.012929238024813279,0.0019151107198159662,-0.04067467622802158,0.020946473600391383,0.0252897008785862,0.07542715286556889, ,0.042723086630366676, ,0.03283614463801983, ,0.0006376547383294139, ,0.21906304071025245,-0.21554147451960606,0.10086562119,1.7813160699010344,0.8382649260609771,-1.166106835927987, ,0.052227265579785784,0.06926784055362831,0.04225148944297083,-0.14522789647041912,0.11067115349727775,-0.12688027410256844, ,1.231100082397461
0.012869065540841176,0.020919313165885446,-0.0882474080143873, ,0.013646475389942904,0.020535913596006174,-0.08961101638827444, ,0.001615793644312023, ,0.012929238024813279,0.0019151107198159662,-0.04067467622802158,0.020946473600391383,0.0252897008785862,0.07542715286556889, ,0.042723086630366676, ,0.03283614463801983, ,0.0006469703469578196, ,0.21906304071025245,-0.21554147451960606,0.10086562119,1.7813160699010344,0.8382649260609771,-1.166106835927987, ,0.052227265579785784,0.06926784055362831,0.04225148944297083,-0.14522789647041912,0.11067115349727775,-0.12688027410256844, ,1.233407974243164
0.012869065540841176,0.020919313165885446,-0.0882474080143873, ,0.013688498663820145,0.020532991826392157,-0.08971754833933088, ,0.001726854769634138, ,0.012929238024813279,0.0019151107198159662,-0.04067467622802158,0.020946473600391383,0.0252897008785862,0.07542715286556889, ,0.042723086630366676, ,0.03283614463801983, ,0.0006571579358509924, ,0.21906304071025245,-0.21554147451960606,0.10086562119,1.7813160699010344,0.8382649260609771,-1.166106835927987, ,0.052227265579785784,0.06926784055362831,0.04225148944297083,-0.14522789647041912,0.11067115349727775,-0.12688027410256844, ,1.2357640266418457
0.013005730816751153,0.02095144946915143,-0.08867292254046456, ,0.01373062208926899,0.020530003774528616,-0.08982398342760557, ,0.0014240874258255637, ,0.014961689387320856,0.004051845422295744,-0.047599379035224015,0.05907097098347364,0.05093421537595766,-0.030457709228340672, ,0.050059669247686525, ,0.07799634326184, ,0.0006643255011778576, ,0.21960363201144817,-0.21488504222529697,0.10131024866,1.7806870000705808,0.8393580180591006,-1.1674065728582612, ,0.05595338535287192,0.06987992750991957,0.049777536000000004,-0.04520386211524859,0.11844314993017874,-0.14728514024126438, ,1.2381329536437988
0.013005730816751153,0.02095144946915143,-0.08867292254046456, ,0.013772844813311631,0.020526950310963025,-0.08993032011863725, ,0.0015328770624600603, ,0.014961689387320856,0.004051845422295744,-0.047599379035224015,0.05907097098347364,0.05093421537595766,-0.030457709228340672, ,0.050059669247686525, ,0.07799634326184, ,0.0006723676452638039, ,0.21960363201144817,-0.21488504222529697,0.10131024866,1.7806870000705808,0.8393580180591006,-1.1674065728582612, ,0.05595338535287192,0.06987992750991957,0.049777536000000004,-0.04520386211524859,0.11844314993017874,-0.14728514024126438, ,1.2406039237976074
0.013005730816751153,0.02095144946915143,-0.08867292254046456, ,0.013815165986024933,0.020523832303684156,-0.09003655688501389, ,0.001642419057090485, ,0.014961689387320856,0.004051845422295744,-0.047599379035224015,0.05907097098347364,0.05093421537595766,-0.030457709228340672, ,0.050059669247686525, ,0.07799634326184, ,0.000681267199500746, ,0.21960363201144817,-0.21488504222529697,0.10131024866,1.7806870000705808,0.8393580180591006,-1.1674065728582612, ,0.05595338535287192,0.06987992750991957,0.049777536000000004,-0.04520386211524859,0.11844314993017874,-0.14728514024126438, ,1.2428700923919678
0.013005730816751153,0.02095144946915143,-0.08867292254046456, ,0.013857584760535935,0.02052065061812339,-0.09014269220636277, ,0.0017525597457385854, ,0.014961689387320856,0.004051845422295744,-0.047599379035224015,0.05907097098347364,0.05093421537595766,-0.030457709228340672, ,0.050059669247686525, ,0.07799634326184, ,0.0006910062226483627, ,0.21960363201144817,-0.21488504222529697,0.10131024866,1.7806870000705808,0.8393580180591006,-1.1674065728582612, ,0.05595338535287192,0.06987992750991957,0.049777536000000004,-0.04520386211524859,0.11844314993017874,-0.14728514024126438, ,1.2450840473175049
0.013161263043419271,0.020993375719579852,-0.08917016065384681, ,0.013900100293017872,0.020517406117158986,-0.09024872456934066, ,0.0013913043030295467, ,0.017343516012042964,0.005026137891745105,-0.055430772507432634,0.04371160642342668,0.052351976635038176,-0.053123273957503214, ,0.05829777140283817, ,0.06819758565365429, ,0.0006973152143635085, ,0.22017511424414077,-0.21415138260224564,0.10183006095000001,1.7802676201836118,0.8405877465569896,-1.1686543702119505, ,0.06170152246974693,0.07974532904073174,0.05792295098181819,-0.013972469367026384,0.11929084443068115,-0.13180170742821123, ,1.247399091720581
0.013161263043419271,0.020993375719579852,-0.08917016065384681, ,0.013942711742685668,0.02051409966111789,-0.09035465246762342, ,0.0014977945342081417, ,0.017343516012042964,0.005026137891745105,-0.055430772507432634,0.04371160642342668,0.052351976635038176,-0.053123273957503214, ,0.05829777140283817, ,0.06819758565365429, ,0.0007044623511478356, ,0.22017511424414077,-0.21415138260224564,0.10183006095000001,1.7802676201836118,0.8405877465569896,-1.1686543702119505, ,0.06170152246974693,0.07974532904073174,0.05792295098181819,-0.013972469367026384,0.11929084443068115,-0.13180170742821123, ,1.2497079372406006
0.013161263043419271,0.020993375719579852,-0.08917016065384681, ,0.01398541827179176,0.020510732107778772,-0.09046047440189572, ,0.0016053305780648864, ,0.017343516012042964,0.005026137891745105,-0.055430772507432634,0.04371160642342668,0.052351976635038176,-0.053123273957503214, ,0.05829777140283817, ,0.06819758565365429, ,0.0007124346363417918, ,0.22017511424414077,-0.21415138260224564,0.10183006095000001,1.7802676201836118,0.8405877465569896,-1.1686543702119505, ,0.06170152246974693,0.07974532904073174,0.05792295098181819,-0.013972469367026384,0.11929084443068115,-0.13180170742821123, ,1.2519419193267822
0.013161263043419271,0.020993375719579852,-0.08917016065384681, ,0.01402821904562191,0.02050730431237556,-0.09056618887984187, ,0.0017137015289809565, ,0.017343516012042964,0.005026137891745105,-0.055430772507432634,0.04371160642342668,0.052351976635038176,-0.053123273957503214, ,0.05829777140283817, ,0.06819758565365429, ,0.0007212176792596792, ,0.22017511424414077,-0.21415138260224564,0.10183006095000001,1.7802676201836118,0.8405877465569896,-1.1686543702119505, ,0.06170152246974693,0.07974532904073174,0.05792295098181819,-0.013972469367026384,0.11929084443068115,-0.13180170742821123, ,1.2542169094085693
0.013161263043419271,0.020993375719579852,-0.08917016065384681, ,0.014071113232490717,0.020503817127599303,-0.09067179441613481, ,0.0018227448909758422, ,0.017343516012042964,0.005026137891745105,-0.055430772507432634,0.04371160642342668,0.052351976635038176,-0.053123273957503214, ,0.05829777140283817, ,0.06819758565365429, ,0.0007307961767528631, ,0.22017511424414077,-0.21415138260224564,0.10183006095000001,1.7802676201836118,0.8405877465569896,-1.1686543702119505, ,0.06170152246974693,0.07974532904073174,0.05792295098181819,-0.013972469367026384,0.11929084443068115,-0.13180170742821123, ,1.2565009593963623
0.013347662282280279,0.02103486745697167,-0.08976608785226631, ,0.014114100003737634,0.02050027140360187,-0.09077728953242695, ,0.0013768618518613294, ,0.01818835683459851,0.0034309267399343234,-0.05785930919818814,0.007793753160098258,0.02915962981155575,0.06873124127421541, ,0.0607477344723984, ,0.030172473620955945, ,0.0007363657084348327, ,0.2208469920041983,-0.2132478228559614,0.10244968757000002,1.7790094805227048,0.8418174750548786,-1.1699838463057808, ,0.06715990202298003,0.09177653922482666,0.06010872271698114,-0.14430208023963279,0.1260651950754809,-0.1329349162711771, ,1.2587230205535889
0.013347662282280279,0.02103486745697167,-0.08976608785226631, ,0.01415717853372246,0.020496667987998266,-0.09088267275733913, ,0.0014804516472984681, ,0.01818835683459851,0.0034309267399343234,-0.05785930919818814,0.007793753160098258,0.02915962981155575,0.06873124127421541, ,0.0607477344723984, ,0.030172473620955945, ,0.000742725417314009, ,0.2208469920041983,-0.2132478228559614,0.10244968757000002,1.7790094805227048,0.8418174750548786,-1.1699838463057808, ,0.06715990202298003,0.09177653922482666,0.06010872271698114,-0.14430208023963279,0.1260651950754809,-0.1329349162711771, ,1.260962963104248
0.013347662282280279,0.02103486745697167,-0.08976608785226631, ,0.014200347999821193,0.02049300772586999,-0.09098794262645177, ,0.0015854381067350602, ,0.01818835683459851,0.0034309267399343234,-0.05785930919818814,0.007793753160098258,0.02915962981155575,0.06873124127421541, ,0.0607477344723984, ,0.030172473620955945, ,0.0007498670502752044, ,0.2208469920041983,-0.2132478228559614,0.10244968757000002,1.7790094805227048,0.8418174750548786,-1.1699838463057808, ,0.06715990202298003,0.09177653922482666,0.06010872271698114,-0.14430208023963279,0.1260651950754809,-0.1329349162711771, ,1.263314962387085
0.013347662282280279,0.02103486745697167,-0.08976608785226631, ,0.014243607582421691,0.020489291459766936,-0.09109309768229344, ,0.0016915455177322514, ,0.01818835683459851,0.0034309267399343234,-0.05785930919818814,0.007793753160098258,0.02915962981155575,0.06873124127421541, ,0.0607477344723984, ,0.030172473620955945, ,0.0007577803147076165, ,0.2208469920041983,-0.2132478228559614,0.10244968757000002,1.7790094805227048,0.8418174750548786,-1.1699838463057808, ,0.06715990202298003,0.09177653922482666,0.06010872271698114,-0.14430208023963279,0.1260651950754809,-0.1329349162711771, ,1.2666220664978027
0.0134492721621922,0.021054506105692383,-0.09009114617148857, ,0.01428695646491951,0.02048552002971136,-0.09119813647433195, ,0.0015002958629168103, ,0.017857019616975476,0.003127019261570388,-0.056537355491077884,0.0397111460462753,0.04527385135443476,0.021171450224876962, ,0.05937275439953745, ,0.06021726554661739, ,0.0007639679442760265, ,0.2212176831821611,-0.21272267702051412,0.10278801926000002,1.7783804106922512,0.8426372940534712,-1.1708157112082402, ,0.06590065386004916,0.09377168138188813,0.058777902287822884,-0.11303096790940032,0.13707102672075902,-0.167242999622534, ,1.2695600986480713
0.0134492721621922,0.021054506105692383,-0.09009114617148857, ,0.014330393833713456,0.020481694273200013,-0.09130305755896345, ,0.0016041253088705293, ,0.017857019616975476,0.003127019261570388,-0.056537355491077884,0.0397111460462753,0.04527385135443476,0.021171450224876962, ,0.05937275439953745, ,0.06021726554661739, ,0.0007709113935701958, ,0.2212176831821611,-0.21272267702051412,0.10278801926000002,1.7783804106922512,0.8426372940534712,-1.1708157112082402, ,0.06590065386004916,0.09377168138188813,0.058777902287822884,-0.11303096790940032,0.13707102672075902,-0.167242999622534, ,1.272184133529663
0.0134492721621922,0.021054506105692383,-0.09009114617148857, ,0.01437391887820163,0.020477815025207614,-0.0914078594995038, ,0.0017091746955506446, ,0.017857019616975476,0.003127019261570388,-0.056537355491077884,0.0397111460462753,0.04527385135443476,0.021171450224876962, ,0.05937275439953745, ,0.06021726554661739, ,0.0007786020763733142, ,0.2212176831821611,-0.21272267702051412,0.10278801926000002,1.7783804106922512,0.8426372940534712,-1.1708157112082402, ,0.06590065386004916,0.09377168138188813,0.058777902287822884,-0.11303096790940032,0.13707102672075902,-0.167242999622534, ,1.2744851112365723
0.0134492721621922,0.021054506105692383,-0.09009114617148857, ,0.014417530790776713,0.020473883118188506,-0.09151254086617586, ,0.0018152164343492076, ,0.017857019616975476,0.003127019261570388,-0.056537355491077884,0.0397111460462753,0.04527385135443476,0.021171450224876962, ,0.05937275439953745, ,0.06021726554661739, ,0.0007870298353812483, ,0.2212176831821611,-0.21272267702051412,0.10278801926000002,1.7783804106922512,0.8426372940534712,-1.1708157112082402, ,0.06590065386004916,0.09377168138188813,0.058777902287822884,-0.11303096790940032,0.13707102672075902,-0.167242999622534, ,1.2767689228057861
0.013710762646250627,0.02108462382882535,-0.09083993387700434, ,0.014461228766822154,0.02046989938208143,-0.09161710023610282, ,0.001243009691540934, ,0.017299113278210106,0.00042116631306511067,-0.045295054513744167,0.02699780916520159,0.023735551569791378,-0.043004739746135764, ,0.04848792287445052, ,0.03594533976088678, ,0.0007907070922857619, ,0.22234520218179785,-0.21131713963740525,0.10356838584000001,1.7775416509183128,0.8445502050501874,-1.1731106705212553, ,0.08324293119164104,0.10031389171085707,0.047126661301775154,-0.03797853451499633,0.11658897396020164,-0.14344768696033766, ,1.280043125152588
0.013710762646250627,0.02108462382882535,-0.09083993387700434, ,0.014505012004707536,0.020465864644310244,-0.09172153619329534, ,0.0013382517012582756, ,0.017299113278210106,0.00042116631306511067,-0.045295054513744167,0.02699780916520159,0.023735551569791378,-0.043004739746135764, ,0.04848792287445052, ,0.03594533976088678, ,0.000795087449157542, ,0.22234520218179785,-0.21131713963740525,0.10356838584000001,1.7775416509183128,0.8445502050501874,-1.1731106705212553, ,0.08324293119164104,0.10031389171085707,0.047126661301775154,-0.03797853451499633,0.11658897396020164,-0.14344768696033766, ,1.2822909355163574
0.013710762646250627,0.02108462382882535,-0.09083993387700434, ,0.014548879705784614,0.02046177972978847,-0.09182584732864317, ,0.0014361059540679258, ,0.017299113278210106,0.00042116631306511067,-0.045295054513744167,0.02699780916520159,0.023735551569791378,-0.043004739746135764, ,0.04848792287445052, ,0.03594533976088678, ,0.0008001748976092117, ,0.22234520218179785,-0.21131713963740525,0.10356838584000001,1.7775416509183128,0.8445502050501874,-1.1731106705212553, ,0.08324293119164104,0.10031389171085707,0.047126661301775154,-0.03797853451499633,0.11658897396020164,-0.14344768696033766, ,1.2845170497894287
0.013710762646250627,0.02108462382882535,-0.09083993387700434, ,0.014592831074382705,0.02045764546092102,-0.0919300322399039, ,0.0015360537186321517, ,0.017299113278210106,0.00042116631306511067,-0.045295054513744167,0.02699780916520159,0.023735551569791378,-0.043004739746135764, ,0.04848792287445052, ,0.03594533976088678, ,0.0008059692190345892, ,0.22234520218179785,-0.21131713963740525,0.10356838584000001,1.7775416509183128,0.8445502050501874,-1.1731106705212553, ,0.08324293119164104,0.10031389171085707,0.047126661301775154,-0.03797853451499633,0.11658897396020164,-0.14344768696033766, ,1.2867519855499268
0.013880813590293067,0.02107140164297175,-0.09125093421929986, ,0.014636865317804778,0.02045346265760779,-0.09203408953169419, ,0.0012517168400391267, ,0.016883768165028627,-0.0023758963111222783,-0.03825882559200764,-0.044420801924579076,-0.038682889899915175,-0.01095746418064205, ,0.041886086549250426, ,0.058902390817525324, ,0.0008094516223236871, ,0.2232333164623337,-0.21025140250076227,0.10399356896,1.7769125810878594,0.8455066605485455,-1.1738905958471302, ,0.0916878662400684,0.11138138680571688,0.039330398814814815,-0.048653362872333,0.0639997822198482,-0.08091435569005631, ,1.289928913116455
0.013880813590293067,0.02107140164297175,-0.09125093421929986, ,0.014680981646322944,0.020449232137246198,-0.09213801781547847, ,0.0013469525301043732, ,0.016883768165028627,-0.0023758963111222783,-0.03825882559200764,-0.044420801924579076,-0.038682889899915175,-0.01095746418064205, ,0.041886086549250426, ,0.058902390817525324, ,0.0008136182960274134, ,0.2232333164623337,-0.21025140250076227,0.10399356896,1.7769125810878594,0.8455066605485455,-1.1738905958471302, ,0.0916878662400684,0.11138138680571688,0.039330398814814815,-0.048653362872333,0.0639997822198482,-0.08091435569005631, ,1.2921631336212158
0.013880813590293067,0.02107140164297175,-0.09125093421929986, ,0.01472517927317421,0.02044495471473373,-0.09224181570956007, ,0.0014447267174336048, ,0.016883768165028627,-0.0023758963111222783,-0.03825882559200764,-0.044420801924579076,-0.038682889899915175,-0.01095746418064205, ,0.041886086549250426, ,0.058902390817525324, ,0.0008184729761920764, ,0.2232333164623337,-0.21025140250076227,0.10399356896,1.7769125810878594,0.8455066605485455,-1.1738905958471302, ,0.0916878662400684,0.11138138680571688,0.039330398814814815,-0.048653362872333,0.0639997822198482,-0.08091435569005631, ,1.2943670749664307
0.013880813590293067,0.02107140164297175,-0.09125093421929986, ,0.014769457414556425,0.020440631202471745,-0.09234548183907029, ,0.0015445367224365665, ,0.016883768165028627,-0.0023758963111222783,-0.03825882559200764,-0.044420801924579076,-0.038682889899915175,-0.01095746418064205, ,0.041886086549250426, ,0.058902390817525324, ,0.0008240154475374542, ,0.2232333164623337,-0.21025140250076227,0.10399356896,1.7769125810878594,0.8455066605485455,-1.1738905958471302, ,0.0916878662400684,0.11138138680571688,0.039330398814814815,-0.048653362872333,0.0639997822198482,-0.08091435569005631, ,1.2965929508209229
0.014051303211547747,0.021039137904445112,-0.09162530740109849, ,0.014813815289623618,0.020436262410366873,-0.0924490148359584, ,0.0012741183103680553, ,0.016562202263482973,-0.0037922300238173137,-0.03587040639556553,-0.024018221349332784,-0.019183148197930967,0.04980196154810112, ,0.039690976397074064, ,0.030737741392680398, ,0.0008274253177104133, ,0.22420638080448596,-0.20912388350112548,0.10437856709000001,1.7756544414269524,0.8463264795471381,-1.1748041394897304, ,0.09713095348871113,0.11460983280008549,0.036957799350348035,-0.1295765667710099,0.10641392967965671,-0.12424109783612905, ,1.298825979232788
0.014051303211547747,0.021039137904445112,-0.09162530740109849, ,0.014858252120482163,0.02043184914583564,-0.09255241333898241, ,0.0013709455124196223, ,0.016562202263482973,-0.0037922300238173137,-0.03587040639556553,-0.024018221349332784,-0.019183148197930967,0.04980196154810112, ,0.039690976397074064, ,0.030737741392680398, ,0.0008315119357157457, ,0.22420638080448596,-0.20912388350112548,0.10437856709000001,1.7756544414269524,0.8463264795471381,-1.1748041394897304, ,0.09713095348871113,0.11460983280008549,0.036957799350348035,-0.1295765667710099,0.10641392967965671,-0.12424109783612905, ,1.3011610507965088
0.014051303211547747,0.021039137904445112,-0.09162530740109849, ,0.014902767132186225,0.020427392213805545,-0.09265567599369776, ,0.0014699942295057207, ,0.016562202263482973,-0.0037922300238173137,-0.03587040639556553,-0.024018221349332784,-0.019183148197930967,0.04980196154810112, ,0.039690976397074064, ,0.030737741392680398, ,0.0008362767289529843, ,0.22420638080448596,-0.20912388350112548,0.10437856709000001,1.7756544414269524,0.8463264795471381,-1.1748041394897304, ,0.09713095348871113,0.11460983280008549,0.036957799350348035,-0.1295765667710099,0.10641392967965671,-0.12424109783612905, ,1.3037021160125732
0.014051303211547747,0.021039137904445112,-0.09162530740109849, ,0.01494735955273354,0.020422892416719376,-0.09275880145244852, ,0.0015708227882761038, ,0.016562202263482973,-0.0037922300238173137,-0.03587040639556553,-0.024018221349332784,-0.019183148197930967,0.04980196154810112, ,0.039690976397074064, ,0.030737741392680398, ,0.0008417178108738964, ,0.22420638080448596,-0.20912388350112548,0.10437856709000001,1.7756544414269524,0.8463264795471381,-1.1748041394897304, ,0.09713095348871113,0.11460983280008549,0.036957799350348035,-0.1295765667710099,0.10641392967965671,-0.12424109783612905, ,1.306973934173584
0.014158222282573359,0.021012606147317835,-0.09185901525771295, ,0.014992028613061198,0.020418350554536835,-0.0928617883743566, ,0.0014331526889261718, ,0.01605239761728808,-0.004215564937228002,-0.03553368849912621,0.01802428482890736,0.027811276145935,-0.01076046681460001, ,0.03921853484459149, ,0.033140387358299675, ,0.0008460665967419278, ,0.22483192216729814,-0.20834388748082883,0.10461967703000001,1.7750253715964985,0.8471462985457309,-1.1757176831323306, ,0.09358672737521774,0.12104201729396784,0.03670233069124424,-0.08508269019046233,0.14099154373567924,-0.16598453434088986, ,1.3166871070861816
0.014158222282573359,0.021012606147317835,-0.09185901525771295, ,0.015036773547041351,0.02041376742473849,-0.09296463542531146, ,0.0015339022442643854, ,0.01605239761728808,-0.004215564937228002,-0.03553368849912621,0.01802428482890736,0.027811276145935,-0.01076046681460001, ,0.03921853484459149, ,0.033140387358299675, ,0.0008510872948990261, ,0.22483192216729814,-0.20834388748082883,0.10461967703000001,1.7750253715964985,0.8471462985457309,-1.1757176831323306, ,0.09358672737521774,0.12104201729396784,0.03670233069124424,-0.08508269019046233,0.14099154373567924,-0.16598453434088986, ,1.319019079208374
0.014158222282573359,0.021012606147317835,-0.09185901525771295, ,0.015081593591477063,0.02040914382232801,-0.0930673412779616, ,0.0016361030294570682, ,0.01605239761728808,-0.004215564937228002,-0.03553368849912621,0.01802428482890736,0.027811276145935,-0.01076046681460001, ,0.03921853484459149, ,0.033140387358299675, ,0.0008567758147146641, ,0.22483192216729814,-0.20834388748082883,0.10461967703000001,1.7750253715964985,0.8471462985457309,-1.1757176831323306, ,0.09358672737521774,0.12104201729396784,0.03670233069124424,-0.08508269019046233,0.14099154373567924,-0.16598453434088986, ,1.3212850093841553
0.014450047618856189,0.02092828679314596,-0.09249698338880759, ,0.015126487986097711,0.020404480539834784,-0.0931699046117019, ,0.0010884702722919477, ,0.014500289103607747,-0.004606166284952923,-0.029559774553331364,-0.029150469925437444,0.008076094808036664,-0.03965753964563996, ,0.03324538198873069, ,0.03024815094467638, ,0.0008584426813159395, ,0.2265540915982502,-0.20602706761856146,0.10528078493000001,1.7743963017660451,0.8501523015405705,-1.1786589494544955, ,0.08674309100408664,0.11460983280008549,0.030398495267175574,-0.015524836560150631,0.10009526739273043,-0.0882910104538286, ,1.3235149383544922
0.014450047618856189,0.02092828679314596,-0.09249698338880759, ,0.015171455973555115,0.02039977836731747,-0.09327232411266607, ,0.0011835980772519543, ,0.014500289103607747,-0.004606166284952923,-0.029559774553331364,-0.029150469925437444,0.008076094808036664,-0.03965753964563996, ,0.03324538198873069, ,0.03024815094467638, ,0.0008607652198583395, ,0.2265540915982502,-0.20602706761856146,0.10528078493000001,1.7743963017660451,0.8501523015405705,-1.1786589494544955, ,0.08674309100408664,0.11460983280008549,0.030398495267175574,-0.015524836560150631,0.10009526739273043,-0.0882910104538286, ,1.3257060050964355
0.014450047618856189,0.02092828679314596,-0.09249698338880759, ,0.015216496799418992,0.02039503809236664,-0.09337459847371549, ,0.0012814081163025788, ,0.014500289103607747,-0.004606166284952923,-0.029559774553331364,-0.029150469925437444,0.008076094808036664,-0.03965753964563996, ,0.03324538198873069, ,0.03024815094467638, ,0.0008637485028118447, ,0.2265540915982502,-0.20602706761856146,0.10528078493000001,1.7743963017660451,0.8501523015405705,-1.1786589494544955, ,0.08674309100408664,0.11460983280008549,0.030398495267175574,-0.015524836560150631,0.10009526739273043,-0.0882910104538286, ,1.3279600143432617
0.014450047618856189,0.02092828679314596,-0.09249698338880759, ,0.015261609712172823,0.020390260500106918,-0.09347672639442878, ,0.001381304340242747, ,0.014500289103607747,-0.004606166284952923,-0.029559774553331364,-0.029150469925437444,0.008076094808036664,-0.03965753964563996, ,0.03324538198873069, ,0.03024815094467638, ,0.0008673932622303722, ,0.2265540915982502,-0.20602706761856146,0.10528078493000001,1.7743963017660451,0.8501523015405705,-1.1786589494544955, ,0.08674309100408664,0.11460983280008549,0.030398495267175574,-0.015524836560150631,0.10009526739273043,-0.0882910104538286, ,1.3303990364074707
0.014450047618856189,0.02092828679314596,-0.09249698338880759, ,0.015306793963209567,0.02038544637320099,-0.09357870658109282, ,0.0014828402087941471, ,0.016663904124781265,-0.006132508630259693,-0.031181384797442185,-0.11567292578210826,-0.08968335831137458,0.007454682930664048, ,0.035882755198929056, ,0.1463670080326379, ,0.0008716970870315176, ,0.22748854227603138,-0.20479915309155977,0.10558670937,1.7737672319355915,0.8504255745401013,-1.1788817852618882, ,0.10020796363090896,0.1303529417011961,0.031479864664031625,-0.04817277352084305,0.020635481610443877,-0.02349688315089593, ,1.332988977432251
0.014607163631193425,0.02087164569542899,-0.09279976605405224, ,0.015352048806827251,0.02038059649185123,-0.09368053774669152, ,0.0012536913574592641, ,0.016663904124781265,-0.006132508630259693,-0.031181384797442185,-0.11567292578210826,-0.08968335831137458,0.007454682930664048, ,0.035882755198929056, ,0.1463670080326379, ,0.0008743498250205991, ,0.22748854227603138,-0.20479915309155977,0.10558670937,1.7737672319355915,0.8504255745401013,-1.1788817852618882, ,0.10020796363090896,0.1303529417011961,0.031479864664031625,-0.04817277352084305,0.020635481610443877,-0.02349688315089593, ,1.3353209495544434
0.014607163631193425,0.02087164569542899,-0.09279976605405224, ,0.015397373500225058,0.020375711633804132,-0.09378221861089714, ,0.0013548414139838646, ,0.016663904124781265,-0.006132508630259693,-0.031181384797442185,-0.11567292578210826,-0.08968335831137458,0.007454682930664048, ,0.035882755198929056, ,0.1463670080326379, ,0.0008776635601168975, ,0.22748854227603138,-0.20479915309155977,0.10558670937,1.7737672319355915,0.8504255745401013,-1.1788817852618882, ,0.10020796363090896,0.1303529417011961,0.031479864664031625,-0.04817277352084305,0.020635481610443877,-0.02349688315089593, ,1.3375561237335205
0.014607163631193425,0.02087164569542899,-0.09279976605405224, ,0.015442767303498474,0.02037079257435103,-0.09388374790005855, ,0.001457430611910719, ,0.016663904124781265,-0.006132508630259693,-0.031181384797442185,-0.11567292578210826,-0.08968335831137458,0.007454682930664048, ,0.035882755198929056, ,0.1463670080326379, ,0.0008816345673209648, ,0.22748854227603138,-0.20479915309155977,0.10558670937,1.7737672319355915,0.8504255745401013,-1.1788817852618882, ,0.10020796363090896,0.1303529417011961,0.031479864664031625,-0.04817277352084305,0.020635481610443877,-0.02349688315089593, ,1.3398199081420898
0.014607163631193425,0.02087164569542899,-0.09279976605405224, ,0.01548822947963575,0.02036584008633332,-0.09398512434719287, ,0.0015611504176732348, ,0.016663904124781265,-0.006132508630259693,-0.031181384797442185,-0.11567292578210826,-0.08968335831137458,0.007454682930664048, ,0.035882755198929056, ,0.1463670080326379, ,0.0008862571241260823, ,0.22748854227603138,-0.20479915309155977,0.10558670937,1.7737672319355915,0.8504255745401013,-1.1788817852618882, ,0.10020796363090896,0.1303529417011961,0.031479864664031625,-0.04817277352084305,0.020635481610443877,-0.02349688315089593, ,1.3421530723571777
0.01478119606759168,0.02080948725883447,-0.09314146209237986, ,0.015533759294512969,0.02036085494014327,-0.0940863466919742, ,0.0012885764526945926, ,0.018471383323015202,-0.005690998332115952,-0.037566128302146985,-0.12628064816924453,-0.10555174629668429,0.0903600632080205, ,0.042246815968724545, ,0.16458401633950565, ,0.0008889754979677614, ,0.22851566574830323,-0.20347856577006737,0.10593281880000001,1.7725090922746845,0.8508354840393977,-1.179297717713118, ,0.10462727845476381,0.13235277762687694,0.038107204593301434,-0.14254018828269094,0.028176769000805117,-0.037430463767243814, ,1.3456361293792725
0.01478119606759168,0.02080948725883447,-0.09314146209237986, ,0.01557935601689018,0.02035583790372805,-0.09418741368072413, ,0.001391715404532315, ,0.018471383323015202,-0.005690998332115952,-0.037566128302146985,-0.12628064816924453,-0.10555174629668429,0.0903600632080205, ,0.042246815968724545, ,0.16458401633950565, ,0.0008923495913004094, ,0.22851566574830323,-0.20347856577006737,0.10593281880000001,1.7725090922746845,0.8508354840393977,-1.179297717713118, ,0.10462727845476381,0.13235277762687694,0.038107204593301434,-0.14254018828269094,0.028176769000805117,-0.037430463767243814, ,1.3481061458587646
0.01478119606759168,0.02080948725883447,-0.09314146209237986, ,0.015625018918406886,0.020350789742592044,-0.09428832406640132, ,0.0014959053454083485, ,0.018471383323015202,-0.005690998332115952,-0.037566128302146985,-0.12628064816924453,-0.10555174629668429,0.0903600632080205, ,0.042246815968724545, ,0.16458401633950565, ,0.0008963732963277957, ,0.22851566574830323,-0.20347856577006737,0.10593281880000001,1.7725090922746845,0.8508354840393977,-1.179297717713118, ,0.10462727845476381,0.13235277762687694,0.038107204593301434,-0.14254018828269094,0.028176769000805117,-0.037430463767243814, ,1.350588083267212
0.014861357480268827,0.020785058499070655,-0.09331551234458779, ,0.01567074727357815,0.020345711219800406,-0.09438907660859248, ,0.0014144532859954807, ,0.017977664544722185,-0.0047907409063249595,-0.03796378569678371,0.014093190861649932,0.04241602705067968,-0.008605743046763058, ,0.042277613997781564, ,0.04469517335349168, ,0.0008998042896368533, ,0.22899447518650518,-0.20287619260587786,0.10611429940000001,1.771880022444231,0.8517919395377558,-1.180241000519274, ,0.10603010229996734,0.12911148511356568,0.039525586898263035,-0.0838095615476362,0.16832430610775445,-0.16620547133215088, ,1.356459140777588
0.014861357480268827,0.020785058499070655,-0.09331551234458779, ,0.015716540359789845,0.02034060309598112,-0.09448967007350098, ,0.0015190538947410382, ,0.017977664544722185,-0.0047907409063249595,-0.03796378569678371,0.014093190861649932,0.04241602705067968,-0.008605743046763058, ,0.042277613997781564, ,0.04469517335349168, ,0.0009038783001967494, ,0.22899447518650518,-0.20287619260587786,0.10611429940000001,1.771880022444231,0.8517919395377558,-1.180241000519274, ,0.10603010229996734,0.12911148511356568,0.039525586898263035,-0.0838095615476362,0.16832430610775445,-0.16620547133215088, ,1.3587620258331299
0.014861357480268827,0.020785058499070655,-0.09331551234458779, ,0.01576239745729464,0.020335466129327903,-0.09459010323393716, ,0.0016243731942943362, ,0.017977664544722185,-0.0047907409063249595,-0.03796378569678371,0.014093190861649932,0.04241602705067968,-0.008605743046763058, ,0.042277613997781564, ,0.04469517335349168, ,0.0009085874171516356, ,0.22899447518650518,-0.20287619260587786,0.10611429940000001,1.771880022444231,0.8517919395377558,-1.180241000519274, ,0.10603010229996734,0.12911148511356568,0.039525586898263035,-0.0838095615476362,0.16832430610775445,-0.16620547133215088, ,1.361037015914917
0.015150669673030366,0.02071764089714458,-0.09388663447692218, ,0.015808317849207828,0.02033030107560375,-0.09469037486930883, ,0.0011083915731070252, ,0.018174198484308565,-0.0036419930094374994,-0.03540150103101758,-0.024073281295285902,0.0024679385335557814,-0.039366883104841266, ,0.03996037886303099, ,0.02419830549081301, ,0.0009098848467357615, ,0.23074753554895414,-0.20093006392157328,0.10671188909000001,1.7714606425572619,0.8541147600337682,-1.1827885348032376, ,0.10857773633692308,0.11502659582844943,0.037043747720930234,-0.015177332313752777,0.11667110316886474,-0.09217360551591738, ,1.3634181022644043
0.015150669673030366,0.02071764089714458,-0.09388663447692218, ,0.01585430082150291,0.020325108688143467,-0.09479048376561125, ,0.00121083519310756, ,0.018174198484308565,-0.0036419930094374994,-0.03540150103101758,-0.024073281295285902,0.0024679385335557814,-0.039366883104841266, ,0.03996037886303099, ,0.02419830549081301, ,0.000911826461873644, ,0.23074753554895414,-0.20093006392157328,0.10671188909000001,1.7714606425572619,0.8541147600337682,-1.1827885348032376, ,0.10857773633692308,0.11502659582844943,0.037043747720930234,-0.015177332313752777,0.11667110316886474,-0.09217360551591738, ,1.3656790256500244
0.015150669673030366,0.02071764089714458,-0.09388663447692218, ,0.0159003456630072,0.020319889717855547,-0.09489042871541588, ,0.0013144667982899795, ,0.018174198484308565,-0.0036419930094374994,-0.03540150103101758,-0.024073281295285902,0.0024679385335557814,-0.039366883104841266, ,0.03996037886303099, ,0.02419830549081301, ,0.0009144074896711846, ,0.23074753554895414,-0.20093006392157328,0.10671188909000001,1.7714606425572619,0.8541147600337682,-1.1827885348032376, ,0.10857773633692308,0.11502659582844943,0.037043747720930234,-0.015177332313752777,0.11667110316886474,-0.09217360551591738, ,1.3678269386291504
0.015150669673030366,0.02071764089714458,-0.09388663447692218, ,0.015946451665397852,0.020314644913226692,-0.09499020851786172, ,0.0014189962671782954, ,0.018174198484308565,-0.0036419930094374994,-0.03540150103101758,-0.024073281295285902,0.0024679385335557814,-0.039366883104841266, ,0.03996037886303099, ,0.02419830549081301, ,0.0009176214309291916, ,0.23074753554895414,-0.20093006392157328,0.10671188909000001,1.7714606425572619,0.8541147600337682,-1.1827885348032376, ,0.10857773633692308,0.11502659582844943,0.037043747720930234,-0.015177332313752777,0.11667110316886474,-0.09217360551591738, ,1.3700189590454102
0.015150669673030366,0.02071764089714458,-0.09388663447692218, ,0.015992618123197456,0.020309375020323685,-0.0950898219786446, ,0.0015242107410775394, ,0.018174198484308565,-0.0036419930094374994,-0.03540150103101758,-0.024073281295285902,0.0024679385335557814,-0.039366883104841266, ,0.03996037886303099, ,0.02419830549081301, ,0.0009214606037782317, ,0.23074753554895414,-0.20093006392157328,0.10671188909000001,1.7714606425572619,0.8541147600337682,-1.1827885348032376, ,0.10857773633692308,0.11502659582844943,0.037043747720930234,-0.015177332313752777,0.11667110316886474,-0.09217360551591738, ,1.3722970485687256
0.015338090079813235,0.020676303848136693,-0.09426295098152498, ,0.01603884433376973,0.020304080782796302,-0.09518926791000724, ,0.0012197006135943075, ,0.019612005729324065,-0.0038522010298749285,-0.040672097959700323,-0.09074579887430467,-0.07157460432146479,0.020792496175381866, ,0.04531765410902321, ,0.11557513876374792, ,0.0009233363271104083, ,0.2318132726855971,-0.19974076305894273,0.10710077609000002,1.7706218827833236,0.8547979425325954,-1.1833456243217197, ,0.10626757173400983,0.12292349942807097,0.04191792505263159,-0.06813137177351165,0.049133625278149455,-0.04605715593562678, ,1.3745460510253906
0.015338090079813235,0.020676303848136693,-0.09426295098152498, ,0.016085129597315215,0.020298762941880055,-0.09528854513072922, ,0.0013238007914669933, ,0.019612005729324065,-0.0038522010298749285,-0.040672097959700323,-0.09074579887430467,-0.07157460432146479,0.020792496175381866, ,0.04531765410902321, ,0.11557513876374792, ,0.0009258392300126369, ,0.2318132726855971,-0.19974076305894273,0.10710077609000002,1.7706218827833236,0.8547979425325954,-1.1833456243217197, ,0.10626757173400983,0.12292349942807097,0.04191792505263159,-0.06813137177351165,0.049133625278149455,-0.04605715593562678, ,1.3767271041870117
0.015338090079813235,0.020676303848136693,-0.09426295098152498, ,0.01613147321686717,0.020293422236399603,-0.09538765246611694, ,0.001428638708775345, ,0.019612005729324065,-0.0038522010298749285,-0.040672097959700323,-0.09074579887430467,-0.07157460432146479,0.020792496175381866, ,0.04531765410902321, ,0.11557513876374792, ,0.0009289622081415979, ,0.2318132726855971,-0.19974076305894273,0.10710077609000002,1.7706218827833236,0.8547979425325954,-1.1833456243217197, ,0.10626757173400983,0.12292349942807097,0.04191792505263159,-0.06813137177351165,0.049133625278149455,-0.04605715593562678, ,1.3789689540863037
0.015338090079813235,0.020676303848136693,-0.09426295098152498, ,0.016177874498287278,0.020288059402771404,-0.09548658874799362, ,0.0015340342246498758, ,0.019612005729324065,-0.0038522010298749285,-0.040672097959700323,-0.09074579887430467,-0.07157460432146479,0.020792496175381866, ,0.04531765410902321, ,0.11557513876374792, ,0.0009326972205891798, ,0.2318132726855971,-0.19974076305894273,0.10710077609000002,1.7706218827833236,0.8547979425325954,-1.1833456243217197, ,0.10626757173400983,0.12292349942807097,0.04191792505263159,-0.06813137177351165,0.049133625278149455,-0.04605715593562678, ,1.3812339305877686
