NicholasDascanio/dvrk_moveit_final/test/execution/third_experiment_notsharpbends/thirdexp_500vel4.0/thirdexp_500vel4.0_26.csv
Current Position (x),Current Position (y),Current Position (z), ,Planned Position (x),Planned Position (y),Planned Position (z), ,Position Error,,Cartesian linear Velocity(x),Cartesian linear Velocity(y),Cartesian linear Velocity(z),Cartesian Angular Velocity(x),Cartesian Angular Velocity(y),Cartesian Angular Velocity(z), ,Total Linear Velocity, ,Total Angular Velocity, ,MSE, ,Joint 1 Position,Joint 2 Position,Joint 3 Position,Joint 4 Position,Joint 5 Position,Joint 6 Position, ,Joint 1 Velocity,Joint 2 Velocity,Joint 3 Velocity,Joint 4 Velocity,Joint 5 Velocity,Joint 6 Velocity, ,Time Stamp
0.008717753851970711,0.020168953340917273,-0.07941461559275866, ,0.008888964138493204,0.020081314168989197,-0.07950079298447482, ,0.00021076083485874374, ,5.004968157597766e-05,-5.776971364456338e-05,-1.848754615081834e-05,0.06455202726767692,0.0011406446548951471,-0.0488383305626603, ,7.86390475725021e-05, ,0.06456210416796873, ,1.756340290489531e-05, ,0.19039625628113105,-0.23071664461745722,0.09149214820000001,1.7876067682055703,0.8153099941003832,-1.141426080076727, ,0.000584846573291895,0.0007000223211307634,9.001994611929955e-06,-0.0006488019821637504,0.0,-0.08190457997505263, ,0.022547006607055664
0.008727173962829394,0.02017035777892301,-0.07942701984328591, ,0.008962330647438496,0.020106157149386763,-0.07959441582036368, ,0.00029570559732784116, ,0.0007077394624814402,0.00036596678665727514,-0.0016613603299693613,0.24346735594772692,0.0022316295664018392,-0.184057454005372, ,0.001842537647291277, ,0.24347758332685607, ,2.3021201463026588e-05, ,0.1904657608769991,-0.23071664461745722,0.09150381481000001,1.7873970782620854,0.8150367211008523,-1.1452871812763625, ,0.004776471913576139,0.0004912506063474058,0.0017714425622775802,0.0,0.0,-0.3056198613539407, ,0.04503989219665527
0.008759010767880882,0.020181417297135396,-0.07946220490105303, ,0.009035490613684118,0.020130684649030797,-0.07968796290105079, ,0.0003605295844754964, ,0.0020682026802441825,0.000724416998137774,-0.002392795781974215,0.05246083428784777,-0.12852093725555,-0.12831373384492645, ,0.003244643889241739, ,0.13881559871694393, ,2.709362552069004e-05, ,0.19058160187011244,-0.230708921884583,0.09152974061000001,1.7882358380360237,0.8127139006048397,-1.1495189824240655, ,0.008394490267236017,0.0,0.0018652039014103218,0.043074070419441134,-0.13867213141331422,-0.08508277809958198, ,0.06761384010314941
0.008818648095036016,0.020202239487354355,-0.07955136321094657, ,0.009108444527552422,0.020154898448645927,-0.07978143421121445, ,0.0003730359384958673, ,0.0028201962531826915,0.0008284217301486475,-0.003592689055880682,0.029550245212142466,-0.13249997549087525,-0.08476272544429052, ,0.004641896608251093, ,0.1357551490610273, ,2.9524570360903537e-05, ,0.19096001578094945,-0.23071664461745722,0.09161399946000001,1.7882358380360237,0.8110742626076545,-1.1547162667909534, ,0.015970538801492896,0.0003469651919735513,0.003117184250489237,0.016153101568343858,-0.10479107329773196,-0.11079864029673758, ,0.08947491645812988
0.008876919192210599,0.020227527309033856,-0.07965434323078624, ,0.009181192879244541,0.020178800324662176,-0.07987482973500512, ,0.0003789077647262592, ,0.0029324812599390293,0.0013814038635693087,-0.005696631371194979,-0.18682023573749207,-0.027257306427043132,0.1388589612439736, ,0.006554336881291699, ,0.1887982023978795, ,3.113345615161938e-05, ,0.19133070695891222,-0.23071664461745722,0.09172029524000001,1.7884455279795082,0.8095712611102346,-1.1521838100080437, ,0.022476774409869914,0.0003469651919735513,0.006162016061895551,0.0,0.0,0.2325889838120692, ,0.11266493797302246
0.008930830081108329,0.020255070767643032,-0.0797493811705343, ,0.009253736158840757,0.020202392049220048,-0.0799681494560498, ,0.00039357711462763886, ,0.002438100170537568,0.0010094237218513757,-0.0033708420768212206,0.01030964202602087,0.06321648148124659,0.010579929212472349, ,0.004280869654483771, ,0.06405163736500641, ,3.245994894373946e-05, ,0.1918635755272337,-0.230708921884583,0.09183307247000001,1.7888649078664773,0.810937626107889,-1.1498674819591042, ,0.028566207573290422,0.001109535372988449,0.00433083510603589,0.01996182333398267,0.09198049788993036,0.009891261960216863, ,0.13449883460998535
0.008993755110806158,0.020276143243102653,-0.0798233648614016, ,0.009326074856300324,0.02022567539017482,-0.08006139335745258, ,0.00041187495961364696, ,0.0034152336267322253,0.0010403908997444011,-0.003879398636471144,0.019707893907433133,-0.015842314147263753,-0.020603509981986515, ,0.005272188134929147, ,0.02528596446506581, ,3.367210825174296e-05, ,0.19249683962292014,-0.230708921884583,0.0919199239,1.7890745978099616,0.8114841721069508,-1.1492513299520626, ,0.033496979018168296,0.000782866029032916,0.004468109823281908,0.01341666305444753,0.01492751332987789,-0.01927190431810738, ,0.15802788734436035
0.009099438800720307,0.020305243933805138,-0.07993458088779151, ,0.009398209461461608,0.020248652111100596,-0.08015456142179804, ,0.00037531050805781176, ,0.0036529701537110003,0.0010088443324079543,-0.0038584402826070934,0.001942015892156649,-0.03225184002241255,-0.008651207337090142, ,0.005408282467233024, ,0.03231025548802575, ,3.4142711002235426e-05, ,0.1935316858280662,-0.23069347641883456,0.09204696032000001,1.7892842877534463,0.8116208086067163,-1.149771141556462, ,0.03538290140136867,0.0006032895775856756,0.0043856859911894286,0.00870814740970626,0.001180393435651487,-0.0008770019999915545, ,0.18011188507080078
0.009176681732398238,0.020330054441392135,-0.08001833014719933, ,0.009470140464042046,0.020271323971295774,-0.08024765363115448, ,0.0003770365441028985, ,0.004005383179600489,0.001219281214468396,-0.004552082121088333,0.004111393769614418,-0.03231687894357356,-0.012547223937222607, ,0.006184754864383398, ,0.032577357496086846, ,3.4909218091057184e-05, ,0.19427306818399176,-0.23069347641883456,0.09214158949000001,1.7897036676404154,0.8118940816062472,-1.1499939773638548, ,0.03791328068656444,0.0004802206482251098,0.005139984356243951,0.012556393543019252,0.0029334912871684707,-0.002160477507305163, ,0.20182180404663086
0.009254516675563464,0.020351610658788457,-0.0801063278669382, ,0.00954186835363803,0.020293692725786766,-0.08034066996707456, ,0.0003752888137844983, ,0.0038588668052600295,0.0011383123960694653,-0.004144930704888227,0.008298343651176926,-0.02931867619074796,-0.011743602961208731, ,0.005776422654213278, ,0.030470432876930208, ,3.552027660070702e-05, ,0.19503761873854,-0.23067803095308612,0.09224399640000001,1.7897036676404154,0.8120307181060126,-1.1500237165274105, ,0.03739044190641086,9.155722772169452e-05,0.004752032076372315,0.009606618130645898,0.006033729055372573,-0.0069181071000334994, ,0.2217090129852295
0.009332329922853481,0.020376815374397023,-0.08019200338432078, ,0.009613393619724957,0.020315760125332753,-0.08043361041059903, ,0.00037563080316233217, ,0.003959054021132543,0.0013231405285742252,-0.0049088547441531755,0.00617393370820021,-0.028310800540807878,-0.01771951881459802, ,0.006443730635260646, ,0.028976177833597905, ,3.603356388287187e-05, ,0.19577900109446555,-0.23066258548733765,0.09234251444000001,1.790332737470869,0.812167354605778,-1.1502168131712476, ,0.03640082146469918,0.0006422414549032885,0.005538529735744089,0.017425187605702816,0.00424837742532017,-0.003464266924672033, ,0.24202394485473633
0.00940975454488202,0.02040265029966239,-0.08028872090234694, ,0.009684716751656983,0.020337527916430273,-0.08052647494225891, ,0.00036928596432419397, ,0.0036866518726682883,0.0010930538771970935,-0.004302572679661707,0.006113803150482964,-0.023767738695906083,-0.0052845757998781695, ,0.005770467959574467, ,0.024541474898734983, ,3.6414783284383285e-05, ,0.19650493798464264,-0.23065486275446342,0.09245269909,1.7905424274143533,0.8124406276053089,-1.1501129340180782, ,0.0351600376281848,0.0007353422127248445,0.004907212421441775,0.005156814927361519,0.01064357036988537,-0.005035183295157623, ,0.26311278343200684
0.009482343167766449,0.020422902638622537,-0.08037577370508239, ,0.009755838238666912,0.02035899784131738,-0.0806192635420773, ,0.00037171316582180266, ,0.0033957717159620363,0.0009926754168302885,-0.004098148986921812,0.006092502986790062,-0.008527171517300342,-0.0005537700186302952, ,0.005414009156726207, ,0.01048004034217211, ,3.676108341243331e-05, ,0.19720770667619708,-0.23062397182296654,0.09255251342000001,1.7905424274143533,0.8128505371046052,-1.1501204727686052, ,0.033088194406719236,0.0014695820948115999,0.004739307206188635,0.005156814927361519,0.02454728181730285,-0.0029581450506901263, ,0.28282785415649414
0.009555477747928892,0.02044767260640937,-0.08046597920476296, ,0.009826758569866064,0.02038017163797855,-0.08071197618957192, ,0.0003723763977820065, ,0.0035930241192152473,0.001250361931952021,-0.004890277336324598,-0.001157480722505572,-0.020260878277793132,-0.006167957096555167, ,0.006195808236889462, ,0.020293914048642336, ,3.7066426405595864e-05, ,0.19785641623763195,-0.2306085263572181,0.09265232775000001,1.7909618073013225,0.8129871736043707,-1.1501502119321612, ,0.03227787127839142,0.0010230976316792052,0.005502180145077721,0.01229240401892388,0.009949996344685436,0.003768478691343673, ,0.3040800094604492
0.009624669688205238,0.02047341194504727,-0.08056805395482812, ,0.009897478234243954,0.020401051040148426,-0.08080461286375762, ,0.00036826718662331617, ,0.0035215721895870884,0.0013547336365650863,-0.005469667277523873,-0.00020611076049089337,-0.01663183887684742,-0.003084827236035953, ,0.0066448501893819605, ,0.01663311579877381, ,3.730552536403002e-05, ,0.19849740306619257,-0.2305853581585954,0.09277029014,1.791171497244807,0.813397083103667,-1.150157750682688, ,0.030116452414621003,0.001112962570954987,0.006095986039035591,0.008551647259513183,0.012210941255398981,0.003530152767467495, ,0.3247218132019043
0.009686889815867763,0.020496208939394224,-0.08065911607275822, ,0.009967997720668281,0.020421637777317314,-0.0808971735431485, ,0.0003758375600754376, ,0.003170067544971174,0.0010312268015178494,-0.004303532936361523,0.0021505918012138005,-0.009860114651377231,-0.004144433293704297, ,0.005443634143676147, ,0.010091922738389271, ,3.7565835960128516e-05, ,0.1990457171002625,-0.23056218995997274,0.09287269705000001,1.7913811871882916,0.8136703561031979,-1.1501355502696593, ,0.02903823181103757,0.0017659767918683084,0.004886138503067485,0.009683214537118545,0.017885810457587473,0.0012814564352848778, ,0.3449878692626953
0.00975820572982741,0.020522516189489626,-0.08075573357909394, ,0.010038317517884383,0.02044193357473459,-0.0809896582057599, ,0.00037373373218114125, ,0.0032860185221455823,0.0012472503244087886,-0.004685937699533006,-0.000831135382882235,-0.014131354502066415,-0.015402487532835013, ,0.0058576072950929665, ,0.01415577492857267, ,3.778449368123272e-05, ,0.1996712584630747,-0.23053129902847583,0.09298158541000001,1.792010257018745,0.8138069926029633,-1.1499202532127932, ,0.028583416132069512,0.0012441454688334175,0.005274440900662252,0.02302551921104743,0.009822075163256765,0.007135288254701126, ,0.36533498764038086
0.009792995879794715,0.020534815503947024,-0.08080755264745207, ,0.01010843811451519,0.020461940153413995,-0.08108206682911087, ,0.00042446749709790634, ,0.003302449224896558,0.0011543657334470274,-0.004509686705628557,0.009273879108036637,-0.004178149181348641,-0.019009549718799444, ,0.005707539339549007, ,0.010171615526889277, ,3.849906413531485e-05, ,0.19999561324379211,-0.23051585356272739,0.09304121475,1.792010257018745,0.8142169021022596,-1.1502545069238828, ,0.030059214937748106,0.002029995303905838,0.00515662399482033,0.02302551921104743,0.021629728992245963,-0.0038771003134784885, ,0.3840668201446533
0.00989120132718178,0.020566506160906887,-0.08094960952593074, ,0.010178359999060705,0.02048165923013713,-0.08117439939022625, ,0.0003744190000338004, ,0.003499371343661992,0.0012905203414378648,-0.005313114537689874,0.004354441877549347,-0.010196455971793389,-0.011737879403889415, ,0.006491550557695683, ,0.011087329444718639, ,3.887016182778011e-05, ,0.20085283659283104,-0.2304617944326078,0.09319936213,1.792010257018745,0.8144901751017904,-1.1500689490305727, ,0.02987938965946813,0.0021045560454612303,0.00595247067264574,0.01636622256721966,0.01725404938316067,-0.0045924017912721635, ,0.402662992477417
0.009957905739377269,0.02059229355099061,-0.08104823015378135, ,0.010248083659897912,0.02050109251745885,-0.08126665586563898, ,0.00037447382508722977, ,0.003093689195779322,0.0009193767402469286,-0.0035572097711680127,-0.009481943261409265,-0.007849953848389034,0.00638739172658204, ,0.004803114384093092, ,0.012309712541926072, ,3.920980102812764e-05, ,0.20144748702414633,-0.23043090350111092,0.09331213936,1.7924296369057142,0.8150367211008523,-1.1501062269446556, ,0.029907639949092592,0.0010741399262293161,0.004156787974947809,0.009723435368251819,0.021241385969724046,0.017348512652703783, ,0.4252657890319824
0.01002425754399602,0.02060883537710792,-0.08111737004458507, ,0.010317609585280173,0.020520241723710884,-0.081358836231392, ,0.00039014122432639453, ,0.003288931059812619,0.0007546185024315712,-0.003638891966252548,-0.007886742419409492,-0.0075530821196251995,0.006714094828044265, ,0.004962665749621825, ,0.010920153609628303, ,3.960191803377571e-05, ,0.20208847385270698,-0.23037684437099135,0.09339250934000001,1.7928490167926832,0.8153099941003832,-1.1498389903112052, ,0.03228885388175256,0.003122450785336006,0.004240897635782748,0.007142105818906986,0.024591530902821547,0.012966276467808579, ,0.4433000087738037
0.010093261993030116,0.020627752030508213,-0.08120394354740813, ,0.010386938263337059,0.02053910855300682,-0.08145094046304052, ,0.00039384120426492943, ,0.0036284544405127787,0.0011983879161831378,-0.005109004524161948,-0.020901877906121046,-0.016342461720960218,0.013817281598671011, ,0.006379948467851282, ,0.026532330308938607, ,3.998135576773987e-05, ,0.20274490614701604,-0.230330507973746,0.09349232367000002,1.7928490167926832,0.8158565400994449,-1.149876268225288, ,0.031973363058783955,0.0019328177439649195,0.005754628439306359,0.007142105818906986,0.015325231165161057,0.028625222909647648, ,0.46402692794799805
0.010166075040911101,0.020652713823155675,-0.08130995142288841, ,0.010456070182073817,0.020557694705246203,-0.08154296853565417, ,0.00038395675473673797, ,0.004100183984387848,0.0013096337006772351,-0.00576131135306175,-0.026854766288642307,-0.05446213974905537,-0.0033162497604724015, ,0.007191617178541858, ,0.06072316800131296, ,4.028517523975323e-05, ,0.2033936157084509,-0.23028417157650066,0.09361287864000001,1.7930587067361679,0.8164030860985066,-1.1499952248795113, ,0.032655520150884645,0.0020347535130401254,0.0062221920000000005,0.013544292520477567,-0.026023084350080647,0.02869915263410283, ,0.4820067882537842
0.010207971292593617,0.020666128477137963,-0.08136529275757681, ,0.01052500582937094,0.02057600187611888,-0.08163492042381872, ,0.0004258318683752078, ,0.003998183699900014,0.001127511171484914,-0.005154542013196475,-0.0022258064451445444,-0.026953555344252523,-0.010463955735521419, ,0.006620125203179847, ,0.02704530192821289, ,4.075800841992301e-05, ,0.203741138687791,-0.23024555791212953,0.09367380427000001,1.793478086623137,0.8162664495987413,-1.1498021282356745, ,0.035303921710740614,0.0033645183070784702,0.005769218225280696,0.013796375369499155,0.005542615950523055,0.003228221470391009, ,0.5000839233398438
0.010284666385432913,0.020687370363981217,-0.08146449648788935, ,0.010593745692983936,0.020594031757109735,-0.08172679610163891, ,0.0004159846166171253, ,0.004122167220741174,0.0012225578475968302,-0.005456622568234809,0.0018287703473396583,-0.020173171683960267,-0.007796781368830332, ,0.0069470598197110016, ,0.020255894251707592, ,4.115413418757826e-05, ,0.20444390737934545,-0.23019149878200995,0.09378658150000001,1.793478086623137,0.8166763590980376,-1.1499730244664825, ,0.03665389785958701,0.0030800869704898674,0.006157252230382684,0.011484244383529216,0.014594364327810869,-9.691148836510257e-05, ,0.518265962600708
0.010367612828334968,0.02071197322855503,-0.08157496247880239, ,0.010662290260542549,0.020611786035502597,-0.08181859554273974, ,0.0003952585641674054, ,0.0037538872729342733,0.000932407073843541,-0.0046588777455948485,0.006468108026855151,-0.011447388791186399,0.0005790121180337383, ,0.006055261716693204, ,0.013148350823916638, ,4.1435093722330514e-05, ,0.20517756700239678,-0.23012971691901615,0.09391102534000001,1.7936877765666213,0.8169496320975684,-1.149705787833032, ,0.03504318373651063,0.003505748645921275,0.005334498164768922,0.0011398559515992126,0.02443914640935764,-0.006822077172354009, ,0.5365447998046875
0.01044242835456494,0.020731971448466394,-0.08167018869004142, ,0.010730640019550586,0.020629266394385063,-0.08191031872026892, ,0.0003889430850197888, ,0.0038946959619262983,0.001327394882728574,-0.0055584943091564415,0.02006242907905413,0.010957478312364741,-0.013654082908367893, ,0.0069157423893218845, ,0.02285973285521494, ,4.1843760784163056e-05, ,0.2058803356939512,-0.2300524895902739,0.09402120999000001,1.7938974665101057,0.8176328145963956,-1.1500178411310924, ,0.03560860846471699,0.0029269218455296874,0.006443693980582525,0.016816288115561417,0.044706360914733304,-0.014816757722517514, ,0.5543248653411865
0.010484271599074821,0.0207447575302528,-0.08172970602381047, ,0.010798795457385175,0.020646474512652616,-0.08200196560689885, ,0.00042744600779336795, ,0.0040558149149432675,0.0013044968355015198,-0.005818345238561611,0.013761348366343084,0.0019283341993028057,-0.01132168618798848, ,0.007211413726392511, ,0.013895797025576688, ,4.238408079341698e-05, ,0.206251026871914,-0.23002159865877703,0.09408861707,1.7938974665101057,0.8179060875959265,-1.1499956407180636, ,0.03624787683669625,0.0036654782257528446,0.0066592021404682285,0.014846235549566086,0.036436985463011815,-0.01012985250271092, ,0.5705759525299072
0.010565403552966946,0.02076758152914259,-0.08183621524891908, ,0.010866757061296512,0.020663412065013282,-0.08209353617482817, ,0.0004097307324942046, ,0.004261030690144594,0.001041565283314737,-0.005753328821423124,-0.037061125201284954,-0.03569138413198629,0.01772904512284198, ,0.007234779423671369, ,0.0514529095011994, ,4.282565175802747e-05, ,0.2069537955634684,-0.22993664859716056,0.09420787575,1.794316846397075,0.818042724095692,-1.1495353074407761, ,0.036220206701706406,0.005330013988560065,0.006336042768496421,0.0056949319810350426,0.0,0.040947083387891395, ,0.5862147808074951
0.01060626860728623,0.020779359846460167,-0.08189479981859507, ,0.01093452531840707,0.020680080721991286,-0.08218503039578483, ,0.00044926896274623447, ,0.004307405363445037,0.0014111244561663802,-0.006444468701449479,0.0006830623475748457,-0.0026849042807595637,-0.007769605082354438, ,0.007878844460946534, ,0.002770428496071825, ,4.339405252015691e-05, ,0.20768745518651974,-0.22983625306979563,0.09434268991000001,1.7945265363405596,0.81899917959405,-1.1498251603258076, ,0.03698244020205409,0.004454189754426284,0.007253557158469946,0.019297944111703092,0.03245447805646085,0.004604250072765825, ,0.6019208431243896
0.01069510147435206,0.020805342859991638,-0.08202811437003786, ,0.011002100715711248,0.020696482149932475,-0.08227644824102684, ,0.0004095960203298771, ,0.0045176269784100815,0.0014679999346369453,-0.007048572612343884,-0.010110019084029602,-0.01661924683570698,-0.003914067456681692, ,0.008499785479389288, ,0.01945281043621554, ,4.378604382641164e-05, ,0.2080813145631052,-0.22978219393967605,0.09442435618000002,1.7945265363405596,0.81899917959405,-1.1496618028455265, ,0.03693925323412642,0.005086462335674564,0.007835126178061978,0.016779565881956157,0.017660513255642524,0.014314292428325529, ,0.6174747943878174
0.01078112120043672,0.02083264877469178,-0.08215609273300722, ,0.011069483740074727,0.020712618011007874,-0.08236778968134487, ,0.00037732735977198, ,0.003918901633831231,0.0010750757399070178,-0.005423511849534293,0.027684062230715904,0.023252653259091344,-0.015350809040788125, ,0.006777024320763546, ,0.036153743658011356, ,4.404172993827842e-05, ,0.20882269691903074,-0.22968179841231115,0.09456954066,1.7949459162275283,0.8196823620928773,-1.1497288199231652, ,0.036838874828598905,0.005591127345571954,0.006353734152373355,0.015901734315183047,0.058997413214681396,-0.024613716217958163, ,0.6327488422393799
0.010821729925459232,0.020843328875670725,-0.08220946938819006, ,0.01113667487823404,0.020728489963218376,-0.08245905468706469, ,0.0004179367422300924, ,0.004218379291401485,0.001065517437723088,-0.005576405296691889,-0.005927736073551096,0.0006054758093310957,-0.001146190279524673, ,0.007072930601185779, ,0.0059585778941869845, ,4.4427802588497235e-05, ,0.20918566536411928,-0.22962773928219157,0.09463046629,1.795155606171013,0.8199556350924082,-1.1497066195101364, ,0.03829577948283728,0.006023324343257437,0.006402255434083603,0.01779864039952378,0.036952141905597945,0.012379617896200247, ,0.6486568450927734
0.01091076793541655,0.020862608143735677,-0.08232279732319894, ,0.011203674616795684,0.020744099660398817,-0.0825502432280475, ,0.0003893202078645836, ,0.004405126611608515,0.0008852086913293178,-0.00516713692688818,-0.0011754289671556005,-0.030482722772640636,-0.013741580376803487, ,0.006847484130154513, ,0.0305053768573195, ,4.4696962690714086e-05, ,0.2099733841172902,-0.2295118982890782,0.09475750271000001,1.795155606171013,0.820228908091939,-1.1494393828766858, ,0.039213612214244124,0.006281715631814014,0.00579862086639971,0.0137764440930077,0.005866759031977098,-0.0014475972801668083, ,0.6644399166107178
0.010948275948513638,0.020871947208651823,-0.08237069337344916, ,0.011270483442235926,0.020759448752223002,-0.08264135527369385, ,0.0004355817213264719, ,0.003678573647208571,0.0008674368629407146,-0.004957470499810976,0.05319737755129141,0.05054340858794824,-0.010059170722927745, ,0.006233848293439766, ,0.07337981416594475, ,4.510871766551769e-05, ,0.2103517980281272,-0.2294501164260844,0.09481583576000001,1.7953652961144975,0.8210487270905317,-1.1500262115587239, ,0.03758294715186961,0.005992119384284737,0.006029073247539744,0.0012805141092665777,0.09146927718603025,-0.053507519819919094, ,0.6799008846282959
0.0109874476106019,0.020881229772579512,-0.08242280576631521, ,0.011337101840899855,0.020774538884206932,-0.08273239079294409, ,0.0004790447945023418, ,0.004677577116337081,0.0013687323088007275,-0.006801395213165659,-0.006437719633199842,-0.01743740169770176,-0.0057902284557908475, ,0.008367325298929642, ,0.01858782390406261, ,4.579421927245596e-05, ,0.21112407131554964,-0.22934199816584527,0.09495064992,1.7957846760014666,0.8215952730895935,-1.1499001319925257, ,0.039052239324473575,0.0055459979244509685,0.007614154646271511,0.01598359228469946,0.019124898208098432,0.009382340627939492, ,0.6931829452514648
0.011082302110797625,0.020907548735244412,-0.08255448618191766, ,0.011403530299000878,0.020789371697714384,-0.08282334975428125, ,0.0004352481839592584, ,0.004787901734908264,0.001173354621861654,-0.006569322675590668,-0.033348326298391656,-0.03671222473455218,0.005911759319838835, ,0.008213206712838258, ,0.04959736182126317, ,4.631190594447055e-05, ,0.21147931702776399,-0.22928021630285148,0.095018057,1.7957846760014666,0.8217319095893589,-1.1495214774553786, ,0.03937632429812066,0.006847231915832102,0.007207607022624436,0.015399635114413168,0.0,0.03652738935647517, ,0.7074549198150635
0.011124448404290676,0.020917566371141033,-0.08261450135478494, ,0.011469769302620171,0.020803948829960384,-0.08291423212573185, ,0.00047116239614325146, ,0.004077319185658211,0.0012538410620734363,-0.006062495205750321,0.05631107070723049,0.05560688225743331,-0.019852339201526206, ,0.007412860262437408, ,0.07913950992012314, ,4.6923586199142786e-05, ,0.21190406733584632,-0.22921071170698346,0.09509324182000001,1.7957846760014666,0.8224150920881861,-1.1499152094935796, ,0.039343673946298,0.005609623363904048,0.00727342991780822,0.013221238993886482,0.09581646949747237,-0.05293100069191938, ,0.7212879657745361
0.011217284493914228,0.02094351710698244,-0.08275012635258344, ,0.011535819337705982,0.020818271914015973,-0.08300503787486928, ,0.00042676772284783507, ,0.004948698245681786,0.001255794517515851,-0.007095221040043171,-0.027454408414006096,-0.032579013910074395,0.01800771056501459, ,0.008741212490501998, ,0.04260442078862492, ,4.7374599260176886e-05, ,0.21270723155476567,-0.22908714798099586,0.09524750033000001,1.7959943659449509,0.8232349110867787,-1.1500119657347743, ,0.04078080857691052,0.006301677960358483,0.007850572459339577,-0.00012698902031031402,0.00922878459416868,0.028358916253837862, ,0.7345168590545654
0.011267154401922178,0.020956771262436277,-0.08281798880290803, ,0.011601680890072841,0.02083234257881227,-0.08309576696881403, ,0.00045227334438027945, ,0.004971301382231727,0.0012965108477357033,-0.006930823813273069,-0.04005051115381433,-0.030945356763815424,0.012212580856917208, ,0.008627345857325327, ,0.050612829726550866, ,4.788687288462573e-05, ,0.21311653639709957,-0.22902536611800206,0.09532268515,1.7962040558884358,0.8232349110867787,-1.149685250774212, ,0.04093914648769231,0.006703217211577901,0.0076950780289855095,0.01725048320768405,0.0073291436127310775,0.04753015050539811, ,0.7479979991912842
0.011318844983625963,0.02097101313214595,-0.0828934571344844, ,0.011667354445401101,0.020846162449144983,-0.08318641937423696, ,0.0004720947065085987, ,0.005061448303913152,0.0013293617873236783,-0.007325281472497257,-0.004129532503320975,-0.02210007546706034,-0.012397923217408877, ,0.009002511335515958, ,0.022482578883516922, ,4.844008686426897e-05, ,0.21355673217093038,-0.22894813878925982,0.09540824029000002,1.79641374583192,0.823644820586075,-1.1498561470050201, ,0.04153039017876183,0.007603051602442288,0.008151899447287616,0.018322777434769285,0.016167332436540616,0.004041867415395266, ,0.7618668079376221
0.011418308081785313,0.020998385981946196,-0.0830464932969825, ,0.01173284048923619,0.020859733145678735,-0.08327699505736036, ,0.00041386749797386895, ,0.005035737169419499,0.001335620579464563,-0.007473219771525645,-0.009654962239175327,-0.014493233758563664,-0.0013713939461024959, ,0.009109969534816468, ,0.017414709222678938, ,4.8802519148940306e-05, ,0.21439078732134662,-0.22880912959752378,0.09558064686000001,1.79641374583192,0.8244646395846676,-1.1500345819863553, ,0.04142162442534735,0.007694748187841478,0.008352811494493972,0.013936415541516048,0.02526539997277782,0.011610227169061307, ,0.7755169868469238
0.011470057417451388,0.021010990844061477,-0.08312183894986541, ,0.011798139506987807,0.020873056284951487,-0.08336749398395968, ,0.00043244675492747683, ,0.005220742643585005,0.0012547430266807368,-0.0073054030166993765,-0.0402734819070234,-0.03271365467009706,0.01563183769576755, ,0.009066391070869997, ,0.05188580274007676, ,4.9206078802217284e-05, ,0.21482326036230318,-0.22873190226878154,0.09566490571000001,1.79641374583192,0.8247379125841986,-1.149930702833186, ,0.04274637007138323,0.00786246265844234,0.008093908292682929,0.012400456513446968,0.008498321166248799,0.04542973414384749, ,0.7886619567871094
0.011566873302118311,0.021036111604585822,-0.08325867108925522, ,0.01186325198392936,0.020886133479378406,-0.08345791611936652, ,0.0003873400871286628, ,0.004866867026464289,0.0010617068946648402,-0.006276161385504364,0.014392528781823,0.004660598393660777,-0.014433602230357574, ,0.00801272849411237, ,0.015128319549261915, ,4.9467736797431375e-05, ,0.21524801067038554,-0.22865467494003927,0.09574527569,1.796623435775405,0.8251478220834948,-1.149938241583713, ,0.04270789449076092,0.007776884140042611,0.008210727587628867,0.0,0.046072875987048685,-0.015590677520804687, ,0.8031678199768066
0.011610110244583142,0.021044809234202808,-0.08331010670546832, ,0.011928178405197248,0.020898966337256873,-0.08354826142846884, ,0.00042326726482623273, ,0.004624374317975201,0.0008135338939141953,-0.005424958368699956,-0.014353561811417049,-0.018017642050173175,0.001983977533652656, ,0.007174736826631586, ,0.023036062098882953, ,4.9960533942638865e-05, ,0.21604345215643067,-0.228507943015429,0.09588008985,1.7970428156623737,0.8258310045823221,-1.1500052586613516, ,0.041349429872972014,0.007884841504989226,0.0061835448447204976,0.012238071963857107,0.021972357735134104,0.01610269815528855, ,0.815593957901001
0.011610110244583142,0.021044809234202808,-0.08331010670546832, ,0.011992919255790093,0.020911556462770247,-0.08363852987571413, ,0.0005216903477255561, ,0.004624374317975201,0.0008135338939141953,-0.005424958368699956,-0.014353561811417049,-0.018017642050173175,0.001983977533652656, ,0.007174736826631586, ,0.023036062098882953, ,5.071160487637467e-05, ,0.21604345215643067,-0.228507943015429,0.09588008985,1.7970428156623737,0.8258310045823221,-1.1500052586613516, ,0.041349429872972014,0.007884841504989226,0.0061835448447204976,0.012238071963857107,0.021972357735134104,0.01610269815528855, ,0.8265588283538818
0.011712408897202391,0.02106292170061846,-0.08343618140843141, ,0.012057475020568037,0.020923905455992476,-0.08372872142511029, ,0.00047326082356664883, ,0.004781889978674294,0.000928798881325794,-0.006426509869083446,0.009072961223125368,0.022050188146233992,0.016976169188056157, ,0.008064066482087347, ,0.023843854799067317, ,5.131025010576098e-05, ,0.21698562556708606,-0.2283148746935734,0.09602657062000002,1.7972525056058584,0.8269240965804455,-1.149998135749377, ,0.044282287241470264,0.008644040994107954,0.007506508727615459,-0.00506573765585441,0.07093780317572428,-0.007928539389872993, ,0.8378129005432129
0.011737428882796398,0.021068432754305037,-0.08346986934629189, ,0.012121846184252051,0.020936014912892327,-0.08381883604022844, ,0.0005358067747424032, ,0.004897858732876109,0.0011173984933998814,-0.006912708790780348,0.03166458579874102,0.02866790114453686,0.0038149897209477967, ,0.008545357943725646, ,0.04271410228547345, ,5.206093699880828e-05, ,0.21720958482043856,-0.2282762610292023,0.09606545932,1.7972525056058584,0.8271973695799765,-1.1498942565962074, ,0.04484732587829433,0.007926580312186514,0.008081588797564689,-0.00506573765585441,0.07800318087461086,-0.03358631435148463, ,0.8500080108642578
0.011814145932529075,0.02108561354519182,-0.0835817280051069, ,0.01218603323142303,0.02094788642533748,-0.08390887368420322, ,0.0005140945613147523, ,0.005051165518060356,0.0011432156038617923,-0.007701735887886482,-0.007033863753291006,0.006621640098423325,0.02124936617750782, ,0.009281053318159184, ,0.009660296568664054, ,5.273411969461918e-05, ,0.2178814625804961,-0.22813725183746625,0.09619379203,1.7972525056058584,0.8281538250783346,-1.1498573945206767, ,0.04270789449076092,0.009355099232624382,0.0087185613136289,-0.00506573765585441,0.05332192111299473,0.007422482436559706, ,0.8623290061950684
0.011916595039956871,0.021105214154301104,-0.08372601694346546, ,0.01225003664652138,0.020959521581099545,-0.08399883431973662, ,0.00045479550533167415, ,0.004890660646822059,0.0010339574811123514,-0.006761399003908875,-0.024059284542707796,-0.007250167165258686,0.010163083439951273, ,0.00840857574891147, ,0.02512795420442839, ,5.3234446675924356e-05, ,0.21874640866240924,-0.2279364607827364,0.09635582828000001,1.7972525056058584,0.8288370075771617,-1.1496793753778938, ,0.046518108607093524,0.011404511664279625,0.008859183270300336,0.006401664757012225,0.01953246124890755,0.02610892282906983, ,0.8736748695373535
0.011971367476550709,0.02112067838755295,-0.08380811239106215, ,0.012313856913845898,0.020970921963857664,-0.084088717909098, ,0.00046740288600836293, ,0.005457876070494371,0.001509943606825252,-0.008277661929587024,0.04317106489413008,0.02820287788112954,-0.030244391935987987, ,0.010029358300370064, ,0.05156688012676264, ,5.375442252251025e-05, ,0.21920977263486272,-0.22783606525537148,0.09645045745000001,1.797671885492827,0.829520190075989,-1.1500731074160948, ,0.046518108607093524,0.009228759640262861,0.009543925416417017,0.022833379027285296,0.07243612878244311,-0.04331215307510568, ,0.8848228454589844
0.012011018223015861,0.02113195185750142,-0.08386691721321124, ,0.012377494517553203,0.020982089153202755,-0.08417852441412658, ,0.0005038479455746803, ,0.005748403532213779,0.0016316394855154113,-0.008347705964148175,0.03168250696248517,0.008087630695482574,-0.045461765331904415, ,0.010265991693145668, ,0.03269848585422445, ,5.435410576986262e-05, ,0.21954185014845437,-0.22777428339237768,0.09651786453000001,1.7978815754363118,0.8299300995752852,-1.1503256823870434, ,0.04759124451277371,0.009154399380455211,0.009532502405745064,0.0408772601311214,0.048361508181903386,-0.029329935458262804, ,0.8987088203430176
0.012090016806605822,0.02115182656333329,-0.08399144029389802, ,0.012440949941656945,0.020993024724642637,-0.08426825379623322, ,0.00047433933457328, ,0.006288008033958518,0.0019051855947633343,-0.010502527591906336,-0.01667731429334206,-0.01662601534658109,-0.019246593463660613, ,0.012388376124592539, ,0.023549035448650883, ,5.4864354650779415e-05, ,0.2201519460455181,-0.22764299693351586,0.09665527127000001,1.7978815754363118,0.8302033725748161,-1.1501401244937335, ,0.0463590334921694,0.011197005969002154,0.01159302148471616,0.03764320799280343,0.022803616962455593,0.021926862692729546, ,0.9116318225860596
0.012146802190158346,0.021165533974716932,-0.08408119320068992, ,0.01250422367002705,0.021003730249605636,-0.08435790601640253, ,0.0004801047199424573, ,0.005565031366311269,0.001447338988024448,-0.00799802290004834,-0.020194223402350244,-0.03168521055458581,-0.014900872414689171, ,0.009850519507314403, ,0.03757338411675128, ,5.5514347920952333e-05, ,0.22058441908647466,-0.22754260140615096,0.09675378931,1.7978815754363118,0.8303400090745816,-1.1500065061770082, ,0.04331215954288945,0.008756955157751163,0.00886411325542571,0.02985834466284582,0.005612985283361417,0.023538450098571966, ,0.9207539558410645
0.01219938033612589,0.021174020160964594,-0.0841518049944827, ,0.012567316186388837,0.021014207295445002,-0.08444748103519369, ,0.0004983385023704517, ,0.004706333193113551,0.0007533418663284374,-0.006133245939346981,0.01332660080914347,0.037127667187259815,-0.009586230471648501, ,0.007767483623715073, ,0.0394469511016447, ,5.619652350289466e-05, ,0.22105550579180236,-0.22742676041303758,0.09683545558000001,1.7978815754363118,0.8310231915734089,-1.1500735232546468, ,0.04343109453476923,0.012041444513849042,0.007240368872727274,0.02430908493641459,0.07893779369115858,-0.007871158488228565, ,0.9295289516448975
0.01224775978185577,0.021181761697305238,-0.0842205270831963, ,0.012630227974322346,0.021024457425443233,-0.08453697881274326, ,0.0005207381773290181, ,0.005278025662043741,0.0010636641544450503,-0.00743058868141548,0.05034778086948275,0.04933717144967099,-0.02723494690846903, ,0.009176196623603017, ,0.0704915278773498, ,5.6920122728609675e-05, ,0.2215111470313816,-0.22730319668704999,0.09691712185000001,1.7978815754363118,0.8321162835715323,-1.1506381515236561, ,0.04785524032197215,0.012090803482496523,0.008756905728422212,0.02079505573273853,0.09643179613087371,-0.05108634774914886, ,0.9395198822021484
0.01230062980600817,0.02119278427509797,-0.08429398809436339, ,0.012692959517261423,0.02103448219881678,-0.0846263993087664, ,0.0005380328662339165, ,0.005766482377764234,0.0013882991430192557,-0.008023169913685131,-0.004093864157563765,0.004970433287083538,0.0001495913744669295, ,0.009977522186767401, ,0.006439324309013865, ,5.7671581264492184e-05, ,0.22196678827096086,-0.2272105238925593,0.09700138070000001,1.7978815754363118,0.8326628295705941,-1.1505937506975985, ,0.04879020131540914,0.009334449926880952,0.009202086377816292,0.01835594457292695,0.052473852856252994,0.009822425034669763, ,0.9491989612579346
0.012366177118798559,0.021208147489612934,-0.08438824934343458, ,0.012755511298493082,0.021044283170719612,-0.0847157424825584, ,0.0005344945038613157, ,0.0063606163518135925,0.0012993338387298158,-0.009195888890059163,-0.03126219945348266,-0.026852023143759462,0.02205538586659353, ,0.011256557256894327, ,0.04121111738137295, ,5.8400138048193255e-05, ,0.22246876590778544,-0.22710240563232015,0.09710119503,1.7980912653797962,0.8330727390698903,-1.1504379319678442, ,0.05091037637257016,0.011437500489149183,0.010152206195028681,0.0,0.02613383637993321,0.01145750278419344, ,0.9586517810821533
0.012425812841182434,0.02122051635897871,-0.08448186406458733, ,0.012817883801156544,0.021053861892248303,-0.08480500829299698, ,0.0005347107080381731, ,0.00610690624366832,0.001284150477574796,-0.01013698213835132,0.0017612194106785526,0.011482986403595574,0.009244552653046054, ,0.011903854551835905, ,0.011617261446587823, ,5.911536407157901e-05, ,0.22297846627748427,-0.2269633964405841,0.09721267597000001,1.7980912653797962,0.8336192850689521,-1.150475209881927, ,0.04800047625618147,0.014733262157812572,0.01132916893314367,0.0,0.0625261417702012,-0.006726667838212491, ,0.9675869941711426
0.01248727093326515,0.021236409632366,-0.08458597874208323, ,0.012880077508242467,0.02106321991044559,-0.084894196698544, ,0.0005284789435816096, ,0.006174722434694807,0.0015508839309043478,-0.01041072285244073,0.026576539491786563,0.025047561296988107,-0.005276974777941999, ,0.012203097492972525, ,0.03651975706369186, ,5.9802464041685585e-05, ,0.2234649984485604,-0.22682438724884807,0.09733063836000001,1.798300955323281,0.8344391040675448,-1.1507353236034028, ,0.04881529915559196,0.012972924341554445,0.011755580457564578,0.004114241250270496,0.07620596597843744,-0.031379239910467246, ,0.9770147800445557
0.012552430325371212,0.021252610803717986,-0.08469256505603709, ,0.012942092902592272,0.021072358768305363,-0.08498330765724652, ,0.0005185161333217852, ,0.006675958002964355,0.0015263072577691213,-0.010926014213731202,-0.001270891375344864,0.0029617680344607147,0.00602901930230343, ,0.012894798009318285, ,0.0032228991716526842, ,6.045352762479757e-05, ,0.22396697608538502,-0.22668537805711203,0.09744989704000001,1.7985106452667654,0.8349856500666065,-1.1508542802576263, ,0.05168678734121502,0.014437386514296482,0.012196639754977033,0.004260328763843271,0.05650646251243119,-0.0027236312550331064, ,0.9861929416656494
0.012621089377503905,0.02126640825121949,-0.08480054821809521, ,0.013003930466897032,0.021081280004776326,-0.08507234112673928, ,0.0005046891642863362, ,0.006672285232725436,0.0012508596788143038,-0.010138061673339999,-0.02985816996142094,-0.01598150298022047,0.019386494208077094, ,0.012200997281180534, ,0.033866187323871456, ,6.106062936564548e-05, ,0.22448439918795804,-0.22653864613250177,0.09756656314,1.7985106452667654,0.8355321960656683,-1.1508915581717092, ,0.052487246437207286,0.015227365461885554,0.01126507179632249,0.003895914966780827,0.037850280125464285,0.028123484665732806, ,0.9953548908233643
0.012621089377503905,0.02126640825121949,-0.08480054821809521, ,0.013065590683696882,0.02108998515476686,-0.0851612970642462, ,0.0005990377702352896, ,0.006672285232725436,0.0012508596788143038,-0.010138061673339999,-0.02985816996142094,-0.01598150298022047,0.019386494208077094, ,0.012200997281180534, ,0.033866187323871456, ,6.201442726045822e-05, ,0.22448439918795804,-0.22653864613250177,0.09756656314,1.7985106452667654,0.8355321960656683,-1.1508915581717092, ,0.052487246437207286,0.015227365461885554,0.01126507179632249,0.003895914966780827,0.037850280125464285,0.028123484665732806, ,1.002100944519043
0.012683857435544064,0.02127773236737727,-0.08489338403438504, ,0.013127074035380165,0.02109847574914891,-0.08525017542658182, ,0.0005965517472061092, ,0.006786793981218105,0.0012309272882386859,-0.009803963676056031,0.005254101433481699,-0.012374199125680538,-0.0035107708803133355, ,0.01198722062422541, ,0.013443448043574288, ,6.294952627053734e-05, ,0.2250095450234053,-0.2263919142078915,0.09767415521000002,1.7985106452667654,0.8359421055649647,-1.1508174181820956, ,0.05469564354955088,0.014610768523244153,0.010985387255172415,0.003594875431268248,0.04344991091706733,-0.013993561999612665, ,1.0092239379882812
0.012755195376804333,0.02128953229799242,-0.08499781080552637, ,0.013188381004182452,0.021106753314762416,-0.0853389761701534, ,0.0005809059738879096, ,0.006835220755700826,0.0010822788443315633,-0.010219417871062324,0.02316514754285987,0.029446306526159472,-0.0015157752032318916, ,0.012342125906805482, ,0.03746610357712679, ,6.383653395170544e-05, ,0.22559647272184638,-0.22622201408465856,0.0977921176,1.7985106452667654,0.8366252880637919,-1.1508844352597345, ,0.05723579104853485,0.017935539890090866,0.011652385896122898,0.00332241431093903,0.08990711320398757,-0.030455935403187494, ,1.0159618854522705
0.012755195376804333,0.02128953229799242,-0.08499781080552637, ,0.013249512072185903,0.021114819374419804,-0.08542769925096275, ,0.0006779953366476397, ,0.006835220755700826,0.0010822788443315633,-0.010219417871062324,0.02316514754285987,0.029446306526159472,-0.0015157752032318916, ,0.012342125906805482, ,0.03746610357712679, ,6.492976032202572e-05, ,0.22559647272184638,-0.22622201408465856,0.0977921176,1.7985106452667654,0.8366252880637919,-1.1508844352597345, ,0.05723579104853485,0.017935539890090866,0.011652385896122898,0.00332241431093903,0.08990711320398757,-0.030455935403187494, ,1.0225977897644043
0.012822595120429277,0.021302218848013994,-0.08510212715087542, ,0.013310467721318222,0.02112267544690992,-0.0855163446246073, ,0.0006647041621074628, ,0.007013476095938708,0.001215199364067858,-0.011034043209262046,0.02678195071904463,0.024212293868945092,-0.0039770624667987056, ,0.013130714603044134, ,0.03610412573591673, ,6.59786774674306e-05, ,0.22615250948879054,-0.2260443912285514,0.09791137628,1.7987203352102499,0.83758174356215,-1.1514193243651876, ,0.05665489048266912,0.01822137894747903,0.012463858779342725,0.0,0.08442746772629531,-0.03735328734037363, ,1.0293068885803223
0.012904159738658598,0.021318354518668866,-0.08523346556528621, ,0.01337124843335195,0.021130323047002512,-0.08560491224628272, ,0.0006256998640487906, ,0.008000555993582993,0.00164211701940657,-0.013090339194462045,-0.008399668660024688,0.006435011692145657,0.001720797843310168, ,0.015429271685272467, ,0.010581277082744424, ,6.692715602983969e-05, ,0.2267780508516027,-0.22583587744094732,0.09805785705000002,1.7989300251537346,0.8382649260609771,-1.151568020182967, ,0.06083137279389152,0.019894537014354462,0.014586823736263738,0.015171802511850963,0.06737315543039564,0.004820570621932037, ,1.0357959270477295
0.012904159738658598,0.021318354518668866,-0.08523346556528621, ,0.013431854689903537,0.021137763685452594,-0.0856934020707833, ,0.0007229222639399162, ,0.008000555993582993,0.00164211701940657,-0.013090339194462045,-0.008399668660024688,0.006435011692145657,0.001720797843310168, ,0.015429271685272467, ,0.010581277082744424, ,6.8077245888541e-05, ,0.2267780508516027,-0.22583587744094732,0.09805785705000002,1.7989300251537346,0.8382649260609771,-1.151568020182967, ,0.06083137279389152,0.019894537014354462,0.014586823736263738,0.015171802511850963,0.06737315543039564,0.004820570621932037, ,1.0424208641052246
0.012987558320513206,0.02133750799568586,-0.08537269579858969, ,0.013492286972432516,0.021144998869004512,-0.08578181405250522, ,0.0006776345044423198, ,0.008968817964139914,0.002332937237430177,-0.01525706361232226,-0.0021298731965937383,-0.014036570887079849,-0.007692280203468819, ,0.01785105828510218, ,0.014197212944396935, ,6.911313815719898e-05, ,0.2273958694815407,-0.22565825458484018,0.09821211556000001,1.7989300251537346,0.8388114720600389,-1.1516052980970497, ,0.06468775839023229,0.017777621123730006,0.016873741016949155,0.01505705067703158,0.04971824151643318,-0.004184300630756532, ,1.0494928359985352
0.013080050072831115,0.021359135717513248,-0.08553321567258229, ,0.013552545762240641,0.021152030100396513,-0.08587014814544724, ,0.0006161723820675344, ,0.009129917893621867,0.0020766235742657297,-0.01585755509943454,0.004245065997050473,0.003034679474450834,-0.007816653580178867, ,0.01841547772785369, ,0.0052181282188709845, ,7.000190547805972e-05, ,0.22806774724159823,-0.22544974079723612,0.09838970729,1.7989300251537346,0.8394946545588661,-1.1516723151746886, ,0.06603823351320166,0.02225538029044812,0.017542743964757714,0.013553252601273115,0.06928222448981598,-0.013764468277363325, ,1.0562119483947754
0.013080050072831115,0.021359135717513248,-0.08553321567258229, ,0.013612631540470998,0.02115885887836484,-0.08595840430321294, ,0.0007103092309623309, ,0.009129917893621867,0.0020766235742657297,-0.01585755509943454,0.004245065997050473,0.003034679474450834,-0.007816653580178867, ,0.01841547772785369, ,0.0052181282188709845, ,7.123633279409047e-05, ,0.22806774724159823,-0.22544974079723612,0.09838970729,1.7989300251537346,0.8394946545588661,-1.1516723151746886, ,0.06603823351320166,0.02225538029044812,0.017542743964757714,0.013553252601273115,0.06928222448981598,-0.013764468277363325, ,1.0608408451080322
0.01316292685991894,0.021375745188834255,-0.08567261144148404, ,0.013672544788107248,0.02116548669764808,-0.08604658247901156, ,0.0006661631952879437, ,0.008997076760572488,0.0017107274166072157,-0.014537496728001913,0.03263594364360885,0.015691575504922565,-0.02236747842457254, ,0.01718175746675035, ,0.0362122867274547, ,7.23649761770641e-05, ,0.2286932886044104,-0.22524122700963206,0.09854526209000002,1.7989300251537346,0.8403144735574588,-1.1520957863764454, ,0.06886570504968853,0.023005319165689885,0.016270491848825334,0.012428912220199342,0.0851813994040618,-0.04685943544509141, ,1.0652379989624023
0.01316292685991894,0.021375745188834255,-0.08567261144148404, ,0.013732285985972533,0.021171915048991484,-0.08613468262566104, ,0.0007610691949984387, ,0.008997076760572488,0.0017107274166072157,-0.014537496728001913,0.03263594364360885,0.015691575504922565,-0.02236747842457254, ,0.01718175746675035, ,0.0362122867274547, ,7.368759257758837e-05, ,0.2286932886044104,-0.22524122700963206,0.09854526209000002,1.7989300251537346,0.8403144735574588,-1.1520957863764454, ,0.06886570504968853,0.023005319165689885,0.016270491848825334,0.012428912220199342,0.0851813994040618,-0.04685943544509141, ,1.0696229934692383
0.01316292685991894,0.021375745188834255,-0.08567261144148404, ,0.013791855614728803,0.021178145419151036,-0.08622270469558818, ,0.00085860330526759, ,0.008997076760572488,0.0017107274166072157,-0.014537496728001913,0.03263594364360885,0.015691575504922565,-0.02236747842457254, ,0.01718175746675035, ,0.0362122867274547, ,7.520731078295677e-05, ,0.2286932886044104,-0.22524122700963206,0.09854526209000002,1.7989300251537346,0.8403144735574588,-1.1520957863764454, ,0.06886570504968853,0.023005319165689885,0.016270491848825334,0.012428912220199342,0.0851813994040618,-0.04685943544509141, ,1.0741169452667236
0.013264679772368055,0.021392816053694193,-0.0858331706749722, ,0.013851254154875859,0.021184179290898036,-0.08631064864083175, ,0.0007845916217280457, ,0.009821764662315942,0.0017732075415987226,-0.015681821795880426,-0.005813041684078065,-0.003689128183785125,-0.0006820364672247933, ,0.01858846042321018, ,0.00688477828232856, ,7.655662354925917e-05, ,0.22941922549458751,-0.2250018222905311,0.0987124835,1.7989300251537346,0.840997656056286,-1.1522444821942248, ,0.07384975996768155,0.02490733374238078,0.017257650617551468,0.011410369014455142,0.06801561836900269,-0.0021389200554474685, ,1.078725814819336
0.013264679772368055,0.021392816053694193,-0.0858331706749722, ,0.013910482086750529,0.021190018143023577,-0.08639851441304308, ,0.0008819303623359844, ,0.009821764662315942,0.0017732075415987226,-0.015681821795880426,-0.005813041684078065,-0.003689128183785125,-0.0006820364672247933, ,0.01858846042321018, ,0.00688477828232856, ,7.810072760696567e-05, ,0.22941922549458751,-0.2250018222905311,0.0987124835,1.7989300251537346,0.840997656056286,-1.1522444821942248, ,0.07384975996768155,0.02490733374238078,0.017257650617551468,0.011410369014455142,0.06801561836900269,-0.0021389200554474685, ,1.0831708908081055
0.013361685455213542,0.021410846330202314,-0.08599280319118775, ,0.013969539890525625,0.02119566345034197,-0.08648630196348839, ,0.0008119924412060725, ,0.01055481179399866,0.002114580517214624,-0.017409620708677086,0.0405781535960855,0.022767969738640863,-0.022511859667215178, ,0.02046876635243353, ,0.04652918864461321, ,7.948425289386892e-05, ,0.23019922151488417,-0.22473152663993323,0.09890174184000002,1.7989300251537346,0.8419541115546441,-1.152534335079256, ,0.07954479594171901,0.026272685924272086,0.01949670932680539,0.010535392149725705,0.10410315858626411,-0.057186294847905855, ,1.087683916091919
0.013361685455213542,0.021410846330202314,-0.08599280319118775, ,0.014028428046209313,0.021201116683695866,-0.08657401124305028, ,0.0009090297062369901, ,0.01055481179399866,0.002114580517214624,-0.017409620708677086,0.0405781535960855,0.022767969738640863,-0.022511859667215178, ,0.02046876635243353, ,0.04652918864461321, ,8.106001171834213e-05, ,0.23019922151488417,-0.22473152663993323,0.09890174184000002,1.7989300251537346,0.8419541115546441,-1.152534335079256, ,0.07954479594171901,0.026272685924272086,0.01949670932680539,0.010535392149725705,0.10410315858626411,-0.057186294847905855, ,1.0923669338226318
0.013471400570384009,0.02143423457299038,-0.08617284482376417, ,0.014087147033643891,0.021206379309960152,-0.08666164220222947, ,0.0008185258732026604, ,0.011075035781431538,0.0023433347984907348,-0.01867523993750234,0.04726193746861652,0.0404214964861414,-0.01023769740589906, ,0.021838320042097764, ,0.062189917509764485, ,8.243324571366845e-05, ,0.23100238573380352,-0.22447667645508382,0.09909618534,1.7991397150972188,0.8430472035527675,-1.1529356058679843, ,0.08368336998101479,0.026485331163402397,0.020931421182654404,0.0005468770442067667,0.1291128174142541,-0.06326465436687134, ,1.0974318981170654
0.013471400570384009,0.02143423457299038,-0.08617284482376417, ,0.014145697332505269,0.021211452792046576,-0.08674919479114623, ,0.0009145967035961905, ,0.011075035781431538,0.0023433347984907348,-0.01867523993750234,0.04726193746861652,0.0404214964861414,-0.01023769740589906, ,0.021838320042097764, ,0.062189917509764485, ,8.39951836556869e-05, ,0.23100238573380352,-0.22447667645508382,0.09909618534,1.7991397150972188,0.8430472035527675,-1.1529356058679843, ,0.08368336998101479,0.026485331163402397,0.020931421182654404,0.0005468770442067667,0.1291128174142541,-0.06326465436687134, ,1.1020429134368896
0.013588575709819495,0.02145902214973686,-0.08637327946508733, ,0.014204079422301827,0.02121633858890741,-0.0868366689595422, ,0.0008077561230640953, ,0.012051042596604807,0.0024757837653230437,-0.020703324557248198,-0.012049769242534758,0.006022031196062206,0.017706764331101736, ,0.02408287318076016, ,0.013470634538711225, ,8.53224985016469e-05, ,0.23189050001433936,-0.2241832126058633,0.09932822125000002,1.7991397150972188,0.8442769320506565,-1.153366615820268, ,0.08650587197672815,0.029983235879453642,0.02295217798270894,0.0007103284375086071,0.09725572883905947,-0.0004793903203523242, ,1.1064319610595703
0.013588575709819495,0.02145902214973686,-0.08637327946508733, ,0.014262293782373509,0.021221038155540366,-0.08692406465678226, ,0.0009021622637696827, ,0.012051042596604807,0.0024757837653230437,-0.020703324557248198,-0.012049769242534758,0.006022031196062206,0.017706764331101736, ,0.02408287318076016, ,0.013470634538711225, ,8.68338978131477e-05, ,0.23189050001433936,-0.2241832126058633,0.09932822125000002,1.7991397150972188,0.8442769320506565,-1.153366615820268, ,0.08650587197672815,0.029983235879453642,0.02295217798270894,0.0007103284375086071,0.09725572883905947,-0.0004793903203523242, ,1.1109089851379395
0.013717357380741596,0.021485067093306203,-0.08659213146874666, ,0.014320340891891138,0.021225552942992647,-0.0870113818318562, ,0.0007789143572297772, ,0.012748248798173866,0.002465072536545756,-0.02151074192869442,0.002894633767645793,-0.002582661039917528,-5.202632731706814e-06, ,0.02512581239191015, ,0.003878715920788021, ,8.807926110862812e-05, ,0.23274000063050404,-0.2238743032908943,0.09955377571000001,1.7993494050407037,0.8450967510492492,-1.1533000145811816, ,0.09151103332542987,0.032299843961358335,0.023845526227544912,0.0037628930809141675,0.09050052440258201,-0.017052494915027826, ,1.1153738498687744
0.013717357380741596,0.021485067093306203,-0.08659213146874666, ,0.014378221229855315,0.02122988439836516,-0.08709862043337965, ,0.0008708560766038096, ,0.012748248798173866,0.002465072536545756,-0.02151074192869442,0.002894633767645793,-0.002582661039917528,-5.202632731706814e-06, ,0.02512581239191015, ,0.003878715920788021, ,8.968660569896731e-05, ,0.23274000063050404,-0.2238743032908943,0.09955377571000001,1.7993494050407037,0.8450967510492492,-1.1533000145811816, ,0.09151103332542987,0.032299843961358335,0.023845526227544912,0.0037628930809141675,0.09050052440258201,-0.017052494915027826, ,1.1177048683166504
0.013717357380741596,0.021485067093306203,-0.08659213146874666, ,0.014435935275095433,0.021234033964816528,-0.08718578040959665, ,0.0009652931610788671, ,0.012748248798173866,0.002465072536545756,-0.02151074192869442,0.002894633767645793,-0.002582661039917528,-5.202632731706814e-06, ,0.02512581239191015, ,0.003878715920788021, ,9.148088142720481e-05, ,0.23274000063050404,-0.2238743032908943,0.09955377571000001,1.7993494050407037,0.8450967510492492,-1.1533000145811816, ,0.09151103332542987,0.032299843961358335,0.023845526227544912,0.0037628930809141675,0.09050052440258201,-0.017052494915027826, ,1.120054006576538
0.013717357380741596,0.021485067093306203,-0.08659213146874666, ,0.014493483506269122,0.021238003081568247,-0.08727286170838115, ,0.0010615112094439993, ,0.012748248798173866,0.002465072536545756,-0.02151074192869442,0.002894633767645793,-0.002582661039917528,-5.202632731706814e-06, ,0.02512581239191015, ,0.003878715920788021, ,9.346458352948863e-05, ,0.23274000063050404,-0.2238743032908943,0.09955377571000001,1.7993494050407037,0.8450967510492492,-1.1533000145811816, ,0.09151103332542987,0.032299843961358335,0.023845526227544912,0.0037628930809141675,0.09050052440258201,-0.017052494915027826, ,1.1223838329315186
0.013717357380741596,0.021485067093306203,-0.08659213146874666, ,0.014550866401861002,0.021241793183907835,-0.08735986427723824, ,0.0011590224969843228, ,0.012748248798173866,0.002465072536545756,-0.02151074192869442,0.002894633767645793,-0.002582661039917528,-5.202632731706814e-06, ,0.02512581239191015, ,0.003878715920788021, ,9.563919151613116e-05, ,0.23274000063050404,-0.2238743032908943,0.09955377571000001,1.7993494050407037,0.8450967510492492,-1.1533000145811816, ,0.09151103332542987,0.032299843961358335,0.023845526227544912,0.0037628930809141675,0.09050052440258201,-0.017052494915027826, ,1.1246190071105957
0.013847822569343197,0.021508085271643496,-0.08680820986750967, ,0.014608084440181952,0.021245405703194303,-0.08744678806330636, ,0.0010270252090766067, ,0.0136285039629051,0.0022900342663238647,-0.02223882643474669,-0.004566726634164028,-0.01461341691797624,-0.00017139611453777584, ,0.026182929141000358, ,0.01531017657198791, ,0.0005321136561331208, ,0.23374395590415323,-0.22351133484580576,0.09980914484000002,1.7993494050407037,0.8460532065476072,-1.1533448312457915, ,0.09823699954293041,0.03613744918449001,0.024581499259259263,0.0037628930809141675,0.08678731710042806,-0.01857183014260931, ,1.12687087059021
0.013847822569343197,0.021508085271643496,-0.08680820986750967, ,0.014665138099368114,0.021248842066860986,-0.08753363301335818, ,0.0011231431143797106, ,0.0136285039629051,0.0022900342663238647,-0.02223882643474669,-0.004566726634164028,-0.01461341691797624,-0.00017139611453777584, ,0.026182929141000358, ,0.01531017657198791, ,0.0005386084853446217, ,0.23374395590415323,-0.22351133484580576,0.09980914484000002,1.7993494050407037,0.8460532065476072,-1.1533448312457915, ,0.09823699954293041,0.03613744918449001,0.024581499259259263,0.0037628930809141675,0.08678731710042806,-0.01857183014260931, ,1.1294398307800293
0.013847822569343197,0.021508085271643496,-0.08680820986750967, ,0.014722027857380039,0.021252103698421513,-0.08762039907380308, ,0.0012204149942868978, ,0.0136285039629051,0.0022900342663238647,-0.02223882643474669,-0.004566726634164028,-0.01461341691797624,-0.00017139611453777584, ,0.026182929141000358, ,0.01531017657198791, ,0.0005460194256592117, ,0.23374395590415323,-0.22351133484580576,0.09980914484000002,1.7993494050407037,0.8460532065476072,-1.1533448312457915, ,0.09823699954293041,0.03613744918449001,0.024581499259259263,0.0037628930809141675,0.08678731710042806,-0.01857183014260931, ,1.1316618919372559
0.013847822569343197,0.021508085271643496,-0.08680820986750967, ,0.014778754192001678,0.021255192017472533,-0.08770708619068844, ,0.0013185474312447445, ,0.0136285039629051,0.0022900342663238647,-0.02223882643474669,-0.004566726634164028,-0.01461341691797624,-0.00017139611453777584, ,0.026182929141000358, ,0.01531017657198791, ,0.0005543261784074433, ,0.23374395590415323,-0.22351133484580576,0.09980914484000002,1.7993494050407037,0.8460532065476072,-1.1533448312457915, ,0.09823699954293041,0.03613744918449001,0.024581499259259263,0.0037628930809141675,0.08678731710042806,-0.01857183014260931, ,1.1338708400726318
0.013992566535474406,0.021532168728546144,-0.0870481046960696, ,0.014835317580839625,0.02125810843969906,-0.08779369430970134, ,0.00115812013122242, ,0.016005801386262754,0.0028240822027040453,-0.02739789592026034,0.01849595536535931,-0.009856460496116173,-0.017473122236819214, ,0.031856017000898566, ,0.020957927869086897, ,0.0005607495183310068, ,0.23478652484217355,-0.2231174754692203,0.10007488429000001,1.7993494050407037,0.8471462985457309,-1.15382778077466, ,0.11151226975143451,0.04387283474732814,0.030168203636363643,0.0037628930809141675,0.10506290709670296,-0.052708934231698854, ,1.1361148357391357
0.013992566535474406,0.021532168728546144,-0.0870481046960696, ,0.014891718501322017,0.02126085437687819,-0.08788022337617012, ,0.0012547937013233851, ,0.016005801386262754,0.0028240822027040453,-0.02739789592026034,0.01849595536535931,-0.009856460496116173,-0.017473122236819214, ,0.031856017000898566, ,0.020957927869086897, ,0.0005680552465730319, ,0.23478652484217355,-0.2231174754692203,0.10007488429000001,1.7993494050407037,0.8471462985457309,-1.15382778077466, ,0.11151226975143451,0.04387283474732814,0.030168203636363643,0.0037628930809141675,0.10506290709670296,-0.052708934231698854, ,1.1383907794952393
0.013992566535474406,0.021532168728546144,-0.0870481046960696, ,0.01494795743069774,0.021263431236883578,-0.08796667333506618, ,0.0013523165112682555, ,0.016005801386262754,0.0028240822027040453,-0.02739789592026034,0.01849595536535931,-0.009856460496116173,-0.017473122236819214, ,0.031856017000898566, ,0.020957927869086897, ,0.0005762246347469404, ,0.23478652484217355,-0.2231174754692203,0.10007488429000001,1.7993494050407037,0.8471462985457309,-1.15382778077466, ,0.11151226975143451,0.04387283474732814,0.030168203636363643,0.0037628930809141675,0.10506290709670296,-0.052708934231698854, ,1.140636920928955
0.013992566535474406,0.021532168728546144,-0.0870481046960696, ,0.0150040348460354,0.02126584042368981,-0.08805304413100541, ,0.0014504834287663736, ,0.016005801386262754,0.0028240822027040453,-0.02739789592026034,0.01849595536535931,-0.009856460496116173,-0.017473122236819214, ,0.031856017000898566, ,0.020957927869086897, ,0.0005852376120048727, ,0.23478652484217355,-0.2231174754692203,0.10007488429000001,1.7993494050407037,0.8471462985457309,-1.15382778077466, ,0.11151226975143451,0.04387283474732814,0.030168203636363643,0.0037628930809141675,0.10506290709670296,-0.052708934231698854, ,1.1430089473724365
0.013992566535474406,0.021532168728546144,-0.0870481046960696, ,0.015059951224222577,0.021268083337376547,-0.08813933570825008, ,0.0015491405002605984, ,0.018366440311911418,0.004217234374602077,-0.03364143522854355,0.05566634807753516,0.024591537553130247,-0.015950080379077386, ,0.038559789415109895, ,0.06085591949765326, ,0.0005950733557625842, ,0.23592176657468455,-0.2226772796953895,0.10040154937000001,1.799559094984188,0.8483760270436198,-1.154585505687506, ,0.12292349942807097,0.044489892901299004,0.03661795751724139,-0.00858528214762918,0.15469902481227613,-0.09064533950589082, ,1.1453349590301514
0.01417178126576342,0.02156972721901578,-0.08736743034651223, ,0.015115707041964608,0.021270161374132433,-0.0882255480107107, ,0.0013103821931051724, ,0.018366440311911418,0.004217234374602077,-0.03364143522854355,0.05566634807753516,0.024591537553130247,-0.015950080379077386, ,0.038559789415109895, ,0.06085591949765326, ,0.0006022986975539235, ,0.23592176657468455,-0.2226772796953895,0.10040154937000001,1.799559094984188,0.8483760270436198,-1.154585505687506, ,0.12292349942807097,0.044489892901299004,0.03661795751724139,-0.00858528214762918,0.15469902481227613,-0.09064533950589082, ,1.147933006286621
0.01417178126576342,0.02156972721901578,-0.08736743034651223, ,0.015171302775784056,0.021272075926260424,-0.08831168098194657, ,0.0014068577766039535, ,0.018366440311911418,0.004217234374602077,-0.03364143522854355,0.05566634807753516,0.024591537553130247,-0.015950080379077386, ,0.038559789415109895, ,0.06085591949765326, ,0.0006103442883444238, ,0.23592176657468455,-0.2226772796953895,0.10040154937000001,1.799559094984188,0.8483760270436198,-1.154585505687506, ,0.12292349942807097,0.044489892901299004,0.03661795751724139,-0.00858528214762918,0.15469902481227613,-0.09064533950589082, ,1.1503138542175293
0.01417178126576342,0.02156972721901578,-0.08736743034651223, ,0.015226738902019369,0.021273828382180872,-0.08839773456516924, ,0.0015040008374058221, ,0.018366440311911418,0.004217234374602077,-0.03364143522854355,0.05566634807753516,0.024591537553130247,-0.015950080379077386, ,0.038559789415109895, ,0.06085591949765326, ,0.000619192372988596, ,0.23592176657468455,-0.2226772796953895,0.10040154937000001,1.799559094984188,0.8483760270436198,-1.154585505687506, ,0.12292349942807097,0.044489892901299004,0.03661795751724139,-0.00858528214762918,0.15469902481227613,-0.09064533950589082, ,1.1526799201965332
0.014355264307951253,0.0216149988801563,-0.08771134475726043, ,0.015282015896824116,0.021275420126436316,-0.08848370870324196, ,0.0012532869992577715, ,0.018366440311911418,0.004217234374602077,-0.03364143522854355,0.05566634807753516,0.024591537553130247,-0.015950080379077386, ,0.038559789415109895, ,0.06085591949765326, ,0.0006254089869716271, ,0.23721146296468004,-0.22221391572293603,0.10080728814,1.799559094984188,0.8500156650408051,-1.155595805571301, ,0.13017413108157858,0.04909308926977277,0.042476830720000004,-0.008015390173562243,0.15861175155328522,-0.09928587767379661, ,1.1554458141326904
0.014355264307951253,0.0216149988801563,-0.08771134475726043, ,0.015337134236166236,0.021276852539696026,-0.0885696033386836, ,0.0013472265199609497, ,0.020232732982278415,0.004930215755028328,-0.03859285355574131,0.057304585654604966,0.020685890631212952,-0.021298627309483266, ,0.043852923014300896, ,0.060923197521871725, ,0.0006324169241851157, ,0.23721146296468004,-0.22221391572293603,0.10080728814,1.799559094984188,0.8500156650408051,-1.155595805571301, ,0.13017413108157858,0.04909308926977277,0.042476830720000004,-0.008015390173562243,0.15861175155328522,-0.09928587767379661, ,1.1580510139465332
0.014355264307951253,0.0216149988801563,-0.08771134475726043, ,0.015392094395826861,0.021278126998759934,-0.08865541841366853, ,0.0014421422829677467, ,0.020232732982278415,0.004930215755028328,-0.03859285355574131,0.057304585654604966,0.020685890631212952,-0.021298627309483266, ,0.043852923014300896, ,0.060923197521871725, ,0.000640202744942641, ,0.23721146296468004,-0.22221391572293603,0.10080728814,1.799559094984188,0.8500156650408051,-1.155595805571301, ,0.13017413108157858,0.04909308926977277,0.042476830720000004,-0.008015390173562243,0.15861175155328522,-0.09928587767379661, ,1.1604018211364746
0.014355264307951253,0.0216149988801563,-0.08771134475726043, ,0.015446896851399437,0.021279244876562818,-0.08874115387002894, ,0.0015378228667779874, ,0.020232732982278415,0.004930215755028328,-0.03859285355574131,0.057304585654604966,0.020685890631212952,-0.021298627309483266, ,0.043852923014300896, ,0.060923197521871725, ,0.0006487515080077395, ,0.23721146296468004,-0.22221391572293603,0.10080728814,1.799559094984188,0.8500156650408051,-1.155595805571301, ,0.13017413108157858,0.04909308926977277,0.042476830720000004,-0.008015390173562243,0.15861175155328522,-0.09928587767379661, ,1.1626529693603516
0.014355264307951253,0.0216149988801563,-0.08771134475726043, ,0.015501542078288903,0.021280207542179207,-0.08882680964925671, ,0.0016341052267314418, ,0.021826354532056405,0.004967739471038872,-0.04238816382659011,0.010298340615471965,-0.018642730458093233,-0.013022524552437496, ,0.04793562996562139, ,0.02129484386485528, ,0.0006580472978070196, ,0.23851660482042397,-0.22167332442174031,0.10125191561,1.7993494050407037,0.8513820300384595,-1.156219912167422, ,0.13365766416686023,0.05768811036989105,0.04617046817391306,-0.0036775647929125576,0.12069236092417314,-0.05807477135584101, ,1.1657888889312744
0.014564710422216064,0.02166323744495466,-0.08811834829591275, ,0.01555603055171053,0.02128101636082643,-0.08891238569250441, ,0.0013263875540275333, ,0.021826354532056405,0.004967739471038872,-0.04238816382659011,0.010298340615471965,-0.018642730458093233,-0.013022524552437496, ,0.04793562996562139, ,0.02129484386485528, ,0.0006642934684259029, ,0.23851660482042397,-0.22167332442174031,0.10125191561,1.7993494050407037,0.8513820300384595,-1.156219912167422, ,0.13365766416686023,0.05768811036989105,0.04617046817391306,-0.0036775647929125576,0.12069236092417314,-0.05807477135584101, ,1.1680209636688232
0.014564710422216064,0.02166323744495466,-0.08811834829591275, ,0.01561036274668922,0.021281672693870365,-0.08899788194058786, ,0.0014186471989404588, ,0.021826354532056405,0.004967739471038872,-0.04238816382659011,0.010298340615471965,-0.018642730458093233,-0.013022524552437496, ,0.04793562996562139, ,0.02129484386485528, ,0.0006712782251899266, ,0.23851660482042397,-0.22167332442174031,0.10125191561,1.7993494050407037,0.8513820300384595,-1.156219912167422, ,0.13365766416686023,0.05768811036989105,0.04617046817391306,-0.0036775647929125576,0.12069236092417314,-0.05807477135584101, ,1.1702699661254883
0.014564710422216064,0.02166323744495466,-0.08811834829591275, ,0.01566453913805846,0.021282177898828532,-0.08908329833398647, ,0.0015119385430181506, ,0.021826354532056405,0.004967739471038872,-0.04238816382659011,0.010298340615471965,-0.018642730458093233,-0.013022524552437496, ,0.04793562996562139, ,0.02129484386485528, ,0.000678990705170002, ,0.23851660482042397,-0.22167332442174031,0.10125191561,1.7993494050407037,0.8513820300384595,-1.156219912167422, ,0.13365766416686023,0.05768811036989105,0.04617046817391306,-0.0036775647929125576,0.12069236092417314,-0.05807477135584101, ,1.1725349426269531
0.014564710422216064,0.02166323744495466,-0.08811834829591275, ,0.015718560200459388,0.02128253332937521,-0.08916863481284655, ,0.0016060531442091911, ,0.021826354532056405,0.004967739471038872,-0.04238816382659011,0.010298340615471965,-0.018642730458093233,-0.013022524552437496, ,0.04793562996562139, ,0.02129484386485528, ,0.0006874185455249038, ,0.23851660482042397,-0.22167332442174031,0.10125191561,1.7993494050407037,0.8513820300384595,-1.156219912167422, ,0.13365766416686023,0.05768811036989105,0.04617046817391306,-0.0036775647929125576,0.12069236092417314,-0.05807477135584101, ,1.1747260093688965
0.01479445750869175,0.0217119049154708,-0.08855129188342335, ,0.015772426408339747,0.021282740335344955,-0.0892538913169809, ,0.001278378414065528, ,0.022441825695491465,0.004326686143445913,-0.04172563849407374,-0.03943260851732601,-0.044431069287675866,0.011311273783477831, ,0.04757504242004243, ,0.059404747744072534, ,0.000692742508304549, ,0.23992986493640706,-0.22106322852467658,0.10172246888000001,1.7993494050407037,0.8523384855368175,-1.1564280863123129, ,0.13934940023270306,0.06235015871121602,0.045381229401709404,-0.0036775647929125576,0.10060530014232519,-0.006147377444113457, ,1.1769208908081055
0.01479445750869175,0.0217119049154708,-0.08855129188342335, ,0.015826138235953153,0.021282800262737565,-0.08933906778587254, ,0.0013671454927986124, ,0.022441825695491465,0.004326686143445913,-0.04172563849407374,-0.03943260851732601,-0.044431069287675866,0.011311273783477831, ,0.04757504242004243, ,0.059404747744072534, ,0.000698763963523246, ,0.23992986493640706,-0.22106322852467658,0.10172246888000001,1.7993494050407037,0.8523384855368175,-1.1564280863123129, ,0.13934940023270306,0.06235015871121602,0.045381229401709404,-0.0036775647929125576,0.10060530014232519,-0.006147377444113457, ,1.1792259216308594
0.01479445750869175,0.0217119049154708,-0.08855129188342335, ,0.015879696157358156,0.021282714453722037,-0.089424164158675, ,0.0014573446352590723, ,0.022441825695491465,0.004326686143445913,-0.04172563849407374,-0.03943260851732601,-0.044431069287675866,0.011311273783477831, ,0.04757504242004243, ,0.059404747744072534, ,0.0007054770668129436, ,0.23992986493640706,-0.22106322852467658,0.10172246888000001,1.7993494050407037,0.8523384855368175,-1.1564280863123129, ,0.13934940023270306,0.06235015871121602,0.045381229401709404,-0.0036775647929125576,0.10060530014232519,-0.006147377444113457, ,1.1815040111541748
0.01479445750869175,0.0217119049154708,-0.08855129188342335, ,0.015933100646416894,0.021282484246640386,-0.08950918037421395, ,0.001548696441106649, ,0.022441825695491465,0.004326686143445913,-0.04172563849407374,-0.03943260851732601,-0.044431069287675866,0.011311273783477831, ,0.04757504242004243, ,0.059404747744072534, ,0.0007128737279909586, ,0.23992986493640706,-0.22106322852467658,0.10172246888000001,1.7993494050407037,0.8523384855368175,-1.1564280863123129, ,0.13934940023270306,0.06235015871121602,0.045381229401709404,-0.0036775647929125576,0.10060530014232519,-0.006147377444113457, ,1.1838889122009277
0.015021182772960986,0.021745925405620672,-0.08895156373025365, ,0.0159863521767946,0.02128211097601294,-0.08959411637098977, ,0.0012488193221302428, ,0.023029399664204742,0.003013607266087714,-0.039400792589433645,0.02776712696357669,-0.011399548653933708,-0.020824926936913308, ,0.045736829080331526, ,0.03001446472627102, ,0.0007175341244617349, ,0.2414126296482582,-0.22039135076461905,0.10216061490000002,1.7991397150972188,0.8537048505344719,-1.1570521929084336, ,0.15380379507045505,0.0705553468836214,0.043284813913043486,-0.011481993683565679,0.15058055648908208,-0.09131205427854841, ,1.186352014541626
0.015021182772960986,0.021745925405620672,-0.08895156373025365, ,0.016039451221958545,0.02128159597254179,-0.08967897208717829, ,0.0013347641643268132, ,0.023029399664204742,0.003013607266087714,-0.039400792589433645,0.02776712696357669,-0.011399548653933708,-0.020824926936913308, ,0.045736829080331526, ,0.03001446472627102, ,0.0007228550730812614, ,0.2414126296482582,-0.22039135076461905,0.10216061490000002,1.7991397150972188,0.8537048505344719,-1.1570521929084336, ,0.15380379507045505,0.0705553468836214,0.043284813913043486,-0.011481993683565679,0.15058055648908208,-0.09131205427854841, ,1.188584804534912
0.015021182772960986,0.021745925405620672,-0.08895156373025365, ,0.016092398255176957,0.021280940563115414,-0.08976374746063266, ,0.001422447160702712, ,0.023029399664204742,0.003013607266087714,-0.039400792589433645,0.02776712696357669,-0.011399548653933708,-0.020824926936913308, ,0.045736829080331526, ,0.03001446472627102, ,0.0007288344926335815, ,0.2414126296482582,-0.22039135076461905,0.10216061490000002,1.7991397150972188,0.8537048505344719,-1.1570521929084336, ,0.15380379507045505,0.0705553468836214,0.043284813913043486,-0.011481993683565679,0.15058055648908208,-0.09131205427854841, ,1.1908299922943115
0.015021182772960986,0.021745925405620672,-0.08895156373025365, ,0.016145193749518207,0.021280146070812633,-0.08984844242888534, ,0.0015115364581162517, ,0.023029399664204742,0.003013607266087714,-0.039400792589433645,0.02776712696357669,-0.011399548653933708,-0.020824926936913308, ,0.045736829080331526, ,0.03001446472627102, ,0.0007354675601376719, ,0.2414126296482582,-0.22039135076461905,0.10216061490000002,1.7991397150972188,0.8537048505344719,-1.1570521929084336, ,0.15380379507045505,0.0705553468836214,0.043284813913043486,-0.011481993683565679,0.15058055648908208,-0.09131205427854841, ,1.1931958198547363
0.015251559366848237,0.021769521378902573,-0.08933135834530567, ,0.016197838177849685,0.021279213814907324,-0.08993305692914924, ,0.0012238816451195865, ,0.023589471104764777,0.0023064100207472924,-0.0376331173885136,0.011660938899460812,-0.0028497847626320436,0.006580052750309097, ,0.04447509638622473, ,0.01200097020633657, ,0.0007395718801795367, ,0.2429957898874742,-0.2196731366073162,0.10257931657000001,1.7987203352102499,0.8553444885316571,-1.1578991353119472, ,0.16475163465012285,0.07299764735266984,0.0416984594764398,-0.02321371813909912,0.17409404809804988,-0.07286691972878355, ,1.1959660053253174
0.015251559366848237,0.021769521378902573,-0.08933135834530567, ,0.01625033201283713,0.021278145110872514,-0.09001759089831939, ,0.0013076362460464762, ,0.023589471104764777,0.0023064100207472924,-0.0376331173885136,0.011660938899460812,-0.0028497847626320436,0.006580052750309097, ,0.04447509638622473, ,0.01200097020633657, ,0.0007443057498950946, ,0.2429957898874742,-0.2196731366073162,0.10257931657000001,1.7987203352102499,0.8553444885316571,-1.1578991353119472, ,0.16475163465012285,0.07299764735266984,0.0416984594764398,-0.02321371813909912,0.17409404809804988,-0.07286691972878355, ,1.1982438564300537
0.015251559366848237,0.021769521378902573,-0.08933135834530567, ,0.01630267572694348,0.02127694127038433,-0.09010204427297516, ,0.001393354787868294, ,0.023589471104764777,0.0023064100207472924,-0.0376331173885136,0.011660938899460812,-0.0028497847626320436,0.006580052750309097, ,0.04447509638622473, ,0.01200097020633657, ,0.0007496697915312367, ,0.2429957898874742,-0.2196731366073162,0.10257931657000001,1.7987203352102499,0.8553444885316571,-1.1578991353119472, ,0.16475163465012285,0.07299764735266984,0.0416984594764398,-0.02321371813909912,0.17409404809804988,-0.07286691972878355, ,1.2005729675292969
0.015251559366848237,0.021769521378902573,-0.08933135834530567, ,0.01635486979242789,0.0212756036013269,-0.09018641698938096, ,0.0014806667251633355, ,0.023589471104764777,0.0023064100207472924,-0.0376331173885136,0.011660938899460812,-0.0028497847626320436,0.006580052750309097, ,0.04447509638622473, ,0.01200097020633657, ,0.0007556615696757622, ,0.2429957898874742,-0.2196731366073162,0.10257931657000001,1.7987203352102499,0.8553444885316571,-1.1578991353119472, ,0.16475163465012285,0.07299764735266984,0.0416984594764398,-0.02321371813909912,0.17409404809804988,-0.07286691972878355, ,1.2027778625488281
0.015251559366848237,0.021769521378902573,-0.08933135834530567, ,0.01640691468134491,0.02127413340779598,-0.0902707089834887, ,0.0015692784221124263, ,0.023589471104764777,0.0023064100207472924,-0.0376331173885136,0.011660938899460812,-0.0028497847626320436,0.006580052750309097, ,0.04447509638622473, ,0.01200097020633657, ,0.0007622763408337838, ,0.2429957898874742,-0.2196731366073162,0.10257931657000001,1.7987203352102499,0.8553444885316571,-1.1578991353119472, ,0.16475163465012285,0.07299764735266984,0.0416984594764398,-0.02321371813909912,0.17409404809804988,-0.07286691972878355, ,1.2049839496612549
0.015495246066506178,0.021780200475629046,-0.08969947908293405, ,0.016458810865543447,0.021272531990103576,-0.0903549201909388, ,0.0012711362866356824, ,0.02363783689123409,0.00016432523704654764,-0.03401584307094595,0.014367703655669625,-0.03510462369434931,0.015842500669270433, ,0.04142284291918336, ,0.037930462318273725, ,0.0007663800500741217, ,0.24474112751704893,-0.21886224965552262,0.10298635163000001,1.7980912653797962,0.8569841265288425,-1.1586643989753203, ,0.1728541740591453,0.08360964013962183,0.03765676482269504,-0.060084302393800165,0.15636699770697246,-0.10370516003108837, ,1.2079827785491943
0.015495246066506178,0.021780200475629046,-0.08969947908293405, ,0.01651055881666592,0.021270800644782466,-0.09043905054706236, ,0.0013554756061458135, ,0.02363783689123409,0.00016432523704654764,-0.03401584307094595,0.014367703655669625,-0.03510462369434931,0.015842500669270433, ,0.04142284291918336, ,0.037930462318273725, ,0.0007710928145226952, ,0.24474112751704893,-0.21886224965552262,0.10298635163000001,1.7980912653797962,0.8569841265288425,-1.1586643989753203, ,0.1728541740591453,0.08360964013962183,0.03765676482269504,-0.060084302393800165,0.15636699770697246,-0.10370516003108837, ,1.2102329730987549
0.015495246066506178,0.021780200475629046,-0.08969947908293405, ,0.01656215900614708,0.021268940664589668,-0.09052309998688217, ,0.0014415412614897749, ,0.02363783689123409,0.00016432523704654764,-0.03401584307094595,0.014367703655669625,-0.03510462369434931,0.015842500669270433, ,0.04142284291918336, ,0.037930462318273725, ,0.0007764138339430689, ,0.24474112751704893,-0.21886224965552262,0.10298635163000001,1.7980912653797962,0.8569841265288425,-1.1586643989753203, ,0.1728541740591453,0.08360964013962183,0.03765676482269504,-0.060084302393800165,0.15636699770697246,-0.10370516003108837, ,1.2124857902526855
0.015495246066506178,0.021780200475629046,-0.08969947908293405, ,0.016613611905213353,0.021266953338511477,-0.09060706844511486, ,0.0015290138074230586, ,0.02363783689123409,0.00016432523704654764,-0.03401584307094595,0.014367703655669625,-0.03510462369434931,0.015842500669270433, ,0.04142284291918336, ,0.037930462318273725, ,0.0007823398179862183, ,0.24474112751704893,-0.21886224965552262,0.10298635163000001,1.7980912653797962,0.8569841265288425,-1.1586643989753203, ,0.1728541740591453,0.08360964013962183,0.03765676482269504,-0.060084302393800165,0.15636699770697246,-0.10370516003108837, ,1.2147448062896729
0.01573354969952592,0.021779479835893747,-0.0900272507168979, ,0.016664917984881622,0.02126483995176763,-0.09069095585617251, ,0.0012541154672514366, ,0.02341398204586668,-0.0010225495959001322,-0.03115585274898319,-0.03532214245882564,-0.05734746889106649,0.021438267150097078, ,0.03898650181071092, ,0.06735248013253298, ,0.0007860255652461028, ,0.24650191061237212,-0.21798958084073525,0.10335060912,1.7980912653797962,0.8584871280262623,-1.1593999234751375, ,0.17476416493272703,0.08986452799097612,0.034477947012987016,-0.040387686408811053,0.13159628944554008,-0.048976677167557735, ,1.217221975326538
0.01573354969952592,0.021779479835893747,-0.0900272507168979, ,0.01671607771595846,0.021262601785815034,-0.09077476215416379, ,0.0013383936530674894, ,0.02341398204586668,-0.0010225495959001322,-0.03115585274898319,-0.03532214245882564,-0.05734746889106649,0.021438267150097078, ,0.03898650181071092, ,0.06735248013253298, ,0.000790307488407509, ,0.24650191061237212,-0.21798958084073525,0.10335060912,1.7980912653797962,0.8584871280262623,-1.1593999234751375, ,0.17476416493272703,0.08986452799097612,0.034477947012987016,-0.040387686408811053,0.13159628944554008,-0.048976677167557735, ,1.2194969654083252
0.01573354969952592,0.021779479835893747,-0.0900272507168979, ,0.01676709156903898,0.021260240118352543,-0.09085848727289571, ,0.0014243499894112794, ,0.02341398204586668,-0.0010225495959001322,-0.03115585274898319,-0.03532214245882564,-0.05734746889106649,0.021438267150097078, ,0.03898650181071092, ,0.06735248013253298, ,0.0007951847384152303, ,0.24650191061237212,-0.21798958084073525,0.10335060912,1.7980912653797962,0.8584871280262623,-1.1593999234751375, ,0.17476416493272703,0.08986452799097612,0.034477947012987016,-0.040387686408811053,0.13159628944554008,-0.048976677167557735, ,1.2217237949371338
0.01573354969952592,0.021779479835893747,-0.0900272507168979, ,0.016817960014506132,0.02125775622332541,-0.09094213114587597, ,0.0015116704199242426, ,0.02341398204586668,-0.0010225495959001322,-0.03115585274898319,-0.03532214245882564,-0.05734746889106649,0.021438267150097078, ,0.03898650181071092, ,0.06735248013253298, ,0.0008006540947626274, ,0.24650191061237212,-0.21798958084073525,0.10335060912,1.7980912653797962,0.8584871280262623,-1.1593999234751375, ,0.17476416493272703,0.08986452799097612,0.034477947012987016,-0.040387686408811053,0.13159628944554008,-0.048976677167557735, ,1.2239859104156494
0.01596629641857375,0.021768465422677782,-0.09033602016005776, ,0.01686868352252958,0.021255151370928926,-0.09102569370631378, ,0.0012463720959304111, ,0.02345856397088857,-0.001462669178539783,-0.03084185952164463,-0.029767368470333285,-0.04645124993416235,0.00712925954822718, ,0.038777105661137, ,0.05517052600584416, ,0.0008040307462866257, ,0.2482318027761984,-0.2170628528958283,0.10369282968000001,1.7980912653797962,0.8598534930239167,-1.159942351331118, ,0.17508660804145898,0.09414379122864167,0.034181998969957085,-0.028360669826655797,0.1404775546800615,-0.055656946416615914, ,1.2262179851531982
0.01596629641857375,0.021768465422677782,-0.09033602016005776, ,0.016919262563064686,0.021252426827612924,-0.09110917488712142, ,0.0013312432295126653, ,0.02345856397088857,-0.001462669178539783,-0.03084185952164463,-0.029767368470333285,-0.04645124993416235,0.00712925954822718, ,0.038777105661137, ,0.05517052600584416, ,0.0008079947499199042, ,0.2482318027761984,-0.2170628528958283,0.10369282968000001,1.7980912653797962,0.8598534930239167,-1.159942351331118, ,0.17508660804145898,0.09414379122864167,0.034181998969957085,-0.028360669826655797,0.1404775546800615,-0.055656946416615914, ,1.2284858226776123
0.01596629641857375,0.021768465422677782,-0.09033602016005776, ,0.016969697605851597,0.021249583856086312,-0.0911925746209163, ,0.001417652131940582, ,0.02345856397088857,-0.001462669178539783,-0.03084185952164463,-0.029767368470333285,-0.04645124993416235,0.00712925954822718, ,0.038777105661137, ,0.05517052600584416, ,0.0008125444318752825, ,0.2482318027761984,-0.2170628528958283,0.10369282968000001,1.7980912653797962,0.8598534930239167,-1.159942351331118, ,0.17508660804145898,0.09414379122864167,0.034181998969957085,-0.028360669826655797,0.1404775546800615,-0.055656946416615914, ,1.2307369709014893
0.01596629641857375,0.021768465422677782,-0.09033602016005776, ,0.017019989120414497,0.02124662371532127,-0.09127589284002288, ,0.0015053065242647528, ,0.02345856397088857,-0.001462669178539783,-0.03084185952164463,-0.029767368470333285,-0.04645124993416235,0.00712925954822718, ,0.038777105661137, ,0.05517052600584416, ,0.0008176760029300193, ,0.2482318027761984,-0.2170628528958283,0.10369282968000001,1.7980912653797962,0.8598534930239167,-1.159942351331118, ,0.17508660804145898,0.09414379122864167,0.034181998969957085,-0.028360669826655797,0.1404775546800615,-0.055656946416615914, ,1.2329978942871094
0.01596629641857375,0.021768465422677782,-0.09033602016005776, ,0.01707013757606034,0.021243547660557204,-0.09135912947647325, ,0.0015939751037225061, ,0.02345856397088857,-0.001462669178539783,-0.03084185952164463,-0.029767368470333285,-0.04645124993416235,0.00712925954822718, ,0.038777105661137, ,0.05517052600584416, ,0.0008233840845534935, ,0.2482318027761984,-0.2170628528958283,0.10369282968000001,1.7980912653797962,0.8598534930239167,-1.159942351331118, ,0.17508660804145898,0.09414379122864167,0.034181998969957085,-0.028360669826655797,0.1404775546800615,-0.055656946416615914, ,1.2352027893066406
0.01620416943349081,0.021748661774248508,-0.09065271837769029, ,0.017120143441878163,0.021240356943305377,-0.09144228446200983, ,0.0013117914417730494, ,0.02415439558969899,-0.0017572203439028895,-0.03336192856870633,-0.011094524358164435,-0.03242344515386064,-0.011485245539637076, ,0.04122548880806824, ,0.03426845396715517, ,0.0008269491017594756, ,0.2500003086043958,-0.21607434308792756,0.10404282798000002,1.7974621955493428,0.8613564945213367,-1.1608412333112164, ,0.17508660804145898,0.10281358782066174,0.036787093579676675,-0.0264837512258384,0.15408088066058961,-0.08601168337450216, ,1.2378199100494385
0.01620416943349081,0.021748661774248508,-0.09065271837769029, ,0.017170007186737776,0.02123705281135294,-0.09152535772808608, ,0.0013986013486234784, ,0.02415439558969899,-0.0017572203439028895,-0.03336192856870633,-0.011094524358164435,-0.03242344515386064,-0.011485245539637076, ,0.04122548880806824, ,0.03426845396715517, ,0.0008310915093454466, ,0.2500003086043958,-0.21607434308792756,0.10404282798000002,1.7974621955493428,0.8613564945213367,-1.1608412333112164, ,0.17508660804145898,0.10281358782066174,0.036787093579676675,-0.0264837512258384,0.15408088066058961,-0.08601168337450216, ,1.2400548458099365
0.01620416943349081,0.021748661774248508,-0.09065271837769029, ,0.017219729279289085,0.021233636508767157,-0.0916083492058687, ,0.0014865541040429413, ,0.02415439558969899,-0.0017572203439028895,-0.03336192856870633,-0.011094524358164435,-0.03242344515386064,-0.011485245539637076, ,0.04122548880806824, ,0.03426845396715517, ,0.0008358070675806805, ,0.2500003086043958,-0.21607434308792756,0.10404282798000002,1.7974621955493428,0.8613564945213367,-1.1608412333112164, ,0.17508660804145898,0.10281358782066174,0.036787093579676675,-0.0264837512258384,0.15408088066058961,-0.08601168337450216, ,1.2424089908599854
0.01620416943349081,0.021748661774248508,-0.09065271837769029, ,0.01726931018796118,0.02123010927590017,-0.09169125882623909, ,0.0015754325703275767, ,0.02415439558969899,-0.0017572203439028895,-0.03336192856870633,-0.011094524358164435,-0.03242344515386064,-0.011485245539637076, ,0.04122548880806824, ,0.03426845396715517, ,0.0008410901068860154, ,0.2500003086043958,-0.21607434308792756,0.10404282798000002,1.7974621955493428,0.8613564945213367,-1.1608412333112164, ,0.17508660804145898,0.10281358782066174,0.036787093579676675,-0.0264837512258384,0.15408088066058961,-0.08601168337450216, ,1.2447659969329834
0.016403200396522325,0.021731248432622707,-0.09093361313069553, ,0.017318750380961166,0.021226472349392723,-0.09177408651979524, ,0.001341426921599425, ,0.025128715211644087,-0.002227995285521908,-0.03564784875371558,-0.037922512800367764,-0.06563572074223212,0.08685870485899176, ,0.04367133398406788, ,0.075803082050597, ,0.0008446385949336283, ,0.25142129145325315,-0.21523256520463707,0.10435004871,1.796623435775405,0.8624495865194601,-1.1614875403203662, ,0.1793893035131773,0.10474276110206487,0.03904120470588236,-0.13479923805247648,0.147850087432556,-0.08913335271283009, ,1.24721097946167
0.016403200396522325,0.021731248432622707,-0.09093361313069553, ,0.017368050326273157,0.02122272696217838,-0.0918568322168526, ,0.001428937701191953, ,0.025128715211644087,-0.002227995285521908,-0.03564784875371558,-0.037922512800367764,-0.06563572074223212,0.08685870485899176, ,0.04367133398406788, ,0.075803082050597, ,0.0008487533773720672, ,0.25142129145325315,-0.21523256520463707,0.10435004871,1.796623435775405,0.8624495865194601,-1.1614875403203662, ,0.1793893035131773,0.10474276110206487,0.03904120470588236,-0.13479923805247648,0.147850087432556,-0.08913335271283009, ,1.2495198249816895
0.016403200396522325,0.021731248432622707,-0.09093361313069553, ,0.017417210491657655,0.021218874343488396,-0.09193949584744623, ,0.0015174134967471272, ,0.025128715211644087,-0.002227995285521908,-0.03564784875371558,-0.037922512800367764,-0.06563572074223212,0.08685870485899176, ,0.04367133398406788, ,0.075803082050597, ,0.0008534293222628019, ,0.25142129145325315,-0.21523256520463707,0.10435004871,1.796623435775405,0.8624495865194601,-1.1614875403203662, ,0.1793893035131773,0.10474276110206487,0.03904120470588236,-0.13479923805247648,0.147850087432556,-0.08913335271283009, ,1.251835823059082
0.016403200396522325,0.021731248432622707,-0.09093361313069553, ,0.01746623134465022,0.021214915718855486,-0.092022077341333, ,0.0016066700363866096, ,0.025128715211644087,-0.002227995285521908,-0.03564784875371558,-0.037922512800367764,-0.06563572074223212,0.08685870485899176, ,0.04367133398406788, ,0.075803082050597, ,0.0008586601605553283, ,0.25142129145325315,-0.21523256520463707,0.10435004871,1.796623435775405,0.8624495865194601,-1.1614875403203662, ,0.1793893035131773,0.10474276110206487,0.03904120470588236,-0.13479923805247648,0.147850087432556,-0.08913335271283009, ,1.2540438175201416
0.016717647523337462,0.021712543874590207,-0.09138494641100299, ,0.017515113352560677,0.021210852310118173,-0.09210457662799179, ,0.0011855436828073502, ,0.026197362432991606,-0.0016890294286997897,-0.038368772457603235,-0.02863072128839973,-0.046282115723690384,0.0037466889471628436, ,0.04648997008774976, ,0.0544212208805868, ,0.0008609145296743077, ,0.25362227032240714,-0.21391970061601892,0.10484652778,1.7962040558884358,0.8643624975161763,-1.1627206760115538, ,0.17972905598195224,0.1111205404665934,0.04202852643799473,-0.04381843201240024,0.14819486340646237,-0.08095964019576313, ,1.256335973739624
0.016717647523337462,0.021712543874590207,-0.09138494641100299, ,0.017563856982472165,0.021206685335425034,-0.09218699363662589, ,0.0012709221307793616, ,0.026197362432991606,-0.0016890294286997897,-0.038368772457603235,-0.02863072128839973,-0.046282115723690384,0.0037466889471628436, ,0.04648997008774976, ,0.0544212208805868, ,0.0008637228009147533, ,0.25362227032240714,-0.21391970061601892,0.10484652778,1.7962040558884358,0.8643624975161763,-1.1627206760115538, ,0.17972905598195224,0.1111205404665934,0.04202852643799473,-0.04381843201240024,0.14819486340646237,-0.08095964019576313, ,1.2586369514465332
0.016717647523337462,0.021712543874590207,-0.09138494641100299, ,0.017612462701240138,0.021202416009239385,-0.0922693282961651, ,0.00135759197125472, ,0.026197362432991606,-0.0016890294286997897,-0.038368772457603235,-0.02863072128839973,-0.046282115723690384,0.0037466889471628436, ,0.04648997008774976, ,0.0544212208805868, ,0.0008670824551347529, ,0.25362227032240714,-0.21391970061601892,0.10484652778,1.7962040558884358,0.8643624975161763,-1.1627206760115538, ,0.17972905598195224,0.1111205404665934,0.04202852643799473,-0.04381843201240024,0.14819486340646237,-0.08095964019576313, ,1.2608928680419922
0.016717647523337462,0.021712543874590207,-0.09138494641100299, ,0.017660930975491342,0.021198045542342774,-0.09235158053526671, ,0.0014452936501568865, ,0.026197362432991606,-0.0016890294286997897,-0.038368772457603235,-0.02863072128839973,-0.046282115723690384,0.0037466889471628436, ,0.04648997008774976, ,0.0544212208805868, ,0.0008709892875335512, ,0.25362227032240714,-0.21391970061601892,0.10484652778,1.7962040558884358,0.8643624975161763,-1.1627206760115538, ,0.17972905598195224,0.1111205404665934,0.04202852643799473,-0.04381843201240024,0.14819486340646237,-0.08095964019576313, ,1.2631568908691406
0.016717647523337462,0.021712543874590207,-0.09138494641100299, ,0.01770926227162314,0.0211935751418402,-0.09243375028231708, ,0.0015338246037514339, ,0.026197362432991606,-0.0016890294286997897,-0.038368772457603235,-0.02863072128839973,-0.046282115723690384,0.0037466889471628436, ,0.04648997008774976, ,0.0544212208805868, ,0.0008754378467027987, ,0.25362227032240714,-0.21391970061601892,0.10484652778,1.7962040558884358,0.8643624975161763,-1.1627206760115538, ,0.17972905598195224,0.1111205404665934,0.04202852643799473,-0.04381843201240024,0.14819486340646237,-0.08095964019576313, ,1.26544189453125
0.016990674670474028,0.021695391754607555,-0.09177901450430188, ,0.01775745705580182,0.02118900601116319,-0.09251583746543304, ,0.0011778326806736034, ,0.026235666032345534,-0.0019077202119330205,-0.03810006458549664,-0.02490719688623882,-0.05282350123819894,-0.01945136148065097, ,0.046298644580449674, ,0.058400431983622735, ,0.0008774538122626039, ,0.2554834489450952,-0.21275356795201103,0.10527819235000001,1.7962040558884358,0.8657288625138307,-1.1635898188280962, ,0.17804304232358495,0.11297254947436998,0.0416984594764398,-0.02602788711008841,0.13548693296201644,-0.08497208790623817, ,1.2686598300933838
0.016990674670474028,0.021695391754607555,-0.09177901450430188, ,0.01780551579396263,0.021184339350075344,-0.09259784201246461, ,0.0012631781762009284, ,0.026235666032345534,-0.0019077202119330205,-0.03810006458549664,-0.02490719688623882,-0.05282350123819894,-0.01945136148065097, ,0.046298644580449674, ,0.058400431983622735, ,0.0008800082782489504, ,0.2554834489450952,-0.21275356795201103,0.10527819235000001,1.7962040558884358,0.8657288625138307,-1.1635898188280962, ,0.17804304232358495,0.11297254947436998,0.0416984594764398,-0.02602788711008841,0.13548693296201644,-0.08497208790623817, ,1.270960807800293
0.016990674670474028,0.021695391754607555,-0.09177901450430188, ,0.017853438951808038,0.021179576354675708,-0.09267976385099569, ,0.0013497322391948557, ,0.026235666032345534,-0.0019077202119330205,-0.03810006458549664,-0.02490719688623882,-0.05282350123819894,-0.01945136148065097, ,0.046298644580449674, ,0.058400431983622735, ,0.0008830985674656997, ,0.2554834489450952,-0.21275356795201103,0.10527819235000001,1.7962040558884358,0.8657288625138307,-1.1635898188280962, ,0.17804304232358495,0.11297254947436998,0.0416984594764398,-0.02602788711008841,0.13548693296201644,-0.08497208790623817, ,1.2733228206634521
0.016990674670474028,0.021695391754607555,-0.09177901450430188, ,0.017901226994807118,0.02117471821740361,-0.09276160290834579, ,0.0014372496093074446, ,0.026235666032345534,-0.0019077202119330205,-0.03810006458549664,-0.02490719688623882,-0.05282350123819894,-0.01945136148065097, ,0.046298644580449674, ,0.058400431983622735, ,0.0008867204696999595, ,0.2571206683144308,-0.21167238534961957,0.10566319048000002,1.7955749860579822,0.867095227511485,-1.1642956041643575, ,0.17098548028553293,0.11558701773260752,0.039330398814814815,-0.024514172181547382,0.1346973746185178,-0.053626277158570344, ,1.2758498191833496
0.0172318286404993,0.02167122464317739,-0.0921315213790987, ,0.017948880388194463,0.021169766127042283,-0.09284335911157142, ,0.0011279790820972726, ,0.02515130178517452,-0.002727982995367116,-0.035984958381746125,-0.052569146574240604,-0.04672882354527379,-0.003529200009727683, ,0.043988033627884934, ,0.07033518167680045, ,0.0008882870840661758, ,0.2571206683144308,-0.21167238534961957,0.10566319048000002,1.7955749860579822,0.867095227511485,-1.1642956041643575, ,0.17098548028553293,0.11558701773260752,0.039330398814814815,-0.024514172181547382,0.1346973746185178,-0.053626277158570344, ,1.2782669067382812
0.0172318286404993,0.02167122464317739,-0.0921315213790987, ,0.017996399596969248,0.021164721268723784,-0.09292503238746821, ,0.0012127547716722688, ,0.02515130178517452,-0.002727982995367116,-0.035984958381746125,-0.052569146574240604,-0.04672882354527379,-0.003529200009727683, ,0.043988033627884934, ,0.07033518167680045, ,0.000890380423986215, ,0.2571206683144308,-0.21167238534961957,0.10566319048000002,1.7955749860579822,0.867095227511485,-1.1642956041643575, ,0.17098548028553293,0.11558701773260752,0.039330398814814815,-0.024514172181547382,0.1346973746185178,-0.053626277158570344, ,1.2805378437042236
0.0172318286404993,0.02167122464317739,-0.0921315213790987, ,0.01804378508589432,0.02115958482393293,-0.09300662266257281, ,0.0012987882160664407, ,0.02515130178517452,-0.002727982995367116,-0.035984958381746125,-0.052569146574240604,-0.04672882354527379,-0.003529200009727683, ,0.043988033627884934, ,0.07033518167680045, ,0.000892998422653396, ,0.2571206683144308,-0.21167238534961957,0.10566319048000002,1.7955749860579822,0.867095227511485,-1.1642956041643575, ,0.17098548028553293,0.11558701773260752,0.039330398814814815,-0.024514172181547382,0.1346973746185178,-0.053626277158570344, ,1.2827508449554443
0.0172318286404993,0.02167122464317739,-0.0921315213790987, ,0.018091037319495143,0.021154357970511607,-0.09308812986316332, ,0.0013858176298340219, ,0.02515130178517452,-0.002727982995367116,-0.035984958381746125,-0.052569146574240604,-0.04672882354527379,-0.003529200009727683, ,0.043988033627884934, ,0.07033518167680045, ,0.0008961373984953108, ,0.2571206683144308,-0.21167238534961957,0.10566319048000002,1.7955749860579822,0.867095227511485,-1.1642956041643575, ,0.17098548028553293,0.11558701773260752,0.039330398814814815,-0.024514172181547382,0.1346973746185178,-0.053626277158570344, ,1.284977912902832
0.017485345916697762,0.021631529790377933,-0.09250106069176538, ,0.018138156762058728,0.021149041882662867,-0.09316955391526177, ,0.0010515891644424457, ,0.02357567627791311,-0.004260567991793053,-0.033673434013263136,-0.037554364524554316,-0.05871896878666689,0.06837597032036984, ,0.04132632465897776, ,0.06970081990394997, ,0.0008971212704316851, ,0.25883511501250867,-0.21044447082261789,0.10606374409000001,1.794316846397075,0.8684615925091395,-1.1650830682407596, ,0.16138935639195712,0.1168681546286586,0.036533971376146786,-0.13514616284925965,0.13506753362437865,-0.10814880791554594, ,1.2872209548950195
0.017485345916697762,0.021631529790377933,-0.09250106069176538, ,0.01818514387763309,0.021143637730955848,-0.09325089474463565, ,0.001135784730756765, ,0.02357567627791311,-0.004260567991793053,-0.033673434013263136,-0.037554364524554316,-0.05871896878666689,0.06837597032036984, ,0.04132632465897776, ,0.06970081990394997, ,0.0008986222984840441, ,0.25883511501250867,-0.21044447082261789,0.10606374409000001,1.794316846397075,0.8684615925091395,-1.1650830682407596, ,0.16138935639195712,0.1168681546286586,0.036533971376146786,-0.13514616284925965,0.13506753362437865,-0.10814880791554594, ,1.2895269393920898
0.017485345916697762,0.021631529790377933,-0.09250106069176538, ,0.018231999130025687,0.021138146682329082,-0.0933321522767997, ,0.0012213235177444656, ,0.02357567627791311,-0.004260567991793053,-0.033673434013263136,-0.037554364524554316,-0.05871896878666689,0.06837597032036984, ,0.04132632465897776, ,0.06970081990394997, ,0.0009006391811044217, ,0.25883511501250867,-0.21044447082261789,0.10606374409000001,1.794316846397075,0.8684615925091395,-1.1650830682407596, ,0.16138935639195712,0.1168681546286586,0.036533971376146786,-0.13514616284925965,0.13506753362437865,-0.10814880791554594, ,1.2919869422912598
0.017485345916697762,0.021631529790377933,-0.09250106069176538, ,0.01827872298280309,0.021132569900095727,-0.09341332643701646, ,0.0013079131970780147, ,0.02357567627791311,-0.004260567991793053,-0.033673434013263136,-0.037554364524554316,-0.05871896878666689,0.06837597032036984, ,0.04132632465897776, ,0.06970081990394997, ,0.0009031688333775496, ,0.25883511501250867,-0.21044447082261789,0.10606374409000001,1.794316846397075,0.8684615925091395,-1.1650830682407596, ,0.16138935639195712,0.1168681546286586,0.036533971376146786,-0.13514616284925965,0.13506753362437865,-0.10814880791554594, ,1.294367790222168
0.017692797757126445,0.021598402888859863,-0.09279411454992278, ,0.018325315899289332,0.021126908543947005,-0.09349441715029952, ,0.001054898028031341, ,0.022723306064319358,-0.003671900455644611,-0.032410559903767414,-0.025067911355131842,-0.04527214730858389,-0.012361261173087619, ,0.03975268399397193, ,0.05174873659079804, ,0.0009041054333445484, ,0.2602406523956175,-0.20941734735034603,0.10638263143000001,1.7938974665101057,0.8695546845072629,-1.1658110539900497, ,0.15256743015831317,0.11337746900653618,0.03524073345132744,-0.04440913183670081,0.12025787376576015,-0.09435340881382431, ,1.2966768741607666
