NicholasDascanio/dvrk_moveit_final/test/execution/third_experiment_notsharpbends/thirdexp_500vel4.0/thirdexp_500vel4.0_27.csv
Current Position (x),Current Position (y),Current Position (z), ,Planned Position (x),Planned Position (y),Planned Position (z), ,Position Error,,Cartesian linear Velocity(x),Cartesian linear Velocity(y),Cartesian linear Velocity(z),Cartesian Angular Velocity(x),Cartesian Angular Velocity(y),Cartesian Angular Velocity(z), ,Total Linear Velocity, ,Total Angular Velocity, ,MSE, ,Joint 1 Position,Joint 2 Position,Joint 3 Position,Joint 4 Position,Joint 5 Position,Joint 6 Position, ,Joint 1 Velocity,Joint 2 Velocity,Joint 3 Velocity,Joint 4 Velocity,Joint 5 Velocity,Joint 6 Velocity, ,Time Stamp
0.009401309604643401,0.020243323598483017,-0.08013871350449059, ,0.009550146942796368,0.02016137671934229,-0.08025633475243014, ,0.00020664607955686966, ,3.208733234397309e-05,5.058528027295557e-06,5.0420620430683226e-06,0.09934747500069506,0.0021921900712136215,-0.07403010979230129, ,3.287260245860779e-05, ,0.09937165836556244, ,1.722050662973914e-05, ,0.1975011705254176,-0.22915665257686388,0.09232566267,1.7892842877534463,0.8218685460891243,-1.1414650213450188, ,0.00042000419562995296,-0.00013522044680915415,0.0,-0.0009179668473724297,0.0,-0.12450452890318231, ,0.022103071212768555
0.009406525558212975,0.020243229311275868,-0.08014523405384696, ,0.00959357712109489,0.020181658721329186,-0.08032152108328604, ,0.00026430350257119616, ,0.0002706159146353071,0.00023195158439816185,-0.0007543548451525608,0.2158767310384073,0.0060247323483982864,-0.1670770488952355, ,0.0008343175313775119, ,0.21596078441165756, ,2.1406799187639357e-05, ,0.19753206145691452,-0.22915665257686388,0.09233084783,1.7890745978099616,0.8215952730895935,-1.1454078012847946, ,0.0013575633164918943,-0.00013522044680915415,0.0008163536077715597,0.005624612689401595,0.0,-0.2688447924504782, ,0.04436206817626953
0.00944184598466159,0.02025364014595641,-0.08018884817769052, ,0.009637029390660218,0.02020163957168318,-0.08038676803497533, ,0.0002827947870976552, ,0.0010843395267686982,0.0004576628222413509,-0.0019502791372456648,0.03442476397051934,-0.05966037178468789,-0.05282625758304256, ,0.002277901705814054, ,0.0688797817642081, ,2.355451153830378e-05, ,0.19760156605278253,-0.2291643753097381,0.09235936621000002,1.7894939776969307,0.8183159970952228,-1.14992150072845, ,0.0037627775429428766,-0.00026037090298608814,0.0017442850985545336,0.004520569949003402,-0.06110801822087367,-0.05453057819309226, ,0.06679010391235352
0.009465903590126647,0.020264866026549765,-0.08023352322142337, ,0.009680503392768247,0.02022132111766136,-0.08045207542728838, ,0.00030937727950251564, ,0.0015582506531258518,0.0003956329471920155,-0.0018396567823794454,0.1647518512863537,-0.10078162972329724,-0.1686707817910522, ,0.002443155255775956, ,0.19313236236307865, ,2.531242020781516e-05, ,0.19770968431302166,-0.2291643753097381,0.09240214378000002,1.7897036676404154,0.8173595415968647,-1.1550224446926955, ,0.006397685251221684,-0.0002292396125938626,0.0014028108089574826,0.006070356148840944,-0.1057360707371722,-0.22632175331460602, ,0.09012293815612793
0.009517433183733062,0.02028669758982651,-0.08033112100166186, ,0.009723998770263177,0.020240705201800328,-0.08051744307913557, ,0.00028195843283895724, ,0.0012483091190013797,0.0008813917518810079,-0.003183871122898615,-0.10748263830840024,0.025394953927899238,0.09033482885459848, ,0.0035315948810832705, ,0.1104419359772697, ,2.5866924645522962e-05, ,0.19796453449787108,-0.2291643753097381,0.09249677295000001,1.7897036676404154,0.815583267099914,-1.1510419710002848, ,0.010261064806395598,-0.0001949734222020456,0.0036744663252595154,0.006070356148840944,0.03915346953336197,0.1439482677029904, ,0.12063002586364746
0.00953712066551854,0.020302461142716666,-0.08038234189651111, ,0.009767515167555264,0.020259793661921023,-0.08058287080854903, ,0.00030840555288339064, ,0.0010047153789007992,0.0007685252917158048,-0.002342114035689473,0.018488795968436722,0.06419578579294033,0.008547189276356148, ,0.0026618757057346363, ,0.06680519807518787, ,2.6669123136299753e-05, ,0.1981884937512236,-0.2291643753097381,0.09256158745000001,1.7899133575839,0.8170862685973339,-1.149898884476869, ,0.012181892369508443,-0.0003571900002134775,0.0030439158264857634,0.009980254620245353,0.07788165476843281,-0.003777942646144894, ,0.14232707023620605
0.009566545139312809,0.020314602045429776,-0.08042281339780172, ,0.009811052230618532,0.020278588331133617,-0.08064835843268642, ,0.0003345911954569801, ,0.0016738019639524052,0.0006585794813954367,-0.00223725278124815,0.02322381775481932,-0.019344772120281153,-0.029764052617815343, ,0.00287065148616975, ,0.030225253008678322, ,2.7612178193160618e-05, ,0.1984742348675699,-0.2291643753097381,0.09260955018000001,1.7901230475273844,0.8174961780966302,-1.1499881019675366, ,0.013982163188223188,-0.0003233363225536117,0.002459668239654108,0.01141527807151779,-0.00897608528720057,-0.02775147762253898, ,0.1647169589996338
0.009600742012066298,0.020327853412821537,-0.08047576606758919, ,0.009854609606988541,0.020297091037842375,-0.08071390576783181, ,0.00034943611189688234, ,0.0017630157574143282,0.0007829097717616964,-0.002806924929771668,0.006312639673395994,-0.01675739994311915,-0.01428498299574082, ,0.0034058772486666123, ,0.01790697831365025, ,2.850625538785911e-05, ,0.1987599759839162,-0.2291643753097381,0.09266788323000001,1.7901230475273844,0.8174961780966302,-1.1501514594478177, ,0.013957485153474154,-0.0002888432431193818,0.0030732802469612196,0.009574653017176325,-0.005372882071967736,-0.006362206105404915, ,0.18821310997009277
0.009652890159464456,0.020354057327725737,-0.0805702492453972, ,0.00989818694576005,0.020315303605751043,-0.08077951262940022, ,0.0003247514868607002, ,0.0018141482909689597,0.0008924844683225256,-0.0033257108142465967,-0.0007677630891933327,-0.01492888521819508,-0.006818093866940276, ,0.0038920450881020506, ,0.014948614437877927, ,2.8937656833316813e-05, ,0.19913838989475321,-0.2291643753097381,0.09276899385000001,1.7905424274143533,0.8174961780966302,-1.1502331381879582, ,0.013251911961802929,-0.000251544533661888,0.0036483764360971146,0.007796947041703894,-0.0033882194570385477,0.002461223931454516, ,0.21291804313659668
0.009688153729087459,0.020369514990917464,-0.08062651912155076, ,0.009941783897584823,0.02033322785386734,-0.08084517883193867, ,0.0003368339169891022, ,0.0017917968442274555,0.0007500802506819458,-0.00258685581701045,0.0009463228068335625,-0.014493316318030983,-0.01153186614878281, ,0.003265015712819536, ,0.014524177933136038, ,2.9694043026279693e-05, ,0.19943957647684796,-0.2291643753097381,0.09283380835,1.7907521173578382,0.8174961780966302,-1.1502331381879582, ,0.014717267611425368,-0.0002304334273818826,0.002914162371020857,0.013596546701390367,-0.002679228783280164,0.0017512267853199636, ,0.23803997039794922
0.009743174597102139,0.020392039988035366,-0.08071081645686116, ,0.009985400114669252,0.02035086559650848,-0.0809109041891297, ,0.00031686532231001786, ,0.0018149396413443622,0.0007564319489315349,-0.0030740089120759252,-0.002131578798026117,-0.017066098402756313,0.003850612905624371, ,0.0036490719349732987, ,0.01719870177049031, ,3.014512425422061e-05, ,0.1998952177164272,-0.2291643753097381,0.09292714123000001,1.7909618073013225,0.8174961780966302,-1.1503148169280988, ,0.014330555958693866,-0.0002031420460254615,0.003353434004210527,-0.0035175682119179368,-0.0020028922180469594,0.0016332243042507409, ,0.2579660415649414
0.009782805084426475,0.0204078220011253,-0.08078073965419764, ,0.01002903525077221,0.02036821864330598,-0.08097668851379394, ,0.0003171650616734192, ,0.0019705061194888354,0.0009536794716967158,-0.003452307501088818,0.000252044642236553,-0.012465892574425978,-0.009720574608254614, ,0.004087887716627353, ,0.012468440306967523, ,3.053049352636711e-05, ,0.20019640429852195,-0.2291643753097381,0.09300232605000001,1.7907521173578382,0.8173595415968647,-1.1500400415441212, ,0.01513025216174598,-0.0001890283087682811,0.003797999885550788,0.011979731994544171,0.0,0.002808434000497156, ,0.27883315086364746
0.009822183035853633,0.020429408623903692,-0.08084929233632945, ,0.01007268896120264,0.020385288799210227,-0.08104253161789196, ,0.0003194388791376818, ,0.0020650765640199136,0.001007680533431611,-0.0034170046918971515,0.009008588817405563,-0.008809320174790428,-0.021947593714187846, ,0.004117752097585338, ,0.012599952141068781, ,3.0879434443557565e-05, ,0.20051303634636516,-0.2291643753097381,0.09308010345,1.7913811871882916,0.8176328145963956,-1.150099519871233, ,0.016401130583904387,-0.0001767749824575432,0.0038070773231357554,0.020453138382602404,0.0029854027341192036,-0.00543420442713149, ,0.2984139919281006
0.009822183035853633,0.020429408623903692,-0.08084929233632945, ,0.010116360902817338,0.020402077864495938,-0.08110843331252793, ,0.00039299062758063103, ,0.0020650765640199136,0.001007680533431611,-0.0034170046918971515,0.009008588817405563,-0.008809320174790428,-0.021947593714187846, ,0.004117752097585338, ,0.012599952141068781, ,3.1719403185080285e-05, ,0.20051303634636516,-0.2291643753097381,0.09308010345,1.7913811871882916,0.8176328145963956,-1.150099519871233, ,0.016401130583904387,-0.0001767749824575432,0.0038070773231357554,0.020453138382602404,0.0029854027341192036,-0.00543420442713149, ,0.32218408584594727
0.00990124641146281,0.020460573144599814,-0.08097230750370277, ,0.010160050734018686,0.020418587634767178,-0.0811743934079514, ,0.00033103047156644383, ,0.002109378420107044,0.0007418993106079637,-0.0024981894467981983,-0.010033958349590713,-0.026310389202886086,-0.00964308017334804, ,0.003352736556663489, ,0.02815878015950554, ,3.2031429506318104e-05, ,0.2011849141064227,-0.2291643753097381,0.09321751019,1.7913811871882916,0.8179060875959265,-1.1502406769384852, ,0.018099740903770888,-0.00015650032246281056,0.002768783507735095,0.015529563417590922,-0.012059204404680014,0.013903967541559634, ,0.3435859680175781
0.009923906068857822,0.020468293707893943,-0.08100066595705452, ,0.010203758114752307,0.02043481990096241,-0.0812404117135603, ,0.00037002120358751225, ,0.002034129345240096,0.0008120133528633112,-0.002796262894788772,0.006004024975905648,-0.005511700342826775,-0.011741239698397963, ,0.0035519197703731574, ,0.00815028566428548, ,3.255877362264488e-05, ,0.20161738714737928,-0.2291643753097381,0.09328880614000001,1.7915908771317761,0.8179060875959265,-1.1499139619779228, ,0.019051785095055365,-0.00017575365210551277,0.002980690778443114,0.0029607400054260558,0.0026574053444202495,0.006439814546982476, ,0.3662450313568115
0.009995563392534094,0.020496336683124845,-0.0810922322538918, ,0.010247482706504838,0.020450776449358592,-0.08130648803790351, ,0.000333833216793655, ,0.002001571280137617,0.0006953199690585384,-0.0024558709334196673,0.01853148357063226,-0.0016063216460384282,-0.015685443750120424, ,0.003243618271384426, ,0.018600971815198496, ,3.280758005063177e-05, ,0.2020344147225874,-0.22917209804261232,0.09335491693,1.792010257018745,0.8181793605954574,-1.1499734403050348, ,0.019017423158010176,0.000197873357420086,0.002875755825961365,0.009658053952424476,0.015648860660750098,-0.017650849324301575, ,0.38721203804016113
0.010038597457146414,0.020510725893416532,-0.08115174448627205, ,0.010291224172301555,0.020466459061577298,-0.08137262218868321, ,0.00033847713221663115, ,0.0023295322780126503,0.0009652041053318615,-0.0035871916730031545,-0.0019450249455857849,-0.006737596097236176,-0.000340949832691726, ,0.004384778637299204, ,0.0070127257621028964, ,3.305734254635978e-05, ,0.20240510590055016,-0.2291643753097381,0.09342102772000001,1.792010257018745,0.8181793605954574,-1.149728404084613, ,0.019907057176100435,4.103921413451363e-05,0.004052101633172221,0.007957570380105253,0.012101178415924625,0.006879607140348388, ,0.41312694549560547
0.010085475509609265,0.020527739718445535,-0.08122131320430456, ,0.010334982176704179,0.02048186951458919,-0.0814388139727581, ,0.0003341619918610015, ,0.002126989559032849,0.0007849491436823466,-0.002718250869644063,-0.008666598541253087,-0.016073908533175814,0.0021878753791527345, ,0.0035396493516622668, ,0.01826144752366985, ,3.344244338332179e-05, ,0.20280668801000984,-0.22915665257686388,0.09349880512000001,1.792010257018745,0.8183159970952228,-1.1496764645080284, ,0.01882502312209299,-0.0005343160711893718,0.0030810080309477757,0.0066164589492578516,0.0015925903464639615,0.013395382155368375, ,0.43059706687927246
0.010125286588964555,0.02054476672197394,-0.08127610218997007, ,0.010378756385808513,0.020497009580719074,-0.08150506319614498, ,0.0003448924829589373, ,0.0022042594889056175,0.0008899273876790127,-0.0029726791822159257,-0.00011840576040656728,-0.009069611269324814,-0.008110242092432381, ,0.0038062517218586042, ,0.009070384130158236, ,3.385171817640307e-05, ,0.20316193372222419,-0.22915665257686388,0.09356232333,1.7924296369057142,0.8185892700947538,-1.1498993003154212, ,0.01940632751706969,-0.00036055319689956805,0.0033992342125480153,0.014205615357266374,0.007600788156295133,0.005676707306903612, ,0.4513270854949951
0.01017295245629287,0.020562452400444475,-0.08134268433913228, ,0.01042254646724216,0.020511881027650645,-0.08157136966402243, ,0.0003422741764552494, ,0.002244755725464159,0.0008219887886447955,-0.003153726982238029,0.0012978199754546758,-0.013829749295905506,-0.010382903427287758, ,0.003957346044277408, ,0.01389051122040915, ,3.4214461481195076e-05, ,0.2035789612974323,-0.2291643753097381,0.09363750815,1.7924296369057142,0.8187259065945193,-1.1498473607388364, ,0.019078597016178284,0.0006933764279884781,0.0035326705522288762,0.01213546384965899,0.0026453591404042654,0.001074845065115701, ,0.47113800048828125
0.010216594788080492,0.020579170292587,-0.08141134037590683, ,0.010466352090162234,0.02052648561843194,-0.08163773318073267, ,0.0003411862935565911, ,0.0022365512852904152,0.001029902903200267,-0.003836411799611107,0.004480919557724254,-0.006756041661203889,-0.008200170498525308, ,0.004558609123181091, ,0.008106956159969682, ,3.454358636757083e-05, ,0.20394192974252084,-0.22915665257686388,0.09371398926,1.7924296369057142,0.8188625430942845,-1.149713742422111, ,0.01776763556608702,7.746467424295914e-05,0.004281938580645162,0.010323274031723579,0.009097315916227238,-0.0012079232210835526, ,0.4902000427246094
0.010263691361500911,0.020602971349991957,-0.08149434140328395, ,0.010510172925253053,0.020540825111479744,-0.08170415354978464, ,0.00032960044455392524, ,0.0024188708214204105,0.0010683727188528184,-0.004157306794942644,-0.0032969739581656145,-0.010359982302947322,0.002204802079404267, ,0.00492702304686961, ,0.010871948737755297, ,3.4793594600497396e-05, ,0.20431262092048363,-0.22915665257686388,0.09380732214000001,1.7928490167926832,0.8191358160938155,-1.1496915420090823, ,0.019171099304741573,7.746467424295914e-05,0.004619724918793504,0.004242104470990042,0.008401286911207555,0.006836644635198093, ,0.5078821182250977
0.01031136621580303,0.020623073179835756,-0.08157100266697377, ,0.01055400864472383,0.02055490126058531,-0.08177063057385606, ,0.00032151836664967814, ,0.002269339103585233,0.0009216582310284023,-0.0033753939385304174,-0.0010266295739468146,-0.00550073549659331,-0.004880410638790937, ,0.004170448189601606, ,0.005595717902774796, ,3.4988932201609156e-05, ,0.20469875756419487,-0.22914892984398966,0.09389287728000001,1.7930587067361679,0.819272452593581,-1.149557923692357, ,0.019390466195028766,0.00030126098101811144,0.003832726544754572,0.012321824194665059,0.01180752986403357,0.0064550640233359685, ,0.5278420448303223
0.01031697501039052,0.020624501312418452,-0.08157933298586344, ,0.010597858922306413,0.02056871581491834,-0.08183716405479645, ,0.0003853370651931237, ,0.001914846061165012,0.0005162750061916431,-0.002195687227376292,0.00540773125569704,-0.010487214144188822,0.0041558172701234904, ,0.0029587527305337175, ,0.011799373618497026, ,3.544930603383732e-05, ,0.20507717147503185,-0.22913348437824121,0.09395639549000001,1.793268396679652,0.8195457255931118,-1.1494540445391876, ,0.018203902082960056,0.0002594342331136506,0.002537647207264617,-0.00588647925828877,0.009399339327075281,-0.006498503358000474, ,0.5472040176391602
0.01037435984602353,0.020644214057954708,-0.08165443868577629, ,0.010641723433252882,0.02058227051903299,-0.08190375379362956, ,0.0003707806801792403, ,0.0023184494062237597,0.0007502505644385798,-0.003294706723804662,-0.012326494202863622,-0.01530052627411531,0.015926710141206477, ,0.004097947773525593, ,0.019648118566669384, ,3.5817180430075895e-05, ,0.20527023979688747,-0.22912576164536697,0.09398880274000002,1.793268396679652,0.8196823620928773,-1.1495654624428842, ,0.02007975911097562,0.0006000613249475106,0.003688932728114868,-0.00588647925828877,0.0067364982314652355,0.01458387304592499, ,0.5649111270904541
0.010422226237426533,0.020664435662968855,-0.08173684688930156, ,0.010685601854333355,0.02059556711287218,-0.08197039959055598, ,0.0003586871297338406, ,0.002413509739617428,0.0009667970024841198,-0.004209815415554843,-0.00047121706422329174,-0.0051651823189141285,0.010886564312018785, ,0.004947956299350638, ,0.005186632104456917, ,3.611166894555848e-05, ,0.2056563764405987,-0.22911803891249274,0.09408083933000001,1.793268396679652,0.8199556350924082,-1.1495432620298554, ,0.01963114223385825,0.0007334259337682365,0.004698764460176992,-0.00588647925828877,0.016673424139127063,0.0017785581660273954, ,0.5836501121520996
0.01047237087009666,0.020682210224455693,-0.08181862491693934, ,0.010729493863833624,0.02060860733177283,-0.08203710124495589, ,0.0003453426206293411, ,0.002583345620054813,0.0009718807867221917,-0.0041532020998907996,-0.001645578362848415,-0.007497111289895238,-0.002341509079357066, ,0.004986713801572482, ,0.007675584968303264, ,3.6478974255123684e-05, ,0.20605023581718415,-0.22908714798099586,0.09417028334000001,1.793268396679652,0.8199556350924082,-1.1493799045495743, ,0.02113047017556686,0.0016281385039911634,0.004645322694663168,0.008540822652379432,0.012540058924417358,0.004835424798173204, ,0.5998821258544922
0.01049698997681222,0.02069448051508445,-0.08185763522167537, ,0.01077339914155283,0.020621392906470498,-0.08210385855539125, ,0.00037731916854523624, ,0.002482450661192938,0.0009489340713520431,-0.0037725045548390058,0.0025559419587715833,-0.004149551048529344,-0.013299665788874737, ,0.004614631921758339, ,0.0048735626021281855, ,3.694988679859616e-05, ,0.2062587496047882,-0.22907942524812164,0.09421565349000001,1.7936877765666213,0.820228908091939,-1.149439382876686, ,0.020774286680926176,0.0016260294390006268,0.004260179598823215,0.018603051834754795,0.01310131796047772,0.0022430935525926685, ,0.6169281005859375
0.010555937793978178,0.020715731765542006,-0.0819517460462151, ,0.0108173173688012,0.020633925563105233,-0.08217067131960894, ,0.0003506277402350805, ,0.0027717628234351713,0.001200811782611901,-0.0047621545107370935,0.011192665004744,-0.003434472538605466,-0.0189146282053905, ,0.005639391250017198, ,0.011707747395536625, ,3.729567075590784e-05, ,0.20674528177586435,-0.22904853431662472,0.09432065298,1.7936877765666213,0.8205021810914699,-1.1495805399439383, ,0.021815388864016273,0.0014932789003001083,0.00532380064171123,0.018603051834754795,0.014743277621401676,-0.007978763679227265, ,0.6331589221954346
0.01060923904087046,0.020735823469968676,-0.08204235410041616, ,0.010861248228397638,0.020646207023225113,-0.0822375393345424, ,0.000331114804480211, ,0.002566438171370278,0.0010901086062372303,-0.004349684824999712,0.000630341353092652,-0.004993436163681672,-0.011409717353611916, ,0.005166691372405717, ,0.005033064015605346, ,3.755224624744211e-05, ,0.20716230935107247,-0.22901764338512784,0.09442046731,1.7936877765666213,0.8206388175912352,-1.149446921627213, ,0.020160811888351556,0.0014750099780341801,0.0048563449756097565,0.01760622186806065,0.011848675665945732,0.004322683471439447, ,0.6513659954071045
0.010634834936360141,0.020743844878812655,-0.08208450306992382, ,0.01090519140466762,0.020658239003792735,-0.08230446239631573, ,0.0003588914753242264, ,0.002620303215434472,0.0008682416843431118,-0.003893818362877513,0.0009993662668866035,-0.011024641487895188,-0.012719593480453635, ,0.004773013095134907, ,0.011069844261636949, ,3.789519536027115e-05, ,0.20737082313867652,-0.22898675245363093,0.09446713375000002,1.7936877765666213,0.8207754540910007,-1.1493949820506282, ,0.021631397665482284,0.0025960903011124354,0.004342642181025082,0.015499806720494657,0.007484413204854861,0.0010518179645358852, ,0.6668119430541992
0.010686129295517852,0.020760497073101375,-0.08215296544517038, ,0.01094914658344056,0.020670023217189297,-0.08237144030024482, ,0.00035368753815990254, ,0.002629011124148973,0.0008147913353187364,-0.0035659491566233967,0.011838052429611655,0.0015033585881712359,-0.006271179940307994, ,0.0045046173864860765, ,0.01193312917026633, ,3.8203283062842595e-05, ,0.20783418711113,-0.22895586152213404,0.09454620744000002,1.7938974665101057,0.8211853635902971,-1.1494841995412957, ,0.02394573342378773,0.0019305115847299843,0.004123430370178619,0.0067574680235278255,0.024975508533445514,-0.010073925102879354, ,0.6822149753570557
0.01071801337286867,0.020769100335010532,-0.08219681922684803, ,0.010993113452047822,0.02068156137121938,-0.08243847284084051, ,0.0003764831907291863, ,0.002619537746658714,0.0007851569663335281,-0.00369009894548714,-0.004098850465521603,-0.0084251062509726,0.0010743847601568685, ,0.004592959796845296, ,0.009369257697100302, ,3.85742361556633e-05, ,0.20811220549460208,-0.22892497059063713,0.09459546646000001,1.7938974665101057,0.8213220000900625,-1.149432259964711, ,0.022675493801307234,0.0023876665248984933,0.0041654841841004195,0.006255243102011227,0.013644772223465702,0.006652482798391691, ,0.7012760639190674
0.010775289106489283,0.02078740545732244,-0.0822819188052173, ,0.011037091699320135,0.02069285516911681,-0.08250555981181132, ,0.00035706533637852345, ,0.002851231252305165,0.0008174786914120788,-0.004382518238006971,0.007145818716842385,-0.01682122821255281,-0.011306771813084648, ,0.0052919048717355276, ,0.018276116712696317, ,3.8863424472237657e-05, ,0.20858329219992977,-0.22887091146051758,0.09469009563000001,1.7941071564535904,0.821458636589828,-1.1491352841677045, ,0.023010897565099605,0.003748065639028931,0.004818152304900182,0.0055743185434583625,0.0049635372341966235,-0.010987529324554494, ,0.7174620628356934
0.010828850647403932,0.020804353578464687,-0.08236251042424464, ,0.01108108101558552,0.020703906309549085,-0.08257270100606606, ,0.00034335097662894647, ,0.002583382852174849,0.000889367789898443,-0.0037863316637039585,0.026228272540683644,0.015356401190100745,-0.009368067255949094, ,0.004669170107651582, ,0.030393113318669798, ,3.909494072328728e-05, ,0.20905437890525747,-0.22882457506327222,0.09478213222000001,1.7941071564535904,0.8220051825888897,-1.1495809557824903, ,0.02383147703628096,0.0017064295299968313,0.004441944093697713,0.004748513449055264,0.03961680893875879,-0.025074645009831396, ,0.7341151237487793
0.010855950123518688,0.020813119018452883,-0.08240241751902913, ,0.011125081092666703,0.02071471648662166,-0.08263989621571566, ,0.0003721702140221272, ,0.0026460987843491177,0.0007244520572655405,-0.004214802033879048,0.0068261078876108135,0.0034645442180839497,0.0016933672137412299, ,0.005029038252449579, ,0.007654986231356432, ,3.9533159098072006e-05, ,0.20927061542573577,-0.22879368413177534,0.09482620608,1.794316846397075,0.8220051825888897,-1.1494175983022092, ,0.022664662421416473,0.004195069579547318,0.004747782867362146,0.0,0.0273558703599265,-0.007773525908933437, ,0.7474751472473145
0.010886927457299814,0.020823351581649854,-0.08244815561291775, ,0.011169091623879048,0.020725287389884824,-0.08270714523207709, ,0.00039535910946907537, ,0.002752827759895368,0.0009078805541846565,-0.004373035452715668,0.00208779265855556,-0.0026393448629112295,0.0006479255671115267, ,0.005246498532071205, ,0.003365266392315685, ,4.0027409582074015e-05, ,0.20951774287771094,-0.22876279320027842,0.09487676139000001,1.7945265363405596,0.8220051825888897,-1.1491725620817876, ,0.0229219665600171,0.0027564230548615203,0.004916299851851852,0.0039560695139942295,0.02040051939535369,-0.0006132808673892983, ,0.7605240345001221
0.01094372000861864,0.020842420666364856,-0.08254923765982, ,0.011213112304028047,0.020735620704336356,-0.08277444784567448, ,0.0003670123547346126, ,0.002956430265247915,0.0009541283171120566,-0.004970577953163405,-0.0028671035980855296,-0.008731811489517854,0.00105087086040809, ,0.005861525906047251, ,0.009190473975617317, ,4.041651356134447e-05, ,0.2099733841172902,-0.22868556587153618,0.09498953862000001,1.7945265363405596,0.8225517285879514,-1.1495365549564327, ,0.023333400924138378,0.003782772418174669,0.005494588313211453,0.0039560695139942295,0.014492006517690718,0.0030413582022362174, ,0.7756021022796631
0.010972825121879002,0.020850920321298167,-0.08259523267852519, ,0.011257142829407107,0.020745718110428257,-0.08284180384624266, ,0.0003907702710487526, ,0.002712245661402544,0.0007949563360820472,-0.004329666227739371,0.023219290307919808,0.016844414897829226,-0.008065369632380337, ,0.005170516584220652, ,0.028685706442968587, ,4.08631135302622e-05, ,0.21022051156926538,-0.22864695220716505,0.09504139022000001,1.7945265363405596,0.8228250015874824,-1.149677712023685, ,0.024006309526554716,0.004218522483287134,0.004974644447220488,0.0039560695139942295,0.04158239854148929,-0.024152037610369003, ,0.790045976638794
0.011033083247708624,0.020866872221992478,-0.08268532525597921, ,0.01130118289779514,0.020755581284070835,-0.08290921302272951, ,0.0003665908173160177, ,0.0029034397801514077,0.000779667729457455,-0.004493456715449474,0.010211634312132184,0.0003274627366346518,-0.005277071288864152, ,0.00540638489001116, ,0.010216883347513328, ,4.1222321033618545e-05, ,0.2106993210074673,-0.22855427941267437,0.09513990826,1.794736226284044,0.8228250015874824,-1.149269318322982, ,0.02550993052647064,0.005290071929501985,0.005141643486120078,0.007192307434191037,0.0186924076238394,0.0012298670017019987, ,0.8035409450531006
0.01106564094338067,0.02087559823884667,-0.08273481333067448, ,0.011345232208454327,0.020765211896638037,-0.08297667516329832, ,0.00038581545605619803, ,0.003010712504282989,0.0009747945839701374,-0.004979316047335981,-0.007708429744939442,-0.014220587789093176,-0.0004441375470765409, ,0.005899847672918435, ,0.01617544444950672, ,4.1624883620404846e-05, ,0.21097733939093938,-0.228507943015429,0.09519564873000001,1.794736226284044,0.8230982745870132,-1.1494104753902343, ,0.02329902812631249,0.003727823497452698,0.005477583053645117,0.007192307434191037,0.008015595869733232,0.008571544908281544, ,0.8170380592346191
0.011092895207844261,0.020883065161598994,-0.08278175551950029, ,0.011389290462127735,0.020774611614971784,-0.08304419005533084, ,0.0004104682742117632, ,0.0030254723513543406,0.000840382400689847,-0.005192535403442343,0.016470994826038008,0.015105158414650922,-0.00791018747872246, ,0.006068125694495865, ,0.02234859005656153, ,4.208408068466008e-05, ,0.21120902137716613,-0.22845388388530943,0.09524879662,1.794736226284044,0.8235081840863095,-1.149663050361183, ,0.025258701506114128,0.0062810826735825885,0.005854028489525911,0.007041630150016818,0.04046602563423559,-0.01771781028871739, ,0.8302271366119385
0.011126357229123324,0.020891691441865604,-0.08283738543264922, ,0.011433357361037025,0.020783782101388308,-0.08311175748542914, ,0.0004256448403351536, ,0.003109666446450022,0.0009656362173390328,-0.005130906916524571,0.01974888487771706,0.010331982187500633,-0.00995730235552877, ,0.006076897604736616, ,0.02228829976198451, ,4.257042999990501e-05, ,0.21147159429488974,-0.22839210202231566,0.09530972225,1.794736226284044,0.823644820586075,-1.149692789524739, ,0.026077752557974936,0.004622300932868935,0.005811313943816127,0.006522629813228409,0.03636464397383395,-0.020775509732069743, ,0.8469970226287842
0.0111960991922401,0.02091224937720064,-0.08294828455386427, ,0.01147743260888006,0.02079272501368144,-0.08317937723941896, ,0.0003831949818432644, ,0.0034771194482169036,0.0009470275494908878,-0.0055249866635697425,-0.020467852467080612,-0.024474259805582804,0.0007168822703519887, ,0.006596415577363698, ,0.031904895744965765, ,4.29233924359377e-05, ,0.21201218559608548,-0.2282762610292023,0.09543157351,1.795155606171013,0.8237814570858404,-1.149314134987592, ,0.02660413276099545,0.005801283959541356,0.006010872271698113,0.011174342268666518,0.0,0.021221138941093003, ,0.860846996307373
0.011229401816257088,0.020920244490745515,-0.08300050269438985, ,0.01152151591082864,0.020801442005128828,-0.08324704910235155, ,0.0004002871545714073, ,0.0033952026304063746,0.0008610390480075337,-0.005080626549040947,-0.015963661721202987,-0.01235669472429526,0.003249582269481333, ,0.00617102546377276, ,0.02018728304337193, ,4.3429305766705325e-05, ,0.21228248124668334,-0.2282222018990827,0.09548861027000001,1.795155606171013,0.8240547300853713,-1.1494552920548444, ,0.027723325024385268,0.00565613686920281,0.005658547609236235,0.010759230132219137,0.014018791584016225,0.018585680363728183, ,0.8724830150604248
0.011259351483612866,0.0209276814947837,-0.08304705129681797, ,0.011565606973526132,0.020809934724496125,-0.08331477285850664, ,0.00042347557380348176, ,0.00288845390856203,0.0007066577119158512,-0.004438544086319247,0.04053469623358015,0.034104214559557776,-0.020008113948019313, ,0.005342584085430661, ,0.05297319178367769, ,4.398395373705467e-05, ,0.2125527768972812,-0.2281604200360889,0.09554305445000001,1.795155606171013,0.8244646395846676,-1.149544509545512, ,0.026799475164775707,0.00627029415850397,0.005207195658711998,0.009966898793133559,0.060911000786968005,-0.042481835609071865, ,0.884105920791626
0.011331920885495374,0.02094297862563569,-0.08315525304893046, ,0.011609705505085187,0.02081820481604275,-0.08338254829139582, ,0.0003799946390258466, ,0.003632077400855422,0.001093547290248571,-0.005700254166128315,-0.013890909227226585,-0.02617526514197408,-0.0008266906547592142, ,0.006846950378108336, ,0.029632783507349252, ,4.440855551514638e-05, ,0.21314742732859646,-0.22802141084435287,0.09566231313000001,1.795155606171013,0.8247379125841986,-1.1496039878726236, ,0.027861697462851078,0.004442141936831497,0.006239252455934196,0.008636852824615394,0.0,0.014067876315915474, ,0.8974471092224121
0.0113697727726144,0.02095331233583398,-0.08321785897378459, ,0.011653811215085326,0.020826253919525632,-0.08345037518376282, ,0.0003884397840833716, ,0.003892984485202978,0.0010756621820241289,-0.006406830412032439,-0.022551385265206378,-0.023631145670344578,0.005749380040388593, ,0.007573628803975791, ,0.032664904902325584, ,4.4844149773019785e-05, ,0.213440891177817,-0.22795962898135907,0.09573101650000002,1.795155606171013,0.8248745490839641,-1.1495520482960389, ,0.029416286905911585,0.00659806569993645,0.0069801978615249794,0.00811058024510154,0.004620249543227636,0.023051123188705697, ,0.9082951545715332
0.011406731294213882,0.020964762158553855,-0.08328391427047765, ,0.011697923814570707,0.020834083670205727,-0.08351825331758897, ,0.0003959605286259611, ,0.003597348409482897,0.0010725110807326473,-0.006048718729436322,0.011373262978778963,0.006896913473163277,-0.006194869860909049, ,0.007118861837775557, ,0.013301072067465062, ,4.528792181374552e-05, ,0.21373435502703753,-0.22789784711836528,0.09580490503000001,1.795155606171013,0.8252844585832603,-1.1498046232669876, ,0.029073817879433455,0.006013385916311123,0.006789774731457802,0.0076583533695099345,0.03581579352239648,-0.011862823703436262, ,0.9194760322570801
0.011438322135121817,0.020974130346102043,-0.08333415704315908, ,0.01174204301604773,0.020841695698851317,-0.08358618247409307, ,0.0004162957207806703, ,0.0033175584683001287,0.000779476910375414,-0.005271599848024073,0.01645699646330718,0.009241941909368173,-0.0031994362487434524, ,0.006277224179690074, ,0.018874485920902243, ,4.577224862933722e-05, ,0.21398148247901272,-0.2278437879882457,0.09586064550000001,1.7953652961144975,0.8254210950830257,-1.1498343624305436, ,0.028100959892943672,0.006658490211491113,0.00595247067264574,0.0,0.03891889775942556,-0.020256543737969833, ,0.9311380386352539
0.011496912130019292,0.02098734581910006,-0.0834213879235662, ,0.011786168533482673,0.020849091631744542,-0.08365416243373608, ,0.0003961911910312164, ,0.0039258789948938815,0.0008878296160683315,-0.0059985593976502735,-0.014320322146587555,-0.03065974502398517,0.004046524811567073, ,0.007223813546656327, ,0.03383920187520917, ,4.619373464415971e-05, ,0.21442940098571775,-0.22775111519375502,0.09595138580000001,1.7953652961144975,0.8254210950830257,-1.1496710049502623, ,0.030405940903066572,0.006380555037740315,0.006485672442996744,0.0,0.02198057878967881,-0.008509343598688532, ,0.942620038986206
0.011534503448556367,0.020996863468578097,-0.08347746596306366, ,0.011830300082299475,0.02085627309068541,-0.08372219297622245, ,0.0004088430186017459, ,0.003935596273096113,0.0009663981095017936,-0.005890548647205935,-0.0017147937607817551,-0.021773823379210484,-0.007590865885163327, ,0.007149923544763002, ,0.021841242984292485, ,4.663620814013222e-05, ,0.21475375576643516,-0.22767388786501278,0.09601879288000001,1.7955749860579822,0.8256943680825566,-1.1498121620175146, ,0.031277831759548715,0.006479157955038363,0.006488314264765784,0.007499955936535635,0.008184471878941965,-0.002060269298151239, ,0.9541170597076416
0.01157048698576494,0.021007059460736707,-0.08353678514948938, ,0.011874437379377201,0.02086324169299658,-0.08379027388050304, ,0.00042110085353240317, ,0.0033979619678274928,0.0009308259727007109,-0.00542017256237548,0.056763126018241364,0.04860986246345991,-0.022273538170333194, ,0.006464584528968919, ,0.07473266487554944, ,4.709792758197925e-05, ,0.21507038781427837,-0.22761210600201898,0.09608749625000002,1.7955749860579822,0.8263775505813838,-1.1502875727958561, ,0.0314020322827501,0.006533601471190408,0.0064099845150905445,0.007499955936535635,0.0812927489569993,-0.059221488356175085, ,0.9652910232543945
0.011586813313054747,0.021010849661083117,-0.08356138947880931, ,0.011918580143047973,0.020869999051529434,-0.0838584049247783, ,0.00046703993281040887, ,0.003415543423980147,0.0008277157656838138,-0.005286559944899833,0.05019145002994317,0.04208493419760823,-0.020725214198122698, ,0.0063481309312958326, ,0.06550055983269226, ,4.7775903792398935e-05, ,0.21521711973888863,-0.22758121507052206,0.09611601463000001,1.7955749860579822,0.8266508235809147,-1.1504287298631086, ,0.031443651941176536,0.007251705579353413,0.0062173347072599534,0.007499955936535635,0.07457848035103433,-0.05336343182236493, ,0.9762260913848877
0.011628137420372438,0.021020095616112885,-0.08362417705936906, ,0.011962728093094361,0.02087654677466764,-0.08392658588649923, ,0.0004732951371808385, ,0.003883389991598828,0.0008575947748709612,-0.005797046613326023,-0.004608285840780065,-0.005463521999368018,0.0004461991807934239, ,0.007030073688220532, ,0.007147472593934071, ,4.845588336351036e-05, ,0.2155569199853545,-0.22750398774177982,0.09618601429000001,1.7955749860579822,0.8269240965804455,-1.150324850709939, ,0.03208145421178863,0.0076888952824156415,0.006480395248169244,0.007499955936535635,0.02632392039766493,0.003915486888519381, ,0.9853830337524414
0.011687604112831955,0.02103284630816387,-0.08371623278366314, ,0.01200688095074723,0.020882886466333333,-0.083994816542372, ,0.0004494825513936804, ,0.004161868301559191,0.0009844056158041141,-0.0064213774275644325,-0.02628459607877535,-0.019116977233852805,0.011357663587126568, ,0.007715198652217833, ,0.03250136610461277, ,4.906604808413003e-05, ,0.21601256122493376,-0.22738814674866648,0.09628582862000001,1.7955749860579822,0.8269240965804455,-1.1499164570092362, ,0.032711803363829985,0.0077551646505834345,0.007070045059920108,0.007292558720672077,0.013136543958296614,0.027892547295936397, ,0.9952270984649658
0.01172871462283286,0.02104280494815346,-0.08378291640261412, ,0.012051038438683357,0.02088901972599101,-0.08406309666835873, ,0.0004539201671359198, ,0.003952919770878149,0.0009703195689595779,-0.0065906591002728885,0.033588591098111374,0.040853483193387496,-0.008885064471671936, ,0.0077462172805127984, ,0.05288856708735419, ,4.967516386379764e-05, ,0.21636780693714808,-0.22730319668704999,0.09636230973000001,1.7955749860579822,0.8276072790792728,-1.1504735465277183, ,0.034345617646931156,0.009158652421863468,0.007599623816793894,0.00683589550816316,0.0768593173860974,-0.03475534153738505, ,1.0047600269317627
0.011765388580922808,0.021052118497475052,-0.08384591254611122, ,0.012095200281022978,0.020894948148653544,-0.08413142603968111, ,0.00046367686062830977, ,0.003921094415334584,0.0010479017316762137,-0.006689416050402259,0.05612056656092654,0.05244378137937338,-0.020097993814635774, ,0.0078244083832963, ,0.07681059941890798, ,5.029571703750518e-05, ,0.21669988445073973,-0.22721824662543352,0.09643619826000001,1.7955749860579822,0.8285637345776309,-1.1511717931134529, ,0.034520531669141784,0.008665494423316896,0.007785342873900294,0.00645570145169032,0.08882169965790819,-0.0597248022665815, ,1.0138170719146729
0.011810264174825377,0.02106178565024025,-0.08391698869373605, ,0.012139366203327683,0.020900673324886255,-0.084199804430823, ,0.00046287154556025643, ,0.0044704664287580145,0.0009407467942458619,-0.007050817479972986,0.003706307911377434,-0.008509160855469338,-0.006608198658571868, ,0.00840143450592986, ,0.009281299444162146, ,5.090288334240132e-05, ,0.21704740743007986,-0.22712557383094284,0.09651397566000001,1.7955749860579822,0.8287003710773962,-1.1509564960565868, ,0.03548875899718429,0.01005081999907283,0.007796775095447872,0.006112829052041081,0.02676337313402948,-0.009534676382903399, ,1.022731065750122
0.011861039473963539,0.0210728813064541,-0.08399715701757221, ,0.012183535932597791,0.02090619684081227,-0.08426823161553162, ,0.00045306634677141363, ,0.004783287771213187,0.0009405153951169345,-0.0077213106445427875,-0.04507893503791954,-0.02982410189641687,0.022729356687568106, ,0.009131431934818293, ,0.054051710524610955, ,5.14763426835549e-05, ,0.21742582134091684,-0.22700973283782946,0.09660082709000001,1.7957846760014666,0.8287003710773962,-1.1503847448756028, ,0.03594581119639045,0.0113431677693606,0.0083615808503937,0.00300043844577525,0.0066215233314116835,0.044396289262453086, ,1.031454086303711
0.0119033492206633,0.02108317659438948,-0.08406752319864136, ,0.012227709197270259,0.020911520278117702,-0.08433670736682254, ,0.00045512130442318215, ,0.005000621673253546,0.0011105612918763895,-0.00849327514859905,-0.034045026023365885,-0.02507103223801169,0.01639546162255847, ,0.009918431642746623, ,0.04228026029030325, ,5.204403273751609e-05, ,0.21775017612163428,-0.22690933731046453,0.09667860449000001,1.7959943659449509,0.8289736440769272,-1.150525901942855, ,0.0368102954066993,0.01158149614259274,0.00921273078079815,0.00321455513881499,0.012227216534629066,0.03165599208951644, ,1.0428049564361572
0.011905228633033407,0.021083106069856927,-0.08406996477021424, ,0.012271885727216183,0.020916645214055972,-0.08440523145697987, ,0.000523975564776972, ,0.005006534783563185,0.0010954320166857222,-0.00847959887230191,-0.03336369709370437,-0.02515203919470999,0.015767583997435972, ,0.009908024973593476, ,0.0417823086433969, ,5.2756898276628754e-05, ,0.21776562158738272,-0.2269016145775903,0.09668119707000002,1.7959943659449509,0.8289736440769272,-1.150525901942855, ,0.03691051791461329,0.0117166264954313,0.009196773394919169,0.00321455513881499,0.012227216534629066,0.0306461246424886, ,1.0522511005401611
0.011905228633033407,0.021083106069856927,-0.08406996477021424, ,0.012316065253738516,0.020921573221453164,-0.08447380365756016, ,0.0005983021284924689, ,0.005006534783563185,0.0010954320166857222,-0.00847959887230191,-0.03336369709370437,-0.02515203919470999,0.015767583997435972, ,0.009908024973593476, ,0.0417823086433969, ,5.3743515840894634e-05, ,0.21776562158738272,-0.2269016145775903,0.09668119707000002,1.7959943659449509,0.8289736440769272,-1.150525901942855, ,0.03691051791461329,0.0117166264954313,0.009196773394919169,0.00321455513881499,0.012227216534629066,0.0306461246424886, ,1.0589289665222168
0.012006133977658005,0.021103485680760183,-0.08423263596964331, ,0.012360247509569737,0.020926305868713403,-0.0845424237393944, ,0.000502749979181786, ,0.004711284323942716,0.0006457410068039719,-0.007245222078848603,0.0024507203234099967,-0.0096798767382822,0.006108455270015549, ,0.008666396275311431, ,0.009985290371712198, ,5.45041381831198e-05, ,0.2185765085391763,-0.22664676439274092,0.09686267767000001,1.7962040558884358,0.8299300995752852,-1.1512241485285895, ,0.038111221509426016,0.012766977204153205,0.00798436667669173,-0.009401606784996405,0.03187730254127607,-0.01422691738218419, ,1.0658631324768066
0.012058468322005064,0.02110996007873142,-0.0843109753374856, ,0.012404432228869385,0.020930844719822858,-0.08461109147259135, ,0.0004917753869406034, ,0.005299563286963711,0.0006382514422567993,-0.008291117933224708,-0.013385454189987898,-0.025806380156025994,0.009943788011016058, ,0.009860799791026935, ,0.029071284826259463, ,5.523038369725972e-05, ,0.21897809064863596,-0.22650003246813064,0.09694693652000001,1.7962040558884358,0.8299300995752852,-1.1510607910483084, ,0.04117003972167929,0.015513640928309754,0.008989171286681715,-0.009401606784996405,0.01838352723955458,-0.000758830541721241, ,1.072396993637085
0.012058468322005064,0.02110996007873142,-0.0843109753374856, ,0.012448619147221968,0.020935191334355268,-0.08467980662653882, ,0.0005646222632990152, ,0.005299563286963711,0.0006382514422567993,-0.008291117933224708,-0.013385454189987898,-0.025806380156025994,0.009943788011016058, ,0.009860799791026935, ,0.029071284826259463, ,5.610715537244046e-05, ,0.21897809064863596,-0.22650003246813064,0.09694693652000001,1.7962040558884358,0.8299300995752852,-1.1510607910483084, ,0.04117003972167929,0.015513640928309754,0.008989171286681715,-0.009401606784996405,0.01838352723955458,-0.000758830541721241, ,1.0794451236724854
0.012118548755403163,0.02111970517867971,-0.08440711516090377, ,0.01249280800163437,0.02093934726747722,-0.08474856896990762, ,0.0005377635755665469, ,0.0056212811852444635,0.001042897151322284,-0.009464875585745559,-0.013867747627535964,-0.03570576591930793,0.007148469765724665, ,0.011057590446632659, ,0.038304256528318904, ,5.6913797532809943e-05, ,0.21944145462108944,-0.22633785507777193,0.09705193601,1.7962040558884358,0.8302033725748161,-1.1511202693754203, ,0.04099219937730919,0.013969813272261267,0.010197702637644048,-0.008869222686794943,0.007652691062223532,-0.000426311310220172, ,1.0899701118469238
0.012170037611482533,0.021130248468622378,-0.08450117956363379, ,0.012536998530533593,0.020943314069952274,-0.08481737827065301, ,0.0005192171105015527, ,0.005277026156349597,0.0010926386904755872,-0.010124956540609477,0.06953801828707748,0.06569863817172526,-0.015615395777648339, ,0.011469769366118597, ,0.09566528596365176, ,5.766971015299025e-05, ,0.21985848219629756,-0.22618340042028745,0.09715823179000001,1.7962040558884358,0.8311598280731742,-1.151736837221014, ,0.04274637007138323,0.01652105528524909,0.011467826868250543,-0.008337977124397156,0.11446220923579241,-0.08432138388375683, ,1.097038984298706
0.0122273704469167,0.021143029233071004,-0.08460815530481874, ,0.012581190473764445,0.02094709328814647,-0.0848862342960178, ,0.0004908232179291175, ,0.0056811974577569,0.0011349907361531632,-0.010239607426986042,0.013692761064947353,0.01236310947618375,0.004599590275121392, ,0.011764938112202913, ,0.018448253818002185, ,5.835465430702074e-05, ,0.22029867797012836,-0.22602122302992872,0.09727749047,1.7962040558884358,0.8319796470717669,-1.1522419871629115, ,0.04311537553769685,0.01569841878552039,0.011305047210787794,-0.007847246957157914,0.05974619896039647,-0.0254606221467372, ,1.1036241054534912
0.0122273704469167,0.021143029233071004,-0.08460815530481874, ,0.012625383572587096,0.020950686464033228,-0.08495513681253505, ,0.0005619665076355724, ,0.0056811974577569,0.0011349907361531632,-0.010239607426986042,0.013692761064947353,0.01236310947618375,0.004599590275121392, ,0.011764938112202913, ,0.018448253818002185, ,5.91831394134758e-05, ,0.22029867797012836,-0.22602122302992872,0.09727749047,1.7962040558884358,0.8319796470717669,-1.1522419871629115, ,0.04311537553769685,0.01569841878552039,0.011305047210787794,-0.007847246957157914,0.05974619896039647,-0.0254606221467372, ,1.1101479530334473
0.012288223127453899,0.02115282986604573,-0.0847117048227082, ,0.01266957756967491,0.020954095135198348,-0.08502408558603025, ,0.0005315152350971163, ,0.005986361735664213,0.0007825976434282099,-0.010052282852270108,-0.030963052481240445,-0.02720889235045148,0.01891070018984451, ,0.011725927530211318, ,0.04121934423608515, ,5.9936258172745345e-05, ,0.22073887374395917,-0.22584360017382157,0.09738897141000001,1.7962040558884358,0.8321162835715323,-1.151945011365905, ,0.04417920929165306,0.01866580282424681,0.010835926204081634,-0.007418525458177227,0.01997300626865469,0.01808581063695195, ,1.117063045501709
0.012288223127453899,0.02115282986604573,-0.0847117048227082, ,0.01271377220911192,0.0209573208348449,-0.08509308038162422, ,0.0006039562228502778, ,0.005986361735664213,0.0007825976434282099,-0.010052282852270108,-0.030963052481240445,-0.02720889235045148,0.01891070018984451, ,0.011725927530211318, ,0.04121934423608515, ,6.096185924584871e-05, ,0.22073887374395917,-0.22584360017382157,0.09738897141000001,1.7962040558884358,0.8321162835715323,-1.151945011365905, ,0.04417920929165306,0.01866580282424681,0.010835926204081634,-0.007418525458177227,0.01997300626865469,0.01808581063695195, ,1.1258471012115479
0.012288223127453899,0.02115282986604573,-0.0847117048227082, ,0.012757967236390545,0.020960365091797568,-0.08516212096373504, ,0.0006786581741234593, ,0.005986361735664213,0.0007825976434282099,-0.010052282852270108,-0.030963052481240445,-0.02720889235045148,0.01891070018984451, ,0.011725927530211318, ,0.04121934423608515, ,6.213640451089462e-05, ,0.2211559013191673,-0.22567370005058862,0.09748878574000001,1.7962040558884358,0.8322529200712978,-1.1517297143090393, ,0.04593269194504877,0.017316960138407077,0.010230450558766861,-0.0070664905203075105,0.0,0.0484790710648241, ,1.1310949325561523
0.012406083460260025,0.0211683011521647,-0.08489929504196006, ,0.012802162398409254,0.020963229430509017,-0.08523120709608172, ,0.0005559663190693337, ,0.005607943433545546,0.000608583837058942,-0.008774928965760891,0.09242567867749145,0.0854172365747083,-0.02494934253231949, ,0.010431624139831988, ,0.12585154083692765, ,6.304332364964997e-05, ,0.22123312864790953,-0.22565053185196596,0.09750563751,1.7962040558884358,0.8323895565710632,-1.151759453472595, ,0.04681644872149521,0.01704939661488875,0.010145739821656051,-0.007005418142244694,0.010513514392719464,0.022285942757346185, ,1.1356780529022217
0.012406083460260025,0.0211683011521647,-0.08489929504196006, ,0.012846357443470175,0.02096591537106331,-0.08530033854168517, ,0.0006289968786532394, ,0.005607943433545546,0.000608583837058942,-0.008774928965760891,0.09242567867749145,0.0854172365747083,-0.02494934253231949, ,0.010431624139831988, ,0.12585154083692765, ,6.409543710436533e-05, ,0.22123312864790953,-0.22565053185196596,0.09750563751,1.7962040558884358,0.8323895565710632,-1.151759453472595, ,0.04681644872149521,0.01704939661488875,0.010145739821656051,-0.007005418142244694,0.010513514392719464,0.022285942757346185, ,1.140152931213379
0.012463450327311963,0.02117571186178424,-0.08499091499064199, ,0.012890552121276835,0.020968424429181967,-0.08536951506287294, ,0.0006072248651168157, ,0.006144317073628943,0.0008387740503493896,-0.009938790558787202,0.02000875395208099,0.02507726921588797,0.0037623551532583463, ,0.011714765553790025, ,0.03208145210342377, ,6.509342458542383e-05, ,0.22215213385994226,-0.22531073160550008,0.09769489585,1.7962040558884358,0.8344391040675448,-1.152940649587198, ,0.049710288925338283,0.018585378291905753,0.011069361723419043,-0.0064113152871716475,0.09014400239331469,-0.04043823999244904, ,1.1452760696411133
0.012463450327311963,0.02117571186178424,-0.08499091499064199, ,0.012934746182931693,0.02097075811622848,-0.08543873642127929, ,0.0006816669678660619, ,0.006144317073628943,0.0008387740503493896,-0.009938790558787202,0.02000875395208099,0.02507726921588797,0.0037623551532583463, ,0.011714765553790025, ,0.03208145210342377, ,6.623757420927282e-05, ,0.22215213385994226,-0.22531073160550008,0.09769489585,1.7962040558884358,0.8344391040675448,-1.152940649587198, ,0.049710288925338283,0.018585378291905753,0.011069361723419043,-0.0064113152871716475,0.09014400239331469,-0.04043823999244904, ,1.1497290134429932
0.01253242252208336,0.0211837368170103,-0.08509989395813228, ,0.012978939380933883,0.020972917939213104,-0.08550800237785014, ,0.0006406047039462153, ,0.007296561919161553,0.000853697690986083,-0.011783305965366603,-0.04025790050927601,-0.04757488137779709,0.01643500043437072, ,0.013885781038933233, ,0.06232228866436296, ,6.728742866284239e-05, ,0.22271589335976064,-0.22507904961927333,0.09782193227000001,1.7962040558884358,0.8348490135668412,-1.1531115458180063, ,0.05328295427202177,0.02247145194375344,0.012641913904761905,-0.006108278520734077,0.007903019795490475,0.022815213769837278, ,1.154123067855835
0.01253242252208336,0.0211837368170103,-0.08509989395813228, ,0.01302313146917682,0.02097490540079821,-0.0855773126928431, ,0.0007157754392318908, ,0.007296561919161553,0.000853697690986083,-0.011783305965366603,-0.04025790050927601,-0.04757488137779709,0.01643500043437072, ,0.013885781038933233, ,0.06232228866436296, ,6.848331463384281e-05, ,0.22271589335976064,-0.22507904961927333,0.09782193227000001,1.7962040558884358,0.8348490135668412,-1.1531115458180063, ,0.05328295427202177,0.02247145194375344,0.012641913904761905,-0.006108278520734077,0.007903019795490475,0.022815213769837278, ,1.1585829257965088
0.012608095628269759,0.021195454594214194,-0.0852297812302268, ,0.013067322202945807,0.02097672199930295,-0.08564666712583296, ,0.0006576677313968327, ,0.007888370663421632,0.0014334767984001892,-0.014371747378204087,-0.0600521322481445,-0.04816510059230919,0.030378598189992202, ,0.016456863922327324, ,0.07698139313816374, ,6.955032508902549e-05, ,0.22320242553083677,-0.22487053583166927,0.09795026498,1.7962040558884358,0.8348490135668412,-1.152784830857444, ,0.053104052355048,0.022450187262472384,0.015170296685714287,-0.005868031222426565,0.007684857351769141,0.046945468901828324, ,1.164736032485962
0.012608095628269759,0.021195454594214194,-0.0852297812302268, ,0.013111511338915801,0.02097836922870823,-0.08571606543571157, ,0.00073282041602706, ,0.007888370663421632,0.0014334767984001892,-0.014371747378204087,-0.0600521322481445,-0.04816510059230919,0.030378598189992202, ,0.016456863922327324, ,0.07698139313816374, ,7.076199808055409e-05, ,0.22320242553083677,-0.22487053583166927,0.09795026498,1.7962040558884358,0.8348490135668412,-1.152784830857444, ,0.053104052355048,0.022450187262472384,0.015170296685714287,-0.005868031222426565,0.007684857351769141,0.046945468901828324, ,1.1704609394073486
0.012685659031743974,0.021210837478925746,-0.08537731077378324, ,0.013155698635148979,0.020979848578661708,-0.08578550738069173, ,0.0006640162428027808, ,0.007840741199737667,0.0016558315636954343,-0.015411350749599135,0.07159219683729369,0.05571843887175957,-0.025402684530286046, ,0.017370340602756284, ,0.09071927143076088, ,7.18239741916144e-05, ,0.22379707596215206,-0.22461568564681986,0.09812267155000001,1.7962040558884358,0.8356688325654338,-1.1532083020592008, ,0.05737420892289647,0.02438256463475611,0.017109357164339423,-0.0056156385152943845,0.11842730161329103,-0.09496839888968363, ,1.1753089427947998
0.012685659031743974,0.021210837478925746,-0.08537731077378324, ,0.013199883851092388,0.02098116153448299,-0.08585499271830996, ,0.0007384837468870957, ,0.007840741199737667,0.0016558315636954343,-0.015411350749599135,0.07159219683729369,0.05571843887175957,-0.025402684530286046, ,0.017370340602756284, ,0.09071927143076088, ,7.302809524121737e-05, ,0.22379707596215206,-0.22461568564681986,0.09812267155000001,1.7962040558884358,0.8356688325654338,-1.1532083020592008, ,0.05737420892289647,0.02438256463475611,0.017109357164339423,-0.0056156385152943845,0.11842730161329103,-0.09496839888968363, ,1.1797490119934082
0.012740807711497475,0.02122316914664666,-0.0854862873348399, ,0.013244066747575544,0.02098230957716813,-0.0859245212054281, ,0.0007094588888260686, ,0.008246041844313726,0.0018430034694247636,-0.016146372067125853,0.07897970130158877,0.06385491350911188,-0.02650298432052412, ,0.018223589076154748, ,0.10156398032530783, ,7.41639877782005e-05, ,0.22420638080448596,-0.22444578552358693,0.09824452281000001,1.7962040558884358,0.8366252880637919,-1.1539065486449351, ,0.06071461392096659,0.02442649718364756,0.017998657084745767,-0.005462956116695315,0.13031047354307876,-0.10169861594103544, ,1.1844689846038818
0.012740807711497475,0.02122316914664666,-0.0854862873348399, ,0.013288247086808213,0.02098329418339503,-0.08599409259823682, ,0.0007842805959407587, ,0.008246041844313726,0.0018430034694247636,-0.016146372067125853,0.07897970130158877,0.06385491350911188,-0.02650298432052412, ,0.018223589076154748, ,0.10156398032530783, ,7.5441001072145e-05, ,0.22420638080448596,-0.22444578552358693,0.09824452281000001,1.7962040558884358,0.8366252880637919,-1.1539065486449351, ,0.06071461392096659,0.02442649718364756,0.017998657084745767,-0.005462956116695315,0.13031047354307876,-0.10169861594103544, ,1.1889629364013672
0.012740807711497475,0.02122316914664666,-0.0854862873348399, ,0.01333242463237803,0.02098411682552774,-0.0860637066522577, ,0.0008605635719874308, ,0.008246041844313726,0.0018430034694247636,-0.016146372067125853,0.07897970130158877,0.06385491350911188,-0.02650298432052412, ,0.018223589076154748, ,0.10156398032530783, ,7.701439299782694e-05, ,0.22420638080448596,-0.22444578552358693,0.09824452281000001,1.7962040558884358,0.8366252880637919,-1.1539065486449351, ,0.06071461392096659,0.02442649718364756,0.017998657084745767,-0.005462956116695315,0.13031047354307876,-0.10169861594103544, ,1.1912379264831543
0.01285329435234259,0.02124355823650035,-0.08570038401203721, ,0.01337659914924793,0.02098477897162243,-0.08613336312234542, ,0.0007268325311639406, ,0.009152874329919704,0.0014365043776505522,-0.01645308731985342,-0.025834775824971613,-0.026751733274683855,0.0066963606074420465, ,0.018882339253414385, ,0.03718991354430131, ,7.831402927415917e-05, ,0.22499409955765687,-0.22409826254424683,0.09847785501,1.7959943659449509,0.83758174356215,-1.1542780802701071, ,0.06343378446421843,0.028967320378043584,0.017757872374581943,0.0,0.03870278901081262,0.005157544516241008, ,1.193464994430542
0.01285329435234259,0.02124355823650035,-0.08570038401203721, ,0.013420770403754112,0.020985282085431507,-0.08620306176269127, ,0.0008008873579593906, ,0.009152874329919704,0.0014365043776505522,-0.01645308731985342,-0.025834775824971613,-0.026751733274683855,0.0066963606074420465, ,0.018882339253414385, ,0.03718991354430131, ,7.975629140726343e-05, ,0.22499409955765687,-0.22409826254424683,0.09847785501,1.7959943659449509,0.83758174356215,-1.1542780802701071, ,0.06343378446421843,0.028967320378043584,0.017757872374581943,0.0,0.03870278901081262,0.005157544516241008, ,1.195723056793213
0.01285329435234259,0.02124355823650035,-0.08570038401203721, ,0.013464938163603463,0.020985627626408515,-0.08627280232682479, ,0.0008765267129873003, ,0.009152874329919704,0.0014365043776505522,-0.01645308731985342,-0.025834775824971613,-0.026751733274683855,0.0066963606074420465, ,0.018882339253414385, ,0.03718991354430131, ,8.134348348212407e-05, ,0.22499409955765687,-0.22409826254424683,0.09847785501,1.7959943659449509,0.83758174356215,-1.1542780802701071, ,0.06343378446421843,0.028967320378043584,0.017757872374581943,0.0,0.03870278901081262,0.005157544516241008, ,1.1980061531066895
0.01285329435234259,0.02124355823650035,-0.08570038401203721, ,0.013509102197871287,0.020985817049713792,-0.08634258456761706, ,0.0009533813524556736, ,0.009152874329919704,0.0014365043776505522,-0.01645308731985342,-0.025834775824971613,-0.026751733274683855,0.0066963606074420465, ,0.018882339253414385, ,0.03718991354430131, ,0.0004542153267443691, ,0.22499409955765687,-0.22409826254424683,0.09847785501,1.7959943659449509,0.83758174356215,-1.1542780802701071, ,0.06343378446421843,0.028967320378043584,0.017757872374581943,0.0,0.03870278901081262,0.005157544516241008, ,1.2002649307250977
0.01285329435234259,0.02124355823650035,-0.08570038401203721, ,0.013553262276998993,0.020985851806218904,-0.08641240823728252, ,0.0010311867905924644, ,0.009152874329919704,0.0014365043776505522,-0.01645308731985342,-0.025834775824971613,-0.026751733274683855,0.0066963606074420465, ,0.018882339253414385, ,0.03718991354430131, ,0.0004604193209792948, ,0.22499409955765687,-0.22409826254424683,0.09847785501,1.7959943659449509,0.83758174356215,-1.1542780802701071, ,0.06343378446421843,0.028967320378043584,0.017757872374581943,0.0,0.03870278901081262,0.005157544516241008, ,1.2063870429992676
0.01285329435234259,0.02124355823650035,-0.08570038401203721, ,0.013597418172791548,0.02098573334251164,-0.08648227308738235, ,0.0011097497295624458, ,0.009152874329919704,0.0014365043776505522,-0.01645308731985342,-0.025834775824971613,-0.026751733274683855,0.0066963606074420465, ,0.018882339253414385, ,0.03718991354430131, ,0.00046732709128337086, ,0.22568914551633706,-0.2237739077635294,0.09866452077000001,1.7959943659449509,0.8381282895612117,-1.1543970369243306, ,0.07333612176079658,0.034345617646931156,0.01964095131935882,0.0,0.05688737946497523,0.015992357699012996, ,1.208812952041626
0.012951123914452183,0.02125685840622022,-0.08587258879712178, ,0.013641569658415438,0.020985463100900943,-0.08655217886882599, ,0.0010060881684351747, ,0.010329874161499388,0.001374512205815053,-0.018120399458550557,-0.03672237060678935,-0.019577014594452852,0.016631558952924414, ,0.020903216511670795, ,0.041614781626237766, ,0.0004729982605165478, ,0.22568914551633706,-0.2237739077635294,0.09866452077000001,1.7959943659449509,0.8381282895612117,-1.1543970369243306, ,0.07333612176079658,0.034345617646931156,0.01964095131935882,0.0,0.05688737946497523,0.015992357699012996, ,1.2118041515350342
0.01299803364866469,0.02126399079925509,-0.08595975105570183, ,0.013685716508395994,0.020985042519422417,-0.08662212533187509, ,0.0009947158087242195, ,0.010576842284589986,0.0016357415577748975,-0.01987538472518942,0.03593376610801403,0.05059108612435651,-0.010167560093395324, ,0.022573793680531758, ,0.06205393170787113, ,0.00047843281831037773, ,0.22602894576280294,-0.22361173037317067,0.09876044623,1.7959943659449509,0.8386748355602734,-1.1546793510588353, ,0.07659155896567456,0.03691051791461329,0.02191033221458047,0.0,0.13255515211012492,-0.061469796748537066, ,1.214643955230713
0.01299803364866469,0.02126399079925509,-0.08595975105570183, ,0.013729858498615157,0.020984473031842123,-0.08669211222614456, ,0.0010724041576181985, ,0.010576842284589986,0.0016357415577748975,-0.01987538472518942,0.03593376610801403,0.05059108612435651,-0.010167560093395324, ,0.022573793680531758, ,0.06205393170787113, ,0.00048455623417953045, ,0.22602894576280294,-0.22361173037317067,0.09876044623,1.7959943659449509,0.8386748355602734,-1.1546793510588353, ,0.07659155896567456,0.03691051791461329,0.02191033221458047,0.0,0.13255515211012492,-0.061469796748537066, ,1.2171571254730225
0.01299803364866469,0.02126399079925509,-0.08595975105570183, ,0.013773995406309305,0.020983756067662902,-0.08676213930060599, ,0.0011508583968837486, ,0.010576842284589986,0.0016357415577748975,-0.01987538472518942,0.03593376610801403,0.05059108612435651,-0.010167560093395324, ,0.022573793680531758, ,0.06205393170787113, ,0.0004913552358397776, ,0.22602894576280294,-0.22361173037317067,0.09876044623,1.7959943659449509,0.8386748355602734,-1.1546793510588353, ,0.07659155896567456,0.03691051791461329,0.02191033221458047,0.0,0.13255515211012492,-0.061469796748537066, ,1.2193970680236816
0.01299803364866469,0.02126399079925509,-0.08595975105570183, ,0.013818127010066555,0.02098289305212813,-0.08683220630359043, ,0.0012299378945392347, ,0.010576842284589986,0.0016357415577748975,-0.01987538472518942,0.03593376610801403,0.05059108612435651,-0.010167560093395324, ,0.022573793680531758, ,0.06205393170787113, ,0.0004988156667357317, ,0.22602894576280294,-0.22361173037317067,0.09876044623,1.7959943659449509,0.8386748355602734,-1.1546793510588353, ,0.07659155896567456,0.03691051791461329,0.02191033221458047,0.0,0.13255515211012492,-0.061469796748537066, ,1.221642017364502
0.01299803364866469,0.02126399079925509,-0.08595975105570183, ,0.01386225308982461,0.02098188540622727,-0.08690231298278996, ,0.001309534910435846, ,0.010576842284589986,0.0016357415577748975,-0.01987538472518942,0.03593376610801403,0.05059108612435651,-0.010167560093395324, ,0.022573793680531758, ,0.06205393170787113, ,0.0005069228591727328, ,0.22602894576280294,-0.22361173037317067,0.09876044623,1.7959943659449509,0.8386748355602734,-1.1546793510588353, ,0.07659155896567456,0.03691051791461329,0.02191033221458047,0.0,0.13255515211012492,-0.061469796748537066, ,1.2238891124725342
0.013188238324311681,0.02130025355782373,-0.08632790920565397, ,0.0139063734268685,0.02098073454670106,-0.08697245908526134, ,0.0010164915008473868, ,0.012397797229300312,0.002123884732453337,-0.023415100170839205,0.041028657644120316,0.030796832303789965,-0.02171578764676605, ,0.026579751287512627, ,0.05130096090256431, ,0.0005119680932487195, ,0.2273958694815407,-0.22299391174323271,0.09916877758,1.7959943659449509,0.8414075655555823,-1.1565809941722014, ,0.08634844545811718,0.04050232247480613,0.02565026009661836,0.0,0.12168198688558181,-0.07452013375833726, ,1.2263929843902588
0.013188238324311681,0.02130025355782373,-0.08632790920565397, ,0.013950487803827932,0.020979441886045933,-0.08704264435742792, ,0.0010930648356584298, ,0.012397797229300312,0.002123884732453337,-0.023415100170839205,0.041028657644120316,0.030796832303789965,-0.02171578764676605, ,0.026579751287512627, ,0.05130096090256431, ,0.0005176651201350892, ,0.2273958694815407,-0.22299391174323271,0.09916877758,1.7959943659449509,0.8414075655555823,-1.1565809941722014, ,0.08634844545811718,0.04050232247480613,0.02565026009661836,0.0,0.12168198688558181,-0.07452013375833726, ,1.2286689281463623
0.013188238324311681,0.02130025355782373,-0.08632790920565397, ,0.01399459600467518,0.020978008832518946,-0.08711286854508199, ,0.0011705620599623177, ,0.012397797229300312,0.002123884732453337,-0.023415100170839205,0.041028657644120316,0.030796832303789965,-0.02171578764676605, ,0.026579751287512627, ,0.05130096090256431, ,0.0005240039253761302, ,0.2273958694815407,-0.22299391174323271,0.09916877758,1.7959943659449509,0.8414075655555823,-1.1565809941722014, ,0.08634844545811718,0.04050232247480613,0.02565026009661836,0.0,0.12168198688558181,-0.07452013375833726, ,1.2309660911560059
0.013188238324311681,0.02130025355782373,-0.08632790920565397, ,0.014038697814722624,0.02097643679014327,-0.08718313139338853, ,0.001248816893805707, ,0.012397797229300312,0.002123884732453337,-0.023415100170839205,0.041028657644120316,0.030796832303789965,-0.02171578764676605, ,0.026579751287512627, ,0.05130096090256431, ,0.0005309732808417993, ,0.2273958694815407,-0.22299391174323271,0.09916877758,1.7959943659449509,0.8414075655555823,-1.1565809941722014, ,0.08634844545811718,0.04050232247480613,0.02565026009661836,0.0,0.12168198688558181,-0.07452013375833726, ,1.2332029342651367
0.01332518368450342,0.021321294104954175,-0.08659065209232199, ,0.014082793020620401,0.020974727158712823,-0.08725343264688586, ,0.0010645931701390246, ,0.01390621469090653,0.0026556965376467842,-0.027717780667974503,0.0032486750437967977,0.0017740475498684394,-0.003519310116454246, ,0.031124120811479878, ,0.003699293704408847, ,0.0005360553750255823, ,0.22832259742644762,-0.22253054777077924,0.09945396138000001,1.7957846760014666,0.8425006575537057,-1.1569005862207888, ,0.08986452799097612,0.04480497712864532,0.02999776180790961,-0.0051461351801539625,0.09675455658180869,-0.03943629112948753, ,1.2354099750518799
0.01332518368450342,0.021321294104954175,-0.08659065209232199, ,0.014126881410354118,0.020972881333797246,-0.08732377204948993, ,0.0011408661509297938, ,0.01390621469090653,0.0026556965376467842,-0.027717780667974503,0.0032486750437967977,0.0017740475498684394,-0.003519310116454246, ,0.031124120811479878, ,0.003699293704408847, ,0.0005417611370624146, ,0.22832259742644762,-0.22253054777077924,0.09945396138000001,1.7957846760014666,0.8425006575537057,-1.1569005862207888, ,0.08986452799097612,0.04480497712864532,0.02999776180790961,-0.0051461351801539625,0.09675455658180869,-0.03943629112948753, ,1.2376339435577393
0.01332518368450342,0.021321294104954175,-0.08659065209232199, ,0.014170962773242372,0.020970900706746298,-0.08739414934449612, ,0.0012180827700559315, ,0.01390621469090653,0.0026556965376467842,-0.027717780667974503,0.0032486750437967977,0.0017740475498684394,-0.003519310116454246, ,0.031124120811479878, ,0.003699293704408847, ,0.0005480818999875876, ,0.22832259742644762,-0.22253054777077924,0.09945396138000001,1.7957846760014666,0.8425006575537057,-1.1569005862207888, ,0.08986452799097612,0.04480497712864532,0.02999776180790961,-0.0051461351801539625,0.09675455658180869,-0.03943629112948753, ,1.2398719787597656
0.01332518368450342,0.021321294104954175,-0.08659065209232199, ,0.0142150368999344,0.020968786664696,-0.08746456427458149, ,0.0012960797594098108, ,0.01390621469090653,0.0026556965376467842,-0.027717780667974503,0.0032486750437967977,0.0017740475498684394,-0.003519310116454246, ,0.031124120811479878, ,0.003699293704408847, ,0.0005550078060933489, ,0.22832259742644762,-0.22253054777077924,0.09945396138000001,1.7957846760014666,0.8425006575537057,-1.1569005862207888, ,0.08986452799097612,0.04480497712864532,0.02999776180790961,-0.0051461351801539625,0.09675455658180869,-0.03943629112948753, ,1.2421090602874756
0.013475433988411879,0.02134594358693817,-0.08689652283494913, ,0.014259103582407872,0.02096654059057276,-0.08753501658180823, ,0.0010797031679971483, ,0.015342655731103418,0.0025672175933394194,-0.031302376902897805,0.019446895788674923,0.04579787097771941,0.008954749102097486, ,0.03495463475457557, ,0.04975536844395676, ,0.0005598215250098975, ,0.22929566176859992,-0.22202857013395466,0.09978451533,1.795155606171013,0.8437303860515948,-1.1574132749132133, ,0.10010225902792276,0.054475856233335694,0.03403592205128206,-0.01891994803634127,0.1564608849849772,-0.0627128365212507, ,1.2454190254211426
0.013475433988411879,0.02134594358693817,-0.08689652283494913, ,0.014303162613966405,0.020964163863098496,-0.08760550600762544, ,0.0011547933036849735, ,0.015342655731103418,0.0025672175933394194,-0.031302376902897805,0.019446895788674923,0.04579787097771941,0.008954749102097486, ,0.03495463475457557, ,0.04975536844395676, ,0.0005652303593614891, ,0.22929566176859992,-0.22202857013395466,0.09978451533,1.795155606171013,0.8437303860515948,-1.1574132749132133, ,0.10010225902792276,0.054475856233335694,0.03403592205128206,-0.01891994803634127,0.1564608849849772,-0.0627128365212507, ,1.2476799488067627
0.013475433988411879,0.02134594358693817,-0.08689652283494913, ,0.014347213789237255,0.020961657856795303,-0.0876760322928718, ,0.0012309795036918624, ,0.015342655731103418,0.0025672175933394194,-0.031302376902897805,0.019446895788674923,0.04579787097771941,0.008954749102097486, ,0.03495463475457557, ,0.04975536844395676, ,0.0005712280994005015, ,0.22929566176859992,-0.22202857013395466,0.09978451533,1.795155606171013,0.8437303860515948,-1.1574132749132133, ,0.10010225902792276,0.054475856233335694,0.03403592205128206,-0.01891994803634127,0.1564608849849772,-0.0627128365212507, ,1.250075101852417
0.013475433988411879,0.02134594358693817,-0.08689652283494913, ,0.01439125690416877,0.0209590239419911,-0.08774659517777837, ,0.0013080754613991582, ,0.015342655731103418,0.0025672175933394194,-0.031302376902897805,0.019446895788674923,0.04579787097771941,0.008954749102097486, ,0.03495463475457557, ,0.04975536844395676, ,0.000577807093704061, ,0.22929566176859992,-0.22202857013395466,0.09978451533,1.795155606171013,0.8437303860515948,-1.1574132749132133, ,0.10010225902792276,0.054475856233335694,0.03403592205128206,-0.01891994803634127,0.1564608849849772,-0.0627128365212507, ,1.2525100708007812
0.013635083002452874,0.02137224900836758,-0.08721873706315575, ,0.01443529175602841,0.02095626348482375,-0.08781719440197108, ,0.0010823720208315059, ,0.01608409335524012,0.0023916569422805347,-0.03193889907817475,0.0656228994766398,0.06066181964950302,0.011268010325658492, ,0.035840080305650404, ,0.08936547467339835, ,0.0005822722700503215, ,0.2303613989052429,-0.22146481063413626,0.10013710621000001,1.7949459162275283,0.8456432970483109,-1.1585647318642605, ,0.10845364749539518,0.055756134875717255,0.034931604210526324,-0.052234912092915614,0.18716442732159508,-0.12466501338139374, ,1.2550239562988281
0.013635083002452874,0.02137224900836758,-0.08721873706315575, ,0.01447931814340006,0.020953377847246834,-0.08788782970447323, ,0.0011557988516580047, ,0.01608409335524012,0.0023916569422805347,-0.03193889907817475,0.0656228994766398,0.06066181964950302,0.011268010325658492, ,0.035840080305650404, ,0.08936547467339835, ,0.0005873032049767047, ,0.2303613989052429,-0.22146481063413626,0.10013710621000001,1.7949459162275283,0.8456432970483109,-1.1585647318642605, ,0.10845364749539518,0.055756134875717255,0.034931604210526324,-0.052234912092915614,0.18716442732159508,-0.12466501338139374, ,1.257246971130371
0.013635083002452874,0.02137224900836758,-0.08721873706315575, ,0.014523335866181713,0.0209503683870336,-0.08795850082370772, ,0.001230539243586171, ,0.01608409335524012,0.0023916569422805347,-0.03193889907817475,0.0656228994766398,0.06066181964950302,0.011268010325658492, ,0.035840080305650404, ,0.08936547467339835, ,0.0005928965618341783, ,0.2303613989052429,-0.22146481063413626,0.10013710621000001,1.7949459162275283,0.8456432970483109,-1.1585647318642605, ,0.10845364749539518,0.055756134875717255,0.034931604210526324,-0.052234912092915614,0.18716442732159508,-0.12466501338139374, ,1.2594621181488037
0.013635083002452874,0.02137224900836758,-0.08721873706315575, ,0.01456734472558335,0.020947236457783548,-0.08802920749750048, ,0.00130637280801274, ,0.01608409335524012,0.0023916569422805347,-0.03193889907817475,0.0656228994766398,0.06066181964950302,0.011268010325658492, ,0.035840080305650404, ,0.08936547467339835, ,0.0005990472191288211, ,0.2303613989052429,-0.22146481063413626,0.10013710621000001,1.7949459162275283,0.8456432970483109,-1.1585647318642605, ,0.10845364749539518,0.055756134875717255,0.034931604210526324,-0.052234912092915614,0.18716442732159508,-0.12466501338139374, ,1.26170015335083
0.013635083002452874,0.02137224900836758,-0.08721873706315575, ,0.014611344524124216,0.020943983408924987,-0.08809994946308224, ,0.0013831244615529607, ,0.01608409335524012,0.0023916569422805347,-0.03193889907817475,0.0656228994766398,0.06066181964950302,0.011268010325658492, ,0.035840080305650404, ,0.08936547467339835, ,0.0006057487340213352, ,0.2303613989052429,-0.22146481063413626,0.10013710621000001,1.7949459162275283,0.8456432970483109,-1.1585647318642605, ,0.10845364749539518,0.055756134875717255,0.034931604210526324,-0.052234912092915614,0.18716442732159508,-0.12466501338139374, ,1.264178991317749
0.013790418496238698,0.02139156825522174,-0.08751668457959638, ,0.01465533506563075,0.02094061058572215,-0.08817072645709079, ,0.0011743995355950297, ,0.01704312973035365,0.0020123889406193506,-0.03168042511039005,0.03559523273040746,0.05019266711605637,-0.045236214096468295, ,0.036030089028880066, ,0.06153285718445974, ,0.0006105678086109428, ,0.23141941330901167,-0.2209087738671921,0.10046247500000001,1.7945265363405596,0.8472829350454961,-1.159411674267774, ,0.11615292724415029,0.06473188373701963,0.03462785113043479,0.027020894790031506,0.16685298008062707,-0.08052868919870484, ,1.2673101425170898
0.013790418496238698,0.02139156825522174,-0.08751668457959638, ,0.01469931615523411,0.020937119329279382,-0.08824153821557469, ,0.0012482113500559425, ,0.01704312973035365,0.0020123889406193506,-0.03168042511039005,0.03559523273040746,0.05019266711605637,-0.045236214096468295, ,0.036030089028880066, ,0.06153285718445974, ,0.0006159261576987159, ,0.23141941330901167,-0.2209087738671921,0.10046247500000001,1.7945265363405596,0.8472829350454961,-1.159411674267774, ,0.11615292724415029,0.06473188373701963,0.03462785113043479,0.027020894790031506,0.16685298008062707,-0.08052868919870484, ,1.2695701122283936
0.013790418496238698,0.02139156825522174,-0.08751668457959638, ,0.014743287599367827,0.02093351097654564,-0.08831238447399507, ,0.0013232211909549943, ,0.01704312973035365,0.0020123889406193506,-0.03168042511039005,0.03559523273040746,0.05019266711605637,-0.045236214096468295, ,0.036030089028880066, ,0.06153285718445974, ,0.0006218202829758516, ,0.23141941330901167,-0.2209087738671921,0.10046247500000001,1.7945265363405596,0.8472829350454961,-1.159411674267774, ,0.11615292724415029,0.06473188373701963,0.03462785113043479,0.027020894790031506,0.16685298008062707,-0.08052868919870484, ,1.2718250751495361
0.013790418496238698,0.02139156825522174,-0.08751668457959638, ,0.014787249205765404,0.02092978686032017,-0.08838326496722804, ,0.0013992408971869644, ,0.01704312973035365,0.0020123889406193506,-0.03168042511039005,0.03559523273040746,0.05019266711605637,-0.045236214096468295, ,0.036030089028880066, ,0.06153285718445974, ,0.0006282452467296623, ,0.23141941330901167,-0.2209087738671921,0.10046247500000001,1.7945265363405596,0.8472829350454961,-1.159411674267774, ,0.11615292724415029,0.06473188373701963,0.03462785113043479,0.027020894790031506,0.16685298008062707,-0.08052868919870484, ,1.2740089893341064
0.013979187475178081,0.021406671785894105,-0.08785055071151912, ,0.014831200783457938,0.020925948309256707,-0.08845417942956771, ,0.001149517014980342, ,0.01809020330082439,0.0007161971679221325,-0.03103999455268866,-0.0020048773275009382,0.005160023485484126,0.00803304859711033, ,0.035933962426643665, ,0.0055332233970703925, ,0.0006325179661415531, ,0.23273227789762982,-0.22016739151126655,0.10082673249000002,1.794736226284044,0.8489225730426815,-1.1601769379311473, ,0.12772132107465783,0.07277372818901133,0.03374748203389831,-0.026380627631244703,0.14433788241943035,-0.06304895628107829, ,1.2762730121612549
0.013979187475178081,0.021406671785894105,-0.08785055071151912, ,0.014875142142772033,0.020921996647869427,-0.08852512759472833, ,0.001221760503193192, ,0.01809020330082439,0.0007161971679221325,-0.03103999455268866,-0.0020048773275009382,0.005160023485484126,0.00803304859711033, ,0.035933962426643665, ,0.0055332233970703925, ,0.0006373085558736804, ,0.23273227789762982,-0.22016739151126655,0.10082673249000002,1.794736226284044,0.8489225730426815,-1.1601769379311473, ,0.12772132107465783,0.07277372818901133,0.03374748203389831,-0.026380627631244703,0.14433788241943035,-0.06304895628107829, ,1.2784929275512695
0.013979187475178081,0.021406671785894105,-0.08785055071151912, ,0.014919073095326927,0.020917933196536502,-0.0885961091958471, ,0.0012954180179553104, ,0.01809020330082439,0.0007161971679221325,-0.03103999455268866,-0.0020048773275009382,0.005160023485484126,0.00803304859711033, ,0.035933962426643665, ,0.0055332233970703925, ,0.0006426158902453064, ,0.23273227789762982,-0.22016739151126655,0.10082673249000002,1.794736226284044,0.8489225730426815,-1.1601769379311473, ,0.12772132107465783,0.07277372818901133,0.03374748203389831,-0.026380627631244703,0.14433788241943035,-0.06304895628107829, ,1.2808520793914795
0.013979187475178081,0.021406671785894105,-0.08785055071151912, ,0.014962993454032627,0.02091375927150679,-0.08866712396548684, ,0.001370265970519961, ,0.01809020330082439,0.0007161971679221325,-0.03103999455268866,-0.0020048773275009382,0.005160023485484126,0.00803304859711033, ,0.035933962426643665, ,0.0055332233970703925, ,0.0006484370908875037, ,0.23273227789762982,-0.22016739151126655,0.10082673249000002,1.794736226284044,0.8489225730426815,-1.1601769379311473, ,0.12772132107465783,0.07277372818901133,0.03374748203389831,-0.026380627631244703,0.14433788241943035,-0.06304895628107829, ,1.283297061920166
0.014126567443228256,0.021409690454854958,-0.08809815695368753, ,0.015006903033087179,0.020909476184902867,-0.0887381716356379, ,0.0011978413332941842, ,0.018211537886039037,0.00015350045511057877,-0.02964668211158089,0.014977256143342506,0.01537309140319789,0.014524113345684677, ,0.034793813168284456, ,0.021462228181188082, ,0.0006527974420177155, ,0.23379029230139858,-0.21957274107995126,0.10109636081000001,1.794316846397075,0.8501523015405705,-1.1608529841038528, ,0.133469678703897,0.07419620137487942,0.032441571323828924,-0.0430277316120717,0.16434124763325958,-0.08656733680496495, ,1.2857439517974854
0.014126567443228256,0.021409690454854958,-0.08809815695368753, ,0.015050801647974638,0.020905085244727895,-0.08880925193772166, ,0.001270626365077103, ,0.018211537886039037,0.00015350045511057877,-0.02964668211158089,0.014977256143342506,0.01537309140319789,0.014524113345684677, ,0.034793813168284456, ,0.021462228181188082, ,0.0006576622366874745, ,0.23379029230139858,-0.21957274107995126,0.10109636081000001,1.794316846397075,0.8501523015405705,-1.1608529841038528, ,0.133469678703897,0.07419620137487942,0.032441571323828924,-0.0430277316120717,0.16434124763325958,-0.08656733680496495, ,1.2897839546203613
0.014126567443228256,0.021409690454854958,-0.08809815695368753, ,0.015094689115462358,0.020900587754868888,-0.08888036460259222, ,0.0013447282020495662, ,0.018211537886039037,0.00015350045511057877,-0.02964668211158089,0.014977256143342506,0.01537309140319789,0.014524113345684677, ,0.034793813168284456, ,0.021462228181188082, ,0.0006630299395418657, ,0.23379029230139858,-0.21957274107995126,0.10109636081000001,1.794316846397075,0.8501523015405705,-1.1608529841038528, ,0.133469678703897,0.07419620137487942,0.032441571323828924,-0.0430277316120717,0.16434124763325958,-0.08656733680496495, ,1.2921440601348877
0.014126567443228256,0.021409690454854958,-0.0884254089500074, ,0.015138565253598925,0.020895985015102918,-0.08895150936053957, ,0.0014199447796678696, ,0.018211537886039037,0.00015350045511057877,-0.02964668211158089,0.014977256143342506,0.01537309140319789,0.014524113345684677, ,0.034793813168284456, ,0.021462228181188082, ,0.0006688974964420673, ,0.23537345254061462,-0.21865373586791853,0.10145284056000001,1.793268396679652,0.8519285760375213,-1.161811344411063, ,0.1375317993601026,0.08295187199167026,0.029120313564899455,-0.10511547006795346,0.11458827537794038,-0.031463833605395265, ,1.2949919700622559
0.014337577697909436,0.021398074653484648,-0.0884254089500074, ,0.015182429881711649,0.020891278321101114,-0.08902268594129155, ,0.0011521100378480398, ,0.018248152832257936,-0.0018011181013449177,-0.02696177125199723,-0.06038904619918746,-0.050556889591768274,0.09118131941064504, ,0.032606383075242495, ,0.07875799475881301, ,0.000672614515991344, ,0.23537345254061462,-0.21865373586791853,0.10145284056000001,1.793268396679652,0.8519285760375213,-1.161811344411063, ,0.1375317993601026,0.08295187199167026,0.029120313564899455,-0.10511547006795346,0.11458827537794038,-0.031463833605395265, ,1.2972869873046875
0.014337577697909436,0.021398074653484648,-0.0884254089500074, ,0.01522628282040412,0.020886468964434322,-0.08909389407401695, ,0.0012240953953181154, ,0.018248152832257936,-0.0018011181013449177,-0.02696177125199723,-0.06038904619918746,-0.050556889591768274,0.09118131941064504, ,0.032606383075242495, ,0.07875799475881301, ,0.0006768242936961285, ,0.23537345254061462,-0.21865373586791853,0.10145284056000001,1.793268396679652,0.8519285760375213,-1.161811344411063, ,0.1375317993601026,0.08295187199167026,0.029120313564899455,-0.10511547006795346,0.11458827537794038,-0.031463833605395265, ,1.2995240688323975
0.014337577697909436,0.021398074653484648,-0.0884254089500074, ,0.015270123891554178,0.02088155823257788,-0.08916513348732803, ,0.0012975453778045125, ,0.018248152832257936,-0.0018011181013449177,-0.02696177125199723,-0.06038904619918746,-0.050556889591768274,0.09118131941064504, ,0.032606383075242495, ,0.07875799475881301, ,0.0006815267261514951, ,0.23537345254061462,-0.21865373586791853,0.10145284056000001,1.793268396679652,0.8519285760375213,-1.161811344411063, ,0.1375317993601026,0.08295187199167026,0.029120313564899455,-0.10511547006795346,0.11458827537794038,-0.031463833605395265, ,1.301727056503296
0.014337577697909436,0.021398074653484648,-0.0884254089500074, ,0.015313952918311016,0.020876547408916125,-0.08923640390928227, ,0.0013722288664106683, ,0.018248152832257936,-0.0018011181013449177,-0.02696177125199723,-0.06038904619918746,-0.050556889591768274,0.09118131941064504, ,0.032606383075242495, ,0.07875799475881301, ,0.0006867199753263761, ,0.23537345254061462,-0.21865373586791853,0.10145284056000001,1.793268396679652,0.8519285760375213,-1.161811344411063, ,0.1375317993601026,0.08295187199167026,0.029120313564899455,-0.10511547006795346,0.11458827537794038,-0.031463833605395265, ,1.3039219379425049
0.01453088470510551,0.021380781177093522,-0.08869827351097886, ,0.015357769725093373,0.020871437772747834,-0.08930770506738626, ,0.0011465497641951394, ,0.019339277318160524,-0.0023130469200481354,-0.026583512130055373,-0.06875451513506985,-0.08810804225094993,0.021279864123480135, ,0.032955135417896, ,0.11175955075482559, ,0.0006901515409149489, ,0.2368176035880946,-0.21776562158738272,0.10174709839000001,1.7930587067361679,0.8527483950361139,-1.1621531368726792, ,0.14532456593946522,0.09151103332542987,0.028546257204301078,-0.040606527359361065,0.06878955853436264,-0.022601774518770525, ,1.3061449527740479
0.01453088470510551,0.021380781177093522,-0.08869827351097886, ,0.015401574137586827,0.020866230599291186,-0.0893790366885971, ,0.0012191394050526955, ,0.019339277318160524,-0.0023130469200481354,-0.026583512130055373,-0.06875451513506985,-0.08810804225094993,0.021279864123480135, ,0.032955135417896, ,0.11175955075482559, ,0.0006940699695381914, ,0.2368176035880946,-0.21776562158738272,0.10174709839000001,1.7930587067361679,0.8527483950361139,-1.1621531368726792, ,0.14532456593946522,0.09151103332542987,0.028546257204301078,-0.040606527359361065,0.06878955853436264,-0.022601774518770525, ,1.3083789348602295
0.01453088470510551,0.021380781177093522,-0.08869827351097886, ,0.015445365982741485,0.020860927159688195,-0.0894503984993252, ,0.0012931419893631823, ,0.019339277318160524,-0.0023130469200481354,-0.026583512130055373,-0.06875451513506985,-0.08810804225094993,0.021279864123480135, ,0.032955135417896, ,0.11175955075482559, ,0.0006984749108604341, ,0.2368176035880946,-0.21776562158738272,0.10174709839000001,1.7930587067361679,0.8527483950361139,-1.1621531368726792, ,0.14532456593946522,0.09151103332542987,0.028546257204301078,-0.040606527359361065,0.06878955853436264,-0.022601774518770525, ,1.3106310367584229
0.01453088470510551,0.021380781177093522,-0.08869827351097886, ,0.015489145088769718,0.0208555287210103,-0.08952179022543737, ,0.0013683321543083969, ,0.019339277318160524,-0.0023130469200481354,-0.026583512130055373,-0.06875451513506985,-0.08810804225094993,0.021279864123480135, ,0.032955135417896, ,0.11175955075482559, ,0.0007033643797907112, ,0.2368176035880946,-0.21776562158738272,0.10174709839000001,1.7930587067361679,0.8527483950361139,-1.1621531368726792, ,0.14532456593946522,0.09151103332542987,0.028546257204301078,-0.040606527359361065,0.06878955853436264,-0.022601774518770525, ,1.3128809928894043
0.014727330715688665,0.02135958548918641,-0.08896762375037476, ,0.015532911285143752,0.020850036546263037,-0.08959321159225883, ,0.0011401580272186317, ,0.01977183348346357,-0.0022193610308807875,-0.027377930251177657,-0.0101892735777112,-0.05323010051863726,-0.022692565747040493, ,0.033843788610638026, ,0.05419639762577177, ,0.0007065295511488845, ,0.2383003682999457,-0.21683117090960155,0.10203876364000002,1.7930587067361679,0.8537048505344719,-1.1626880259781325, ,0.14897479051565274,0.09358672737521774,0.029662591284916204,-0.025268273143088067,0.10434648196920884,-0.08630913686913905, ,1.3154280185699463
0.014727330715688665,0.02135958548918641,-0.08896762375037476, ,0.015576664402593208,0.020844451894390718,-0.089664662324576, ,0.001213504473054176, ,0.01977183348346357,-0.0022193610308807875,-0.027377930251177657,-0.0101892735777112,-0.05323010051863726,-0.022692565747040493, ,0.033843788610638026, ,0.05419639762577177, ,0.0007101768527453254, ,0.2383003682999457,-0.21683117090960155,0.10203876364000002,1.7930587067361679,0.8537048505344719,-1.1626880259781325, ,0.14897479051565274,0.09358672737521774,0.029662591284916204,-0.025268273143088067,0.10434648196920884,-0.08630913686913905, ,1.3177521228790283
0.014727330715688665,0.02135958548918641,-0.08896762375037476, ,0.015620404273102902,0.020838776020281904,-0.08973614214663894, ,0.0012881938546855393, ,0.01977183348346357,-0.0022193610308807875,-0.027377930251177657,-0.0101892735777112,-0.05323010051863726,-0.022692565747040493, ,0.033843788610638026, ,0.05419639762577177, ,0.0007143055456163269, ,0.2383003682999457,-0.21683117090960155,0.10203876364000002,1.7930587067361679,0.8537048505344719,-1.1626880259781325, ,0.14897479051565274,0.09358672737521774,0.029662591284916204,-0.025268273143088067,0.10434648196920884,-0.08630913686913905, ,1.3200969696044922
0.014727330715688665,0.02135958548918641,-0.08896762375037476, ,0.01566413072991034,0.020833010174773865,-0.08980765078216374, ,0.0013640092530956697, ,0.01977183348346357,-0.0022193610308807875,-0.027377930251177657,-0.0101892735777112,-0.05323010051863726,-0.022692565747040493, ,0.033843788610638026, ,0.05419639762577177, ,0.0007189133733289464, ,0.2383003682999457,-0.21683117090960155,0.10203876364000002,1.7930587067361679,0.8537048505344719,-1.1626880259781325, ,0.14897479051565274,0.09358672737521774,0.029662591284916204,-0.025268273143088067,0.10434648196920884,-0.08630913686913905, ,1.3225281238555908
0.014727330715688665,0.02135958548918641,-0.08896762375037476, ,0.015707843607503453,0.020827155604657786,-0.08987918795433543, ,0.0014407763222987167, ,0.01977183348346357,-0.0022193610308807875,-0.027377930251177657,-0.0101892735777112,-0.05323010051863726,-0.022692565747040493, ,0.033843788610638026, ,0.05419639762577177, ,0.0007239969152230998, ,0.2383003682999457,-0.21683117090960155,0.10203876364000002,1.7930587067361679,0.8537048505344719,-1.1626880259781325, ,0.14897479051565274,0.09358672737521774,0.029662591284916204,-0.025268273143088067,0.10434648196920884,-0.08630913686913905, ,1.3248469829559326
0.014926620025522055,0.021331723092767513,-0.0892466966557935, ,0.015751542741618187,0.02082121355268391,-0.0899507533858106, ,0.0011986714967538682, ,0.020257006766519595,-0.002876002002711307,-0.02806587423483193,0.002544379552724183,-0.03164150823071971,-0.03027116748517912, ,0.03473198824173219, ,0.03174336933361397, ,0.0007273163178911471, ,0.2398063012104195,-0.21585038383457505,0.10234079921000001,1.7924296369057142,0.8549345790323609,-1.1636091083712596, ,0.15305958315882384,0.10203972210588257,0.030456618585086043,-0.02548673066996321,0.130822707273052,-0.10709392282291488, ,1.3273580074310303
0.014926620025522055,0.021331723092767513,-0.0892466966557935, ,0.015795227969236058,0.020815185257565757,-0.09002234679871925, ,0.0012739404378928833, ,0.020257006766519595,-0.002876002002711307,-0.02806587423483193,0.002544379552724183,-0.03164150823071971,-0.03027116748517912, ,0.03473198824173219, ,0.03174336933361397, ,0.0007311123187244925, ,0.2398063012104195,-0.21585038383457505,0.10234079921000001,1.7924296369057142,0.8549345790323609,-1.1636091083712596, ,0.15305958315882384,0.10203972210588257,0.030456618585086043,-0.02548673066996321,0.130822707273052,-0.10709392282291488, ,1.3296270370483398
0.014926620025522055,0.021331723092767513,-0.0892466966557935, ,0.015838899128582096,0.020809071953986243,-0.090093967914668, ,0.001350291065238964, ,0.020257006766519595,-0.002876002002711307,-0.02806587423483193,0.002544379552724183,-0.03164150823071971,-0.03027116748517912, ,0.03473198824173219, ,0.03174336933361397, ,0.0007353825169763165, ,0.2398063012104195,-0.21585038383457505,0.10234079921000001,1.7924296369057142,0.8549345790323609,-1.1636091083712596, ,0.15305958315882384,0.10203972210588257,0.030456618585086043,-0.02548673066996321,0.130822707273052,-0.10709392282291488, ,1.3320660591125488
0.014926620025522055,0.021331723092767513,-0.0892466966557935, ,0.015882556059121956,0.02080287487260126,-0.09016561645474243, ,0.0014275530593319667, ,0.020257006766519595,-0.002876002002711307,-0.02806587423483193,0.002544379552724183,-0.03164150823071971,-0.03027116748517912, ,0.03473198824173219, ,0.03174336933361397, ,0.0007401234111020401, ,0.2398063012104195,-0.21585038383457505,0.10234079921000001,1.7924296369057142,0.8549345790323609,-1.1636091083712596, ,0.15305958315882384,0.10203972210588257,0.030456618585086043,-0.02548673066996321,0.130822707273052,-0.10709392282291488, ,1.3344769477844238
0.015127681256258872,0.02129539440091479,-0.08952668183749202, ,0.015926198601560124,0.02079659524004574,-0.09023729213950972, ,0.0011795751586754935, ,0.020326957329822395,-0.0035125897285895116,-0.028264587743330852,-0.05069977096019457,-0.0868048683438173,0.05511728500497151, ,0.03499157614612782, ,0.10052628464520934, ,0.0007431128787726078, ,0.24131995685376748,-0.2148309830951774,0.10264153849,1.791171497244807,0.8560276710304844,-1.1645004516008308, ,0.1508695414284114,0.10225963530007626,0.030282911634980987,-0.10561640999866513,0.08920394317659107,-0.07301788468249795, ,1.3367321491241455
0.015127681256258872,0.02129539440091479,-0.08952668183749202, ,0.01596982659783708,0.02079023427893819,-0.09030899468902083, ,0.0012555512426199237, ,0.020326957329822395,-0.0035125897285895116,-0.028264587743330852,-0.05069977096019457,-0.0868048683438173,0.05511728500497151, ,0.03499157614612782, ,0.10052628464520934, ,0.0007465753001499546, ,0.24131995685376748,-0.2148309830951774,0.10264153849,1.791171497244807,0.8560276710304844,-1.1645004516008308, ,0.1508695414284114,0.10225963530007626,0.030282911634980987,-0.10561640999866513,0.08920394317659107,-0.07301788468249795, ,1.339034080505371
0.015127681256258872,0.02129539440091479,-0.08952668183749202, ,0.016013439891127274,0.020783793207885273,-0.09038072382281376, ,0.001332550881822326, ,0.020326957329822395,-0.0035125897285895116,-0.028264587743330852,-0.05069977096019457,-0.0868048683438173,0.05511728500497151, ,0.03499157614612782, ,0.10052628464520934, ,0.0007505080221746013, ,0.24131995685376748,-0.2148309830951774,0.10264153849,1.791171497244807,0.8560276710304844,-1.1645004516008308, ,0.1508695414284114,0.10225963530007626,0.030282911634980987,-0.10561640999866513,0.08920394317659107,-0.07301788468249795, ,1.3413140773773193
0.015127681256258872,0.02129539440091479,-0.08952668183749202, ,0.01605703832583664,0.020777273241487766,-0.09045247925991531, ,0.001410409502940831, ,0.020326957329822395,-0.0035125897285895116,-0.028264587743330852,-0.05069977096019457,-0.0868048683438173,0.05511728500497151, ,0.03499157614612782, ,0.10052628464520934, ,0.0007549073653797095, ,0.24131995685376748,-0.2148309830951774,0.10264153849,1.791171497244807,0.8560276710304844,-1.1645004516008308, ,0.1508695414284114,0.10225963530007626,0.030282911634980987,-0.10561640999866513,0.08920394317659107,-0.07301788468249795, ,1.3435430526733398
0.015338508196324641,0.02126312376823765,-0.08982385206300889, ,0.016100621747600033,0.02077067559034396,-0.09052426071884428, ,0.0011462523972134385, ,0.02133573139941325,-0.003231887123673609,-0.03142729219119928,-0.015822179236224802,-0.04141701075051571,-0.017743848266332286, ,0.038122607770181345, ,0.04433598400765572, ,0.0007574990543322507, ,0.24286450342861238,-0.21374207775991175,0.10296172212000002,1.7909618073013225,0.857120763028608,-1.1653917948304024, ,0.15330685227539706,0.11138138680571688,0.03381913273885351,-0.03969749633123776,0.12396539578014344,-0.10125489221075923, ,1.346269130706787
0.015338508196324641,0.02126312376823765,-0.08982385206300889, ,0.016144190003279206,0.020764001461056163,-0.09059606791761347, ,0.0012225234466816727, ,0.02133573139941325,-0.003231887123673609,-0.03142729219119928,-0.015822179236224802,-0.04141701075051571,-0.017743848266332286, ,0.038122607770181345, ,0.04433598400765572, ,0.0007605584253345495, ,0.24286450342861238,-0.21374207775991175,0.10296172212000002,1.7909618073013225,0.857120763028608,-1.1653917948304024, ,0.15330685227539706,0.11138138680571688,0.03381913273885351,-0.03969749633123776,0.12396539578014344,-0.10125489221075923, ,1.3485119342803955
0.015338508196324641,0.02126312376823765,-0.08982385206300889, ,0.01618774294096029,0.020757252056235017,-0.09066790057373243, ,0.0012998168059213141, ,0.02133573139941325,-0.003231887123673609,-0.03142729219119928,-0.015822179236224802,-0.04141701075051571,-0.017743848266332286, ,0.038122607770181345, ,0.04433598400765572, ,0.000764082989913548, ,0.24286450342861238,-0.21374207775991175,0.10296172212000002,1.7909618073013225,0.857120763028608,-1.1653917948304024, ,0.15330685227539706,0.11138138680571688,0.03381913273885351,-0.03969749633123776,0.12396539578014344,-0.10125489221075923, ,1.350675106048584
0.015338508196324641,0.02126312376823765,-0.08982385206300889, ,0.0162312804099513,0.0207504285745039,-0.09073975840421036, ,0.0013779633568983636, ,0.02133573139941325,-0.003231887123673609,-0.03142729219119928,-0.015822179236224802,-0.04141701075051571,-0.017743848266332286, ,0.038122607770181345, ,0.04433598400765572, ,0.0007680692260628001, ,0.24286450342861238,-0.21374207775991175,0.10296172212000002,1.7909618073013225,0.857120763028608,-1.1653917948304024, ,0.15330685227539706,0.11138138680571688,0.03381913273885351,-0.03969749633123776,0.12396539578014344,-0.10125489221075923, ,1.3529181480407715
0.015561677025882105,0.021236284259691277,-0.09015981869482546, ,0.01627480226078002,0.020743532210504817,-0.09081164112555812, ,0.001084538917619782, ,0.021739388575350217,-0.0027788882646421634,-0.03316502193313987,-0.011969271729378185,-0.034403759920285465,-0.03262385456147724, ,0.0397522567339652, ,0.036425843005220095, ,0.000770110966008329, ,0.2444399409349542,-0.21260683602740074,0.10332468332000001,1.7909618073013225,0.8584871280262623,-1.166587652607507, ,0.15159255840011304,0.1111205404665934,0.03571482403587444,-0.02325261213583799,0.12587051207252506,-0.10053565401046657, ,1.3552050590515137
0.015561677025882105,0.021236284259691277,-0.09015981869482546, ,0.016318308345191497,0.020736564154902926,-0.09088354845379128, ,0.001160170634218202, ,0.021739388575350217,-0.0027788882646421634,-0.03316502193313987,-0.011969271729378185,-0.034403759920285465,-0.03262385456147724, ,0.0397522567339652, ,0.036425843005220095, ,0.0007726113484968539, ,0.2444399409349542,-0.21260683602740074,0.10332468332000001,1.7909618073013225,0.8584871280262623,-1.166587652607507, ,0.15159255840011304,0.1111205404665934,0.03571482403587444,-0.02325261213583799,0.12587051207252506,-0.10053565401046657, ,1.3590140342712402
0.015561677025882105,0.021236284259691277,-0.09015981869482546, ,0.01636179851614552,0.020729525594391063,-0.09095548010443189, ,0.0012369623368458226, ,0.021739388575350217,-0.0027788882646421634,-0.03316502193313987,-0.011969271729378185,-0.034403759920285465,-0.03262385456147724, ,0.0397522567339652, ,0.036425843005220095, ,0.0007755689981041721, ,0.2444399409349542,-0.21260683602740074,0.10332468332000001,1.7909618073013225,0.8584871280262623,-1.166587652607507, ,0.15159255840011304,0.1111205404665934,0.03571482403587444,-0.02325261213583799,0.12587051207252506,-0.10053565401046657, ,1.361886978149414
0.015561677025882105,0.021236284259691277,-0.09015981869482546, ,0.01640527262781469,0.020722417711695685,-0.09102743579251216, ,0.0013147135798139413, ,0.021739388575350217,-0.0027788882646421634,-0.03316502193313987,-0.011969271729378185,-0.034403759920285465,-0.03262385456147724, ,0.0397522567339652, ,0.036425843005220095, ,0.0007789813055833479, ,0.2444399409349542,-0.21260683602740074,0.10332468332000001,1.7909618073013225,0.8584871280262623,-1.166587652607507, ,0.15159255840011304,0.1111205404665934,0.03571482403587444,-0.02325261213583799,0.12587051207252506,-0.10053565401046657, ,1.36549711227417
0.015622016716821917,0.021226970202411773,-0.09025253714442355, ,0.016448730535581595,0.020715241685580733,-0.09109941523257613, ,0.0012893891225147164, ,0.02206014222316424,-0.0026075576525824906,-0.033377083987908916,-0.014895065466712099,-0.04084312687636954,-0.052471529473256534, ,0.04009337809855514, ,0.043473929719521, ,0.0007821914176395201, ,0.24486469124303653,-0.21229020397955756,0.10342449765000002,1.7907521173578382,0.8588970375255587,-1.1669219063185965, ,0.15305958315882384,0.11125081073677699,0.03595668514672686,0.0,0.11567413880004976,-0.09229424625160013, ,1.369621992111206
0.015622016716821917,0.021226970202411773,-0.09025253714442355, ,0.01649217209603668,0.020707998690853345,-0.09117141813868214, ,0.0013677880301403735, ,0.02206014222316424,-0.0026075576525824906,-0.033377083987908916,-0.014895065466712099,-0.04084312687636954,-0.052471529473256534, ,0.04009337809855514, ,0.043473929719521, ,0.0007858513964676504, ,0.24486469124303653,-0.21229020397955756,0.10342449765000002,1.7907521173578382,0.8588970375255587,-1.1669219063185965, ,0.15305958315882384,0.11125081073677699,0.03595668514672686,0.0,0.11567413880004976,-0.09229424625160013, ,1.3719141483306885
0.015622016716821917,0.021226970202411773,-0.09025253714442355, ,0.01653559716697585,0.02070068989836852,-0.09124344422440629, ,0.001446892200022947, ,0.02206014222316424,-0.0026075576525824906,-0.033377083987908916,-0.014895065466712099,-0.04084312687636954,-0.052471529473256534, ,0.04009337809855514, ,0.043473929719521, ,0.0007899572399679939, ,0.24486469124303653,-0.21229020397955756,0.10342449765000002,1.7907521173578382,0.8588970375255587,-1.1669219063185965, ,0.15305958315882384,0.11125081073677699,0.03595668514672686,0.0,0.11567413880004976,-0.09229424625160013, ,1.3742001056671143
0.015978852283442854,0.021162016389555963,-0.09078889506605639, ,0.0165790056073982,0.020693316475034258,-0.09131549320284417, ,0.0009258343371228254, ,0.02045769073568873,-0.004497072589892511,-0.030148060756555323,-0.09558077165649724,-0.11502529426261962,0.10178281723341606, ,0.03671030290663369, ,0.14955426214274006, ,0.0007907959874812953, ,0.24733596576278838,-0.21042902535686944,0.10399486525000001,1.7886552179229929,0.860263402523213,-1.1680360853555607, ,0.14163722620667282,0.11047373871766097,0.031857623040000005,-0.14936607274907332,0.05954225623304391,-0.0468753943951672, ,1.376495122909546
0.015978852283442854,0.021162016389555963,-0.09078889506605639, ,0.016622397277503274,0.020685879583815868,-0.09138756478661343, ,0.0009996308576031715, ,0.02045769073568873,-0.004497072589892511,-0.030148060756555323,-0.09558077165649724,-0.11502529426261962,0.10178281723341606, ,0.03671030290663369, ,0.14955426214274006, ,0.0007920771830035155, ,0.24733596576278838,-0.21042902535686944,0.10399486525000001,1.7886552179229929,0.860263402523213,-1.1680360853555607, ,0.14163722620667282,0.11047373871766097,0.031857623040000005,-0.14936607274907332,0.05954225623304391,-0.0468753943951672, ,1.378843069076538
