NicholasDascanio/dvrk_moveit_final/test/execution/third_experiment_notsharpbends/thirdexp_500vel4.0/thirdexp_500vel4.0_24.csv
Current Position (x),Current Position (y),Current Position (z), ,Planned Position (x),Planned Position (y),Planned Position (z), ,Position Error,,Cartesian linear Velocity(x),Cartesian linear Velocity(y),Cartesian linear Velocity(z),Cartesian Angular Velocity(x),Cartesian Angular Velocity(y),Cartesian Angular Velocity(z), ,Total Linear Velocity, ,Total Angular Velocity, ,MSE, ,Joint 1 Position,Joint 2 Position,Joint 3 Position,Joint 4 Position,Joint 5 Position,Joint 6 Position, ,Joint 1 Velocity,Joint 2 Velocity,Joint 3 Velocity,Joint 4 Velocity,Joint 5 Velocity,Joint 6 Velocity, ,Time Stamp
0.008337798128434909,0.020521861209476876,-0.07476050697992985, ,0.008512052291405173,0.020453390198304024,-0.07502166057734524, ,0.0003213315952820426, ,0.00024383410251863918,0.0002721467516888711,-0.001052291141263503,0.0695565276975672,0.0018685337984699307,-0.05350888731145466, ,0.0011139279913834287, ,0.06958162087719118, ,2.6777632940170214e-05, ,0.19688335189547965,-0.24724329296829767,0.08706013269000001,1.8075273128366,0.8166763590980376,-1.1160763473081492, ,0.0004174291880296117,0.0001024193409253681,0.0011106618299464859,0.001280350745519856,0.0,-0.08691670457925316, ,0.022304058074951172
0.008354687231211397,0.02053147673018303,-0.07482150982367958, ,0.008589781489574795,0.02045069086447124,-0.07526193539028157, ,0.0005057374280502958, ,0.0014448465107117958,0.0013474777090051334,-0.006326002795568462,0.30134183963859823,0.005966222154565069,-0.22946935132635932, ,0.00662733649253769, ,0.30140089600636794, ,3.759404651510629e-05, ,0.196929688292725,-0.24715062017380698,0.08712235461000001,1.8077370027800843,0.8165397225982721,-1.1208656538128865, ,0.0024051703389483055,0.0034898717845819518,0.006598513471416737,-0.0008071230854780405,0.0,-0.3817631017886427, ,0.045229196548461914
0.008410411759667212,0.02055959785994126,-0.07501721804814707, ,0.008667417043914376,0.020447991351891265,-0.07550127636383006, ,0.0005593033003227598, ,0.003976845560272461,0.0021160163456715,-0.013061248676287267,0.038858038297461164,-0.18076434658068893,-0.08502413321769765, ,0.013816260086189159, ,0.1848937417949779, ,4.332413511422182e-05, ,0.19699919288859302,-0.2469729973176998,0.08731161295,1.8068982430061464,0.8144901751017904,-1.1267088293503718, ,0.0039817674387146946,0.00990140736712011,0.012454113776387804,-0.035333306764012994,-0.18095209556025724,-0.11045096070035632, ,0.06824302673339844
0.008508278440210036,0.02061481293661296,-0.07538672019459013, ,0.008744958550622925,0.020445291764732247,-0.07573968531978796, ,0.0004575360991078089, ,0.002721992547153107,0.0005877416913628666,-0.009892585279946409,0.3812509899885444,-0.02786809223420779,-0.29036610394322027, ,0.010277058297175097, ,0.3822681622072077, ,4.3902581494354933e-05, ,0.19718453847757442,-0.2465173560781206,0.08768235189000001,1.8066885530626617,0.8128505371046052,-1.134683190882039, ,0.008309029742149896,0.02149908055244014,0.00982047565967941,-0.030231864326714663,-0.024620623089187756,-0.5150084174317334, ,0.09144902229309082
0.008588448944255752,0.020622981423504546,-0.07561480090716653, ,0.00882240560805963,0.020442592207136307,-0.07597716407854288, ,0.00046752867066107614, ,0.0033358358555229664,0.00018151529836870684,-0.010882814402159017,-0.23466322610449009,-0.0783642177102346,0.17644529372926568, ,0.011384041372481666, ,0.2474020617344383, ,4.4450713335076605e-05, ,0.1974007749980527,-0.2460231011741702,0.08789364716,1.8056401033452392,0.8097078976100001,-1.1330190452385676, ,0.012175967266283184,0.02688298627718719,0.010583927920265782,-0.059054887189955066,-0.04978507674432849,0.2341048669696726, ,0.11976218223571777
0.008626195072095706,0.020617331491801102,-0.07579769766565957, ,0.008899757816740515,0.020439892783218807,-0.07621371445907262, ,0.0005285745387006729, ,0.0013305761753040941,-0.0007989160757332495,-0.0073819731824033355,-0.151954133953055,0.12885865838874713,0.13032922368301864, ,0.007543356542022518, ,0.19923506881382533, ,4.5806639227817036e-05, ,0.19763245698427942,-0.2453666688798611,0.08808809066,1.80522072345827,0.8123039911055435,-1.1289284011581167, ,0.00968287628648561,0.036512867086752894,0.007940584007976072,0.01226655173928118,0.14777540555993232,0.18118905263852297, ,0.14236116409301758
0.008705989977240917,0.02058740409992195,-0.07606325426481228, ,0.008977014779335261,0.020437193597068505,-0.07644933827894665, ,0.0004950540419872062, ,0.0033611412727834675,-0.0008411584903645086,-0.010466627810915528,0.015488726535653728,-0.026571059000296132,0.026290288274078255, ,0.011025203671304724, ,0.030755840103640145, ,4.632035658488698e-05, ,0.19811126642248134,-0.24420053621585322,0.08835383011,1.8043819636843321,0.8138069926029633,-1.1293372106973716, ,0.018758043399579122,0.0368102954066993,0.010296581460892051,-0.08332424700580014,0.011203713012026013,-0.08169161751307231, ,0.16521000862121582
0.00877833222452854,0.020580236695477094,-0.07629297245898149, ,0.009054176100663877,0.02043449475274718,-0.07668403735432577, ,0.0005002622414721007, ,0.0037518886818263216,7.191822898672045e-05,-0.012033508869382838,-0.001629438249376796,-0.013493965044481915,-0.04213258620676634, ,0.012605045681075197, ,0.013591979594767472, ,4.677229165346296e-05, ,0.1984510666689472,-0.24345143112705345,0.08857290312,1.803962583797363,0.8139436291027288,-1.1315722758447229, ,0.016825698857884888,0.037597837384497144,0.011913845564697085,0.010249888642243597,0.0,-0.04169945860614332, ,0.18729019165039062
0.008857468714314426,0.02058367705505023,-0.07654809991465077, ,0.009131241387693388,0.02043179635428883,-0.07691781349996282, ,0.00048446605569134896, ,0.0038118854990249755,0.00015720869549612645,-0.011860012649020316,-0.03338685055537432,-0.01924030551993517,-0.003920877149828896, ,0.012458534651657006, ,0.038534022783178704, ,4.695428229647079e-05, ,0.19882175784691,-0.24266371237388254,0.08883734628,1.803962583797363,0.8139436291027288,-1.1323890632461284, ,0.018242395532193537,0.03479902514062001,0.011887172776119406,-0.004319833306506994,0.0,-0.001939165589206934, ,0.21181511878967285
0.008930792369510377,0.020574240006527703,-0.07676372640060808, ,0.00920821024953473,0.02042909850569989,-0.07715066852920432, ,0.0004977458651785559, ,0.003226901443740888,-0.0009771303765218776,-0.00883073485457205,-0.039243453635832315,-0.0325282031677172,0.04130002655463144, ,0.00945248934260666, ,0.05097188049196124, ,4.723078271033205e-05, ,0.19920789449062123,-0.24194549821657965,0.08904993784000001,1.803123824023425,0.8138069926029633,-1.132441002822713, ,0.01947003314699852,0.0350173216082918,0.008614825051379124,-0.055110076795826475,0.0,-0.007067492510467381, ,0.23412203788757324
0.008988377378325047,0.02056137167020449,-0.07692118214168107, ,0.009285082297439457,0.020426401310959238,-0.07738260425398899, ,0.0005649435127764369, ,0.0028915655388511313,-0.000495864512106127,-0.008472899502786384,0.008490810768681465,0.012339842273925337,-0.011643252238298494, ,0.008966440702093303, ,0.014978836109231456, ,4.8490840984056806e-05, ,0.199578585668584,-0.2412890659222706,0.08920808522000001,1.803123824023425,0.8143535386020251,-1.1329683531776396, ,0.017905083312919012,0.03184461126123181,0.008568483873050026,-0.012693607798927697,0.0342511305931259,-0.044875474620106034, ,0.2544209957122803
0.009055901365315519,0.02055683768940325,-0.07713391544143797, ,0.009361857144796435,0.020423704874016332,-0.07761362248485001, ,0.0005843390565671186, ,0.0036196381353153016,0.0001782241033142115,-0.012296995068288791,-0.015680421618753645,-0.016831249899380243,0.057279791546816186, ,0.012819892034301608, ,0.023003615240444752, ,4.972352004831187e-05, ,0.19994155411367256,-0.24065580182658416,0.08942197307000001,1.8020753743060025,0.8147634481013214,-1.1335476431091502, ,0.017431473467757305,0.029434535222850736,0.012424969984399377,-0.08009199587129746,0.02014607895149583,-0.03118592586231752, ,0.2740139961242676
0.009118069365436798,0.0205664116957636,-0.07733039375384608, ,0.00943853440712877,0.020421009298792817,-0.07784372503091362, ,0.0006223734409558934, ,0.004282902719693753,0.0010984294413465146,-0.013014917105044087,-5.40262336391924e-06,-0.011877220336429099,-0.053084559795184935, ,0.01374546725997869, ,0.011877205844822788, ,5.1079037571731144e-05, ,0.2002427406957673,-0.2402001605870049,0.08962160173000001,1.8016559944190333,0.8149000846010869,-1.1341491334536902, ,0.020101025536638593,0.02923504052941182,0.01330727779448622,0.0321398315998984,0.0,-0.02796072160944552, ,0.29812097549438477
0.00923042561345675,0.02058486036943417,-0.07769091012592903, ,0.009515113702090565,0.020418314689180882,-0.07807291369990153, ,0.0005046895104405968, ,0.0034601247207772536,-0.00011389947310157445,-0.009779513704073286,-0.034458492604331786,-0.032221001679685016,0.03416680268272835, ,0.010374214402134934, ,0.04717605931353134, ,5.140496635647764e-05, ,0.20082194566133416,-0.23935838270371446,0.08999234067,1.8010269245885797,0.8158565400994449,-1.1359908824013925, ,0.01908627143171174,0.027658683054057352,0.00977227700613497,-0.04382472593042132,-0.002947161682920625,-0.002069675507113712, ,0.3186461925506592
0.009302201694009464,0.020585297165807,-0.07788355345603622, ,0.00959159464946373,0.02041562114904369,-0.0783011902981294, ,0.0005356853229320234, ,0.003418632544621713,7.155281451166201e-06,-0.009361647583323866,-0.02907445799869991,-0.02027401050245278,0.004763464297845537, ,0.00996632054208337, ,0.03544516240428786, ,5.1901841361400936e-05, ,0.20122352777079383,-0.23879462320389608,0.09018548788000001,1.800817234645095,0.8157199035996794,-1.136206179458258, ,0.019221580222497623,0.0276103990568725,0.00942533226035503,-0.010154647897781957,0.001434652806135304,0.0003782586701467604, ,0.33896613121032715
0.009368291723665585,0.02058385714507286,-0.07808018067353568, ,0.009667976871154756,0.02041292878221469,-0.07852855663050842, ,0.0005657461371023222, ,0.003445262700247618,9.08801088553529e-05,-0.011271828126506808,0.0014169097551342859,0.010426555009529295,0.038342115895682816, ,0.011786950563288753, ,0.010522380940769484, ,5.2534082161719616e-05, ,0.20161738714737928,-0.2382385864369519,0.09038641283000001,1.7999784748711571,0.8164030860985066,-1.1368449477168807, ,0.018888722443963134,0.028774087798202178,0.011559369753265604,-0.05950754165468317,0.04490728197872812,-0.041440644611021635, ,0.3589630126953125
0.009417851183501505,0.02059060592548126,-0.07824018562386037, ,0.00974425999119164,0.020410237692497397,-0.07875501450054463, ,0.0006357076226343328, ,0.0037644346655699916,0.0005397558867598726,-0.01255934587736392,-0.008203465074455784,-0.0006642814672489425,0.03446338779224943, ,0.01312247970605766, ,0.00823029747981688, ,5.352136024159147e-05, ,0.20185679186648023,-0.23786789525898913,0.09054974537,1.799559094984188,0.8166763590980376,-1.1371494622644143, ,0.01825994642264206,0.027538288322249208,0.012866568271405495,-0.05150698135078786,0.030770073223877183,-0.02914342138041657, ,0.38018202781677246
0.009519673297500832,0.020598681799424323,-0.07854056261492351, ,0.009820443635720688,0.020407547983665217,-0.07898056571034029, ,0.0005662134366613618, ,0.0037354008271579097,-0.00015995750564098314,-0.00968188393419324,-0.009107736979212579,-0.009003181687932484,-0.016592334917636578, ,0.010378712938429893, ,0.012806563485726683, ,5.400711423289628e-05, ,0.20238966043480172,-0.23705700830719556,0.09085566981000001,1.799559094984188,0.8170862685973339,-1.1378921096762062, ,0.022806282518257816,0.031226371029440866,0.00981442484288355,0.0,0.014070304863574816,-0.023672841033062168, ,0.4006071090698242
0.009629067882413075,0.020592076526581078,-0.07885275781299007, ,0.009896527433003333,0.020404859759460783,-0.07920521206059303, ,0.0004804255673320085, ,0.0034258776025003104,-0.00034569339528620925,-0.010123015295004178,-0.023014405161835966,-0.028343000598621406,0.02773430798847991, ,0.010692594630572427, ,0.036510113962881986, ,5.39763029718905e-05, ,0.20303064726336237,-0.23615344856091128,0.09117196457000001,1.7980912653797962,0.8177694510961611,-1.1394293440763752, ,0.0175086608041459,0.030318511680022617,0.010075149601518027,-0.04809795551635533,0.0,-0.020065991367892076, ,0.4256551265716553
0.00969782015302216,0.020589097320611514,-0.07905400759972223, ,0.009972511013413038,0.020402173123596528,-0.07942895535059688, ,0.0005009805785636205, ,0.0035096303109536475,-0.00019264054095742637,-0.01023009662644755,0.00854569001672363,-0.008505477954656834,-0.026294310751600092, ,0.010817092598477582, ,0.012057025381597412, ,5.405543761676866e-05, ,0.20337817024270247,-0.23552018446522488,0.09137418581000001,1.7980912653797962,0.8179060875959265,-1.1398674769406338, ,0.018231881183183626,0.032124895585128904,0.010296581460892051,-0.006860654707049816,0.010895721925963954,-0.04912910717194606, ,0.4475100040435791
0.009774867820115378,0.020582489028069386,-0.07926951058279982, ,0.010048394009432166,0.020399488179753147,-0.07965179737824213, ,0.0005044294605751858, ,0.0034307394470393,-0.00025577994344152773,-0.009608101533519695,0.041930265550128805,0.01091906844449126,-0.04261070462397702, ,0.010205440294831085, ,0.04332866421801971, ,5.4415367414973845e-05, ,0.20381836601653325,-0.23483286123941888,0.09159196253000002,1.797671885492827,0.8183159970952228,-1.1408551605728474, ,0.020364150549028064,0.03135016239130188,0.009808381477832513,-0.005766051098263774,0.03260788036207999,-0.08477169166552023, ,0.4670751094818115
0.009814821136370229,0.02057656502291924,-0.07937769602312024, ,0.010124176055648793,0.02039680503158044,-0.07987373994001556, ,0.0006116156375182283, ,0.0035847194201853515,-0.000254712874505463,-0.010570154461018565,-0.0013844445900105446,-0.00417671185806885,0.005975700223126658, ,0.011164374469699747, ,0.004400167817137285, ,5.5262928464004797e-05, ,0.20402687980413733,-0.23450078372582725,0.09169177686,1.7972525056058584,0.8183159970952228,-1.1411001967932692, ,0.019766078225051192,0.03215755389985455,0.010583927920265782,-0.031468332269645634,0.023478170836051887,-0.04131786780550558, ,0.4852721691131592
0.009929568319957338,0.020588182090148534,-0.07973699263941665, ,0.010199856788753653,0.0203941237826961,-0.08009478483100084, ,0.0004885997701740936, ,0.0038293002332467916,0.0006482402321396953,-0.012309171160405426,0.03199028590566342,0.017348662983867176,-0.019913999080416373, ,0.012907340947347178, ,0.036391677854588925, ,5.547818930873653e-05, ,0.20460608476970416,-0.23358950124666875,0.09206770096000001,1.7968331257188892,0.8191358160938155,-1.1425038128767129, ,0.018975593193055543,0.027363593298290304,0.012743049216000004,-0.016239370580307118,0.040819718320597824,-0.06835908248704411, ,0.5070321559906006
0.009970315531134767,0.02059182589651678,-0.07985866476364657, ,0.01027543584753704,0.02039144453668636,-0.08031493384487798, ,0.0005843223180203389, ,0.0038773965786855127,0.00023875985871161208,-0.011915499370211914,0.016986476563173238,0.0030823731182359915,-0.02438363723233798, ,0.012532770473444994, ,0.01726386891394172, ,5.61054071817296e-05, ,0.20479915309155977,-0.23329603739744822,0.09219084851,1.796623435775405,0.8191358160938155,-1.142667170356994, ,0.01914402694340746,0.03129846357469353,0.012168687181054242,-0.009411787095810956,0.024539271309242636,-0.05631152254470087, ,0.5250170230865479
0.010041578298446395,0.020586985344673032,-0.08007599570933006, ,0.010350912872885636,0.020388767397105066,-0.0805341887739245, ,0.000587298150962528, ,0.0033434434694131344,-0.0003613500745115385,-0.009568170687415013,-0.006736892868643713,-0.012327432708648865,0.03532255254015109, ,0.010141946480484835, ,0.01404817577179866, ,5.6702195515818786e-05, ,0.20517756700239678,-0.23268594150038446,0.09241121781000002,1.7955749860579822,0.8196823620928773,-1.143439556932342, ,0.019113180575724222,0.027522314837143496,0.009671409544626596,-0.059228250045101,0.020787545619515325,-0.03530827283153824, ,0.5434870719909668
0.010114695230877586,0.020587076636385433,-0.08028053751365019, ,0.010426287507779405,0.02038609246747317,-0.08075255140901487, ,0.0006002345379895685, ,0.003988361018035907,0.0003933093588373713,-0.012373280960424045,0.009876604833745186,0.003293734531377465,-0.017463206560787824, ,0.013006144608896583, ,0.01041132653351794, ,5.7313099573581366e-05, ,0.20557914911185646,-0.2320912910690692,0.09261992050000001,1.7955749860579822,0.8200922715921736,-1.1444272405645557, ,0.01916722713764306,0.030405940903066572,0.012672085536992842,-0.010212611677870041,0.025161065646762265,-0.04646872125922293, ,0.5611059665679932
0.010172288295577047,0.020592927353233537,-0.08046441010328381, ,0.010501559397288621,0.020383419851279415,-0.08097002353962086, ,0.0006387157417834415, ,0.004412521564927529,0.0005606843529563721,-0.013860031699477653,-0.01932484557287542,-0.02885154910957896,0.022388870056017186, ,0.01455627672913393, ,0.034725509801395396, ,5.8039756610657134e-05, ,0.20583399929670584,-0.2316819862267353,0.09280658626,1.7949459162275283,0.820228908091939,-1.1448653734288143, ,0.019194365201956064,0.02951693361072186,0.014046571005291006,-0.044081555968258496,0.0,-0.022821312587995735, ,0.579552173614502
0.010292509609581658,0.020607946091818007,-0.08084541788066006, ,0.010576728188570694,0.020380749651979228,-0.08118660695381158, ,0.00049880698326703, ,0.0043978272170162695,0.0008515487961756105,-0.013243595430420387,0.004126189624787577,0.021759370974850967,-0.03742196791504426, ,0.013980659480426844, ,0.022147127548124968, ,5.817447899496093e-05, ,0.20639775879652425,-0.23086337654206748,0.09319676955,1.7936877765666213,0.8209120905907662,-1.1464026078289833, ,0.022002536878847852,0.030279815430271466,0.013767339256698359,0.026663740809796888,0.03907522445897321,-0.027097483965790127, ,0.598222017288208
0.010378276602131961,0.020609452776464626,-0.081076403863972, ,0.010651793530866965,0.020378081972994348,-0.08140230343825353, ,0.0004843082608421967, ,0.0037697030906926865,-0.0005634532740137813,-0.009203814324269186,-0.011300367623726503,-0.021559070345079902,-0.02202915302915095, ,0.009961844161579596, ,0.02434115355792688, ,5.8246116983152255e-05, ,0.2068534000361035,-0.23020694424775842,0.09343139804000002,1.7938974665101057,0.8210487270905317,-1.146840740693242, ,0.02207932563017003,0.03270053120553783,0.009207405502890174,0.0,0.0,-0.025756021980968574, ,0.6175491809844971
0.010412152054308371,0.020602967944916287,-0.08116244859509483, ,0.01072675507549993,0.020375416917713433,-0.0816171147782109, ,0.0005978928574529608, ,0.003597658099828827,-0.0005037709853328786,-0.008830821332864962,-0.013730506638214592,-0.006059181959665145,-0.009980349574533903, ,0.00954883942800957, ,0.015008012688511693, ,5.8731131400754254e-05, ,0.207077359289456,-0.22989803493278943,0.09351954576,1.7936877765666213,0.821458636589828,-1.1473383518846123, ,0.022224108093318682,0.030951383417635606,0.008948770516853935,-0.0023996308862464914,0.01722489650118282,-0.017544089984256585, ,0.6353120803833008
0.010483166306238849,0.02059023144723089,-0.08136899671539367, ,0.010801612475869929,0.020372754589491008,-0.08183104275754526, ,0.0006018228075381169, ,0.003867906017658031,-0.00048179231961808096,-0.011799848550267965,-0.020695936417967284,-0.0013355738648369096,0.050434348465917454, ,0.012426956449989642, ,0.020738980519878145, ,5.941466146431281e-05, ,0.2075175550632868,-0.22923387990560612,0.09373213732,1.7926393268491987,0.8226883650877169,-1.1484227917580208, ,0.02033796432886215,0.033952394117520844,0.01196755185574756,-0.06594269272234915,0.035237581996856095,-0.02462153399281907, ,0.6515281200408936
0.010485420849716924,0.02059073552525028,-0.08137663872622024, ,0.010876365387452104,0.020370095091647434,-0.08204408915871605, ,0.0008043692636869452, ,0.004509099391758807,0.00037261270633813894,-0.013212982751017106,-0.028442737177388856,-0.01380229742777589,-0.012370839884897915, ,0.013966163780092222, ,0.031614748294201994, ,6.0772936406399375e-05, ,0.20794230537136915,-0.22854655667980014,0.09398491387,1.7924296369057142,0.8228250015874824,-1.1485342096617173, ,0.02085188783969914,0.03304211057049818,0.013442035037974686,0.006164829623486373,0.005905153370811414,-0.0020497642949396004, ,0.6679651737213135
0.010617140621849111,0.02059220966891312,-0.0817618559247318, ,0.010951013467793456,0.020367438527468473,-0.08225625576278055, ,0.0006375141905463231, ,0.004794859551612017,4.206772363594816e-05,-0.013868421484201914,-0.010587557392002652,0.002635305982396599,-0.007289830419775586, ,0.01467397568065758, ,0.010910577259191395, ,6.149683959991995e-05, ,0.2081817100904701,-0.22816814276896313,0.09413269093000001,1.7924296369057142,0.8233715475865442,-1.1490615600166434, ,0.024622973938368133,0.03767246588267994,0.01418415985752449,-0.010149704976251435,0.030484268859456112,-0.028811439742868337, ,0.683650016784668
0.010711626012898622,0.020592373130994504,-0.08204779383050988, ,0.01102555637650972,0.020364785000205502,-0.08246754434939303, ,0.0005714360231694413, ,0.005020246014485628,0.0002328980780880517,-0.01471173567466749,-0.030149171187072683,-0.017431519588853108,0.048368108025972356, ,0.015546455484193818, ,0.03482570472057629, ,6.196670008648662e-05, ,0.20866824226154626,-0.22746537407740872,0.09442565247000001,1.791171497244807,0.8241913665851368,-1.1503018186198057, ,0.02529910465435105,0.033544341307342095,0.015027180679245284,-0.060583518649342,0.02234235377712125,-0.01385972224123857, ,0.7025811672210693
0.010808715969102226,0.02059490904339271,-0.08231647169268701, ,0.011099993775282282,0.02036213461307482,-0.08267795669680661, ,0.0005193246614462225, ,0.004386558908444023,-0.00014016317703011432,-0.012256999301546367,-0.006692444203918849,-0.009525449034278495,-0.031995312891027326, ,0.013019046687509533, ,0.011641422253465851, ,6.22453898612124e-05, ,0.20914705169974818,-0.2267703281187285,0.09469787337,1.7909618073013225,0.8241913665851368,-1.150465176100087, ,0.021665968392344925,0.036082487284589654,0.012415285674201094,0.008933202799357469,0.009981529248321516,-0.031252433265501714, ,0.7183501720428467
0.010853111228865068,0.020593093737297022,-0.08243959568280404, ,0.01117432532785507,0.02035948746925711,-0.08288749458187158, ,0.0005986349552468617, ,0.004477639525472941,-0.00019637398496164042,-0.012278859891069015,0.00016766500422309713,-0.01542278499624598,-0.03111596901933582, ,0.013071274562434631, ,0.01542368728529417, ,6.276423453069768e-05, ,0.2093787336859749,-0.2263919142078915,0.09482361350000001,1.791171497244807,0.8244646395846676,-1.1510964056081825, ,0.022524790305832133,0.03597306351723684,0.012415285674201094,0.0,0.006564654921496387,-0.04261589810208209, ,0.7340061664581299
0.010944508249263046,0.020581279202137325,-0.08270859101477558, ,0.011248550700031803,0.020356843671897933,-0.08309615978003615, ,0.0007288896010174981, ,0.004333994540933387,-0.0006445932606121966,-0.012153569113142474,-0.00039494059958385857,-0.009325224334642392,0.03875269440129231, ,0.01249464727518262, ,0.039993326683759683, ,6.366622817338495e-05, ,0.20989615678854795,-0.22561964092046904,0.09509972327,1.7897036676404154,0.8256943680825566,-1.1529976328829965, ,0.02409775052271985,0.03519916229913605,0.012328801486068113,-0.07370825336590234,0.03166294093688935,-0.0544088102038215, ,0.7510111331939697
0.010991508024865166,0.020578836343928767,-0.08283186751067619, ,0.011322669559672567,0.02035420332410703,-0.08330395406534623, ,0.0006188648243602616, ,0.004468699018487787,-4.398906776200079e-05,-0.01231344923391926,-0.00927115218151332,-0.00522692217968877,-0.01811395612106725, ,0.013099322043228919, ,0.0106430585440553, ,6.419428069517326e-05, ,0.21014328424052314,-0.22527211794112895,0.09522416711000001,1.7894939776969307,0.8256943680825566,-1.1531609903632778, ,0.022933045325875007,0.03417246725188001,0.0125621541955836,0.0,0.018033422058812514,-0.026309361792546226, ,0.7661690711975098
0.0110691708402889,0.02058135005154536,-0.08304693879232576, ,0.011396681576691051,0.02035156652895813,-0.08351087921044562, ,0.0006126209768498797, ,0.0048705183715416385,0.00017784439996662517,-0.013479969186281438,-0.017815100189439752,-0.02345643939551067,-0.016820731574617033, ,0.01433398573674542, ,0.02945474323073389, ,6.468162699960211e-05, ,0.21052169815136013,-0.22470063570843635,0.09544324012000001,1.7897036676404154,0.8258310045823221,-1.1535174444873957, ,0.02333913958644141,0.03419709605710659,0.013684545979381443,-0.0023493877800177284,0.0,-0.0200375367261518, ,0.7850701808929443
0.01113124416387038,0.020583208764267648,-0.0832306862052811, ,0.01147058642305139,0.020348933389488354,-0.08371693698657631, ,0.000637556226857098, ,0.0043740649478572775,0.0002998447534117225,-0.013256099848635504,0.005749180960788986,0.017347478361541883,0.017154797490127282, ,0.013962325531272234, ,0.018275329761432674, ,6.522193354305207e-05, ,0.21083833019920334,-0.22426816266747976,0.09563249846,1.7890745978099616,0.8263775505813838,-1.154208152322603, ,0.0221670034007173,0.02992650317201854,0.013743581984469372,-0.03800089768954954,0.04946710560139364,-0.0429747694053342, ,0.8006961345672607
0.011225430363437715,0.02058790345412145,-0.08350112829363451, ,0.011544383772765218,0.02034630400869868,-0.08392212916357727, ,0.0005808126219726888, ,0.004709403622959288,-9.380642297280168e-05,-0.012855817022148297,-0.048263684597825575,-0.03324051953903388,0.04032854346008288, ,0.013691578193761702, ,0.05860302926495045, ,6.576641923476005e-05, ,0.21131713963740525,-0.2236194531060449,0.09591120081000001,1.7886552179229929,0.827060733080211,-1.1549285993213663, ,0.023460306936581153,0.03216845476558331,0.01300311144489796,-0.043183592705644924,0.0,0.009927703848335696, ,0.8205001354217529
0.011310935840126709,0.020587876484530306,-0.08373401037106677, ,0.011618073301888486,0.020343678489553003,-0.08412645750988593, ,0.0005549602129303894, ,0.003437156637130742,-0.0001783342154156696,-0.010051255006446358,0.03578810582467891,0.04942201165145449,-0.003345081990360851, ,0.010624197665949782, ,0.061019043352102495, ,6.621941838030193e-05, ,0.21178822634273295,-0.2229861890103585,0.09615231075000001,1.7886552179229929,0.8278805520788037,-1.1558421429639667, ,0.020792493768288952,0.02791086516425611,0.010598011656686628,-0.024510796879041962,0.07796997436730031,-0.06865565914847811, ,0.8349020481109619
0.011344856135875304,0.02058221320382548,-0.08382662092627163, ,0.011691654688518719,0.020341056934978178,-0.08432992379253706, ,0.0006570687614785211, ,0.003747861801598681,-0.0005652266203171829,-0.009805722978556254,0.009953558062865948,0.01285512063226769,-0.010534992002580842, ,0.010512761404520881, ,0.016258147309108607, ,6.694095241140391e-05, ,0.211996740130337,-0.2227004478940122,0.09624823621,1.7882358380360237,0.8284270980778654,-1.1562878145787523, ,0.02201274450440055,0.03186599783696131,0.010068780986093553,-0.014771218198378634,0.03902857961694342,-0.046901108390419576, ,0.8486230373382568
0.011386860610953772,0.020575311189056072,-0.08394073998940234, ,0.011765127612791608,0.020338439447863597,-0.08453252977716327, ,0.0007412214914268693, ,0.004966739930872954,0.0001580889041763766,-0.013992860978982433,-0.02792440829394553,-0.026313928822231367,0.027892665212738373, ,0.014849028790452282, ,0.03836919196665859, ,6.786875508068928e-05, ,0.21243693590416782,-0.22206718379832577,0.09649453131,1.7869776983751167,0.8287003710773962,-1.1566740078664262, ,0.023742041921058485,0.03196259399072778,0.014247595277280862,-0.04301898276255258,0.0069440825659381165,-0.013721277081270302, ,0.8620569705963135
0.011482088086240402,0.020581688168729885,-0.08422472583504717, ,0.011838491756878447,0.02033582613106169,-0.08473427722799473, ,0.0006686660901118194, ,0.004763915671039987,0.0009894238541991473,-0.015080713130023349,0.05540704378339729,0.060539195317091773,-0.0478583146202136, ,0.01584619072818756, ,0.08206664298257682, ,6.857158723022605e-05, ,0.212684063356143,-0.22174282901760833,0.09665656756,1.786768008431632,0.8293835535762235,-1.1573944548651893, ,0.023061225166092537,0.03042543813993933,0.01594475627627628,0.0120566449233436,0.08305802782136758,-0.08592909066806652, ,0.8760290145874023
0.011531246564434836,0.02059016341258507,-0.08437703385477129, ,0.011911746804982698,0.020333217087385953,-0.08493516790785935, ,0.0007227139602268794, ,0.005273862104553868,0.0008276017503929889,-0.016062066163815208,-0.015824207847506523,0.010738899316498053,-0.01544905243057929, ,0.016925971629595752, ,0.019124027908856676, ,6.93950910314047e-05, ,0.2129002998766213,-0.22143391970263937,0.09681471494,1.786768008431632,0.8297934630755199,-1.1579737447967007, ,0.022888794394228362,0.03387966496196743,0.016609813889468198,0.009762332370458482,0.032768558262386296,-0.012324552392888023, ,0.8893439769744873
0.01164323910694648,0.020604590137160712,-0.08471921251453908, ,0.011984892443337275,0.02033061241961291,-0.08513520357818222, ,0.0006040193349642162, ,0.0056023481203666915,0.00036638481156859204,-0.017000650012135726,-0.022662982445259064,-0.0314125992959518,0.07490186055822365, ,0.017903704731899898, ,0.038734490415051066, ,6.988375975217497e-05, ,0.2133791093148232,-0.22076204194258184,0.09716600953000001,1.785929248657694,0.8302033725748161,-1.1585530347282114, ,0.024770801764153166,0.032399092372301395,0.017427583719912477,-0.10305389825123291,0.016022736427114277,-0.034522612771241926, ,0.9072329998016357
0.011670101810221486,0.02060796980391066,-0.08480329992662551, ,0.01205792836020135,0.020328012230479805,-0.08533438599898643, ,0.0007147293837854498, ,0.005194145330987622,0.0002768985622418461,-0.0161562504121478,0.029151241397848058,0.025745558555539123,0.04810612449721142, ,0.016972926851701743, ,0.0388925128988389, ,7.064126443236061e-05, ,0.21351039577368502,-0.22059214181934889,0.09725415725000001,1.7857195587142094,0.8306132820741124,-1.1589689671794412, ,0.02604911928588273,0.03287043351523061,0.01682028671594509,-0.09115956157093487,0.07336704321275452,-0.08484633103778934, ,0.9214370250701904
0.011791289542271762,0.02061141748641288,-0.08512932494820363, ,0.012130854245857494,0.020325416622685895,-0.08553271692889187, ,0.0005998547924768373, ,0.004285521828193721,-0.0008056551393561419,-0.010580601766798585,-0.0015122039237170236,-0.009010573056180669,-0.01451161787439589, ,0.01144394649109638, ,0.009136577855254891, ,7.108572707347848e-05, ,0.21414365986937142,-0.2197735321346811,0.09759119265,1.7857195587142094,0.8314331010727051,-1.1598825108220414, ,0.024122252556804977,0.03560860846471699,0.010719254051144012,-0.013699643715398198,0.018078473355659114,-0.04130435449024902, ,0.9348881244659424
0.011837468929838547,0.020597912737210067,-0.0852415850061511, ,0.012203669792608642,0.02032282569889155,-0.08573019812511633, ,0.0006697154101327967, ,0.004340987790241423,-0.0010298620184513484,-0.010619705337235595,-0.03513280330221431,-0.014803998754814392,0.0025172210485059337, ,0.011518807760431805, ,0.0381244293325626, ,7.169070480405541e-05, ,0.21439851005422084,-0.2193642272923472,0.09770267359000001,1.7853001788272402,0.8314331010727051,-1.1600458683023227, ,0.02409775052271985,0.038311240031679766,0.010676147131367292,-0.009893288315414448,0.011937283157228284,-0.0030034674236274067, ,0.9488260746002197
0.01193549973648755,0.02057882684409854,-0.08550053473284379, ,0.012276374694774876,0.020320239561717482,-0.08592683134347431, ,0.0006039800659224443, ,0.00420880495577321,-0.0007046022344790689,-0.011700188916186802,-0.0022946683380474383,0.029253825377012686,0.03194695900502176, ,0.012454112739935934, ,0.029343680456068975, ,7.211677303223706e-05, ,0.21499316048553613,-0.2185456176076794,0.09797100562000001,1.7842517291098179,0.8329361025701251,-1.1619248951641077, ,0.024159099174763436,0.03497859991097338,0.012122383196347033,-0.048131818025465394,0.06605494903177088,-0.038877225241920985, ,0.9676001071929932
0.01198807258785483,0.020572902489513174,-0.08563727761904683, ,0.01234896864869084,0.020317658313745806,-0.08612261833837803, ,0.0006564687119970347, ,0.005189036766195572,-0.0002272247493963142,-0.013700334949469564,0.0003604800323644271,-0.002263615907003575,-0.03767933849158743, ,0.014651856925841337, ,0.0022920340643036697, ,7.283320123280813e-05, ,0.21526345613613398,-0.21814403549821973,0.09810970865000002,1.7840420391663332,0.8330727390698903,-1.1619546343276634, ,0.026156819613690954,0.03863881985279755,0.014021841126760566,0.011484592491446552,0.0215447397232272,-0.040133663118112756, ,0.9787940979003906
0.01198807258785483,0.020572902489513174,-0.08563727761904683, ,0.012421451352702334,0.020315082057518342,-0.08631756086283635, ,0.0008468021142838165, ,0.00578022528991145,0.0005823903480729653,-0.016104524440734642,-0.010534241085967157,-0.015218065935241283,-0.01563488938576307, ,0.017120335580293976, ,0.018508340897812132, ,7.398783307041525e-05, ,0.2156187018483483,-0.21764205786139512,0.09831322618,1.7842517291098179,0.8330727390698903,-1.1619546343276634, ,0.02639692393837852,0.03422176038891842,0.016558016133056134,-0.005120451369484678,0.01228096437102061,-0.027359711286807246, ,0.991408109664917
0.01212592432071751,0.02057778526549293,-0.08602102479648331, ,0.012493822507163658,0.020312510895537688,-0.0865116606684556, ,0.0006681639961951892, ,0.006287374545583178,0.00041264800946644883,-0.018062071419209427,-0.0305904891127522,-0.023008079831789024,0.041854461958302044, ,0.019129552556418718, ,0.038277249631208696, ,7.469285631117909e-05, ,0.21591988843044307,-0.21726364395055814,0.09850378081000001,1.7834129693358796,0.8336192850689521,-1.1625636634227303, ,0.028471929660507284,0.03692487998384077,0.018521873860465117,-0.05876551037425184,0.01858934912835464,-0.018398960932818523, ,1.0027940273284912
0.012184065034942685,0.0205843298562879,-0.08619909987571152, ,0.012566081814434278,0.020309944930265812,-0.0867049195054385, ,0.0006907079015462456, ,0.006055216952553965,0.000592136426044143,-0.018865683065040405,0.03262962071217248,0.045717228439568235,0.03970007054383995, ,0.019822468953187886, ,0.0561672033682448, ,7.543407972237151e-05, ,0.21619790681391515,-0.2169083982383438,0.09869044657,1.7829935894489106,0.8344391040675448,-1.16339552832519, ,0.02929822215451398,0.036178780617030414,0.019787343503105594,-0.07885053172233833,0.09442505019317184,-0.08633016364626844, ,1.0136830806732178
0.012246734985380661,0.0205941004072471,-0.08638690004135201, ,0.012638228978876195,0.020307384264124814,-0.08689733912258513, ,0.0007042881152767749, ,0.006247088969231931,0.0005527586057299885,-0.01856164796035712,-0.006492889190141719,0.0013995125901460398,0.01892426104817018, ,0.019592509733822705, ,0.006641840270561842, ,7.618954789018886e-05, ,0.21647592519738723,-0.21653770706038103,0.09888618636,1.7829935894489106,0.8349856500666065,-1.1639228786801163, ,0.027723325024385268,0.037657516491456655,0.019168244909747296,-0.043746033866650054,0.03943117263547264,-0.0412664569110552, ,1.0255200862884521
0.012311613845189303,0.020600791856668618,-0.0865697079736718, ,0.01271026370685075,0.020304828999496014,-0.08708892126729197, ,0.0007183997280764772, ,0.0060973236260589685,0.0002980713139555751,-0.017207452101501094,-0.025217147052503,-0.023165079437725146,0.011236937153960031, ,0.018258220333169237, ,0.03424213635556791, ,7.695998622038413e-05, ,0.21676166631373353,-0.2161515704166698,0.09907414841,1.7829935894489106,0.835122286566372,-1.1641976540640937, ,0.027051579691696342,0.03762765327457208,0.017600896707182324,-0.030130949963898413,0.010395925668515408,-0.020163344073042634, ,1.0378010272979736
0.012370377205771079,0.020601545721896358,-0.08673330602266736, ,0.01278218570671545,0.020302279238719398,-0.08727966768555165, ,0.0007467648465700803, ,0.006022456138753745,-3.5902120349004616e-05,-0.015934044422239578,-0.03170233526505684,-0.03027509769701711,-0.004941723023386661, ,0.017034231375537976, ,0.043836270081758465, ,7.777706277900301e-05, ,0.2170319619643314,-0.21578087923870704,0.09924136982000001,1.7825742095619415,0.8352589230661375,-1.1644724294480713, ,0.02821794277682747,0.03937632429812066,0.016220785661914462,-0.010706613736474925,0.0,-0.011209785610537749, ,1.0495471954345703
0.012483236895042785,0.020594436831357466,-0.08704079770215065, ,0.012853994688821566,0.02029973508409502,-0.08746958012195456, ,0.0006388777856680815, ,0.005335992955147388,-0.0005652938630542982,-0.014834775788744757,0.017589625789830355,0.01583445780890933,0.06832192012009693, ,0.015775390666202756, ,0.02366694469221837, ,7.833508168921075e-05, ,0.2176343351285209,-0.21500088321841035,0.09956025716000001,1.7815257598445187,0.8364886515640264,-1.1661286205024637, ,0.03020271851001616,0.04131342688657849,0.015992782650602413,-0.05450826831275828,0.049645187144216486,-0.07166181327143327, ,1.0607249736785889
0.012553546868873592,0.02059093245795065,-0.08722108411370297, ,0.012925690365510565,0.020297196637880613,-0.08765866031968648, ,0.0006451700939475873, ,0.005627103068400421,-0.0005653278734088223,-0.014456359937968963,-0.024911223221389975,-0.018516515867636765,0.01318448921166416, ,0.015523215749417656, ,0.03103916511242901, ,7.889467260643267e-05, ,0.21796641264211256,-0.21453751924595688,0.09973525631,1.7815257598445187,0.8366252880637919,-1.1665667533667223, ,0.028887957856459902,0.03960640298767562,0.01488673973831776,-0.03295062947105693,0.017820154422902492,-0.022593607964360683, ,1.075019121170044
0.012607183647114825,0.020585501554698668,-0.08735009115346683, ,0.012997272451111382,0.020294664002292885,-0.08784691002052979, ,0.0006954025766148506, ,0.0052631582272827365,-0.000926463372526623,-0.01269571578120837,-0.02402641751645185,-0.022004627027548525,0.0037571302357178628, ,0.013774627693817014, ,0.03258023970859594, ,7.955172329111103e-05, ,0.2182598764913331,-0.2141359371364972,0.09987525563,1.7815257598445187,0.8366252880637919,-1.1667301108470034, ,0.02831054342436479,0.03980576407653976,0.012866568271405495,-0.02405991712885179,0.011458952716667314,-0.022538242246222393, ,1.0871021747589111
0.012664206105073642,0.02057383415524183,-0.08749167680012196, ,0.013068740661937502,0.02029213727950657,-0.0880343309648632, ,0.0007331267830375979, ,0.006158905772709606,-0.0005825788668679783,-0.015401759070201602,-0.03973549183628421,-0.021262595044215016,-0.0009051675834613408, ,0.01659776192472269, ,0.04506668828325362, ,8.044981829083647e-05, ,0.21856878580630207,-0.21368801862979217,0.10001914382,1.78110637995755,0.8368985610633227,-1.1670346253945367, ,0.03126752604891953,0.043751471442356284,0.01569341036453202,-0.00795890174582477,0.012160394409421535,-0.00339908929027478, ,1.096492052078247
0.012721220817383158,0.0205660377539877,-0.08764797526585331, ,0.013140094716283775,0.020289616571654314,-0.08822092489166114, ,0.000761666125632563, ,0.005821508866356068,-0.0007441240663292708,-0.016505931704850967,0.05474018428111707,0.0593246261105756,0.050567649650441165, ,0.017518260973976758, ,0.08072111132231358, ,8.139373857510518e-05, ,0.2188931405870195,-0.21327099105458405,0.10018247636000001,1.7802676201836118,0.8378550165616808,-1.167977908200693, ,0.033496979018168296,0.04173128476625804,0.017351646535947715,-0.1095232014303192,0.1185662776292853,-0.12452113878917434, ,1.105377197265625
0.012769845175353137,0.020563311001898496,-0.0877778910477917, ,0.013211334334423645,0.020287101980826828,-0.08840669353849429, ,0.0008164537177402841, ,0.005821508866356068,-0.0007441240663292708,-0.016505931704850967,0.05474018428111707,0.0593246261105756,0.050567649650441165, ,0.017518260973976758, ,0.08072111132231358, ,8.243816147604106e-05, ,0.21916343623761736,-0.21294663627386662,0.10031858681000001,1.7798482402966427,0.8385381990605081,-1.1686166764593156, ,0.035688958841094694,0.04173128476625804,0.018630188912280705,-0.07034567234158241,0.08300811277731586,-0.097502744549268, ,1.1148560047149658
0.012871099369859387,0.020573502882658745,-0.08805396239007961, ,0.01328245923860609,0.02028459360907188,-0.08859163864152898, ,0.0007360579198354214, ,0.007747124831406031,0.0010142920518650602,-0.021898417689784268,-0.028255480425188925,-0.01976399606596841,0.01699951342738222, ,0.02325053609782194, ,0.034481628134551245, ,8.329534559825891e-05, ,0.2196190774771966,-0.21238287677404824,0.10060377061,1.7798482402966427,0.8388114720600389,-1.1690845484871302, ,0.03336741967597425,0.03988942478287969,0.02262615272727273,-0.03262665779379278,0.021022641519526562,-0.01782399153751389, ,1.1244511604309082
0.012871099369859387,0.020573502882658745,-0.08805396239007961, ,0.01335346915305258,0.02028209155839468,-0.0887757619355273, ,0.0009157487381676734, ,0.007747124831406031,0.0010142920518650602,-0.021898417689784268,-0.028255480425188925,-0.01976399606596841,0.01699951342738222, ,0.02325053609782194, ,0.034481628134551245, ,8.451410575678325e-05, ,0.2196190774771966,-0.21238287677404824,0.10060377061,1.7798482402966427,0.8388114720600389,-1.1690845484871302, ,0.03336741967597425,0.03988942478287969,0.02262615272727273,-0.03262665779379278,0.021022641519526562,-0.01782399153751389, ,1.1332261562347412
0.012955524750541913,0.02058404632398023,-0.08828899422598517, ,0.013424363803954325,0.02027959593075781,-0.08895906515384697, ,0.0008726368937327266, ,0.008384484882975905,0.001038499176823023,-0.023342242158520665,-0.012517158141025287,-0.03388584750609699,-0.03314207701637048, ,0.024824148248834905, ,0.0361237176860182, ,8.562319387028035e-05, ,0.21998204592228515,-0.21194268100021743,0.10084617684000001,1.7796385503531582,0.8389481085598044,-1.1693593238711077, ,0.03470992741714366,0.045038890155895,0.023989173975903617,0.0,0.0,-0.03914662893876471, ,1.1421961784362793
0.013031162433906616,0.020590466972140595,-0.08851729410540947, ,0.01349514291946904,0.020277106828080167,-0.0891415500284411, ,0.0008385510886692505, ,0.007512187217892516,0.000831965234283376,-0.022145471548079953,0.0540623721595141,0.04229660728502749,-0.03236398316350942, ,0.023399722926448138, ,0.0686420989266023, ,8.66438899879514e-05, ,0.2203064007030026,-0.21150248522638665,0.10108339791000001,1.7790094805227048,0.8396312910586315,-1.1702431283501522, ,0.03377115357952697,0.04333193678468985,0.02318604296943232,-0.023653053085899,0.08225331688052455,-0.11022545824853487, ,1.1541919708251953
0.013181755961690945,0.020595467097019524,-0.08893545548782762, ,0.013565806229718098,0.020274624352237366,-0.08932321828985823, ,0.0006330834588659742, ,0.00699035882774295,0.0005721466828857041,-0.01793439028337444,-0.007784883192162101,-0.0008619005901447118,-0.051577956534714094, ,0.019257072030912082, ,0.00783233193640278, ,8.722859998573541e-05, ,0.22100916939455703,-0.2106375391444735,0.10151635877000001,1.7777513408617973,0.8405877465569896,-1.1714314473767298, ,0.03333225906514604,0.039656055812148254,0.018630188912280705,0.0365998105848258,0.02539136947445788,-0.023799659786016232, ,1.1650910377502441
0.013248305806890879,0.02059255447467848,-0.08909294748119147, ,0.013636353466783576,0.020272148605061335,-0.08950407166724177, ,0.000796566443160958, ,0.00699035882774295,0.0005721466828857041,-0.01793439028337444,-0.007784883192162101,-0.0008619005901447118,-0.051577956534714094, ,0.019257072030912082, ,0.00783233193640278, ,8.81347782108731e-05, ,0.22135669237389713,-0.2102282343021396,0.10167839502,1.7777513408617973,0.8407243830567551,-1.1717062227607073, ,0.03758294715186961,0.04555782119945788,0.015960732985971945,0.02301411502511711,0.0019561565223137276,-0.00860770009219316, ,1.174340009689331
0.013248305806890879,0.02059255447467848,-0.08909294748119147, ,0.013706784364705281,0.020269679688340016,-0.08968411188833056, ,0.0008148165878876034, ,0.006991478914084171,-0.0006125909953458668,-0.015597061830734749,-0.032287757266236644,-0.030723099657940477,-0.036608918203307576, ,0.01710334420180525, ,0.04456912831601136, ,8.906304623305002e-05, ,0.22135669237389713,-0.2102282343021396,0.10167839502,1.7777513408617973,0.8407243830567551,-1.1717062227607073, ,0.03758294715186961,0.04555782119945788,0.015960732985971945,0.02301411502511711,0.0019561565223137276,-0.00860770009219316, ,1.1831550598144531
0.013316300579915057,0.020583868141338415,-0.08924972784725708, ,0.01377709865947788,0.02026721770381772,-0.0898633406794579, ,0.0008301343731904777, ,0.006557855230212968,-0.0007638471429123367,-0.015011161077517219,-0.004720020774394536,-0.010980016710308356,-0.029094947419741037, ,0.01639889888295354, ,0.011951510400991652, ,9.018668941566744e-05, ,0.2217351062847341,-0.20974170213106347,0.10184043127,1.777961030805282,0.8411342925560513,-1.1722038339520777, ,0.036068772922261794,0.04417920929165306,0.015449865683802135,0.0,0.025266368042556313,-0.042888555820405815, ,1.1899421215057373
0.013316300579915057,0.020583868141338415,-0.08924972784725708, ,0.01384729608904761,0.02026476275319351,-0.0900417597655522, ,0.0010055342058131569, ,0.006557855230212968,-0.0007638471429123367,-0.015011161077517219,-0.004720020774394536,-0.010980016710308356,-0.029094947419741037, ,0.01639889888295354, ,0.011951510400991652, ,9.16449714346479e-05, ,0.2217351062847341,-0.20974170213106347,0.10184043127,1.777961030805282,0.8411342925560513,-1.1722038339520777, ,0.036068772922261794,0.04417920929165306,0.015449865683802135,0.0,0.025266368042556313,-0.042888555820405815, ,1.1998231410980225
0.013420454308518591,0.020564758271164513,-0.08951246076641475, ,0.01391737639330966,0.020262314938122392,-0.09021937087013651, ,0.0009154919020934246, ,0.007059819433046872,-0.0009826806669875794,-0.018245724305482113,0.00895451131681912,0.0013829068024384015,0.06293370431863021, ,0.019588597886325557, ,0.00906055638654222, ,9.2908397446067e-05, ,0.22232203398317518,-0.20900804250801214,0.10210746701000001,1.7767028911443747,0.8423640210539404,-1.1734516313057672, ,0.03753834713547103,0.04606647648469455,0.018806152916174736,-0.1136323311101008,0.0668386485691851,-0.08812407823129667, ,1.2069330215454102
0.013496734376302392,0.02056504212648553,-0.08970961388990749, ,0.013987339314105231,0.020259874360214872,-0.09039617571532835, ,0.0008973225232280597, ,0.007684709612281797,-6.474134927977166e-05,-0.020768959509235112,-0.03278054352600039,-0.016855521075534428,0.03683895322407508, ,0.022145171761890906, ,0.03686012425728262, ,9.412133338898828e-05, ,0.22269272516113797,-0.20854467853555866,0.10231746599000001,1.7764932012008903,0.8427739305532367,-1.173867563756997, ,0.035004404853733226,0.04553596044072494,0.02138095506040269,-0.05619234322019082,0.03056310651158576,-0.023732561715724278, ,1.2137060165405273
0.013496734376302392,0.02056504212648553,-0.08970961388990749, ,0.014057184595218115,0.020257441121035384,-0.09057217602183927, ,0.0010736555583050473, ,0.007684709612281797,-6.474134927977166e-05,-0.020768959509235112,-0.03278054352600039,-0.016855521075534428,0.03683895322407508, ,0.022145171761890906, ,0.03686012425728262, ,9.566381205982274e-05, ,0.22269272516113797,-0.20854467853555866,0.10231746599000001,1.7764932012008903,0.8427739305532367,-1.173867563756997, ,0.035004404853733226,0.04553596044072494,0.02138095506040269,-0.05619234322019082,0.03056310651158576,-0.023732561715724278, ,1.2203080654144287
0.013584681329898441,0.020569956212589946,-0.08994768330416322, ,0.014126911982372255,0.020255015322103862,-0.09074737350897515, ,0.0010162215647458387, ,0.009238249063120157,0.0008207917780534144,-0.026516604313327554,-0.017639264465390797,-0.0003680376117942688,0.00794915722830563, ,0.02809180039094579, ,0.017642732015214994, ,9.707704874309091e-05, ,0.22309430727059765,-0.20803497816585984,0.10256505738,1.7764932012008903,0.8433204765522985,-1.1743132353717827, ,0.03814185753957829,0.05096505991324961,0.02746346813793104,-0.0336248854053904,0.045791947661825795,-0.04019957713218233, ,1.2268671989440918
0.0136730339004975,0.02058093192334898,-0.09020970560427147, ,0.014196521223228585,0.020252597064894594,-0.09092176989463639, ,0.0009428034312354432, ,0.009537155448942332,0.0017693586302003407,-0.02807821376437758,0.04137762859957898,0.05904505939570471,-0.02785723428174363, ,0.029706464821948057, ,0.07209999816560017, ,9.833248667181185e-05, ,0.22347272118143463,-0.20756389146053214,0.10283987086000002,1.776073821313921,0.8442769320506565,-1.175174839437798, ,0.04081588884235302,0.046518108607093524,0.02960745635687733,-0.012064656308408401,0.10478354418559803,-0.09123719935253156, ,1.233849048614502
0.0136730339004975,0.02058093192334898,-0.09020970560427147, ,0.014266012067382094,0.020250186450836087,-0.09109536689531647, ,0.0011159801057568602, ,0.009537155448942332,0.0017693586302003407,-0.02807821376437758,0.04137762859957898,0.05904505939570471,-0.02785723428174363, ,0.029706464821948057, ,0.07209999816560017, ,9.990525036097166e-05, ,0.22347272118143463,-0.20756389146053214,0.10283987086000002,1.776073821313921,0.8442769320506565,-1.175174839437798, ,0.04081588884235302,0.046518108607093524,0.02960745635687733,-0.012064656308408401,0.10478354418559803,-0.09123719935253156, ,1.240718126296997
0.013767734042461028,0.02059231003042955,-0.09048491826323023, ,0.01433538426635863,0.020247783581310512,-0.09126816622610327, ,0.0010268410890582568, ,0.010053068308709006,0.0006429653567309489,-0.028465950390277262,-0.007380010540770338,0.007704834377982958,0.08590414719201124, ,0.03019582617666309, ,0.010668192796830393, ,0.00010129025100473421, ,0.22388202602376853,-0.20710052748807867,0.10312764724000001,1.7752350615399832,0.8450967510492492,-1.1758433468599767, ,0.045275258377133004,0.05061170216451775,0.029662591284916204,-0.1257628319127763,0.08064900286162724,-0.07096375140195708, ,1.248488187789917
0.013881395836422547,0.020602586307991645,-0.09079497379544244, ,0.014404637573612362,0.020245388557654245,-0.09144016960067797, ,0.0009042398882359934, ,0.010063120143725936,0.0006994688395202235,-0.027252722332945307,-0.03476717007261025,-0.026366063372300477,0.03722048810316553, ,0.029059706093509247, ,0.04363382150899062, ,0.00010242731376083609, ,0.2243762809277189,-0.2065367679882603,0.10344912716000002,1.7746059917095298,0.8455066605485455,-1.1761776005710658, ,0.04381206904823212,0.05101986105294128,0.02819258676106195,-0.06161605940725394,0.030705193955037992,-0.029541761390951996, ,1.2550652027130127
0.013881395836422547,0.020602586307991645,-0.09079497379544244, ,0.014473771744522596,0.02024300148115715,-0.09161137873131506, ,0.001070853623752627, ,0.010063120143725936,0.0006994688395202235,-0.027252722332945307,-0.03476717007261025,-0.026366063372300477,0.03722048810316553, ,0.029059706093509247, ,0.04363382150899062, ,0.00010406127413108318, ,0.2243762809277189,-0.2065367679882603,0.10344912716000002,1.7746059917095298,0.8455066605485455,-1.1761776005710658, ,0.04381206904823212,0.05101986105294128,0.02819258676106195,-0.06161605940725394,0.030705193955037992,-0.029541761390951996, ,1.2594339847564697
0.013984809087455852,0.02060930493548057,-0.09106399176938382, ,0.014542786536390833,0.02024062245306248,-0.09178179532888296, ,0.000981074694603625, ,0.010699788140707768,0.00025982433401421003,-0.026904112840708285,-0.055887373864763265,-0.05024715312204611,0.016955113193347793, ,0.028954865958697527, ,0.07515424710854139, ,0.00010551419169939419, ,0.2248396449001724,-0.20598845395419035,0.10372782951000001,1.7746059917095298,0.8457799335480763,-1.1764821151185996, ,0.04911849977146521,0.05641910913107657,0.02770228090434783,-0.03382545503010564,0.0058821112970332285,-0.0069725200677228615, ,1.2642221450805664
0.013984809087455852,0.02060930493548057,-0.09106399176938382, ,0.014611681708437685,0.02023825157456618,-0.09195142110284212, ,0.0011481205082502159, ,0.010699788140707768,0.00025982433401421003,-0.026904112840708285,-0.055887373864763265,-0.05024715312204611,0.016955113193347793, ,0.028954865958697527, ,0.07515424710854139, ,0.00010726904586578263, ,0.2248396449001724,-0.20598845395419035,0.10372782951000001,1.7746059917095298,0.8457799335480763,-1.1764821151185996, ,0.04911849977146521,0.05641910913107657,0.02770228090434783,-0.03382545503010564,0.0058821112970332285,-0.0069725200677228615, ,1.2687020301818848
0.014087832477354852,0.02061309001280482,-0.09134121722452235, ,0.01468045702180032,0.020235888946817687,-0.0921202577612473, ,0.0010489941147221594, ,0.010431425198859734,0.0008007534771126228,-0.028820344983558656,0.04278804462280511,0.05477183927285306,-0.04015452786596573, ,0.030660530373459758, ,0.06950360606713257, ,0.0001088258668041979, ,0.22532617707124852,-0.20541697172149773,0.10401819847,1.7741866118225607,0.8467363890464344,-1.1777521128853177, ,0.04742475840003537,0.05733954172717268,0.030282911634980987,-0.010655980765963732,0.10645096603033882,-0.10569404404787622, ,1.2731420993804932
0.014087832477354852,0.02061309001280482,-0.09134121722452235, ,0.014749112239529055,0.02023353467091871,-0.09228830701074485, ,0.0012158668695965182, ,0.010431425198859734,0.0008007534771126228,-0.028820344983558656,0.04278804462280511,0.05477183927285306,-0.04015452786596573, ,0.030660530373459758, ,0.06950360606713257, ,0.00011068128527257732, ,0.22532617707124852,-0.20541697172149773,0.10401819847,1.7741866118225607,0.8467363890464344,-1.1777521128853177, ,0.04742475840003537,0.05733954172717268,0.030282911634980987,-0.010655980765963732,0.10645096603033882,-0.10569404404787622, ,1.2777531147003174
0.014087832477354852,0.02061309001280482,-0.09134121722452235, ,0.01481764712658461,0.020231188847923444,-0.09245557055657462, ,0.0013857349207637485, ,0.010431425198859734,0.0008007534771126228,-0.028820344983558656,0.04278804462280511,0.05477183927285306,-0.04015452786596573, ,0.030660530373459758, ,0.06950360606713257, ,0.00011283753036557472, ,0.22532617707124852,-0.20541697172149773,0.10401819847,1.7741866118225607,0.8467363890464344,-1.1777521128853177, ,0.04742475840003537,0.05733954172717268,0.030282911634980987,-0.010655980765963732,0.10645096603033882,-0.10569404404787622, ,1.2869551181793213
0.014195046218176001,0.020618503587085855,-0.09163523478196575, ,0.01488606144983528,0.020228851578838365,-0.09262205010256842, ,0.001266149760057072, ,0.011775844884664353,0.0004073061676669971,-0.03277149332820782,-0.009680437016581486,-0.02679503297888758,0.08614118755322381, ,0.03482538149141607, ,0.028489416527859093, ,0.00011475722538278122, ,0.22580498650945044,-0.204876380420302,0.10432412291000001,1.773138162105138,0.8474195715452616,-1.1785542386242214, ,0.05036992651723502,0.05960863163220527,0.03389108834042554,-0.14733748955903975,0.05373397218199078,-0.09046923810779903, ,1.2914760112762451
0.014341665220638893,0.02062817866024979,-0.09203110838972794, ,0.014954354978053683,0.02022652296462196,-0.09278774735115068, ,0.001053194452422794, ,0.012407224802655421,0.0009228101477063277,-0.03331522425353678,-0.02521820211609035,-0.03546681546484441,0.0188917949313355, ,0.03556255014668918, ,0.043517946603498954, ,0.00011627134303288641, ,0.22643052787226262,-0.20415816626299912,0.10473375055,1.7720897123877153,0.847829481044558,-1.1789701710754512, ,0.05237138055103244,0.06098775164426143,0.034477947012987016,-0.06043266727624231,0.029129387708713622,-0.05372959342535531, ,1.2961530685424805
0.014341665220638893,0.02062817866024979,-0.09203110838972794, ,0.015022527481914131,0.020224203106184613,-0.09295266400333801, ,0.0012149215678747866, ,0.012407224802655421,0.0009228101477063277,-0.03331522425353678,-0.02521820211609035,-0.03546681546484441,0.0188917949313355, ,0.03556255014668918, ,0.043517946603498954, ,0.00011807057175414834, ,0.22643052787226262,-0.20415816626299912,0.10473375055,1.7720897123877153,0.847829481044558,-1.1789701710754512, ,0.05237138055103244,0.06098775164426143,0.034477947012987016,-0.06043266727624231,0.029129387708713622,-0.05372959342535531, ,1.300616979598999
0.014464922717792358,0.020638929228522992,-0.0923623461088984, ,0.01509057873398944,0.020221892104387757,-0.0931168017587389, ,0.0010651613685666813, ,0.012205710213319329,0.0003452412990254804,-0.031822296043512825,-0.010653624671175338,-0.00734614904523211,-0.01195748133820155, ,0.0340845577769032, ,0.012939590078018575, ,0.00011958338238381692, ,0.2269556737077099,-0.20352490216731273,0.10507856369000002,1.7720897123877153,0.8483760270436198,-1.1796608789106586, ,0.05460123219704877,0.06571810357234818,0.03304732680497926,-0.029839125151139193,0.05403872396125929,-0.06458662341559332, ,1.305685043334961
0.014464922717792358,0.020638929228522992,-0.0923623461088984, ,0.01515850850874811,0.020219590060044763,-0.09328016231555375, ,0.0012244562780413764, ,0.012205710213319329,0.0003452412990254804,-0.031822296043512825,-0.010653624671175338,-0.00734614904523211,-0.01195748133820155, ,0.0340845577769032, ,0.012939590078018575, ,0.00012137481786249647, ,0.2269556737077099,-0.20352490216731273,0.10507856369000002,1.7720897123877153,0.8483760270436198,-1.1796608789106586, ,0.05460123219704877,0.06571810357234818,0.03304732680497926,-0.029839125151139193,0.05403872396125929,-0.06458662341559332, ,1.3101460933685303
0.014588518725508915,0.02063974659104081,-0.09268579701720614, ,0.015226316582551282,0.020217297073919758,-0.09344274737057455, ,0.0010762079438603892, ,0.012605565582476358,9.455956402202063e-05,-0.03258666897009094,0.026593037304491706,0.030556838991830124,-0.05668621034042536, ,0.034939951627492964, ,0.040507694295231905, ,0.00012288470610187217, ,0.2275194332075283,-0.2028221334757583,0.10541559909,1.771880022444231,0.8491958460422123,-1.1806561012933994, ,0.05836220268048633,0.07205538463057766,0.03403592205128206,0.0,0.09026952942432269,-0.10373724477871983, ,1.3145081996917725
0.014588518725508915,0.02063974659104081,-0.09268579701720614, ,0.015294002733649831,0.020215013246727583,-0.09360455861918485, ,0.0012337864405092766, ,0.012605565582476358,9.455956402202063e-05,-0.03258666897009094,0.026593037304491706,0.030556838991830124,-0.05668621034042536, ,0.034939951627492964, ,0.040507694295231905, ,0.00012466813034069086, ,0.2275194332075283,-0.2028221334757583,0.10541559909,1.771880022444231,0.8491958460422123,-1.1806561012933994, ,0.05836220268048633,0.07205538463057766,0.03403592205128206,0.0,0.09026952942432269,-0.10373724477871983, ,1.3189780712127686
0.014588518725508915,0.02063974659104081,-0.09268579701720614, ,0.015361566742181596,0.02021273867913428,-0.09376559775535986, ,0.0013949582886343475, ,0.013576771264758756,0.00012911539758180142,-0.03382455807644124,0.032504492700085805,0.017197771417496018,-0.03696714269748924, ,0.034939951627492964, ,0.040507694295231905, ,0.00012672860161398755, ,0.22809863817309511,-0.2021348102499523,0.10574485675,1.7712509526137772,0.8500156650408051,-1.1816513236761401, ,0.06544616659204881,0.07194612703447369,0.03539735893333334,-0.03081000492550608,0.08977485153260958,-0.1196331377964811, ,1.3261351585388184
0.01471171053069435,0.020637230393812687,-0.09300189826163713, ,0.015429008390168069,0.02021047347175579,-0.09392586647166531, ,0.0012451325001266915, ,0.013576771264758756,0.00012911539758180142,-0.03382455807644124,0.032504492700085805,0.017197771417496018,-0.03696714269748924, ,0.036447854776763176, ,0.036773103108191874, ,0.00012850579748656588, ,0.22809863817309511,-0.2021348102499523,0.10574485675,1.7712509526137772,0.8500156650408051,-1.1816513236761401, ,0.06544616659204881,0.07194612703447369,0.03539735893333334,-0.03081000492550608,0.08977485153260958,-0.1196331377964811, ,1.331063985824585
0.01471171053069435,0.020637230393812687,-0.09300189826163713, ,0.015496327461511774,0.020208217725158628,-0.09408536645925857, ,0.0014048412484149503, ,0.013576771264758756,0.00012911539758180142,-0.03382455807644124,0.032504492700085805,0.017197771417496018,-0.03696714269748924, ,0.036447854776763176, ,0.036773103108191874, ,0.0001307890451626453, ,0.22860833854279394,-0.20160194168163081,0.10600670733,1.7702025028963544,0.8505622110398667,-1.182260352771207, ,0.0701900455314133,0.07087150228414546,0.034779064454148474,-0.1412310296874506,0.0579914143075129,-0.08061041841749769, ,1.3339810371398926
0.014814681332702489,0.02063261984635322,-0.0932536861021541, ,0.015563523741993098,0.020205971539859167,-0.09424409940788743, ,0.0013129022231529728, ,0.01403216450009133,-0.000650342887534739,-0.03348587157210235,-0.027087467371725026,-0.04096519611563734,0.08433590016923519, ,0.03631292030906248, ,0.049110447756991416, ,0.00013289996155191374, ,0.22860833854279394,-0.20160194168163081,0.10600670733,1.7702025028963544,0.8505622110398667,-1.182260352771207, ,0.0701900455314133,0.07087150228414546,0.034779064454148474,-0.1412310296874506,0.0579914143075129,-0.08061041841749769, ,1.3362720012664795
0.014814681332702489,0.02063261984635322,-0.0932536861021541, ,0.01563059701926763,0.020203735016323603,-0.09440206700589075, ,0.0014725621566098982, ,0.01403216450009133,-0.000650342887534739,-0.03348587157210235,-0.027087467371725026,-0.04096519611563734,0.08433590016923519, ,0.03631292030906248, ,0.049110447756991416, ,0.00013528795120442352, ,0.22860833854279394,-0.20160194168163081,0.10600670733,1.7702025028963544,0.8505622110398667,-1.182260352771207, ,0.0701900455314133,0.07087150228414546,0.034779064454148474,-0.1412310296874506,0.0579914143075129,-0.08061041841749769, ,1.3399271965026855
0.014814681332702489,0.02063261984635322,-0.0932536861021541, ,0.015697547082862758,0.020201508254967502,-0.0945592709401972, ,0.0016339709013202127, ,0.01403216450009133,-0.000650342887534739,-0.03348587157210235,-0.027087467371725026,-0.04096519611563734,0.08433590016923519, ,0.03631292030906248, ,0.049110447756991416, ,0.00013795464684519893, ,0.22860833854279394,-0.20160194168163081,0.10600670733,1.7702025028963544,0.8505622110398667,-1.182260352771207, ,0.0701900455314133,0.07087150228414546,0.034779064454148474,-0.1412310296874506,0.0579914143075129,-0.08061041841749769, ,1.3422720432281494
0.01500361218125924,0.02062527213927886,-0.09368212005267318, ,0.01576437372417521,0.020199291356156057,-0.09471571289632669, ,0.0013522321987075852, ,0.013158529729565596,-0.0011030203541960006,-0.029220118687597323,-0.06769490820525151,-0.0588017367732171,0.016157420979225828, ,0.03206522874802091, ,0.0896672936079776, ,0.0001401114453387378, ,0.22955823468632355,-0.2006134318737301,0.1064513348,1.7697831230093857,0.850972120539163,-1.1829213214428587, ,0.06664111064499352,0.072551178561522,0.030168203636363643,-0.03734569050236794,0.015650837939197047,-0.01116447893650627, ,1.344675064086914
0.01500361218125924,0.02062527213927886,-0.09368212005267318, ,0.01583107673646781,0.020197084420203546,-0.09487139455838872, ,0.0015107667466681893, ,0.013158529729565596,-0.0011030203541960006,-0.029220118687597323,-0.06769490820525151,-0.0588017367732171,0.016157420979225828, ,0.03206522874802091, ,0.0896672936079776, ,0.0007805195191492969, ,0.22955823468632355,-0.2006134318737301,0.1064513348,1.7697831230093857,0.850972120539163,-1.1829213214428587, ,0.06664111064499352,0.072551178561522,0.030168203636363643,-0.03734569050236794,0.015650837939197047,-0.01116447893650627, ,1.3469221591949463
0.01500361218125924,0.02062527213927886,-0.09368212005267318, ,0.015897655914866717,0.02019488754737295,-0.0950263176090827, ,0.0016707519759707426, ,0.013158529729565596,-0.0011030203541960006,-0.029220118687597323,-0.06769490820525151,-0.0588017367732171,0.016157420979225828, ,0.03206522874802091, ,0.0896672936079776, ,0.0007890794466187339, ,0.22955823468632355,-0.2006134318737301,0.1064513348,1.7697831230093857,0.850972120539163,-1.1829213214428587, ,0.06664111064499352,0.072551178561522,0.030168203636363643,-0.03734569050236794,0.015650837939197047,-0.01116447893650627, ,1.349147081375122
0.01500361218125924,0.02062527213927886,-0.09368212005267318, ,0.015964111056358164,0.02019270083787604,-0.09518048372969805, ,0.0018316030488321193, ,0.013158529729565596,-0.0011030203541960006,-0.029220118687597323,-0.06769490820525151,-0.0588017367732171,0.016157420979225828, ,0.03206522874802091, ,0.0896672936079776, ,0.00079900824283029, ,0.22955823468632355,-0.2006134318737301,0.1064513348,1.7697831230093857,0.850972120539163,-1.1829213214428587, ,0.06664111064499352,0.072551178561522,0.030168203636363643,-0.03734569050236794,0.015650837939197047,-0.01116447893650627, ,1.351391077041626
0.01500361218125924,0.02062527213927886,-0.09368212005267318, ,0.016030441959785962,0.020190524391873098,-0.09533389460011407, ,0.00199292351923429, ,0.01732766695876529,-0.00020097593202125438,-0.04296051807181634,0.014934415970867233,0.015396732718865954,-0.04842234386756752, ,0.03206522874802091, ,0.0896672936079776, ,0.0008102715944944787, ,0.23030733977512333,-0.19977937672331383,0.10680392568000001,1.769573433065901,0.8516553030379903,-1.1837234471817624, ,0.0809700866539853,0.09414379122864167,0.0448698916056338,-0.021599187753143546,0.10203424709675687,-0.11998270478392468, ,1.3540740013122559
0.015151388433475941,0.020614791621368225,-0.0940206586888389, ,0.016096648425848216,0.020188358309472656,-0.09548655189879886, ,0.001795607063274306, ,0.01732766695876529,-0.00020097593202125438,-0.04296051807181634,0.014934415970867233,0.015396732718865954,-0.04842234386756752, ,0.04632380108063237, ,0.02144644082429842, ,0.0008194803371933555, ,0.23030733977512333,-0.19977937672331383,0.10680392568000001,1.769573433065901,0.8516553030379903,-1.1837234471817624, ,0.0809700866539853,0.09414379122864167,0.0448698916056338,-0.021599187753143546,0.10203424709675687,-0.11998270478392468, ,1.3566081523895264
0.015151388433475941,0.020614791621368225,-0.0940206586888389, ,0.016162730257094568,0.020186202690731334,-0.09563845730281051, ,0.0019554470361104635, ,0.01732766695876529,-0.00020097593202125438,-0.04296051807181634,0.014934415970867233,0.015396732718865954,-0.04842234386756752, ,0.04632380108063237, ,0.02144644082429842, ,0.000829998547368514, ,0.23030733977512333,-0.19977937672331383,0.10680392568000001,1.769573433065901,0.8516553030379903,-1.1837234471817624, ,0.0809700866539853,0.09414379122864167,0.0448698916056338,-0.021599187753143546,0.10203424709675687,-0.11998270478392468, ,1.3588130474090576
0.015151388433475941,0.020614791621368225,-0.0940206586888389, ,0.016228687257923154,0.020184057635653407,-0.09578961248779588, ,0.0021154909752701566, ,0.01732766695876529,-0.00020097593202125438,-0.04296051807181634,0.014934415970867233,0.015396732718865954,-0.04842234386756752, ,0.04632380108063237, ,0.02144644082429842, ,0.000841792055881373, ,0.23030733977512333,-0.19977937672331383,0.10680392568000001,1.769573433065901,0.8516553030379903,-1.1837234471817624, ,0.0809700866539853,0.09414379122864167,0.0448698916056338,-0.021599187753143546,0.10203424709675687,-0.11998270478392468, ,1.361057996749878
0.015151388433475941,0.020614791621368225,-0.0940206586888389, ,0.01629451923457769,0.020181923244191078,-0.09594001912799097, ,0.002275536762122189, ,0.01732766695876529,-0.00020097593202125438,-0.04296051807181634,0.014934415970867233,0.015396732718865954,-0.04842234386756752, ,0.04632380108063237, ,0.02144644082429842, ,0.0008548260986653805, ,0.23030733977512333,-0.19977937672331383,0.10680392568000001,1.769573433065901,0.8516553030379903,-1.1837234471817624, ,0.0809700866539853,0.09414379122864167,0.0448698916056338,-0.021599187753143546,0.10203424709675687,-0.11998270478392468, ,1.3632681369781494
0.015342020738738867,0.02062601737684014,-0.09454596228203288, ,0.016360225995144567,0.020179799616243606,-0.09608967889621996, ,0.0019023441378891446, ,0.020322709586967507,0.002616808959226817,-0.05950764243579078,0.09816963206267784,0.09243427956169412,0.08701684170853088, ,0.06293663259462837, ,0.13483555348216517, ,0.0008642631981178469, ,0.23114139492553956,-0.1988526487784069,0.10735744151000001,1.7681056034615095,0.8537048505344719,-1.1859664669181926, ,0.08076335451784747,0.0870614142738264,0.06271185637795276,-0.21363372296399005,0.21824896777820516,-0.24792024486674996, ,1.3654720783233643
0.015342020738738867,0.02062601737684014,-0.09454596228203288, ,0.016425807349549595,0.020177686851657165,-0.09623859346389611, ,0.002059270257979552, ,0.020322709586967507,0.002616808959226817,-0.05950764243579078,0.09816963206267784,0.09243427956169412,0.08701684170853088, ,0.06293663259462837, ,0.13483555348216517, ,0.0008749329040094692, ,0.23114139492553956,-0.1988526487784069,0.10735744151000001,1.7681056034615095,0.8537048505344719,-1.1859664669181926, ,0.08076335451784747,0.0870614142738264,0.06271185637795276,-0.21363372296399005,0.21824896777820516,-0.24792024486674996, ,1.3677241802215576
0.015342020738738867,0.02062601737684014,-0.09454596228203288, ,0.01649126310955595,0.020175585050225965,-0.09638676450102121, ,0.002216348374505391, ,0.020322709586967507,0.002616808959226817,-0.05950764243579078,0.09816963206267784,0.09243427956169412,0.08701684170853088, ,0.06293663259462837, ,0.13483555348216517, ,0.0008868038373766898, ,0.23114139492553956,-0.1988526487784069,0.10735744151000001,1.7681056034615095,0.8537048505344719,-1.1859664669181926, ,0.08076335451784747,0.0870614142738264,0.06271185637795276,-0.21363372296399005,0.21824896777820516,-0.24792024486674996, ,1.3716051578521729
0.015342020738738867,0.02062601737684014,-0.09454596228203288, ,0.01655659308876001,0.02017349431168967,-0.0965341936761849, ,0.002373399923026197, ,0.020322709586967507,0.002616808959226817,-0.05950764243579078,0.09816963206267784,0.09243427956169412,0.08701684170853088, ,0.06293663259462837, ,0.13483555348216517, ,0.0008998441539174749, ,0.23114139492553956,-0.1988526487784069,0.10735744151000001,1.7681056034615095,0.8537048505344719,-1.1859664669181926, ,0.08076335451784747,0.0870614142738264,0.06271185637795276,-0.21363372296399005,0.21824896777820516,-0.24792024486674996, ,1.3740999698638916
0.01548069010877364,0.020646841444620093,-0.0949475348477146, ,0.016621797102589403,0.020171414735735447,-0.096680882656565, ,0.0021290021966411084, ,0.0233032256350126,0.004051506221161801,-0.06664120481414906,0.05852879799700239,0.055474299750572206,0.07044270450773155, ,0.0707142503795224, ,0.0806331431124507, ,0.0009105324847237674, ,0.2316819862267353,-0.1982888892785885,0.10778003205000002,1.7668474638006022,0.8549345790323609,-1.1871325855317416, ,0.09046419595659749,0.08944103822664541,0.07017097585903086,-0.17415699603685783,0.18265885489927883,-0.1972963555125516, ,1.3781630992889404
0.01548069010877364,0.020646841444620093,-0.0949475348477146, ,0.016686874968299615,0.020169346421996324,-0.09682683310792754, ,0.0022835598005788225, ,0.0233032256350126,0.004051506221161801,-0.06664120481414906,0.05852879799700239,0.055474299750572206,0.07044270450773155, ,0.0707142503795224, ,0.0806331431124507, ,0.0009223689271018282, ,0.2316819862267353,-0.1982888892785885,0.10778003205000002,1.7668474638006022,0.8549345790323609,-1.1871325855317416, ,0.09046419595659749,0.08944103822664541,0.07017097585903086,-0.17415699603685783,0.18265885489927883,-0.1972963555125516, ,1.3806021213531494
0.01548069010877364,0.020646841444620093,-0.0949475348477146, ,0.016751826504971028,0.020167289470051378,-0.09697204669462552, ,0.002438115266416482, ,0.0233032256350126,0.004051506221161801,-0.06664120481414906,0.05852879799700239,0.055474299750572206,0.07044270450773155, ,0.0707142503795224, ,0.0806331431124507, ,0.0009353240240190473, ,0.2316819862267353,-0.1982888892785885,0.10778003205000002,1.7668474638006022,0.8549345790323609,-1.1871325855317416, ,0.09046419595659749,0.08944103822664541,0.07017097585903086,-0.17415699603685783,0.18265885489927883,-0.1972963555125516, ,1.3829891681671143
0.015851730815404308,0.020726016596886186,-0.09599847063734954, ,0.016816651533506213,0.02016524397942598,-0.09711652507960011, ,0.001579741642342733, ,0.027605087795399892,0.00685400844465275,-0.07906504812111749,-0.010817557001606446,-0.003280016234342643,-0.024299276650879366, ,0.0840255921630174, ,0.011166391563736553, ,0.0009407851902760278, ,0.232979405349605,-0.19702236108721569,0.10882095292,1.7655893241396952,0.856847490029077,-1.1891008298841943, ,0.09575877049290694,0.09470752650545987,0.08296256,-0.031450470524507,0.10122985551458505,-0.09353535906108436, ,1.3852519989013672
0.015851730815404308,0.020726016596886186,-0.09599847063734954, ,0.01688134987662682,0.02016321004959077,-0.0972602699243797, ,0.001723079818714481, ,0.027605087795399892,0.00685400844465275,-0.07906504812111749,-0.010817557001606446,-0.003280016234342643,-0.024299276650879366, ,0.0840255921630174, ,0.011166391563736553, ,0.0009473590947166871, ,0.232979405349605,-0.19702236108721569,0.10882095292,1.7655893241396952,0.856847490029077,-1.1891008298841943, ,0.09575877049290694,0.09470752650545987,0.08296256,-0.031450470524507,0.10122985551458505,-0.09353535906108436, ,1.387516975402832
0.015851730815404308,0.020726016596886186,-0.09599847063734954, ,0.016945921358870585,0.020161187779961932,-0.0974032828890791, ,0.0018680958220735236, ,0.027605087795399892,0.00685400844465275,-0.07906504812111749,-0.010817557001606446,-0.003280016234342643,-0.024299276650879366, ,0.0840255921630174, ,0.011166391563736553, ,0.000955031900777994, ,0.232979405349605,-0.19702236108721569,0.10882095292,1.7655893241396952,0.856847490029077,-1.1891008298841943, ,0.09575877049290694,0.09470752650545987,0.08296256,-0.031450470524507,0.10122985551458505,-0.09353535906108436, ,1.389876127243042
0.015851730815404308,0.020726016596886186,-0.09599847063734954, ,0.017010365806588594,0.020159177269901025,-0.09754556563240119, ,0.002014260357830504, ,0.027605087795399892,0.00685400844465275,-0.07906504812111749,-0.010817557001606446,-0.003280016234342643,-0.024299276650879366, ,0.0840255921630174, ,0.011166391563736553, ,0.0009637858549685107, ,0.232979405349605,-0.19702236108721569,0.10882095292,1.7655893241396952,0.856847490029077,-1.1891008298841943, ,0.09575877049290694,0.09470752650545987,0.08296256,-0.031450470524507,0.10122985551458505,-0.09353535906108436, ,1.3921630382537842
0.01612774355092856,0.020784488813810658,-0.09677085423676193, ,0.0170746830479423,0.020157178618714692,-0.09768711981163487, ,0.0014593680466466346, ,0.02723884490233557,0.004447016267435471,-0.07317617308737516,-0.029695747014436034,-0.027764294244361824,-0.0545714635107735, ,0.07820794673822998, ,0.04062751798941393, ,0.0009678480040806265, ,0.2340219742876253,-0.19594890121769848,0.10969335609000001,1.7653796341962105,0.8576673090276697,-1.1898510160465134, ,0.10182075274514032,0.10674571603877478,0.07658082461538462,0.0,0.07505123210798545,-0.07897801166584657, ,1.3947429656982422
0.01612774355092856,0.020784488813810658,-0.09677085423676193, ,0.017138872912900317,0.020155191925654067,-0.09782794708265588, ,0.0015924328698331835, ,0.02723884490233557,0.004447016267435471,-0.07317617308737516,-0.029695747014436034,-0.027764294244361824,-0.0545714635107735, ,0.07820794673822998, ,0.04062751798941393, ,0.0009729259298184521, ,0.2340219742876253,-0.19594890121769848,0.10969335609000001,1.7653796341962105,0.8576673090276697,-1.1898510160465134, ,0.10182075274514032,0.10674571603877478,0.07658082461538462,0.0,0.07505123210798545,-0.07897801166584657, ,1.3969941139221191
0.01612774355092856,0.020784488813810658,-0.09677085423676193, ,0.01720293523323586,0.02015321728991534,-0.09796804909992658, ,0.0017285301359744195, ,0.02723884490233557,0.004447016267435471,-0.07317617308737516,-0.029695747014436034,-0.027764294244361824,-0.0545714635107735, ,0.07820794673822998, ,0.04062751798941393, ,0.0009790195121261614, ,0.2340219742876253,-0.19594890121769848,0.10969335609000001,1.7653796341962105,0.8576673090276697,-1.1898510160465134, ,0.10182075274514032,0.10674571603877478,0.07658082461538462,0.0,0.07505123210798545,-0.07897801166584657, ,1.3992531299591064
0.01612774355092856,0.020784488813810658,-0.09677085423676193, ,0.01726686984252373,0.020151254810639133,-0.09810742751649537, ,0.001866821400957627, ,0.02723884490233557,0.004447016267435471,-0.07317617308737516,-0.029695747014436034,-0.027764294244361824,-0.0545714635107735, ,0.07820794673822998, ,0.04062751798941393, ,0.0009861219272368133, ,0.2340219742876253,-0.19594890121769848,0.10969335609000001,1.7653796341962105,0.8576673090276697,-1.1898510160465134, ,0.10182075274514032,0.10674571603877478,0.07658082461538462,0.0,0.07505123210798545,-0.07897801166584657, ,1.4015610218048096
0.01612774355092856,0.020784488813810658,-0.09677085423676193, ,0.017330676576136794,0.02014930458690941,-0.09824608398399624, ,0.00200669122496855, ,0.02723884490233557,0.004447016267435471,-0.07317617308737516,-0.029695747014436034,-0.027764294244361824,-0.0545714635107735, ,0.07820794673822998, ,0.04062751798941393, ,0.0009942216835680175, ,0.2340219742876253,-0.19594890121769848,0.10969335609000001,1.7653796341962105,0.8576673090276697,-1.1898510160465134, ,0.10182075274514032,0.10674571603877478,0.07658082461538462,0.0,0.07505123210798545,-0.07897801166584657, ,1.4038159847259521
0.01637637336467188,0.020806575131554768,-0.09741407990961058, ,0.017394355271244086,0.020147366717755143,-0.0983840201526501, ,0.001552941392970182, ,0.025461440444920446,0.0009159193757695668,-0.0635372276626794,-0.005953697459489611,-0.00833162460297571,0.05941914617470385, ,0.06845511782834278, ,0.01018955361824718, ,0.0009986210513585859, ,0.23504137502702296,-0.1949140550125524,0.11036742689000001,1.7643311844787881,0.8587604010257932,-1.1911507529767875, ,0.11099057492218804,0.11138138680571688,0.06664774694560671,-0.14896269557290098,0.13305116990879534,-0.14635453646944724, ,1.4069349765777588
0.01637637336467188,0.020806575131554768,-0.09741407990961058, ,0.01745790576680714,0.020145441302148705,-0.09852123767126286, ,0.0016830355273851122, ,0.025461440444920446,0.0009159193757695668,-0.0635372276626794,-0.005953697459489611,-0.00833162460297571,0.05941914617470385, ,0.06845511782834278, ,0.01018955361824718, ,0.001003968039452543, ,0.23504137502702296,-0.1949140550125524,0.11036742689000001,1.7643311844787881,0.8587604010257932,-1.1911507529767875, ,0.11099057492218804,0.11138138680571688,0.06664774694560671,-0.14896269557290098,0.13305116990879534,-0.14635453646944724, ,1.4091591835021973
0.01637637336467188,0.020806575131554768,-0.09741407990961058, ,0.01752132790357703,0.02014352843900586,-0.09865773818722587, ,0.0018158297618831372, ,0.025461440444920446,0.0009159193757695668,-0.0635372276626794,-0.005953697459489611,-0.00833162460297571,0.05941914617470385, ,0.06845511782834278, ,0.01018955361824718, ,0.0010102615411768112, ,0.23504137502702296,-0.1949140550125524,0.11036742689000001,1.7643311844787881,0.8587604010257932,-1.1911507529767875, ,0.11099057492218804,0.11138138680571688,0.06664774694560671,-0.14896269557290098,0.13305116990879534,-0.14635453646944724, ,1.4114670753479004
0.01637637336467188,0.020806575131554768,-0.09741407990961058, ,0.0175846215240918,0.020141628227185664,-0.09879352334651591, ,0.0019506107238485221, ,0.025461440444920446,0.0009159193757695668,-0.0635372276626794,-0.005953697459489611,-0.00833162460297571,0.05941914617470385, ,0.06845511782834278, ,0.01018955361824718, ,0.0010174949964281321, ,0.23504137502702296,-0.1949140550125524,0.11036742689000001,1.7643311844787881,0.8587604010257932,-1.1911507529767875, ,0.11099057492218804,0.11138138680571688,0.06664774694560671,-0.14896269557290098,0.13305116990879534,-0.14635453646944724, ,1.4138951301574707
0.01660429905965042,0.020802288752287894,-0.09795033401646341, ,0.01764778647267342,0.02013974076549086,-0.09892859479369517, ,0.0015763343440451717, ,0.024446854874829286,-0.0014698954659173801,-0.05379065009236081,0.01325924138132041,0.005678387303137748,-0.007335059418156946, ,0.059103666073353565, ,0.01440837364775003, ,0.0010217609456465828, ,0.23611483489654017,-0.19385604060878364,0.11093131304,1.7630730448178806,0.8601267660234476,-1.1926733257144546, ,0.12260586764660306,0.11891847313091576,0.05668616199288257,-0.08609762332585781,0.1464865552609263,-0.1594527459711336, ,1.4163861274719238
0.01660429905965042,0.020802288752287894,-0.09795033401646341, ,0.017710822595424683,0.02013786615266646,-0.09906295417191059, ,0.0017040467530022125, ,0.024446854874829286,-0.0014698954659173801,-0.05379065009236081,0.01325924138132041,0.005678387303137748,-0.007335059418156946, ,0.059103666073353565, ,0.01440837364775003, ,0.001026929777520489, ,0.23611483489654017,-0.19385604060878364,0.11093131304,1.7630730448178806,0.8601267660234476,-1.1926733257144546, ,0.12260586764660306,0.11891847313091576,0.05668616199288257,-0.08609762332585781,0.1464865552609263,-0.1594527459711336, ,1.4186899662017822
0.01660429905965042,0.020802288752287894,-0.09795033401646341, ,0.017773729740226323,0.020136004487400532,-0.09919660312289372, ,0.0018343090044895107, ,0.024446854874829286,-0.0014698954659173801,-0.05379065009236081,0.01325924138132041,0.005678387303137748,-0.007335059418156946, ,0.059103666073353565, ,0.01440837364775003, ,0.0010330002980240153, ,0.23611483489654017,-0.19385604060878364,0.11093131304,1.7630730448178806,0.8601267660234476,-1.1926733257144546, ,0.12260586764660306,0.11891847313091576,0.05668616199288257,-0.08609762332585781,0.1464865552609263,-0.1594527459711336, ,1.42256498336792
0.01687655707106451,0.02077439096155104,-0.0984863274638317, ,0.017836507756734267,0.020134155868323796,-0.09932954328696106, ,0.0014291323304345437, ,0.02399665341340529,-0.003056859281636499,-0.04377239304542422,0.009519126870131723,-0.026409378954022993,-0.06972917792347867, ,0.05001206011187627, ,0.02806970570641266, ,0.0010359565072211089, ,0.23759759960839127,-0.19251228508866858,0.11149779177000001,1.7626536649309117,0.8614931310211019,-1.1941958984521217, ,0.1375317993601026,0.11847308559109959,0.04643968373177843,-0.01607334116380337,0.11514434891307535,-0.13975976678881272, ,1.424889087677002
0.01687655707106451,0.02077439096155104,-0.0984863274638317, ,0.017899156496376398,0.02013232039400874,-0.09946177630301307, ,0.0015522450309833817, ,0.02399665341340529,-0.003056859281636499,-0.04377239304542422,0.009519126870131723,-0.026409378954022993,-0.06972917792347867, ,0.05001206011187627, ,0.02806970570641266, ,0.001039780866656385, ,0.23759759960839127,-0.19251228508866858,0.11149779177000001,1.7626536649309117,0.8614931310211019,-1.1941958984521217, ,0.1375317993601026,0.11847308559109959,0.04643968373177843,-0.01607334116380337,0.11514434891307535,-0.13975976678881272, ,1.4273850917816162
0.01687655707106451,0.02077439096155104,-0.0984863274638317, ,0.017961675812349927,0.020130498162970363,-0.09959330380853473, ,0.0016785342553802733, ,0.02399665341340529,-0.003056859281636499,-0.04377239304542422,0.009519126870131723,-0.026409378954022993,-0.06972917792347867, ,0.05001206011187627, ,0.02806970570641266, ,0.001044477582749943, ,0.23759759960839127,-0.19251228508866858,0.11149779177000001,1.7626536649309117,0.8614931310211019,-1.1941958984521217, ,0.1375317993601026,0.11847308559109959,0.04643968373177843,-0.01607334116380337,0.11514434891307535,-0.13975976678881272, ,1.429659128189087
0.01687655707106451,0.02077439096155104,-0.0984863274638317, ,0.018024065559618233,0.020128689273665647,-0.09972412743959527, ,0.0018071677235500898, ,0.02399665341340529,-0.003056859281636499,-0.04377239304542422,0.009519126870131723,-0.026409378954022993,-0.06972917792347867, ,0.05001206011187627, ,0.02806970570641266, ,0.0010500446640696521, ,0.23759759960839127,-0.19251228508866858,0.11149779177000001,1.7626536649309117,0.8614931310211019,-1.1941958984521217, ,0.1375317993601026,0.11847308559109959,0.04643968373177843,-0.01607334116380337,0.11514434891307535,-0.13975976678881272, ,1.4328820705413818
0.017023037315800495,0.020754097045111695,-0.09875166227020363, ,0.018086325594908075,0.020126893824492998,-0.09985424883084695, ,0.0016551927284015305, ,0.024134561134505145,-0.0031797795793576424,-0.043385419876417426,-0.021028537368091307,-0.051355629393865204,-0.06882728933961589, ,0.04974819290367744, ,0.05549275933217899, ,0.0010544297949706077, ,0.23843937749168173,-0.19178634819849147,0.11177908670000002,1.7624439749874272,0.8621763135199292,-1.1947529879706038, ,0.1371343086105069,0.11906768075090436,0.04590435596541788,-0.0011295640531751303,0.0867696654479073,-0.10307217662032436, ,1.4351871013641357
0.017023037315800495,0.020754097045111695,-0.09875166227020363, ,0.01814845577670643,0.020125111913792144,-0.09998366961552649, ,0.0017832641718204395, ,0.024134561134505145,-0.0031797795793576424,-0.043385419876417426,-0.021028537368091307,-0.051355629393865204,-0.06882728933961589, ,0.04974819290367744, ,0.05549275933217899, ,0.0010596732077537, ,0.23843937749168173,-0.19178634819849147,0.11177908670000002,1.7624439749874272,0.8621763135199292,-1.1947529879706038, ,0.1371343086105069,0.11906768075090436,0.04590435596541788,-0.0011295640531751303,0.0867696654479073,-0.10307217662032436, ,1.4374330043792725
0.017023037315800495,0.020754097045111695,-0.09875166227020363, ,0.018210455965257732,0.020123343639844228,-0.10011239142545367, ,0.0019129549762822023, ,0.024134561134505145,-0.0031797795793576424,-0.043385419876417426,-0.021028537368091307,-0.051355629393865204,-0.06882728933961589, ,0.04974819290367744, ,0.05549275933217899, ,0.0010657680775289034, ,0.23843937749168173,-0.19178634819849147,0.11177908670000002,1.7624439749874272,0.8621763135199292,-1.1947529879706038, ,0.1371343086105069,0.11906768075090436,0.04590435596541788,-0.0011295640531751303,0.0867696654479073,-0.10307217662032436, ,1.439661979675293
0.017023037315800495,0.020754097045111695,-0.09875166227020363, ,0.0182723260225611,0.020121589100871615,-0.10024041589103168, ,0.002043814060988678, ,0.024134561134505145,-0.0031797795793576424,-0.043385419876417426,-0.021028537368091307,-0.051355629393865204,-0.06882728933961589, ,0.04974819290367744, ,0.05549275933217899, ,0.0010727045738654977, ,0.23843937749168173,-0.19178634819849147,0.11177908670000002,1.7624439749874272,0.8621763135199292,-1.1947529879706038, ,0.1371343086105069,0.11906768075090436,0.04590435596541788,-0.0011295640531751303,0.0867696654479073,-0.10307217662032436, ,1.4418840408325195
0.017023037315800495,0.020754097045111695,-0.09875166227020363, ,0.018334065812366997,0.020119848395037204,-0.10036774464124673, ,0.0021754974830891067, ,0.024134561134505145,-0.0031797795793576424,-0.043385419876417426,-0.021028537368091307,-0.051355629393865204,-0.06882728933961589, ,0.04974819290367744, ,0.05549275933217899, ,0.001080470721113551, ,0.23843937749168173,-0.19178634819849147,0.11177908670000002,1.7624439749874272,0.8621763135199292,-1.1947529879706038, ,0.1371343086105069,0.11906768075090436,0.04590435596541788,-0.0011295640531751303,0.0867696654479073,-0.10307217662032436, ,1.4441330432891846
0.017355559978484137,0.020697893029913733,-0.09937377797119486, ,0.018395675200174672,0.020118121620444757,-0.10049437930366814, ,0.0016351519525630923, ,0.024535580070017125,-0.004849788269699249,-0.04891187689166727,-0.03674644060259702,-0.02122394898386968,0.05881222114367676, ,0.05493529681997494, ,0.042432027563176586, ,0.0010843496108439675, ,0.24029283338149562,-0.19007190150041364,0.11243500944000001,1.7611858353265202,0.8636793150173491,-1.1963052998718267, ,0.13107312369954527,0.1346055908630791,0.05138326296774194,-0.14702765909770435,0.13950892083719554,-0.1356163609735641, ,1.4463560581207275
0.017355559978484137,0.020697893029913733,-0.09937377797119486, ,0.01845715405322893,0.020116408875138325,-0.10062032150444773, ,0.0017622440546253156, ,0.024535580070017125,-0.004849788269699249,-0.04891187689166727,-0.03674644060259702,-0.02122394898386968,0.05881222114367676, ,0.05493529681997494, ,0.042432027563176586, ,0.0010890572111480047, ,0.24029283338149562,-0.19007190150041364,0.11243500944000001,1.7611858353265202,0.8636793150173491,-1.1963052998718267, ,0.13107312369954527,0.1346055908630791,0.05138326296774194,-0.14702765909770435,0.13950892083719554,-0.1356163609735641, ,1.448559045791626
0.017355559978484137,0.020697893029913733,-0.09937377797119486, ,0.018518502240517324,0.020114710257101993,-0.10074557286831978, ,0.0018905972842213753, ,0.024535580070017125,-0.004849788269699249,-0.04891187689166727,-0.03674644060259702,-0.02122394898386968,0.05881222114367676, ,0.05493529681997494, ,0.042432027563176586, ,0.0010945850737209245, ,0.24029283338149562,-0.19007190150041364,0.11243500944000001,1.7611858353265202,0.8636793150173491,-1.1963052998718267, ,0.13107312369954527,0.1346055908630791,0.05138326296774194,-0.14702765909770435,0.13950892083719554,-0.1356163609735641, ,1.4508249759674072
0.017355559978484137,0.020697893029913733,-0.09937377797119486, ,0.01857971963276748,0.02011302586426039,-0.10087013501860122, ,0.0020198318924992665, ,0.024535580070017125,-0.004849788269699249,-0.04891187689166727,-0.03674644060259702,-0.02122394898386968,0.05881222114367676, ,0.05493529681997494, ,0.042432027563176586, ,0.0011009223806988583, ,0.24029283338149562,-0.19007190150041364,0.11243500944000001,1.7611858353265202,0.8636793150173491,-1.1963052998718267, ,0.13107312369954527,0.1346055908630791,0.05138326296774194,-0.14702765909770435,0.13950892083719554,-0.1356163609735641, ,1.453150987625122
0.017616563487399043,0.02065587783242571,-0.09989885456157227, ,0.018640806102443477,0.020111355794477172,-0.10099400957719093, ,0.0015952873385441872, ,0.02473589931296415,-0.0034334236495619005,-0.051327664667965366,0.007818667043995964,0.015074615761441045,-0.03283657860832817, ,0.05708048942542076, ,0.01697113262350807, ,0.0011042854076229762, ,0.24165975710023335,-0.18868180958305322,0.11298852527000001,1.7603470755525819,0.865182316514769,-1.197612575552628, ,0.1255250549715222,0.12999581035406957,0.054179631020408174,-0.06087785388669459,0.15385620744153583,-0.1581746468652967, ,1.455461025238037
0.017616563487399043,0.02065587783242571,-0.09989885456157227, ,0.018701761523743754,0.020109700145556342,-0.10111719816456972, ,0.0017205597864315002, ,0.02473589931296415,-0.0034334236495619005,-0.051327664667965366,0.007818667043995964,0.015074615761441045,-0.03283657860832817, ,0.05708048942542076, ,0.01697113262350807, ,0.001108449423696007, ,0.24165975710023335,-0.18868180958305322,0.11298852527000001,1.7603470755525819,0.865182316514769,-1.197612575552628, ,0.1255250549715222,0.12999581035406957,0.054179631020408174,-0.06087785388669459,0.15385620744153583,-0.1581746468652967, ,1.4578230381011963
0.017616563487399043,0.02065587783242571,-0.09989885456157227, ,0.018762585772597505,0.020108059015240765,-0.10123970239980022, ,0.001846982799030351, ,0.02473589931296415,-0.0034334236495619005,-0.051327664667965366,0.007818667043995964,0.015074615761441045,-0.03283657860832817, ,0.05708048942542076, ,0.01697113262350807, ,0.0011134060235304655, ,0.24165975710023335,-0.18868180958305322,0.11298852527000001,1.7603470755525819,0.865182316514769,-1.197612575552628, ,0.1255250549715222,0.12999581035406957,0.054179631020408174,-0.06087785388669459,0.15385620744153583,-0.1581746468652967, ,1.460360050201416
0.017616563487399043,0.02065587783242571,-0.09989885456157227, ,0.01882327872666207,0.02010643250121268,-0.10136152390052694, ,0.001974196909069486, ,0.02473589931296415,-0.0034334236495619005,-0.051327664667965366,0.007818667043995964,0.015074615761441045,-0.03283657860832817, ,0.05708048942542076, ,0.01697113262350807, ,0.001119144629434059, ,0.24165975710023335,-0.18868180958305322,0.11298852527000001,1.7603470755525819,0.865182316514769,-1.197612575552628, ,0.1255250549715222,0.12999581035406957,0.054179631020408174,-0.06087785388669459,0.15385620744153583,-0.1581746468652967, ,1.4628510475158691
0.017616563487399043,0.02065587783242571,-0.09989885456157227, ,0.018883840265319835,0.020104820701093137,-0.10148266428297525, ,0.002101929501068099, ,0.026010171131502217,-0.0032097517781556895,-0.053678766177949214,-0.01748547350539878,0.007564692270845626,-0.046156888936806806, ,0.059734759120250495, ,0.019039975936362977, ,0.0011256531385177282, ,0.24232391212741666,-0.18799448635724725,0.11327759794000002,1.7601373856090976,0.8660021355133616,-1.1983627617149468, ,0.13053224423448526,0.1338461799132169,0.05668616199288257,-0.02811840001489428,0.1456966677472474,-0.1231709471258279, ,1.465291976928711
0.017748261369296407,0.020638764243426477,-0.10017245491621198, ,0.018944270269675653,0.020103223712442296,-0.10160312516195212, ,0.0019401181155175471, ,0.026010171131502217,-0.0032097517781556895,-0.053678766177949214,-0.01748547350539878,0.007564692270845626,-0.046156888936806806, ,0.059734759120250495, ,0.019039975936362977, ,0.0011310114607348324, ,0.24232391212741666,-0.18799448635724725,0.11327759794000002,1.7601373856090976,0.8660021355133616,-1.1983627617149468, ,0.13053224423448526,0.1338461799132169,0.05668616199288257,-0.02811840001489428,0.1456966677472474,-0.1231709471258279, ,1.4677281379699707
0.017748261369296407,0.020638764243426477,-0.10017245491621198, ,0.019004568622553265,0.020101641632758186,-0.10172290815084518, ,0.0020665705519680405, ,0.026010171131502217,-0.0032097517781556895,-0.053678766177949214,-0.01748547350539878,0.007564692270845626,-0.046156888936806806, ,0.059734759120250495, ,0.019039975936362977, ,0.00113712622603701, ,0.24232391212741666,-0.18799448635724725,0.11327759794000002,1.7601373856090976,0.8660021355133616,-1.1983627617149468, ,0.13053224423448526,0.1338461799132169,0.05668616199288257,-0.02811840001489428,0.1456966677472474,-0.1231709471258279, ,1.470182180404663
0.017748261369296407,0.020638764243426477,-0.10017245491621198, ,0.01906473520849307,0.02010007455947798,-0.10184201486162357, ,0.0021933354408764077, ,0.026010171131502217,-0.0032097517781556895,-0.053678766177949214,-0.01748547350539878,0.007564692270845626,-0.046156888936806806, ,0.059734759120250495, ,0.019039975936362977, ,0.0011439847274320712, ,0.24232391212741666,-0.18799448635724725,0.11327759794000002,1.7601373856090976,0.8660021355133616,-1.1983627617149468, ,0.13053224423448526,0.1338461799132169,0.05668616199288257,-0.02811840001489428,0.1456966677472474,-0.1231709471258279, ,1.4727489948272705
0.017748261369296407,0.020638764243426477,-0.10017245491621198, ,0.019124769913748927,0.020098522589976832,-0.1019604469048367, ,0.002320248298880748, ,0.026010171131502217,-0.0032097517781556895,-0.053678766177949214,-0.01748547350539878,0.007564692270845626,-0.046156888936806806, ,0.059734759120250495, ,0.019039975936362977, ,0.001151573524667224, ,0.24232391212741666,-0.18799448635724725,0.11327759794000002,1.7601373856090976,0.8660021355133616,-1.1983627617149468, ,0.13053224423448526,0.1338461799132169,0.05668616199288257,-0.02811840001489428,0.1456966677472474,-0.1231709471258279, ,1.475412130355835
0.017748261369296407,0.020638764243426477,-0.10017245491621198, ,0.019184672626284583,0.02009698582156695,-0.10207820588961396, ,0.002447179586834107, ,0.026010171131502217,-0.0032097517781556895,-0.053678766177949214,-0.01748547350539878,0.007564692270845626,-0.046156888936806806, ,0.059734759120250495, ,0.019039975936362977, ,0.0011598786917323962, ,0.24232391212741666,-0.18799448635724725,0.11327759794000002,1.7601373856090976,0.8660021355133616,-1.1983627617149468, ,0.13053224423448526,0.1338461799132169,0.05668616199288257,-0.02811840001489428,0.1456966677472474,-0.1231709471258279, ,1.4777450561523438
0.017748261369296407,0.020638764243426477,-0.10017245491621198, ,0.01924444323577198,0.020095464351499434,-0.10219529342366585, ,0.0025740261415487724, ,0.026010171131502217,-0.0032097517781556895,-0.053678766177949214,-0.01748547350539878,0.007564692270845626,-0.046156888936806806, ,0.059734759120250495, ,0.019039975936362977, ,0.001168886000329953, ,0.24232391212741666,-0.18799448635724725,0.11327759794000002,1.7601373856090976,0.8660021355133616,-1.1983627617149468, ,0.13053224423448526,0.1338461799132169,0.05668616199288257,-0.02811840001489428,0.1456966677472474,-0.1231709471258279, ,1.4799699783325195
0.017748261369296407,0.020638764243426477,-0.10017245491621198, ,0.019304081633587183,0.02009395827696202,-0.10231171111328209, ,0.0027007049658516915, ,0.026010171131502217,-0.0032097517781556895,-0.053678766177949214,-0.01748547350539878,0.007564692270845626,-0.046156888936806806, ,0.059734759120250495, ,0.019039975936362977, ,0.0011785810570737615, ,0.24232391212741666,-0.18799448635724725,0.11327759794000002,1.7601373856090976,0.8660021355133616,-1.1983627617149468, ,0.13053224423448526,0.1338461799132169,0.05668616199288257,-0.02811840001489428,0.1456966677472474,-0.1231709471258279, ,1.4822580814361572
0.017748261369296407,0.020638764243426477,-0.10017245491621198, ,0.01936358771280833,0.020092467695080534,-0.1024274605633334, ,0.002827148666647694, ,0.026010171131502217,-0.0032097517781556895,-0.053678766177949214,-0.01748547350539878,0.007564692270845626,-0.046156888936806806, ,0.059734759120250495, ,0.019039975936362977, ,0.0011889494068195094, ,0.24587636924955994,-0.1847354930843245,0.11469573920000001,1.7588792459481901,0.8684615925091395,-1.200449962721623, ,0.15531414330355284,0.12535923587644754,0.05274440900662252,-0.08416896643315215,0.04990481665580928,-0.03798444909311984, ,1.4846360683441162
0.018440359535496244,0.020559456790341175,-0.10151420507232867, ,0.01942296136821171,0.020090992702916952,-0.10254254337726877, ,0.001497479426325814, ,0.028568718296418615,-0.003791391499665558,-0.049782107087854334,-0.10434640928973853,-0.12176853774313232,0.038146253184667106, ,0.05752220876070787, ,0.1603603572140795, ,0.0011908777194414237, ,0.24587636924955994,-0.1847354930843245,0.11469573920000001,1.7588792459481901,0.8684615925091395,-1.200449962721623, ,0.15531414330355284,0.12535923587644754,0.05274440900662252,-0.08416896643315215,0.04990481665580928,-0.03798444909311984, ,1.4872691631317139
0.018440359535496244,0.020559456790341175,-0.10151420507232867, ,0.01948220249627001,0.02008953339747111,-0.10265696115711792, ,0.0016162166375220924, ,0.028568718296418615,-0.003791391499665558,-0.049782107087854334,-0.10434640928973853,-0.12176853774313232,0.038146253184667106, ,0.05752220876070787, ,0.1603603572140795, ,0.0011935195760754652, ,0.24587636924955994,-0.1847354930843245,0.11469573920000001,1.7588792459481901,0.8684615925091395,-1.200449962721623, ,0.15531414330355284,0.12535923587644754,0.05274440900662252,-0.08416896643315215,0.04990481665580928,-0.03798444909311984, ,1.4894981384277344
0.018440359535496244,0.020559456790341175,-0.10151420507232867, ,0.01954131099514839,0.020088089875678936,-0.10277071550348936, ,0.0017358281448242561, ,0.028568718296418615,-0.003791391499665558,-0.049782107087854334,-0.10434640928973853,-0.12176853774313232,0.038146253184667106, ,0.05752220876070787, ,0.1603603572140795, ,0.0011968671598331737, ,0.24587636924955994,-0.1847354930843245,0.11469573920000001,1.7588792459481901,0.8684615925091395,-1.200449962721623, ,0.15531414330355284,0.12535923587644754,0.05274440900662252,-0.08416896643315215,0.04990481665580928,-0.03798444909311984, ,1.4917011260986328
0.018440359535496244,0.020559456790341175,-0.10151420507232867, ,0.01960028676470207,0.020086662234413084,-0.10288380801557091, ,0.0018560113392181007, ,0.028568718296418615,-0.003791391499665558,-0.049782107087854334,-0.10434640928973853,-0.12176853774313232,0.038146253184667106, ,0.05752220876070787, ,0.1603603572140795, ,0.0012009109891545535, ,0.24587636924955994,-0.1847354930843245,0.11469573920000001,1.7588792459481901,0.8684615925091395,-1.200449962721623, ,0.15531414330355284,0.12535923587644754,0.05274440900662252,-0.08416896643315215,0.04990481665580928,-0.03798444909311984, ,1.4939110279083252
