NicholasDascanio/dvrk_moveit_final/test/execution/third_experiment_notsharpbends/thirdexp_500vel4.0/thirdexp_500vel4.0_1.csv
Current Position (x),Current Position (y),Current Position (z), ,Planned Position (x),Planned Position (y),Planned Position (z), ,Position Error,,Cartesian linear Velocity(x),Cartesian linear Velocity(y),Cartesian linear Velocity(z),Cartesian Angular Velocity(x),Cartesian Angular Velocity(y),Cartesian Angular Velocity(z), ,Total Linear Velocity, ,Total Angular Velocity, ,MSE, ,Joint 1 Position,Joint 2 Position,Joint 3 Position,Joint 4 Position,Joint 5 Position,Joint 6 Position, ,Joint 1 Velocity,Joint 2 Velocity,Joint 3 Velocity,Joint 4 Velocity,Joint 5 Velocity,Joint 6 Velocity, ,Time Stamp
0.009654914407756626,0.020088640742102842,-0.08003380588544888, ,0.01017485542072932,0.020052359625148352,-0.08060503556278797, ,0.0007732776478674794, ,1.144106680148602e-06,6.032405284762777e-05,1.527947427096094e-05,0.00021997839234497995,-4.702677404110663e-05,0.00012061867112821667, ,6.223955869104396e-05, ,0.00022494890658857455, ,6.443980398895663e-05, ,0.0,0.0,0.0,0.0,0.0,0.0, ,0.0,0.0,0.0,0.0,0.0,0.0, ,0.023027896881103516
0.009654914407756626,0.020088640742102842,-0.08003380588544888, ,0.010204013498358033,0.02008288314638857,-0.08062560778878194, ,0.0008073242557958598, ,1.144106680148602e-06,6.032405284762777e-05,1.527947427096094e-05,0.00021997839234497995,-4.702677404110663e-05,0.00012061867112821667, ,6.223955869104396e-05, ,0.00022494890658857455, ,7.184554107560632e-05, ,0.0,0.0,0.0,0.0,0.0,0.0, ,0.0,0.0,0.0,0.0,0.0,0.0, ,0.04855489730834961
0.009654914407756626,0.020088640742102842,-0.08003380588544888, ,0.010233226289497598,0.020113007663090567,-0.08064688940990054, ,0.0008431546639586823, ,1.144106680148602e-06,6.032405284762777e-05,1.527947427096094e-05,0.00021997839234497995,-4.702677404110663e-05,0.00012061867112821667, ,6.223955869104396e-05, ,0.00022494890658857455, ,7.574239273818817e-05, ,0.0,0.0,0.0,0.0,0.0,0.0, ,0.0,0.0,0.0,0.0,0.0,0.0, ,0.07105588912963867
0.009654914407756626,0.020088640742102842,-0.08003380588544888, ,0.010262493789502673,0.020142735487298755,-0.08066887608263971, ,0.0008805640816776055, ,1.144106680148602e-06,6.032405284762777e-05,1.527947427096094e-05,0.00021997839234497995,-4.702677404110663e-05,0.00012061867112821667, ,6.223955869104396e-05, ,0.00022494890658857455, ,7.867430117380065e-05, ,0.0,0.0,0.0,0.0,0.0,0.0, ,0.0,0.0,0.0,0.0,0.0,0.0, ,0.09609198570251465
0.009654914407756626,0.020088640742102842,-0.08003380588544888, ,0.010291815993441719,0.020172068925175715,-0.0806915634751889, ,0.0009193742102319497, ,1.144106680148602e-06,6.032405284762777e-05,1.527947427096094e-05,0.00021997839234497995,-4.702677404110663e-05,0.00012061867112821667, ,6.223955869104396e-05, ,0.00022494890658857455, ,8.122490114483802e-05, ,0.0,0.0,0.0,0.0,0.0,0.0, ,0.0,0.0,0.0,0.0,0.0,0.0, ,0.11815285682678223
0.009654914407756626,0.020088640742102842,-0.08003380588544888, ,0.010321192896097363,0.020201010277010354,-0.08071494726741898, ,0.0009594308305621057, ,1.144106680148602e-06,6.032405284762777e-05,1.527947427096094e-05,0.00021997839234497995,-4.702677404110663e-05,0.00012061867112821667, ,6.223955869104396e-05, ,0.00022494890658857455, ,8.359880145312391e-05, ,0.0,0.0,0.0,0.0,0.0,0.0, ,0.0,0.0,0.0,0.0,0.0,0.0, ,0.14499378204345703
0.009654914407756626,0.020088640742102842,-0.08003380588544888, ,0.010350624491967025,0.020229561837222437,-0.08073902315086788, ,0.0010006011531908205, ,1.144106680148602e-06,6.032405284762777e-05,1.527947427096094e-05,0.00021997839234497995,-4.702677404110663e-05,0.00012061867112821667, ,6.223955869104396e-05, ,0.00022494890658857455, ,8.58850950456181e-05, ,0.0,0.0,0.0,0.0,0.0,0.0, ,0.0,0.0,0.0,0.0,0.0,0.0, ,0.16727900505065918
0.009654914407756626,0.020088640742102842,-0.08003380588544888, ,0.010380110775263428,0.020257725894370266,-0.08076378682872923, ,0.0010427711818586207, ,1.144106680148602e-06,6.032405284762777e-05,1.527947427096094e-05,0.00021997839234497995,-4.702677404110663e-05,0.00012061867112821667, ,6.223955869104396e-05, ,0.00022494890658857455, ,8.812802469686736e-05, ,0.0,0.0,0.0,0.0,0.0,0.0, ,0.0,0.0,0.0,0.0,0.0,0.0, ,0.19826889038085938
0.009654914407756626,0.020088640742102842,-0.08003380588544888, ,0.010409651739915054,0.020285504731155875,-0.08078923401583918, ,0.001085843234967403, ,1.144106680148602e-06,6.032405284762777e-05,1.527947427096094e-05,0.00021997839234497995,-4.702677404110663e-05,0.00012061867112821667, ,6.223955869104396e-05, ,0.00022494890658857455, ,9.134440945176404e-05, ,0.0,0.0,0.0,0.0,0.0,0.0, ,0.0,0.0,0.0,0.0,0.0,0.0, ,0.2188568115234375
0.009654914407756626,0.020088640742102842,-0.08003380588544888, ,0.010439247379566686,0.020312900624431945,-0.08081536043866336, ,0.0011297336965590367, ,1.144106680148602e-06,6.032405284762777e-05,1.527947427096094e-05,0.00021997839234497995,-4.702677404110663e-05,0.00012061867112821667, ,6.223955869104396e-05, ,0.00022494890658857455, ,9.442074956669565e-05, ,0.0,0.0,0.0,0.0,0.0,0.0, ,0.0,0.0,0.0,0.0,0.0,0.0, ,0.23949980735778809
0.009654914407756626,0.020088640742102842,-0.08003380588544888, ,0.010468897687579958,0.02033991584520814,-0.08084216183528403, ,0.0011743710226782746, ,1.144106680148602e-06,6.032405284762777e-05,1.527947427096094e-05,0.00021997839234497995,-4.702677404110663e-05,0.00012061867112821667, ,6.223955869104396e-05, ,0.00022494890658857455, ,9.739858696649394e-05, ,0.0,0.0,0.0,0.0,0.0,0.0, ,0.0,0.0,0.0,0.0,0.0,0.0, ,0.2612729072570801
0.009654914407756626,0.020088640742102842,-0.08003380588544888, ,0.010498602657033769,0.02036655265865698,-0.08086963395538813, ,0.0012196940017190738, ,1.144106680148602e-06,6.032405284762777e-05,1.527947427096094e-05,0.00021997839234497995,-4.702677404110663e-05,0.00012061867112821667, ,6.223955869104396e-05, ,0.00022494890658857455, ,0.00010030627102599078, ,0.0,0.0,0.0,0.0,0.0,0.0, ,0.0,0.0,0.0,0.0,0.0,0.0, ,0.2809269428253174
0.009654914407756626,0.020088640742102842,-0.08003380588544888, ,0.010528362280724903,0.02039281332412035,-0.08089777256025364, ,0.0012656502524857338, ,1.144106680148602e-06,6.032405284762777e-05,1.527947427096094e-05,0.00021997839234497995,-4.702677404110663e-05,0.00012061867112821667, ,6.223955869104396e-05, ,0.00022494890658857455, ,0.0001031637026263988, ,0.0,0.0,0.0,0.0,0.0,0.0, ,0.0,0.0,0.0,0.0,0.0,0.0, ,0.3016479015350342
0.009654914407756626,0.020088640742102842,-0.08003380588544888, ,0.01055817655116841,0.02041870009511594,-0.080926573422737, ,0.0013121949366872933, ,1.144106680148602e-06,6.032405284762777e-05,1.527947427096094e-05,0.00021997839234497995,-4.702677404110663e-05,0.00012061867112821667, ,6.223955869104396e-05, ,0.00022494890658857455, ,0.00010598518507529367, ,0.0,0.0,0.0,0.0,0.0,0.0, ,0.0,0.0,0.0,0.0,0.0,0.0, ,0.32178783416748047
0.009654914407756626,0.020088640742102842,-0.08003380588544888, ,0.010588045460598234,0.02044421521934329,-0.08095603232726087, ,0.0013592896603076565, ,1.144106680148602e-06,6.032405284762777e-05,1.527947427096094e-05,0.00021997839234497995,-4.702677404110663e-05,0.00012061867112821667, ,6.223955869104396e-05, ,0.00022494890658857455, ,0.00010878120572791445, ,0.0,0.0,0.0,0.0,0.0,0.0, ,0.0,0.0,0.0,0.0,0.0,0.0, ,0.34285497665405273
0.009654914407756626,0.020088640742102842,-0.08003380588544888, ,0.010617969000967632,0.02046936093868985,-0.08098614506980041, ,0.001406901538717406, ,1.144106680148602e-06,6.032405284762777e-05,1.527947427096094e-05,0.00021997839234497995,-4.702677404110663e-05,0.00012061867112821667, ,6.223955869104396e-05, ,0.00022494890658857455, ,0.00011155958681340911, ,0.0,0.0,0.0,0.0,0.0,0.0, ,0.0,0.0,0.0,0.0,0.0,0.0, ,0.3646249771118164
0.009654914407756626,0.020088640742102842,-0.08003380588544888, ,0.010647947163949664,0.020494139489238186,-0.08101690745787103, ,0.0014550024022315505, ,1.144106680148602e-06,6.032405284762777e-05,1.527947427096094e-05,0.00021997839234497995,-4.702677404110663e-05,0.00012061867112821667, ,6.223955869104396e-05, ,0.00022494890658857455, ,0.00011432625013188069, ,0.0,0.0,0.0,0.0,0.0,0.0, ,0.0,0.0,0.0,0.0,0.0,0.0, ,0.38847994804382324
0.009654914407756626,0.020088640742102842,-0.08003380588544888, ,0.010677979940937764,0.02051855310127059,-0.08104831531051604, ,0.0015035681212696957, ,1.144106680148602e-06,6.032405284762777e-05,1.527947427096094e-05,0.00021997839234497995,-4.702677404110663e-05,0.00012061867112821667, ,6.223955869104396e-05, ,0.00022494890658857455, ,0.0001177704496652997, ,0.0,0.0,0.0,0.0,0.0,0.0, ,0.0,0.0,0.0,0.0,0.0,0.0, ,0.4059410095214844
0.009654914407756626,0.020088640742102842,-0.08003380588544888, ,0.010708067323046187,0.020542603999277563,-0.081080364458293, ,0.001552578032899187, ,1.144106680148602e-06,6.032405284762777e-05,1.527947427096094e-05,0.00021997839234497995,-4.702677404110663e-05,0.00012061867112821667, ,6.223955869104396e-05, ,0.00022494890658857455, ,0.00012118058617690187, ,0.0,0.0,0.0,0.0,0.0,0.0, ,0.0,0.0,0.0,0.0,0.0,0.0, ,0.42417287826538086
0.009654914407756626,0.020088640742102842,-0.08003380588544888, ,0.010738209301110491,0.020566294401961845,-0.08111305074326151, ,0.001602014453074089, ,1.144106680148602e-06,6.032405284762777e-05,1.527947427096094e-05,0.00021997839234497995,-4.702677404110663e-05,0.00012061867112821667, ,6.223955869104396e-05, ,0.00022494890658857455, ,0.00012456331218577284, ,0.0,0.0,0.0,0.0,0.0,0.0, ,0.0,0.0,0.0,0.0,0.0,0.0, ,0.4422287940979004
0.009654914407756626,0.020088640742102842,-0.08003380588544888, ,0.010768405865688079,0.020589626522246163,-0.08114637001897002, ,0.001651862261203929, ,1.144106680148602e-06,6.032405284762777e-05,1.527947427096094e-05,0.00021997839234497995,-4.702677404110663e-05,0.00012061867112821667, ,6.223955869104396e-05, ,0.00022494890658857455, ,0.00012792411097406898, ,0.0,0.0,0.0,0.0,0.0,0.0, ,0.0,0.0,0.0,0.0,0.0,0.0, ,0.4603087902069092
0.009654914407756626,0.020088640742102842,-0.08003380588544888, ,0.010798657007058602,0.020612602567279273,-0.08118031815044371, ,0.0017021085457407938, ,1.144106680148602e-06,6.032405284762777e-05,1.527947427096094e-05,0.00021997839234497995,-4.702677404110663e-05,0.00012061867112821667, ,6.223955869104396e-05, ,0.00022494890658857455, ,0.00013126753786051352, ,0.0,0.0,0.0,0.0,0.0,0.0, ,0.0,0.0,0.0,0.0,0.0,0.0, ,0.47878193855285645
0.009654914407756626,0.020088640742102842,-0.08003380588544888, ,0.010828962715224615,0.020635224738441236,-0.08121489101417095, ,0.001752742301255417, ,1.144106680148602e-06,6.032405284762777e-05,1.527947427096094e-05,0.00021997839234497995,-4.702677404110663e-05,0.00012061867112821667, ,6.223955869104396e-05, ,0.00022494890658857455, ,0.00013459740515137282, ,0.0,0.0,0.0,0.0,0.0,0.0, ,0.0,0.0,0.0,0.0,0.0,0.0, ,0.4966847896575928
0.009654914407756626,0.020088640742102842,-0.08003380588544888, ,0.010859322979911844,0.020657495231351294,-0.08125008449809068, ,0.0018037541690011274, ,1.144106680148602e-06,6.032405284762777e-05,1.527947427096094e-05,0.00021997839234497995,-4.702677404110663e-05,0.00012061867112821667, ,6.223955869104396e-05, ,0.00022494890658857455, ,0.00013791692536959266, ,0.0,0.0,0.0,0.0,0.0,0.0, ,0.0,0.0,0.0,0.0,0.0,0.0, ,0.515373945236206
0.009654914407756626,0.020088640742102842,-0.08003380588544888, ,0.010889737790569906,0.020679416235872494,-0.08128589450157986, ,0.0018551362142511254, ,1.144106680148602e-06,6.032405284762777e-05,1.527947427096094e-05,0.00021997839234497995,-4.702677404110663e-05,0.00012061867112821667, ,6.223955869104396e-05, ,0.00022494890658857455, ,0.0001412288232167045, ,0.0,0.0,0.0,0.0,0.0,0.0, ,0.0,0.0,0.0,0.0,0.0,0.0, ,0.5334060192108154
0.009654914407756626,0.020088640742102842,-0.08003380588544888, ,0.010920207136372567,0.020700989936119255,-0.08132231693544083, ,0.0019068817347838523, ,1.144106680148602e-06,6.032405284762777e-05,1.527947427096094e-05,0.00021997839234497995,-4.702677404110663e-05,0.00012061867112821667, ,6.223955869104396e-05, ,0.00022494890658857455, ,0.00014453542385096073, ,0.0,0.0,0.0,0.0,0.0,0.0, ,0.0,0.0,0.0,0.0,0.0,0.0, ,0.5515069961547852
0.009654914407756626,0.020088640742102842,-0.08003380588544888, ,0.010950731006218442,0.02072221851046285,-0.081359347721888, ,0.0019589850957982325, ,1.144106680148602e-06,6.032405284762777e-05,1.527947427096094e-05,0.00021997839234497995,-4.702677404110663e-05,0.00012061867112821667, ,6.223955869104396e-05, ,0.00022494890658857455, ,0.0001484496268627025, ,0.0,0.0,0.0,0.0,0.0,0.0, ,0.0,0.0,0.0,0.0,0.0,0.0, ,0.57086181640625
0.009654914407756626,0.020088640742102842,-0.08003380588544888, ,0.0109813093887313,0.0207431041315378,-0.08139698279453535, ,0.002011441587303005, ,1.144106680148602e-06,6.032405284762777e-05,1.527947427096094e-05,0.00021997839234497995,-4.702677404110663e-05,0.00012061867112821667, ,6.223955869104396e-05, ,0.00022494890658857455, ,0.00015235442284368278, ,0.0,0.0,0.0,0.0,0.0,0.0, ,0.0,0.0,0.0,0.0,0.0,0.0, ,0.5861828327178955
0.009654914407756626,0.020088640742102842,-0.08003380588544888, ,0.011011942272260666,0.02076364896624842,-0.08143521809838361, ,0.002064247300656387, ,1.144106680148602e-06,6.032405284762777e-05,1.527947427096094e-05,0.00021997839234497995,-4.702677404110663e-05,0.00012061867112821667, ,6.223955869104396e-05, ,0.00022494890658857455, ,0.00015625194761223983, ,0.0,0.0,0.0,0.0,0.0,0.0, ,0.0,0.0,0.0,0.0,0.0,0.0, ,0.6013929843902588
0.009654914407756626,0.020088640742102842,-0.08003380588544888, ,0.011042629644882273,0.0207838551757746,-0.08147404958980736, ,0.0021173990214601677, ,1.144106680148602e-06,6.032405284762777e-05,1.527947427096094e-05,0.00021997839234497995,-4.702677404110663e-05,0.00012061867112821667, ,6.223955869104396e-05, ,0.00022494890658857455, ,0.00016014409737716184, ,0.0,0.0,0.0,0.0,0.0,0.0, ,0.0,0.0,0.0,0.0,0.0,0.0, ,0.6186318397521973
0.009654914407756626,0.020088640742102842,-0.08003380588544888, ,0.011073371494398498,0.020803724915578622,-0.08151347323654236, ,0.0021708941364543956, ,1.144106680148602e-06,6.032405284762777e-05,1.527947427096094e-05,0.00021997839234497995,-4.702677404110663e-05,0.00012061867112821667, ,6.223955869104396e-05, ,0.00022494890658857455, ,0.00016403256202462206, ,0.0,0.0,0.0,0.0,0.0,0.0, ,0.0,0.0,0.0,0.0,0.0,0.0, ,0.6344239711761475
0.009654914407756626,0.020088640742102842,-0.08003380588544888, ,0.011104167808338877,0.02082326033541079,-0.08155348501767282, ,0.0022247305524238314, ,1.144106680148602e-06,6.032405284762777e-05,1.527947427096094e-05,0.00021997839234497995,-4.702677404110663e-05,0.00012061867112821667, ,6.223955869104396e-05, ,0.00022494890658857455, ,0.00016791885306524111, ,0.0,0.0,0.0,0.0,0.0,0.0, ,0.0,0.0,0.0,0.0,0.0,0.0, ,0.6524698734283447
0.009654914407756626,0.020088640742102842,-0.08003380588544888, ,0.011135018573960567,0.020842463579315993,-0.08159408092361815, ,0.002278906625435205, ,1.144106680148602e-06,6.032405284762777e-05,1.527947427096094e-05,0.00021997839234497995,-4.702677404110663e-05,0.00012061867112821667, ,6.223955869104396e-05, ,0.00022494890658857455, ,0.0001718043271989683, ,0.0,0.0,0.0,0.0,0.0,0.0, ,0.0,0.0,0.0,0.0,0.0,0.0, ,0.668848991394043
0.009654914407756626,0.020088640742102842,-0.08003380588544888, ,0.01116592377824889,0.02086133678564011,-0.08163525695612094, ,0.002333421098981118, ,1.144106680148602e-06,6.032405284762777e-05,1.527947427096094e-05,0.00021997839234497995,-4.702677404110663e-05,0.00012061867112821667, ,6.223955869104396e-05, ,0.00022494890658857455, ,0.00017569020626628218, ,0.0,0.0,0.0,0.0,0.0,0.0, ,0.0,0.0,0.0,0.0,0.0,0.0, ,0.6846258640289307
0.009654914407756626,0.020088640742102842,-0.08003380588544888, ,0.011196883407917732,0.020879882087036204,-0.08167700912823325, ,0.002388273049817979, ,1.144106680148602e-06,6.032405284762777e-05,1.527947427096094e-05,0.00021997839234497995,-4.702677404110663e-05,0.00012061867112821667, ,6.223955869104396e-05, ,0.00022494890658857455, ,0.00017957759420572514, ,0.0,0.0,0.0,0.0,0.0,0.0, ,0.0,0.0,0.0,0.0,0.0,0.0, ,0.7054958343505859
0.009654914407756626,0.020088640742102842,-0.08003380588544888, ,0.011227897449409972,0.020898101610469993,-0.08171933346430453, ,0.002443461840469317, ,1.144106680148602e-06,6.032405284762777e-05,1.527947427096094e-05,0.00021997839234497995,-4.702677404110663e-05,0.00012061867112821667, ,6.223955869104396e-05, ,0.00022494890658857455, ,0.00018407100300584019, ,0.0,0.0,0.0,0.0,0.0,0.0, ,0.0,0.0,0.0,0.0,0.0,0.0, ,0.719045877456665
0.009654914407756626,0.020088640742102842,-0.08003380588544888, ,0.01125896588889816,0.02091599747722742,-0.08176222599996835, ,0.0024989870775143776, ,1.144106680148602e-06,6.032405284762777e-05,1.527947427096094e-05,0.00021997839234497995,-4.702677404110663e-05,0.00012061867112821667, ,6.223955869104396e-05, ,0.00022494890658857455, ,0.00018856958706867674, ,0.0,0.0,0.0,0.0,0.0,0.0, ,0.0,0.0,0.0,0.0,0.0,0.0, ,0.7367959022521973
0.009654914407756626,0.020088640742102842,-0.08003380588544888, ,0.011290088712284655,0.020933571802920048,-0.08180568278213013, ,0.002554848574909125, ,1.144106680148602e-06,6.032405284762777e-05,1.527947427096094e-05,0.00021997839234497995,-4.702677404110663e-05,0.00012061867112821667, ,6.223955869104396e-05, ,0.00022494890658857455, ,0.00019307411571581936, ,0.0,0.0,0.0,0.0,0.0,0.0, ,0.0,0.0,0.0,0.0,0.0,0.0, ,0.7510499954223633
0.009654914407756626,0.020088640742102842,-0.08003380588544888, ,0.011321265905202525,0.0209508266974909,-0.08184969986895366, ,0.0026110463216950886, ,1.144106680148602e-06,6.032405284762777e-05,1.527947427096094e-05,0.00021997839234497995,-4.702677404110663e-05,0.00012061867112821667, ,6.223955869104396e-05, ,0.00022494890658857455, ,0.00019758530089408077, ,0.0,0.0,0.0,0.0,0.0,0.0, ,0.0,0.0,0.0,0.0,0.0,0.0, ,0.7641029357910156
0.009654914407756626,0.020088640742102842,-0.08003380588544888, ,0.011352497453015616,0.020967764265221896,-0.08189427332984844, ,0.0026675804535426268, ,1.144106680148602e-06,6.032405284762777e-05,1.527947427096094e-05,0.00021997839234497995,-4.702677404110663e-05,0.00012061867112821667, ,6.223955869104396e-05, ,0.00022494890658857455, ,0.00020210380287023365, ,0.0,0.0,0.0,0.0,0.0,0.0, ,0.0,0.0,0.0,0.0,0.0,0.0, ,0.7776648998260498
0.009654914407756626,0.020088640742102842,-0.08003380588544888, ,0.011383783340819239,0.020984386604739277,-0.08193939924545755, ,0.002724451227650899, ,1.144106680148602e-06,6.032405284762777e-05,1.527947427096094e-05,0.00021997839234497995,-4.702677404110663e-05,0.00012061867112821667, ,6.223955869104396e-05, ,0.00022494890658857455, ,0.00020663023523678902, ,0.0,0.0,0.0,0.0,0.0,0.0, ,0.0,0.0,0.0,0.0,0.0,0.0, ,0.7917969226837158
0.009654914407756626,0.020088640742102842,-0.08003380588544888, ,0.01141512355344062,0.021000695809019847,-0.08198507370764402, ,0.002781659000591682, ,1.144106680148602e-06,6.032405284762777e-05,1.527947427096094e-05,0.00021997839234497995,-4.702677404110663e-05,0.00012061867112821667, ,6.223955869104396e-05, ,0.00022494890658857455, ,0.00021116516932258593, ,0.0,0.0,0.0,0.0,0.0,0.0, ,0.0,0.0,0.0,0.0,0.0,0.0, ,0.8055078983306885
0.009654914407756626,0.020088640742102842,-0.08003380588544888, ,0.011446518075439316,0.02101669396539748,-0.08203129281947849, ,0.0028392042087424154, ,1.144106680148602e-06,6.032405284762777e-05,1.527947427096094e-05,0.00021997839234497995,-4.702677404110663e-05,0.00012061867112821667, ,6.223955869104396e-05, ,0.00022494890658857455, ,0.0002157091380879238, ,0.0,0.0,0.0,0.0,0.0,0.0, ,0.0,0.0,0.0,0.0,0.0,0.0, ,0.8190369606018066
0.009654914407756626,0.020088640742102842,-0.08003380588544888, ,0.0114779668911077,0.021032383155569063,-0.08207805269522604, ,0.0028970873509978376, ,1.144106680148602e-06,6.032405284762777e-05,1.527947427096094e-05,0.00021997839234497995,-4.702677404110663e-05,0.00012061867112821667, ,6.223955869104396e-05, ,0.00022494890658857455, ,0.00022026263957221438, ,0.0,0.0,0.0,0.0,0.0,0.0, ,0.0,0.0,0.0,0.0,0.0,0.0, ,0.833427906036377
0.009654914407756626,0.020088640742102842,-0.08003380588544888, ,0.011509469984471447,0.02104776545560104,-0.08212534946033359, ,0.0029553089734930516, ,1.144106680148602e-06,6.032405284762777e-05,1.527947427096094e-05,0.00021997839234497995,-4.702677404110663e-05,0.00012061867112821667, ,6.223955869104396e-05, ,0.00022494890658857455, ,0.00022545590505017513, ,0.0,0.0,0.0,0.0,0.0,0.0, ,0.0,0.0,0.0,0.0,0.0,0.0, ,0.8456878662109375
0.009654914407756626,0.020088640742102842,-0.08003380588544888, ,0.01154102733928999,0.021062842935935352,-0.0821731792514174, ,0.003013869656103417, ,1.144106680148602e-06,6.032405284762777e-05,1.527947427096094e-05,0.00021997839234497995,-4.702677404110663e-05,0.00012061867112821667, ,6.223955869104396e-05, ,0.00022494890658857455, ,0.00023066747999728158, ,0.0,0.0,0.0,0.0,0.0,0.0, ,0.0,0.0,0.0,0.0,0.0,0.0, ,0.8566169738769531
0.009654914407756626,0.020088640742102842,-0.08003380588544888, ,0.01157263893905697,0.0210776176613961,-0.08222153821624979, ,0.0030727700005170424, ,1.144106680148602e-06,6.032405284762777e-05,1.527947427096094e-05,0.00021997839234497995,-4.702677404110663e-05,0.00012061867112821667, ,6.223955869104396e-05, ,0.00022494890658857455, ,0.00023589754157910892, ,0.0,0.0,0.0,0.0,0.0,0.0, ,0.0,0.0,0.0,0.0,0.0,0.0, ,0.8711369037628174
0.009654914407756626,0.020088640742102842,-0.08003380588544888, ,0.011604304767000645,0.02109209169119517,-0.0822704225137462, ,0.003132010619701642, ,1.144106680148602e-06,6.032405284762777e-05,1.527947427096094e-05,0.00021997839234497995,-4.702677404110663e-05,0.00012061867112821667, ,6.223955869104396e-05, ,0.00022494890658857455, ,0.00024114625908396402, ,0.0,0.0,0.0,0.0,0.0,0.0, ,0.0,0.0,0.0,0.0,0.0,0.0, ,0.8819458484649658
0.009654914407756626,0.020088640742102842,-0.08003380588544888, ,0.011636024806084553,0.02110626707893884,-0.08231982831395286, ,0.0031915921286105042, ,1.144106680148602e-06,6.032405284762777e-05,1.527947427096094e-05,0.00021997839234497995,-4.702677404110663e-05,0.00012061867112821667, ,6.223955869104396e-05, ,0.00022494890658857455, ,0.00024641379445051754, ,0.0,0.0,0.0,0.0,0.0,0.0, ,0.0,0.0,0.0,0.0,0.0,0.0, ,0.8931448459625244
0.009654914407756626,0.020088640742102842,-0.08003380588544888, ,0.01166779903900771,0.02112014587263406,-0.08236975179803403, ,0.0032515151359885, ,1.144106680148602e-06,6.032405284762777e-05,1.527947427096094e-05,0.00021997839234497995,-4.702677404110663e-05,0.00012061867112821667, ,6.223955869104396e-05, ,0.00022494890658857455, ,0.0002517003027325487, ,0.0,0.0,0.0,0.0,0.0,0.0, ,0.0,0.0,0.0,0.0,0.0,0.0, ,0.9068779945373535
0.009654914407756626,0.020088640742102842,-0.08003380588544888, ,0.011699627448205236,0.021133730114694386,-0.08242018915825836, ,0.003311780237157841, ,1.144106680148602e-06,6.032405284762777e-05,1.527947427096094e-05,0.00021997839234497995,-4.702677404110663e-05,0.00012061867112821667, ,6.223955869104396e-05, ,0.00022494890658857455, ,0.00025700593250902186, ,0.0,0.0,0.0,0.0,0.0,0.0, ,0.0,0.0,0.0,0.0,0.0,0.0, ,0.918381929397583
0.009654914407756626,0.020088640742102842,-0.08003380588544888, ,0.0117315100158488,0.021147021841946525,-0.08247113659798701, ,0.003372388007678779, ,1.144106680148602e-06,6.032405284762777e-05,1.527947427096094e-05,0.00021997839234497995,-4.702677404110663e-05,0.00012061867112821667, ,6.223955869104396e-05, ,0.00022494890658857455, ,0.0002623308262466077, ,0.0,0.0,0.0,0.0,0.0,0.0, ,0.0,0.0,0.0,0.0,0.0,0.0, ,0.9293198585510254
0.009654914407756626,0.020088640742102842,-0.08003380588544888, ,0.01176344672384706,0.021160023085636144,-0.08252259033166069, ,0.0034333389977889506, ,1.144106680148602e-06,6.032405284762777e-05,1.527947427096094e-05,0.00021997839234497995,-4.702677404110663e-05,0.00012061867112821667, ,6.223955869104396e-05, ,0.00022494890658857455, ,0.000267675120620804, ,0.0,0.0,0.0,0.0,0.0,0.0, ,0.0,0.0,0.0,0.0,0.0,0.0, ,0.9405670166015625
0.009654914407756626,0.020088640742102842,-0.08003380588544888, ,0.011795437553846062,0.02117273587143489,-0.0825745465847857, ,0.0034946337275389336, ,1.144106680148602e-06,6.032405284762777e-05,1.527947427096094e-05,0.00021997839234497995,-4.702677404110663e-05,0.00012061867112821667, ,6.223955869104396e-05, ,0.00022494890658857455, ,0.00027371984193016985, ,0.0,0.0,0.0,0.0,0.0,0.0, ,0.0,0.0,0.0,0.0,0.0,0.0, ,0.9518699645996094
0.009654914407756626,0.020088640742102842,-0.08003380588544888, ,0.01182748248722979,0.021185162219445313,-0.08262700159392315, ,0.003556272682552395, ,1.144106680148602e-06,6.032405284762777e-05,1.527947427096094e-05,0.00021997839234497995,-4.702677404110663e-05,0.00012061867112821667, ,6.223955869104396e-05, ,0.00022494890658857455, ,0.00027979735628777904, ,0.0,0.0,0.0,0.0,0.0,0.0, ,0.0,0.0,0.0,0.0,0.0,0.0, ,0.9611358642578125
0.009654914407756626,0.020088640742102842,-0.08003380588544888, ,0.011859581505120575,0.021197304144208617,-0.08267995160667424, ,0.0036182563103416554, ,1.144106680148602e-06,6.032405284762777e-05,1.527947427096094e-05,0.00021997839234497995,-4.702677404110663e-05,0.00012061867112821667, ,6.223955869104396e-05, ,0.00022494890658857455, ,0.00028590754427112997, ,0.0,0.0,0.0,0.0,0.0,0.0, ,0.0,0.0,0.0,0.0,0.0,0.0, ,0.969857931137085
0.009654914407756626,0.020088640742102842,-0.08003380588544888, ,0.011891734588379582,0.021209163654709543,-0.08273339288166834, ,0.003680585017123761, ,1.144106680148602e-06,6.032405284762777e-05,1.527947427096094e-05,0.00021997839234497995,-4.702677404110663e-05,0.00012061867112821667, ,6.223955869104396e-05, ,0.00022494890658857455, ,0.00029205029206783516, ,0.0,0.0,0.0,0.0,0.0,0.0, ,0.0,0.0,0.0,0.0,0.0,0.0, ,0.9786248207092285
0.009654914407756626,0.020088640742102842,-0.08003380588544888, ,0.011923941717607233,0.021220742754383612,-0.08278732168855048, ,0.00374325916508439, ,1.144106680148602e-06,6.032405284762777e-05,1.527947427096094e-05,0.00021997839234497995,-4.702677404110663e-05,0.00012061867112821667, ,6.223955869104396e-05, ,0.00022494890658857455, ,0.00029822549110095997, ,0.0,0.0,0.0,0.0,0.0,0.0, ,0.0,0.0,0.0,0.0,0.0,0.0, ,0.9876718521118164
0.009654914407756626,0.020088640742102842,-0.08003380588544888, ,0.011956202873143676,0.02123204344112214,-0.0828417343079674, ,0.00380627907004143, ,1.144106680148602e-06,6.032405284762777e-05,1.527947427096094e-05,0.00021997839234497995,-4.702677404110663e-05,0.00012061867112821667, ,6.223955869104396e-05, ,0.00022494890658857455, ,0.00030443303767017037, ,0.0,0.0,0.0,0.0,0.0,0.0, ,0.0,0.0,0.0,0.0,0.0,0.0, ,0.9986050128936768
0.009654914407756626,0.020088640742102842,-0.08003380588544888, ,0.011988518035069229,0.021243067707280103,-0.08289662703155597, ,0.0038696449994712447, ,1.144106680148602e-06,6.032405284762777e-05,1.527947427096094e-05,0.00021997839234497995,-4.702677404110663e-05,0.00012061867112821667, ,6.223955869104396e-05, ,0.00022494890658857455, ,0.0003106728326085011, ,0.0,0.0,0.0,0.0,0.0,0.0, ,0.0,0.0,0.0,0.0,0.0,0.0, ,1.007429838180542
0.009654914407756626,0.020088640742102842,-0.08003380588544888, ,0.01202088718320484,0.021253817539681173,-0.08295199616192987, ,0.003933357170856116, ,1.144106680148602e-06,6.032405284762777e-05,1.527947427096094e-05,0.00021997839234497995,-4.702677404110663e-05,0.00012061867112821667, ,6.223955869104396e-05, ,0.00022494890658857455, ,0.0003169447809544734, ,0.0,0.0,0.0,0.0,0.0,0.0, ,0.0,0.0,0.0,0.0,0.0,0.0, ,1.0161609649658203
0.009654914407756626,0.020088640742102842,-0.08003380588544888, ,0.012053310297112573,0.021264294919623967,-0.0830078380126662, ,0.003997415750322096, ,1.144106680148602e-06,6.032405284762777e-05,1.527947427096094e-05,0.00021997839234497995,-4.702677404110663e-05,0.00012061867112821667, ,6.223955869104396e-05, ,0.00022494890658857455, ,0.00032324879163924054, ,0.0,0.0,0.0,0.0,0.0,0.0, ,0.0,0.0,0.0,0.0,0.0,0.0, ,1.0249478816986084
0.009654914407756626,0.020088640742102842,-0.08003380588544888, ,0.012085787356096023,0.02127450182288872,-0.08306414890829364, ,0.004061820851538733, ,1.144106680148602e-06,6.032405284762777e-05,1.527947427096094e-05,0.00021997839234497995,-4.702677404110663e-05,0.00012061867112821667, ,6.223955869104396e-05, ,0.00022494890658857455, ,0.0003303407055764447, ,0.0,0.0,0.0,0.0,0.0,0.0, ,0.0,0.0,0.0,0.0,0.0,0.0, ,1.0355339050292969
0.009654914407756626,0.020088640742102842,-0.08003380588544888, ,0.01211831833920073,0.021284440219743274,-0.08312092518427878, ,0.0041265725348511, ,1.144106680148602e-06,6.032405284762777e-05,1.527947427096094e-05,0.00021997839234497995,-4.702677404110663e-05,0.00012061867112821667, ,6.223955869104396e-05, ,0.00022494890658857455, ,0.00033748318944460363, ,0.0,0.0,0.0,0.0,0.0,0.0, ,0.0,0.0,0.0,0.0,0.0,0.0, ,1.0426359176635742
0.009654914407756626,0.020088640742102842,-0.08003380588544888, ,0.012150903225214792,0.021294112074949235,-0.08317816318701417, ,0.00419167080662325, ,1.144106680148602e-06,6.032405284762777e-05,1.527947427096094e-05,0.00021997839234497995,-4.702677404110663e-05,0.00012061867112821667, ,6.223955869104396e-05, ,0.00022494890658857455, ,0.0003446759976760277, ,0.0,0.0,0.0,0.0,0.0,0.0, ,0.0,0.0,0.0,0.0,0.0,0.0, ,1.0492579936981201
0.009654914407756626,0.020088640742102842,-0.08003380588544888, ,0.01218354199266905,0.02130351934776842,-0.08323585927380489, ,0.004257115618768908, ,1.144106680148602e-06,6.032405284762777e-05,1.527947427096094e-05,0.00021997839234497995,-4.702677404110663e-05,0.00012061867112821667, ,6.223955869104396e-05, ,0.00022494890658857455, ,0.0003519188912170183, ,0.0,0.0,0.0,0.0,0.0,0.0, ,0.0,0.0,0.0,0.0,0.0,0.0, ,1.0558598041534424
0.009654914407756626,0.020088640742102842,-0.08003380588544888, ,0.012216234619837788,0.021312663991969016,-0.0832940098128554, ,0.004322906868451518, ,1.144106680148602e-06,6.032405284762777e-05,1.527947427096094e-05,0.00021997839234497995,-4.702677404110663e-05,0.00012061867112821667, ,6.223955869104396e-05, ,0.00022494890658857455, ,0.00035921163718755507, ,0.0,0.0,0.0,0.0,0.0,0.0, ,0.0,0.0,0.0,0.0,0.0,0.0, ,1.0623838901519775
0.009654914407756626,0.020088640742102842,-0.08003380588544888, ,0.01224898108473909,0.021321547955831344,-0.08335261118325754, ,0.004389044397936464, ,1.144106680148602e-06,6.032405284762777e-05,1.527947427096094e-05,0.00021997839234497995,-4.702677404110663e-05,0.00012061867112821667, ,6.223955869104396e-05, ,0.00022494890658857455, ,0.00036655400855423756, ,0.0,0.0,0.0,0.0,0.0,0.0, ,0.0,0.0,0.0,0.0,0.0,0.0, ,1.0690178871154785
0.009654914407756626,0.020088640742102842,-0.08003380588544888, ,0.012281781365135233,0.021330173182154653,-0.08341165977497744, ,0.004455527994578395, ,1.144106680148602e-06,6.032405284762777e-05,1.527947427096094e-05,0.00021997839234497995,-4.702677404110663e-05,0.00012061867112821667, ,6.223955869104396e-05, ,0.00022494890658857455, ,0.00037394578381616636, ,0.0,0.0,0.0,0.0,0.0,0.0, ,0.0,0.0,0.0,0.0,0.0,0.0, ,1.0757148265838623
0.009654914407756626,0.020088640742102842,-0.08003380588544888, ,0.012314635438533209,0.02133854160826341,-0.08347115198884253, ,0.004522357390930054, ,1.144106680148602e-06,6.032405284762777e-05,1.527947427096094e-05,0.00021997839234497995,-4.702677404110663e-05,0.00012061867112821667, ,6.223955869104396e-05, ,0.00022494890658857455, ,0.00038138674670343454, ,0.0,0.0,0.0,0.0,0.0,0.0, ,0.0,0.0,0.0,0.0,0.0,0.0, ,1.0839829444885254
0.009654914407756626,0.020088640742102842,-0.08003380588544888, ,0.012347543282185158,0.02134665516601259,-0.08353108423652851, ,0.004589532264959197, ,1.144106680148602e-06,6.032405284762777e-05,1.527947427096094e-05,0.00021997839234497995,-4.702677404110663e-05,0.00012061867112821667, ,6.223955869104396e-05, ,0.00022494890658857455, ,0.00038887668588788866, ,0.0,0.0,0.0,0.0,0.0,0.0, ,0.0,0.0,0.0,0.0,0.0,0.0, ,1.0908188819885254
0.009654914407756626,0.020088640742102842,-0.08003380588544888, ,0.01238050487308881,0.021354515781794946,-0.08359145294054696, ,0.00465705224036334, ,1.144106680148602e-06,6.032405284762777e-05,1.527947427096094e-05,0.00021997839234497995,-4.702677404110663e-05,0.00012061867112821667, ,6.223955869104396e-05, ,0.00022494890658857455, ,0.0003972734366856972, ,0.0,0.0,0.0,0.0,0.0,0.0, ,0.0,0.0,0.0,0.0,0.0,0.0, ,1.095221996307373
0.009654914407756626,0.020088640742102842,-0.08003380588544888, ,0.012413520187987906,0.021362125376546817,-0.08365225453423254, ,0.004724916886970039, ,1.144106680148602e-06,6.032405284762777e-05,1.527947427096094e-05,0.00021997839234497995,-4.702677404110663e-05,0.00012061867112821667, ,6.223955869104396e-05, ,0.00022494890658857455, ,0.00040574406171500467, ,0.0,0.0,0.0,0.0,0.0,0.0, ,0.0,0.0,0.0,0.0,0.0,0.0, ,1.0996317863464355
0.009654914407756626,0.020088640742102842,-0.08003380588544888, ,0.012446589203372717,0.02136948586575397,-0.08371348546172953, ,0.004793125721213244, ,1.144106680148602e-06,6.032405284762777e-05,1.527947427096094e-05,0.00021997839234497995,-4.702677404110663e-05,0.00012061867112821667, ,6.223955869104396e-05, ,0.00022494890658857455, ,0.0004142883484055266, ,0.0,0.0,0.0,0.0,0.0,0.0, ,0.0,0.0,0.0,0.0,0.0,0.0, ,1.1039857864379883
0.009654914407756626,0.020088640742102842,-0.08003380588544888, ,0.012479711895480375,0.021376599159458658,-0.08377514217798007, ,0.0048616782066791655, ,1.144106680148602e-06,6.032405284762777e-05,1.527947427096094e-05,0.00021997839234497995,-4.702677404110663e-05,0.00012061867112821667, ,6.223955869104396e-05, ,0.00022494890658857455, ,0.00042290608667447556, ,0.0,0.0,0.0,0.0,0.0,0.0, ,0.0,0.0,0.0,0.0,0.0,0.0, ,1.1084280014038086
0.009654914407756626,0.020088640742102842,-0.08003380588544888, ,0.012512888240295467,0.02138346716226462,-0.08383722114870999, ,0.004930573754709822, ,1.144106680148602e-06,6.032405284762777e-05,1.527947427096094e-05,0.00021997839234497995,-4.702677404110663e-05,0.00012061867112821667, ,6.223955869104396e-05, ,0.00022494890658857455, ,0.0004315970687624774, ,0.0,0.0,0.0,0.0,0.0,0.0, ,0.0,0.0,0.0,0.0,0.0,0.0, ,1.112933874130249
0.009654914407756626,0.020088640742102842,-0.08003380588544888, ,0.012546118213550356,0.02139009177334493,-0.08389971885041726, ,0.004999811725062042, ,1.144106680148602e-06,6.032405284762777e-05,1.527947427096094e-05,0.00021997839234497995,-4.702677404110663e-05,0.00012061867112821667, ,6.223955869104396e-05, ,0.00022494890658857455, ,0.00044036108907505593, ,0.0,0.0,0.0,0.0,0.0,0.0, ,0.0,0.0,0.0,0.0,0.0,0.0, ,1.1176869869232178
0.009654914407756626,0.020088640742102842,-0.08003380588544888, ,0.012579401790725642,0.021396474886446484,-0.08396263177035838, ,0.005069391426610395, ,1.144106680148602e-06,6.032405284762777e-05,1.527947427096094e-05,0.00021997839234497995,-4.702677404110663e-05,0.00012061867112821667, ,6.223955869104396e-05, ,0.00022494890658857455, ,0.0004491979440296135, ,0.0,0.0,0.0,0.0,0.0,0.0, ,0.0,0.0,0.0,0.0,0.0,0.0, ,1.1234679222106934
0.009654914407756626,0.020088640742102842,-0.08003380588544888, ,0.012612738947050678,0.021402618389897387,-0.08402595640653594, ,0.005139312118092211, ,1.144106680148602e-06,6.032405284762777e-05,1.527947427096094e-05,0.00021997839234497995,-4.702677404110663e-05,0.00012061867112821667, ,6.223955869104396e-05, ,0.00022494890658857455, ,0.00045810743190783407, ,0.0,0.0,0.0,0.0,0.0,0.0, ,0.0,0.0,0.0,0.0,0.0,0.0, ,1.1279089450836182
0.009654914407756626,0.020088640742102842,-0.08003380588544888, ,0.01264612965750403,0.02140852416661262,-0.08408968926768529, ,0.005209573008886478, ,1.144106680148602e-06,6.032405284762777e-05,1.527947427096094e-05,0.00021997839234497995,-4.702677404110663e-05,0.00012061867112821667, ,6.223955869104396e-05, ,0.00022494890658857455, ,0.00046708935271342147, ,0.0,0.0,0.0,0.0,0.0,0.0, ,0.0,0.0,0.0,0.0,0.0,0.0, ,1.1328649520874023
0.009654914407756626,0.020088640742102842,-0.08003380588544888, ,0.012679573896813713,0.02141419409410042,-0.08415382687326217, ,0.005280173259823687, ,1.144106680148602e-06,6.032405284762777e-05,1.527947427096094e-05,0.00021997839234497995,-4.702677404110663e-05,0.00012061867112821667, ,6.223955869104396e-05, ,0.00022494890658857455, ,0.0004761435080350816, ,0.0,0.0,0.0,0.0,0.0,0.0, ,0.0,0.0,0.0,0.0,0.0,0.0, ,1.1386098861694336
0.009654914407756626,0.020088640742102842,-0.08003380588544888, ,0.012713071639457887,0.02141963004446867,-0.0842183657534303, ,0.005351111984021603, ,1.144106680148602e-06,6.032405284762777e-05,1.527947427096094e-05,0.00021997839234497995,-4.702677404110663e-05,0.00012061867112821667, ,6.223955869104396e-05, ,0.00022494890658857455, ,0.0004852697009146489, ,0.0,0.0,0.0,0.0,0.0,0.0, ,0.0,0.0,0.0,0.0,0.0,0.0, ,1.1435937881469727
0.009654914407756626,0.020088640742102842,-0.08003380588544888, ,0.012746622859665204,0.0214248338844307,-0.08428330244904732, ,0.005422388247741198, ,1.144106680148602e-06,6.032405284762777e-05,1.527947427096094e-05,0.00021997839234497995,-4.702677404110663e-05,0.00012061867112821667, ,6.223955869104396e-05, ,0.00022494890658857455, ,0.0004944677357202519, ,0.0,0.0,0.0,0.0,0.0,0.0, ,0.0,0.0,0.0,0.0,0.0,0.0, ,1.147979974746704
0.009654914407756626,0.020088640742102842,-0.08003380588544888, ,0.012780227531415195,0.02142980747531178,-0.08434863351165281, ,0.005494001071262314, ,1.144106680148602e-06,6.032405284762777e-05,1.527947427096094e-05,0.00021997839234497995,-4.702677404110663e-05,0.00012061867112821667, ,6.223955869104396e-05, ,0.00022494890658857455, ,0.000503737418024412, ,0.0,0.0,0.0,0.0,0.0,0.0, ,0.0,0.0,0.0,0.0,0.0,0.0, ,1.1529738903045654
0.009654914407756626,0.020088640742102842,-0.08003380588544888, ,0.012813885628438776,0.02143455267305511,-0.08441435550345577, ,0.00556594942977369, ,1.144106680148602e-06,6.032405284762777e-05,1.527947427096094e-05,0.00021997839234497995,-4.702677404110663e-05,0.00012061867112821667, ,6.223955869104396e-05, ,0.00022494890658857455, ,0.00051413210388016, ,0.0,0.0,0.0,0.0,0.0,0.0, ,0.0,0.0,0.0,0.0,0.0,0.0, ,1.1553819179534912
0.009654914407756626,0.020088640742102842,-0.08003380588544888, ,0.012847597124218705,0.021439071328228542,-0.08448046499732081, ,0.005638232254273779, ,1.144106680148602e-06,6.032405284762777e-05,1.527947427096094e-05,0.00021997839234497995,-4.702677404110663e-05,0.00012061867112821667, ,6.223955869104396e-05, ,0.00022494890658857455, ,0.0005246323091063765, ,0.0,0.0,0.0,0.0,0.0,0.0, ,0.0,0.0,0.0,0.0,0.0,0.0, ,1.1577777862548828
0.009654914407756626,0.020088640742102842,-0.08003380588544888, ,0.012881361991989922,0.021443365286029942,-0.08454695857675601, ,0.005710848432481477, ,1.144106680148602e-06,6.032405284762777e-05,1.527947427096094e-05,0.00021997839234497995,-4.702677404110663e-05,0.00012061867112821667, ,6.223955869104396e-05, ,0.00022494890658857455, ,0.0005352380680498838, ,0.0,0.0,0.0,0.0,0.0,0.0, ,0.0,0.0,0.0,0.0,0.0,0.0, ,1.161613941192627
0.009654914407756626,0.020088640742102842,-0.08003380588544888, ,0.012915180204740185,0.021447436386294174,-0.08461383283590002, ,0.005783796809753339, ,1.144106680148602e-06,6.032405284762777e-05,1.527947427096094e-05,0.00021997839234497995,-4.702677404110663e-05,0.00012061867112821667, ,6.223955869104396e-05, ,0.00022494890658857455, ,0.0005459494124207072, ,0.0,0.0,0.0,0.0,0.0,0.0, ,0.0,0.0,0.0,0.0,0.0,0.0, ,1.1646099090576172
0.009654914407756626,0.020088640742102842,-0.08003380588544888, ,0.012949051735210212,0.021451286463499183,-0.08468108437950918, ,0.005857076190004544, ,1.144106680148602e-06,6.032405284762777e-05,1.527947427096094e-05,0.00021997839234497995,-4.702677404110663e-05,0.00012061867112821667, ,6.223955869104396e-05, ,0.00022494890658857455, ,0.003037469869735012, ,0.0,0.0,0.0,0.0,0.0,0.0, ,0.0,0.0,0.0,0.0,0.0,0.0, ,1.166968822479248
0.009654914407756626,0.020088640742102842,-0.08003380588544888, ,0.01298297655589447,0.021454917346771466,-0.0847487098229444, ,0.005930685336632137, ,1.144106680148602e-06,6.032405284762777e-05,1.527947427096094e-05,0.00021997839234497995,-4.702677404110663e-05,0.00012061867112821667, ,6.223955869104396e-05, ,0.00022494890658857455, ,0.003069263446294321, ,0.0,0.0,0.0,0.0,0.0,0.0, ,0.0,0.0,0.0,0.0,0.0,0.0, ,1.1693658828735352
0.009654914407756626,0.020088640742102842,-0.08003380588544888, ,0.013016954639041331,0.021458330859893352,-0.08481670579215886, ,0.006004622973439399, ,1.144106680148602e-06,6.032405284762777e-05,1.527947427096094e-05,0.00021997839234497995,-4.702677404110663e-05,0.00012061867112821667, ,6.223955869104396e-05, ,0.00022494890658857455, ,0.0031011695281111156, ,0.0,0.0,0.0,0.0,0.0,0.0, ,0.0,0.0,0.0,0.0,0.0,0.0, ,1.171590805053711
0.009654914407756626,0.020088640742102842,-0.08003380588544888, ,0.013050985956653658,0.021461528821308216,-0.08488506892368478, ,0.006078887785557969, ,1.144106680148602e-06,6.032405284762777e-05,1.527947427096094e-05,0.00021997839234497995,-4.702677404110663e-05,0.00012061867112821667, ,6.223955869104396e-05, ,0.00022494890658857455, ,0.003133188003997641, ,0.0,0.0,0.0,0.0,0.0,0.0, ,0.0,0.0,0.0,0.0,0.0,0.0, ,1.1744968891143799
0.009654914407756626,0.020088640742102842,-0.08003380588544888, ,0.013085070480489252,0.021464513044127588,-0.08495379586462051, ,0.006153478420367837, ,1.144106680148602e-06,6.032405284762777e-05,1.527947427096094e-05,0.00021997839234497995,-4.702677404110663e-05,0.00012061867112821667, ,6.223955869104396e-05, ,0.00022494890658857455, ,0.003165318753107962, ,0.0,0.0,0.0,0.0,0.0,0.0, ,0.0,0.0,0.0,0.0,0.0,0.0, ,1.1767418384552002
0.009654914407756626,0.020088640742102842,-0.08003380588544888, ,0.013119208182061134,0.021467285336136926,-0.08502288327261837, ,0.006228393488413387, ,1.144106680148602e-06,6.032405284762777e-05,1.527947427096094e-05,0.00021997839234497995,-4.702677404110663e-05,0.00012061867112821667, ,6.223955869104396e-05, ,0.00022494890658857455, ,0.0031975616450585454, ,0.0,0.0,0.0,0.0,0.0,0.0, ,0.0,0.0,0.0,0.0,0.0,0.0, ,1.1790728569030762
0.009654914407756626,0.020088640742102842,-0.08003380588544888, ,0.013153399032638192,0.021469847499801308,-0.08509232781587091, ,0.0063036315643131636, ,1.144106680148602e-06,6.032405284762777e-05,1.527947427096094e-05,0.00021997839234497995,-4.702677404110663e-05,0.00012061867112821667, ,6.223955869104396e-05, ,0.00022494890658857455, ,0.003229916540050781, ,0.0,0.0,0.0,0.0,0.0,0.0, ,0.0,0.0,0.0,0.0,0.0,0.0, ,1.1813318729400635
0.009654914407756626,0.020088640742102842,-0.08003380588544888, ,0.013187643003245557,0.021472201332272674,-0.08516212617309876, ,0.006379191187664598, ,1.144106680148602e-06,6.032405284762777e-05,1.527947427096094e-05,0.00021997839234497995,-4.702677404110663e-05,0.00012061867112821667, ,6.223955869104396e-05, ,0.00022494890658857455, ,0.0032623832889952537, ,0.0,0.0,0.0,0.0,0.0,0.0, ,0.0,0.0,0.0,0.0,0.0,0.0, ,1.1835758686065674
0.009654914407756626,0.020088640742102842,-0.08003380588544888, ,0.013221940064664916,0.021474348625395427,-0.08523227503353763, ,0.006455070863940361, ,1.144106680148602e-06,6.032405284762777e-05,1.527947427096094e-05,0.00021997839234497995,-4.702677404110663e-05,0.00012061867112821667, ,6.223955869104396e-05, ,0.00022494890658857455, ,0.0032949617336375508, ,0.0,0.0,0.0,0.0,0.0,0.0, ,0.0,0.0,0.0,0.0,0.0,0.0, ,1.1858539581298828
0.009654914407756626,0.020088640742102842,-0.08003380588544888, ,0.013256290187435047,0.02147629116571236,-0.08530277109692515, ,0.006531269065376589, ,1.144106680148602e-06,6.032405284762777e-05,1.527947427096094e-05,0.00021997839234497995,-4.702677404110663e-05,0.00012061867112821667, ,6.223955869104396e-05, ,0.00022494890658857455, ,0.00332765170668542, ,0.0,0.0,0.0,0.0,0.0,0.0, ,0.0,0.0,0.0,0.0,0.0,0.0, ,1.1880898475646973
0.009654914407756626,0.020088640742102842,-0.08003380588544888, ,0.013290693341852376,0.021478030734471736,-0.08537361107348827, ,0.006607784231852738, ,1.144106680148602e-06,6.032405284762777e-05,1.527947427096094e-05,0.00021997839234497995,-4.702677404110663e-05,0.00012061867112821667, ,6.223955869104396e-05, ,0.00022494890658857455, ,0.0033604530319370934, ,0.0,0.0,0.0,0.0,0.0,0.0, ,0.0,0.0,0.0,0.0,0.0,0.0, ,1.1903328895568848
0.009654914407756626,0.020088640742102842,-0.08003380588544888, ,0.013325149497971107,0.021479569107632532,-0.08544479168393075, ,0.006684614771761293, ,1.144106680148602e-06,6.032405284762777e-05,1.527947427096094e-05,0.00021997839234497995,-4.702677404110663e-05,0.00012061867112821667, ,6.223955869104396e-05, ,0.00022494890658857455, ,0.0033933655244106006, ,0.0,0.0,0.0,0.0,0.0,0.0, ,0.0,0.0,0.0,0.0,0.0,0.0, ,1.1926348209381104
0.009654914407756626,0.020088640742102842,-0.08003380588544888, ,0.013359658625604046,0.02148090805587125,-0.08551630965942002, ,0.006761759062867409, ,1.144106680148602e-06,6.032405284762777e-05,1.527947427096094e-05,0.00021997839234497995,-4.702677404110663e-05,0.00012061867112821667, ,6.223955869104396e-05, ,0.00022494890658857455, ,0.0034263889904739024, ,0.0,0.0,0.0,0.0,0.0,0.0, ,0.0,0.0,0.0,0.0,0.0,0.0, ,1.1950929164886475
0.009654914407756626,0.020088640742102842,-0.08003380588544888, ,0.013394220694322688,0.021482049344588083,-0.08558816174157423, ,0.006839215453157349, ,1.144106680148602e-06,6.032405284762777e-05,1.527947427096094e-05,0.00021997839234497995,-4.702677404110663e-05,0.00012061867112821667, ,6.223955869104396e-05, ,0.00022494890658857455, ,0.0034595232279756834, ,0.0,0.0,0.0,0.0,0.0,0.0, ,0.0,0.0,0.0,0.0,0.0,0.0, ,1.1984589099884033
0.009654914407756626,0.020088640742102842,-0.08003380588544888, ,0.013428835673457859,0.021482994733912776,-0.08566034468244937, ,0.006916982261675973, ,1.144106680148602e-06,6.032405284762777e-05,1.527947427096094e-05,0.00021997839234497995,-4.702677404110663e-05,0.00012061867112821667, ,6.223955869104396e-05, ,0.00022494890658857455, ,0.003492768026376648, ,0.0,0.0,0.0,0.0,0.0,0.0, ,0.0,0.0,0.0,0.0,0.0,0.0, ,1.2009429931640625
0.009654914407756626,0.020088640742102842,-0.08003380588544888, ,0.0134635035321001,0.021483745978711204,-0.08573285524452709, ,0.0069950577793531634, ,1.144106680148602e-06,6.032405284762777e-05,1.527947427096094e-05,0.00021997839234497995,-4.702677404110663e-05,0.00012061867112821667, ,6.223955869104396e-05, ,0.00022494890658857455, ,0.0035261231668811863, ,0.0,0.0,0.0,0.0,0.0,0.0, ,0.0,0.0,0.0,0.0,0.0,0.0, ,1.203490972518921
0.009654914407756626,0.020088640742102842,-0.08003380588544888, ,0.013498224239100078,0.02148430482859125,-0.08580569020070083, ,0.007073440269816822, ,1.144106680148602e-06,6.032405284762777e-05,1.527947427096094e-05,0.00021997839234497995,-4.702677404110663e-05,0.00012061867112821667, ,6.223955869104396e-05, ,0.00022494890658857455, ,0.003559588422569258, ,0.0,0.0,0.0,0.0,0.0,0.0, ,0.0,0.0,0.0,0.0,0.0,0.0, ,1.206028938293457
0.009654914407756626,0.020088640742102842,-0.08003380588544888, ,0.013532997763069064,0.021484673027909164,-0.08587884633426425, ,0.007152127970195499, ,1.144106680148602e-06,6.032405284762777e-05,1.527947427096094e-05,0.00021997839234497995,-4.702677404110663e-05,0.00012061867112821667, ,6.223955869104396e-05, ,0.00022494890658857455, ,0.003593163558528382, ,0.0,0.0,0.0,0.0,0.0,0.0, ,0.0,0.0,0.0,0.0,0.0,0.0, ,1.2082970142364502
0.009654914407756626,0.020088640742102842,-0.08003380588544888, ,0.013567824072379322,0.0214848523157761,-0.085952320438897, ,0.007231119091906457, ,1.144106680148602e-06,6.032405284762777e-05,1.527947427096094e-05,0.00021997839234497995,-4.702677404110663e-05,0.00012061867112821667, ,6.223955869104396e-05, ,0.00022494890658857455, ,0.003626848331985586, ,0.0,0.0,0.0,0.0,0.0,0.0, ,0.0,0.0,0.0,0.0,0.0,0.0, ,1.2105529308319092
0.009654914407756626,0.020088640742102842,-0.08003380588544888, ,0.013602703135164634,0.02148484442606366,-0.08602610931865308, ,0.00731041182143293, ,1.144106680148602e-06,6.032405284762777e-05,1.527947427096094e-05,0.00021997839234497995,-4.702677404110663e-05,0.00012061867112821667, ,6.223955869104396e-05, ,0.00022494890658857455, ,0.0036606424924392313, ,0.0,0.0,0.0,0.0,0.0,0.0, ,0.0,0.0,0.0,0.0,0.0,0.0, ,1.212763786315918
0.009654914407756626,0.020088640742102842,-0.08003380588544888, ,0.013637634919320574,0.02148465108741052,-0.08610020978794743, ,0.007390004321087225, ,1.144106680148602e-06,6.032405284762777e-05,1.527947427096094e-05,0.00021997839234497995,-4.702677404110663e-05,0.00012061867112821667, ,6.223955869104396e-05, ,0.00022494890658857455, ,0.0036945457817905768, ,0.0,0.0,0.0,0.0,0.0,0.0, ,0.0,0.0,0.0,0.0,0.0,0.0, ,1.2149748802185059
0.009654914407756626,0.020088640742102842,-0.08003380588544888, ,0.013672619392505126,0.02148427402322837,-0.08617461867154308, ,0.007469894729761333, ,1.144106680148602e-06,6.032405284762777e-05,1.527947427096094e-05,0.00021997839234497995,-4.702677404110663e-05,0.00012061867112821667, ,6.223955869104396e-05, ,0.00022494890658857455, ,0.003728557934474998, ,0.0,0.0,0.0,0.0,0.0,0.0, ,0.0,0.0,0.0,0.0,0.0,0.0, ,1.2172479629516602
0.009654914407756626,0.020088640742102842,-0.08003380588544888, ,0.013707656522138987,0.02148371495170867,-0.08624933280453848, ,0.007550081163664609, ,1.144106680148602e-06,6.032405284762777e-05,1.527947427096094e-05,0.00021997839234497995,-4.702677404110663e-05,0.00012061867112821667, ,6.223955869104396e-05, ,0.00022494890658857455, ,0.0037626786775927625, ,0.0,0.0,0.0,0.0,0.0,0.0, ,0.0,0.0,0.0,0.0,0.0,0.0, ,1.219519853591919
0.009654914407756626,0.020088640742102842,-0.08003380588544888, ,0.013742746275406099,0.021482975585828033,-0.08632434903235436, ,0.007630561717047853, ,1.144106680148602e-06,6.032405284762777e-05,1.527947427096094e-05,0.00021997839234497995,-4.702677404110663e-05,0.00012061867112821667, ,6.223955869104396e-05, ,0.00022494890658857455, ,0.0037969077310392677, ,0.0,0.0,0.0,0.0,0.0,0.0, ,0.0,0.0,0.0,0.0,0.0,0.0, ,1.221768856048584
0.009654914407756626,0.020088640742102842,-0.08003380588544888, ,0.013777888619253942,0.021482057633355298,-0.0863996642107219, ,0.0077113344629154415, ,1.144106680148602e-06,6.032405284762777e-05,1.527947427096094e-05,0.00021997839234497995,-4.702677404110663e-05,0.00012061867112821667, ,6.223955869104396e-05, ,0.00022494890658857455, ,0.003831244807634673, ,0.0,0.0,0.0,0.0,0.0,0.0, ,0.0,0.0,0.0,0.0,0.0,0.0, ,1.223996877670288
0.009654914407756626,0.020088640742102842,-0.08003380588544888, ,0.01381308352039417,0.021480962796856736,-0.08647527520566822, ,0.00779239745372206, ,1.144106680148602e-06,6.032405284762777e-05,1.527947427096094e-05,0.00021997839234497995,-4.702677404110663e-05,0.00012061867112821667, ,6.223955869104396e-05, ,0.00022494890658857455, ,0.0038656896132528242, ,0.0,0.0,0.0,0.0,0.0,0.0, ,0.0,0.0,0.0,0.0,0.0,0.0, ,1.2268319129943848
0.009654914407756626,0.020088640742102842,-0.08003380588544888, ,0.01384833094530289,0.02147969277370348,-0.0865511788935053, ,0.00787374872205922, ,1.144106680148602e-06,6.032405284762777e-05,1.527947427096094e-05,0.00021997839234497995,-4.702677404110663e-05,0.00012061867112821667, ,6.223955869104396e-05, ,0.00022494890658857455, ,0.0039002418469494308, ,0.0,0.0,0.0,0.0,0.0,0.0, ,0.0,0.0,0.0,0.0,0.0,0.0, ,1.2290599346160889
0.009654914407756626,0.020088640742102842,-0.08003380588544888, ,0.013883630860221133,0.021478249256076415,-0.0866273721608156, ,0.007955386281325708, ,1.144106680148602e-06,6.032405284762777e-05,1.527947427096094e-05,0.00021997839234497995,-4.702677404110663e-05,0.00012061867112821667, ,6.223955869104396e-05, ,0.00022494890658857455, ,0.003934901201089399, ,0.0,0.0,0.0,0.0,0.0,0.0, ,0.0,0.0,0.0,0.0,0.0,0.0, ,1.2312359809875488
0.009654914407756626,0.020088640742102842,-0.08003380588544888, ,0.013918983231155261,0.021476633930973432,-0.08670385190444042, ,0.008037308126387609, ,1.144106680148602e-06,6.032405284762777e-05,1.527947427096094e-05,0.00021997839234497995,-4.702677404110663e-05,0.00012061867112821667, ,6.223955869104396e-05, ,0.00022494890658857455, ,0.0039696673614732815, ,0.0,0.0,0.0,0.0,0.0,0.0, ,0.0,0.0,0.0,0.0,0.0,0.0, ,1.2334818840026855
0.009654914407756626,0.020088640742102842,-0.08003380588544888, ,0.01395438802387749,0.021474848480215056,-0.08678061503146663, ,0.008119512234223821, ,1.144106680148602e-06,6.032405284762777e-05,1.527947427096094e-05,0.00021997839234497995,-4.702677404110663e-05,0.00012061867112821667, ,6.223955869104396e-05, ,0.00022494890658857455, ,0.004004540007462782, ,0.0,0.0,0.0,0.0,0.0,0.0, ,0.0,0.0,0.0,0.0,0.0,0.0, ,1.2358357906341553
0.009654914407756626,0.020088640742102842,-0.08003380588544888, ,0.013989845203926266,0.0214728945804507,-0.08685765845921331, ,0.008201996564558667, ,1.144106680148602e-06,6.032405284762777e-05,1.527947427096094e-05,0.00021997839234497995,-4.702677404110663e-05,0.00012061867112821667, ,6.223955869104396e-05, ,0.00022494890658857455, ,0.004039518812105247, ,0.0,0.0,0.0,0.0,0.0,0.0, ,0.0,0.0,0.0,0.0,0.0,0.0, ,1.238135814666748
0.009654914407756626,0.020088640742102842,-0.08003380588544888, ,0.014025354736606684,0.02147077390316514,-0.08693497911522018, ,0.008284759060483234, ,1.144106680148602e-06,6.032405284762777e-05,1.527947427096094e-05,0.00021997839234497995,-4.702677404110663e-05,0.00012061867112821667, ,6.223955869104396e-05, ,0.00022494890658857455, ,0.004074603442257132, ,0.0,0.0,0.0,0.0,0.0,0.0, ,0.0,0.0,0.0,0.0,0.0,0.0, ,1.2406067848205566
0.009654914407756626,0.020088640742102842,-0.08003380588544888, ,0.014060916586990975,0.021468488114684697,-0.08701257393723344, ,0.008367797649062012, ,1.144106680148602e-06,6.032405284762777e-05,1.527947427096094e-05,0.00021997839234497995,-4.702677404110663e-05,0.00012061867112821667, ,6.223955869104396e-05, ,0.00022494890658857455, ,0.0041097935587063525, ,0.0,0.0,0.0,0.0,0.0,0.0, ,0.0,0.0,0.0,0.0,0.0,0.0, ,1.242992877960205
0.009654914407756626,0.020088640742102842,-0.08003380588544888, ,0.014096530719918782,0.021466038876182803,-0.08709043987319334, ,0.00845111024192811, ,1.144106680148602e-06,6.032405284762777e-05,1.527947427096094e-05,0.00021997839234497995,-4.702677404110663e-05,0.00012061867112821667, ,6.223955869104396e-05, ,0.00022494890658857455, ,0.004145088816293521, ,0.0,0.0,0.0,0.0,0.0,0.0, ,0.0,0.0,0.0,0.0,0.0,0.0, ,1.247450828552246
0.009654914407756626,0.020088640742102842,-0.08003380588544888, ,0.014132197099997924,0.02146342784368706,-0.0871685738812221, ,0.00853469473586698, ,1.144106680148602e-06,6.032405284762777e-05,1.527947427096094e-05,0.00021997839234497995,-4.702677404110663e-05,0.00012061867112821667, ,6.223955869104396e-05, ,0.00022494890658857455, ,0.004180488864032017, ,0.0,0.0,0.0,0.0,0.0,0.0, ,0.0,0.0,0.0,0.0,0.0,0.0, ,1.249957799911499
0.009654914407756626,0.020088640742102842,-0.08003380588544888, ,0.014167915691604447,0.02146065666808499,-0.08724697292961021, ,0.008618549013385948, ,1.144106680148602e-06,6.032405284762777e-05,1.527947427096094e-05,0.00021997839234497995,-4.702677404110663e-05,0.00012061867112821667, ,6.223955869104396e-05, ,0.00022494890658857455, ,0.004215993345226849, ,0.0,0.0,0.0,0.0,0.0,0.0, ,0.0,0.0,0.0,0.0,0.0,0.0, ,1.252262830734253
0.009654914407756626,0.020088640742102842,-0.08003380588544888, ,0.014203686458883202,0.021457726995130277,-0.08732563399680375, ,0.008702670943272768, ,1.144106680148602e-06,6.032405284762777e-05,1.527947427096094e-05,0.00021997839234497995,-4.702677404110663e-05,0.00012061867112821667, ,6.223955869104396e-05, ,0.00022494890658857455, ,0.004251601897592293, ,0.0,0.0,0.0,0.0,0.0,0.0, ,0.0,0.0,0.0,0.0,0.0,0.0, ,1.254546880722046
0.009654914407756626,0.020088640742102842,-0.08003380588544888, ,0.014239509365748491,0.021454640465448954,-0.08740455407139161, ,0.008787058381142356, ,1.144106680148602e-06,6.032405284762777e-05,1.527947427096094e-05,0.00021997839234497995,-4.702677404110663e-05,0.00012061867112821667, ,6.223955869104396e-05, ,0.00022494890658857455, ,0.004287314153368278, ,0.0,0.0,0.0,0.0,0.0,0.0, ,0.0,0.0,0.0,0.0,0.0,0.0, ,1.2567639350891113
0.009654914407756626,0.020088640742102842,-0.08003380588544888, ,0.014275384375884102,0.021451398714545652,-0.0874837301520929, ,0.008871709169971468, ,1.144106680148602e-06,6.032405284762777e-05,1.527947427096094e-05,0.00021997839234497995,-4.702677404110663e-05,0.00012061867112821667, ,6.223955869104396e-05, ,0.00022494890658857455, ,0.0043231297394354905, ,0.0,0.0,0.0,0.0,0.0,0.0, ,0.0,0.0,0.0,0.0,0.0,0.0, ,1.258962869644165
0.009654914407756626,0.020088640742102842,-0.08003380588544888, ,0.014311311452744134,0.02144800337280996,-0.08756315924774417, ,0.008956621140622104, ,1.144106680148602e-06,6.032405284762777e-05,1.527947427096094e-05,0.00021997839234497995,-4.702677404110663e-05,0.00012061867112821667, ,6.223955869104396e-05, ,0.00022494890658857455, ,0.0043590482774291854, ,0.0,0.0,0.0,0.0,0.0,0.0, ,0.0,0.0,0.0,0.0,0.0,0.0, ,1.261159896850586
0.009654914407756626,0.020088640742102842,-0.08003380588544888, ,0.014347290559553092,0.021444456065522165,-0.08764283837728559, ,0.009041792112352155, ,1.144106680148602e-06,6.032405284762777e-05,1.527947427096094e-05,0.00021997839234497995,-4.702677404110663e-05,0.00012061867112821667, ,6.223955869104396e-05, ,0.00022494890658857455, ,0.00439506938385167, ,0.0,0.0,0.0,0.0,0.0,0.0, ,0.0,0.0,0.0,0.0,0.0,0.0, ,1.263366937637329
0.009654914407756626,0.020088640742102842,-0.08003380588544888, ,0.014383321659306588,0.021440758412860028,-0.08772276456974987, ,0.00912721989331755, ,1.144106680148602e-06,6.032405284762777e-05,1.527947427096094e-05,0.00021997839234497995,-4.702677404110663e-05,0.00012061867112821667, ,6.223955869104396e-05, ,0.00022494890658857455, ,0.00443119267018347, ,0.0,0.0,0.0,0.0,0.0,0.0, ,0.0,0.0,0.0,0.0,0.0,0.0, ,1.2655458450317383
0.009654914407756626,0.020088640742102842,-0.08003380588544888, ,0.014419404714771569,0.0214369120299045,-0.08780293486424745, ,0.009212902281059828, ,1.144106680148602e-06,6.032405284762777e-05,1.527947427096094e-05,0.00021997839234497995,-4.702677404110663e-05,0.00012061867112821667, ,6.223955869104396e-05, ,0.00022494890658857455, ,0.00446741774299314, ,0.0,0.0,0.0,0.0,0.0,0.0, ,0.0,0.0,0.0,0.0,0.0,0.0, ,1.2682669162750244
0.009654914407756626,0.020088640742102842,-0.08003380588544888, ,0.014455539688486835,0.021432918526646222,-0.08788334630995519, ,0.009298837062985968, ,1.144106680148602e-06,6.032405284762777e-05,1.527947427096094e-05,0.00021997839234497995,-4.702677404110663e-05,0.00012061867112821667, ,6.223955869104396e-05, ,0.00022494890658857455, ,0.0045037442040457175, ,0.0,0.0,0.0,0.0,0.0,0.0, ,0.0,0.0,0.0,0.0,0.0,0.0, ,1.270617961883545
0.009654914407756626,0.020088640742102842,-0.08003380588544888, ,0.014491726542763594,0.021428779507991755,-0.08796399596610313, ,0.009385022016835975, ,1.144106680148602e-06,6.032405284762777e-05,1.527947427096094e-05,0.00021997839234497995,-4.702677404110663e-05,0.00012061867112821667, ,6.223955869104396e-05, ,0.00022494890658857455, ,0.004540171650409824, ,0.0,0.0,0.0,0.0,0.0,0.0, ,0.0,0.0,0.0,0.0,0.0,0.0, ,1.272838830947876
0.009654914407756626,0.020088640742102842,-0.08003380588544888, ,0.01452796523968562,0.021424496573769426,-0.08804488090196097, ,0.009471454911139349, ,1.144106680148602e-06,6.032405284762777e-05,1.527947427096094e-05,0.00021997839234497995,-4.702677404110663e-05,0.00012061867112821667, ,6.223955869104396e-05, ,0.00022494890658857455, ,0.004576699674563376, ,0.0,0.0,0.0,0.0,0.0,0.0, ,0.0,0.0,0.0,0.0,0.0,0.0, ,1.2750589847564697
0.009654914407756626,0.020088640742102842,-0.08003380588544888, ,0.014564255741109916,0.02142007131873556,-0.08812599819682596, ,0.0095581335056628, ,1.144106680148602e-06,6.032405284762777e-05,1.527947427096094e-05,0.00021997839234497995,-4.702677404110663e-05,0.00012061867112821667, ,6.223955869104396e-05, ,0.00022494890658857455, ,0.00461332786449793, ,0.0,0.0,0.0,0.0,0.0,0.0, ,0.0,0.0,0.0,0.0,0.0,0.0, ,1.2772488594055176
0.009654914407756626,0.020088640742102842,-0.08003380588544888, ,0.01460059800866707,0.021415505332581308,-0.08820734494001023, ,0.009645055551847264, ,1.144106680148602e-06,6.032405284762777e-05,1.527947427096094e-05,0.00021997839234497995,-4.702677404110663e-05,0.00012061867112821667, ,6.223955869104396e-05, ,0.00022494890658857455, ,0.004650055803821648, ,0.0,0.0,0.0,0.0,0.0,0.0, ,0.0,0.0,0.0,0.0,0.0,0.0, ,1.2796368598937988
0.009654914407756626,0.020088640742102842,-0.08003380588544888, ,0.014636992003761621,0.021410800199938324,-0.08828891823082743, ,0.009732218793234158, ,1.144106680148602e-06,6.032405284762777e-05,1.527947427096094e-05,0.00021997839234497995,-4.702677404110663e-05,0.00012061867112821667, ,6.223955869104396e-05, ,0.00022494890658857455, ,0.004686883071860869, ,0.0,0.0,0.0,0.0,0.0,0.0, ,0.0,0.0,0.0,0.0,0.0,0.0, ,1.2832539081573486
0.009654914407756626,0.020088640742102842,-0.08003380588544888, ,0.014673437687572597,0.021405957500384876,-0.08837071517857947, ,0.009819620965882176, ,1.144106680148602e-06,6.032405284762777e-05,1.527947427096094e-05,0.00021997839234497995,-4.702677404110663e-05,0.00012061867112821667, ,6.223955869104396e-05, ,0.00022494890658857455, ,0.0047238092437603026, ,0.0,0.0,0.0,0.0,0.0,0.0, ,0.0,0.0,0.0,0.0,0.0,0.0, ,1.285672903060913
0.009654914407756626,0.020088640742102842,-0.08003380588544888, ,0.014709935021053881,0.02140097880845222,-0.0884527329025454, ,0.009907259798776227, ,1.144106680148602e-06,6.032405284762777e-05,1.527947427096094e-05,0.00021997839234497995,-4.702677404110663e-05,0.00012061867112821667, ,6.223955869104396e-05, ,0.00022494890658857455, ,0.004760833890581846, ,0.0,0.0,0.0,0.0,0.0,0.0, ,0.0,0.0,0.0,0.0,0.0,0.0, ,1.288071870803833
0.009654914407756626,0.020088640742102842,-0.08003380588544888, ,0.014746483964934649,0.02139586569363085,-0.08853496853196649, ,0.009995133014223759, ,1.144106680148602e-06,6.032405284762777e-05,1.527947427096094e-05,0.00021997839234497995,-4.702677404110663e-05,0.00012061867112821667, ,6.223955869104396e-05, ,0.00022494890658857455, ,0.004797956579402001, ,0.0,0.0,0.0,0.0,0.0,0.0, ,0.0,0.0,0.0,0.0,0.0,0.0, ,1.291637897491455
0.009654914407756626,0.020088640742102842,-0.08003380588544888, ,0.014783084479719816,0.02139061972037673,-0.08861741920603482, ,0.01008323832824487, ,1.144106680148602e-06,6.032405284762777e-05,1.527947427096094e-05,0.00021997839234497995,-4.702677404110663e-05,0.00012061867112821667, ,6.223955869104396e-05, ,0.00022494890658857455, ,0.004835176873407936, ,0.0,0.0,0.0,0.0,0.0,0.0, ,0.0,0.0,0.0,0.0,0.0,0.0, ,1.2939229011535645
0.009654914407756626,0.020088640742102842,-0.08003380588544888, ,0.01481973652569049,0.021385242448117358,-0.08870008207388001, ,0.010171573450951776, ,1.144106680148602e-06,6.032405284762777e-05,1.527947427096094e-05,0.00021997839234497995,-4.702677404110663e-05,0.00012061867112821667, ,6.223955869104396e-05, ,0.00022494890658857455, ,0.004872494331992159, ,0.0,0.0,0.0,0.0,0.0,0.0, ,0.0,0.0,0.0,0.0,0.0,0.0, ,1.2962779998779297
0.009654914407756626,0.020088640742102842,-0.08003380588544888, ,0.014856440062904312,0.0213797354312578,-0.08878295429455607, ,0.010260136086919442, ,1.144106680148602e-06,6.032405284762777e-05,1.527947427096094e-05,0.00021997839234497995,-4.702677404110663e-05,0.00012061867112821667, ,6.223955869104396e-05, ,0.00022494890658857455, ,0.004909908510845821, ,0.0,0.0,0.0,0.0,0.0,0.0, ,0.0,0.0,0.0,0.0,0.0,0.0, ,1.2985658645629883
0.009654914407756626,0.020088640742102842,-0.08003380588544888, ,0.014893195051196005,0.021374100219187352,-0.08886603303702931, ,0.010348923935548688, ,1.144106680148602e-06,6.032405284762777e-05,1.527947427096094e-05,0.00021997839234497995,-4.702677404110663e-05,0.00012061867112821667, ,6.223955869104396e-05, ,0.00022494890658857455, ,0.004947418962050668, ,0.0,0.0,0.0,0.0,0.0,0.0, ,0.0,0.0,0.0,0.0,0.0,0.0, ,1.3008108139038086
0.009654914407756626,0.020088640742102842,-0.08003380588544888, ,0.014930001450177659,0.02136833835628553,-0.08894931548016455, ,0.010437934691419097, ,1.144106680148602e-06,6.032405284762777e-05,1.527947427096094e-05,0.00021997839234497995,-4.702677404110663e-05,0.00012061867112821667, ,6.223955869104396e-05, ,0.00022494890658857455, ,0.00498502523416963, ,0.0,0.0,0.0,0.0,0.0,0.0, ,0.0,0.0,0.0,0.0,0.0,0.0, ,1.3030388355255127
0.009654914407756626,0.020088640742102842,-0.08003380588544888, ,0.014966859219239322,0.021362451381927692,-0.08903279881271305, ,0.010527166044635156, ,1.144106680148602e-06,6.032405284762777e-05,1.527947427096094e-05,0.00021997839234497995,-4.702677404110663e-05,0.00012061867112821667, ,6.223955869104396e-05, ,0.00022494890658857455, ,0.005022726872336061, ,0.0,0.0,0.0,0.0,0.0,0.0, ,0.0,0.0,0.0,0.0,0.0,0.0, ,1.3052399158477783
0.009654914407756626,0.020088640742102842,-0.08003380588544888, ,0.015003768317549404,0.021356440830492603,-0.0891164802332998, ,0.010616615681163918, ,1.144106680148602e-06,6.032405284762777e-05,1.527947427096094e-05,0.00021997839234497995,-4.702677404110663e-05,0.00012061867112821667, ,6.223955869104396e-05, ,0.00022494890658857455, ,0.005060523418341655, ,0.0,0.0,0.0,0.0,0.0,0.0, ,0.0,0.0,0.0,0.0,0.0,0.0, ,1.3074519634246826
0.009654914407756626,0.020088640742102842,-0.08003380588544888, ,0.015040728704054904,0.021350308231367174,-0.0892003569504095, ,0.01070628128316308, ,1.144106680148602e-06,6.032405284762777e-05,1.527947427096094e-05,0.00021997839234497995,-4.702677404110663e-05,0.00012061867112821667, ,6.223955869104396e-05, ,0.00022494890658857455, ,0.005098414410723007, ,0.0,0.0,0.0,0.0,0.0,0.0, ,0.0,0.0,0.0,0.0,0.0,0.0, ,1.3096678256988525
0.009654914407756626,0.020088640742102842,-0.08003380588544888, ,0.015077740337482123,0.021344055108953475,-0.089284426182375, ,0.010796160529303912, ,1.144106680148602e-06,6.032405284762777e-05,1.527947427096094e-05,0.00021997839234497995,-4.702677404110663e-05,0.00012061867112821667, ,6.223955869104396e-05, ,0.00022494890658857455, ,0.005136399384846879, ,0.0,0.0,0.0,0.0,0.0,0.0, ,0.0,0.0,0.0,0.0,0.0,0.0, ,1.3118698596954346
0.009654914407756626,0.020088640742102842,-0.08003380588544888, ,0.015114803176336865,0.02133768298267474,-0.08936868515736412, ,0.010886251095084771, ,1.144106680148602e-06,6.032405284762777e-05,1.527947427096094e-05,0.00021997839234497995,-4.702677404110663e-05,0.00012061867112821667, ,6.223955869104396e-05, ,0.00022494890658857455, ,0.00517447787299415, ,0.0,0.0,0.0,0.0,0.0,0.0, ,0.0,0.0,0.0,0.0,0.0,0.0, ,1.3140919208526611
0.009654914407756626,0.020088640742102842,-0.08003380588544888, ,0.015151917178905072,0.021331193366981468,-0.08945313111336627, ,0.01097655065313723, ,1.144106680148602e-06,6.032405284762777e-05,1.527947427096094e-05,0.00021997839234497995,-4.702677404110663e-05,0.00012061867112821667, ,6.223955869104396e-05, ,0.00022494890658857455, ,0.005212649404442459, ,0.0,0.0,0.0,0.0,0.0,0.0, ,0.0,0.0,0.0,0.0,0.0,0.0, ,1.316321849822998
0.009654914407756626,0.020088640742102842,-0.08003380588544888, ,0.0151890823032531,0.02132458777135807,-0.08953776129818052, ,0.011067056873526025, ,1.144106680148602e-06,6.032405284762777e-05,1.527947427096094e-05,0.00021997839234497995,-4.702677404110663e-05,0.00012061867112821667, ,6.223955869104396e-05, ,0.00022494890658857455, ,0.005250913505547581, ,0.0,0.0,0.0,0.0,0.0,0.0, ,0.0,0.0,0.0,0.0,0.0,0.0, ,1.318565845489502
0.009654914407756626,0.020088640742102842,-0.08003380588544888, ,0.01522629850722807,0.021317867700328196,-0.08962257296940172, ,0.01115776742404002, ,1.144106680148602e-06,6.032405284762777e-05,1.527947427096094e-05,0.00021997839234497995,-4.702677404110663e-05,0.00012061867112821667, ,6.223955869104396e-05, ,0.00022494890658857455, ,0.0052892696998235065, ,0.0,0.0,0.0,0.0,0.0,0.0, ,0.0,0.0,0.0,0.0,0.0,0.0, ,1.321685791015625
0.009654914407756626,0.020088640742102842,-0.08003380588544888, ,0.015263565748458685,0.02131103465346177,-0.08970756339440866, ,0.011248679970478409, ,1.144106680148602e-06,6.032405284762777e-05,1.527947427096094e-05,0.00021997839234497995,-4.702677404110663e-05,0.00012061867112821667, ,6.223955869104396e-05, ,0.00022494890658857455, ,0.00532771750802128, ,0.0,0.0,0.0,0.0,0.0,0.0, ,0.0,0.0,0.0,0.0,0.0,0.0, ,1.3289167881011963
0.009654914407756626,0.020088640742102842,-0.08003380588544888, ,0.015300883984355163,0.021304090125380808,-0.08979272985035068, ,0.011339792176928187, ,1.144106680148602e-06,6.032405284762777e-05,1.527947427096094e-05,0.00021997839234497995,-4.702677404110663e-05,0.00012061867112821667, ,6.223955869104396e-05, ,0.00022494890658857455, ,0.00536625644820658, ,0.0,0.0,0.0,0.0,0.0,0.0, ,0.0,0.0,0.0,0.0,0.0,0.0, ,1.3312478065490723
0.009654914407756626,0.020088640742102842,-0.08003380588544888, ,0.015338253172109967,0.021297035605765766,-0.08987806962413487, ,0.011431101706035873, ,1.144106680148602e-06,6.032405284762777e-05,1.527947427096094e-05,0.00021997839234497995,-4.702677404110663e-05,0.00012061867112821667, ,6.223955869104396e-05, ,0.00022494890658857455, ,0.005404886035836066, ,0.0,0.0,0.0,0.0,0.0,0.0, ,0.0,0.0,0.0,0.0,0.0,0.0, ,1.3335468769073486
0.009654914407756626,0.020088640742102842,-0.08003380588544888, ,0.015375673268698225,0.02128987257936144,-0.08996358001241332, ,0.011522606219272527, ,1.144106680148602e-06,6.032405284762777e-05,1.527947427096094e-05,0.00021997839234497995,-4.702677404110663e-05,0.00012061867112821667, ,6.223955869104396e-05, ,0.00022494890658857455, ,0.0054436057838325, ,0.0,0.0,0.0,0.0,0.0,0.0, ,0.0,0.0,0.0,0.0,0.0,0.0, ,1.3358159065246582
0.009654914407756626,0.020088640742102842,-0.08003380588544888, ,0.015413144230878056,0.021282602525983595,-0.09004925832157033, ,0.011614303377192449, ,1.144106680148602e-06,6.032405284762777e-05,1.527947427096094e-05,0.00021997839234497995,-4.702677404110663e-05,0.00012061867112821667, ,6.223955869104396e-05, ,0.00022494890658857455, ,0.0054824152026586625, ,0.0,0.0,0.0,0.0,0.0,0.0, ,0.0,0.0,0.0,0.0,0.0,0.0, ,1.3386437892913818
0.009654914407756626,0.020088640742102842,-0.08003380588544888, ,0.015450666015191005,0.021275226920524897,-0.09013510186770957, ,0.011706190839685483, ,1.144106680148602e-06,6.032405284762777e-05,1.527947427096094e-05,0.00021997839234497995,-4.702677404110663e-05,0.00012061867112821667, ,6.223955869104396e-05, ,0.00022494890658857455, ,0.0055213138003900805, ,0.0,0.0,0.0,0.0,0.0,0.0, ,0.0,0.0,0.0,0.0,0.0,0.0, ,1.3410007953643799
0.009654914407756626,0.020088640742102842,-0.08003380588544888, ,0.015488238577962573,0.021267747232960838,-0.0902211079766411, ,0.011798266266223255, ,1.144106680148602e-06,6.032405284762777e-05,1.527947427096094e-05,0.00021997839234497995,-4.702677404110663e-05,0.00012061867112821667, ,6.223955869104396e-05, ,0.00022494890658857455, ,0.00556030108278656, ,0.0,0.0,0.0,0.0,0.0,0.0, ,0.0,0.0,0.0,0.0,0.0,0.0, ,1.3432459831237793
0.009654914407756626,0.020088640742102842,-0.08003380588544888, ,0.015525861875302572,0.021260164928356945,-0.09030727398386845, ,0.011890527316099448, ,1.144106680148602e-06,6.032405284762777e-05,1.527947427096094e-05,0.00021997839234497995,-4.702677404110663e-05,0.00012061867112821667, ,6.223955869104396e-05, ,0.00022494890658857455, ,0.0055993765533625655, ,0.0,0.0,0.0,0.0,0.0,0.0, ,0.0,0.0,0.0,0.0,0.0,0.0, ,1.3454959392547607
0.009654914407756626,0.020088640742102842,-0.08003380588544888, ,0.015563535863105582,0.02125248146687365,-0.0903935972345766, ,0.011982971648664893, ,1.144106680148602e-06,6.032405284762777e-05,1.527947427096094e-05,0.00021997839234497995,-4.702677404110663e-05,0.00012061867112821667, ,6.223955869104396e-05, ,0.00022494890658857455, ,0.005638539713456445, ,0.0,0.0,0.0,0.0,0.0,0.0, ,0.0,0.0,0.0,0.0,0.0,0.0, ,1.3477118015289307
0.009654914407756626,0.020088640742102842,-0.08003380588544888, ,0.01560126049705119,0.02124469830377299,-0.0904800750836177, ,0.012075596923555133, ,1.144106680148602e-06,6.032405284762777e-05,1.527947427096094e-05,0.00021997839234497995,-4.702677404110663e-05,0.00012061867112821667, ,6.223955869104396e-05, ,0.00022494890658857455, ,0.0056777900622985095, ,0.0,0.0,0.0,0.0,0.0,0.0, ,0.0,0.0,0.0,0.0,0.0,0.0, ,1.3499348163604736
0.009654914407756626,0.020088640742102842,-0.08003380588544888, ,0.0156390357326049,0.021236816889425886,-0.09056670489549969, ,0.012168400800915241, ,1.144106680148602e-06,6.032405284762777e-05,1.527947427096094e-05,0.00021997839234497995,-4.702677404110663e-05,0.00012061867112821667, ,6.223955869104396e-05, ,0.00022494890658857455, ,0.005717127097078004, ,0.0,0.0,0.0,0.0,0.0,0.0, ,0.0,0.0,0.0,0.0,0.0,0.0, ,1.3521699905395508
0.009654914407756626,0.020088640742102842,-0.08003380588544888, ,0.015676861525017974,0.021228838669316415,-0.09065348404437236, ,0.012261380941616273, ,1.144106680148602e-06,6.032405284762777e-05,1.527947427096094e-05,0.00021997839234497995,-4.702677404110663e-05,0.00012061867112821667, ,6.223955869104396e-05, ,0.00022494890658857455, ,0.005756550313008958, ,0.0,0.0,0.0,0.0,0.0,0.0, ,0.0,0.0,0.0,0.0,0.0,0.0, ,1.3544049263000488
0.009654914407756626,0.020088640742102842,-0.08003380588544888, ,0.01571473782932824,0.021220765084049326,-0.09074040991401532, ,0.012354535007468742, ,1.144106680148602e-06,6.032405284762777e-05,1.527947427096094e-05,0.00021997839234497995,-4.702677404110663e-05,0.00012061867112821667, ,6.223955869104396e-05, ,0.00022494890658857455, ,0.005796059203394945, ,0.0,0.0,0.0,0.0,0.0,0.0, ,0.0,0.0,0.0,0.0,0.0,0.0, ,1.3566138744354248
0.009654914407756626,0.020088640742102842,-0.08003380588544888, ,0.01575266460036049,0.02121259756935618,-0.09082747989782472, ,0.012447860661429635, ,1.144106680148602e-06,6.032405284762777e-05,1.527947427096094e-05,0.00021997839234497995,-4.702677404110663e-05,0.00012061867112821667, ,6.223955869104396e-05, ,0.00022494890658857455, ,0.0058356532596927704, ,0.0,0.0,0.0,0.0,0.0,0.0, ,0.0,0.0,0.0,0.0,0.0,0.0, ,1.359151840209961
0.009654914407756626,0.020088640742102842,-0.08003380588544888, ,0.015790641792726705,0.021204337556100655,-0.09091469139880028, ,0.012541355567804339, ,1.144106680148602e-06,6.032405284762777e-05,1.527947427096094e-05,0.00021997839234497995,-4.702677404110663e-05,0.00012061867112821667, ,6.223955869104396e-05, ,0.00022494890658857455, ,0.005875331971575088, ,0.0,0.0,0.0,0.0,0.0,0.0, ,0.0,0.0,0.0,0.0,0.0,0.0, ,1.3639318943023682
0.009654914407756626,0.020088640742102842,-0.08003380588544888, ,0.015828669360826705,0.02119598647028602,-0.09100204182953296, ,0.012635017392444731, ,1.144106680148602e-06,6.032405284762777e-05,1.527947427096094e-05,0.00021997839234497995,-4.702677404110663e-05,0.00012061867112821667, ,6.223955869104396e-05, ,0.00022494890658857455, ,0.005915094826991968, ,0.0,0.0,0.0,0.0,0.0,0.0, ,0.0,0.0,0.0,0.0,0.0,0.0, ,1.36643385887146
0.009654914407756626,0.020088640742102842,-0.08003380588544888, ,0.015866747258848513,0.0211875457330603,-0.09108952861219179, ,0.012728843802941222, ,1.144106680148602e-06,6.032405284762777e-05,1.527947427096094e-05,0.00021997839234497995,-4.702677404110663e-05,0.00012061867112821667, ,6.223955869104396e-05, ,0.00022494890658857455, ,0.005954941312231437, ,0.0,0.0,0.0,0.0,0.0,0.0, ,0.0,0.0,0.0,0.0,0.0,0.0, ,1.369140863418579
0.009654914407756626,0.020088640742102842,-0.08003380588544888, ,0.015904875440768622,0.021179016760722622,-0.091177149178511, ,0.012822832468810545, ,1.144106680148602e-06,6.032405284762777e-05,1.527947427096094e-05,0.00021997839234497995,-4.702677404110663e-05,0.00012061867112821667, ,6.223955869104396e-05, ,0.00022494890658857455, ,0.005994870911978989, ,0.0,0.0,0.0,0.0,0.0,0.0, ,0.0,0.0,0.0,0.0,0.0,0.0, ,1.3721950054168701
0.009654914407756626,0.020088640742102842,-0.08003380588544888, ,0.01594305386035266,0.021170400964730017,-0.09126490096977727, ,0.012916981061679173, ,1.144106680148602e-06,6.032405284762777e-05,1.527947427096094e-05,0.00021997839234497995,-4.702677404110663e-05,0.00012061867112821667, ,6.223955869104396e-05, ,0.00022494890658857455, ,0.006034883109376101, ,0.0,0.0,0.0,0.0,0.0,0.0, ,0.0,0.0,0.0,0.0,0.0,0.0, ,1.3744049072265625
0.009654914407756626,0.020088640742102842,-0.08003380588544888, ,0.015981282471155697,0.02116169975170305,-0.09135278143681703, ,0.013011287255462078, ,1.144106680148602e-06,6.032405284762777e-05,1.527947427096094e-05,0.00021997839234497995,-4.702677404110663e-05,0.00012061867112821667, ,6.223955869104396e-05, ,0.00022494890658857455, ,0.006074977386077744, ,0.0,0.0,0.0,0.0,0.0,0.0, ,0.0,0.0,0.0,0.0,0.0,0.0, ,1.3766288757324219
0.009654914407756626,0.020088640742102842,-0.08003380588544888, ,0.016019561226522736,0.021152914523432507,-0.09144078803998357, ,0.013105748726537074, ,1.144106680148602e-06,6.032405284762777e-05,1.527947427096094e-05,0.00021997839234497995,-4.702677404110663e-05,0.00012061867112821667, ,6.223955869104396e-05, ,0.00022494890658857455, ,0.006115153222308941, ,0.0,0.0,0.0,0.0,0.0,0.0, ,0.0,0.0,0.0,0.0,0.0,0.0, ,1.378835916519165
0.009654914407756626,0.020088640742102842,-0.08003380588544888, ,0.016057890079589018,0.021144046676884343,-0.09152891824914357, ,0.013200363153914211, ,1.144106680148602e-06,6.032405284762777e-05,1.527947427096094e-05,0.00021997839234497995,-4.702677404110663e-05,0.00012061867112821667, ,6.223955869104396e-05, ,0.00022494890658857455, ,0.006155410096920334, ,0.0,0.0,0.0,0.0,0.0,0.0, ,0.0,0.0,0.0,0.0,0.0,0.0, ,1.3812479972839355
0.009654914407756626,0.020088640742102842,-0.08003380588544888, ,0.01609626898328056,0.021135097604208168,-0.09161716954366576, ,0.013295128219403153, ,1.144106680148602e-06,6.032405284762777e-05,1.527947427096094e-05,0.00021997839234497995,-4.702677404110663e-05,0.00012061867112821667, ,6.223955869104396e-05, ,0.00022494890658857455, ,0.006195747487442836, ,0.0,0.0,0.0,0.0,0.0,0.0, ,0.0,0.0,0.0,0.0,0.0,0.0, ,1.3835399150848389
0.009654914407756626,0.020088640742102842,-0.08003380588544888, ,0.01613469789031459,0.021126068692741088,-0.0917055394124063, ,0.013390041607773236, ,1.144106680148602e-06,6.032405284762777e-05,1.527947427096094e-05,0.00021997839234497995,-4.702677404110663e-05,0.00012061867112821667, ,6.223955869104396e-05, ,0.00022494890658857455, ,0.006236164870141322, ,0.0,0.0,0.0,0.0,0.0,0.0, ,0.0,0.0,0.0,0.0,0.0,0.0, ,1.3858158588409424
0.009654914407756626,0.020088640742102842,-0.08003380588544888, ,0.016173176753199882,0.021116961325015185,-0.09179402535369706, ,0.013485101006912335, ,1.144106680148602e-06,6.032405284762777e-05,1.527947427096094e-05,0.00021997839234497995,-4.702677404110663e-05,0.00012061867112821667, ,6.223955869104396e-05, ,0.00022494890658857455, ,0.0062766617200674165, ,0.0,0.0,0.0,0.0,0.0,0.0, ,0.0,0.0,0.0,0.0,0.0,0.0, ,1.388139009475708
0.009654914407756626,0.020088640742102842,-0.08003380588544888, ,0.01621170552423725,0.021107776878763612,-0.09188262487533286, ,0.013580304107980876, ,1.144106680148602e-06,6.032405284762777e-05,1.527947427096094e-05,0.00021997839234497995,-4.702677404110663e-05,0.00012061867112821667, ,6.223955869104396e-05, ,0.00022494890658857455, ,0.0063172375111113805, ,0.0,0.0,0.0,0.0,0.0,0.0, ,0.0,0.0,0.0,0.0,0.0,0.0, ,1.3904168605804443
0.009654914407756626,0.020088640742102842,-0.08003380588544888, ,0.016250284155519996,0.021098516726926423,-0.0919713354945577, ,0.013675648605561109, ,1.144106680148602e-06,6.032405284762777e-05,1.527947427096094e-05,0.00021997839234497995,-4.702677404110663e-05,0.00012061867112821667, ,6.223955869104396e-05, ,0.00022494890658857455, ,0.006357891716053092, ,0.0,0.0,0.0,0.0,0.0,0.0, ,0.0,0.0,0.0,0.0,0.0,0.0, ,1.3926329612731934
0.009654914407756626,0.020088640742102842,-0.08003380588544888, ,0.01628891259893431,0.021089182237657135,-0.09206015473805323, ,0.013771132197804684, ,1.144106680148602e-06,6.032405284762777e-05,1.527947427096094e-05,0.00021997839234497995,-4.702677404110663e-05,0.00012061867112821667, ,6.223955869104396e-05, ,0.00022494890658857455, ,0.006398623806612167, ,0.0,0.0,0.0,0.0,0.0,0.0, ,0.0,0.0,0.0,0.0,0.0,0.0, ,1.3949289321899414
0.009654914407756626,0.020088640742102842,-0.08003380588544888, ,0.01632759080615962,0.0210797747743282,-0.09214908014192426, ,0.013866752586573926, ,1.144106680148602e-06,6.032405284762777e-05,1.527947427096094e-05,0.00021997839234497995,-4.702677404110663e-05,0.00012061867112821667, ,6.223955869104396e-05, ,0.00022494890658857455, ,0.006439433253497204, ,0.0,0.0,0.0,0.0,0.0,0.0, ,0.0,0.0,0.0,0.0,0.0,0.0, ,1.3971447944641113
0.009654914407756626,0.020088640742102842,-0.08003380588544888, ,0.01636631872866913,0.021070295695538505,-0.09223810925168771, ,0.013962507477582825, ,1.144106680148602e-06,6.032405284762777e-05,1.527947427096094e-05,0.00021997839234497995,-4.702677404110663e-05,0.00012061867112821667, ,6.223955869104396e-05, ,0.00022494890658857455, ,0.006480319526454191, ,0.0,0.0,0.0,0.0,0.0,0.0, ,0.0,0.0,0.0,0.0,0.0,0.0, ,1.3996009826660156
0.009654914407756626,0.020088640742102842,-0.08003380588544888, ,0.016405096317730294,0.02106074635511842,-0.09232723962225843, ,0.014058394580531567, ,1.144106680148602e-06,6.032405284762777e-05,1.527947427096094e-05,0.00021997839234497995,-4.702677404110663e-05,0.00012061867112821667, ,6.223955869104396e-05, ,0.00022494890658857455, ,0.006521282094314068, ,0.0,0.0,0.0,0.0,0.0,0.0, ,0.0,0.0,0.0,0.0,0.0,0.0, ,1.402143955230713
0.009654914407756626,0.020088640742102842,-0.08003380588544888, ,0.016443923524405008,0.0210511281021363,-0.09241646881793704, ,0.014154411609239546, ,1.144106680148602e-06,6.032405284762777e-05,1.527947427096094e-05,0.00021997839234497995,-4.702677404110663e-05,0.00012061867112821667, ,6.223955869104396e-05, ,0.00022494890658857455, ,0.006562320425039474, ,0.0,0.0,0.0,0.0,0.0,0.0, ,0.0,0.0,0.0,0.0,0.0,0.0, ,1.4044690132141113
0.009654914407756626,0.020088640742102842,-0.08003380588544888, ,0.016482800299550304,0.02104144228090525,-0.0925057944123969, ,0.014250556281774488, ,1.144106680148602e-06,6.032405284762777e-05,1.527947427096094e-05,0.00021997839234497995,-4.702677404110663e-05,0.00012061867112821667, ,6.223955869104396e-05, ,0.00022494890658857455, ,0.0066034339857706775, ,0.0,0.0,0.0,0.0,0.0,0.0, ,0.0,0.0,0.0,0.0,0.0,0.0, ,1.4067540168762207
0.009654914407756626,0.020088640742102842,-0.08003380588544888, ,0.01652172659381862,0.02103169023098828,-0.09259521398867136, ,0.01434682632057836, ,1.144106680148602e-06,6.032405284762777e-05,1.527947427096094e-05,0.00021997839234497995,-4.702677404110663e-05,0.00012061867112821667, ,6.223955869104396e-05, ,0.00022494890658857455, ,0.0066446222428707185, ,0.0,0.0,0.0,0.0,0.0,0.0, ,0.0,0.0,0.0,0.0,0.0,0.0, ,1.409747838973999
0.009654914407756626,0.020088640742102842,-0.08003380588544888, ,0.016560702357658302,0.021021873287205357,-0.09268472513914075, ,0.01444321945259011, ,1.144106680148602e-06,6.032405284762777e-05,1.527947427096094e-05,0.00021997839234497995,-4.702677404110663e-05,0.00012061867112821667, ,6.223955869104396e-05, ,0.00022494890658857455, ,0.0066858846619697624, ,0.0,0.0,0.0,0.0,0.0,0.0, ,0.0,0.0,0.0,0.0,0.0,0.0, ,1.4123499393463135
0.009654914407756626,0.020088640742102842,-0.08003380588544888, ,0.01659972754131393,0.021011992779639232,-0.0927743254655195, ,0.01453973340936537, ,1.144106680148602e-06,6.032405284762777e-05,1.527947427096094e-05,0.00021997839234497995,-4.702677404110663e-05,0.00012061867112821667, ,6.223955869104396e-05, ,0.00022494890658857455, ,0.006727220708008686, ,0.0,0.0,0.0,0.0,0.0,0.0, ,0.0,0.0,0.0,0.0,0.0,0.0, ,1.4146599769592285
0.009654914407756626,0.020088640742102842,-0.08003380588544888, ,0.01663880209482693,0.021002050033641865,-0.09286401257884382, ,0.014636365927193752, ,1.144106680148602e-06,6.032405284762777e-05,1.527947427096094e-05,0.00021997839234497995,-4.702677404110663e-05,0.00012061867112821667, ,6.223955869104396e-05, ,0.00022494890658857455, ,0.006768629845281907, ,0.0,0.0,0.0,0.0,0.0,0.0, ,0.0,0.0,0.0,0.0,0.0,0.0, ,1.416929006576538
0.009654914407756626,0.020088640742102842,-0.08003380588544888, ,0.016677925968035745,0.020992046369840114,-0.09295378409945777, ,0.014733114747211668, ,1.144106680148602e-06,6.032405284762777e-05,1.527947427096094e-05,0.00021997839234497995,-4.702677404110663e-05,0.00012061867112821667, ,6.223955869104396e-05, ,0.00022494890658857455, ,0.006810111537479457, ,0.0,0.0,0.0,0.0,0.0,0.0, ,0.0,0.0,0.0,0.0,0.0,0.0, ,1.419778823852539
0.009654914407756626,0.020088640742102842,-0.08003380588544888, ,0.016717099110576488,0.02098198310414281,-0.09304363765700237, ,0.014829977615515154, ,1.144106680148602e-06,6.032405284762777e-05,1.527947427096094e-05,0.00021997839234497995,-4.702677404110663e-05,0.00012061867112821667, ,6.223955869104396e-05, ,0.00022494890658857455, ,0.006851665247728347, ,0.0,0.0,0.0,0.0,0.0,0.0, ,0.0,0.0,0.0,0.0,0.0,0.0, ,1.4223039150238037
0.009654914407756626,0.020088640742102842,-0.08003380588544888, ,0.0167563214718833,0.020971861547745985,-0.0931335708904002, ,0.014926952283265875, ,1.144106680148602e-06,6.032405284762777e-05,1.527947427096094e-05,0.00021997839234497995,-4.702677404110663e-05,0.00012061867112821667, ,6.223955869104396e-05, ,0.00022494890658857455, ,0.006893290438633179, ,0.0,0.0,0.0,0.0,0.0,0.0, ,0.0,0.0,0.0,0.0,0.0,0.0, ,1.4245219230651855
0.009654914407756626,0.020088640742102842,-0.08003380588544888, ,0.016795593001188713,0.020961683007139846,-0.09322358144784489, ,0.015024036506798667, ,1.144106680148602e-06,6.032405284762777e-05,1.527947427096094e-05,0.00021997839234497995,-4.702677404110663e-05,0.00012061867112821667, ,6.223955869104396e-05, ,0.00022494890658857455, ,0.006934986572316079, ,0.0,0.0,0.0,0.0,0.0,0.0, ,0.0,0.0,0.0,0.0,0.0,0.0, ,1.426698923110962
0.009654914407756626,0.020088640742102842,-0.08003380588544888, ,0.01683491364752417,0.020951448784114344,-0.0933136669867866, ,0.015121228047723005, ,1.144106680148602e-06,6.032405284762777e-05,1.527947427096094e-05,0.00021997839234497995,-4.702677404110663e-05,0.00012061867112821667, ,6.223955869104396e-05, ,0.00022494890658857455, ,0.0069767531104559105, ,0.0,0.0,0.0,0.0,0.0,0.0, ,0.0,0.0,0.0,0.0,0.0,0.0, ,1.428898811340332
0.009654914407756626,0.020088640742102842,-0.08003380588544888, ,0.016874283359720365,0.020941160175765906,-0.09340382517392053, ,0.015218524673024487, ,1.144106680148602e-06,6.032405284762777e-05,1.527947427096094e-05,0.00021997839234497995,-4.702677404110663e-05,0.00012061867112821667, ,6.223955869104396e-05, ,0.00022494890658857455, ,0.007018589514326818, ,0.0,0.0,0.0,0.0,0.0,0.0, ,0.0,0.0,0.0,0.0,0.0,0.0, ,1.431121826171875
0.009654914407756626,0.020088640742102842,-0.08003380588544888, ,0.016913702086407707,0.020930818474503367,-0.09349405368517283, ,0.015315924155161564, ,1.144106680148602e-06,6.032405284762777e-05,1.527947427096094e-05,0.00021997839234497995,-4.702677404110663e-05,0.00012061867112821667, ,6.223955869104396e-05, ,0.00022494890658857455, ,0.007060495244836084, ,0.0,0.0,0.0,0.0,0.0,0.0, ,0.0,0.0,0.0,0.0,0.0,0.0, ,1.4333529472351074
0.009654914407756626,0.020088640742102842,-0.08003380588544888, ,0.01695316977601684,0.02092042496805396,-0.09358435020568846, ,0.015413424272161504, ,1.144106680148602e-06,6.032405284762777e-05,1.527947427096094e-05,0.00021997839234497995,-4.702677404110663e-05,0.00012061867112821667, ,6.223955869104396e-05, ,0.00022494890658857455, ,0.007102469762561337, ,0.0,0.0,0.0,0.0,0.0,0.0, ,0.0,0.0,0.0,0.0,0.0,0.0, ,1.4356539249420166
0.009654914407756626,0.020088640742102842,-0.08003380588544888, ,0.01699268637677885,0.020909980939470118,-0.09367471242981877, ,0.015511022807713647, ,1.144106680148602e-06,6.032405284762777e-05,1.527947427096094e-05,0.00021997839234497995,-4.702677404110663e-05,0.00012061867112821667, ,6.223955869104396e-05, ,0.00022494890658857455, ,0.007144512527787098, ,0.0,0.0,0.0,0.0,0.0,0.0, ,0.0,0.0,0.0,0.0,0.0,0.0, ,1.4379329681396484
0.009654914407756626,0.020088640742102842,-0.08003380588544888, ,0.01703225183672591,0.020899487667135067,-0.09376513806110777, ,0.01560871755125931, ,1.144106680148602e-06,6.032405284762777e-05,1.527947427096094e-05,0.00021997839234497995,-4.702677404110663e-05,0.00012061867112821667, ,6.223955869104396e-05, ,0.00022494890658857455, ,0.007186623000540691, ,0.0,0.0,0.0,0.0,0.0,0.0, ,0.0,0.0,0.0,0.0,0.0,0.0, ,1.4401609897613525
0.009654914407756626,0.020088640742102842,-0.08003380588544888, ,0.01707186610369168,0.020888946424769343,-0.09385562481227933, ,0.015706506298080118, ,1.144106680148602e-06,6.032405284762777e-05,1.527947427096094e-05,0.00021997839234497995,-4.702677404110663e-05,0.00012061867112821667, ,6.223955869104396e-05, ,0.00022494890658857455, ,0.00722880064062752, ,0.0,0.0,0.0,0.0,0.0,0.0, ,0.0,0.0,0.0,0.0,0.0,0.0, ,1.4423768520355225
0.009654914407756626,0.020088640742102842,-0.08003380588544888, ,0.01711152912531149,0.02087835848143677,-0.09394617040522552, ,0.015804386849385024, ,1.144106680148602e-06,6.032405284762777e-05,1.527947427096094e-05,0.00021997839234497995,-4.702677404110663e-05,0.00012061867112821667, ,6.223955869104396e-05, ,0.00022494890658857455, ,0.007271044907665735, ,0.0,0.0,0.0,0.0,0.0,0.0, ,0.0,0.0,0.0,0.0,0.0,0.0, ,1.444659948348999
0.009654914407756626,0.020088640742102842,-0.08003380588544888, ,0.017151240849023152,0.02086772510155094,-0.09403677257099208, ,0.015902357012392877, ,1.144106680148602e-06,6.032405284762777e-05,1.527947427096094e-05,0.00021997839234497995,-4.702677404110663e-05,0.00012061867112821667, ,6.223955869104396e-05, ,0.00022494890658857455, ,0.00731335526112028, ,0.0,0.0,0.0,0.0,0.0,0.0, ,0.0,0.0,0.0,0.0,0.0,0.0, ,1.4470629692077637
0.009654914407756626,0.020088640742102842,-0.08003380588544888, ,0.017191001222067074,0.020857047544881317,-0.094127429049767, ,0.016000414600415333, ,1.144106680148602e-06,6.032405284762777e-05,1.527947427096094e-05,0.00021997839234497995,-4.702677404110663e-05,0.00012061867112821667, ,6.223955869104396e-05, ,0.00022494890658857455, ,0.0073557311603363535, ,0.0,0.0,0.0,0.0,0.0,0.0, ,0.0,0.0,0.0,0.0,0.0,0.0, ,1.4494109153747559
0.009654914407756626,0.020088640742102842,-0.08003380588544888, ,0.017230810191486805,0.02084632706655919,-0.09421813759086724, ,0.016098557432936197, ,1.144106680148602e-06,6.032405284762777e-05,1.527947427096094e-05,0.00021997839234497995,-4.702677404110663e-05,0.00012061867112821667, ,6.223955869104396e-05, ,0.00022494890658857455, ,0.007398172064572274, ,0.0,0.0,0.0,0.0,0.0,0.0, ,0.0,0.0,0.0,0.0,0.0,0.0, ,1.453711986541748
0.009654914407756626,0.020088640742102842,-0.08003380588544888, ,0.01727066770412956,0.020835564917084416,-0.09430889595272522, ,0.016196783335688563, ,1.144106680148602e-06,6.032405284762777e-05,1.527947427096094e-05,0.00021997839234497995,-4.702677404110663e-05,0.00012061867112821667, ,6.223955869104396e-05, ,0.00022494890658857455, ,0.007440677433031774, ,0.0,0.0,0.0,0.0,0.0,0.0, ,0.0,0.0,0.0,0.0,0.0,0.0, ,1.4560949802398682
0.009654914407756626,0.020088640742102842,-0.08003380588544888, ,0.017310573706646376,0.020824762342330546,-0.0943997019028767, ,0.016295090140730967, ,1.144106680148602e-06,6.032405284762777e-05,1.527947427096094e-05,0.00021997839234497995,-4.702677404110663e-05,0.00012061867112821667, ,6.223955869104396e-05, ,0.00022494890658857455, ,0.007483246724895713, ,0.0,0.0,0.0,0.0,0.0,0.0, ,0.0,0.0,0.0,0.0,0.0,0.0, ,1.458594799041748
0.009654914407756626,0.020088640742102842,-0.08003380588544888, ,0.017350528145492834,0.020813920583552508,-0.09449055321794819, ,0.01639347568652156, ,1.144106680148602e-06,6.032405284762777e-05,1.527947427096094e-05,0.00021997839234497995,-4.702677404110663e-05,0.00012061867112821667, ,6.223955869104396e-05, ,0.00022494890658857455, ,0.007525879399353253, ,0.0,0.0,0.0,0.0,0.0,0.0, ,0.0,0.0,0.0,0.0,0.0,0.0, ,1.4612209796905518
0.009654914407756626,0.020088640742102842,-0.08003380588544888, ,0.017390530966929336,0.020803040877391668,-0.09458144768364353, ,0.016491937817989365, ,1.144106680148602e-06,6.032405284762777e-05,1.527947427096094e-05,0.00021997839234497995,-4.702677404110663e-05,0.00012061867112821667, ,6.223955869104396e-05, ,0.00022494890658857455, ,0.007568574915632472, ,0.0,0.0,0.0,0.0,0.0,0.0, ,0.0,0.0,0.0,0.0,0.0,0.0, ,1.4640939235687256
0.009654914407756626,0.020088640742102842,-0.08003380588544888, ,0.017430582117021507,0.020792124455882327,-0.09467238309473087, ,0.01659047438660413, ,1.144106680148602e-06,6.032405284762777e-05,1.527947427096094e-05,0.00021997839234497995,-4.702677404110663e-05,0.00012061867112821667, ,6.223955869104396e-05, ,0.00022494890658857455, ,0.007611332733030442, ,0.0,0.0,0.0,0.0,0.0,0.0, ,0.0,0.0,0.0,0.0,0.0,0.0, ,1.4666109085083008
0.009654914407756626,0.020088640742102842,-0.08003380588544888, ,0.01747068154164069,0.020781172546458164,-0.09476335725503061, ,0.016689083250445276, ,1.144106680148602e-06,6.032405284762777e-05,1.527947427096094e-05,0.00021997839234497995,-4.702677404110663e-05,0.00012061867112821667, ,6.223955869104396e-05, ,0.00022494890658857455, ,0.007654152310942777, ,0.0,0.0,0.0,0.0,0.0,0.0, ,0.0,0.0,0.0,0.0,0.0,0.0, ,1.4688279628753662
0.009654914407756626,0.020088640742102842,-0.08003380588544888, ,0.017510829186464398,0.020770186371958144,-0.09485436797740196, ,0.016787762274267846, ,1.144106680148602e-06,6.032405284762777e-05,1.527947427096094e-05,0.00021997839234497995,-4.702677404110663e-05,0.00012061867112821667, ,6.223955869104396e-05, ,0.00022494890658857455, ,0.0076970331088926595, ,0.0,0.0,0.0,0.0,0.0,0.0, ,0.0,0.0,0.0,0.0,0.0,0.0, ,1.4710760116577148
0.009654914407756626,0.020088640742102842,-0.08003380588544888, ,0.01755102499697666,0.020759167150632783,-0.09494541308373043, ,0.016886509329567524, ,1.144106680148602e-06,6.032405284762777e-05,1.527947427096094e-05,0.00021997839234497995,-4.702677404110663e-05,0.00012061867112821667, ,6.223955869104396e-05, ,0.00022494890658857455, ,0.007739974586559365, ,0.0,0.0,0.0,0.0,0.0,0.0, ,0.0,0.0,0.0,0.0,0.0,0.0, ,1.4733037948608398
0.009654914407756626,0.020088640742102842,-0.08003380588544888, ,0.01759126891846847,0.02074811609615067,-0.0950364904049149, ,0.01698532229464363, ,1.144106680148602e-06,6.032405284762777e-05,1.527947427096094e-05,0.00021997839234497995,-4.702677404110663e-05,0.00012061867112821667, ,6.223955869104396e-05, ,0.00022494890658857455, ,0.007782976203806268, ,0.0,0.0,0.0,0.0,0.0,0.0, ,0.0,0.0,0.0,0.0,0.0,0.0, ,1.4754769802093506
0.009654914407756626,0.020088640742102842,-0.08003380588544888, ,0.0176315608960382,0.020737034417603634,-0.0951275977808542, ,0.01708419905466005, ,1.144106680148602e-06,6.032405284762777e-05,1.527947427096094e-05,0.00021997839234497995,-4.702677404110663e-05,0.00012061867112821667, ,6.223955869104396e-05, ,0.00022494890658857455, ,0.007826037420708368, ,0.0,0.0,0.0,0.0,0.0,0.0, ,0.0,0.0,0.0,0.0,0.0,0.0, ,1.4777169227600098
0.009654914407756626,0.020088640742102842,-0.08003380588544888, ,0.017671900874592195,0.02072592331951495,-0.09521873306043574, ,0.017183137501706493, ,1.144106680148602e-06,6.032405284762777e-05,1.527947427096094e-05,0.00021997839234497995,-4.702677404110663e-05,0.00012061867112821667, ,6.223955869104396e-05, ,0.00022494890658857455, ,0.007869157697579328, ,0.0,0.0,0.0,0.0,0.0,0.0, ,0.0,0.0,0.0,0.0,0.0,0.0, ,1.4800448417663574
0.009654914407756626,0.020088640742102842,-0.08003380588544888, ,0.017712288798844802,0.02071478400184302,-0.09530989410152092, ,0.017282135534854966, ,1.144106680148602e-06,6.032405284762777e-05,1.527947427096094e-05,0.00021997839234497995,-4.702677404110663e-05,0.00012061867112821667, ,6.223955869104396e-05, ,0.00022494890658857455, ,0.007912336494998022, ,0.0,0.0,0.0,0.0,0.0,0.0, ,0.0,0.0,0.0,0.0,0.0,0.0, ,1.4826149940490723
0.009654914407756626,0.020088640742102842,-0.08003380588544888, ,0.01775272461331932,0.020703617659989324,-0.0954010787709337, ,0.0173811910602181, ,1.144106680148602e-06,6.032405284762777e-05,1.527947427096094e-05,0.00021997839234497995,-4.702677404110663e-05,0.00012061867112821667, ,6.223955869104396e-05, ,0.00022494890658857455, ,0.007955573273834645, ,0.0,0.0,0.0,0.0,0.0,0.0, ,0.0,0.0,0.0,0.0,0.0,0.0, ,1.484867811203003
0.009654914407756626,0.020088640742102842,-0.08003380588544888, ,0.017793208262348002,0.0206924254848042,-0.09549228494444671, ,0.01748030199100328, ,1.144106680148602e-06,6.032405284762777e-05,1.527947427096094e-05,0.00021997839234497995,-4.702677404110663e-05,0.00012061867112821667, ,6.223955869104396e-05, ,0.00022494890658857455, ,0.00799886749527632, ,0.0,0.0,0.0,0.0,0.0,0.0, ,0.0,0.0,0.0,0.0,0.0,0.0, ,1.487170934677124
0.009654914407756626,0.020088640742102842,-0.08003380588544888, ,0.017833739690072674,0.02068120866259296,-0.09558351050676923, ,0.017579466247567295, ,1.144106680148602e-06,6.032405284762777e-05,1.527947427096094e-05,0.00021997839234497995,-4.702677404110663e-05,0.00012061867112821667, ,6.223955869104396e-05, ,0.00022494890658857455, ,0.008042218620852297, ,0.0,0.0,0.0,0.0,0.0,0.0, ,0.0,0.0,0.0,0.0,0.0,0.0, ,1.489574909210205
0.009654914407756626,0.020088640742102842,-0.08003380588544888, ,0.017874318840445068,0.020669968375121698,-0.09567475335153389, ,0.01767868175746825, ,1.144106680148602e-06,6.032405284762777e-05,1.527947427096094e-05,0.00021997839234497995,-4.702677404110663e-05,0.00012061867112821667, ,6.223955869104396e-05, ,0.00022494890658857455, ,0.008085626112458676, ,0.0,0.0,0.0,0.0,0.0,0.0, ,0.0,0.0,0.0,0.0,0.0,0.0, ,1.4918909072875977
0.009654914407756626,0.020088640742102842,-0.08003380588544888, ,0.017914945657227427,0.02065870579962433,-0.095766011381284, ,0.0177779464555169, ,1.144106680148602e-06,6.032405284762777e-05,1.527947427096094e-05,0.00021997839234497995,-4.702677404110663e-05,0.00012061867112821667, ,6.223955869104396e-05, ,0.00022494890658857455, ,0.008129089432382705, ,0.0,0.0,0.0,0.0,0.0,0.0, ,0.0,0.0,0.0,0.0,0.0,0.0, ,1.4942858219146729
0.009654914407756626,0.020088640742102842,-0.08003380588544888, ,0.017955620083992794,0.02064742210880816,-0.09585728250746062, ,0.017877258283826084, ,1.144106680148602e-06,6.032405284762777e-05,1.527947427096094e-05,0.00021997839234497995,-4.702677404110663e-05,0.00012061867112821667, ,6.223955869104396e-05, ,0.00022494890658857455, ,0.008172608043326647, ,0.0,0.0,0.0,0.0,0.0,0.0, ,0.0,0.0,0.0,0.0,0.0,0.0, ,1.4967758655548096
0.009654914407756626,0.020088640742102842,-0.08003380588544888, ,0.017996342064125335,0.02063611847086025,-0.0959485646503895, ,0.017976615191858912, ,1.144106680148602e-06,6.032405284762777e-05,1.527947427096094e-05,0.00021997839234497995,-4.702677404110663e-05,0.00012061867112821667, ,6.223955869104396e-05, ,0.00022494890658857455, ,0.008216181408431236, ,0.0,0.0,0.0,0.0,0.0,0.0, ,0.0,0.0,0.0,0.0,0.0,0.0, ,1.4992709159851074
0.009654914407756626,0.020088640742102842,-0.08003380588544888, ,0.01803711154082091,0.020624796049453234,-0.09603985573926929, ,0.01807601513647672, ,1.144106680148602e-06,6.032405284762777e-05,1.527947427096094e-05,0.00021997839234497995,-4.702677404110663e-05,0.00012061867112821667, ,6.223955869104396e-05, ,0.00022494890658857455, ,0.008259808991298695, ,0.0,0.0,0.0,0.0,0.0,0.0, ,0.0,0.0,0.0,0.0,0.0,0.0, ,1.501814842224121
0.009654914407756626,0.020088640742102842,-0.08003380588544888, ,0.01807792845708759,0.02061345600375248,-0.09613115371215672, ,0.018175456081983274, ,1.144106680148602e-06,6.032405284762777e-05,1.527947427096094e-05,0.00021997839234497995,-4.702677404110663e-05,0.00012061867112821667, ,6.223955869104396e-05, ,0.00022494890658857455, ,0.008303490256015367, ,0.0,0.0,0.0,0.0,0.0,0.0, ,0.0,0.0,0.0,0.0,0.0,0.0, ,1.5041239261627197
0.009654914407756626,0.020088640742102842,-0.08003380588544888, ,0.018118792755745957,0.020602099488421725,-0.09622245651595657, ,0.01827493600017168, ,1.144106680148602e-06,6.032405284762777e-05,1.527947427096094e-05,0.00021997839234497995,-4.702677404110663e-05,0.00012061867112821667, ,6.223955869104396e-05, ,0.00022494890658857455, ,0.008347224667173947, ,0.0,0.0,0.0,0.0,0.0,0.0, ,0.0,0.0,0.0,0.0,0.0,0.0, ,1.5063788890838623
0.009654914407756626,0.020088640742102842,-0.08003380588544888, ,0.018159704379429334,0.020590727653628536,-0.09631376210640585, ,0.01837445287036503, ,1.144106680148602e-06,6.032405284762777e-05,1.527947427096094e-05,0.00021997839234497995,-4.702677404110663e-05,0.00012061867112821667, ,6.223955869104396e-05, ,0.00022494890658857455, ,0.008391011689895306, ,0.0,0.0,0.0,0.0,0.0,0.0, ,0.0,0.0,0.0,0.0,0.0,0.0, ,1.5085837841033936
0.009654914407756626,0.020088640742102842,-0.08003380588544888, ,0.018200663270584647,0.020579341645051864,-0.0964050684480628, ,0.018474004679460424, ,1.144106680148602e-06,6.032405284762777e-05,1.527947427096094e-05,0.00021997839234497995,-4.702677404110663e-05,0.00012061867112821667, ,6.223955869104396e-05, ,0.00022494890658857455, ,0.008434850789849936, ,0.0,0.0,0.0,0.0,0.0,0.0, ,0.0,0.0,0.0,0.0,0.0,0.0, ,1.5108637809753418
