NicholasDascanio/dvrk_moveit_final/test/execution/third_experiment_notsharpbends/thirdexp_500vel4.0/thirdexp_500vel4.0_25.csv
Current Position (x),Current Position (y),Current Position (z), ,Planned Position (x),Planned Position (y),Planned Position (z), ,Position Error,,Cartesian linear Velocity(x),Cartesian linear Velocity(y),Cartesian linear Velocity(z),Cartesian Angular Velocity(x),Cartesian Angular Velocity(y),Cartesian Angular Velocity(z), ,Total Linear Velocity, ,Total Angular Velocity, ,MSE, ,Joint 1 Position,Joint 2 Position,Joint 3 Position,Joint 4 Position,Joint 5 Position,Joint 6 Position, ,Joint 1 Velocity,Joint 2 Velocity,Joint 3 Velocity,Joint 4 Velocity,Joint 5 Velocity,Joint 6 Velocity, ,Time Stamp
0.010085929930408698,0.020407621614591104,-0.07995534709126091, ,0.010224240279068346,0.020316608902092092,-0.08003031358431487, ,0.00018174994212816052, ,1.0403087340902594e-05,-1.5954110082580133e-05,-2.759798310058e-06,0.03234340862503682,0.00029780663622868027,-0.022738666155733972, ,1.924511214469097e-05, ,0.03234477964492397, ,1.5145828510680043e-05, ,0.20686112276897772,-0.23076298101470258,0.09232436638000001,1.795155606171013,0.8307499185738779,-1.1362103378437802, ,0.00015893748542683545,3.123510626065049e-05,0.0,-0.002108173341601048,0.0,-0.04109176271275716, ,0.021988868713378906
0.010097781057643883,0.020409894632432608,-0.07996883966270134, ,0.010251089941689513,0.020329241232258956,-0.08006522504847621, ,0.00019823906647747024, ,0.0007082148827727471,1.110567252298625e-06,-0.00042580799763913444,0.23398765099823116,-0.07101484648414869,-0.20605607234086584, ,0.0008263667493273716, ,0.2445267454509572, ,1.7272227663892306e-05, ,0.20689973643334883,-0.23076298101470258,0.09233344041000001,1.795155606171013,0.8297934630755199,-1.1417196755087287, ,0.0016110053497032063,3.0042445766631782e-05,0.0,-0.0020238413871968906,-0.08002150959165065,-0.31073761480208484, ,0.046890974044799805
0.010121179355667864,0.020410174435821615,-0.07998649086783789, ,0.01027801153729149,0.020341680794246766,-0.08010078791749689, ,0.00020579486798693745, ,0.001001193667391878,5.763115000979246e-05,-0.0007654362804644794,-0.020862617835224452,-0.11640809466600048,-0.03293611947963504, ,0.0012615874161263447, ,0.11826281464055764, ,1.8305746143517755e-05, ,0.2069151818990973,-0.23075525828182836,0.0923347367,1.795155606171013,0.8267874600806802,-1.1444959209964032, ,0.0011189936691785296,-7.220701388924996e-08,0.0001207317694431583,0.0009586727802954992,-0.12170005252603847,0.00016386675384594263, ,0.06927895545959473
0.010154600572602406,0.020419962953879375,-0.08002234611325253, ,0.010305004999971074,0.02035392874461751,-0.08013699783112116, ,0.00020031731072267625, ,0.0014104269818625908,-3.0178959804757775e-05,-0.000567416665077211,-0.09072597101271919,-0.16808628937296133,-0.004175133025590258, ,0.0015205843326130445, ,0.19100838330128758, ,1.871669493607725e-05, ,0.20700785469358798,-0.2307707037475768,0.09235806992000001,1.7955749860579822,0.8239180935856059,-1.1504056977729753, ,0.002612346441331006,8.736080066216807e-05,-0.00038550483242328666,0.004284148979747843,-0.1880342651683918,0.06555528752842887, ,0.09551692008972168
0.01016684633836648,0.0204224361954072,-0.08003440865130888, ,0.010332070263601755,0.02036598623722632,-0.08017385044112744, ,0.0002234492246497604, ,0.0008357889806795322,0.00017209937766515164,-0.0008515385116558311,-0.08826518873561078,-0.058035745907621616,0.04002368965013958, ,0.0012055203245284135, ,0.10563565376134405, ,1.9414430999327015e-05, ,0.20708508202233022,-0.2307707037475768,0.09236844024000002,1.7955749860579822,0.8233715475865442,-1.1464478403321452, ,0.005503665526195097,8.736080066216807e-05,0.0007364639963336176,0.004284148979747843,0.021912318709106274,0.24642415633395648, ,0.12275886535644531
0.010169712245729785,0.020426304463564082,-0.08004580126541318, ,0.010359207261834182,0.02037785442322351,-0.08021134141131596, ,0.0002562407216718745, ,0.000534143867894601,0.0002792181804017668,-0.0008538156644932823,-0.05564914246649368,0.016594554450811417,0.04767052485045812, ,0.0010451189658648359, ,0.05807070082818531, ,2.041598602640128e-05, ,0.20719320028256938,-0.23076298101470258,0.09238918088,1.7955749860579822,0.8247379125841986,-1.1442131910233466, ,0.0060705904448253465,-3.5854197312828876e-05,0.0011095396854897052,0.004284148979747843,0.025077716452055546,0.03586277042838844, ,0.14578986167907715
0.01017965357694699,0.02043121553742079,-0.08006174408663064, ,0.010386415928096695,0.020389534451057994,-0.08024946641749493, ,0.0002823608618744116, ,0.0005552189794837925,0.00036481526845470627,-0.0009683316626942623,0.10320056461660009,0.028379525682963393,-0.06680879264845262, ,0.00117431874048443, ,0.10703155616533928, ,2.150211104876793e-05, ,0.2073244867414312,-0.23076298101470258,0.09241121781000002,1.7955749860579822,0.8254210950830257,-1.1450153167622503, ,0.006686012323823145,-0.0005847927209921814,0.0012981445414631343,0.004284148979747843,0.033277479240020384,-0.1198390241316863, ,0.1733839511871338
0.01020890849398933,0.02044588834882767,-0.08011473871052115, ,0.010413696195595765,0.02040102746647927,-0.08028822114746687, ,0.0002721151547101864, ,0.0011505587770325658,0.0006182180078757255,-0.0019837370286250504,-0.006623805979057246,-0.01681726053661874,-0.00486794309152242, ,0.0023751192819323093, ,0.018074707676031407, ,2.2198379880749724e-05, ,0.20754072326190948,-0.23076298101470258,0.09246955086000001,1.7957846760014666,0.8254210950830257,-1.1452603529826721, ,0.00793428242597687,-0.0009528390322417545,0.0021389568309386335,0.0079097635730723,-0.011069684720770826,0.009026585636238219, ,0.19652390480041504
0.010238773607776716,0.0204611832048599,-0.08016749069424503, ,0.010441047997316474,0.02041233461254017,-0.0803276013010161, ,0.0002625576508805281, ,0.0010091633139481932,0.00036378632167028796,-0.0016175125729490124,-0.005318724555754412,-0.013258016956869125,6.661959725653911e-05, ,0.0019409013384769026, ,0.014285091687404107, ,2.2639400011978322e-05, ,0.20776468251526198,-0.2307707037475768,0.09252788391000001,1.7959943659449509,0.8254210950830257,-1.1452603529826721, ,0.007636257429444835,0.0005271906284986253,0.0017364808046817781,0.00124780041386133,-0.006116727829311712,0.004987781400968299, ,0.2223348617553711
0.01025624882745468,0.020468740269950908,-0.08019154662059765, ,0.010468471266022959,0.020423457029599305,-0.08036760258989512, ,0.0002794362890067781, ,0.0009177637606989361,0.00029463542532950985,-0.001238765718002092,-0.00391457842247301,-0.011691550252056981,-0.0014341006208315916, ,0.0015695989482694597, ,0.012329487885518518, ,2.3388723664443403e-05, ,0.20791141443987224,-0.2307707037475768,0.09255510600000001,1.7962040558884358,0.8254210950830257,-1.1452603529826721, ,0.00755796006970612,0.0003909101366535867,0.0013505318654551816,0.0025711574370295897,-0.004889774993312484,0.003997179440573869, ,0.2426128387451172
0.010276292502335083,0.020476745831463805,-0.08022321926844284, ,0.010495965934258918,0.020434395855324226,-0.08040822073781191, ,0.00029030239551360205, ,0.0009985144636801024,0.000395342268609497,-0.0016252585654834332,-0.0031188379229948166,-0.010831791552693875,-0.0012883521104671784, ,0.0019480225995108305, ,0.011271861346715593, ,2.4114213505658052e-05, ,0.20807359183023097,-0.2307707037475768,0.09259010583,1.7962040558884358,0.8254210950830257,-1.1453420317228127, ,0.007624187040537407,0.00029067336875152717,0.0017646705169555358,0.002272592593209898,-0.0038575281695973434,0.0032746776988538994, ,0.26419496536254883
0.01029680314990045,0.02048531452612613,-0.08026006048307081, ,0.010523531934348063,0.02044515222469303,-0.08044945148041546, ,0.0002981407419805224, ,0.0011657408987009092,0.0005712900168104327,-0.002252740221507742,-0.002777756019598444,-0.010772149138635674,-0.0008670146588032515, ,0.0026000312751599773, ,0.011124528102863853, ,2.479583384540259e-05, ,0.20822804648771545,-0.23076298101470258,0.09263029082,1.7962040558884358,0.8254210950830257,-1.1451786742425314, ,0.008085914542315852,0.0,0.0024378346372819102,0.0020632274821113924,-0.0032574557589355032,0.0032808341333728074, ,0.28430700302124023
0.01032288648424139,0.020500453187516792,-0.08031016495808793, ,0.010551169198394595,0.02045572726999806,-0.08049129056528416, ,0.00029482179509196537, ,0.0012740036235807212,0.00067137382592966,-0.0024383661264127496,0.0008903943604117065,-0.006900112268014271,-0.00818553413395978, ,0.00283186465310003, ,0.006957323576064042, ,2.5355672052303697e-05, ,0.2083979466109484,-0.23076298101470258,0.092684735,1.796623435775405,0.8252844585832603,-1.1449855775986943, ,0.009019086294570138,0.0,0.0026753126503191137,0.009374125630347315,0.0,0.0012439799039712374, ,0.3049778938293457
0.010348191316045651,0.02051293656629644,-0.08035747826429077, ,0.010578877658283706,0.020466122120847707,-0.08053373375191092, ,0.0002940642407945296, ,0.0012991795251504994,0.0006384296437120813,-0.002293906979168135,0.0010090935180298824,-0.007560800673816334,-0.00827254980477797, ,0.0027124654979588016, ,0.00762784219119641, ,2.5836425280944546e-05, ,0.20858329219992977,-0.2307707037475768,0.0927365866,1.796623435775405,0.8252844585832603,-1.1449855775986943, ,0.009682788144070918,0.0,0.0025311952200858102,0.009374125630347315,0.0,0.0010978826261394347, ,0.3252718448638916
0.010361226163403884,0.02051857010958329,-0.0803798953153481, ,0.01060665724568206,0.020476337904169334,-0.08057677681169155, ,0.0003174622795306537, ,0.001307495438558593,0.0006093329054343553,-0.0021682583045792574,0.001064799140105363,-0.007976370596773289,-0.008313272078007236, ,0.00260426092910705, ,0.008047128994735598, ,2.6418168102877098e-05, ,0.2086836877272947,-0.2307707037475768,0.09276121611,1.796623435775405,0.8252844585832603,-1.1449855775986943, ,0.010099739459239358,0.0,0.002403986042861455,0.009374125630347315,0.0,0.0010294739052817815, ,0.34848499298095703
0.010397935240811642,0.02053131970754828,-0.08042969249241347, ,0.010634507892038108,0.020486375744211468,-0.08062041552790987, ,0.00030718374862238613, ,0.0012052537073337997,0.0004137181672941787,-0.0013722240421363734,0.0016619725843817741,-0.008972318705575166,-0.00802623135809564, ,0.001872644665388554, ,0.009124946894135065, ,2.686604059124156e-05, ,0.20900031977513792,-0.2307707037475768,0.09281695658000001,1.796623435775405,0.8252844585832603,-1.1448222201184133, ,0.010906440818120996,4.383449613739027e-06,0.001575656192291866,0.00846055709676659,0.0,5.315124786630689e-05, ,0.3690059185028076
0.010414600589945257,0.020537224618239862,-0.08045203236963705, ,0.010662429528582797,0.020496236762547283,-0.0806646456957258, ,0.0003290951436454322, ,0.0013102327003257207,0.0005436745590510737,-0.00193311361408691,0.0015371726082465923,-0.008945464861352061,-0.007449862626525958, ,0.0023977531149245463, ,0.009076576512443051, ,2.7398362410291915e-05, ,0.2091547744326224,-0.2307707037475768,0.09284288238,1.796623435775405,0.8254210950830257,-1.1449336380221098, ,0.010741023379566585,8.059370330900565e-06,0.002161890814332248,0.007854775467274784,0.0,5.315124786630689e-05, ,0.3901820182800293
0.010453699058987815,0.020553676559582477,-0.08051131098912492, ,0.010690422086329901,0.0205059220780762,-0.08070946312216146, ,0.000312382057751183, ,0.0014596240187432722,0.0005925464300812076,-0.0022544902182585792,0.0005973718997129198,-0.011030209943029369,-0.0031167024758341254, ,0.0027503344691360465, ,0.011046374270122656, ,2.7778690711208424e-05, ,0.2094714064804656,-0.2307707037475768,0.09290899317000001,1.7968331257188892,0.8254210950830257,-1.1448519592819693, ,0.011787800403622142,1.2530750461886675e-05,0.002502955927089881,0.0033189552170958684,0.0,7.755418599863122e-05, ,0.41099095344543457
0.010494333373187545,0.020571553580167587,-0.0805785458099858, ,0.010718485496076497,0.020515432807026897,-0.08075486362608794, ,0.00029065733716622527, ,0.0017098925158682192,0.0007286736912670407,-0.002827301241961502,-0.0016514376991256412,-0.012916713577392757,-0.0006981987615741408, ,0.003383538100415589, ,0.013021856086358674, ,2.8002037528600454e-05, ,0.20979576126118302,-0.23076298101470258,0.09298417799000001,1.7970428156623737,0.8255577315827912,-1.144881698445525, ,0.013328222128998705,0.0,0.003120237320274241,0.0023620383764686808,-8.010844319750527e-05,0.002636936843253269, ,0.4360959529876709
0.010525200757972477,0.020584599251608077,-0.0806303356207362, ,0.010746619688403477,0.020524770062960124,-0.08080084303821249, ,0.0002857947759877958, ,0.0014417376478300485,0.000561626094187318,-0.0021470176944469337,-0.0014702640435095915,-0.011377635911807344,-0.0008192037177053071, ,0.0026464535316364146, ,0.011472239330386326, ,2.83271874010162e-05, ,0.210035165980284,-0.23076298101470258,0.09304121475,1.7970428156623737,0.8255577315827912,-1.144881698445525, ,0.0118267232459441,0.0,0.002389919207801951,0.0023620383764686808,-4.5092243772107665e-05,0.0024190009653114134, ,0.4542269706726074
0.010552494410931479,0.020594028824576643,-0.08066918866836274, ,0.010774824593676003,0.020533934956770666,-0.08084739720106439, ,0.0002912048492638289, ,0.0013525742410097862,0.0005135266435150923,-0.001957699749927608,-0.0007344829349978394,-0.010483405468453728,-0.0012585696703780462, ,0.0024342873704453413, ,0.0105091034522005, ,2.8653386138671248e-05, ,0.21027457069938496,-0.23075525828182836,0.09308528861000001,1.7970428156623737,0.8256943680825566,-1.1447480801288, ,0.011248873443311536,1.8566034813028743e-05,0.002186521828414551,0.0023620383764686808,0.0002701212489349426,0.0015482494730170995, ,0.4756739139556885
0.01058056524964186,0.020604973741950992,-0.0807115798889901, ,0.010803100142043965,0.020542928596690855,-0.08089452196898295, ,0.00029468488766626436, ,0.0014178345384010472,0.0005738833216708892,-0.0021908308269805187,0.0023610999277750987,-0.007329014975310108,-0.0019325252363635163, ,0.0026719536967588094, ,0.00769995151457385, ,2.897114244234549e-05, ,0.2105139754184859,-0.23075525828182836,0.09313325134000001,1.7970428156623737,0.8258310045823221,-1.1448594980324962, ,0.011705555884848992,1.8566034813028743e-05,0.002458149925925926,0.0021920464981414005,0.004052285139414473,-0.0015358515749235035, ,0.49428582191467285
0.010595827157244721,0.020611310808532565,-0.08073350270942864, ,0.010831446263442445,0.02055175208829196,-0.08094221320810319, ,0.0003203493040714945, ,0.0014408571356721261,0.0006062293691498366,-0.002340415469901792,0.0012540660892642183,-0.006915732785612854,-0.0023107138824087882, ,0.002814449840589226, ,0.007028516319111903, ,2.9385068444834887e-05, ,0.2106375391444735,-0.23074753554895414,0.09315788085000001,1.7972525056058584,0.8258310045823221,-1.1447778192923557, ,0.011565745467211551,0.00016155140974749213,0.002613422726825267,0.0035241624137955854,0.004052285139414473,7.694070739691595e-06, ,0.5119140148162842
0.01062558764680964,0.02062551669004242,-0.08078961814225208, ,0.010859862887592315,0.020560406534488148,-0.08099046679634303, ,0.0003153797752713842, ,0.001525032565612436,0.0007330508469283652,-0.0028753461553887843,0.001073615064849194,-0.005758211881867654,-0.0015363508600940898, ,0.0033362708798402303, ,0.0058574442538886435, ,2.9746776677775004e-05, ,0.210861498397826,-0.23074753554895414,0.09322010277000001,1.7972525056058584,0.8259676410820875,-1.1448075584559114, ,0.011263729660728701,0.00016155140974749213,0.003177500801915021,0.0032089493991625307,0.005037636731449628,0.00036524517290658807, ,0.5300698280334473
0.010657143898387855,0.020641671152701963,-0.08084856072120308, ,0.010888349944000482,0.020568893035537803,-0.08103927862338993, ,0.0003084253687366523, ,0.0014775354549545845,0.0006505948517776053,-0.0025985642816386705,-0.0004003602542305034,-0.00650962478582931,0.0015089315529688166, ,0.003059235363226516, ,0.006521924797708474, ,3.0053086048707403e-05, ,0.21108545765117853,-0.23074753554895414,0.09328491727,1.7974621955493428,0.8259676410820875,-1.1446442009756304, ,0.011433489151068729,0.00016155140974749213,0.002884609112640348,0.0007722778823136638,0.005037636731449628,0.0015834297130475415, ,0.5495150089263916
0.010682447956888243,0.0206492246458561,-0.08088456009687188, ,0.01091690736196051,0.020577212689046873,-0.08108864459068829, ,0.00031907274275098463, ,0.0012321502976982385,0.0003946804983171732,-0.001622565211288856,0.0004684127162319008,-0.0035088397988467844,0.0017445884679174628, ,0.002075255385911479, ,0.003539967117849057, ,3.038354005862894e-05, ,0.21131713963740525,-0.23072436735033144,0.09332639855000001,1.7974621955493428,0.8262409140816184,-1.1447853580428826, ,0.01120124428216133,0.00044128430107547126,0.0018676462636807625,0.0007722778823136638,0.007939554438743912,0.0007860628226409251, ,0.5706348419189453
0.010709964985076714,0.02065837891083669,-0.08092295454494702, ,0.010945535070553087,0.020585366589971246,-0.0811385606114249, ,0.0003275821119529648, ,0.0014011063636356002,0.00052570859840702,-0.0022205571179468304,0.001028596301892704,-0.003966981545246219,0.001178167129766625, ,0.0026777495190408646, ,0.004098164574367637, ,3.072709205653111e-05, ,0.211548821623632,-0.23071664461745722,0.09336917612000001,1.7974621955493428,0.8262409140816184,-1.144703679302742, ,0.011677213136740973,0.0006028282126221303,0.0024982452195734008,0.0007722778823136638,0.007939554438743912,-0.00010847381543756382, ,0.5900869369506836
0.010735659066125385,0.02066802878241886,-0.08096864691990836, ,0.010974232998646392,0.020593355830619286,-0.08118902261051661, ,0.0003332551815352029, ,0.0013312076293908542,0.0005069102949041118,-0.002265761931941389,-0.002165680375101427,-0.005718492581791249,0.002098112172502501, ,0.0026763312447944418, ,0.006114844955956583, ,3.107133790331439e-05, ,0.21174961267836184,-0.23069347641883456,0.09341973143000001,1.7974621955493428,0.8263775505813838,-1.144733418466298, ,0.010483533093070126,0.0008714883264232223,0.002509659921222625,0.0007722778823136638,0.004897720923265665,0.002886197415352285, ,0.6120498180389404
0.010765872405740864,0.02067893495083052,-0.08101879196826842, ,0.011003001074896856,0.020601181500654705,-0.08124002652459753, ,0.00033349712692026714, ,0.0015811386184242109,0.0005236065635592959,-0.002757122362884189,-0.0019289552770214834,-0.006916600685844574,-0.0019619564639093224, ,0.0032211623504553276, ,0.007180545477110428, ,3.151577377150238e-05, ,0.2119890173974628,-0.23065486275446342,0.09347547190000001,1.797671885492827,0.8265141870811493,-1.1447631576298538, ,0.01212216227505533,0.0023267630969867415,0.0030179635316407737,0.0037856643050178003,0.004607320476626208,0.0015273245025016033, ,0.6275038719177246
0.01078166733474777,0.020685418089190888,-0.08104730872811536, ,0.011031839227749102,0.020608844687098424,-0.08129156830200429, ,0.0003579276482646844, ,0.0016766286669797725,0.0007216407939425148,-0.0030876946909545295,-0.00047430054017924377,-0.007196333287960467,-0.0017632116511165185, ,0.0035868799292657037, ,0.007211946582800506, ,3.202815150233883e-05, ,0.21210485839057616,-0.2306471400215892,0.09350658286,1.797671885492827,0.8265141870811493,-1.1447631576298538, ,0.012404828961891606,0.0009611771553010942,0.0033977840273037544,0.0037856643050178003,0.004607320476626208,0.0013786564661951487, ,0.6447358131408691
0.01082377510192616,0.020703579831985706,-0.08113300231514722, ,0.011060747385436992,0.020616346474332244,-0.08134364390276425, ,0.0003288394749321543, ,0.0016528757937163121,0.0006790747974275567,-0.003431070266179001,0.0017621887359862783,-0.0035193720547097504,-0.003536083766824144, ,0.003868511876860694, ,0.0039358973976987175, ,3.240866937294167e-05, ,0.21239832223979668,-0.2306085263572181,0.09359991574000001,1.797671885492827,0.8266508235809147,-1.1447928967934098, ,0.011415486774746875,0.002400468763899426,0.0037330235575345682,0.003621378257802397,0.007397250715859606,-0.0025965983284785537, ,0.6607239246368408
0.010840055560203054,0.020710294453555204,-0.0811645438597497, ,0.0110897254759837,0.020623687944100307,-0.08139624929858129, ,0.0003514586244638456, ,0.0016419194756416295,0.000632833808345903,-0.0030141752216793945,-0.0016337731145743923,-0.008919511684876032,-0.0022257811263619847, ,0.0034902192567893052, ,0.009067905107451814, ,3.2850506035541865e-05, ,0.21252188596578428,-0.23059308089146963,0.09363491557,1.797671885492827,0.8267874600806802,-1.144904314697106, ,0.011987991606678978,0.0017183318064893382,0.0032876803962848303,0.003480223659790283,0.002424604512439176,0.0013540771894604575, ,0.67641282081604
0.010872607674523123,0.020721929385499042,-0.0812235809615577, ,0.011118773427202298,0.020630870175512295,-0.08144938047282325, ,0.00034622937022049384, ,0.001665128295746788,0.0006057432068780757,-0.0029620642520746796,0.003241334968713136,-0.004385593769364108,-0.0036652185431627327, ,0.0034515795959812762, ,0.0054534103881211955, ,3.325284454063425e-05, ,0.21276901341775947,-0.23055446722709852,0.09369973007000001,1.797671885492827,0.8269240965804455,-1.1449340538606618, ,0.01279624346797071,0.0019622176129501217,0.0032687895587933517,0.003226411260280288,0.008008066456810027,-0.0038727052557721896, ,0.6921119689941406
0.010909345526702204,0.02073510965461451,-0.08128837886933044, ,0.011147891166696493,0.02063789424504655,-0.08150303342050837, ,0.00033530796972209117, ,0.0018501931168158317,0.0005923664576652982,-0.0033921503987018016,0.0011347845311750482,-0.005894591628431957,-0.0019481739515808316, ,0.0039090659903732, ,0.00600282816254478, ,3.359925689853172e-05, ,0.21304703180123155,-0.23050040809697894,0.09377102602000001,1.7978815754363118,0.827060733080211,-1.1448821142840773, ,0.01390431378146092,0.0032105305386096305,0.003704374772093024,0.0015671546863743613,0.008000184451329207,-0.0031934220088407437, ,0.7075538635253906
0.010925434010268225,0.02074089036032318,-0.0813188297693245, ,0.01117707862186055,0.02064476122655129,-0.08155720414829189, ,0.00035970566502527024, ,0.0018823390224116576,0.0007136042675169095,-0.003698155297502177,-0.0009300459789544869,-0.005952304509880045,-7.074602383605461e-05, ,0.004210556240018109, ,0.0060245260236465965, ,3.4010183851454326e-05, ,0.21317059552721915,-0.23047723989835628,0.09380472956000001,1.7978815754363118,0.8271973695799765,-1.144911853447633, ,0.013451019356268006,0.0026380501244499237,0.004030569716599191,0.0015671546863743613,0.007527311221564629,-2.941501138827452e-05, ,0.7239048480987549
0.010965553027953162,0.02075598450799907,-0.08139746425134284, ,0.011206335719880178,0.020651472191248,-0.08161188867445301, ,0.00033893504143187736, ,0.0018059954078834498,0.000683237468148835,-0.0032611289369159904,0.004538137951607893,-0.001675422579088416,-0.001422950505930725, ,0.0037899069638144623, ,0.004837534136055435, ,3.4335550801363025e-05, ,0.21345633664356545,-0.2304231807682367,0.0938902847,1.7978815754363118,0.827334006079742,-1.1450232713513295, ,0.014008996391861643,0.0018570814781278635,0.0036234785077343045,0.0015671546863743613,0.012524671585266786,-0.004808420375922634, ,0.7400619983673096
0.010984217795461772,0.02076112742669114,-0.08142772394054497, ,0.011235662387732987,0.02065802820773454,-0.08166708302888172, ,0.0003621416920230234, ,0.0019400635872534378,0.0004802999345498314,-0.003020945698420027,0.0009879231414681388,-0.009333386574706,-0.0027734574915605206, ,0.003622243457101926, ,0.00938552592211796, ,3.4719755332635845e-05, ,0.21361079130104993,-0.2303922898367398,0.09392398824,1.7978815754363118,0.8274706425795073,-1.1449713317747447, ,0.01576361155456325,0.0035037433574307496,0.0033212701251042536,0.0015671546863743613,0.00632374310741508,-0.0037271085642565796, ,0.7552490234375
0.011020454300626445,0.02077050278332765,-0.0814881507515095, ,0.011265058552188694,0.020664430341986565,-0.08172278325306526, ,0.00035515491476353884, ,0.0018762396364509532,0.0005306387890476577,-0.003370251715319926,0.004461688793303246,-0.0034829912081630375,-0.0038843845468351083, ,0.003893642166718518, ,0.005660202665064795, ,3.506579430620093e-05, ,0.21389653241739626,-0.23032278524087177,0.09399009903000001,1.7978815754363118,0.8276072790792728,-1.1450827496784413, ,0.014415455196486524,0.0039050117242000323,0.0036914974553881818,0.0015671546863743613,0.010990639647551032,-0.007532649764175021, ,0.7742068767547607
0.01104598995708735,0.020779740310669037,-0.08153794805424412, ,0.01129452413980983,0.020670679657360726,-0.08177898540007521, ,0.00036299100287315886, ,0.001941106658990354,0.000762232250789656,-0.003934668029761038,0.006077845695476414,-0.0022187129188038675,-0.0037621046465279194, ,0.004453145581512485, ,0.0064701541226639915, ,3.552820714570382e-05, ,0.21408187800637762,-0.23028417157650066,0.09404454321000001,1.7978815754363118,0.8277439155790383,-1.1451941675821375, ,0.013755173439407273,0.0027815723150749734,0.004305084194594595,0.0015433087612305612,0.011622201655252582,-0.008047646233443532, ,0.7874460220336914
0.011085544733796509,0.02079201606201833,-0.0816133089961955, ,0.011324059076952163,0.020676777214597583,-0.08183568553455392, ,0.00034586183463647857, ,0.001999204755154611,0.0005360641953884133,-0.00373643946296953,-0.007858792419718272,-0.011468648739106878,0.0012951517373182223, ,0.004271435863389062, ,0.013902896154002361, ,3.592312557356767e-05, ,0.21436761912272395,-0.23020694424775842,0.09412620948000001,1.7978815754363118,0.8278805520788037,-1.1450605492654125, ,0.014283103786645211,0.004726045539906714,0.004011284694031731,0.0014585647032892514,0.0027201232018137433,0.004991460839614604, ,0.8007009029388428
0.011097683565664818,0.020795733336729304,-0.08163626818960845, ,0.011353663289765116,0.02068272407182349,-0.08189287973270179, ,0.0003796659020161824, ,0.002145421851924944,0.0005721413597414415,-0.004094433875720659,-0.008443180297663111,-0.012277517005668608,0.0011893704755063523, ,0.0046577429535014855, ,0.014900493824454589, ,3.640302951676877e-05, ,0.2144525691843404,-0.23018377604913573,0.09415083899000001,1.7978815754363118,0.8278805520788037,-1.1450605492654125, ,0.015086954142841141,0.005319308820272501,0.004384478810900083,0.0014362734972409132,0.0027201232018137433,0.004991460839614604, ,0.8148598670959473
0.011122069474639156,0.020803047465614538,-0.08168224549460129, ,0.011383336704192237,0.02068852128455357,-0.08195056408226309, ,0.0003916269600928588, ,0.0018036101558610079,0.0005315051592775736,-0.0031238334824256328,0.004735252980608741,0.0009080371471056781,-0.0014639793649047226, ,0.0036460722640379887, ,0.004821530042778991, ,3.6900755904677525e-05, ,0.21465336023907025,-0.23012971691901615,0.09420269059000001,1.7978815754363118,0.8282904615780999,-1.1453948029765015, ,0.014470408898821407,0.0032524750999211333,0.0034756298319877812,0.0013853731996278896,0.015750191397683345,-0.00610405384707673, ,0.8287098407745361
0.011165332015485245,0.020815569654498794,-0.08176374174997275, ,0.011413079245971765,0.020694169905694285,-0.08200873468251364, ,0.0003689690044143606, ,0.002158870688948768,0.0007809796474828503,-0.004886374916485967,0.009887757809146174,0.007331156170435216,-0.005010849402416851, ,0.0053988250282675215, ,0.012309086176558525, ,3.731760468712469e-05, ,0.21496226955403921,-0.23002159865877703,0.09429083831000001,1.7980912653797962,0.8284270980778654,-1.1452611846597764, ,0.014563680411060587,0.00535584663406805,0.00532380064171123,0.001845081740528411,0.02235670369358866,-0.01352647329290529, ,0.8425378799438477
0.011187082507167882,0.020822942073424503,-0.08181269748335222, ,0.01144289084063691,0.02069967098554591,-0.08206738764424741, ,0.00038144559590561587, ,0.00214206355094463,0.0007753706571870292,-0.004870046708395369,0.0008062469596768417,0.003279032251738256,-4.495263743447845e-05, ,0.005376522189507333, ,0.0033766971922965772, ,3.775521570874377e-05, ,0.21509355601290103,-0.22996753952865745,0.09434268991000001,1.7980912653797962,0.8284270980778654,-1.1450978271794952, ,0.014054641818493894,0.005295447953129502,0.005276187982775754,0.001845081740528411,0.017763889726499088,-0.003143633076562841, ,0.858475923538208
0.011235890559761083,0.020838111560792467,-0.0819178793964226, ,0.011472771413516568,0.02070502557180535,-0.08212651908976257, ,0.00034257107434458166, ,0.002224989762414873,0.0003941114104045754,-0.004191930830714765,-0.007164193382624726,-0.007810874948445801,0.004799206879961178, ,0.004762162044298688, ,0.01059884111540012, ,3.807226428823043e-05, ,0.2154256335264927,-0.2298208076040472,0.09445676343000001,1.798300955323281,0.8288370075771617,-1.145350402150444, ,0.016263400438469716,0.007359711732609673,0.004490784189455879,-0.0032311209262124957,0.009711430920778292,0.0012203012887017075, ,0.8722848892211914
0.011255729474233079,0.020842712976419504,-0.08195661163858062, ,0.011502720889735555,0.020710234709568166,-0.08218612515284912, ,0.0003622591665530767, ,0.0018408498236356003,0.00031522996108372735,-0.0033787082358658674,0.015409728771259477,0.017302154145547408,-0.0009628080456977803, ,0.0038605397737430333, ,0.02316946866977663, ,3.8432010473240365e-05, ,0.21568820644421632,-0.22970496661093381,0.09452546680000001,1.798300955323281,0.8291102805766927,-1.1455732379578367, ,0.01575837621362849,0.0079745643316366,0.004019382165026495,-0.0032311209262124957,0.03099891516909001,-0.017204272192244213, ,0.8909828662872314
0.011297866966021043,0.02084826716771544,-0.08203280548303227, ,0.011532739194215236,0.0207152994413318,-0.08224620197877511, ,0.0003440689527287566, ,0.0016447850378391946,0.00032949790700020757,-0.0033445758090745914,0.004594453212340129,0.0069751610289005665,0.00200015901930887, ,0.003741667279978827, ,0.008352357229008248, ,3.873221388564596e-05, ,0.21588127476607194,-0.2296045710835689,0.09457991098000001,1.798300955323281,0.8291102805766927,-1.1454915592176962, ,0.012364422352895215,0.005784843168042157,0.0036525593946342585,-0.0032311209262124957,0.020975351077252454,-0.009071450735398109, ,0.9084558486938477
0.01131631043919605,0.020850540926402466,-0.08206331586376214, ,0.011562826251673942,0.02072022080699796,-0.08230674572427354, ,0.00037015061301021824, ,0.0017665189891526894,0.0001103673653108544,-0.002941412872080489,0.0036709783923805266,0.0010042880296656576,-0.00022122428790858647, ,0.003432882167858881, ,0.0038058739579331043, ,3.919302209343183e-05, ,0.21602028395780798,-0.2295427892205751,0.09461231823,1.798300955323281,0.8291102805766927,-1.1454098804775557, ,0.014548051748960721,0.007200035754819958,0.0032017711597989956,-0.0032311209262124957,0.016953820500931104,-0.010506146092494055, ,0.9193978309631348
0.01135298765825642,0.02085424392876787,-0.0821308773377546, ,0.011592981986627435,0.020724999843874943,-0.08236775255752936, ,0.0003611248826561358, ,0.0020964098115959433,0.0002666313420895566,-0.003935612908294066,-0.004893062143539056,-0.008644312775925481,0.0015829374750633272, ,0.004467110400994259, ,0.009933086104749526, ,3.96186916093828e-05, ,0.21629830234128006,-0.2293883345630906,0.09468491047000001,1.798300955323281,0.8293835535762235,-1.1456327162849484, ,0.015159255840011309,0.008025677865882113,0.004184084980299449,-0.003154340022696807,0.007564825082974043,-0.0028576518347972913, ,0.9348909854888916
0.011373744612884889,0.020859059038693045,-0.08217344525058663, ,0.01162320632338931,0.02072963758668031,-0.08242921865816565, ,0.000380001438514983, ,0.002106866958275537,0.0005208904375435297,-0.0040885828955502836,-0.0014264151655115098,-0.0074605513371480015,0.0016429701949527676, ,0.00462890109222306, ,0.007595688601838642, ,4.008156178869087e-05, ,0.21645275699876457,-0.22931882996722258,0.09473157691,1.798300955323281,0.8296568265757545,-1.1458555520923415, ,0.014937343232877502,0.0055461876142342,0.004401440044211109,-0.003056502988506701,0.008532941847126045,-0.003924587091574274, ,0.9461758136749268
0.011394702811401182,0.020863326843309254,-0.08221519700940963, ,0.011653499186071626,0.020734135067543808,-0.08249114021723082, ,0.0003997633455066178, ,0.002134218174361115,0.00034259735529481347,-0.004371595049400644,-0.003955884373319028,-0.0070065839940627855,0.000822883681949268, ,0.004876792330986887, ,0.00804619405957336, ,4.0582455096638514e-05, ,0.2165917661905006,-0.22924932537135456,0.09477565077000001,1.798300955323281,0.8296568265757545,-1.1458555520923415, ,0.014508017361025954,0.008341374856723344,0.0046345101891184185,-0.002967924823693403,0.008532941847126045,-0.004150884785459262, ,0.9573688507080078
0.011416851252720864,0.020868177569419544,-0.08225932305304673, ,0.011683860498585249,0.02073849331600963,-0.08255351343718541, ,0.0004179233483298322, ,0.0023079106133557623,0.0005439812797856181,-0.005018775299036793,-0.004965974918975504,-0.007375456526821967,0.001996064542477848, ,0.005550718199856594, ,0.008891471345667116, ,4.1115981331989975e-05, ,0.21673849811511087,-0.22917982077548654,0.09482231721,1.798300955323281,0.8296568265757545,-1.145773873352201, ,0.014857827079766834,0.007817468167220369,0.005330927550200804,-0.0028898822881188967,0.008532941847126045,-0.0022385188358827177, ,0.9685299396514893
0.0114415793290519,0.020876185357759636,-0.08231889135051057, ,0.01171429018464033,0.020742713359039086,-0.08261633453188856, ,0.0004250393291761265, ,0.002385438194777592,0.000807309870121767,-0.0058094658381381975,0.0010115057287014002,-0.0008478085477729181,0.0006069939421211181, ,0.006331821059694798, ,0.0013198168644057119, ,4.165387207345119e-05, ,0.21688523003972113,-0.2291025934467443,0.09488583542000001,1.798300955323281,0.8297934630755199,-1.1458852912558974, ,0.014127875771694326,0.007018837667938947,0.006205224589014414,-0.002804716696780079,0.014518131185764348,-0.007394267633377641, ,0.9796979427337646
0.011465834557105748,0.02088538851272091,-0.0823800253309324, ,0.01174478816774675,0.020746796221012595,-0.08267959972658467, ,0.0004321663554015255, ,0.0027798140555601327,0.0010586781010880485,-0.006925993635143534,-0.0007877023957122121,-0.005572896064615651,0.0003734126722943418, ,0.007537741925753482, ,0.005628288343189023, ,4.219599554811044e-05, ,0.2170319619643314,-0.22903308885087628,0.09495194621000001,1.798300955323281,0.8300667360750507,-1.1460264483231495, ,0.015602917059926138,0.007191085177921218,0.007374449777777778,-0.0027313425991676876,0.011101134900820011,-0.006081831826649405, ,0.9911859035491943
0.01151732299969985,0.020900314389169956,-0.08250048059649588, ,0.011775354371214736,0.020750742923733943,-0.08274330525789098, ,0.000384598008497407, ,0.0024458237066722604,0.0006742230361471129,-0.005259793971995243,0.014036568547361745,0.010048265833612595,-0.0050271144804910385, ,0.005839697161191577, ,0.01726247082030873, ,4.261134968867708e-05, ,0.2173485940121746,-0.2288786341933918,0.09508027892000001,1.7980912653797962,0.8303400090745816,-1.1462492841305423, ,0.017185248380744436,0.007400300112310924,0.00574011225945946,-0.0013410987761441782,0.028598801152532168,-0.020658004847558448, ,1.0022499561309814
0.011550546075977797,0.02090809252029184,-0.08257055021599741, ,0.0118059887181552,0.020754554486430894,-0.0828074473737831, ,0.0003807166067449578, ,0.0023929553916453637,0.0004891539451950926,-0.005149274087218173,0.005278373045872284,0.00256004632383288,-0.0035518423187173606, ,0.005699169300327996, ,0.005866434655852078, ,4.300770869175408e-05, ,0.21755710779977866,-0.22877051593315265,0.09515416745000001,1.7980912653797962,0.8303400090745816,-1.1462492841305423, ,0.01618849224811852,0.00905042985644537,0.005526999139486468,-0.0013410987761441782,0.019800465316434094,-0.013656096281879979, ,1.0157749652862549
0.011573410879666849,0.020911880835069455,-0.08261528277823005, ,0.011836691131480184,0.02075823192575882,-0.08287202233358265, ,0.0003985469578479978, ,0.002517819309872666,0.00041139425739312085,-0.004749871773706897,-0.00943088397245036,-0.017569184757288886,-5.205831379120245e-05, ,0.005391654771852628, ,0.019940356644750218, ,4.343646666929901e-05, ,0.2177192851901374,-0.22868556587153618,0.09520213018000001,1.7980912653797962,0.8304766455743471,-1.1462790232940983, ,0.01724771747700305,0.008626292136094057,0.005016948510236221,-0.0013410987761441782,0.0,0.0009026342628897099, ,1.0267798900604248
0.011597386209743236,0.020916518434402905,-0.08266279191341808, ,0.011867461533903341,0.020761776255803093,-0.08293702640794365, ,0.000414837776179674, ,0.002537592817068668,0.0003876469887132052,-0.004989182788884031,0.0009187060877348283,-0.004839630212724984,-0.003324496190689546, ,0.005610845960636734, ,0.004926057082517349, ,4.399454979314734e-05, ,0.21789690804624454,-0.22860061580991972,0.09525398178000001,1.7980912653797962,0.8307499185738779,-1.146501859101491, ,0.017827717745344876,0.009727294243869556,0.005330927550200804,-0.0013410987761441782,0.013796461471492027,-0.010345279268552339, ,1.0356578826904297
0.011624859296402694,0.020921836843807995,-0.08272085561723261, ,0.011898299847940552,0.020765188488081766,-0.08300245587883939, ,0.000422619391313353, ,0.0026883550771264987,0.000537432375463868,-0.005772316137128165,0.027726145336096006,0.024540055306741092,-0.011211425071764106, ,0.006390283261785723, ,0.03702638847157276, ,4.456024060080964e-05, ,0.21808225363522593,-0.22849249754968057,0.09531231483000001,1.7980912653797962,0.8311598280731742,-1.1467544340724398, ,0.01984461345848406,0.010607049653516375,0.0062687176387249115,-0.0013410987761441782,0.0463466413269165,-0.03777722048472524, ,1.0450170040130615
0.011624859296402694,0.020921836843807995,-0.08272085561723261, ,0.011929205995910203,0.020768469631547954,-0.08306830703954918, ,0.00048669385260894526, ,0.0026883550771264987,0.000537432375463868,-0.005772316137128165,0.027726145336096006,0.024540055306741092,-0.011211425071764106, ,0.006390283261785723, ,0.03702638847157276, ,4.52612698967317e-05, ,0.21808225363522593,-0.22849249754968057,0.09531231483000001,1.7980912653797962,0.8311598280731742,-1.1467544340724398, ,0.01984461345848406,0.010607049653516375,0.0062687176387249115,-0.0013410987761441782,0.0463466413269165,-0.03777722048472524, ,1.0545899868011475
0.011635702710099298,0.020923905616619328,-0.08274302430134725, ,0.011960179899933756,0.0207716206925925,-0.08313457619464529, ,0.0005308380449383794, ,0.0027670579118510594,0.000619553375389365,-0.006103942792554203,0.023616784826540095,0.01994344578740708,-0.010060898127959777, ,0.006730421494027569, ,0.03091105865131516, ,4.60490918907665e-05, ,0.2181672036968424,-0.22845388388530943,0.09534083321,1.7980912653797962,0.8311598280731742,-1.1467544340724398, ,0.019554284269208896,0.01049255564812927,0.0066647746945606694,-0.0013410987761441782,0.04125616182423611,-0.03361591391621237, ,1.063774824142456
0.011687210689739986,0.020936742045404997,-0.0828562983680831, ,0.011991221481936175,0.020774642675046667,-0.08320125965997872, ,0.0004875418551761675, ,0.0031132185824816346,0.0008625921015008957,-0.007185265635983919,0.002356872446546036,0.0005950978588705343,-0.002156245029303766, ,0.007878085892876014, ,0.0024308373123102644, ,4.67262023541886e-05, ,0.21847611301181138,-0.2282839837620765,0.09546009189000002,1.7980912653797962,0.8311598280731742,-1.146509397852018, ,0.01929584008915632,0.010368763610515521,0.007687650347490348,-0.0013410987761441782,0.02104947184130942,-0.011358402014406415, ,1.0734820365905762
0.011722717668608905,0.020945386522983746,-0.08293747068631134, ,0.012022330663646386,0.020777536580184292,-0.08326835376266783, ,0.00047689114094544397, ,0.0036583242311233367,0.0008457088109236448,-0.008312423715369967,-0.011303515835291813,-0.013291990142970425,0.0003957481696938996, ,0.009121126443413834, ,0.017448393407801792, ,4.7367765034561806e-05, ,0.2187000722651639,-0.2281526973032147,0.09554694332000001,1.7980912653797962,0.8314331010727051,-1.1466505549192705, ,0.021860617728281684,0.013508461431810784,0.008771371982378857,-0.0013410987761441782,0.00933435332642348,-0.0006955699752984349, ,1.0822808742523193
0.011755339217797957,0.020953984796794254,-0.08301816843042167, ,0.01205350736659778,0.020780303406724987,-0.08333585484108312, ,0.000469035313952009, ,0.0034330850004062026,0.0009293985847866986,-0.008284378854446986,0.029378159578431852,0.023014060057181044,-0.014470553043681672, ,0.0090155858020112, ,0.03731920660343974, ,4.7980844538539353e-05, ,0.21888541785414528,-0.2280291335772271,0.09562731330000002,1.7980912653797962,0.8318430105720014,-1.146903129890219, ,0.021592023107729414,0.013051429178719678,0.008979036933483654,-0.0013205008863308187,0.04681411669477664,-0.04254456137935112, ,1.0974268913269043
0.011821338126175612,0.020969299570861424,-0.08316596315178616, ,0.012084751512128723,0.020782944150836483,-0.08340375924483526, ,0.00040082656641166905, ,0.0036404669735032283,0.0008883561433093418,-0.008609925785272586,0.007495195624898665,0.00019382344878239122,-0.00799203470477356, ,0.00939004784068883, ,0.00749769815810123, ,4.843498190431655e-05, ,0.21931016816222762,-0.22779745159100037,0.09579064584000001,1.7978815754363118,0.8321162835715323,-1.1469626082173308, ,0.021745403656844818,0.013883970966857466,0.009154489379310347,-0.0019216067739975806,0.02312989579701608,-0.021726864774546693, ,1.1092259883880615
0.011860049181013889,0.020973163574153787,-0.08324289646049116, ,0.012116063021382862,0.020785459806136736,-0.08347206333476126, ,0.0003915268154941603, ,0.002617942730471451,-5.7246499392888866e-05,-0.004254961431121327,-0.009937659646979409,-0.007500629167859011,0.005219840664897002, ,0.004996158332364088, ,0.012450562869936796, ,4.886124674887882e-05, ,0.21956501834707703,-0.22764299693351586,0.09587101582000002,1.797671885492827,0.8321162835715323,-1.1470442869574713, ,0.020571632681220635,0.012504538352677662,0.0045381229401709414,-0.004790107426090804,0.014890512979305907,-0.0009038908624772416, ,1.1180288791656494
0.011885851447661702,0.020970842759171514,-0.08328196875373409, ,0.012147441815309763,0.020787851363697134,-0.0835407634829113, ,0.00041096238649518065, ,0.002781287492436344,-0.0002069965121668613,-0.00439095690005775,-0.01616135319729616,-0.022143894284289208,0.0022434925868988808, ,0.0052018179677682744, ,0.027414255226236705, ,4.942736804705558e-05, ,0.2197735321346811,-0.22750398774177982,0.09591249710000001,1.797671885492827,0.8322529200712978,-1.1470740261210273, ,0.02103678598059649,0.014373968730456039,0.004562821976511029,-0.004790107426090804,0.0,0.0013865599937546947, ,1.1249849796295166
0.011885851447661702,0.020970842759171514,-0.08328196875373409, ,0.012178887814665255,0.020790119812044847,-0.0836098560725359, ,0.00047543789272189185, ,0.002781287492436344,-0.0002069965121668613,-0.00439095690005775,-0.01616135319729616,-0.022143894284289208,0.0022434925868988808, ,0.0052018179677682744, ,0.027414255226236705, ,5.012344419297202e-05, ,0.2197735321346811,-0.22750398774177982,0.09591249710000001,1.797671885492827,0.8322529200712978,-1.1470740261210273, ,0.02103678598059649,0.014373968730456039,0.004562821976511029,-0.004790107426090804,0.0,0.0013865599937546947, ,1.131680965423584
0.011913920941052588,0.020970585066677632,-0.08333636596010381, ,0.01221040094001203,0.02079226613716557,-0.0836793374980719, ,0.00048716271025347487, ,0.0030011310288081934,9.72600495293543e-05,-0.0058966581444126484,0.023948917871917743,0.023171638126615678,-0.009429237071506337, ,0.006617161343157487, ,0.033323797406323186, ,5.0835478818076785e-05, ,0.2199974913880336,-0.22734181035142112,0.09597212644000001,1.797671885492827,0.8327994660703596,-1.1475196977358129, ,0.02313995161142911,0.015633763024459766,0.006425498797902381,-0.004735440081262486,0.04910576223498567,-0.039510936196934396, ,1.1385769844055176
0.011926405612927023,0.020971866103095458,-0.08336027927730444, ,0.012241981111719983,0.0207942913225055,-0.08374920416513022, ,0.0005313974656603997, ,0.003048183121976608,0.0002856754770952735,-0.006180021610814736,0.03964779411693676,0.03896122117811404,-0.013224577753366546, ,0.00689678895816407, ,0.05558708775439, ,5.16314683752326e-05, ,0.2200901641825243,-0.22728775122130154,0.09599805224,1.797671885492827,0.8329361025701251,-1.1476311156395094, ,0.024171406408168818,0.01451467445066852,0.006859953281653747,-0.004678322705889859,0.06651692525644307,-0.05394129428406252, ,1.1458978652954102
0.011926405612927023,0.020971866103095458,-0.08336027927730444, ,0.012273628249966709,0.020796196348974817,-0.08381945249048128, ,0.0006018832626720465, ,0.003048183121976608,0.0002856754770952735,-0.006180021610814736,0.03964779411693676,0.03896122117811404,-0.013224577753366546, ,0.00689678895816407, ,0.05558708775439, ,5.25646392678137e-05, ,0.2200901641825243,-0.22728775122130154,0.09599805224,1.797671885492827,0.8329361025701251,-1.1476311156395094, ,0.024171406408168818,0.01451467445066852,0.006859953281653747,-0.004678322705889859,0.06651692525644307,-0.05394129428406252, ,1.1526639461517334
0.011984008277526798,0.020982263712424343,-0.08347948677701794, ,0.012305342274738004,0.0207979821949493,-0.08389007890204346, ,0.0005529928648541566, ,0.0038008850941814326,0.0007290178274818426,-0.009015853429617538,-0.003258230720612137,-0.0013319486972904087,-0.0005609420984887953, ,0.00981141210816788, ,0.0035199567028654072, ,5.338476156459942e-05, ,0.2204685780933613,-0.22707151470082326,0.09612508866000001,1.797671885492827,0.8332093755696558,-1.1479356301870427, ,0.022370801876112865,0.016466587117555227,0.009532502405745064,-0.004457313484631236,0.022970855057160674,-0.012205018756601346, ,1.1597368717193604
0.012028282689781568,0.0209899666300555,-0.0835900446919083, ,0.01233712310582839,0.02079964983627389,-0.08396107983886784, ,0.00051891229014023, ,0.004553350399921895,0.0011881466569910251,-0.011638023994176619,-0.023025186109637823,-0.023072758107824304,0.0014001922885012253, ,0.012553417655444214, ,0.03259618303707408, ,5.412446879232402e-05, ,0.22070798281246226,-0.22687072364609343,0.09624045847000001,1.7974621955493428,0.8333460120694213,-1.1480470480907392, ,0.022540841225289973,0.01815861874444523,0.012131615780654989,-0.0018419998428319223,0.0,0.006107213880629866, ,1.166313886642456
0.012028282689781568,0.0209899666300555,-0.0835900446919083, ,0.01236897066284139,0.02080120024626446,-0.08403245175112709, ,0.0005894277298225563, ,0.004553350399921895,0.0011881466569910251,-0.011638023994176619,-0.023025186109637823,-0.023072758107824304,0.0014001922885012253, ,0.012553417655444214, ,0.03259618303707408, ,5.499958011086006e-05, ,0.22070798281246226,-0.22687072364609343,0.09624045847000001,1.7974621955493428,0.8333460120694213,-1.1480470480907392, ,0.022540841225289973,0.01815861874444523,0.012131615780654989,-0.0018419998428319223,0.0,0.006107213880629866, ,1.17293381690979
0.012070432165530453,0.02100287041742545,-0.08370723210861292, ,0.012400884865190066,0.020802634395710787,-0.08410419110010044, ,0.0005539583847431421, ,0.004457070740692774,0.0014730895156111763,-0.012203406869837709,0.00019621700325156638,-0.0039498026630412015,-0.002090190196139011, ,0.013075114207506771, ,0.003954639242830808, ,5.579175861271456e-05, ,0.2209087738671921,-0.22671626898860894,0.09635712457000001,1.7972525056058584,0.8336192850689521,-1.1481882051579915, ,0.02150882628251831,0.016097869645202847,0.012845815741935485,-0.007097558063330282,0.014664514459145465,-0.013509521284995206, ,1.1800110340118408
0.012093468584425386,0.021009952237663707,-0.08377481090004502, ,0.01243286563209772,0.020803953252878978,-0.08417629435816144, ,0.0005646369673003709, ,0.004135956145148953,0.0013504672509541552,-0.012098641792811771,0.05395691365669853,0.05901401942020625,-0.010872885694909847, ,0.012857178083127987, ,0.07996250846650695, ,5.6595932077212995e-05, ,0.22104778305892814,-0.226615873461244,0.09643749455000002,1.7970428156623737,0.834165831068014,-1.148633876772777, ,0.02285571810175115,0.01763883672090535,0.013110132938271608,-0.014213556505596593,0.08806138989184459,-0.07353976159965657, ,1.190107822418213
0.012093468584425386,0.021009952237663707,-0.08377481090004502, ,0.012464912882598041,0.02080515778351435,-0.08424875800876414, ,0.0006360326225584052, ,0.004135956145148953,0.0013504672509541552,-0.012098641792811771,0.05395691365669853,0.05901401942020625,-0.010872885694909847, ,0.012857178083127987, ,0.07996250846650695, ,5.765004650947908e-05, ,0.22104778305892814,-0.226615873461244,0.09643749455000002,1.7970428156623737,0.834165831068014,-1.148633876772777, ,0.02285571810175115,0.01763883672090535,0.013110132938271608,-0.014213556505596593,0.08806138989184459,-0.07353976159965657, ,1.194774866104126
0.012163378609722804,0.0210296424466792,-0.08395848147250498, ,0.012497026535535685,0.020806248950843372,-0.08432157854643046, ,0.0005413548535611708, ,0.004556993064222916,0.0011150712636241742,-0.011685018147484783,0.009436209452751317,0.0038217636849359297,-0.0015655811556209733, ,0.012591632889239777, ,0.010180751870810405, ,5.850557815715421e-05, ,0.22142619696976515,-0.2263301323448977,0.09663323434000001,1.7970428156623737,0.8348490135668412,-1.1491092875511186, ,0.02473851448343868,0.018581739095059873,0.012367089689440995,-0.012918774672435948,0.032491561133595005,-0.030809605429167473, ,1.199280023574829
0.012211593101808148,0.021039761657679252,-0.0840713895811999, ,0.012529206509566819,0.02080722771557695,-0.0843947524767362, ,0.0005094250418141287, ,0.004792385985443678,0.0006355181495233042,-0.010879335812879405,-0.010281575390999085,-0.013755210976830082,0.003487871552473931, ,0.011905074316494244, ,0.01717313218747382, ,5.929040592815385e-05, ,0.22168876988748878,-0.2261370640230421,0.09675119673000002,1.7970428156623737,0.8348490135668412,-1.1491909662912592, ,0.02842928147347836,0.021790342493334277,0.011418502881720433,-0.011851671236426336,0.01798359115362065,-0.012982888524815946, ,1.205643892288208
0.012211593101808148,0.021039761657679252,-0.0840713895811999, ,0.012561452723159474,0.02080809503591272,-0.08446827631629862, ,0.0005775727303034049, ,0.004792385985443678,0.0006355181495233042,-0.010879335812879405,-0.010281575390999085,-0.013755210976830082,0.003487871552473931, ,0.011905074316494244, ,0.01717313218747382, ,6.020473245892496e-05, ,0.22168876988748878,-0.2261370640230421,0.09675119673000002,1.7970428156623737,0.8348490135668412,-1.1491909662912592, ,0.02842928147347836,0.021790342493334277,0.011418502881720433,-0.011851671236426336,0.01798359115362065,-0.012982888524815946, ,1.2101030349731445
0.012211593101808148,0.021039761657679252,-0.0840713895811999, ,0.012593765094594108,0.020808851867537462,-0.0845421465927626, ,0.000648835053914906, ,0.004792385985443678,0.0006355181495233042,-0.010879335812879405,-0.010281575390999085,-0.013755210976830082,0.003487871552473931, ,0.011905074316494244, ,0.01717313218747382, ,6.125319592915722e-05, ,0.22168876988748878,-0.2261370640230421,0.09675119673000002,1.7970428156623737,0.8348490135668412,-1.1491909662912592, ,0.02842928147347836,0.021790342493334277,0.011418502881720433,-0.011851671236426336,0.01798359115362065,-0.012982888524815946, ,1.2144708633422852
0.012257787840591844,0.02104345095067815,-0.08417722197414891, ,0.012626143541963933,0.02080949916362964,-0.08461635984478758, ,0.0006190811181303914, ,0.004882945837101804,0.0005556183666398469,-0.011355674195475438,-0.01821347868198223,-0.019146333616680042,-0.004260294990452528, ,0.012373488119815047, ,0.026425607047578018, ,6.22345689059795e-05, ,0.22195906553808664,-0.22590538203681534,0.09686138138000001,1.7968331257188892,0.8349856500666065,-1.1493023841949555, ,0.02758632022048569,0.02414066180576718,0.011729610839469811,-0.002247537173836347,0.0,0.0016815242105044095, ,1.2188568115234375
0.012257787840591844,0.02104345095067815,-0.08417722197414891, ,0.012658587983175639,0.020810037874862648,-0.08469091262203411, ,0.0006920986201269016, ,0.004882945837101804,0.0005556183666398469,-0.011355674195475438,-0.01821347868198223,-0.019146333616680042,-0.004260294990452528, ,0.012373488119815047, ,0.026425607047578018, ,6.335194977667821e-05, ,0.22195906553808664,-0.22590538203681534,0.09686138138000001,1.7968331257188892,0.8349856500666065,-1.1493023841949555, ,0.02758632022048569,0.02414066180576718,0.011729610839469811,-0.002247537173836347,0.0,0.0016815242105044095, ,1.2233738899230957
0.012302063850565658,0.021047312241214512,-0.08429047720897696, ,0.012691098335949426,0.020810468949406337,-0.08476580148515077, ,0.0006583128004319052, ,0.004630598425086449,0.0007103156932814894,-0.012346936262425336,0.048778178731523764,0.059299018708100545,-0.005344982324021229, ,0.013205825427701549, ,0.0767833579180077, ,6.439432017055772e-05, ,0.2222293611886845,-0.2256659773177144,0.09698193635,1.79641374583192,0.8356688325654338,-1.1498594737134376, ,0.02821794277682747,0.024900798099834892,0.013318404280936457,-0.021494817026952787,0.09560513684360789,-0.07635718601710073, ,1.228083848953247
0.012345074609419297,0.021054874507164294,-0.08440746569103673, ,0.012723674517820036,0.02081079333293062,-0.0848410230057613, ,0.0006252083296050312, ,0.005525626209389356,0.0010682151500318738,-0.014734231107600314,0.013864853492765707,0.016410073297653344,0.034333664266597806, ,0.01577248220619776, ,0.021483109029327218, ,6.53638898761513e-05, ,0.2224842113735339,-0.22545746353011034,0.09710767648000002,1.7959943659449509,0.8364886515640264,-1.1505279811356162, ,0.030396201652296857,0.024196058530971645,0.015616481882352944,-0.055135982974089975,0.06121468402234047,-0.048420115634914176, ,1.2376890182495117
0.012345074609419297,0.021054874507164294,-0.08440746569103673, ,0.012756316446136647,0.02081101196860725,-0.08491657376645065, ,0.0006984123555821516, ,0.005525626209389356,0.0010682151500318738,-0.014734231107600314,0.013864853492765707,0.016410073297653344,0.034333664266597806, ,0.01577248220619776, ,0.021483109029327218, ,6.646833457620936e-05, ,0.2224842113735339,-0.22545746353011034,0.09710767648000002,1.7959943659449509,0.8364886515640264,-1.1505279811356162, ,0.030396201652296857,0.024196058530971645,0.015616481882352944,-0.055135982974089975,0.06121468402234047,-0.048420115634914176, ,1.2438030242919922
0.012419262013282306,0.02107116865921499,-0.08459883424976732, ,0.012789024038063855,0.02081112579711298,-0.08499245036075197, ,0.0005993996062122809, ,0.006003336199201386,0.0009444259297172368,-0.01562744893943937,-0.025908649089485102,-0.025440019367156817,0.030126590989192504, ,0.016767502682634307, ,0.03631049092191879, ,6.737233251624786e-05, ,0.22284717981862245,-0.22512538601651869,0.09730730514000001,1.7959943659449509,0.8366252880637919,-1.1506393990393127, ,0.029860585764150654,0.028302100077086424,0.016220785661914462,-0.04069837376782465,0.014003805465882061,-0.010053321498504048, ,1.2482829093933105
0.012419262013282306,0.02107116865921499,-0.08459883424976732, ,0.01282179721058158,0.020811135756631318,-0.08506864939313388, ,0.0006711020521704593, ,0.006003336199201386,0.0009444259297172368,-0.01562744893943937,-0.025908649089485102,-0.025440019367156817,0.030126590989192504, ,0.016767502682634307, ,0.03631049092191879, ,6.840777148755668e-05, ,0.22284717981862245,-0.22512538601651869,0.09730730514000001,1.7959943659449509,0.8366252880637919,-1.1506393990393127, ,0.029860585764150654,0.028302100077086424,0.016220785661914462,-0.04069837376782465,0.014003805465882061,-0.010053321498504048, ,1.2527248859405518
0.01248004250786042,0.021080540819367437,-0.0847476675728389, ,0.012854635880486243,0.02081104278285661,-0.08514516747898637, ,0.0006090612135784279, ,0.005984394907130605,0.0003907051530260339,-0.014497098238953161,-0.031245055751152186,-0.029783183597457203,0.021363251393536065, ,0.01568857833810797, ,0.04316585333061484, ,6.93159362387169e-05, ,0.22315608913359145,-0.22483192216729814,0.09746156365000001,1.7959943659449509,0.8366252880637919,-1.1506393990393127, ,0.031984139386070365,0.032124895585128904,0.014970687518796997,-0.03139151763223646,0.00954680195678622,-0.006509032386422801, ,1.257930040359497
0.01248004250786042,0.021080540819367437,-0.0847476675728389, ,0.012887539964390436,0.02081084780899471,-0.08522200124460812, ,0.0006810146320721774, ,0.005984394907130605,0.0003907051530260339,-0.014497098238953161,-0.031245055751152186,-0.029783183597457203,0.021363251393536065, ,0.01568857833810797, ,0.04316585333061484, ,7.035498367089074e-05, ,0.22315608913359145,-0.22483192216729814,0.09746156365000001,1.7959943659449509,0.8366252880637919,-1.1506393990393127, ,0.031984139386070365,0.032124895585128904,0.014970687518796997,-0.03139151763223646,0.00954680195678622,-0.006509032386422801, ,1.2623939514160156
0.01248004250786042,0.021080540819367437,-0.0847476675728389, ,0.012920509378724033,0.020810551765767224,-0.08529914732719333, ,0.000755668626353607, ,0.005984394907130605,0.0003907051530260339,-0.014497098238953161,-0.031245055751152186,-0.029783183597457203,0.021363251393536065, ,0.01568857833810797, ,0.04316585333061484, ,7.166533480412729e-05, ,0.22315608913359145,-0.22483192216729814,0.09746156365000001,1.7959943659449509,0.8366252880637919,-1.1506393990393127, ,0.031984139386070365,0.032124895585128904,0.014970687518796997,-0.03139151763223646,0.00954680195678622,-0.006509032386422801, ,1.2646548748016357
0.012534760993034421,0.02108372735665537,-0.0848773964488434, ,0.012953544039734349,0.020810155581412835,-0.08537660237481766, ,0.0007067017142617114, ,0.006050612578560461,0.00022079580171284442,-0.013823097565466905,-0.024735831260682194,-0.02445116730927672,0.014319451303457468, ,0.015090947275313937, ,0.03478103543959936, ,7.287723629164176e-05, ,0.22347272118143463,-0.22451529011945495,0.0975976741,1.7959943659449509,0.8370351975630882,-1.1508919740102612, ,0.0347735220075012,0.03275696981652426,0.014337364104410442,-0.025861220055065248,0.016666232970201592,-0.01239071499989329, ,1.266937017440796
0.012534760993034421,0.02108372735665537,-0.0848773964488434, ,0.012986643863486634,0.02080966018169095,-0.0854543630464263, ,0.0007824330001524051, ,0.006050612578560461,0.00022079580171284442,-0.013823097565466905,-0.024735831260682194,-0.02445116730927672,0.014319451303457468, ,0.015090947275313937, ,0.03478103543959936, ,7.422877107994797e-05, ,0.22347272118143463,-0.22451529011945495,0.0975976741,1.7959943659449509,0.8370351975630882,-1.1508919740102612, ,0.0347735220075012,0.03275696981652426,0.014337364104410442,-0.025861220055065248,0.016666232970201592,-0.01239071499989329, ,1.2693548202514648
0.012534760993034421,0.02108372735665537,-0.0848773964488434, ,0.013019808765864506,0.020809066489883128,-0.08553242601181932, ,0.0008601009603737956, ,0.006050612578560461,0.00022079580171284442,-0.013823097565466905,-0.024735831260682194,-0.02445116730927672,0.014319451303457468, ,0.015090947275313937, ,0.03478103543959936, ,7.572282467176138e-05, ,0.22347272118143463,-0.22451529011945495,0.0975976741,1.7959943659449509,0.8370351975630882,-1.1508919740102612, ,0.0347735220075012,0.03275696981652426,0.014337364104410442,-0.025861220055065248,0.016666232970201592,-0.01239071499989329, ,1.2719509601593018
0.012534760993034421,0.02108372735665537,-0.0848773964488434, ,0.013053038662570609,0.02080837542679696,-0.08561078795163955, ,0.0009393048090956472, ,0.006050612578560461,0.00022079580171284442,-0.013823097565466905,-0.024735831260682194,-0.02445116730927672,0.014319451303457468, ,0.015090947275313937, ,0.03478103543959936, ,0.00042468240194210553, ,0.22347272118143463,-0.22451529011945495,0.0975976741,1.7959943659449509,0.8370351975630882,-1.1508919740102612, ,0.0347735220075012,0.03275696981652426,0.014337364104410442,-0.025861220055065248,0.016666232970201592,-0.01239071499989329, ,1.2742788791656494
0.012534760993034421,0.02108372735665537,-0.0848773964488434, ,0.013086333469126825,0.020807587910767346,-0.08568944555735866, ,0.0010197592581577674, ,0.006050612578560461,0.00022079580171284442,-0.013823097565466905,-0.024735831260682194,-0.02445116730927672,0.014319451303457468, ,0.015090947275313937, ,0.03478103543959936, ,0.0004308172148927825, ,0.22347272118143463,-0.22451529011945495,0.0975976741,1.7959943659449509,0.8370351975630882,-1.1508919740102612, ,0.0347735220075012,0.03275696981652426,0.014337364104410442,-0.025861220055065248,0.016666232970201592,-0.01239071499989329, ,1.2775688171386719
0.012595284685944026,0.02108597513652661,-0.08502353454532555, ,0.013119693100874933,0.02080670485766012,-0.08576839553126434, ,0.0009527927175845852, ,0.006581967073034984,0.00045757344500504753,-0.015919103343142685,0.06292451947365943,0.07571859857642373,-0.020152010745934503, ,0.01723222316643291, ,0.09845202028924575, ,0.00043614349553249476, ,0.22386658055802008,-0.22416776714011485,0.09775452519000001,1.7955749860579822,0.8381282895612117,-1.1517833172398326, ,0.04268868266238002,0.03771738535710285,0.017183183948220066,-0.01664734364382113,0.12633996393353314,-0.10189349982450581, ,1.2798449993133545
0.012595284685944026,0.02108597513652661,-0.08502353454532555, ,0.013153117472976981,0.020805727180874006,-0.08584763458644652, ,0.0010338555086239142, ,0.006581967073034984,0.00045757344500504753,-0.015919103343142685,0.06292451947365943,0.07571859857642373,-0.020152010745934503, ,0.01723222316643291, ,0.09845202028924575, ,0.00044218099061422625, ,0.22386658055802008,-0.22416776714011485,0.09775452519000001,1.7955749860579822,0.8381282895612117,-1.1517833172398326, ,0.04268868266238002,0.03771738535710285,0.017183183948220066,-0.01664734364382113,0.12633996393353314,-0.10189349982450581, ,1.282106876373291
0.012595284685944026,0.02108597513652661,-0.08502353454532555, ,0.013186606500415657,0.020804655791343222,-0.0859271594467846, ,0.001115948038566901, ,0.006581967073034984,0.00045757344500504753,-0.015919103343142685,0.06292451947365943,0.07571859857642373,-0.020152010745934503, ,0.01723222316643291, ,0.09845202028924575, ,0.00044891866109375296, ,0.22386658055802008,-0.22416776714011485,0.09775452519000001,1.7955749860579822,0.8381282895612117,-1.1517833172398326, ,0.04268868266238002,0.03771738535710285,0.017183183948220066,-0.01664734364382113,0.12633996393353314,-0.10189349982450581, ,1.2843499183654785
0.012661582156244924,0.021085725580962,-0.08519046730046818, ,0.013220160097995025,0.020803491597540608,-0.08600696684693403, ,0.0010287549989120895, ,0.007795368580036111,0.0006323315559282879,-0.020088480247123116,-0.0024541971194368076,0.0016291304717867446,0.09212396060417678, ,0.021557241315490545, ,0.0029451448490492114, ,0.0004546596149335385, ,0.22427588540035398,-0.22380479869502629,0.09793082063000001,1.794316846397075,0.8390847450595699,-1.1525632425657077, ,0.04381206904823212,0.037792489668845394,0.02109776360264901,-0.12282361769123423,0.07515064632193641,-0.06021301718219703, ,1.2866480350494385
0.012661582156244924,0.021085725580962,-0.08519046730046818, ,0.013253778180340728,0.020802235505479376,-0.086087053532313, ,0.001111273874877701, ,0.007795368580036111,0.0006323315559282879,-0.020088480247123116,-0.0024541971194368076,0.0016291304717867446,0.09212396060417678, ,0.021557241315490545, ,0.0029451448490492114, ,0.0004610970096388734, ,0.22427588540035398,-0.22380479869502629,0.09793082063000001,1.794316846397075,0.8390847450595699,-1.1525632425657077, ,0.04381206904823212,0.037792489668845394,0.02109776360264901,-0.12282361769123423,0.07515064632193641,-0.06021301718219703, ,1.2888870239257812
0.012661582156244924,0.021085725580962,-0.08519046730046818, ,0.013287460661900579,0.020800888418716426,-0.08616741625908918, ,0.0011946904957303838, ,0.007795368580036111,0.0006323315559282879,-0.020088480247123116,-0.0024541971194368076,0.0016291304717867446,0.09212396060417678, ,0.021557241315490545, ,0.0029451448490492114, ,0.00046821927649413084, ,0.22427588540035398,-0.22380479869502629,0.09793082063000001,1.794316846397075,0.8390847450595699,-1.1525632425657077, ,0.04381206904823212,0.037792489668845394,0.02109776360264901,-0.12282361769123423,0.07515064632193641,-0.06021301718219703, ,1.2911198139190674
0.012661582156244924,0.021085725580962,-0.08519046730046818, ,0.013321207456944954,0.020799451238354253,-0.08624805179416689, ,0.0012788836920811263, ,0.007795368580036111,0.0006323315559282879,-0.020088480247123116,-0.0024541971194368076,0.0016291304717867446,0.09212396060417678, ,0.021557241315490545, ,0.0029451448490492114, ,0.00047601412664400575, ,0.22427588540035398,-0.22380479869502629,0.09793082063000001,1.794316846397075,0.8390847450595699,-1.1525632425657077, ,0.04381206904823212,0.037792489668845394,0.02109776360264901,-0.12282361769123423,0.07515064632193641,-0.06021301718219703, ,1.2933449745178223
0.012762476061967901,0.021105024891032022,-0.08545856917983674, ,0.013355018479567413,0.020797924863044378,-0.08632895691517324, ,0.0010968098074273808, ,0.007795368580036111,0.0006323315559282879,-0.020088480247123116,-0.0024541971194368076,0.0016291304717867446,0.09212396060417678, ,0.021557241315490545, ,0.0029451448490492114, ,0.00048192646646099026, ,0.2247855857700528,-0.22331826652395015,0.09821341185000002,1.7941071564535904,0.8399045640581624,-1.1532317499878861, ,0.05010398181545448,0.04942549039503686,0.031667617335984104,-0.04884599297194527,0.08571418955396846,-0.06888827382285485, ,1.2959280014038086
0.012762476061967901,0.021105024891032022,-0.08545856917983674, ,0.013388893643684893,0.020796310188988986,-0.08641012841044511, ,0.001180325685265587, ,0.010715355925050893,0.0024243591974141055,-0.03010391516992317,0.010946295239834734,0.022017050493497732,0.016731362743835868, ,0.032045937007310926, ,0.024587540912599303, ,0.0004885151383365054, ,0.2247855857700528,-0.22331826652395015,0.09821341185000002,1.7941071564535904,0.8399045640581624,-1.1532317499878861, ,0.05010398181545448,0.04942549039503686,0.031667617335984104,-0.04884599297194527,0.08571418955396846,-0.06888827382285485, ,1.298306941986084
0.012762476061967901,0.021105024891032022,-0.08545856917983674, ,0.013422832863038464,0.02079460810994418,-0.08649156307901602, ,0.001264715809359044, ,0.010715355925050893,0.0024243591974141055,-0.03010391516992317,0.010946295239834734,0.022017050493497732,0.016731362743835868, ,0.032045937007310926, ,0.024587540912599303, ,0.0004957693502152207, ,0.2247855857700528,-0.22331826652395015,0.09821341185000002,1.7941071564535904,0.8399045640581624,-1.1532317499878861, ,0.05010398181545448,0.04942549039503686,0.031667617335984104,-0.04884599297194527,0.08571418955396846,-0.06888827382285485, ,1.300567865371704
0.012762476061967901,0.021105024891032022,-0.08545856917983674, ,0.013456836051193528,0.02079281951722205,-0.08657325773060283, ,0.0013498661249480405, ,0.010715355925050893,0.0024243591974141055,-0.03010391516992317,0.010946295239834734,0.022017050493497732,0.016731362743835868, ,0.032045937007310926, ,0.024587540912599303, ,0.000503677653684969, ,0.2247855857700528,-0.22331826652395015,0.09821341185000002,1.7941071564535904,0.8399045640581624,-1.1532317499878861, ,0.05010398181545448,0.04942549039503686,0.031667617335984104,-0.04884599297194527,0.08571418955396846,-0.06888827382285485, ,1.3028059005737305
0.012762476061967901,0.021105024891032022,-0.08545856917983674, ,0.013490903121540573,0.020790945299693896,-0.08665520918559232, ,0.0014356877356122802, ,0.010715355925050893,0.0024243591974141055,-0.03010391516992317,0.010946295239834734,0.022017050493497732,0.016731362743835868, ,0.032045937007310926, ,0.024587540912599303, ,0.0005122282048953113, ,0.2247855857700528,-0.22331826652395015,0.09821341185000002,1.7941071564535904,0.8399045640581624,-1.1532317499878861, ,0.05010398181545448,0.04942549039503686,0.031667617335984104,-0.04884599297194527,0.08571418955396846,-0.06888827382285485, ,1.3051128387451172
0.012880975079222602,0.021141476410865244,-0.0858094177585631, ,0.013525033987295315,0.020788986343791963,-0.08673741427502828, ,0.0011833168041672718, ,0.01257163888118848,0.004637245842894603,-0.03870640269695822,0.05902661200723132,0.0774493431281862,-0.04110022803745268, ,0.04096017288666575, ,0.0973778968616175, ,0.0005183290103432382, ,0.2252952861397516,-0.22280856615425132,0.09858415079,1.7938974665101057,0.840997656056286,-1.154204771957598, ,0.05074702757137475,0.05096505991324961,0.04105363793814434,0.0,0.13242856183169452,-0.10768674613589561, ,1.307417869567871
0.012880975079222602,0.021141476410865244,-0.0858094177585631, ,0.013559228561499444,0.0207869435335128,-0.08681986984059809, ,0.0012675704151775167, ,0.01257163888118848,0.004637245842894603,-0.03870640269695822,0.05902661200723132,0.0774493431281862,-0.04110022803745268, ,0.04096017288666575, ,0.0973778968616175, ,0.0005250789329093128, ,0.2252952861397516,-0.22280856615425132,0.09858415079,1.7938974665101057,0.840997656056286,-1.154204771957598, ,0.05074702757137475,0.05096505991324961,0.04105363793814434,0.0,0.13242856183169452,-0.10768674613589561, ,1.3097620010375977
0.012880975079222602,0.021141476410865244,-0.0858094177585631, ,0.013593486757020991,0.020784817750419696,-0.0869025727346192, ,0.0013527254313962212, ,0.01257163888118848,0.004637245842894603,-0.03870640269695822,0.05902661200723132,0.0774493431281862,-0.04110022803745268, ,0.04096017288666575, ,0.0973778968616175, ,0.0005324686337886603, ,0.2252952861397516,-0.22280856615425132,0.09858415079,1.7938974665101057,0.840997656056286,-1.154204771957598, ,0.05074702757137475,0.05096505991324961,0.04105363793814434,0.0,0.13242856183169452,-0.10768674613589561, ,1.312135934829712
0.012880975079222602,0.021141476410865244,-0.0858094177585631, ,0.013627808486554498,0.020782609873644265,-0.08698551982002604, ,0.0014386665314871732, ,0.01257163888118848,0.004637245842894603,-0.03870640269695822,0.05902661200723132,0.0774493431281862,-0.04110022803745268, ,0.04096017288666575, ,0.0973778968616175, ,0.0005404880842107709, ,0.2252952861397516,-0.22280856615425132,0.09858415079,1.7938974665101057,0.840997656056286,-1.154204771957598, ,0.05074702757137475,0.05096505991324961,0.04105363793814434,0.0,0.13242856183169452,-0.10768674613589561, ,1.3144969940185547
0.01300754508183307,0.021185356538476866,-0.08620511934096961, ,0.013662193662622054,0.020780320779890532,-0.08706870797035737, ,0.0011568941398721285, ,0.013539529252889718,0.004487218502877355,-0.04250253658075636,0.03896863093963997,0.05755874866893068,0.0589400783469343, ,0.04483212685207957, ,0.06950845305680044, ,0.0005458951548744671, ,0.22580498650945044,-0.22231431125030096,0.09900285246000001,1.7930587067361679,0.8423640210539404,-1.1552372722544217, ,0.053674740700492524,0.05382696628387452,0.0448698916056338,-0.10833732530589571,0.13945136910269315,-0.11436818332278863, ,1.3192520141601562
0.01300754508183307,0.021185356538476866,-0.08620511934096961, ,0.013696642197573402,0.020777951343436626,-0.08715213406974197, ,0.001240028517566916, ,0.013539529252889718,0.004487218502877355,-0.04250253658075636,0.03896863093963997,0.05755874866893068,0.0589400783469343, ,0.04483212685207957, ,0.06950845305680044, ,0.0005519310971587492, ,0.22580498650945044,-0.22231431125030096,0.09900285246000001,1.7930587067361679,0.8423640210539404,-1.1552372722544217, ,0.053674740700492524,0.05382696628387452,0.0448698916056338,-0.10833732530589571,0.13945136910269315,-0.11436818332278863, ,1.321516990661621
0.01300754508183307,0.021185356538476866,-0.08620511934096961, ,0.01373115400358641,0.020775502436137468,-0.08723579501288634, ,0.0013243423264120413, ,0.013539529252889718,0.004487218502877355,-0.04250253658075636,0.03896863093963997,0.05755874866893068,0.0589400783469343, ,0.04483212685207957, ,0.06950845305680044, ,0.0005585898146523121, ,0.22580498650945044,-0.22231431125030096,0.09900285246000001,1.7930587067361679,0.8423640210539404,-1.1552372722544217, ,0.053674740700492524,0.05382696628387452,0.0448698916056338,-0.10833732530589571,0.13945136910269315,-0.11436818332278863, ,1.3238449096679688
0.013151072027166569,0.021222078255186655,-0.08665102859994307, ,0.013765728992667524,0.020772974927427346,-0.08731968770506074, ,0.0010132136907385757, ,0.014219113233007907,0.00321553587444551,-0.042560982781026636,0.006376240337893171,0.027740251939052597,0.0859143023146518, ,0.04498844415380235, ,0.028461172901447142, ,0.0005624754888068956, ,0.2263841914750173,-0.22168104715461456,0.09947081315,1.7913811871882916,0.8437303860515948,-1.156351451291386, ,0.059422004732918456,0.06558185318484504,0.04474385258426967,-0.1356897900193227,0.12804910389901666,-0.1050704006031993, ,1.3263540267944336
0.013151072027166569,0.021222078255186655,-0.08665102859994307, ,0.01380036707665234,0.020770369684322585,-0.08740380906208649, ,0.001091926333808121, ,0.014219113233007907,0.00321553587444551,-0.042560982781026636,0.006376240337893171,0.027740251939052597,0.0859143023146518, ,0.04498844415380235, ,0.028461172901447142, ,0.0005669623603747026, ,0.2263841914750173,-0.22168104715461456,0.09947081315,1.7913811871882916,0.8437303860515948,-1.156351451291386, ,0.059422004732918456,0.06558185318484504,0.04474385258426967,-0.1356897900193227,0.12804910389901666,-0.1050704006031993, ,1.3285880088806152
0.013151072027166569,0.021222078255186655,-0.08665102859994307, ,0.013835068167206064,0.020767687571424193,-0.08748815601032225, ,0.0011726482483196748, ,0.014219113233007907,0.00321553587444551,-0.042560982781026636,0.006376240337893171,0.027740251939052597,0.0859143023146518, ,0.04498844415380235, ,0.028461172901447142, ,0.0005720521577523914, ,0.2263841914750173,-0.22168104715461456,0.09947081315,1.7913811871882916,0.8437303860515948,-1.156351451291386, ,0.059422004732918456,0.06558185318484504,0.04474385258426967,-0.1356897900193227,0.12804910389901666,-0.1050704006031993, ,1.3308229446411133
0.013151072027166569,0.021222078255186655,-0.08665102859994307, ,0.01386983217582383,0.02076492945092017,-0.08757272548665102, ,0.001255040370469093, ,0.014219113233007907,0.00321553587444551,-0.042560982781026636,0.006376240337893171,0.027740251939052597,0.0859143023146518, ,0.04498844415380235, ,0.028461172901447142, ,0.0005777437261916973, ,0.2263841914750173,-0.22168104715461456,0.09947081315,1.7913811871882916,0.8437303860515948,-1.156351451291386, ,0.059422004732918456,0.06558185318484504,0.04474385258426967,-0.1356897900193227,0.12804910389901666,-0.1050704006031993, ,1.3330609798431396
0.013151072027166569,0.021222078255186655,-0.08665102859994307, ,0.01390465901383139,0.020762096182588136,-0.08765751443846719, ,0.0013388392721802647, ,0.014219113233007907,0.00321553587444551,-0.042560982781026636,0.006376240337893171,0.027740251939052597,0.0859143023146518, ,0.04498844415380235, ,0.028461172901447142, ,0.0005840337720263135, ,0.2263841914750173,-0.22168104715461456,0.09947081315,1.7913811871882916,0.8437303860515948,-1.156351451291386, ,0.059422004732918456,0.06558185318484504,0.04474385258426967,-0.1356897900193227,0.12804910389901666,-0.1050704006031993, ,1.3353559970855713
0.013307658551719018,0.0212572317268257,-0.08708892502601275, ,0.013939548592385342,0.020759188623798285,-0.08774251982366252, ,0.001036589656267759, ,0.014320135801175408,0.002129839562008796,-0.037617052443095385,-0.01876575364245617,-0.00580664456755035,0.00935026381303323, ,0.04030688700992166, ,0.01964167275365346, ,0.0005877432464873089, ,0.22707923743369748,-0.22094738753156323,0.09993099610000002,1.791171497244807,0.8448234780497182,-1.1573244732610979, ,0.06812415043680602,0.07050292834953252,0.039330398814814815,-0.04337776087031028,0.07405885943644751,-0.05886761392699881, ,1.3376238346099854
0.013307658551719018,0.0212572317268257,-0.08708892502601275, ,0.01397450082247369,0.020756207629515584,-0.08782773861061352, ,0.0011142482995011975, ,0.014320135801175408,0.002129839562008796,-0.037617052443095385,-0.01876575364245617,-0.00580664456755035,0.00935026381303323, ,0.04030688700992166, ,0.01964167275365346, ,0.0005920237753736007, ,0.22707923743369748,-0.22094738753156323,0.09993099610000002,1.791171497244807,0.8448234780497182,-1.1573244732610979, ,0.06812415043680602,0.07050292834953252,0.039330398814814815,-0.04337776087031028,0.07405885943644751,-0.05886761392699881, ,1.339953899383545
0.013307658551719018,0.0212572317268257,-0.08708892502601275, ,0.014009515614916446,0.02075315405230236,-0.08791316777816832, ,0.0011941832998304638, ,0.014320135801175408,0.002129839562008796,-0.037617052443095385,-0.01876575364245617,-0.00580664456755035,0.00935026381303323, ,0.04030688700992166, ,0.01964167275365346, ,0.0005968799005708335, ,0.22707923743369748,-0.22094738753156323,0.09993099610000002,1.791171497244807,0.8448234780497182,-1.1573244732610979, ,0.06812415043680602,0.07050292834953252,0.039330398814814815,-0.04337776087031028,0.07405885943644751,-0.05886761392699881, ,1.3423240184783936
0.013307658551719018,0.0212572317268257,-0.08708892502601275, ,0.014044592880365806,0.020750028742320844,-0.08799880431563264, ,0.0012760123016287647, ,0.014320135801175408,0.002129839562008796,-0.037617052443095385,-0.01876575364245617,-0.00580664456755035,0.00935026381303323, ,0.04030688700992166, ,0.01964167275365346, ,0.000602312959779297, ,0.22707923743369748,-0.22094738753156323,0.09993099610000002,1.791171497244807,0.8448234780497182,-1.1573244732610979, ,0.06812415043680602,0.07050292834953252,0.039330398814814815,-0.04337776087031028,0.07405885943644751,-0.05886761392699881, ,1.3445789813995361
0.013443629140170043,0.02127022568725804,-0.08742898101791509, ,0.01407973252930686,0.020746832547336155,-0.08808464522275708, ,0.001052835908439541, ,0.013995805251724532,0.0001961311636123485,-0.03349739169025482,-0.017442896524090548,0.0003715531644262254,-0.012685496537992322, ,0.0363042185169698, ,0.017445644611681396, ,0.000605888538736918, ,0.22775883792662924,-0.2202137279085119,0.10028617956000001,1.791171497244807,0.8455066605485455,-1.1579632415197205, ,0.07483985927324195,0.08216185416317816,0.034931604210526324,-0.026293920157874403,0.08344500715771998,-0.0680728063984739, ,1.3468639850616455
0.013443629140170043,0.02127022568725804,-0.08742898101791509, ,0.014114934472057925,0.020743566312718235,-0.0881706875097241, ,0.0011305527256184821, ,0.013995805251724532,0.0001961311636123485,-0.03349739169025482,-0.017442896524090548,0.0003715531644262254,-0.012685496537992322, ,0.0363042185169698, ,0.017445644611681396, ,0.0006100197528068516, ,0.22775883792662924,-0.2202137279085119,0.10028617956000001,1.791171497244807,0.8455066605485455,-1.1579632415197205, ,0.07483985927324195,0.08216185416317816,0.034931604210526324,-0.026293920157874403,0.08344500715771998,-0.0680728063984739, ,1.3492248058319092
0.013443629140170043,0.02127022568725804,-0.08742898101791509, ,0.014150198618771204,0.020740230881445297,-0.08825692819713461, ,0.0012106326667725303, ,0.013995805251724532,0.0001961311636123485,-0.03349739169025482,-0.017442896524090548,0.0003715531644262254,-0.012685496537992322, ,0.0363042185169698, ,0.017445644611681396, ,0.0006147120411972085, ,0.22775883792662924,-0.2202137279085119,0.10028617956000001,1.791171497244807,0.8455066605485455,-1.1579632415197205, ,0.07483985927324195,0.08216185416317816,0.034931604210526324,-0.026293920157874403,0.08344500715771998,-0.0680728063984739, ,1.3555238246917725
0.013443629140170043,0.02127022568725804,-0.08742898101791509, ,0.01418552487943283,0.02073682709410512,-0.08834336431599382, ,0.0012926794509541541, ,0.013995805251724532,0.0001961311636123485,-0.03349739169025482,-0.017442896524090548,0.0003715531644262254,-0.012685496537992322, ,0.0363042185169698, ,0.017445644611681396, ,0.0006199676025131539, ,0.22775883792662924,-0.2202137279085119,0.10028617956000001,1.791171497244807,0.8455066605485455,-1.1579632415197205, ,0.07483985927324195,0.08216185416317816,0.034931604210526324,-0.026293920157874403,0.08344500715771998,-0.0680728063984739, ,1.3582069873809814
0.013443629140170043,0.02127022568725804,-0.08742898101791509, ,0.014220913163863766,0.020733355788898945,-0.08842999290769965, ,0.001376380959161986, ,0.013995805251724532,0.0001961311636123485,-0.03349739169025482,-0.017442896524090548,0.0003715531644262254,-0.012685496537992322, ,0.0363042185169698, ,0.017445644611681396, ,0.0006257861667950679, ,0.22775883792662924,-0.2202137279085119,0.10028617956000001,1.791171497244807,0.8455066605485455,-1.1579632415197205, ,0.07483985927324195,0.08216185416317816,0.034931604210526324,-0.026293920157874403,0.08344500715771998,-0.0680728063984739, ,1.3607330322265625
0.013509790334243373,0.021268947800590382,-0.08758497988177058, ,0.014256363381720066,0.020729817801643242,-0.08851681102402777, ,0.0013100922672330036, ,0.013689381078881586,-0.00010057267066305672,-0.031325310674938746,0.015135587584559275,0.03032362155825698,-0.0468743557759423, ,0.03418602577174417, ,0.033890675307103886, ,0.0006310098774854338, ,0.22812952910459203,-0.21981214579905223,0.10044951210000001,1.7909618073013225,0.8460532065476072,-1.1583272343943656, ,0.07816881512229883,0.08209077989487092,0.03291076760330579,0.0,0.11171437409302433,-0.09558133739227408, ,1.3630049228668213
0.013509790334243373,0.021268947800590382,-0.08758497988177058, ,0.014291875442493373,0.02072621396577259,-0.08860381572712006, ,0.0013943613634102997, ,0.013689381078881586,-0.00010057267066305672,-0.031325310674938746,0.015135587584559275,0.03032362155825698,-0.0468743557759423, ,0.03418602577174417, ,0.033890675307103886, ,0.0006367928432878949, ,0.22812952910459203,-0.21981214579905223,0.10044951210000001,1.7909618073013225,0.8460532065476072,-1.1583272343943656, ,0.07816881512229883,0.08209077989487092,0.03291076760330579,0.0,0.11171437409302433,-0.09558133739227408, ,1.3655810356140137
0.013712768939214082,0.021230420542261763,-0.0880267724806148, ,0.014327449255511313,0.020722545112342013,-0.08869100408946964, ,0.0010377730839452948, ,0.011771091865708691,-0.00420010805135932,-0.023554515384544478,-0.015194078468099304,0.0028649225437092415,0.148706679392477, ,0.026664859016218127, ,0.015461583073140599, ,0.0006398077323153941, ,0.2294115027617133,-0.2184529448131887,0.10090969505000001,1.7882358380360237,0.8481027540440889,-1.1602435391702337, ,0.08131700219234857,0.09029204715363537,0.024355980917431196,-0.2195726695798635,0.135204205112328,-0.12409582718741906, ,1.3677759170532227
0.013712768939214082,0.021230420542261763,-0.0880267724806148, ,0.014363084729938193,0.020718812070030065,-0.08877837319390915, ,0.0011178360741848276, ,0.011771091865708691,-0.00420010805135932,-0.023554515384544478,-0.015194078468099304,0.0028649225437092415,0.148706679392477, ,0.026664859016218127, ,0.015461583073140599, ,0.0006433751080009869, ,0.2294115027617133,-0.2184529448131887,0.10090969505000001,1.7882358380360237,0.8481027540440889,-1.1602435391702337, ,0.08131700219234857,0.09029204715363537,0.024355980917431196,-0.2195726695798635,0.135204205112328,-0.12409582718741906, ,1.3700618743896484
0.013712768939214082,0.021230420542261763,-0.0880267724806148, ,0.014398781774775049,0.020715015665140668,-0.08886592013359629, ,0.0012001768958861637, ,0.011771091865708691,-0.00420010805135932,-0.023554515384544478,-0.015194078468099304,0.0028649225437092415,0.148706679392477, ,0.026664859016218127, ,0.015461583073140599, ,0.0006474995656890253, ,0.2294115027617133,-0.2184529448131887,0.10090969505000001,1.7882358380360237,0.8481027540440889,-1.1602435391702337, ,0.08131700219234857,0.09029204715363537,0.024355980917431196,-0.2195726695798635,0.135204205112328,-0.12409582718741906, ,1.3723299503326416
0.013712768939214082,0.021230420542261763,-0.0880267724806148, ,0.014434540298860599,0.02071115672160636,-0.0889536420120013, ,0.0012843971112005278, ,0.011771091865708691,-0.00420010805135932,-0.023554515384544478,-0.015194078468099304,0.0028649225437092415,0.148706679392477, ,0.026664859016218127, ,0.015461583073140599, ,0.0006521826358766099, ,0.2294115027617133,-0.2184529448131887,0.10090969505000001,1.7882358380360237,0.8481027540440889,-1.1602435391702337, ,0.08131700219234857,0.09029204715363537,0.024355980917431196,-0.2195726695798635,0.135204205112328,-0.12409582718741906, ,1.3745620250701904
0.013828053349030821,0.021196684539113952,-0.08825308959180087, ,0.014470360210871207,0.020707236060990255,-0.08904153594289341, ,0.0011286122301552434, ,0.012860053791553009,-0.002748722936036727,-0.02505477115373397,-0.035540918382229815,-0.02340767309860936,-0.09531174832579802, ,0.028296254502437442, ,0.04255662306003629, ,0.000655660224156016, ,0.23015288511763884,-0.2175725532655271,0.10114173096000001,1.7873970782620854,0.848785936542916,-1.1608006286887158, ,0.07829780656639503,0.09733019647022642,0.02573313654281099,0.057710261986245986,0.04329694990081442,-0.04907859158828914, ,1.3768069744110107
0.013828053349030821,0.021196684539113952,-0.08825308959180087, ,0.014506241419321754,0.02070325450248924,-0.08912959905032769, ,0.001213128637290948, ,0.012860053791553009,-0.002748722936036727,-0.02505477115373397,-0.035540918382229815,-0.02340767309860936,-0.09531174832579802, ,0.028296254502437442, ,0.04255662306003629, ,0.0006596998503381531, ,0.23015288511763884,-0.2175725532655271,0.10114173096000001,1.7873970782620854,0.848785936542916,-1.1608006286887158, ,0.07829780656639503,0.09733019647022642,0.02573313654281099,0.057710261986245986,0.04329694990081442,-0.04907859158828914, ,1.3790299892425537
0.013828053349030821,0.021196684539113952,-0.08825308959180087, ,0.014542183832566002,0.020699212862936203,-0.08921782846863185, ,0.0012993003950520483, ,0.012860053791553009,-0.002748722936036727,-0.02505477115373397,-0.035540918382229815,-0.02340767309860936,-0.09531174832579802, ,0.028296254502437442, ,0.04255662306003629, ,0.000664301293105879, ,0.23015288511763884,-0.2175725532655271,0.10114173096000001,1.7873970782620854,0.848785936542916,-1.1608006286887158, ,0.07829780656639503,0.09733019647022642,0.02573313654281099,0.057710261986245986,0.04329694990081442,-0.04907859158828914, ,1.3812308311462402
0.013828053349030821,0.021196684539113952,-0.08825308959180087, ,0.014578187358796875,0.020695111956802733,-0.08930622134239308, ,0.001386853478936928, ,0.012860053791553009,-0.002748722936036727,-0.02505477115373397,-0.035540918382229815,-0.02340767309860936,-0.09531174832579802, ,0.028296254502437442, ,0.04255662306003629, ,0.0006694623801475293, ,0.23015288511763884,-0.2175725532655271,0.10114173096000001,1.7873970782620854,0.848785936542916,-1.1608006286887158, ,0.07829780656639503,0.09733019647022642,0.02573313654281099,0.057710261986245986,0.04329694990081442,-0.04907859158828914, ,1.383491039276123
0.013828053349030821,0.021196684539113952,-0.08825308959180087, ,0.014614251906047043,0.020690952596201174,-0.08939477482644409, ,0.0014755738355429991, ,0.012860053791553009,-0.002748722936036727,-0.02505477115373397,-0.035540918382229815,-0.02340767309860936,-0.09531174832579802, ,0.028296254502437442, ,0.04255662306003629, ,0.0006751794826680646, ,0.23015288511763884,-0.2175725532655271,0.10114173096000001,1.7873970782620854,0.848785936542916,-1.1608006286887158, ,0.07829780656639503,0.09733019647022642,0.02573313654281099,0.057710261986245986,0.04329694990081442,-0.04907859158828914, ,1.3858048915863037
0.013959763672528734,0.02116946957110022,-0.08852888515657409, ,0.014650377382189493,0.02068673559088819,-0.08948348608585113, ,0.0012732801442727904, ,0.014547181868856581,-0.002339197876300568,-0.032529882774044984,-0.024498486533503488,0.0009338769282793242,-0.06955648769777198, ,0.03571114140325379, ,0.024515536756613797, ,0.0006793914591582388, ,0.23092515840506128,-0.21656859799187791,0.10142561847,1.7876067682055703,0.8494691190417433,-1.1615210756874792, ,0.08001428461928396,0.10796011553864708,0.033534340042105266,0.01839442595753761,0.07884304431760261,-0.0794378135615776, ,1.3881638050079346
0.013959763672528734,0.02116946957110022,-0.08852888515657409, ,0.014686563694937722,0.02068246174826645,-0.08957235229589953, ,0.0013617042861528421, ,0.014547181868856581,-0.002339197876300568,-0.032529882774044984,-0.024498486533503488,0.0009338769282793242,-0.06955648769777198, ,0.03571114140325379, ,0.024515536756613797, ,0.0006841628775288304, ,0.23092515840506128,-0.21656859799187791,0.10142561847,1.7876067682055703,0.8494691190417433,-1.1615210756874792, ,0.08001428461928396,0.10796011553864708,0.033534340042105266,0.01839442595753761,0.07884304431760261,-0.0794378135615776, ,1.390523910522461
0.014092318261960203,0.021152380084074614,-0.08884313615288837, ,0.014722810751846569,0.020678131873387753,-0.0896613706420812, ,0.0011366353084641717, ,0.014547181868856581,-0.002339197876300568,-0.032529882774044984,-0.024498486533503488,0.0009338769282793242,-0.06955648769777198, ,0.03571114140325379, ,0.024515536756613797, ,0.0006873050471881036, ,0.2316510952952384,-0.21559553364972564,0.10175357984000001,1.7876067682055703,0.8508354840393977,-1.162880290944865, ,0.08069467819597856,0.10591176513222186,0.03792574171428572,-0.029252981253359983,0.1656045872170255,-0.1522676348971857, ,1.397596836090088
0.014092318261960203,0.021152380084074614,-0.08884313615288837, ,0.01475911846031231,0.02067374676895524,-0.08975053832008076, ,0.0012235567203403412, ,0.014947859805196563,-0.0016118078958952447,-0.0362529947331508,0.039250503541943836,0.07442392712989433,-0.04547805755427559, ,0.039246860569616786, ,0.08413952897902721, ,0.0006910033345891535, ,0.2316510952952384,-0.21559553364972564,0.10175357984000001,1.7876067682055703,0.8508354840393977,-1.162880290944865, ,0.08069467819597856,0.10591176513222186,0.03792574171428572,-0.029252981253359983,0.1656045872170255,-0.1522676348971857, ,1.4000909328460693
0.014092318261960203,0.021152380084074614,-0.08884313615288837, ,0.0147954867275734,0.0206693072353262,-0.08983985253576302, ,0.0013119637251545625, ,0.014947859805196563,-0.0016118078958952447,-0.0362529947331508,0.039250503541943836,0.07442392712989433,-0.04547805755427559, ,0.039246860569616786, ,0.08413952897902721, ,0.0006952564879491905, ,0.2316510952952384,-0.21559553364972564,0.10175357984000001,1.7876067682055703,0.8508354840393977,-1.162880290944865, ,0.08069467819597856,0.10591176513222186,0.03792574171428572,-0.029252981253359983,0.1656045872170255,-0.1522676348971857, ,1.4024078845977783
0.014092318261960203,0.021152380084074614,-0.08884313615288837, ,0.014831915460710684,0.020664814070514462,-0.08992931050515934, ,0.0014016059922495197, ,0.014947859805196563,-0.0016118078958952447,-0.0362529947331508,0.039250503541943836,0.07442392712989433,-0.04547805755427559, ,0.039246860569616786, ,0.08413952897902721, ,0.0007000615866179003, ,0.2316510952952384,-0.21559553364972564,0.10175357984000001,1.7876067682055703,0.8508354840393977,-1.162880290944865, ,0.08069467819597856,0.10591176513222186,0.03792574171428572,-0.029252981253359983,0.1656045872170255,-0.1522676348971857, ,1.4048879146575928
0.014234917865944418,0.021133623193438263,-0.08917841772364346, ,0.014868404566648154,0.0206602680701934,-0.09001890945445452, ,0.001154035017766983, ,0.015750521792334424,-0.0022602342036867505,-0.03602540723011838,-0.016384151392555675,-0.005777126351689174,0.025536750064124415, ,0.03938296029353536, ,0.01737109455066734, ,0.0007031289746662049, ,0.23243109131553508,-0.21462246930757334,0.10210228185,1.786768008431632,0.8520652125372866,-1.1641280882985545, ,0.08634844545811718,0.10603010229996734,0.03730400824355972,-0.09718130382684824,0.103414457505017,-0.11476177310299174, ,1.4075889587402344
0.014234917865944418,0.021133623193438263,-0.08917841772364346, ,0.014904953952153016,0.020655670027697432,-0.0901086466199728, ,0.0012420601374448466, ,0.015750521792334424,-0.0022602342036867505,-0.03602540723011838,-0.016384151392555675,-0.005777126351689174,0.025536750064124415, ,0.03938296029353536, ,0.01737109455066734, ,0.0007067459623358601, ,0.23243109131553508,-0.21462246930757334,0.10210228185,1.786768008431632,0.8520652125372866,-1.1641280882985545, ,0.08634844545811718,0.10603010229996734,0.03730400824355972,-0.09718130382684824,0.103414457505017,-0.11476177310299174, ,1.4100630283355713
0.014234917865944418,0.021133623193438263,-0.08917841772364346, ,0.014941563523836665,0.02065102073402627,-0.09019851924816603, ,0.0013314880172129787, ,0.015750521792334424,-0.0022602342036867505,-0.03602540723011838,-0.016384151392555675,-0.005777126351689174,0.025536750064124415, ,0.03938296029353536, ,0.01737109455066734, ,0.0007109109093683743, ,0.23243109131553508,-0.21462246930757334,0.10210228185,1.786768008431632,0.8520652125372866,-1.1641280882985545, ,0.08634844545811718,0.10603010229996734,0.03730400824355972,-0.09718130382684824,0.103414457505017,-0.11476177310299174, ,1.412276029586792
0.014234917865944418,0.021133623193438263,-0.08917841772364346, ,0.014978233188154694,0.020646320977845946,-0.09028852459559908, ,0.0014220824113661045, ,0.015750521792334424,-0.0022602342036867505,-0.03602540723011838,-0.016384151392555675,-0.005777126351689174,0.025536750064124415, ,0.03938296029353536, ,0.01737109455066734, ,0.0007156206544147168, ,0.23243109131553508,-0.21462246930757334,0.10210228185,1.786768008431632,0.8520652125372866,-1.1641280882985545, ,0.08634844545811718,0.10603010229996734,0.03730400824355972,-0.09718130382684824,0.103414457505017,-0.11476177310299174, ,1.414477825164795
0.014446109823208316,0.021100546548612147,-0.08965825882982827, ,0.015014962851407552,0.02064157154549207,-0.09037865992893733, ,0.0010262697329542865, ,0.016975500949023527,-0.002747805426289121,-0.03811327833907908,-0.10898916752303583,-0.09111260638692142,0.04003768235897494, ,0.04181315645682776, ,0.1420565565426269, ,0.0007176643983524772, ,0.23353544211654917,-0.2131937637258418,0.10259357576000001,1.785509868770725,0.8526117585363484,-1.1649004748739025, ,0.08714136047609806,0.11516619121173638,0.03885075980487805,-0.08177011592568334,0.013394893390245155,-0.024182616324904864, ,1.4172899723052979
0.014446109823208316,0.021100546548612147,-0.08965825882982827, ,0.015051752419741082,0.02063677322097274,-0.0904689225249336, ,0.0011131326429166103, ,0.016975500949023527,-0.002747805426289121,-0.03811327833907908,-0.10898916752303583,-0.09111260638692142,0.04003768235897494, ,0.04181315645682776, ,0.1420565565426269, ,0.0007202491581208702, ,0.23353544211654917,-0.2131937637258418,0.10259357576000001,1.785509868770725,0.8526117585363484,-1.1649004748739025, ,0.08714136047609806,0.11516619121173638,0.03885075980487805,-0.08177011592568334,0.013394893390245155,-0.024182616324904864, ,1.4196648597717285
0.014446109823208316,0.021100546548612147,-0.08965825882982827, ,0.015088601799146749,0.02063192678597007,-0.0905593096704138, ,0.0012017874347836574, ,0.016975500949023527,-0.002747805426289121,-0.03811327833907908,-0.10898916752303583,-0.09111260638692142,0.04003768235897494, ,0.04181315645682776, ,0.1420565565426269, ,0.000723376030047252, ,0.23353544211654917,-0.2131937637258418,0.10259357576000001,1.785509868770725,0.8526117585363484,-1.1649004748739025, ,0.08714136047609806,0.11516619121173638,0.03885075980487805,-0.08177011592568334,0.013394893390245155,-0.024182616324904864, ,1.4219369888305664
0.014446109823208316,0.021100546548612147,-0.08965825882982827, ,0.015125510895462274,0.020627033019843925,-0.09064981866226507, ,0.0012918946474881233, ,0.016975500949023527,-0.002747805426289121,-0.03811327833907908,-0.10898916752303583,-0.09111260638692142,0.04003768235897494, ,0.04181315645682776, ,0.1420565565426269, ,0.0007270438920952576, ,0.23353544211654917,-0.2131937637258418,0.10259357576000001,1.785509868770725,0.8526117585363484,-1.1649004748739025, ,0.08714136047609806,0.11516619121173638,0.03885075980487805,-0.08177011592568334,0.013394893390245155,-0.024182616324904864, ,1.424165964126587
0.014446109823208316,0.021100546548612147,-0.08965825882982827, ,0.01516247961437217,0.02062209269963375,-0.09074044680742153, ,0.0013831972318298635, ,0.016975500949023527,-0.002747805426289121,-0.03811327833907908,-0.10898916752303583,-0.09111260638692142,0.04003768235897494, ,0.04181315645682776, ,0.1420565565426269, ,0.0007312500032474025, ,0.23353544211654917,-0.2131937637258418,0.10259357576000001,1.785509868770725,0.8526117585363484,-1.1649004748739025, ,0.08714136047609806,0.11516619121173638,0.03885075980487805,-0.08177011592568334,0.013394893390245155,-0.024182616324904864, ,1.4263849258422852
0.014606251477502469,0.021073911204491893,-0.09001407046359028, ,0.015199507861407975,0.02061710660006148,-0.09083119142285154, ,0.0011082915887696268, ,0.016831175992944702,-0.0026318389372050385,-0.03699508284590604,-0.05193421566083279,-0.0340490215700944,-0.03384376931879495, ,0.04072899724118331, ,0.06210015562214873, ,0.0007336515420086905, ,0.23438494273271387,-0.2120816901919535,0.10295912954000001,1.7850904888837558,0.8531583045354102,-1.1654278252288286, ,0.08977950951605561,0.11558701773260752,0.038107204593301434,-0.01971980443689551,0.06111244667680126,-0.06881241348644711, ,1.4285969734191895
0.014606251477502469,0.021073911204491893,-0.09001407046359028, ,0.015236595541948965,0.020612075493533822,-0.0909220498355442, ,0.0011979367276250036, ,0.016831175992944702,-0.0026318389372050385,-0.03699508284590604,-0.05193421566083279,-0.0340490215700944,-0.03384376931879495, ,0.04072899724118331, ,0.06210015562214873, ,0.0007365900558417051, ,0.23438494273271387,-0.2120816901919535,0.10295912954000001,1.7850904888837558,0.8531583045354102,-1.1654278252288286, ,0.08977950951605561,0.11558701773260752,0.038107204593301434,-0.01971980443689551,0.06111244667680126,-0.06881241348644711, ,1.4307968616485596
0.014606251477502469,0.021073911204491893,-0.09001407046359028, ,0.015273742561222247,0.020607000150145126,-0.09101301938249613, ,0.001288972157224425, ,0.016831175992944702,-0.0026318389372050385,-0.03699508284590604,-0.05193421566083279,-0.0340490215700944,-0.03384376931879495, ,0.04072899724118331, ,0.06210015562214873, ,0.0007400641571082632, ,0.23438494273271387,-0.2120816901919535,0.10295912954000001,1.7850904888837558,0.8531583045354102,-1.1654278252288286, ,0.08977950951605561,0.11558701773260752,0.038107204593301434,-0.01971980443689551,0.06111244667680126,-0.06881241348644711, ,1.4330120086669922
0.014606251477502469,0.021073911204491893,-0.09001407046359028, ,0.01531094882430373,0.020601881337679883,-0.09110409741069846, ,0.0013811478165545045, ,0.016831175992944702,-0.0026318389372050385,-0.03699508284590604,-0.05193421566083279,-0.0340490215700944,-0.03384376931879495, ,0.04072899724118331, ,0.06210015562214873, ,0.0007440709299798021, ,0.23438494273271387,-0.2120816901919535,0.10295912954000001,1.7850904888837558,0.8531583045354102,-1.1654278252288286, ,0.08977950951605561,0.11558701773260752,0.038107204593301434,-0.01971980443689551,0.06111244667680126,-0.06881241348644711, ,1.4353408813476562
0.014736742184984657,0.02104834896940494,-0.09031322420696684, ,0.015348214236118141,0.020596719821615223,-0.09119528127712331, ,0.0011644275982059474, ,0.015349269367772506,-0.0031383600468737867,-0.035282001626781065,0.05005258827046691,0.06240156174687398,-0.03779637808072993, ,0.038604002547669, ,0.07999476125898004, ,0.0007466818409625732, ,0.23510315689001676,-0.21113179404842386,0.10327023914000001,1.7844614190533024,0.8543880330332991,-1.16692065880294, ,0.0849569754328297,0.11405882398854661,0.036787093579676675,-0.061920617451220225,0.1635336625121931,-0.1858257566675748, ,1.4377098083496094
0.014736742184984657,0.02104834896940494,-0.09031322420696684, ,0.015385538701439792,0.020591516365123425,-0.09128656834871038, ,0.0012557992540073463, ,0.015349269367772506,-0.0031383600468737867,-0.035282001626781065,0.05005258827046691,0.06240156174687398,-0.03779637808072993, ,0.038604002547669, ,0.07999476125898004, ,0.0007498245410430966, ,0.23510315689001676,-0.21113179404842386,0.10327023914000001,1.7844614190533024,0.8543880330332991,-1.16692065880294, ,0.0849569754328297,0.11405882398854661,0.036787093579676675,-0.061920617451220225,0.1635336625121931,-0.1858257566675748, ,1.4400908946990967
