NicholasDascanio/dvrk_moveit_final/test/execution/third_experiment_notsharpbends/thirdexp_500vel4.0/thirdexp_500vel4.0_20.csv
Current Position (x),Current Position (y),Current Position (z), ,Planned Position (x),Planned Position (y),Planned Position (z), ,Position Error,,Cartesian linear Velocity(x),Cartesian linear Velocity(y),Cartesian linear Velocity(z),Cartesian Angular Velocity(x),Cartesian Angular Velocity(y),Cartesian Angular Velocity(z), ,Total Linear Velocity, ,Total Angular Velocity, ,MSE, ,Joint 1 Position,Joint 2 Position,Joint 3 Position,Joint 4 Position,Joint 5 Position,Joint 6 Position, ,Joint 1 Velocity,Joint 2 Velocity,Joint 3 Velocity,Joint 4 Velocity,Joint 5 Velocity,Joint 6 Velocity, ,Time Stamp
0.008188299591086187,0.019513754921656454,-0.0751132622567191, ,0.008397319517527339,0.019479990869647607,-0.07536739328654618, ,0.0003307747287482693, ,0.00024428170147610057,0.000284821406639301,-0.0011402599482159546,0.10724435379521051,0.002455356346267275,-0.04042835409295212, ,0.0012004122345517395, ,0.10727245776869994, ,2.756456072902244e-05, ,0.16930547280162392,-0.24656369247536591,0.08565754691000001,1.682761796463308,0.5317892570870942,-1.1742196180409499, ,0.0006561942503062591,0.0,0.0011964800660936538,-0.0016217011924658012,0.0,-0.11546756211306741, ,0.022430896759033203
0.008218376777040834,0.019537398071044872,-0.07522584207956752, ,0.008486804282729538,0.019515586529763148,-0.07561977418955988, ,0.00047719134152494663, ,0.0023003383150163744,0.0019211211946852328,-0.008420253748920971,0.2905187356590458,-0.049179095646178055,-0.1288310371260742, ,0.008937725449151975, ,0.29465186097355406, ,3.672573046696436e-05, ,0.1693904228632404,-0.24650191061237212,0.08577291672000001,1.682761796463308,0.5312427110880324,-1.1796548157162847, ,0.0055750546149577725,0.0025035387870730908,0.008614825051379124,-0.0015771374450533424,-0.05484193348592856,-0.318952632863724, ,0.04587984085083008
0.008290217383683305,0.019592899303330077,-0.07546956345440403, ,0.008576079196272004,0.019550914350855167,-0.0758710278249012, ,0.0004946244564409468, ,0.0040542093604836885,0.0032990093310073043,-0.014634897176507204,0.0876207878911955,-0.10837222841983149,-0.06525316263607611, ,0.015540279645863691, ,0.1393626265969645, ,4.0705953959817584e-05, ,0.16952943205497645,-0.2464324060165041,0.08601921182000001,1.682761796463308,0.5287832540922546,-1.1832034477793074, ,0.009264258508035441,0.00480788021732116,0.014928595613870667,-0.0015443356431261246,-0.10573102666606314,-0.10719642741144408, ,0.06802892684936523
0.00836660428472002,0.019650933698512854,-0.07573545342184149, ,0.00866514442244529,0.019585975182601766,-0.07612115714948371, ,0.0004920499854074812, ,0.004487089330559583,0.002933341288166935,-0.01364762614264549,0.14667476145983227,-0.1364843597179556,-0.09586759212237597, ,0.01466274739271966, ,0.2003533519147022, ,4.272953600289628e-05, ,0.16976111404120317,-0.24631656502339075,0.08629143272,1.682761796463308,0.5271436160950693,-1.1883190534060546, ,0.014317583216425886,0.006130416536713395,0.013827093333333334,-0.0015151527973748932,-0.13160995316239338,-0.17372870344799213, ,0.09393501281738281
0.008482112361965966,0.019704409899538557,-0.07604559225761527, ,0.008754000126413695,0.01962076987380282,-0.07637016511578867, ,0.0004315856237460999, ,0.0028020789030317747,0.0012103907583259116,-0.008490107841649656,-0.24948873285720957,0.0023830054126417555,0.09880964629837677, ,0.00902211854995807, ,0.24950011321316032, ,4.2812041074379686e-05, ,0.17035576447251846,-0.24599993297554754,0.08660772748000001,1.682761796463308,0.5250940685985876,-1.1866477848506083, ,0.020567174156582307,0.012397595979506904,0.00891870745800672,-0.00146681353553111,0.031706967057915286,0.25616981364977265, ,0.11608195304870605
0.008530734155680592,0.01973144121084698,-0.07622744929659542, ,0.008842646474213995,0.019655299272379124,-0.0766180546718709, ,0.0005056277765714862, ,0.002654021684743187,0.0012538178882728606,-0.00916614696863844,-0.05674062246945883,0.05089039980935621,0.03713217667120265, ,0.00962466314479212, ,0.07621896723436587, ,4.4062159878052094e-05, ,0.17078823751347502,-0.2457373600578239,0.08680346727,1.682761796463308,0.5271436160950693,-1.1843984738793076, ,0.021700649796128693,0.014270216775709891,0.009754324262094306,-0.001437919626407153,0.07719900958775458,0.05118468511192556, ,0.13898992538452148
0.008598920717817747,0.019761118068580177,-0.07643719285851307, ,0.008931083632754131,0.019689564225371107,-0.07686482876136369, ,0.0005461910104934824, ,0.004012868269062347,0.0017401754276731513,-0.01233278148270459,0.037144873927873016,-0.0003289887984701393,-0.01542025668261512, ,0.013085443109198333, ,0.03714632697111329, ,4.5528401707398785e-05, ,0.1712824924174254,-0.2454284507428549,0.08702383657000001,1.682761796463308,0.5279634350936618,-1.1846585876007834, ,0.02678434703880067,0.01788146628198055,0.012866568271405495,-0.00141085019766844,0.02609811882185535,-0.05700935431011088, ,0.16148805618286133
0.008683559473392177,0.019795313134759726,-0.07667100125810883, ,0.009019311769811845,0.019723565578938968,-0.07711049032348427, ,0.000557698803030734, ,0.003949570385122046,0.0012467689341680525,-0.009427648842345673,-0.0021773184436282237,-0.03668341998740596,-0.008303381573770332, ,0.010297286132608987, ,0.03674797876212062, ,4.677736251174935e-05, ,0.17186169738299223,-0.24510409596213747,0.08726753909000001,1.682761796463308,0.5281000715934273,-1.1855051141657449, ,0.028756648957112357,0.014624278249109382,0.00979631704797048,-0.0013839624401650247,-0.008289056800985831,-0.013962846257959417, ,0.18471598625183105
0.00881315743668069,0.019837106576811106,-0.07699564737150079, ,0.009107331054033321,0.019757304178361357,-0.0773550422930393, ,0.00047124436290775637, ,0.004384922306129483,0.0017874331962463269,-0.011875588051781832,-0.01739101914850148,-0.0298345571110377,-0.0006857264084337597, ,0.01278483682482724, ,0.03453328986409547, ,4.681508792251308e-05, ,0.17278070259502495,-0.24458667285956445,0.08760457449,1.682761796463308,0.5279634350936618,-1.1858837687028918, ,0.029452806194435372,0.015559426390960942,0.01237669892773893,-0.0013459134606987647,0.0,0.001969335978028947, ,0.20977997779846191
0.008898549913905419,0.019872419748616716,-0.07723239761176695, ,0.009195141654931934,0.01979078086803482,-0.07759848760042892, ,0.00047817721345368104, ,0.004284711418723344,0.0017393492076678285,-0.011854544576174212,-0.007288092195684212,-0.021590343890365474,-0.002700517780009709, ,0.0127245555803122, ,0.022787255276681746, ,4.73778742804444e-05, ,0.17336763029346602,-0.24427004081172124,0.08785216588000001,1.682761796463308,0.5282367080931928,-1.186269961990566, ,0.028800285753708885,0.016027181482599354,0.012367089689440995,-0.0013220265378404226,0.007551539824696411,-0.008783444326647726, ,0.22939586639404297
0.008983301127060118,0.01990324599032771,-0.07745687791175376, ,0.009282743742886743,0.01982399649147355,-0.07784082917165312, ,0.0004933203150287168, ,0.003983917152884929,0.0013230183765079344,-0.010264084515961294,0.004252715959380617,-0.007626186983926278,-0.002954221925741696, ,0.011089337421885262, ,0.008731792887184349, ,4.7986232885032735e-05, ,0.17397000345765554,-0.24393796329812958,0.08808679437000001,1.682761796463308,0.5285099810927236,-1.1864927977979587, ,0.02987938965946813,0.016249476294258696,0.010762710486486488,-0.0012985210199853699,0.022810538784031754,-0.020250408776151425, ,0.2512819766998291
0.009066184427549872,0.019931605676877698,-0.07766139949997626, ,0.00937013748914123,0.01985695189130815,-0.07808206992831555, ,0.0005243322044560945, ,0.004355640385030997,0.0016147443098950302,-0.010526887276410333,-0.0014478344880707048,-0.02014427185803191,-0.0020129406040922705, ,0.01150627472643953, ,0.020196231928865202, ,4.8763174973190715e-05, ,0.17460326755334193,-0.24363677671603484,0.08830197851,1.682761796463308,0.52891989059202,-1.186827051509048, ,0.03284767793647309,0.013479679198646417,0.011092487130919221,-0.0012757766439779551,0.013143836079676334,-0.011930303903992806, ,0.27187490463256836
0.00915153513616472,0.019966397535265586,-0.07789216767274415, ,0.009457323065801777,0.019889647909285543,-0.07832221278762853, ,0.0005332312479925729, ,0.004141350017195654,0.0018929099513831371,-0.01182402052235339,0.004890493683659995,-0.006889212948540331,-0.0023255553337260706, ,0.012670491283372002, ,0.008448547354809363, ,4.950038335783022e-05, ,0.17520564071753145,-0.24333559013394007,0.08854438474000001,1.682761796463308,0.5293298000913162,-1.187161305220137, ,0.027919076657390636,0.013918589257622587,0.012424969984399377,-0.0012539419985905958,0.021577996905541384,-0.018557877002614263, ,0.29450392723083496
0.009238190335710866,0.02000912342989388,-0.0781407016211644, ,0.009544300645836366,0.019922085386268,-0.07856126066241782, ,0.0005273983790109191, ,0.004233699196926512,0.002016694865533723,-0.011816006324537283,-0.006490295117173932,-0.021692745330411812,-0.0014533384888526465, ,0.012712563570430291, ,0.02264285539295981, ,5.00981565606802e-05, ,0.17574623201872716,-0.24308073994909066,0.08879975387000001,1.682761796463308,0.5294664365910817,-1.1872727231238336, ,0.027292764325128206,0.012220936602830614,0.012512813448546743,-0.001233301897913009,0.006029523711726287,-0.005718782705441095, ,0.31520605087280273
0.009354167934940249,0.02005434607127524,-0.07844456123551191, ,0.009631070403073082,0.01995426516223327,-0.07879921646112781, ,0.00046094630302171227, ,0.0035053960276852786,0.001181217922263535,-0.008516974712504052,0.015331995765411754,0.003996828962796779,-0.002402534875533246, ,0.009285576737296493, ,0.015844389893369372, ,5.016708049201986e-05, ,0.17659573263489187,-0.24267915783963098,0.08912512266000001,1.682761796463308,0.530149619089909,-1.1878298126423157, ,0.028026267441958293,0.012394832991287477,0.009040188149829742,-0.001202625539628426,0.03270619601678445,-0.027307958526732394, ,0.33734893798828125
0.009435028538930114,0.020086191308159293,-0.07865342596916362, ,0.00971763251219879,0.019986188076273476,-0.07903608308782453, ,0.00048609888146005904, ,0.00438409193848334,0.00200605159696216,-0.012320266375935527,-0.01233179266005189,-0.027366143507912437,-0.0017736978815875285, ,0.013230021493132828, ,0.03001630618261668, ,5.039027505351586e-05, ,0.17715176940183602,-0.24241658492190735,0.08934419567000002,1.682761796463308,0.5302862555896743,-1.1878595518058717, ,0.02712116077692792,0.013654236195463422,0.01287696970088925,-0.001183293948759226,0.0,-0.0014031518915662352, ,0.3569819927215576
0.009516807272632512,0.020129571830975565,-0.07891003303123195, ,0.009803987148757494,0.020017854966594643,-0.07927186344220204, ,0.0004752622279763518, ,0.004109963543926842,0.002167228203378999,-0.012845678608862867,0.011166027280621205,0.002390907376985818,-0.0026926612131529764, ,0.013660166080254152, ,0.01141911789696232, ,5.052289549555677e-05, ,0.1776769152372833,-0.2421462892713095,0.08961512028000002,1.682761796463308,0.531106074588267,-1.18852805922805, ,0.02513826266449557,0.013360121295012076,0.013510442340966922,-0.0011645543221707885,0.02812437288833769,-0.024195653301244374, ,0.3814568519592285
0.009600283593932604,0.020162479491677453,-0.07913495273078157, ,0.009890134489149108,0.020049266670516628,-0.07950656041958526, ,0.00048468851720566127, ,0.0038802273657713208,0.001303134703504707,-0.01001775894339829,-0.002783271460721893,-0.013933902010251438,-0.0024588700217466905, ,0.010821729007584479, ,0.014209156356527697, ,5.069620449986689e-05, ,0.1782097838056048,-0.24185282542208897,0.08984974877000002,1.682761796463308,0.531106074588267,-1.18852805922805, ,0.026997707413505198,0.01507736599276625,0.010486380197498356,-0.0011461461302377397,0.013475501031057248,-0.0121335653907302, ,0.4015309810638428
0.00965885343421811,0.020180538441250444,-0.07928014625813279, ,0.009976074710627796,0.02008042402447229,-0.07974017691093495, ,0.000567697486493821, ,0.003576488392200796,0.0009243781543911354,-0.008361598170026482,-0.0011860035607022734,-0.012991790367659885,-0.002588292416892835, ,0.009141229028355695, ,0.013045810842154741, ,5.130846629104831e-05, ,0.17864997957943557,-0.24162114343586225,0.09000271099000001,1.682761796463308,0.5315159840875633,-1.1886989554588583, ,0.02691348314193726,0.01460627082629995,0.00876654458998349,-0.0011324167336504835,0.014327281602038286,-0.013282510759787378, ,0.4228379726409912
0.009747244460328151,0.020203531666733495,-0.07949571551083756, ,0.01006180799130063,0.020111327864007513,-0.07997271580285219, ,0.0005787754615021654, ,0.004308176176505491,0.0017100533636424749,-0.01289098233791734,0.002549297821923188,-0.0033219248800761153,-0.0036361572970251086, ,0.013698981353035386, ,0.004187331884394714, ,5.219429645512083e-05, ,0.17929868914087044,-0.241235006792151,0.09022826545000001,1.682761796463308,0.5319258935868597,-1.1890332091699474, ,0.02658922430890187,0.01867314867344958,0.01345338810810811,-0.0011113959127132167,0.0237889111204445,-0.020871485448691975, ,0.441896915435791
0.00983690230564421,0.02024983501411164,-0.07977448894472475, ,0.010147334510126003,0.02014197902378016,-0.08020417997758211, ,0.0005409579021955777, ,0.004955939865874771,0.002592228628175171,-0.0153579520966436,-0.0016532743687772524,-0.01340619249787917,-0.002735982029800534, ,0.016344653003893882, ,0.013507718497889041, ,5.281754660943704e-05, ,0.17983155770919193,-0.24094154294293046,0.09052122699000001,1.682761796463308,0.5324724395859214,-1.1894788807847332, ,0.027993198099843887,0.015432906417054932,0.01608970860606061,-0.0010950424680894165,0.014996661929156786,-0.013597097259970145, ,0.46195197105407715
0.009935109117106464,0.020299373154020202,-0.08008555010845626, ,0.010232654446912239,0.02017237833756019,-0.08043457231301854, ,0.0004758964235781242, ,0.004502672646179977,0.0018808104568520789,-0.012827246322234575,0.006711767966788354,-0.0024052564800235974,-0.003040181792016767, ,0.013724057604970257, ,0.00712970831835195, ,5.307655656430417e-05, ,0.18037987174326187,-0.24059401996359037,0.09084659578000001,1.682761796463308,0.5328823490852177,-1.1898948132359628, ,0.029056013949317443,0.016367185505082923,0.01347615187817259,-0.0010786505593696819,0.027233236596680203,-0.02264349631343265, ,0.48000001907348633
0.010037245572094546,0.020332648134067974,-0.08034429301381871, ,0.01031776798231596,0.020202526638229187,-0.08066389568270764, ,0.00044471371946082746, ,0.004456933220226188,0.0009823795871268751,-0.009759880138803828,-0.01185304739462035,-0.026726677413888195,-0.003595198764671586, ,0.010774255598721277, ,0.02923713271797107, ,5.317048771825928e-05, ,0.1810749177019421,-0.24020788331987916,0.09111752039000001,1.682761796463308,0.5331556220847486,-1.1901176490433558, ,0.03311128456331849,0.01787809750536375,0.010210776615384616,0.0,0.0064535504481732855,-0.005667473867663767, ,0.5010700225830078
0.010079653950787389,0.020343813584523744,-0.08044256298306, ,0.010402675297840685,0.020232424757779803,-0.08089215295585218, ,0.0005646958517740243, ,0.004271007639369155,0.0012825825325818135,-0.009893574646803004,-0.004938813287905335,-0.019997915228356006,-0.00318908734486486, ,0.01085215847194911, ,0.020598747422659137, ,5.379810911478158e-05, ,0.1813992724826595,-0.24005342866239465,0.09122122359000001,1.6825521065198237,0.5334288950842795,-1.1903404848507488, ,0.03091105588223804,0.0147013077549916,0.010410987921568629,0.0,0.01103707870411592,-0.009392671572203472, ,0.5184040069580078
0.010152558479786482,0.020365161629912174,-0.08063602521684934, ,0.010487376575835164,0.02026207352731566,-0.0811193469973156, ,0.0005969340481256583, ,0.00419163024434434,0.0014130401526618495,-0.011615117881156056,0.004507285955673282,-0.0012904797241438267,-0.004362831633029048, ,0.012428894157224445, ,0.0046883635949280375, ,5.452223596350943e-05, ,0.18189352738660988,-0.23973679661455147,0.09142344483,1.6823424165763388,0.5338388045835759,-1.190674738561838, ,0.027450662874883073,0.018085942740322238,0.012159398106870231,0.0,0.026467960127224906,-0.021955712482107884, ,0.5397849082946777
0.010257204637024085,0.020405993704103596,-0.08092466539425351, ,0.010571871999492008,0.02029147377705058,-0.08134548066762586, ,0.0005377879293905613, ,0.004777775020282806,0.0014352875316455509,-0.011852543240572012,-0.011963778803899344,-0.02500202449381952,-0.003720418639571524, ,0.012859625411051631, ,0.02771701640045985, ,5.4949168911755167e-05, ,0.18254223694804472,-0.23935838270371446,0.0917254804,1.6823424165763388,0.5341120775831066,-1.190897574369231, ,0.03194107760298579,0.01841228978627683,0.012386323110419907,0.0,0.007013786179050624,-0.006068894162441775, ,0.5577740669250488
0.010336656542025304,0.020432859675149153,-0.08113075991692256, ,0.010656161752846019,0.02032062633630912,-0.08157055682297948, ,0.0005550686630192761, ,0.004429922934151201,0.0014326727284273673,-0.0111095255145877,0.01993912029915463,0.010031254919819836,-0.0047020843334115315, ,0.012045676631413173, ,0.022320269360840885, ,5.5418580748036605e-05, ,0.18310599644786313,-0.2390571961216197,0.09194325712000001,1.6823424165763388,0.5347952600819339,-1.191454663887713, ,0.032689266813114286,0.016486612501471647,0.011781665325443788,0.0,0.04322759196362277,-0.03558284953385495, ,0.57676100730896
0.010440380235894024,0.020463277358575133,-0.08137015945995757, ,0.010740246020772653,0.020349532033525186,-0.08179457831524528, ,0.0005319669657369015, ,0.004718487911102667,0.0013980962789252294,-0.011413141324301998,-0.01705629000060485,-0.031164841234308963,-0.003171360101438666, ,0.01242894188017856, ,0.03552694982813243, ,5.5767471770684675e-05, ,0.18383193333804024,-0.23870195040940537,0.09219473738,1.6823424165763388,0.5349318965816994,-1.1916477605315499, ,0.03116484123430896,0.017348618200817328,0.011922763113772456,0.0,0.0,0.0, ,0.594959020614624
0.01047651373018415,0.02047701725592793,-0.08146637187490206, ,0.010824124988986562,0.020378191696242637,-0.08201754799196821, ,0.0006590866335448057, ,0.004824657887452146,0.0020038266295818955,-0.013184454463684879,-0.008011620123126202,-0.020748595053767537,-0.0031289141325992077, ,0.014181765912514417, ,0.022241624385604373, ,5.6797028595014227e-05, ,0.18406361532426696,-0.23857838668341777,0.09229584800000001,1.6823424165763388,0.5350685330814648,-1.1917591784352464, ,0.029226036821210586,0.015385366659933654,0.013827093333333334,0.0,0.008580194482893743,-0.006996573274584276, ,0.6132609844207764
0.010607180731806809,0.020533060894148587,-0.08183802081892179, ,0.010907798844039859,0.020406606151114306,-0.08223946869637375, ,0.0005172257241757324, ,0.004396980089012404,0.0016230373735115961,-0.012233431177824253,-0.004688655745528929,-0.009940202730958539,-0.0028905149525072105, ,0.013100554286042612, ,0.01099048902635402, ,5.724347084878525e-05, ,0.18487450227606053,-0.238138190909587,0.09268732758,1.6823424165763388,0.5358883520800574,-1.1922643283771437, ,0.026776789378801007,0.016909647462307692,0.012804510868167206,0.0,0.017105843117919742,-0.011545591025190443, ,0.6290030479431152
0.010656556822935828,0.020550781781243112,-0.08196913670339763, ,0.010991267773320641,0.02043477622390232,-0.08246034326737035, ,0.0006056175345309465, ,0.005228117286951078,0.001972705691485976,-0.013361522263200417,-0.02212575267408905,-0.03263863431544358,-0.0005949356475877985, ,0.014482922885292812, ,0.03943131947449401, ,5.798860989820143e-05, ,0.18518341159102952,-0.23796056805347982,0.09282473432,1.6823424165763388,0.5360249885798228,-1.192212388800559, ,0.03245449437704199,0.016111535069349876,0.014009508812664908,0.0,0.0,0.006724513510108156, ,0.6442239284515381
0.010700705881986242,0.02057114979174069,-0.08210189539255495, ,0.01107453196505142,0.02046270273947753,-0.08268017453955478, ,0.0006970749424411066, ,0.004289465209089373,0.0021380885495761483,-0.014148701807011442,0.09111805097928818,0.07931082893378548,-0.013549867290857252, ,0.014938430213698681, ,0.12080027414467429, ,5.902107327817908e-05, ,0.18547687544025004,-0.23780611339599533,0.09296602993000001,1.6823424165763388,0.5367081710786501,-1.19260612083876, ,0.029711002366459228,0.01710779548557252,0.015084101818181822,0.0,0.10987053507612612,-0.10795103497897043, ,0.6607210636138916
0.010798699629040355,0.020616612873687892,-0.08239570700631793, ,0.011157591608287432,0.020490386521819004,-0.08289896534321421, ,0.0006308767695276345, ,0.005515514758797758,0.0026107106721457284,-0.01644372400852369,0.003284107637324251,-0.0032299221451761143,-0.0031185005301440486, ,0.017539463291009503, ,0.004606143481321298, ,5.977446170925306e-05, ,0.18608697133731378,-0.23747403588240368,0.09327713953000001,1.6823424165763388,0.5378012630767736,-1.1933341065880503, ,0.031329462383120094,0.01748607730946578,0.017295126514657984,0.0,0.02852413010900673,-0.019872660415729534, ,0.6772010326385498
0.01091313172435356,0.02066180549422554,-0.08271248588650523, ,0.0112404468929152,0.020517828394014268,-0.08311671850433164, ,0.0005396930926652396, ,0.004921832946446611,0.0015651961994337237,-0.012778537358520048,-0.04209880234594756,-0.023313711038501887,0.007606695756583357, ,0.013782789838002378, ,0.048123153893147565, ,6.0184163941349244e-05, ,0.1867588490973713,-0.23708017650581822,0.09360898977000001,1.6823424165763388,0.5380745360763045,-1.1931485486947404, ,0.030318511680022617,0.018832494851849728,0.01335189565800503,0.0,0.007984490927663533,0.025792823767373768, ,0.692497968673706
0.011008291413718925,0.020693616293201194,-0.08296287587013566, ,0.011323098009650718,0.020545029178258963,-0.08333343684458762, ,0.0005084257658260463, ,0.005024014443022114,0.0015528129261574825,-0.01220228241819143,0.010677069314535848,-0.0038375949300641058,-0.005250172987258643, ,0.01328712328988635, ,0.011345777781665293, ,6.0471743539489836e-05, ,0.18742300412455462,-0.23671720806072968,0.09387472922000001,1.6823424165763388,0.539167628074428,-1.1938765344440307, ,0.0347607844536523,0.017550756715086144,0.012908275137763372,0.0,0.031220621265897096,-0.027658426911659997, ,0.7099919319152832
0.011059078460426404,0.020708582492982523,-0.0830815207060691, ,0.011405545150037976,0.020571989695856264,-0.08354912318136572, ,0.0005977866125472386, ,0.004861610170377872,0.0012918177956909758,-0.011678744349746993,0.0018700327139026403,-0.015407544214008306,-0.006489094071022788, ,0.012716018097373594, ,0.015520606424917645, ,6.103459646778277e-05, ,0.18775508163814628,-0.23654730793749673,0.09399917306000001,1.6823424165763388,0.539167628074428,-1.19379485570389, ,0.032621843093320994,0.0188512001506696,0.012262364526558892,0.0,0.01723299861399138,-0.020589511298098863, ,0.7252938747406006
0.011155203185515532,0.020734921945624145,-0.08332664630920274, ,0.011487788506447365,0.020598710767216973,-0.08376378032775467, ,0.0005659086772596436, ,0.00526734372860638,0.001627111211979242,-0.013674031871644026,-0.004265560873527424,-0.017593949785911358,-0.0056959649525096055, ,0.01474352564613275, ,0.018103635009973904, ,6.147203022798834e-05, ,0.18837290026808423,-0.23614572582803706,0.09425583848,1.6823424165763388,0.5395775375737243,-1.194129109414979, ,0.032521227401806296,0.020460746347233886,0.01431160064690027,0.0,0.015000024948290436,-0.015874188634727848, ,0.7409429550170898
0.011184978030868722,0.020745785787407482,-0.0834075232980288, ,0.011569828272073935,0.02062519321185952,-0.08397741109255329, ,0.0006981578444599704, ,0.0054244291679492376,0.0020142422275992245,-0.01453889968335662,0.028262436889200257,0.016418944664699342,-0.006694473746801853, ,0.015648041652304278, ,0.032685569188879215, ,6.229873897139591e-05, ,0.18856596858993985,-0.2360376075677979,0.09434139362,1.6823424165763388,0.5398508105732552,-1.194351945222372, ,0.03585075238325303,0.018787753228760792,0.01541995306873185,0.0,0.05278694357558398,-0.04624086063752475, ,0.7587919235229492
0.011296653451250119,0.02078846317142278,-0.0837125958636656, ,0.011651664640935807,0.020651437848408977,-0.08419001828027196, ,0.0006105252229247751, ,0.005678091754454204,0.0019689681740827376,-0.014697820345460362,0.0018902959519338748,-0.014118332105628746,-0.005729599334166611, ,0.015879026561788353, ,0.01424429128895547, ,6.301611105956682e-05, ,0.1892764600143685,-0.2356514709240867,0.09466416983,1.6823424165763388,0.5408072660716132,-1.1950501918081065, ,0.035290792695600884,0.019402359754338742,0.01546486555339806,0.0,0.021317558072295992,-0.020902090055120875, ,0.771946907043457
0.011408450033936177,0.020822722744237295,-0.0839835427750552, ,0.011733297807872571,0.02067744549459761,-0.08440160469113843, ,0.0005490057569584199, ,0.00565334358390242,0.0017058351529055462,-0.013848002127795045,-0.013134831104556436,-0.026124676189084525,-0.0035176606819016794, ,0.015054478741489359, ,0.029240758965430155, ,6.352476906730795e-05, ,0.1899715059730487,-0.2352730570132497,0.09494805734,1.6823424165763388,0.5408072660716132,-1.1950501918081065, ,0.03558190534625826,0.019848764182905414,0.014533587153284672,0.0,0.009613594601333377,-0.006122125251197964, ,0.7862739562988281
0.011435969246750449,0.0208326278234242,-0.08405415557522977, ,0.011814727968543591,0.020703216967264376,-0.08461217312110034, ,0.0006867233216702355, ,0.005703901089358182,0.0017199281548873737,-0.013683886358957119,-0.009431056886862181,-0.023688044864962544,-0.0035852560531123637, ,0.014924522986682303, ,0.025496427666283274, ,6.441826236340851e-05, ,0.1901568515620301,-0.23517266148588478,0.09502324216000001,1.6825521065198237,0.5410805390711442,-1.1952730276154995, ,0.0368102954066993,0.019276242445352584,0.014402180397830021,0.0,0.013320329682225567,-0.00921803510137304, ,0.8013968467712402
0.011564860087545297,0.02087718677020599,-0.08439537493834437, ,0.011895955319426412,0.020728753082354813,-0.08482172636182825, ,0.0005598501125928617, ,0.005696762782966162,0.0019979897175957263,-0.015016303915692055,-0.006485745821451273,-0.013948231419979473,-0.002946969507749419, ,0.016184389157624553, ,0.015382369618978263, ,6.491636735884647e-05, ,0.19099862944532056,-0.2347092975134313,0.09538490707000001,1.6825521065198237,0.5423102675690331,-1.1960307525283453, ,0.034111050164798984,0.01961491144242885,0.015786730941526265,0.0,0.02051848141086699,-0.0122176204654671, ,0.8154709339141846
0.01162314271774363,0.020897815632702425,-0.0845477345451956, ,0.011976980057815046,0.020754054654920945,-0.08503026720071942, ,0.0006153908072179625, ,0.00586664685796555,0.0022628994447374696,-0.015671242859404064,-0.015550473971871672,-0.021328421900271108,-0.0009059598605868757, ,0.016885677718453975, ,0.026395413925907406, ,6.555448205676987e-05, ,0.19133070695891222,-0.2345162291915757,0.09554435074,1.6825521065198237,0.5423102675690331,-1.1958673950480643, ,0.03378317606211135,0.018326948929793505,0.01647240074457084,0.0,0.012837832999024386,-0.0017108620349195105, ,0.8294799327850342
0.011681829619182673,0.020920397858385585,-0.08470847741747396, ,0.012057802381818306,0.020779122499120617,-0.08523779842090191, ,0.0006644508785826751, ,0.006087375092065076,0.002351771904418077,-0.01619399850263361,0.014039763611349149,-0.0163978935455739,-0.0106803151840977, ,0.017459454576395108, ,0.021587143425862463, ,6.630760424077558e-05, ,0.19168595267112656,-0.2343308836025943,0.09571416473000001,1.6823424165763388,0.5427201770683294,-1.196119970019013, ,0.035568568800026526,0.018780316952002926,0.01705440205567452,0.0,0.018892479034327374,-0.03340252798404165, ,0.8435308933258057
0.011797979299804057,0.020967297180847406,-0.08503723562368556, ,0.01213842249035821,0.02080395742821784,-0.08544432280123693, ,0.0005552489629981436, ,0.006029497772342511,0.002257035855927006,-0.015681011153443454,-0.008255964978979097,-0.019294034233929547,-0.0026635255539712785, ,0.016951199516141664, ,0.0209861803723038, ,6.673766800458293e-05, ,0.1923964440955552,-0.23393702422600884,0.09606286674000002,1.6823424165763388,0.5439499055662184,-1.1969593736719997, ,0.03555524224746001,0.018305737183346986,0.01652366340248963,0.0,0.016560306953582855,-0.009230723597129016, ,0.8570098876953125
0.011856814883542992,0.020988403259612497,-0.08518663533015172, ,0.012218840583168208,0.020828560254582816,-0.08564984311632315, ,0.0006092403849186952, ,0.00594390635788816,0.0020097841294288987,-0.014926771806659135,-0.012668401633601648,-0.023991310510738554,-0.00260372771541771, ,0.016191904508312836, ,0.02713062179445401, ,6.729899697472056e-05, ,0.19273624434202108,-0.23375940136990167,0.09621971783000001,1.6823424165763388,0.5439499055662184,-1.1969593736719997, ,0.03571582294259344,0.018933946839279885,0.01570888710059172,0.0,0.01197311191760246,-0.005490173629639013, ,0.8705658912658691
0.011932606272089388,0.021012007279620604,-0.08537290905908873, ,0.01229905686079162,0.020852931789690936,-0.08585436213649932, ,0.0006333774173753368, ,0.00538913954590626,0.0015449724414331504,-0.012648625825617408,-0.007774595189191274,-0.016007422181728605,-0.0018855412846958109, ,0.01383537134183663, ,0.017795549204919534, ,6.790636056077087e-05, ,0.19322277651309724,-0.23350455118505228,0.09641675391000001,1.6823424165763388,0.5443598150655148,-1.1972119486429484, ,0.03496571170172099,0.01791860678974146,0.013363096912751681,0.0,0.01935191572433973,-0.009142527390145191, ,0.8865230083465576
0.012011479150242749,0.02103137529711461,-0.0855609858911438, ,0.012379071524579816,0.0208770728441233,-0.08605788262784808, ,0.0006370555451585501, ,0.004846023210534522,0.0008011821427656939,-0.010596714840314958,0.017654147484061116,0.015391453163955921,-0.004218417997710179, ,0.011679734551344788, ,0.02342147775593837, ,6.850432249252588e-05, ,0.19384831787590942,-0.23318791913720907,0.09662027144000002,1.6823424165763388,0.5459994530627,-1.198467284747165, ,0.03613744918449001,0.02077883546277004,0.011281027988668556,0.0,0.052241920519708995,-0.03705921636643446, ,0.8997058868408203
0.012068308967810939,0.02104414388660581,-0.08569111738744181, ,0.012458884776690651,0.020900984227566623,-0.08626040735219938, ,0.0007050781619309514, ,0.005668230329008219,0.0018176340276081309,-0.014468172495785966,-0.012335691633462776,-0.010957102780885243,6.792179689329493e-05, ,0.015644828023625733, ,0.016499295604880528, ,6.943634447059355e-05, ,0.19420356358812374,-0.2329716826167308,0.09675638189,1.6823424165763388,0.5459994530627,-1.198222248526743, ,0.034184777218469305,0.019623023481900495,0.015242881837320576,0.0,0.023859660164651377,-0.005741677247146757, ,0.9108519554138184
0.012130410868675603,0.021067443860965762,-0.08584749675637418, ,0.01253849682008673,0.020924666748812482,-0.08646193906713351, ,0.0007513047322792648, ,0.006344117303704545,0.0025830749789327503,-0.016470767580828934,-0.029594805119920093,-0.0224782760105874,0.005894341305181119, ,0.017838337518155587, ,0.03716347898553621, ,7.046203738918821e-05, ,0.19455880930033806,-0.23280178249349784,0.09692101072,1.6823424165763388,0.5459994530627,-1.197895533566181, ,0.03644275789495806,0.016512431104658217,0.017408537180327872,0.0,0.01487384443475095,0.015353919446281214, ,0.9229600429534912
0.01219712707379133,0.021097316117392,-0.08603607997317782, ,0.012617907858533655,0.020948121215757648,-0.08666248052598455, ,0.0007692159904985261, ,0.006940265125327903,0.0033131427660838177,-0.020018650194910427,-0.0013897064641953806,-0.0229261035020326,-0.00628340497764728, ,0.021445058886011097, ,0.022968114656944084, ,7.150691408982125e-05, ,0.19492950047830085,-0.23261643690451644,0.09712063938000001,1.6823424165763388,0.5464093625619963,-1.198066429796989, ,0.034837350058175766,0.01776098475734059,0.02106985650793651,0.0,0.011857644187041104,-0.016324064945002784, ,0.9342069625854492
0.01226540199728724,0.021130119376091463,-0.08624669278041612, ,0.012697118096598466,0.0209713484354041,-0.08686203447784409, ,0.0007682658437056693, ,0.006961364055451921,0.003339715209074734,-0.02155034594642446,0.0603641161486941,0.055207741270832326,-0.006964725540481719, ,0.022891738632109977, ,0.08180291294682289, ,7.2523575657288e-05, ,0.1952924689233894,-0.2324156458497866,0.09734360126000001,1.6821327266328545,0.5470925450608235,-1.198623519315471, ,0.03894006629399704,0.021880779699901032,0.022919153266187053,-0.0026288585118542807,0.09566400970980146,-0.08143334896556183, ,0.9455859661102295
0.012408058587001074,0.021193529325365043,-0.08665455154869431, ,0.012776127739647751,0.02099434921385801,-0.08706060366756355, ,0.0007638228209639077, ,0.007089197811796188,0.002653561472488908,-0.018522847131464033,-0.009153749703764693,-0.01917481215642847,-0.00010786255117188398, ,0.020009847074843892, ,0.02124764397435021, ,7.35045168374285e-05, ,0.19607246494368608,-0.2320063410074527,0.09777526583000001,1.6821327266328545,0.5480490005591817,-1.1994034446413462, ,0.04022761405615548,0.020856470672191377,0.01954455401226994,-0.0025691043550106415,0.02206260265543715,-0.01108835528431828, ,0.9576559066772461
0.012440739268898313,0.021205092898790842,-0.08673584241004097, ,0.012854936993846117,0.021017124356331147,-0.08725819083575868, ,0.0006926325188410784, ,0.007129077258546254,0.0023995862351615495,-0.017972134662732703,-0.017799680190027933,-0.02513275028642076,0.0011263306903674503, ,0.019482797052623027, ,0.030797432958602246, ,7.428980653466025e-05, ,0.19625781053266747,-0.23191366821296203,0.09786082097000001,1.6821327266328545,0.5480490005591817,-1.1993217659012054, ,0.041403552163381666,0.022146310748767977,0.018940322853745546,-0.0025455469638479486,0.017327645815758456,-0.0035163341872339873, ,0.9726870059967041
0.012552833522394254,0.021241009295942366,-0.08700645847893886, ,0.012933546066154326,0.021039674667138852,-0.0874547987188115, ,0.0006216805002738709, ,0.0064229799722470195,0.001814743677102181,-0.014044814316297807,-0.014314862039177614,-0.02788314907911671,0.0013081492788748162, ,0.0155500731675691, ,0.03134301726512169, ,7.48870176745184e-05, ,0.19694513375847345,-0.23157386796649615,0.09814730106000001,1.6821327266328545,0.5484589100584779,-1.1996560196122947, ,0.041768020052143834,0.018151672065507034,0.01491461752808989,-0.0024603205951858114,0.014847551039012837,-0.0032072004660178835, ,0.98378586769104
0.01261240749246353,0.021255743024304358,-0.0871445707223699, ,0.013011955164327677,0.021062000949701502,-0.08765043004887522, ,0.0006731032549140538, ,0.0056115063461175865,0.0010835257932377473,-0.013044706421812133,0.02579028369751924,0.027115420301754716,-0.002649841195072131, ,0.01424174839155629, ,0.03742170992375918, ,7.559142372768223e-05, ,0.1973389931350589,-0.2313730769117663,0.09828470780000001,1.6821327266328545,0.5491420925573052,-1.2001314303906363, ,0.039573370124466545,0.02332766508320324,0.01387527135888502,-0.002414338623683675,0.06804477906029646,-0.048099724239511164, ,0.9951069355010986
0.012668464745277374,0.021266746273019686,-0.08727454505673947, ,0.013090164496914228,0.02108410400654354,-0.08784508755387557, ,0.0007326033163127432, ,0.005792879676482072,0.0011889814585070047,-0.013602477302774368,-0.002728558465112563,-0.005029552497682842,-0.001330029777717642, ,0.014832347104466114, ,0.005721972032598887, ,7.641810484114222e-05, ,0.19773285251164435,-0.23112594945979112,0.09843248486000002,1.6821327266328545,0.5495520020566015,-1.200384005361585, ,0.03706911779627765,0.023576879890303302,0.014337364104410442,-0.0023659550510091235,0.03311287917842404,-0.020013611889884816, ,1.0076169967651367
0.012793760252157912,0.021297351299763324,-0.08756859445148653, ,0.013168174273253215,0.021105984639293824,-0.08803877395751566, ,0.0006307739894937056, ,0.006533747740776371,0.0016952865892624239,-0.015385225311114357,-0.012505763232150656,-0.02502254140001855,-0.0019851187574541906, ,0.016800863490713424, ,0.02797357378152388, ,7.716891678139427e-05, ,0.1985051257990668,-0.23067030822021187,0.09874229817,1.6821327266328545,0.5499619115558978,-1.2006365803325338, ,0.03949102853036654,0.022578382478817695,0.016204284354018314,-0.002278721545697343,0.01521914463415846,-0.009720402059460405, ,1.018617868423462
0.012793760252157912,0.021297351299763324,-0.08756859445148653, ,0.01324598470347307,0.021127643648685152,-0.08823149197927864, ,0.0008202077624325798, ,0.006533747740776371,0.0016952865892624239,-0.015385225311114357,-0.012505763232150656,-0.02502254140001855,-0.0019851187574541906, ,0.016800863490713424, ,0.02797357378152388, ,7.83394707752318e-05, ,0.1985051257990668,-0.23067030822021187,0.09874229817,1.6821327266328545,0.5499619115558978,-1.2006365803325338, ,0.03949102853036654,0.022578382478817695,0.016204284354018314,-0.002278721545697343,0.01521914463415846,-0.009720402059460405, ,1.0273828506469727
0.012863947323997106,0.021314511345046694,-0.08773934020659413, ,0.013323595998489863,0.02114908183455396,-0.08842324433443018, ,0.0008404574248443503, ,0.007228591946379991,0.0018639038675067631,-0.018010000483262737,-0.000523179088856387,-0.003513557177970005,-0.0025214456546858843, ,0.019495814847338398, ,0.003552028375307788, ,7.953470783133933e-05, ,0.19893759884002338,-0.230400012569614,0.09892248248,1.6821327266328545,0.5503718210551941,-1.2008891553034826, ,0.04341122669646422,0.027682888435959965,0.018985472610250298,-0.0022362407491813385,0.04102874256211865,-0.026105925258602267, ,1.0363030433654785
0.01293392608923604,0.0213361796987522,-0.08792452119609405, ,0.013401008370005539,0.021170299995840587,-0.08861403373402292, ,0.0008491816488879128, ,0.007437646919752914,0.0029052921024256195,-0.020408818255267514,0.020579197843175585,0.014839260186042102,-0.005339473254610191, ,0.021915272676374966, ,0.025371312264766906, ,8.072806247754732e-05, ,0.19934690368235727,-0.23015288511763884,0.09911822227000001,1.6819230366893698,0.5509183670542559,-1.2012531481781277, ,0.04156677247414401,0.022735251930635067,0.021642406956521743,-2.371749216734391e-05,0.05711034363450743,-0.04194197656349955, ,1.045747995376587
0.013017690741903044,0.02136837097069313,-0.08815218538154013, ,0.013478222030506257,0.021191298930589846,-0.08880386288489933, ,0.0008173904474321691, ,0.008216676509990315,0.002967005182898208,-0.022187019560722804,0.012680473622741927,0.005396401087348897,-0.006079403302471444, ,0.02384493089973355, ,0.0137807902368569, ,8.182935022258514e-05, ,0.19981026765481075,-0.22989803493278943,0.09935933221000001,1.6819230366893698,0.5514649130533176,-1.2016988197929133, ,0.045470503861270134,0.02658922430890187,0.023459221678939622,-2.371749216734391e-05,0.051496704863149105,-0.0379203816465869, ,1.0551979541778564
0.013099743620728466,0.02139888332655911,-0.08837778222147423, ,0.013555237193260485,0.02121207943594929,-0.08899273448969416, ,0.000787741315632099, ,0.008485575523115959,0.0033568012830547493,-0.023615867894957447,0.011573433117528698,0.004476120317067672,-0.00127933623486382, ,0.025317628705005226, ,0.01240857210759476, ,8.28457385553484e-05, ,0.20025818616151575,-0.22964318474794002,0.09959784957000001,1.6817133467458854,0.5520114590523794,-1.2020628126675583, ,0.04499617902250867,0.025696436923496015,0.024966789216300942,-0.004561977582524272,0.05114459255065654,-0.036777812184984965, ,1.0639638900756836
0.013184568859261253,0.021432551563560345,-0.08861759162103174, ,0.013632054072317384,0.02123264230817051,-0.08918065124683842, ,0.0007464870183117575, ,0.008717636842191252,0.0035606543304977038,-0.024553943917991348,0.01339615265581527,0.004181639485915986,-0.011592671379385468, ,0.026297749205996444, ,0.01403332069781341, ,8.37540625467934e-05, ,0.20069065920247234,-0.2293883345630906,0.09985062612000001,1.6815036568024009,0.5524213685516758,-1.202315387638507, ,0.04491099931778078,0.026265414214910264,0.025942689771986976,0.005145936250101191,0.048440016421470784,-0.03750378774686239, ,1.0732650756835938
0.013270551010450842,0.021467668211095456,-0.08886502228412796, ,0.013708672882504972,0.02125298834260811,-0.08936761585056231, ,0.0007004559327517776, ,0.00832653495713824,0.003175425199881998,-0.02276589102806942,0.018295933613081072,0.016242189488009692,-0.009753270079333303, ,0.02444791001076416, ,0.02446515462369465, ,8.454677335495957e-05, ,0.20113857770917737,-0.22911803891249274,0.10011247670000001,1.6815036568024009,0.5531045510505029,-1.2027091196767081, ,0.045470503861270134,0.025794221679388635,0.024134562909090912,0.005145936250101191,0.06136473333113478,-0.04137806536976647, ,1.0829529762268066
0.013347098236190453,0.021493883571238163,-0.0890668062196693, ,0.013785093839428423,0.021273118333720198,-0.08955363099089793, ,0.0006910685902527823, ,0.007821009639269155,0.002281679326250713,-0.019683298313821745,0.011867530215593383,0.012700894185282195,-0.008952471174953812, ,0.02130273421033739, ,0.01738240581700839, ,8.530565829438524e-05, ,0.20157105075013393,-0.22887091146051758,0.10032636455,1.6815036568024009,0.5536510970495647,-1.2029914338112127, ,0.046381691866310255,0.027395190981082788,0.020876555072083886,0.005145936250101191,0.05878919579865393,-0.036355267633085754, ,1.0923490524291992
0.013429404704713915,0.02151383097654036,-0.08926102738882585, ,0.013861317159468369,0.02129303307506831,-0.08973869935368373, ,0.0006807867418492089, ,0.007741348679990851,0.0016595752896885695,-0.017322453813509168,-0.01922267618746675,-0.020730386287011564,-0.006044932660096033, ,0.019045998940683036, ,0.028271162616620715, ,8.602967558366385e-05, ,0.20205758292121007,-0.22857744761129703,0.10053117837000002,1.6815036568024009,0.5539243700490956,-1.2030509121383244, ,0.047807023455149006,0.027804553635649217,0.018308978758620694,0.005145936250101191,0.02660334348354446,-0.0057031272870108896, ,1.1014690399169922
0.013429404704713915,0.02151383097654036,-0.08926102738882585, ,0.01393734305977908,0.021312733359316733,-0.08992282362056632, ,0.0008581467686504494, ,0.007741348679990851,0.0016595752896885695,-0.017322453813509168,-0.01922267618746675,-0.020730386287011564,-0.006044932660096033, ,0.019045998940683036, ,0.028271162616620715, ,8.730098435887456e-05, ,0.20205758292121007,-0.22857744761129703,0.10053117837000002,1.6815036568024009,0.5539243700490956,-1.2030509121383244, ,0.047807023455149006,0.027804553635649217,0.018308978758620694,0.005145936250101191,0.02660334348354446,-0.0057031272870108896, ,1.1080398559570312
0.013508028479336184,0.021529629460995327,-0.0894346079774957, ,0.014013171758286713,0.02133221997823302,-0.09010600646900416, ,0.0008630852626207987, ,0.008023758910370616,0.0015924505488049364,-0.01763935987609546,-0.023237640412055068,-0.02123198675707919,-0.004871767983228412, ,0.019443858224142335, ,0.03147671339042294, ,8.856663132633598e-05, ,0.20255956055803467,-0.22829170649495073,0.10071525155000001,1.6815036568024009,0.554334279548392,-1.2032218083691326, ,0.05013044984599618,0.029289179493355175,0.01865200412177986,0.005145936250101191,0.028567259494651647,-0.00282871300386214, ,1.1145968437194824
0.013508028479336184,0.021529629460995327,-0.0894346079774957, ,0.014088803473687518,0.021351493722687583,-0.09028825057227088, ,0.0010477297432738826, ,0.008023758910370616,0.0015924505488049364,-0.01763935987609546,-0.023237640412055068,-0.02123198675707919,-0.004871767983228412, ,0.019443858224142335, ,0.03147671339042294, ,9.02026770361579e-05, ,0.20255956055803467,-0.22829170649495073,0.10071525155000001,1.6815036568024009,0.554334279548392,-1.2032218083691326, ,0.05013044984599618,0.029289179493355175,0.01865200412177986,0.005145936250101191,0.028567259494651647,-0.00282871300386214, ,1.1216459274291992
0.013590318016802414,0.02154773124900537,-0.08963549948673319, ,0.01416423842544615,0.02137055538265377,-0.09046955859945806, ,0.0010278280627588586, ,0.007938188282843019,0.0019292706367079182,-0.020410360122369613,0.06152636632287266,0.05693264816415974,-0.018408563205032362, ,0.021984533625445533, ,0.08382610952347323, ,9.177693905622109e-05, ,0.20308470639348195,-0.22795962898135907,0.1009291394,1.6815036568024009,0.55529073504675,-1.203920054954867, ,0.04937405908349156,0.03290462606049611,0.021730984338335608,0.005145936250101191,0.10596831485451062,-0.092056535619413, ,1.1291420459747314
0.013590318016802414,0.02154773124900537,-0.08963549948673319, ,0.014239476833793908,0.021389405747207508,-0.09064993321547847, ,0.0012147221592666347, ,0.007938188282843019,0.0019292706367079182,-0.020410360122369613,0.06152636632287266,0.05693264816415974,-0.018408563205032362, ,0.021984533625445533, ,0.08382610952347323, ,9.371783025890285e-05, ,0.20308470639348195,-0.22795962898135907,0.1009291394,1.6815036568024009,0.55529073504675,-1.203920054954867, ,0.04937405908349156,0.03290462606049611,0.021730984338335608,0.005145936250101191,0.10596831485451062,-0.092056535619413, ,1.1362040042877197
0.01377634558959754,0.021612114007728424,-0.0901306459070238, ,0.01431451891972682,0.021408045604527436,-0.09082937708106945, ,0.0009052622272196324, ,0.010850679854355083,0.004607798680518189,-0.03044958403880494,0.022492994638244362,0.018005898733338875,-0.010592476305191112, ,0.03265189474009337, ,0.028811820851484194, ,9.499936770539755e-05, ,0.20412727533150224,-0.22736497855004378,0.10145543314000001,1.6815036568024009,0.5569303730439352,-1.205093712318943, ,0.05501271974404103,0.02944366787417647,0.03230996251521299,0.005145936250101191,0.07280769205828354,-0.04892631923224686, ,1.1428098678588867
0.013885866028282453,0.021655268304313628,-0.0904401944608429, ,0.014389364905004162,0.021426475741895133,-0.09100789285279601, ,0.0007925519665638309, ,0.01149013485427464,0.004273344089758371,-0.03150967539759848,-0.02441618798347868,-0.02098701060082157,-0.00625603459345125, ,0.033810417216309424, ,0.032195866012615315, ,9.603519191651518e-05, ,0.20466014389982373,-0.22703290103645213,0.10178209822,1.6815036568024009,0.5574769190429971,-1.205294347713307, ,0.05592041341100223,0.035147015392026214,0.033185024,0.005145936250101191,0.03466973035159583,-0.007278384413659557, ,1.1497650146484375
0.013885866028282453,0.021655268304313628,-0.0904401944608429, ,0.014464015012146265,0.021444696945694047,-0.09118548318305321, ,0.0009664635658251896, ,0.01149013485427464,0.004273344089758371,-0.03150967539759848,-0.02441618798347868,-0.02098701060082157,-0.00625603459345125, ,0.033810417216309424, ,0.032195866012615315, ,9.741117161240898e-05, ,0.20466014389982373,-0.22703290103645213,0.10178209822,1.6815036568024009,0.5574769190429971,-1.205294347713307, ,0.05592041341100223,0.035147015392026214,0.033185024,0.005145936250101191,0.03466973035159583,-0.007278384413659557, ,1.1562960147857666
0.014002762547757567,0.021696675067549635,-0.09074484015350709, ,0.014538469464433153,0.021462710001410406,-0.0913621507200702, ,0.0008501728579165931, ,0.01133325226834243,0.003686030610005316,-0.028566373392334407,-0.03881360051695141,-0.033895447482864015,0.006493091490246858, ,0.030952659294898332, ,0.05153035922934031, ,9.853604932023029e-05, ,0.20525479433113902,-0.22668537805711203,0.10210357814000001,1.6817133467458854,0.5577501920425278,-1.205272147300278, ,0.05987188741859355,0.033461544978304225,0.030168203636363643,-0.004102743641306082,0.02798758782914103,0.007485219882435647, ,1.16286301612854
0.014002762547757567,0.021696675067549635,-0.09074484015350709, ,0.014612728485902686,0.021480515693633115,-0.0915378981079132, ,0.0010235840169111866, ,0.01133325226834243,0.003686030610005316,-0.028566373392334407,-0.03881360051695141,-0.033895447482864015,0.006493091490246858, ,0.030952659294898332, ,0.05153035922934031, ,0.00010019571180671769, ,0.20525479433113902,-0.22668537805711203,0.10210357814000001,1.6817133467458854,0.5577501920425278,-1.205272147300278, ,0.05987188741859355,0.033461544978304225,0.030168203636363643,-0.004102743641306082,0.02798758782914103,0.007485219882435647, ,1.1675620079040527
0.014002762547757567,0.021696675067549635,-0.09074484015350709, ,0.01468679230134839,0.02149811480605247,-0.0917127279864878, ,0.0012017194924255179, ,0.01133325226834243,0.003686030610005316,-0.028566373392334407,-0.03881360051695141,-0.033895447482864015,0.006493091490246858, ,0.030952659294898332, ,0.05153035922934031, ,0.00010219836794434186, ,0.20525479433113902,-0.22668537805711203,0.10210357814000001,1.6817133467458854,0.5577501920425278,-1.205272147300278, ,0.05987188741859355,0.033461544978304225,0.030168203636363643,-0.004102743641306082,0.02798758782914103,0.007485219882435647, ,1.172313928604126
0.014075951183859686,0.021719568413289085,-0.09093076837043192, ,0.014760661136318244,0.021515508121461593,-0.09188664299154337, ,0.0011933836822168634, ,0.010992156357315533,0.0032457533422012323,-0.027488258014385307,-0.012364416125325049,-0.0039135786106881424,0.003608712863863032, ,0.029781986918395835, ,0.012968391942484126, ,0.0001041684614629239, ,0.2056563764405987,-0.2264536960708853,0.10230061422000002,1.6817133467458854,0.5581601015418242,-1.2056064010113672, ,0.06098775164426143,0.03546223526101299,0.029120313564899455,-0.004102743641306082,0.059294036029234796,-0.02079675019222276, ,1.17718505859375
0.014224221974357281,0.0217616795091884,-0.09129046695322643, ,0.014834335217112584,0.021532696421755714,-0.09205964575467478, ,0.001008120752644797, ,0.011170480100172386,0.0030782993455871904,-0.02571461110032606,0.02134008857723217,0.010938818414654102,0.0024863471149224586, ,0.028204552408616624, ,0.023980114372901873, ,0.00010575533414093769, ,0.2064827088581407,-0.2260135002970545,0.10266487171000001,1.6815036568024009,0.5592531935399478,-1.206416065500798, ,0.06759041421543502,0.03246559752256955,0.027275362191780828,-0.00877390717977388,0.08445776135460202,-0.05518162530666778, ,1.1820669174194336
0.014224221974357281,0.0217616795091884,-0.09129046695322643, ,0.014907814770782308,0.02154968048793171,-0.09223173890332631, ,0.001182470118177544, ,0.011170480100172386,0.0030782993455871904,-0.02571461110032606,0.02134008857723217,0.010938818414654102,0.0024863471149224586, ,0.028204552408616624, ,0.023980114372901873, ,0.00010767422633440738, ,0.2064827088581407,-0.2260135002970545,0.10266487171000001,1.6815036568024009,0.5592531935399478,-1.206416065500798, ,0.06759041421543502,0.03246559752256955,0.027275362191780828,-0.00877390717977388,0.08445776135460202,-0.05518162530666778, ,1.1866040229797363
0.014339972364838912,0.021788970245983516,-0.09156094100667289, ,0.014981100025127191,0.02156646110008884,-0.09240292506079482, ,0.001081430600727161, ,0.012455381405451094,0.003352420128564752,-0.030094894070160458,0.00856054896026085,0.00606239927189473,0.0019402229961931507, ,0.032742600626215417, ,0.010488612714410192, ,0.00010937911245263248, ,0.20723181394694049,-0.22561191818759482,0.10297209244000001,1.6810842769154317,0.5602096490383058,-1.2069509546062513, ,0.071512390021455,0.04045052922355958,0.031985565301204825,-0.00824744278830453,0.08059810766583847,-0.04792896654265273, ,1.1910128593444824
0.014339972364838912,0.021788970245983516,-0.09156094100667289, ,0.015054191208694029,0.02158303903742771,-0.0925732068462321, ,0.0012558655778042139, ,0.012455381405451094,0.003352420128564752,-0.030094894070160458,0.00856054896026085,0.00606239927189473,0.0019402229961931507, ,0.032742600626215417, ,0.010488612714410192, ,0.00011141265628184611, ,0.20723181394694049,-0.22561191818759482,0.10297209244000001,1.6810842769154317,0.5602096490383058,-1.2069509546062513, ,0.071512390021455,0.04045052922355958,0.031985565301204825,-0.00824744278830453,0.08059810766583847,-0.04792896654265273, ,1.1955740451812744
0.014468141586996705,0.021831060062373567,-0.09188778953636928, ,0.015127088550774968,0.02159941507825125,-0.09274258687464901, ,0.0011038790646043287, ,0.014014879508704737,0.0052855566731858355,-0.03672493267432793,0.011219135272150767,0.009331789652018944,-0.028138636750750054, ,0.039662004953391984, ,0.01459056167419154, ,0.00011313346439130048, ,0.2079268599056207,-0.22524122700963206,0.10331949816000001,1.680874586971947,0.5610294680368985,-1.2074561045481487, ,0.07221989464114975,0.03803484631602035,0.03904120470588236,0.02535206829980164,0.07713050804261756,-0.041267671082751034, ,1.2000389099121094
0.014468141586996705,0.021831060062373567,-0.09188778953636928, ,0.015199792281405423,0.02161558999996351,-0.09291106775691735, ,0.001276259535937646, ,0.014014879508704737,0.0052855566731858355,-0.03672493267432793,0.011219135272150767,0.009331789652018944,-0.028138636750750054, ,0.039662004953391984, ,0.01459056167419154, ,0.00011517625156475387, ,0.2079268599056207,-0.22524122700963206,0.10331949816000001,1.680874586971947,0.5610294680368985,-1.2074561045481487, ,0.07221989464114975,0.03803484631602035,0.03904120470588236,0.02535206829980164,0.07713050804261756,-0.041267671082751034, ,1.2044639587402344
0.014468141586996705,0.021831060062373567,-0.09188778953636928, ,0.015272302631362871,0.0216315645790712,-0.09307865209977402, ,0.00145073328977212, ,0.014014879508704737,0.0052855566731858355,-0.03672493267432793,0.011219135272150767,0.009331789652018944,-0.028138636750750054, ,0.039662004953391984, ,0.01459056167419154, ,0.0001175413306086349, ,0.2079268599056207,-0.22524122700963206,0.10331949816000001,1.680874586971947,0.5610294680368985,-1.2074561045481487, ,0.07221989464114975,0.03803484631602035,0.03904120470588236,0.02535206829980164,0.07713050804261756,-0.041267671082751034, ,1.2090320587158203
0.01457176616008675,0.021869612551676867,-0.09216059475829307, ,0.015344619832164279,0.021647339591181702,-0.09324534250582374, ,0.0013503280131819365, ,0.014786861397764722,0.005613278412777308,-0.0392387459925532,-0.004727385615735528,-0.007229738151578012,-0.027692390062610234, ,0.042306493019442844, ,0.008632743981965792, ,0.000119694313913586, ,0.20844428300819373,-0.22496320862615996,0.10360857083000001,1.680874586971947,0.5614393775361948,-1.2077086795190974, ,0.07299764735266984,0.04043329423028154,0.04158958621409923,0.02535206829980164,0.06123658451229203,-0.027752794088343097, ,1.2138679027557373
0.01457176616008675,0.021869612551676867,-0.09216059475829307, ,0.015416744116064888,0.02166291581100405,-0.09341114157354118, ,0.001523344552562207, ,0.014786861397764722,0.005613278412777308,-0.0392387459925532,-0.004727385615735528,-0.007229738151578012,-0.027692390062610234, ,0.042306493019442844, ,0.008632743981965792, ,0.00012216345992269184, ,0.20844428300819373,-0.22496320862615996,0.10360857083000001,1.680874586971947,0.5614393775361948,-1.2077086795190974, ,0.07299764735266984,0.04043329423028154,0.04158958621409923,0.02535206829980164,0.06123658451229203,-0.027752794088343097, ,1.21840500831604
0.014663126013272118,0.021903529392403143,-0.09240543388765915, ,0.015488675716056182,0.021678294012348914,-0.09357605189727564, ,0.0014500378659309187, ,0.015243647162246616,0.006004261757709373,-0.04108382984219829,0.01658241060264302,-0.008760629009793786,-0.036463261976929374, ,0.04423009170875484, ,0.018751211069477563, ,0.0001244732510071469, ,0.20889220151489876,-0.22470835844131057,0.10386782883000001,1.680874586971947,0.5618492870354911,-1.2078795757499057, ,0.0731101244672348,0.04064108846187185,0.04352134295081967,0.02535206829980164,0.05910616267860897,-0.0508922581234086, ,1.2229828834533691
0.014663126013272118,0.021903529392403143,-0.09240543388765915, ,0.01556041486586421,0.021693474968128405,-0.09374007606725304, ,0.001621887756194787, ,0.015243647162246616,0.006004261757709373,-0.04108382984219829,0.01658241060264302,-0.008760629009793786,-0.036463261976929374, ,0.04423009170875484, ,0.018751211069477563, ,0.00012709336790443792, ,0.20889220151489876,-0.22470835844131057,0.10386782883000001,1.680874586971947,0.5618492870354911,-1.2078795757499057, ,0.0731101244672348,0.04064108846187185,0.04352134295081967,0.02535206829980164,0.05910616267860897,-0.0508922581234086, ,1.2273869514465332
0.014942583007519808,0.021998226401740487,-0.09313301572685903, ,0.015631961799947594,0.021708459450355645,-0.09390321666957926, ,0.0010735071018541026, ,0.016419060796233568,0.004734153403888214,-0.039712896174192984,-0.02007555920039944,-0.041357825478470556,-0.027847759678390104, ,0.04323322667144094, ,0.045971719872855796, ,0.0001286510111858927, ,0.2102591252336365,-0.223897471489517,0.10463652880000002,1.680874586971947,0.5626691060340837,-1.208548083172084, ,0.08564705916829492,0.049684262596058,0.04202852643799473,0.019746298242584913,0.04049941670077216,-0.02353876899263129, ,1.2317900657653809
0.014942583007519808,0.021998226401740487,-0.09313301572685903, ,0.015703316753496017,0.021723248230145386,-0.09406547628624314, ,0.0012344276090268307, ,0.016419060796233568,0.004734153403888214,-0.039712896174192984,-0.02007555920039944,-0.041357825478470556,-0.027847759678390104, ,0.04323322667144094, ,0.045971719872855796, ,0.00013074925899963263, ,0.2102591252336365,-0.223897471489517,0.10463652880000002,1.680874586971947,0.5626691060340837,-1.208548083172084, ,0.08564705916829492,0.049684262596058,0.04202852643799473,0.019746298242584913,0.04049941670077216,-0.02353876899263129, ,1.2340960502624512
0.014942583007519808,0.021998226401740487,-0.09313301572685903, ,0.015774479962428062,0.021737842077713183,-0.0942268574951195, ,0.0013986930877701394, ,0.016419060796233568,0.004734153403888214,-0.039712896174192984,-0.02007555920039944,-0.041357825478470556,-0.027847759678390104, ,0.04323322667144094, ,0.045971719872855796, ,0.00013315066776624343, ,0.2102591252336365,-0.223897471489517,0.10463652880000002,1.680874586971947,0.5626691060340837,-1.208548083172084, ,0.08564705916829492,0.049684262596058,0.04202852643799473,0.019746298242584913,0.04049941670077216,-0.02353876899263129, ,1.2363288402557373
0.014942583007519808,0.021998226401740487,-0.09313301572685903, ,0.015845451663389847,0.02175224176237619,-0.09438736286997257, ,0.0015649495225063482, ,0.016419060796233568,0.004734153403888214,-0.039712896174192984,-0.02007555920039944,-0.041357825478470556,-0.027847759678390104, ,0.04323322667144094, ,0.045971719872855796, ,0.00013585728185837976, ,0.2102591252336365,-0.223897471489517,0.10463652880000002,1.680874586971947,0.5626691060340837,-1.208548083172084, ,0.08564705916829492,0.049684262596058,0.04202852643799473,0.019746298242584913,0.04049941670077216,-0.02353876899263129, ,1.2386150360107422
0.015097671829799581,0.022044939449620313,-0.09351267887338274, ,0.015916232093752695,0.02176644805255193,-0.09454699498045845, ,0.0013481128192107399, ,0.01663950155377082,0.004895234911119761,-0.04081717801521481,0.03912789976079242,0.0239737014912969,-0.005949711758995618, ,0.04434950234127461, ,0.045887009129011926, ,0.0001381445564571578, ,0.21110090311692697,-0.22343410751706352,0.10504097128,1.6810842769154317,0.5636255615324419,-1.2093280084979592, ,0.09115940591591815,0.049502838580318606,0.04352134295081967,-0.007572771461620222,0.11802428170708285,-0.0875101202662751, ,1.2408180236816406
0.015097671829799581,0.022044939449620313,-0.09351267887338274, ,0.015986821491611663,0.021780461715759303,-0.0947057563921281, ,0.001511280767608839, ,0.01663950155377082,0.004895234911119761,-0.04081717801521481,0.03912789976079242,0.0239737014912969,-0.005949711758995618, ,0.04434950234127461, ,0.045887009129011926, ,0.0007703906772154894, ,0.21110090311692697,-0.22343410751706352,0.10504097128,1.6810842769154317,0.5636255615324419,-1.2093280084979592, ,0.09115940591591815,0.049502838580318606,0.04352134295081967,-0.007572771461620222,0.11802428170708285,-0.0875101202662751, ,1.2431130409240723
0.015097671829799581,0.022044939449620313,-0.09351267887338274, ,0.01605722009578395,0.02179428351861842,-0.09486364966643193, ,0.001675912692884683, ,0.01663950155377082,0.004895234911119761,-0.04081717801521481,0.03912789976079242,0.0239737014912969,-0.005949711758995618, ,0.04434950234127461, ,0.045887009129011926, ,0.0007796306977835423, ,0.21110090311692697,-0.22343410751706352,0.10504097128,1.6810842769154317,0.5636255615324419,-1.2093280084979592, ,0.09115940591591815,0.049502838580318606,0.04352134295081967,-0.007572771461620222,0.11802428170708285,-0.0875101202662751, ,1.2455880641937256
0.015097671829799581,0.022044939449620313,-0.09351267887338274, ,0.016127428145806366,0.02180791422684952,-0.09502067736072017, ,0.0018413686389198087, ,0.01663950155377082,0.004895234911119761,-0.04081717801521481,0.03912789976079242,0.0239737014912969,-0.005949711758995618, ,0.04434950234127461, ,0.045887009129011926, ,0.0007903553234515854, ,0.21110090311692697,-0.22343410751706352,0.10504097128,1.6810842769154317,0.5636255615324419,-1.2093280084979592, ,0.09115940591591815,0.049502838580318606,0.04352134295081967,-0.007572771461620222,0.11802428170708285,-0.0875101202662751, ,1.2480459213256836
0.015097671829799581,0.022044939449620313,-0.09351267887338274, ,0.016197445881934357,0.021821354605274342,-0.0951768420282481, ,0.002007220006472026, ,0.01663950155377082,0.004895234911119761,-0.04081717801521481,0.03912789976079242,0.0239737014912969,-0.005949711758995618, ,0.04434950234127461, ,0.045887009129011926, ,0.0008025239702817898, ,0.2119349582673432,-0.22297846627748427,0.10543763602000002,1.6810842769154317,0.5645820170307999,-1.210107933823834, ,0.10626757173400983,0.05779350886630376,0.05089077162939297,-0.00689549645826775,0.12263632767905004,-0.09176018063804361, ,1.2505290508270264
0.015097671829799581,0.022044939449620313,-0.09351267887338274, ,0.01626727354513964,0.021834605417814987,-0.09533214621817857, ,0.0021731704940570703, ,0.0196400988042196,0.005700592990472593,-0.04776107736746914,0.03540522629047127,0.013617363407492936,-0.008838853626113252, ,0.05195527646720693, ,0.03793038504378675, ,0.0008160947279429311, ,0.2119349582673432,-0.22297846627748427,0.10543763602000002,1.6810842769154317,0.5645820170307999,-1.210107933823834, ,0.10626757173400983,0.05779350886630376,0.05089077162939297,-0.00689549645826775,0.12263632767905004,-0.09176018063804361, ,1.2533149719238281
0.01525100767512394,0.022089311827638552,-0.09388497892806275, ,0.016336911377108396,0.02184766742749396,-0.09548659247558397, ,0.0019500627737866047, ,0.0196400988042196,0.005700592990472593,-0.04776107736746914,0.03540522629047127,0.013617363407492936,-0.008838853626113252, ,0.05195527646720693, ,0.03793038504378675, ,0.0008272120617257123, ,0.2119349582673432,-0.22297846627748427,0.10543763602000002,1.6810842769154317,0.5645820170307999,-1.210107933823834, ,0.10626757173400983,0.05779350886630376,0.05089077162939297,-0.00689549645826775,0.12263632767905004,-0.09176018063804361, ,1.2566359043121338
0.01525100767512394,0.022089311827638552,-0.09388497892806275, ,0.016406359620240032,0.021860541396435316,-0.0956401833414514, ,0.0021137446771205496, ,0.0196400988042196,0.005700592990472593,-0.04776107736746914,0.03540522629047127,0.013617363407492936,-0.008838853626113252, ,0.05195527646720693, ,0.03793038504378675, ,0.0008397026696421671, ,0.2119349582673432,-0.22297846627748427,0.10543763602000002,1.6810842769154317,0.5645820170307999,-1.210107933823834, ,0.10626757173400983,0.05779350886630376,0.05089077162939297,-0.00689549645826775,0.12263632767905004,-0.09176018063804361, ,1.2589390277862549
0.015498034053469,0.022168311776513048,-0.09449437904666101, ,0.016475618517644484,0.021873228085862534,-0.09579292135268283, ,0.0016519557771361981, ,0.021572821699617876,0.008045607114490295,-0.054926253918231,0.028914992786371586,-0.008402538435467729,0.004413255336289008, ,0.05955679473757992, ,0.030102816158924007, ,0.0008475127956757636, ,0.21323237739021295,-0.22233747944892363,0.10608707731000001,1.6804552070849783,0.5659483820284543,-1.2111404341206575, ,0.10734948140098505,0.04965826350521757,0.058561807058823544,-0.019528465193338364,0.10416528136750229,-0.08039517157479971, ,1.2611939907073975
0.015498034053469,0.022168311776513048,-0.09449437904666101, ,0.016544688313141282,0.02188572825610054,-0.09594480904210112, ,0.001810824606904615, ,0.021572821699617876,0.008045607114490295,-0.054926253918231,0.028914992786371586,-0.008402538435467729,0.004413255336289008, ,0.05955679473757992, ,0.030102816158924007, ,0.0008566871938779431, ,0.21323237739021295,-0.22233747944892363,0.10608707731000001,1.6804552070849783,0.5659483820284543,-1.2111404341206575, ,0.10734948140098505,0.04965826350521757,0.058561807058823544,-0.019528465193338364,0.10416528136750229,-0.08039517157479971, ,1.2634530067443848
0.015498034053469,0.022168311776513048,-0.09449437904666101, ,0.016613569251256934,0.021898042666573844,-0.09609584893845097, ,0.0019703223044976238, ,0.021572821699617876,0.008045607114490295,-0.054926253918231,0.028914992786371586,-0.008402538435467729,0.004413255336289008, ,0.05955679473757992, ,0.030102816158924007, ,0.0008671931854875626, ,0.21323237739021295,-0.22233747944892363,0.10608707731000001,1.6804552070849783,0.5659483820284543,-1.2111404341206575, ,0.10734948140098505,0.04965826350521757,0.058561807058823544,-0.019528465193338364,0.10416528136750229,-0.08039517157479971, ,1.2657499313354492
0.015498034053469,0.022168311776513048,-0.09449437904666101, ,0.01668226157722375,0.021910172075807786,-0.09624604356640216, ,0.0021301078664749612, ,0.021572821699617876,0.008045607114490295,-0.054926253918231,0.028914992786371586,-0.008402538435467729,0.004413255336289008, ,0.05955679473757992, ,0.030102816158924007, ,0.0008789961264313702, ,0.21323237739021295,-0.22233747944892363,0.10608707731000001,1.6804552070849783,0.5659483820284543,-1.2111404341206575, ,0.10734948140098505,0.04965826350521757,0.058561807058823544,-0.019528465193338364,0.10416528136750229,-0.08039517157479971, ,1.2679669857025146
0.015498034053469,0.022168311776513048,-0.09449437904666101, ,0.01675076553697768,0.02192211724142825,-0.09639539544655393, ,0.0022899369579840617, ,0.021572821699617876,0.008045607114490295,-0.054926253918231,0.028914992786371586,-0.008402538435467729,0.004413255336289008, ,0.05955679473757992, ,0.030102816158924007, ,0.0008920603933901914, ,0.21323237739021295,-0.22233747944892363,0.10608707731000001,1.6804552070849783,0.5669048375268124,-1.2118386807063921, ,0.11324217369745916,0.06977716291064028,0.06925570226086958,-0.03778244979308532,0.10631050935418841,-0.07989226648691501, ,1.2702999114990234
0.015734439770237054,0.02224966551571224,-0.09510123724661454, ,0.016819081377156563,0.021933878920160764,-0.09654390709543674, ,0.001832338637395281, ,0.024556836612281346,0.008306207466083695,-0.06545089224593112,0.005087932221621382,-0.016209821044720234,0.018121343073679384, ,0.07039780254141739, ,0.01695418108364843, ,0.000900686799298495, ,0.21437534185559817,-0.22171966081898567,0.10673133344,1.6802455171414936,0.5669048375268124,-1.2118386807063921, ,0.11324217369745916,0.06977716291064028,0.06925570226086958,-0.03778244979308532,0.10631050935418841,-0.07989226648691501, ,1.2725229263305664
0.015734439770237054,0.02224966551571224,-0.09510123724661454, ,0.016887209345098422,0.021945457867831634,-0.09669158102551557, ,0.0019876149830498698, ,0.024556836612281346,0.008306207466083695,-0.06545089224593112,0.005087932221621382,-0.016209821044720234,0.018121343073679384, ,0.07039780254141739, ,0.01695418108364843, ,0.0009105679646053257, ,0.21437534185559817,-0.22171966081898567,0.10673133344,1.6802455171414936,0.5669048375268124,-1.2118386807063921, ,0.11324217369745916,0.06977716291064028,0.06925570226086958,-0.03778244979308532,0.10631050935418841,-0.07989226648691501, ,1.2747528553009033
0.015734439770237054,0.02224966551571224,-0.09510123724661454, ,0.01695514968883936,0.02195685483936672,-0.09683841974519265, ,0.002143285755778278, ,0.024556836612281346,0.008306207466083695,-0.06545089224593112,0.005087932221621382,-0.016209821044720234,0.018121343073679384, ,0.07039780254141739, ,0.01695418108364843, ,0.0009216735302915685, ,0.21437534185559817,-0.22171966081898567,0.10673133344,1.6802455171414936,0.5669048375268124,-1.2118386807063921, ,0.11324217369745916,0.06977716291064028,0.06925570226086958,-0.03778244979308532,0.10631050935418841,-0.07989226648691501, ,1.2769570350646973
0.015734439770237054,0.02224966551571224,-0.09510123724661454, ,0.017022902657112194,0.021968070588792656,-0.09698442575881176, ,0.002299093579259673, ,0.024556836612281346,0.008306207466083695,-0.06545089224593112,0.005087932221621382,-0.016209821044720234,0.018121343073679384, ,0.07039780254141739, ,0.01695418108364843, ,0.0009339719235859266, ,0.21437534185559817,-0.22171966081898567,0.10673133344,1.6802455171414936,0.5669048375268124,-1.2118386807063921, ,0.11324217369745916,0.06977716291064028,0.06925570226086958,-0.03778244979308532,0.10631050935418841,-0.07989226648691501, ,1.2791540622711182
0.01597971889179326,0.022339348325767602,-0.09576985982904225, ,0.017090468499344043,0.021979105869235516,-0.09712960156665928, ,0.0017923272332864555, ,0.02667638092526422,0.010160922881345343,-0.07438314737295301,0.04458635527366096,0.02887928591624108,0.014927699392363667, ,0.0796726193003399, ,0.05310065141449208, ,0.0009415679882735419, ,0.2154874153894865,-0.22104006032605392,0.10744040407000001,1.6802455171414936,0.5682712025244668,-1.2129528597433563, ,0.1171567179734207,0.07124395011897205,0.07885550257425744,-0.03778244979308532,0.155618808398008,-0.1205463153538847, ,1.281385898590088
0.01597971889179326,0.022339348325767602,-0.09576985982904225, ,0.01715784746565508,0.021989961432921725,-0.09727394966496905, ,0.0019422523965696348, ,0.02667638092526422,0.010160922881345343,-0.07438314737295301,0.04458635527366096,0.02887928591624108,0.014927699392363667, ,0.0796726193003399, ,0.05310065141449208, ,0.0009503459216796479, ,0.2154874153894865,-0.22104006032605392,0.10744040407000001,1.6802455171414936,0.5682712025244668,-1.2129528597433563, ,0.1171567179734207,0.07124395011897205,0.07885550257425744,-0.03778244979308532,0.155618808398008,-0.1205463153538847, ,1.283647060394287
0.01597971889179326,0.022339348325767602,-0.09576985982904225, ,0.01722503980685631,0.022000638031177185,-0.09741747254592437, ,0.0020928871230877838, ,0.02667638092526422,0.010160922881345343,-0.07438314737295301,0.04458635527366096,0.02887928591624108,0.014927699392363667, ,0.0796726193003399, ,0.05310065141449208, ,0.0009602810625614578, ,0.2154874153894865,-0.22104006032605392,0.10744040407000001,1.6802455171414936,0.5682712025244668,-1.2129528597433563, ,0.1171567179734207,0.07124395011897205,0.07885550257425744,-0.03778244979308532,0.155618808398008,-0.1205463153538847, ,1.286012887954712
0.01597971889179326,0.022339348325767602,-0.09576985982904225, ,0.017292045774447894,0.02201113641442814,-0.09756017269766075, ,0.0022439128934127824, ,0.02667638092526422,0.010160922881345343,-0.07438314737295301,0.04458635527366096,0.02887928591624108,0.014927699392363667, ,0.0796726193003399, ,0.05310065141449208, ,0.0009713468542067278, ,0.2154874153894865,-0.22104006032605392,0.10744040407000001,1.6802455171414936,0.5682712025244668,-1.2129528597433563, ,0.1171567179734207,0.07124395011897205,0.07885550257425744,-0.03778244979308532,0.155618808398008,-0.1205463153538847, ,1.2884600162506104
0.01597971889179326,0.022339348325767602,-0.09576985982904225, ,0.017358865620617402,0.022021457332200255,-0.09770205260427024, ,0.002395092754792769, ,0.02667638092526422,0.010160922881345343,-0.07438314737295301,0.04458635527366096,0.02887928591624108,0.014927699392363667, ,0.0796726193003399, ,0.05310065141449208, ,0.0009835156225878052, ,0.21673077538223665,-0.22029867797012836,0.10824669645000001,1.6802455171414936,0.5697742040218867,-1.2140967779438765, ,0.12893606190009615,0.07561509287527553,0.07924781850746268,-0.025578885481064583,0.1486480024924456,-0.11606578034583245, ,1.2908220291137695
0.01625874377009093,0.02244326159303033,-0.09652963505986575, ,0.017425499598237724,0.022031601533119134,-0.0978431147458027, ,0.0018044423107457972, ,0.028168595984786295,0.00976505071079775,-0.07463541615665376,0.03821280609500605,0.01292652421989832,0.0020857392881747177, ,0.08036959225985574, ,0.04031125961127654, ,0.0009904726284196525, ,0.21673077538223665,-0.22029867797012836,0.10824669645000001,1.6802455171414936,0.5697742040218867,-1.2140967779438765, ,0.12893606190009615,0.07561509287527553,0.07924781850746268,-0.025578885481064583,0.1486480024924456,-0.11606578034583245, ,1.2940449714660645
0.01625874377009093,0.02244326159303033,-0.09652963505986575, ,0.01749194796086563,0.022041569764910143,-0.09798336159827047, ,0.0019481965376688683, ,0.028168595984786295,0.00976505071079775,-0.07463541615665376,0.03821280609500605,0.01292652421989832,0.0020857392881747177, ,0.08036959225985574, ,0.04031125961127654, ,0.000998520728497377, ,0.21673077538223665,-0.22029867797012836,0.10824669645000001,1.6802455171414936,0.5697742040218867,-1.2140967779438765, ,0.12893606190009615,0.07561509287527553,0.07924781850746268,-0.025578885481064583,0.1486480024924456,-0.11606578034583245, ,1.2965168952941895
0.01625874377009093,0.02244326159303033,-0.09652963505986575, ,0.017558210962739525,0.022051362774397915,-0.09812279563365012, ,0.002092931026736529, ,0.028168595984786295,0.00976505071079775,-0.07463541615665376,0.03821280609500605,0.01292652421989832,0.0020857392881747177, ,0.08036959225985574, ,0.04031125961127654, ,0.0010076408143160364, ,0.21673077538223665,-0.22029867797012836,0.10824669645000001,1.6802455171414936,0.5697742040218867,-1.2140967779438765, ,0.12893606190009615,0.07561509287527553,0.07924781850746268,-0.025578885481064583,0.1486480024924456,-0.11606578034583245, ,1.2988219261169434
0.016543200792189745,0.022535625418444814,-0.09724230727960664, ,0.01762428885877799,0.02206098130750724,-0.09826141931988616, ,0.0015596883632347572, ,0.029258569955824855,0.008680921227308597,-0.06982674686931148,0.011545778241924657,-0.03626851749914623,-0.00179904551942361, ,0.07620496629200445, ,0.038040115051525866, ,0.0010122031907533813, ,0.21808997636810015,-0.2195572956142028,0.10900502610000001,1.6802455171414936,0.5710039325197757,-1.2149361815968631, ,0.14554745637802266,0.07519567476899429,0.07443369869158879,-0.019592154140789162,0.114498653410574,-0.08797033480144788, ,1.3012759685516357
0.016543200792189745,0.022535625418444814,-0.09724230727960664, ,0.017690181904577697,0.022070426109261885,-0.0983992351208938, ,0.0016942426329733084, ,0.029258569955824855,0.008680921227308597,-0.06982674686931148,0.011545778241924657,-0.03626851749914623,-0.00179904551942361, ,0.07620496629200445, ,0.038040115051525866, ,0.0010177936779846922, ,0.21808997636810015,-0.2195572956142028,0.10900502610000001,1.6802455171414936,0.5710039325197757,-1.2149361815968631, ,0.14554745637802266,0.07519567476899429,0.07443369869158879,-0.019592154140789162,0.114498653410574,-0.08797033480144788, ,1.3035519123077393
0.016543200792189745,0.022535625418444814,-0.09724230727960664, ,0.017755890356411626,0.022079697923785342,-0.09853624549656205, ,0.0018310548787125013, ,0.029258569955824855,0.008680921227308597,-0.06982674686931148,0.011545778241924657,-0.03626851749914623,-0.00179904551942361, ,0.07620496629200445, ,0.038040115051525866, ,0.0010244055576654062, ,0.21808997636810015,-0.2195572956142028,0.10900502610000001,1.6802455171414936,0.5710039325197757,-1.2149361815968631, ,0.14554745637802266,0.07519567476899429,0.07443369869158879,-0.019592154140789162,0.114498653410574,-0.08797033480144788, ,1.3058178424835205
0.016543200792189745,0.022535625418444814,-0.09724230727960664, ,0.01782141447122737,0.022088797494300517,-0.09867245290275661, ,0.0019694674169655657, ,0.029258569955824855,0.008680921227308597,-0.06982674686931148,0.011545778241924657,-0.03626851749914623,-0.00179904551942361, ,0.07620496629200445, ,0.038040115051525866, ,0.0010320270242726655, ,0.21808997636810015,-0.2195572956142028,0.10900502610000001,1.6802455171414936,0.5710039325197757,-1.2149361815968631, ,0.14554745637802266,0.07519567476899429,0.07443369869158879,-0.019592154140789162,0.114498653410574,-0.08797033480144788, ,1.3080549240112305
0.016543200792189745,0.022535625418444814,-0.09724230727960664, ,0.017886754506645123,0.02209772556312964,-0.0988078597913226, ,0.002108992065858011, ,0.029258569955824855,0.008680921227308597,-0.06982674686931148,0.011545778241924657,-0.03626851749914623,-0.00179904551942361, ,0.07620496629200445, ,0.038040115051525866, ,0.0010406427446053483, ,0.21808997636810015,-0.2195572956142028,0.10900502610000001,1.6802455171414936,0.5710039325197757,-1.2149361815968631, ,0.14554745637802266,0.07519567476899429,0.07443369869158879,-0.019592154140789162,0.114498653410574,-0.08797033480144788, ,1.3102428913116455
0.01685082066215645,0.022609066676323848,-0.09794425592459467, ,0.01795191072095593,0.02210648287169407,-0.09894246861008842, ,0.0015688908068262146, ,0.02957102484041299,0.005795961108877017,-0.0643372739139859,0.008912959896205497,-0.0333733187420397,-0.024368907848026387, ,0.0710445176630202, ,0.0345270462649864, ,0.0010448351895436091, ,0.2196808593401904,-0.218669181333667,0.10975298543,1.6800358271980091,0.5722336610176646,-1.2157755852498497, ,0.15922305630615904,0.09133488119198342,0.06865867034482759,0.0,0.12689993741869457,-0.09679274296735017, ,1.3124380111694336
0.01685082066215645,0.022609066676323848,-0.09794425592459467, ,0.01801688337311994,0.02211507016051482,-0.09907628180286804, ,0.0016985927683266413, ,0.02957102484041299,0.005795961108877017,-0.0643372739139859,0.008912959896205497,-0.0333733187420397,-0.024368907848026387, ,0.0710445176630202, ,0.0345270462649864, ,0.0010499828870143416, ,0.2196808593401904,-0.218669181333667,0.10975298543,1.6800358271980091,0.5722336610176646,-1.2157755852498497, ,0.15922305630615904,0.09133488119198342,0.06865867034482759,0.0,0.12689993741869457,-0.09679274296735017, ,1.3146579265594482
0.01685082066215645,0.022609066676323848,-0.09794425592459467, ,0.018081672722764498,0.022123488169211957,-0.09920930180946427, ,0.001830607651163296, ,0.02957102484041299,0.005795961108877017,-0.0643372739139859,0.008912959896205497,-0.0333733187420397,-0.024368907848026387, ,0.0710445176630202, ,0.0345270462649864, ,0.0010560815179842555, ,0.2196808593401904,-0.218669181333667,0.10975298543,1.6800358271980091,0.5722336610176646,-1.2157755852498497, ,0.15922305630615904,0.09133488119198342,0.06865867034482759,0.0,0.12689993741869457,-0.09679274296735017, ,1.3169150352478027
0.01685082066215645,0.022609066676323848,-0.09794425592459467, ,0.018146279030182157,0.022131737636504407,-0.0993415310656712, ,0.0019642894937898564, ,0.02957102484041299,0.005795961108877017,-0.0643372739139859,0.008912959896205497,-0.0333733187420397,-0.024368907848026387, ,0.0710445176630202, ,0.0345270462649864, ,0.0010631218898897253, ,0.2196808593401904,-0.218669181333667,0.10975298543,1.6800358271980091,0.5722336610176646,-1.2157755852498497, ,0.15922305630615904,0.09133488119198342,0.06865867034482759,0.0,0.12689993741869457,-0.09679274296735017, ,1.3191828727722168
0.017129336763081014,0.02265371333063729,-0.09852473998956024, ,0.018210702556329107,0.022139819300210476,-0.09947297200327844, ,0.0015272796093562786, ,0.02842111545520547,0.0035670895942662324,-0.05601643096375232,0.01945983431474952,-0.020975561950768915,-0.014541778371044816, ,0.06291521652039729, ,0.028602583983034644, ,0.0010666923338856218, ,0.22124085138078375,-0.21778106705313116,0.11037390834000001,1.6798261372545245,0.5736000260153189,-1.2167264068065327, ,0.1659037439833405,0.09340250153392793,0.06010872271698114,-0.01112493525442291,0.14858225023918856,-0.11141643763364484, ,1.3214049339294434
0.017129336763081014,0.02265371333063729,-0.09852473998956024, ,0.018274943562823266,0.0221477338972477,-0.09960362705007265, ,0.0016530055704594756, ,0.02842111545520547,0.0035670895942662324,-0.05601643096375232,0.01945983431474952,-0.020975561950768915,-0.014541778371044816, ,0.06291521652039729, ,0.028602583983034644, ,0.0010711680074472541, ,0.22124085138078375,-0.21778106705313116,0.11037390834000001,1.6798261372545245,0.5736000260153189,-1.2167264068065327, ,0.1659037439833405,0.09340250153392793,0.06010872271698114,-0.01112493525442291,0.14858225023918856,-0.11141643763364484, ,1.323732852935791
0.017129336763081014,0.02265371333063729,-0.09852473998956024, ,0.018339002311942153,0.02215548216363198,-0.0997334986298414, ,0.001781185696756901, ,0.02842111545520547,0.0035670895942662324,-0.05601643096375232,0.01945983431474952,-0.020975561950768915,-0.014541778371044816, ,0.06291521652039729, ,0.028602583983034644, ,0.0010765469293359635, ,0.22124085138078375,-0.21778106705313116,0.11037390834000001,1.6798261372545245,0.5736000260153189,-1.2167264068065327, ,0.1659037439833405,0.09340250153392793,0.06010872271698114,-0.01112493525442291,0.14858225023918856,-0.11141643763364484, ,1.3261480331420898
0.017129336763081014,0.02265371333063729,-0.09852473998956024, ,0.018402879066621594,0.022163064834478725,-0.09986258916237656, ,0.0019111479154935703, ,0.02842111545520547,0.0035670895942662324,-0.05601643096375232,0.01945983431474952,-0.020975561950768915,-0.014541778371044816, ,0.06291521652039729, ,0.028602583983034644, ,0.0010828221247206073, ,0.22124085138078375,-0.21778106705313116,0.11037390834000001,1.6798261372545245,0.5736000260153189,-1.2167264068065327, ,0.1659037439833405,0.09340250153392793,0.06010872271698114,-0.01112493525442291,0.14858225023918856,-0.11141643763364484, ,1.3290860652923584
0.017129336763081014,0.02265371333063729,-0.09852473998956024, ,0.018466574090453367,0.022170482644001774,-0.09999090106347566, ,0.0020423868049145376, ,0.02842111545520547,0.0035670895942662324,-0.05601643096375232,0.01945983431474952,-0.020975561950768915,-0.014541778371044816, ,0.06291521652039729, ,0.028602583983034644, ,0.0010899830551698156, ,0.22124085138078375,-0.21778106705313116,0.11037390834000001,1.6798261372545245,0.5736000260153189,-1.2167264068065327, ,0.1659037439833405,0.09340250153392793,0.06010872271698114,-0.01112493525442291,0.14858225023918856,-0.11141643763364484, ,1.331730842590332
0.017342248407403556,0.02267478228540605,-0.09893236124628528, ,0.0185300876476838,0.02217773632551443,-0.10011843674494705, ,0.001750654687686838, ,0.02737948554216401,0.0022878804178391937,-0.05086107934447456,0.012085872159810976,-0.021751238945285058,0.0026252946722631876, ,0.057807612106407204, ,0.024876582359065282, ,0.0010948769191143862, ,0.2225151023050308,-0.21707057562870252,0.11081205436000001,1.6794067573675557,0.5748297545132081,-1.2175658104595195, ,0.1659037439833405,0.09303621721418705,0.05473818391752577,-0.026844000816793376,0.1513426342989993,-0.1066690108607893, ,1.3341169357299805
0.017342248407403556,0.02267478228540605,-0.09893236124628528, ,0.018593420003211618,0.02218482661142843,-0.10024519861461147, ,0.0018785709675956832, ,0.02737948554216401,0.0022878804178391937,-0.05086107934447456,0.012085872159810976,-0.021751238945285058,0.0026252946722631876, ,0.057807612106407204, ,0.024876582359065282, ,0.0011006393753532195, ,0.2225151023050308,-0.21707057562870252,0.11081205436000001,1.6794067573675557,0.5748297545132081,-1.2175658104595195, ,0.1659037439833405,0.09303621721418705,0.05473818391752577,-0.026844000816793376,0.1513426342989993,-0.1066690108607893, ,1.3364028930664062
0.017342248407403556,0.02267478228540605,-0.09893236124628528, ,0.018656571422586005,0.022191754233253733,-0.10037118907630464, ,0.0020077317081329794, ,0.02737948554216401,0.0022878804178391937,-0.05086107934447456,0.012085872159810976,-0.021751238945285058,0.0026252946722631876, ,0.057807612106407204, ,0.024876582359065282, ,0.0011072604872713197, ,0.2225151023050308,-0.21707057562870252,0.11081205436000001,1.6794067573675557,0.5748297545132081,-1.2175658104595195, ,0.1659037439833405,0.09303621721418705,0.05473818391752577,-0.026844000816793376,0.1513426342989993,-0.1066690108607893, ,1.338629961013794
0.017342248407403556,0.02267478228540605,-0.09893236124628528, ,0.018719542172005423,0.022198519921599918,-0.10049641052988233, ,0.0021377591339320295, ,0.026451324620835912,-0.0005453219226679174,-0.04493876402530572,-0.01618083360922453,-0.03819346844187825,0.022018755990006363, ,0.05214846557971091, ,0.04147742918626472, ,0.0011147278687688611, ,0.22464657657831677,-0.21578860197158126,0.11145371791000001,1.6791970674240708,0.5766060290101588,-1.2186875282470107, ,0.16707208020857534,0.10509074369708835,0.048269125818181824,-0.04857270473184695,0.140680821540352,-0.0947942614196049, ,1.3409688472747803
0.017683977504130755,0.022682090613407653,-0.09952901800220157, ,0.018782332518314862,0.02220512440617448,-0.10062086537122081, ,0.0016204972006331896, ,0.026451324620835912,-0.0005453219226679174,-0.04493876402530572,-0.01618083360922453,-0.03819346844187825,0.022018755990006363, ,0.05214846557971091, ,0.04147742918626472, ,0.0011183664970556549, ,0.22464657657831677,-0.21578860197158126,0.11145371791000001,1.6791970674240708,0.5766060290101588,-1.2186875282470107, ,0.16707208020857534,0.10509074369708835,0.048269125818181824,-0.04857270473184695,0.140680821540352,-0.0947942614196049, ,1.3434369564056396
0.017683977504130755,0.022682090613407653,-0.09952901800220157, ,0.018844942729004825,0.02221156841578396,-0.1007445559922218, ,0.0017454982088234761, ,0.026451324620835912,-0.0005453219226679174,-0.04493876402530572,-0.01618083360922453,-0.03819346844187825,0.022018755990006363, ,0.05214846557971091, ,0.04147742918626472, ,0.001122846009282568, ,0.22464657657831677,-0.21578860197158126,0.11145371791000001,1.6791970674240708,0.5766060290101588,-1.2186875282470107, ,0.16707208020857534,0.10509074369708835,0.048269125818181824,-0.04857270473184695,0.140680821540352,-0.0947942614196049, ,1.3456580638885498
0.017683977504130755,0.022682090613407653,-0.09952901800220157, ,0.018907373072208758,0.022217852678332886,-0.10086748478081417, ,0.0018718191402496607, ,0.026451324620835912,-0.0005453219226679174,-0.04493876402530572,-0.01618083360922453,-0.03819346844187825,0.022018755990006363, ,0.05214846557971091, ,0.04147742918626472, ,0.0011281578754596395, ,0.22464657657831677,-0.21578860197158126,0.11145371791000001,1.6791970674240708,0.5766060290101588,-1.2186875282470107, ,0.16707208020857534,0.10509074369708835,0.048269125818181824,-0.04857270473184695,0.140680821540352,-0.0947942614196049, ,1.3486039638519287
0.01797062867169524,0.02268514154348736,-0.10002584609829564, ,0.01896962381670189,0.02222397792082473,-0.10098965412095814, ,0.0014627334313410609, ,0.02923429521260176,0.0012589234003725419,-0.051884327576317044,-0.044450445186501604,-0.06859302271817078,-0.03494837270936773, ,0.05956687294757153, ,0.081734135150815, ,0.0011305140413461286, ,0.2263919142078915,-0.21470741936918983,0.11198649310000001,1.6789873774805866,0.5776991210082822,-1.2193338352561605, ,0.17348618200817328,0.10509074369708835,0.055695145174825184,0.01777764012475223,0.10260835023122376,-0.0514516011025172, ,1.3512568473815918
0.01797062867169524,0.02268514154348736,-0.10002584609829564, ,0.01903169523189897,0.022229944869361272,-0.10111106639264715, ,0.0015845407361726029, ,0.02923429521260176,0.0012589234003725419,-0.051884327576317044,-0.044450445186501604,-0.06859302271817078,-0.03494837270936773, ,0.05956687294757153, ,0.081734135150815, ,0.0011336890531980618, ,0.2263919142078915,-0.21470741936918983,0.11198649310000001,1.6789873774805866,0.5776991210082822,-1.2193338352561605, ,0.17348618200817328,0.10509074369708835,0.055695145174825184,0.01777764012475223,0.10260835023122376,-0.0514516011025172, ,1.3538100719451904
0.01797062867169524,0.02268514154348736,-0.10002584609829564, ,0.019093587587852488,0.022235754249142634,-0.10123172397191128, ,0.0017079599274489221, ,0.02923429521260176,0.0012589234003725419,-0.051884327576317044,-0.044450445186501604,-0.06859302271817078,-0.03494837270936773, ,0.05956687294757153, ,0.081734135150815, ,0.0011376770453803595, ,0.2263919142078915,-0.21470741936918983,0.11198649310000001,1.6789873774805866,0.5776991210082822,-1.2193338352561605, ,0.17348618200817328,0.10509074369708835,0.055695145174825184,0.01777764012475223,0.10260835023122376,-0.0514516011025172, ,1.3560328483581543
0.01797062867169524,0.02268514154348736,-0.10002584609829564, ,0.019155301155251055,0.022241406784467285,-0.10135162923082061, ,0.0018324983885790026, ,0.02923429521260176,0.0012589234003725419,-0.051884327576317044,-0.044450445186501604,-0.06859302271817078,-0.03494837270936773, ,0.05956687294757153, ,0.081734135150815, ,0.0011424689167127639, ,0.2263919142078915,-0.21470741936918983,0.11198649310000001,1.6789873774805866,0.5776991210082822,-1.2193338352561605, ,0.17348618200817328,0.10509074369708835,0.055695145174825184,0.01777764012475223,0.10260835023122376,-0.0514516011025172, ,1.3582420349121094
0.01797062867169524,0.02268514154348736,-0.10002584609829564, ,0.01921683620541695,0.02224690319873159,-0.10147078453748716, ,0.001957787822255583, ,0.02923429521260176,0.0012589234003725419,-0.051884327576317044,-0.044450445186501604,-0.06859302271817078,-0.03494837270936773, ,0.05956687294757153, ,0.081734135150815, ,0.0011480532927781258, ,0.2263919142078915,-0.21470741936918983,0.11198649310000001,1.6789873774805866,0.5776991210082822,-1.2193338352561605, ,0.17348618200817328,0.10509074369708835,0.055695145174825184,0.01777764012475223,0.10260835023122376,-0.0514516011025172, ,1.360496997833252
0.018263589977575878,0.02269988828972791,-0.10055546259301433, ,0.019278193010305186,0.02225224421443068,-0.10158919225606935, ,0.0015160480033468854, ,0.029661303086959415,0.001318109914826067,-0.05368883401529177,-0.024532652957113658,-0.043605052782421834,-0.010852414671786026, ,0.06135161947728505, ,0.05002804815270716, ,0.0011505566581561444, ,0.22811408363884356,-0.21365712769829528,0.11255556441000002,1.6791970674240708,0.5789288495061712,-1.2200915601690063, ,0.1741228285476528,0.10614870420410602,0.05771308521739131,-0.010323663483734662,0.1343755661841173,-0.0784238716911487, ,1.365138053894043
0.018263589977575878,0.02269988828972791,-0.10055546259301433, ,0.019339371842501046,0.02225743055315761,-0.10170685474677395, ,0.001636697700032597, ,0.029661303086959415,0.001318109914826067,-0.05368883401529177,-0.024532652957113658,-0.043605052782421834,-0.010852414671786026, ,0.06135161947728505, ,0.05002804815270716, ,0.0011538413949255802, ,0.22811408363884356,-0.21365712769829528,0.11255556441000002,1.6791970674240708,0.5789288495061712,-1.2200915601690063, ,0.1741228285476528,0.10614870420410602,0.05771308521739131,-0.010323663483734662,0.1343755661841173,-0.0784238716911487, ,1.3685550689697266
0.018263589977575878,0.02269988828972791,-0.10055546259301433, ,0.019400372975218315,0.022262462935603636,-0.10182377436585921, ,0.0017584741332463754, ,0.029661303086959415,0.001318109914826067,-0.05368883401529177,-0.024532652957113658,-0.043605052782421834,-0.010852414671786026, ,0.06135161947728505, ,0.05002804815270716, ,0.0011578993327666593, ,0.22811408363884356,-0.21365712769829528,0.11255556441000002,1.6791970674240708,0.5789288495061712,-1.2200915601690063, ,0.1741228285476528,0.10614870420410602,0.05771308521739131,-0.010323663483734662,0.1343755661841173,-0.0784238716911487, ,1.3710548877716064
0.01844867495287776,0.022707238858572523,-0.10088687078236638, ,0.019461196682297465,0.022267342081557652,-0.10193995346563793, ,0.00152567773949204, ,0.030114177869750042,0.0008558931495667539,-0.053156609292388454,-0.007749724888610267,-0.030403380081978237,-0.015401042504289, ,0.06110009307127164, ,0.031368763850840815, ,0.001160351188811495, ,0.22920298897410923,-0.21299297267111197,0.11291204416000002,1.6791970674240708,0.5797486685047639,-1.2206783888510444, ,0.17972905598195224,0.10907694432008136,0.057297883165467633,-0.00916858246021501,0.15291847242691473,-0.09797700275440904, ,1.3735029697418213
0.01844867495287776,0.022707238858572523,-0.10088687078236638, ,0.019521843238204193,0.02227206870990752,-0.10205539439448133, ,0.0016451476100914947, ,0.030114177869750042,0.0008558931495667539,-0.053156609292388454,-0.007749724888610267,-0.030403380081978237,-0.015401042504289, ,0.06110009307127164, ,0.031368763850840815, ,0.0011635617611378529, ,0.22920298897410923,-0.21299297267111197,0.11291204416000002,1.6791970674240708,0.5797486685047639,-1.2206783888510444, ,0.17972905598195224,0.10907694432008136,0.057297883165467633,-0.00916858246021501,0.15291847242691473,-0.09797700275440904, ,1.3759078979492188
0.01844867495287776,0.022707238858572523,-0.10088687078236638, ,0.019582312918026736,0.022276643538637803,-0.10217009949681957, ,0.001765565999665256, ,0.030114177869750042,0.0008558931495667539,-0.053156609292388454,-0.007749724888610267,-0.030403380081978237,-0.015401042504289, ,0.06110009307127164, ,0.031368763850840815, ,0.001167522315338691, ,0.22920298897410923,-0.21299297267111197,0.11291204416000002,1.6791970674240708,0.5797486685047639,-1.2206783888510444, ,0.17972905598195224,0.10907694432008136,0.057297883165467633,-0.00916858246021501,0.15291847242691473,-0.09797700275440904, ,1.3781938552856445
0.01844867495287776,0.022707238858572523,-0.10088687078236638, ,0.01964260599747494,0.022281067284832104,-0.1022840711131479, ,0.0018866007298454196, ,0.030114177869750042,0.0008558931495667539,-0.053156609292388454,-0.007749724888610267,-0.030403380081978237,-0.015401042504289, ,0.06110009307127164, ,0.031368763850840815, ,0.0011722221742570356, ,0.22920298897410923,-0.21299297267111197,0.11291204416000002,1.6791970674240708,0.5797486685047639,-1.2206783888510444, ,0.17972905598195224,0.10907694432008136,0.057297883165467633,-0.00916858246021501,0.15291847242691473,-0.09797700275440904, ,1.3805358409881592
0.01886879775614257,0.02269929836755255,-0.10158805538460076, ,0.019702722752877988,0.02228534066467147,-0.10239731158002753, ,0.001233566970128235, ,0.02743693075425338,-0.001725225170408903,-0.04157667409911138,-0.07250894743859426,-0.1000874649180127,0.011267241044144082, ,0.04984356929681126, ,0.12359176289706778, ,0.0011726205170873682, ,0.23176693628835177,-0.21140208969902172,0.11366778123000001,1.6785679975936174,0.5816615795014799,-1.2218298458020915, ,0.17222675418960212,0.10626757173400983,0.0448698916056338,-0.03149879024806863,0.08000443071646857,-0.03572866977576113, ,1.3827979564666748
0.01886879775614257,0.02269929836755255,-0.10158805538460076, ,0.01976266346118208,0.02228946439343405,-0.1025098232300889, ,0.0013478188847035027, ,0.02743693075425338,-0.001725225170408903,-0.04157667409911138,-0.07250894743859426,-0.1000874649180127,0.011267241044144082, ,0.04984356929681126, ,0.12359176289706778, ,0.0011737508291365046, ,0.23176693628835177,-0.21140208969902172,0.11366778123000001,1.6785679975936174,0.5816615795014799,-1.2218298458020915, ,0.17222675418960212,0.10626757173400983,0.0448698916056338,-0.03149879024806863,0.08000443071646857,-0.03572866977576113, ,1.3850479125976562
0.01886879775614257,0.02269929836755255,-0.10158805538460076, ,0.019822428399949753,0.022293439185496984,-0.10262160839203535, ,0.0014636819667004166, ,0.02743693075425338,-0.001725225170408903,-0.04157667409911138,-0.07250894743859426,-0.1000874649180127,0.011267241044144082, ,0.04984356929681126, ,0.12359176289706778, ,0.0011756093620696065, ,0.23176693628835177,-0.21140208969902172,0.11366778123000001,1.6785679975936174,0.5816615795014799,-1.2218298458020915, ,0.17222675418960212,0.10626757173400983,0.0448698916056338,-0.03149879024806863,0.08000443071646857,-0.03572866977576113, ,1.3873229026794434
0.01886879775614257,0.02269929836755255,-0.10158805538460076, ,0.01988201784735708,0.022297265754334508,-0.10273266939064571, ,0.0015806284820178095, ,0.02743693075425338,-0.001725225170408903,-0.04157667409911138,-0.07250894743859426,-0.1000874649180127,0.011267241044144082, ,0.04984356929681126, ,0.12359176289706778, ,0.001178189101687111, ,0.23176693628835177,-0.21140208969902172,0.11366778123000001,1.6785679975936174,0.5816615795014799,-1.2218298458020915, ,0.17222675418960212,0.10626757173400983,0.0448698916056338,-0.03149879024806863,0.08000443071646857,-0.03572866977576113, ,1.3895468711853027
0.01886879775614257,0.02269929836755255,-0.10158805538460076, ,0.01994143208219207,0.022300944812518538,-0.10284300854677737, ,0.0016982748280195924, ,0.02743693075425338,-0.001725225170408903,-0.04157667409911138,-0.07250894743859426,-0.1000874649180127,0.011267241044144082, ,0.04984356929681126, ,0.12359176289706778, ,0.001181480783499342, ,0.23176693628835177,-0.21140208969902172,0.11366778123000001,1.6785679975936174,0.5816615795014799,-1.2218298458020915, ,0.17222675418960212,0.10626757173400983,0.0448698916056338,-0.03149879024806863,0.08000443071646857,-0.03572866977576113, ,1.3917748928070068
0.01915348439757832,0.022678738179207764,-0.1020135608221673, ,0.020000671383852885,0.022304477071718475,-0.10295262817736882, ,0.0013189558991479862, ,0.02784986995745353,-0.0018762451735753975,-0.04261848607771216,-0.0716025087314703,-0.059777926670779094,0.01895011342846384, ,0.05094576437894109, ,0.09327475098949718, ,0.0011823454068682013, ,0.23356633304804608,-0.21027457069938496,0.11412796418000001,1.6785679975936174,0.5826180349998381,-1.2222013774272638, ,0.17541024317647097,0.10932827368487416,0.04617046817391306,-0.030428660344917563,0.12443290379523865,-0.03694571329641732, ,1.394010066986084
0.01915348439757832,0.022678738179207764,-0.1020135608221673, ,0.020059736032345878,0.022307863242701263,-0.10306153059544304, ,0.0014342527286873778, ,0.02784986995745353,-0.0018762451735753975,-0.04261848607771216,-0.0716025087314703,-0.059777926670779094,0.01895011342846384, ,0.05094576437894109, ,0.09327475098949718, ,0.0011839198276295713, ,0.23356633304804608,-0.21027457069938496,0.11412796418000001,1.6785679975936174,0.5826180349998381,-1.2222013774272638, ,0.17541024317647097,0.10932827368487416,0.04617046817391306,-0.030428660344917563,0.12443290379523865,-0.03694571329641732, ,1.3962509632110596
0.01915348439757832,0.022678738179207764,-0.1020135608221673, ,0.020118626308284305,0.022311104035332183,-0.10316971811011123, ,0.0015502752807195928, ,0.02784986995745353,-0.0018762451735753975,-0.04261848607771216,-0.0716025087314703,-0.059777926670779094,0.01895011342846384, ,0.05094576437894109, ,0.09327475098949718, ,0.001186195327338205, ,0.23356633304804608,-0.21027457069938496,0.11412796418000001,1.6785679975936174,0.5826180349998381,-1.2222013774272638, ,0.17541024317647097,0.10932827368487416,0.04617046817391306,-0.030428660344917563,0.12443290379523865,-0.03694571329641732, ,1.3985209465026855
0.01915348439757832,0.022678738179207764,-0.1020135608221673, ,0.020177342492885338,0.022314200158572692,-0.10327719302657361, ,0.0016667152473734096, ,0.02784986995745353,-0.0018762451735753975,-0.04261848607771216,-0.0716025087314703,-0.059777926670779094,0.01895011342846384, ,0.05094576437894109, ,0.09327475098949718, ,0.0011891614996841014, ,0.23356633304804608,-0.21027457069938496,0.11412796418000001,1.6785679975936174,0.5826180349998381,-1.2222013774272638, ,0.17541024317647097,0.10932827368487416,0.04617046817391306,-0.030428660344917563,0.12443290379523865,-0.03694571329641732, ,1.400757074356079
0.019437503825234737,0.02267041459265061,-0.10247174169168145, ,0.020235884867969404,0.022317152320482512,-0.10338395764612535, ,0.001262673540499461, ,0.027757642955965747,-0.000301628025194893,-0.046746913023905955,0.014949240678684212,-0.0015469790333834644,-0.003077850263970607, ,0.05436774410623533, ,0.015021641214124075, ,0.001189612493799533, ,0.23520355241738167,-0.20927061542573577,0.11458944342,1.6785679975936174,0.5841210364972579,-1.2231819381475026, ,0.16736673996202958,0.10248049844327299,0.05056765561904762,-0.02466462257876849,0.170378716739391,-0.11515800903645515, ,1.4032340049743652
