NicholasDascanio/dvrk_moveit_final/test/execution/third_experiment_notsharpbends/thirdexp_500vel4.0/thirdexp_500vel4.0_29.csv
Current Position (x),Current Position (y),Current Position (z), ,Planned Position (x),Planned Position (y),Planned Position (z), ,Position Error,,Cartesian linear Velocity(x),Cartesian linear Velocity(y),Cartesian linear Velocity(z),Cartesian Angular Velocity(x),Cartesian Angular Velocity(y),Cartesian Angular Velocity(z), ,Total Linear Velocity, ,Total Angular Velocity, ,MSE, ,Joint 1 Position,Joint 2 Position,Joint 3 Position,Joint 4 Position,Joint 5 Position,Joint 6 Position, ,Joint 1 Velocity,Joint 2 Velocity,Joint 3 Velocity,Joint 4 Velocity,Joint 5 Velocity,Joint 6 Velocity, ,Time Stamp
0.009942622697674049,0.020144370393539737,-0.07969674005936833, ,0.010063276015542365,0.02006414167323952,-0.07978924275550642, ,0.00017190293617753768, ,1.103223149499717e-05,-1.9949417038977646e-05,-3.6661365381137596e-06,-0.016921468422859055,-0.0010935886691786651,0.01431612672848352, ,2.3089606516143836e-05, ,0.016956769437695734, ,1.4325244681461474e-05, ,0.20574132650221516,-0.22865467494003927,0.09198603469000001,1.7924296369057142,0.8296568265757545,-1.1391578954008152, ,0.00016328135701659176,8.616932472214095e-05,0.0,-0.002046256674949713,0.0,0.0205789695943559, ,0.02231287956237793
0.009951694609435,0.020148890181015247,-0.0797181168432492, ,0.01008667718511604,0.020095255841162653,-0.07987964599139316, ,0.0002172293807223727, ,0.0006088968274017866,0.0001754357219467179,-0.0010084073579928413,0.2679902150739345,-0.050623667318188674,-0.22355856093170715, ,0.0011909737354824537, ,0.2727297399773543, ,1.7687832586359562e-05, ,0.2057567719679636,-0.22865467494003927,0.09200547904,1.7924296369057142,0.8291102805766927,-1.1454915592176962, ,0.0003651238162390074,-0.00017963339474381655,0.0007132711850446917,-0.002046256674949713,-0.06066468081241006,-0.3487308607174744, ,0.0450289249420166
0.009980168820334635,0.02015545400078793,-0.07975811748551889, ,0.010110230558503751,0.02012597497527082,-0.07996981566909475, ,0.00025020229737220313, ,0.00017749153226974068,0.00016864208975786535,-0.0005532976620776716,0.17469656827826002,0.004952959354037709,-0.13415056563047967, ,0.0006050468587853156, ,0.17476676679095332, ,1.9979206696003547e-05, ,0.2057567719679636,-0.22866239767291352,0.09205344177000001,1.7926393268491987,0.8252844585832603,-1.1493145508261442, ,0.0006738188707657434,-5.4995528523489233e-05,0.0005968752608547437,0.004555038247392588,0.0,-0.21692939814312084, ,0.07431387901306152
0.010014164962890933,0.020178253733561028,-0.07983989705612571, ,0.010133935406430903,0.02015630129492917,-0.08005975314179915, ,0.0002513236302365854, ,0.0015654164420991765,0.0007086669452859937,-0.0044891438319796945,-0.06388386880380642,-0.10253354045523527,0.029056637926257033, ,0.004806781648955646, ,0.12080676971844, ,2.1206148678778544e-05, ,0.2057567719679636,-0.22868556587153618,0.09210140450000001,1.7930587067361679,0.8232349110867787,-1.153034079119975, ,0.0006365041316065607,0.0008538576175455666,0.003853123251088535,-0.026225692461368893,-0.09991799987161791,0.04008330682574868, ,0.09685802459716797
0.010014164962890933,0.020178253733561028,-0.07983989705612571, ,0.010157791001604334,0.020186237013985982,-0.08014945975789521, ,0.0003413520735101534, ,0.0015654164420991765,0.0007086669452859937,-0.0044891438319796945,-0.06388386880380642,-0.10253354045523527,0.029056637926257033, ,0.004806781648955646, ,0.12080676971844, ,2.369250611574716e-05, ,0.2057567719679636,-0.22868556587153618,0.09210140450000001,1.7930587067361679,0.8232349110867787,-1.153034079119975, ,0.0006365041316065607,0.0008538576175455666,0.003853123251088535,-0.026225692461368893,-0.09991799987161791,0.04008330682574868, ,0.12265300750732422
0.010045793745149745,0.020221307803161438,-0.08001359677939938, ,0.010181796618709915,0.02021578434077854,-0.08023893686097884, ,0.0002632592688198361, ,0.0003209075615316288,0.0006296471501380705,-0.0026887331777593767,-0.008613699321525631,0.033175219664174416,0.03160674935983825, ,0.0027800581464978756, ,0.034275224516075106, ,2.4117251400624005e-05, ,0.20577221743371207,-0.2286932886044104,0.09228936655000002,1.7930587067361679,0.8241913665851368,-1.1473613839747456, ,0.00017917451744942583,-0.00036081404617826867,0.0030259900303951375,-0.012320136138602715,0.03840316814086519,0.01630342999761282, ,0.14455890655517578
0.01005109071817099,0.020227747536339432,-0.08003996579754716, ,0.0102059515344103,0.02024494547813863,-0.08032818578985997, ,0.00032764066532899863, ,0.0007459391908590057,0.0007154491112723188,-0.0032140129573866557,0.005974391905543124,-0.0058723019406167936,0.003916917840276356, ,0.003376117888570992, ,0.008377188572536444, ,2.531819794677343e-05, ,0.2057799401665863,-0.2286932886044104,0.09231788493000001,1.7930587067361679,0.8243280030849022,-1.147636159358723, ,0.0009159467995338252,-0.00033690703792083607,0.0033513173827056596,-0.011333773432183078,-0.0027392782307741298,-0.010441063893187968, ,0.1693739891052246
0.010077069929315946,0.020258258358638013,-0.08016593446064714, ,0.010230255027342566,0.020273722623397872,-0.08041720787856894, ,0.0002946916155849943, ,0.0007949738301652391,0.0008959058573505868,-0.0034196206426393106,0.006229869974033355,-0.003705986840503531,-0.004994329174277759, ,0.003623318373459276, ,0.00724883562289361, ,2.582441302137416e-05, ,0.2057799401665863,-0.22871645680303307,0.09245010651,1.7928490167926832,0.8243280030849022,-1.148371268019988, ,0.0007411415652909386,-0.0009915276851888799,0.003596480361255363,0.0,-0.003279578873848699,-0.007259656728189675, ,0.19677090644836426
0.01010524954574845,0.02029360543885783,-0.08028322328566562, ,0.010254706378115886,0.020302117968394012,-0.08050600445636352, ,0.0002684050258805554, ,0.0007246495539383028,0.0008992046722372522,-0.0030078150784574086,-0.002430133088071289,0.0003352833653640375,-0.002102453735382072, ,0.003221899682608388, ,0.0024531533818021025, ,2.59348575394917e-05, ,0.20580310836520896,-0.2287550704674042,0.09257455035,1.793478086623137,0.8241913665851368,-1.1483415288564323, ,0.0010512724622187308,-0.001591583427682999,0.0032114539354838713,0.006711006636485769,0.0,0.00664279563387268, ,0.21889901161193848
0.010111165276712086,0.020301402912428917,-0.08031004609685564, ,0.010279304869309298,0.020330133699476352,-0.08059457684773537, ,0.00033174407141545333, ,0.000751373829944853,0.0007480350097732911,-0.0034155689363548447,-0.008538717360287017,-0.006783752866647699,0.02787567516723843, ,0.003576343127716451, ,0.010905457195815548, ,2.6908425396521682e-05, ,0.20580310836520896,-0.2287550704674042,0.09260306873000002,1.7936877765666213,0.8241913665851368,-1.1483415288564323, ,0.0009280374293947927,-0.001222625073815464,0.0035714824035874447,-0.025299176066479356,0.0,0.0058647843472427325, ,0.24143600463867188
0.01013245135069172,0.020328296988907993,-0.0804120091502657, ,0.010304049785469276,0.020357771997511594,-0.08068292637241678, ,0.0003220418299046721, ,0.0009458032309024243,0.0009918551196534126,-0.004460027688214934,-0.0031693010741915694,-0.004939368607830574,0.01866691881307151, ,0.004665851188112625, ,0.005868716195057088, ,2.7634479954121473e-05, ,0.20580310836520896,-0.2287859613989011,0.09271066080000001,1.7936877765666213,0.8241913665851368,-1.1481781713761512, ,0.0005333737939729482,-0.0007122976781000293,0.004663001030444965,-0.019426882137651123,0.0,0.0, ,0.2617509365081787
0.010155740296902915,0.020353984776187634,-0.08051133912727806, ,0.01032894041310746,0.02038503503788926,-0.08077105434538741, ,0.00031371068442530157, ,0.0010218526515058538,0.0009960945293874834,-0.004294690954304475,-0.0021473702119903593,-0.005146178136633577,0.014295422248931508, ,0.004525567096602358, ,0.005576230517139462, ,2.818070150738373e-05, ,0.20583399929670584,-0.22880912959752378,0.09281566029,1.7936877765666213,0.8241913665851368,-1.1481781713761512, ,0.0017849626974002404,-0.0008197621432469978,0.004513689861150468,-0.014818773746839818,0.0,0.0, ,0.2827279567718506
0.010174938096402122,0.020374347098488316,-0.08059104723650709, ,0.010353976040698383,0.020411924990527668,-0.08085896207688067, ,0.00032441492746227845, ,0.0010110624660389248,0.0010471263729891747,-0.004304422839749589,-0.001266430432909369,-0.004342264212685261,0.011858216452864568, ,0.004543872460203971, ,0.004523174002457319, ,2.873373755344486e-05, ,0.20586489022820276,-0.22882457506327222,0.09289991914000001,1.7936877765666213,0.8241913665851368,-1.1480964926360107, ,0.001578419099990136,-0.0011843382424894886,0.004534247514944492,-0.012184306554692907,0.0,0.0, ,0.30318689346313477
0.010197815331087608,0.020398456556990872,-0.08068679884715031, ,0.010379155958677022,0.020438444019879275,-0.08094665087239072, ,0.0003193845572727615, ,0.0010881503411052994,0.001290335156757599,-0.004940858464626057,0.0012880835149540397,-0.0006781972969858765,0.0002690386434770865, ,0.005221218090549292, ,0.0014557155527890261, ,2.9177393898640168e-05, ,0.20590350389257386,-0.2288554659947691,0.09300102976,1.793478086623137,0.8241913665851368,-1.1480148138958701, ,0.0006781972969858766,-0.0013158802883166633,0.005217429256469047,0.0,0.0,0.0, ,0.3239288330078125
0.010222558799257177,0.020427151347639286,-0.08078384003817124, ,0.010404479459436693,0.020464594284937163,-0.08103412203267896, ,0.0003116699807944367, ,0.0012035279119379017,0.001291715259855877,-0.004677597111378614,0.0018113212396461478,-0.0012437596706258468,-0.0048838934649223145, ,0.00499969223890188, ,0.0021972301909812223, ,2.951351332128863e-05, ,0.20594984028981922,-0.22888635692626602,0.09310473296,1.7938974665101057,0.8241913665851368,-1.1477697776754483, ,0.0026171731162045048,-0.0015184134830314416,0.004977753600000001,0.0061530315571094235,0.0,0.001123519896429009, ,0.3436758518218994
0.010255302707029398,0.02045932960702188,-0.08090987177720434, ,0.010429945837326454,0.020490377939239666,-0.08112137685378067, ,0.00027604097397129226, ,0.0009764090689128635,0.0010701017690637597,-0.004041520860183313,0.002891999315981941,-0.0003303682413715637,-0.00542357189295241, ,0.004293295159816705, ,0.002910807815759294, ,2.9580734960512468e-05, ,0.20602706761856146,-0.22890952512488869,0.09323825083000001,1.7938974665101057,0.8241913665851368,-1.1475247414550267, ,0.0014951756762299556,-0.0008198685714506485,0.004281938580645162,0.005011911061923678,0.0,-0.0013610207845382652, ,0.3681149482727051
0.010272904489255337,0.02047709894572681,-0.08097566328370194, ,0.010455554388649023,0.02051579713087704,-0.08120841662701186, ,0.0002983834011877887, ,0.0007446078860182637,0.0008365752580400278,-0.0028588868370298566,-0.005825769892884723,-0.000884938461398712,0.0020947578361614513, ,0.0030704287995698427, ,0.005892597961368665, ,2.9776812927239153e-05, ,0.20607340401580682,-0.22893269332351138,0.09330825049000001,1.7938974665101057,0.8241913665851368,-1.1476064201951672, ,0.0016875449381064192,-0.0014148671954804027,0.0030550079631760647,0.004436813740151659,0.0,0.010098932540342604, ,0.3930778503417969
0.010291927296537991,0.020496161166343296,-0.08104363261065442, ,0.010481304411658347,0.020540854002496226,-0.08129524263897576, ,0.00031807035021606274, ,0.0008191141435410993,0.0008260237464254977,-0.0031766575824389975,-0.003200673974280406,-0.0019603729566282056,0.003092449542899748, ,0.003382959740504616, ,0.003753315293874434, ,3.006628711146407e-05, ,0.2061274631459264,-0.22894813878925982,0.09338084273000001,1.7941071564535904,0.8241913665851368,-1.1475247414550267, ,0.001861532186399463,-0.0007559370875143193,0.003368325548741806,0.0,0.0,0.004916137639802384, ,0.41496896743774414
0.010309315610912823,0.020513012688139765,-0.08110833893863509, ,0.010507195206557267,0.020565550691307607,-0.08138185617156946, ,0.0003416551665954218, ,0.0009375494551442591,0.0009855361475372216,-0.00385434602076542,-0.004990920691685117,-0.001721743264121287,0.004412944692048803, ,0.0040873296572131335, ,0.005279553803834429, ,3.062498804905362e-05, ,0.20617379954317175,-0.22896358425500826,0.0934495461,1.7941071564535904,0.8241913665851368,-1.1474430627148862, ,0.0015782823410816034,-0.0007412209660784893,0.004075949723643808,0.0,0.0,0.007131349462837725, ,0.43796682357788086
0.010339578984196608,0.020544143005283955,-0.08122688763612138, ,0.01053322607549524,0.0205898893290899,-0.08146825850199105, ,0.00031281275070056604, ,0.0011868566210107867,0.0011751909353326906,-0.004467726301685713,-0.0034086741207920187,-0.0013248428677245547,-0.0029069283211321973, ,0.0047697254302632094, ,0.0036570843722650713, ,3.098378617766811e-05, ,0.20623558140616552,-0.2289790297207567,0.09357528623000001,1.794316846397075,0.8241913665851368,-1.147279705234605, ,0.0028878079042438894,-0.0006203013811336018,0.0047449542806076855,0.007491130037156002,0.0,0.006873482894853957, ,0.4568939208984375
0.010363392107093406,0.020567920518770592,-0.08131453994689536, ,0.010559396322566023,0.020613872042196002,-0.08155445090274509, ,0.00031318758232867794, ,0.0010633877991006065,0.0010102773115617187,-0.0042253308844411195,-0.0037867138551651593,-0.003922589991354224,0.008908993451969148, ,0.004472680956713141, ,0.005452147532337191, ,3.131534604014188e-05, ,0.20629736326915932,-0.22899447518650518,0.09366861911,1.7945265363405596,0.8241913665851368,-1.1471980264944643, ,0.0022716682271069744,-0.0005257004040773226,0.004455611613986015,-0.006954547760160283,0.0,0.0036349988097489705, ,0.4783198833465576
0.010386716790338405,0.02059007648267242,-0.08140132037279123, ,0.010585705253805297,0.02063750095155897,-0.08164043464165105, ,0.00031467621838081935, ,0.0010928186180486415,0.0010451366088588207,-0.004340100351874272,-0.005190762114748787,-0.0038090741504982813,0.009274191003191061, ,0.004595980213998951, ,0.006438404746207171, ,3.162828969896961e-05, ,0.2063514223992789,-0.22900992065225362,0.09375806312000001,1.7945265363405596,0.8241913665851368,-1.1469529902740427, ,0.0024589288462350464,-0.000542165709038828,0.004605033686036427,-0.006116516828080673,0.0,0.00562118788171892, ,0.4969370365142822
0.010396848674264408,0.020600125487529566,-0.08144046490040219, ,0.010612152177188382,0.020660778172697524,-0.08172621098184846, ,0.00036288451282924034, ,0.0011342405460966498,0.0010848502547845704,-0.004241685181218869,0.0020241554886321457,-0.004309087144819427,0.004276317786514099, ,0.004522753018714102, ,0.004760823047618901, ,3.214405587379347e-05, ,0.2063823133307758,-0.22901764338512784,0.09380213698,1.7945265363405596,0.8241913665851368,-1.1467896327937617, ,0.0030484797365449875,-0.0012242406913604736,0.004498393538548433,-0.0057687844479057315,0.0,-0.002466342738081594, ,0.5152108669281006
0.010427267820823812,0.020627455156445602,-0.08155545392387642, ,0.01063873640262792,0.020683705815721713,-0.08181178118180411, ,0.0003370263504771816, ,0.0011462636352190124,0.0009513229282366591,-0.0038600464509841396,-0.010323694042037746,-0.004273410621031636,0.007837442162716412, ,0.004137498548515701, ,0.011173213331561672, ,3.250547625156195e-05, ,0.20645181792664383,-0.22903308885087628,0.09392269195000001,1.794316846397075,0.8240547300853713,-1.1466782148900652, ,0.004032333247648073,-0.0002445756943115199,0.004099025095213588,0.00010035140717391464,0.0,0.013198974142683851, ,0.5347039699554443
0.0104555159178184,0.020654383451749955,-0.08164710980446634, ,0.010665457241971512,0.020706285985338708,-0.08189714649531861, ,0.0003305867198670404, ,0.0016021808875019271,0.0014841332802860753,-0.005657243808356914,-0.005252422017784383,-0.0020107372799386247,-0.006064507785469879, ,0.00606416051050117, ,0.005624143994176143, ,3.281352389284817e-05, ,0.20655221345400873,-0.22905625704949895,0.09402120999000001,1.794736226284044,0.8240547300853713,-1.1466782148900652, ,0.004737511137117945,-0.00043139692495132,0.006019959002267574,0.012903539067854622,0.0,0.010291429915021456, ,0.5536959171295166
0.010486474249244855,0.020685132556552473,-0.08176700050925961, ,0.010692314008999447,0.020728520780858337,-0.08198230817153376, ,0.00030101484039529275, ,0.001258573072668006,0.0012203625993169737,-0.004603927795382861,-0.003962902297369634,-0.0009117701531151436,-0.005640319067991463, ,0.004926402561520481, ,0.004066437920609521, ,3.297599920614989e-05, ,0.20662171804987675,-0.22907942524812164,0.09414824641000001,1.794736226284044,0.8240547300853713,-1.1466782148900652, ,0.0032933443122113203,-0.00045420356447852884,0.004896652788195512,0.011208734886115712,0.0,0.008289337125943153, ,0.5748398303985596
0.010498584396391614,0.020696024157343805,-0.08181239237105269, ,0.010719306019422272,0.020750412296199176,-0.08206726745493795, ,0.0003415221997278628, ,0.0012503752594843803,0.001187718360235423,-0.004488444415418209,-0.0002806263201328516,-0.00120969353080433,-0.007707055564380708, ,0.0048083517407808115, ,0.0012418163102130254, ,3.3293200047287296e-05, ,0.20665260898137366,-0.22907942524812164,0.09419620914000001,1.794736226284044,0.8240547300853713,-1.1465965361499246, ,0.0034954321702820733,-0.00045420356447852884,0.004776255328335833,0.010369040922725677,0.0,0.0034882727301988555, ,0.5922789573669434
0.010536038249943588,0.020727663256358643,-0.08193525045496002, ,0.010746432590878683,0.020771962619893745,-0.0821520255853739, ,0.00030531896350061106, ,0.0013294345773093577,0.0011891624249963945,-0.004449745813626086,-0.001482952982815976,-0.0027043605977880992,-0.005133498952665654, ,0.004793927552044555, ,0.0030842688027458557, ,3.344724496081423e-05, ,0.2067916181731097,-0.2291025934467443,0.09432713443000001,1.794736226284044,0.8240547300853713,-1.146514857409784, ,0.004550982986840465,-0.0006843962689191152,0.004749198425760287,0.008550377702972374,0.0,0.0048162786703705475, ,0.6115260124206543
0.010549427537522867,0.020738555939326768,-0.08198047597854616, ,0.010773693042932903,0.020793173835094412,-0.08223658379804485, ,0.0003447743416544815, ,0.0013699468709591088,0.0012721411167859135,-0.004861319992346463,0.0007975906657125588,-0.0022066428441029273,-0.006572609450677839, ,0.005208409499862255, ,0.0023463633129707094, ,3.387279737207877e-05, ,0.20683795457035503,-0.2291025934467443,0.09437509716,1.794736226284044,0.8240547300853713,-1.1464331786696436, ,0.004009520966652997,-0.000562220599058593,0.005171692051948053,0.008087180410852893,0.0,0.0017083789262207114, ,0.6267819404602051
0.010564387930010688,0.020753722329933468,-0.0820378511874276, ,0.010801086697072615,0.020814048019579257,-0.08232094332352112, ,0.00037390727818253347, ,0.0013590461032714693,0.0013378642562727385,-0.005418016997994842,-0.0035786249291770117,-0.0027328051222261745,0.0030942946375165726, ,0.005743848472025582, ,0.0045027519975044065, ,3.4385148295591813e-05, ,0.20686884550185194,-0.2291025934467443,0.09443602279,1.7949459162275283,0.8240547300853713,-1.146351499929503, ,0.0026341389427363927,-0.00046072369766264116,0.005723611757096659,0.0,0.0,0.005024418316061244, ,0.6440088748931885
0.0105930106735381,0.020779359243986724,-0.08214098795610285, ,0.010828612876706455,0.020834587245757537,-0.0824051053877471, ,0.00035821299252782306, ,0.0015651570857370103,0.0013022563470961078,-0.005411040641705391,-0.0036185309165432515,-0.005173752678776309,0.0026939175104253423, ,0.005781431407771985, ,0.006313594707956966, ,3.4814042289966555e-05, ,0.20696151829634263,-0.22911031617961852,0.09454620744000002,1.7949459162275283,0.8241913665851368,-1.1464629178331993, ,0.005084928346539459,0.0,0.0057339134341252715,0.0,0.0,0.004512077936932488, ,0.6592600345611572
0.010624731805078896,0.020805267023579536,-0.08224856143941531, ,0.01085627090716183,0.02085479358067545,-0.08248907121204738, ,0.0003375028687028829, ,0.001481578483149867,0.0013050750837781322,-0.005433848315313522,-0.0023243048198605637,-0.004081760101033159,0.0017300037994114896, ,0.005781436092344769, ,0.0046971431403184365, ,3.514786639200611e-05, ,0.20706963655658178,-0.22911031617961852,0.09466028096000001,1.7949459162275283,0.8241913665851368,-1.1463812390930588, ,0.0040247098193176584,0.0,0.005746324502164502,0.0,0.0,0.0028980270489160475, ,0.678462028503418
0.01065400393917132,0.02083014939192982,-0.0823459603906545, ,0.01088406011568249,0.020874669086021872,-0.08257284201313464, ,0.00032616425023629977, ,0.001287373969092587,0.001066889076443661,-0.004249565206919272,0.0008467783771688279,-0.0032111439218474517,-0.0053868502707114276, ,0.004566660539780775, ,0.0033209151631724237, ,3.5426092730520896e-05, ,0.2071700320839467,-0.22911031617961852,0.09476398416000001,1.795155606171013,0.8241913665851368,-1.1462995603529182, ,0.004553115437457059,-2.7691347258087384e-05,0.004521377099063299,0.005948703192869804,0.0,0.00046375635114572253, ,0.695044994354248
0.010668409242011977,0.020841387640672376,-0.08238961904856723, ,0.010911979831426211,0.02089421581813411,-0.08265641900311453, ,0.0003651022652736734, ,0.0015390863162795271,0.0011478531536380481,-0.004563627849931673,0.0007896270889597655,-0.005477265841259186,-0.005062171799519568, ,0.004951065814948099, ,0.005533891041208149, ,3.582310837852099e-05, ,0.20723181394694049,-0.22911803891249274,0.0948106506,1.795155606171013,0.8241913665851368,-1.1462995603529182, ,0.006746940175965803,-5.745720566328356e-05,0.0048756692745638205,0.005632699963084679,0.0,0.000492793528136401, ,0.7106540203094482
0.010688023965161561,0.02085640287378644,-0.08245179937956351, ,0.010940029385462556,0.020913435828003375,-0.08273980338949374, ,0.0003869183369442256, ,0.0015493052766202091,0.001213536789847318,-0.004855876232175067,0.00011352323823819494,-0.00497720783897764,-0.004227143646623152, ,0.005239518333079758, ,0.004978502053646303, ,3.6273957975522906e-05, ,0.20730904127568273,-0.22911803891249274,0.09487676139000001,1.795155606171013,0.8241913665851368,-1.1462178816127777, ,0.006139481133962452,-6.0778183353420235e-05,0.0051750524756335285,0.005223994365717386,0.0,0.001238065694753099, ,0.7291829586029053
0.010731242823294723,0.020889429850725037,-0.0825856286945117, ,0.010968208110770386,0.020932331161280633,-0.0828229963751863, ,0.0003381367855537829, ,0.0014989863601461413,0.0010555030525535806,-0.004412801697247625,-0.0049797987680940846,-0.005737203618215678,-0.00041279055148033, ,0.004778479425621253, ,0.007596966463943696, ,3.654651163159126e-05, ,0.2074866641317899,-0.22912576164536697,0.09501935329000001,1.795155606171013,0.8241913665851368,-1.1460545241324966, ,0.006636901964406383,0.0004994927822609861,0.004702926341895483,0.0045411161584560525,0.0,0.006733601603339976, ,0.7457928657531738
0.010746244649472693,0.020901011850534553,-0.08263046250999107, ,0.010996515342235724,0.020950903858282393,-0.0829059991585197, ,0.00037555968470483306, ,0.001573716759566555,0.001229833679508826,-0.0047457049585220455,-0.004373036811747048,-0.0066573556545748,0.003264028876485872, ,0.005148863065953066, ,0.007965163705865749, ,3.6925417021729536e-05, ,0.2075484459947837,-0.22911803891249274,0.09506731602000001,1.7953652961144975,0.8241913665851368,-1.1460545241324966, ,0.006748011598808943,-0.0008517364372861441,0.0050761030975143406,0.0009749417053081822,0.0,0.006733601603339976, ,0.7613158226013184
0.010795608408064294,0.02093696033700677,-0.08277530177287507, ,0.011024950416649248,0.020969155953996146,-0.08298881293324203, ,0.0003149941749562323, ,0.001480973627181238,0.0009808164389866864,-0.0042059089955583905,-0.0055954597362355375,-0.006879018556950588,0.002897451846721512, ,0.004565627476077288, ,0.008867359508363913, ,3.7215608552244616e-05, ,0.20778012798101042,-0.22912576164536697,0.09522287082000001,1.7953652961144975,0.8243280030849022,-1.1460842632960522, ,0.006969806216895936,0.0005234530813968424,0.004483200540388405,0.0009634988652503869,0.0,0.006576911960248351, ,0.782649040222168
0.010810219018264157,0.020946970823891322,-0.08281654935042473, ,0.01105351267270407,0.020987089478086345,-0.08307143888852894, ,0.0003546406425385054, ,0.0014544001153027422,0.000945692471974145,-0.004038369989317149,-0.005413838980032923,-0.006974096684429592,0.0028194738402420264, ,0.004395229927723758, ,0.008828798105712398, ,3.7616056696223386e-05, ,0.20784963257687844,-0.22912576164536697,0.09526694468,1.7953652961144975,0.8243280030849022,-1.1460842632960522, ,0.007065661212351145,0.00047104182784953535,0.004309743376623377,0.0009527420993712425,0.0,0.006411525673686361, ,0.7958509922027588
0.010821471014011623,0.020954625902097162,-0.08284808068302796, ,0.011082201450993423,0.021004706454899866,-0.08315387820898971, ,0.0004049698129763209, ,0.0016733874164427413,0.0011280868948438769,-0.004773105537896504,-0.005273058778728639,-0.0077203200606895915,0.002778327546637143, ,0.0051822140021158605, ,0.009349250678314368, ,3.8152803620771236e-05, ,0.20790369170699802,-0.22912576164536697,0.09530064822,1.7953652961144975,0.8243280030849022,-1.1460842632960522, ,0.00781194451521039,0.00040999490428374717,0.005090703585810164,0.0009441466321942221,0.0,0.006308175575045737, ,0.8092999458312988
0.010865254281061231,0.020986718345344723,-0.08298070778397633, ,0.011111016094008217,0.02102200890347166,-0.08323613207467412, ,0.00035621041601049383, ,0.0022050539966278373,0.0017117893055107534,-0.007175277598499235,-0.004860752319788853,-0.007983309227984545,0.0026072711506603076, ,0.00769916192647163, ,0.009346663593213315, ,3.8527196545141435e-05, ,0.2080890372959794,-0.22912576164536697,0.09544194383000001,1.7953652961144975,0.8243280030849022,-1.1460842632960522, ,0.008075188979035388,0.0002904010318608828,0.007617796040172167,0.0009130042752740254,0.0,0.005931765638246442, ,0.8228158950805664
0.010884092530694636,0.021003628738034966,-0.08304430633064291, ,0.011139955946134783,0.021038998837530763,-0.08331820166107903, ,0.00037647813128221825, ,0.002314136486003223,0.0018545492749356403,-0.007786926618654333,-0.0021776954837084777,-0.007146653846574995,0.0017071764915378256, ,0.008332515037689585, ,0.007471076909785633, ,3.894718195557892e-05, ,0.20815854189184743,-0.22912576164536697,0.0955106472,1.7955749860579822,0.8244646395846676,-1.1461140024596081, ,0.00790461497205809,0.0002611806494296068,0.008261831701244815,0.0,0.0008510088872116882,0.002578103981110948, ,0.8365159034729004
0.010910734479192163,0.021023593025705264,-0.08312983130192907, ,0.011169020353652668,0.021055678265506,-0.08340008813915553, ,0.00037520636138870347, ,0.0022666215435346465,0.0017416833622663132,-0.007207086815876421,-0.0009131735047660356,-0.007982277939944058,0.0010110768961348183, ,0.007753266055514308, ,0.008034340515296525, ,3.934923669891764e-05, ,0.20825893741921236,-0.22911803891249274,0.09560138750000001,1.7955749860579822,0.8244646395846676,-1.1460323237194676, ,0.008764615390122328,0.0,0.007669143726528648,0.0,0.0008510088872116882,0.001320605201997351, ,0.8496718406677246
0.01095816832296493,0.021058276276536777,-0.083276092419232, ,0.011198208664732041,0.021072049190531197,-0.0834817926753147, ,0.00031642005971186104, ,0.002420240943960206,0.0017883653630964835,-0.007468450166937595,-0.0032431637496683663,-0.009149145415778404,0.0025450762604497038, ,0.008051929259176015, ,0.00970695367819893, ,3.957360720036556e-05, ,0.20845200574106795,-0.22911031617961852,0.09575694230000001,1.7955749860579822,0.8244646395846676,-1.145950644979327, ,0.00988024197602915,0.00021028556352515644,0.00795247704443335,0.0,0.0008510088872116882,0.003967000469287613, ,0.863055944442749
0.010971723239389488,0.021068850807522816,-0.08331913649032346, ,0.011227520229431527,0.021088113610451015,-0.08356331643143533, ,0.00035415674401684336, ,0.0022397881856449755,0.0015224463371498794,-0.0063330576971162515,-0.002061357847645032,-0.008604103113233194,0.002217533364697784, ,0.006887823586667946, ,0.008847585906432684, ,3.989425308172449e-05, ,0.20851378760406175,-0.22911031617961852,0.09580360874,1.7955749860579822,0.8246012760844331,-1.145980384142883, ,0.01066645083713438,0.00019804240220838118,0.006778217668085108,0.0,0.002229690325746895,0.0028054708435365605, ,0.8782718181610107
0.01099750305954265,0.021085583610884667,-0.08338635492439059, ,0.011256954399695865,0.021103873517827214,-0.08364466056486936, ,0.00036656694137143894, ,0.0017472081145926707,0.001017656803604684,-0.004185121818823602,0.0020884727973663115,-0.003801786524316445,0.0010526479869695526, ,0.00464796796503749, ,0.00433766044289841, ,4.023804071113285e-05, ,0.20866824226154626,-0.22911031617961852,0.09587749727000001,1.7955749860579822,0.8248745490839641,-1.1462032199502759, ,0.010553459265150115,0.0001753698384104565,0.004551089005714286,0.0,0.007085136803038193,-0.0012959811042299236, ,0.8918948173522949
0.011035793219202231,0.021106307874800053,-0.08347954622751964, ,0.011286510529353604,0.021119330899943688,-0.08372582622844986, ,0.000351685381629118, ,0.0019399693060044266,0.001264667950828828,-0.0048998400596584665,0.003994647463404895,-0.004231811268266227,0.00042968420475966615, ,0.005419529365574724, ,0.00581940135605207, ,4.0531277778585834e-05, ,0.20888447878202454,-0.22908714798099586,0.0959773116,1.7955749860579822,0.8248745490839641,-1.1461215412101353, ,0.011067728323489921,-0.0006732814515876325,0.005343445662529353,0.0,0.007085136803038193,-0.002631618716962509, ,0.9057629108428955
0.011053219972944407,0.02111719983631764,-0.08352421650414148, ,0.011316187974114671,0.021134487738812387,-0.08380681457049696, ,0.00038641002616393295, ,0.0020540425059451728,0.001432797542129007,-0.005609584370972543,0.004048452488278748,-0.003795002695053038,0.00039004274432964675, ,0.006143243136000713, ,0.005549054644775281, ,4.1013570789795815e-05, ,0.20897715157651522,-0.22908714798099586,0.09602527433000001,1.7955749860579822,0.8248745490839641,-1.1461215412101353, ,0.010574110103975414,-0.0006732814515876325,0.006065807890327494,0.0,0.007085136803038193,-0.0027038292171450143, ,0.9180920124053955
0.011079330776524815,0.021135959105415495,-0.08359262710974422, ,0.011345986091568115,0.02114934601117896,-0.08388762673482389, ,0.000397880692022004, ,0.0022209877744925467,0.0014705105147101616,-0.006104622347133878,0.004634299092962045,-0.0037640100769235478,-0.003426959691054205, ,0.006660450575557545, ,0.005970300785069305, ,4.151308591433734e-05, ,0.20910843803537704,-0.22909487071387008,0.09609916286,1.7957846760014666,0.8248745490839641,-1.1460398624699948, ,0.011224809628357806,0.0004699268688129717,0.0065740039290136205,0.002885943861248615,0.007085136803038193,-0.004098276115136845, ,0.9297568798065186
0.011102437558636364,0.02115212631166642,-0.0836585209759144, ,0.011375904241179794,0.021163907688528546,-0.08396826386074517, ,0.0004133563619993789, ,0.002410077513433346,0.0016502660822077697,-0.006865270881129931,0.0033081358628062312,-0.005732137427884458,-0.0031729474350102645, ,0.007460817383781283, ,0.0066182435077811515, ,4.2039405434612764e-05, ,0.20922427902849042,-0.22909487071387008,0.09617045881000001,1.7957846760014666,0.8250111855837294,-1.1460696016335505, ,0.011393557636987727,0.0004699268688129717,0.007364221692094315,0.002885943861248615,0.00521507463596664,-0.002847418417366741, ,0.9406909942626953
0.011127116702870442,0.021168256027891852,-0.08372778111988875, ,0.011405941784289945,0.021178174737091795,-0.08404872708308192, ,0.0004252624108838863, ,0.0026396455028048415,0.0017437920397869004,-0.007307168997656186,0.003133397772024374,-0.007288519214081887,-0.00320981122566218, ,0.007962616267208266, ,0.007933515809466735, ,4.2582499837922916e-05, ,0.2093401200216038,-0.22908714798099586,0.09624434734000001,1.7957846760014666,0.8250111855837294,-1.1460696016335505, ,0.01294991014717123,0.0006489501062821299,0.007842841713441656,0.002885943861248615,0.00521507463596664,-0.002847418417366741, ,0.9539999961853027
0.01118554248465417,0.021207654278604392,-0.08388840511975253, ,0.011436098084111031,0.02119214911784956,-0.08412901753216942, ,0.0003477252528049941, ,0.0026658658159072106,0.001703147372609442,-0.007078116350760302,0.001968389971614092,-0.00842157418800402,-0.00227667486444793, ,0.007752888661405463, ,0.008648552082195863, ,4.291869124344756e-05, ,0.20964130660369854,-0.22908714798099586,0.09641805020000001,1.7957846760014666,0.8252844585832603,-1.1462107587008028, ,0.01379717091574161,0.0005141893390799247,0.007603251322195704,0.0028205614326112963,0.004905743247904914,-0.001309780880371148, ,0.96726393699646
0.011210752228609119,0.0212243218139185,-0.08395837788187849, ,0.011466372505725204,0.021205832786539792,-0.08420913633386326, ,0.0003585573475026196, ,0.002431870852825539,0.0015919094423712732,-0.006398793063149666,0.011953462823678514,0.002970777532310459,-0.004684053987413443, ,0.007027995744346002, ,0.012317093078167729, ,4.327328210868249e-05, ,0.20978031579543457,-0.22907942524812164,0.09649453131,1.7957846760014666,0.8255577315827912,-1.1464335945081958, ,0.013512308352338144,7.296045501120076e-05,0.0069740856042031524,0.002724371333287608,0.01648967228250819,-0.010755698273009555, ,0.9784979820251465
0.011236048343490793,0.021238912203279604,-0.08402390066326135, ,0.01149676441608203,0.021219227693662024,-0.08428908460954568, ,0.0003724014981081765, ,0.0023186613580962233,0.0014653570595879743,-0.006087483409227026,0.010352716987385113,0.0034875072168859137,-0.0039466864192693124, ,0.006676894192903406, ,0.010924351113409761, ,4.365292952368192e-05, ,0.2099116022542964,-0.2290639797823732,0.09656453097,1.7957846760014666,0.8255577315827912,-1.1463519157680553, ,0.01294991014717123,0.0006343821899431996,0.006628718901373285,0.0026345639068447303,0.01648967228250819,-0.009467667563265942, ,0.9909529685974121
0.011263891349416823,0.021255242146433373,-0.08409582506000982, ,0.011527273183996312,0.021232335784484423,-0.08436886347613336, ,0.0003800587703019703, ,0.002494329169252597,0.0013043862742801713,-0.006051091487728962,-0.018546151315097695,-0.028614883790193255,0.0032960226230491557, ,0.006673740311847679, ,0.03409943247058527, ,4.404185770320971e-05, ,0.2100660569117809,-0.22904853431662472,0.09664230837000001,1.7957846760014666,0.8256943680825566,-1.146381654931611, ,0.012664745970702093,0.001901523901348591,0.006368977017193124,0.002536635760785395,-0.017041638284239144,0.017773679826368707, ,1.0024240016937256
0.011289785255154602,0.021269329075724906,-0.08415689197692114, ,0.011557898180145607,0.02124515899904806,-0.08444847404608297, ,0.0003968486313577125, ,0.0023578854355440766,0.0012718499392522743,-0.005483901995598815,0.0038837522717620693,-0.004132468855349837,-0.0019504550348175666, ,0.006103311158089482, ,0.005671051541754244, ,4.446142858881936e-05, ,0.21020506610351694,-0.2290408115837505,0.09670712287000001,1.7957846760014666,0.8255577315827912,-1.1461885582877742, ,0.014400142876854443,0.0011397599560810142,0.005965847011235956,0.002459988049094525,0.010156807835906981,-0.003426472115477138, ,1.0133509635925293
0.011307297752915831,0.021277373493010676,-0.0841982173024431, ,0.011588638777067853,0.021257699272173976,-0.08452791742739836, ,0.0004338686658793782, ,0.0023631856086509025,0.0012686312600872118,-0.0058112966512093404,0.0022938985768000612,-0.004178104396720221,-0.0018844028173089042, ,0.006400409382481881, ,0.004766394906299915, ,4.506383553358195e-05, ,0.21030546163088185,-0.22901764338512784,0.09675119673000002,1.7957846760014666,0.8255577315827912,-1.1461885582877742, ,0.013578042861420914,0.0020052172617299234,0.006276127470449173,0.0024083869941611854,0.009270032929771325,-0.002703366640279538, ,1.022244930267334
0.01134069669535385,0.02129659780308063,-0.08428566739641988, ,0.011619494349159171,0.021269958533467786,-0.08460719472363709, ,0.0004264007558627246, ,0.002688026138488618,0.0015815364014780966,-0.007164866204833711,0.0005629747097501269,-0.0063559129431508534,-0.001379852251599177, ,0.00781422098763316, ,0.006380795481995945, ,4.563760106674838e-05, ,0.21046763902124055,-0.22899447518650518,0.09684193703,1.7957846760014666,0.8255577315827912,-1.1461885582877742, ,0.013725331437441536,0.0021438437165467754,0.007647053058089295,0.0023216398906081466,0.007331436240264236,-0.0011244873098660859, ,1.0312368869781494
0.011357868894140031,0.021306739253948583,-0.0843323455819654, ,0.01165046427267145,0.021281938707325705,-0.08468630703391708, ,0.0004599085040728021, ,0.0029932199710950604,0.0017822586725370108,-0.008010077907595475,-0.004212034123410015,-0.013054551226004355,-7.242404432915934e-05, ,0.008734824546431647, ,0.01371723391191628, ,4.627815095082646e-05, ,0.21056803454860548,-0.2289790297207567,0.09689508492000001,1.7957846760014666,0.8256943680825566,-1.1462999761914703, ,0.014825330660595342,0.002048086390549706,0.008554678582169711,0.0022793266971393956,0.0013948372409279934,0.0036268887687907394, ,1.0458049774169922
0.01141421888024367,0.02134425846114984,-0.08449862401506412, ,0.011681547925710089,0.021293641712940552,-0.08476525545292335, ,0.0003809451370002594, ,0.0031289638924700313,0.0021961534765550183,-0.00933778295955153,0.024752258740797395,0.01906918972728037,-0.007594623955163653, ,0.01008997996691058, ,0.031245931553289447, ,4.6726280317409875e-05, ,0.21084605293207756,-0.2289404160563856,0.09707526923000001,1.7957846760014666,0.8262409140816184,-1.1467456478062559, ,0.01546308319349369,0.001391307273595697,0.010165163701340142,0.0021697763648476517,0.03535018108561789,-0.024402389030320833, ,1.0551269054412842
0.011446240638466904,0.021363669261435767,-0.08458934974885504, ,0.011712744688231502,0.02130506946430714,-0.08484404107091453, ,0.0003732640008048713, ,0.0034206477998190658,0.0019412345507322719,-0.009041542816451809,-0.01965760688379554,-0.03310395215173581,0.0030856363772223576, ,0.009859955347418925, ,0.038500559684734564, ,4.714886281068704e-05, ,0.21100050758956204,-0.22890952512488869,0.09717249098000001,1.7957846760014666,0.8263775505813838,-1.1466937082296713, ,0.015708813368394435,0.0027732285667744225,0.009521106706515244,0.0021147908114166913,-0.01846164684513666,0.01768955195122724, ,1.0639369487762451
0.011477138135481256,0.021381403694951215,-0.08467077223272802, ,0.01174405394204103,0.021316223870228072,-0.0849226649737298, ,0.0003727497958574658, ,0.003248467674556347,0.001844596064979089,-0.008356645432503224,-0.015117113214376256,-0.02859212692232931,0.002230644205790524, ,0.00915361129610335, ,0.03234249206733813, ,4.756269279858529e-05, ,0.21115496224704655,-0.22888635692626602,0.09725934241,1.7957846760014666,0.8263775505813838,-1.1466937082296713, ,0.015716618343569192,0.002086416964979732,0.008844426163242644,0.002064131077677557,-0.013768329370325719,0.01386246625067946, ,1.0731229782104492
0.011477138135481256,0.021381403694951215,-0.08467077223272802, ,0.011775475070790345,0.021327106834319317,-0.0850011282427953, ,0.000448428555548902, ,0.003248467674556347,0.001844596064979089,-0.008356645432503224,-0.015117113214376256,-0.02859212692232931,0.002230644205790524, ,0.00915361129610335, ,0.03234249206733813, ,4.813769899982039e-05, ,0.21115496224704655,-0.22888635692626602,0.09725934241,1.7957846760014666,0.8263775505813838,-1.1466937082296713, ,0.015716618343569192,0.002086416964979732,0.008844426163242644,0.002064131077677557,-0.013768329370325719,0.01386246625067946, ,1.0830938816070557
0.011538563728569009,0.021412403159847406,-0.08481818475908122, ,0.011807007459975323,0.021337720255015825,-0.0850794319551302, ,0.0003819550636513146, ,0.0028466511864595353,0.0014454487159790753,-0.006445777215823275,-0.0007074964891121934,-0.012193855387184361,-0.0008388905940195097, ,0.007193107039654247, ,0.012214362421293753, ,4.855580996593967e-05, ,0.2114870397606382,-0.22883229779614644,0.09741619350000001,1.7957846760014666,0.8262409140816184,-1.1465006115858343, ,0.01704939661488875,0.0017203389181289217,0.006967984041994751,0.0019618054891712587,0.004651440354707768,0.0002803719503354238, ,1.0929739475250244
0.011538563728569009,0.021412403159847406,-0.08481818475908122, ,0.01183865049693363,0.021348066025577823,-0.08515757718335529, ,0.00045757901290178674, ,0.0028466511864595353,0.0014454487159790753,-0.006445777215823275,-0.0007074964891121934,-0.012193855387184361,-0.0008388905940195097, ,0.007193107039654247, ,0.012214362421293753, ,4.9132080804097276e-05, ,0.2114870397606382,-0.22883229779614644,0.09741619350000001,1.7957846760014666,0.8262409140816184,-1.1465006115858343, ,0.01704939661488875,0.0017203389181289217,0.006967984041994751,0.0019618054891712587,0.004651440354707768,0.0002803719503354238, ,1.1019158363342285
0.011566128015701387,0.02142493509396421,-0.08488211626071863, ,0.011870403570842325,0.021358146034095676,-0.08523556499569712, ,0.0004711373475244152, ,0.0029353711098294953,0.0011926674371907995,-0.006534569416436754,0.00602803736858297,-0.008300268310943772,-0.0067319145293894015, ,0.007262193651121367, ,0.010258249199348863, ,4.983586581521059e-05, ,0.21166466261674535,-0.22879368413177534,0.09748619316000001,1.7957846760014666,0.8265141870811493,-1.1466417686530868, ,0.018176008726004746,0.004841154666416434,0.00703569413427562,0.0019172365547169984,0.009720144686537268,-0.01082998118462181, ,1.108609914779663
0.011594199145795635,0.021438367995703173,-0.0849506632431068, ,0.011902266072715651,0.021367962163495964,-0.0853133964559966, ,0.00048107961545267524, ,0.0031141494118049435,0.0016876857761981986,-0.007934340317494877,0.011714101205596857,-0.0019475670732911137,-0.007110403325073175, ,0.008689071648458856, ,0.011874895920164979, ,5.0552004083044375e-05, ,0.21182684000710408,-0.2287550704674042,0.09756008169000001,1.7957846760014666,0.8266508235809147,-1.1466715078166427, ,0.017138692714190135,0.0030826067964014,0.008563877161290324,0.0018759717249416626,0.015250546129132788,-0.014596330407458023, ,1.1156599521636963
0.011594199145795635,0.021438367995703173,-0.0849506632431068, ,0.011934237395402645,0.021377516291547306,-0.08539107262371479, ,0.000559722577373816, ,0.0031141494118049435,0.0016876857761981986,-0.007934340317494877,0.011714101205596857,-0.0019475670732911137,-0.007110403325073175, ,0.008689071648458856, ,0.011874895920164979, ,5.142768340734627e-05, ,0.21182684000710408,-0.2287550704674042,0.09756008169000001,1.7957846760014666,0.8266508235809147,-1.1466715078166427, ,0.017138692714190135,0.0030826067964014,0.008563877161290324,0.0018759717249416626,0.015250546129132788,-0.014596330407458023, ,1.1245498657226562
0.011621210764543585,0.021452750012718097,-0.0850204561709975, ,0.011966316933584792,0.021386810290866066,-0.0854685945539394, ,0.0005694508978779503, ,0.003420809341867596,0.0018441506869022162,-0.009313404462635441,0.009577426740681983,-0.0008729026177527605,-0.006766805302146482, ,0.010091696140592436, ,0.009617119728981431, ,5.2312902698723486e-05, ,0.21197357193171434,-0.2287241795359073,0.09763526651000001,1.7957846760014666,0.8267874600806802,-1.1467012469801985, ,0.017316960138407077,0.0049968657494484005,0.009980458345864663,0.0018418953707417067,0.016590620102023796,-0.013988592857097259, ,1.1311249732971191
0.011666437668335247,0.0214779246813105,-0.08514957751420964, ,0.011998504083773625,0.021395846028921348,-0.08554596329739243, ,0.0005235711017135604, ,0.003706164716368255,0.0022710245039069777,-0.010761765235970663,0.007707266087203779,0.00041236254620141916,-0.004036956488969852, ,0.01160641202940623, ,0.007718280187853483, ,5.308966624452304e-05, ,0.2121820857193184,-0.22865467494003927,0.09777267325000001,1.7957846760014666,0.8269240965804455,-1.1468943436240353, ,0.017043272550012714,0.00408168117225306,0.011525912821997107,0.0017925202412733495,0.01774398768408979,-0.010312904362198824, ,1.1377229690551758
0.011707265281758687,0.0215002937365342,-0.0852611744072428, ,0.012030798244308579,0.02140462536804179,-0.08562317990043522, ,0.000494847442842532, ,0.004534194079809712,0.002338186266283248,-0.012070541248212063,-0.0026439289215929394,-0.014073605647019859,-0.002515323476589254, ,0.013104350307970473, ,0.014319793288244592, ,5.3796147179489283e-05, ,0.21238287677404824,-0.22860061580991972,0.09789193193000001,1.7957846760014666,0.827060733080211,-1.1470057615277318, ,0.02256227806906105,0.006815978413859718,0.01285618363196126,0.0017543504287703528,0.008465129890819243,-0.0027466180053457726, ,1.144399881362915
0.011707265281758687,0.0215002937365342,-0.0852611744072428, ,0.012063198815354555,0.02141315016542054,-0.08570024540507692, ,0.0005718968643588916, ,0.004534194079809712,0.002338186266283248,-0.012070541248212063,-0.0026439289215929394,-0.014073605647019859,-0.002515323476589254, ,0.013104350307970473, ,0.014319793288244592, ,5.465495141133117e-05, ,0.21238287677404824,-0.22860061580991972,0.09789193193000001,1.7957846760014666,0.827060733080211,-1.1470057615277318, ,0.02256227806906105,0.006815978413859718,0.01285618363196126,0.0017543504287703528,0.008465129890819243,-0.0027466180053457726, ,1.1509628295898438
0.011755844928146974,0.021527548196946716,-0.08539513426063923, ,0.012095705198899387,0.02142142227312072,-0.0857771608489798, ,0.00052221837342529, ,0.004668760219460104,0.0024199786811565493,-0.012704841608702295,0.009304739289655304,-0.005415846831286969,-0.006801949250195538, ,0.013750149784867017, ,0.010766115322365932, ,5.539976122253968e-05, ,0.2126222814931492,-0.22852338848117745,0.09803582012,1.7959943659449509,0.827334006079742,-1.147146918594984, ,0.02318517995564886,0.007567936213811946,0.013567982555366271,0.0,0.0183688841498756,-0.016863848728368845, ,1.1617538928985596
0.011803401695779665,0.0215517639370908,-0.08551923117667452, ,0.012128316798751938,0.02142944353808219,-0.08585392726546662, ,0.0004822380905795744, ,0.004329547039113827,0.0022477910244052524,-0.011374360309064845,0.028822081007177626,0.017853864772189358,-0.010209897320789684, ,0.012376332837061462, ,0.033903873679890596, ,5.605273396409331e-05, ,0.2128771316779986,-0.22845388388530943,0.09816933799000001,1.7959943659449509,0.8276072790792728,-1.1472880756622363, ,0.024288953559885022,0.006308962419668637,0.012357495360744767,0.0,0.04368182124362118,-0.03421870968042127, ,1.1685829162597656
0.011846299757769591,0.021571877052193544,-0.08562705009995347, ,0.012161033020539357,0.02143721580212583,-0.08593054568352668, ,0.00045749344062176624, ,0.004331494038091692,0.0018844182184142135,-0.010668751758088702,0.005660694239484515,-0.0015541735147192447,-0.002496517673010238, ,0.011667696289312473, ,0.0058701598247144285, ,5.6646851497418744e-05, ,0.21310881366422535,-0.2283843792894414,0.09828470780000001,1.7959943659449509,0.8277439155790383,-1.1473994935659328, ,0.02461020268632541,0.008210448634611438,0.011467826868250543,0.0,0.024038472694707363,-0.01189958319715559, ,1.1760759353637695
0.011846299757769591,0.021571877052193544,-0.08562705009995347, ,0.012193853271704976,0.02144474090196052,-0.08600701712782326, ,0.000530407379297371, ,0.004331494038091692,0.0018844182184142135,-0.010668751758088702,0.005660694239484515,-0.0015541735147192447,-0.002496517673010238, ,0.011667696289312473, ,0.0058701598247144285, ,5.749984470049141e-05, ,0.21310881366422535,-0.2283843792894414,0.09828470780000001,1.7959943659449509,0.8277439155790383,-1.1473994935659328, ,0.02461020268632541,0.008210448634611438,0.011467826868250543,0.0,0.024038472694707363,-0.01189958319715559, ,1.1804900169372559
0.011892375919659273,0.02158933263880551,-0.0857359727348721, ,0.012226776961505866,0.021452020669187638,-0.08608334261869942, ,0.000501342667223358, ,0.004293826553821043,0.001514054779996257,-0.009876611743102762,-0.0029873749768940675,-0.009851030044356971,-0.0008559348116766422, ,0.010875512304030721, ,0.010294032650347956, ,5.828669394249218e-05, ,0.21336366384907476,-0.2282839837620765,0.09840007761000001,1.7959943659449509,0.8277439155790383,-1.1473178148257923, ,0.025530519655224855,0.010120677589209004,0.010562872360742707,0.0,0.016409582145896235,-0.005088339039066474, ,1.1849148273468018
0.011892375919659273,0.02158933263880551,-0.0857359727348721, ,0.012259803501010602,0.021459056930308064,-0.08615952317218553, ,0.0005756472537158481, ,0.004293826553821043,0.001514054779996257,-0.009876611743102762,-0.0029873749768940675,-0.009851030044356971,-0.0008559348116766422, ,0.010875512304030721, ,0.010294032650347956, ,5.921787825452233e-05, ,0.21336366384907476,-0.2282839837620765,0.09840007761000001,1.7959943659449509,0.8277439155790383,-1.1473178148257923, ,0.025530519655224855,0.010120677589209004,0.010562872360742707,0.0,0.016409582145896235,-0.005088339039066474, ,1.1894328594207764
0.01193417015337194,0.02160380889448276,-0.08583189463106695, ,0.012292932303096868,0.021465851506726648,-0.08623555980000537, ,0.000557394016406548, ,0.004801550937289767,0.0017393870551155963,-0.011164469394119058,-0.006220486420229907,-0.026807819329109014,-0.005522788260703249, ,0.012277040994600984, ,0.027520055505575788, ,6.010466261795163e-05, ,0.21361079130104993,-0.22818358823471158,0.09850248452000002,1.7959943659449509,0.8278805520788037,-1.1473475539893483, ,0.02691348314193726,0.010828039885722363,0.011825398307349667,0.0,0.0,-0.0054266845738069735, ,1.1941518783569336
0.01193417015337194,0.02160380889448276,-0.08583189463106695, ,0.012326162782449086,0.0214724062147588,-0.08631145350958273, ,0.0006331679109468223, ,0.004801550937289767,0.0017393870551155963,-0.011164469394119058,-0.006220486420229907,-0.026807819329109014,-0.005522788260703249, ,0.012277040994600984, ,0.027520055505575788, ,6.11367724483559e-05, ,0.21361079130104993,-0.22818358823471158,0.09850248452000002,1.7959943659449509,0.8278805520788037,-1.1473475539893483, ,0.02691348314193726,0.010828039885722363,0.011825398307349667,0.0,0.0,-0.0054266845738069735, ,1.1991949081420898
0.01193417015337194,0.02160380889448276,-0.08583189463106695, ,0.012359494355556144,0.021478722865635413,-0.0863872053040483, ,0.0007105752142478791, ,0.004801550937289767,0.0017393870551155963,-0.011164469394119058,-0.006220486420229907,-0.026807819329109014,-0.005522788260703249, ,0.012277040994600984, ,0.027520055505575788, ,6.231573370958067e-05, ,0.21390425515027048,-0.22805230177584976,0.09863211352000001,1.7957846760014666,0.8285637345776309,-1.1479046435078304, ,0.029307270401010124,0.013373300670584946,0.01366107334476844,-0.0022898691003601424,0.08729670018327851,-0.07661129008355676, ,1.2048249244689941
0.011981527926164736,0.021620314807255726,-0.08595122632776035, ,0.012392926440709032,0.021484803265509313,-0.08646281618224641, ,0.0006703255141562266, ,0.004764323992876183,0.0019010369135953223,-0.012466864296843051,0.06296369557482745,0.05457907165961407,-0.023305051127528877, ,0.013480928374998796, ,0.08332647671966306, ,6.340494338370654e-05, ,0.21390425515027048,-0.22805230177584976,0.09863211352000001,1.7957846760014666,0.8285637345776309,-1.1479046435078304, ,0.029307270401010124,0.013373300670584946,0.01366107334476844,-0.0022898691003601424,0.08729670018327851,-0.07661129008355676, ,1.2097899913787842
0.012037267829013603,0.021643359351498685,-0.08609639940738648, ,0.012426458457998491,0.021490649215460077,-0.08653828713874148, ,0.0006083210488390623, ,0.005841946824402831,0.0024906926496593923,-0.015242136878997182,0.014955211487684623,-0.0016083108172434456,-0.009960143073160352, ,0.016512256938780466, ,0.01504141587914404, ,6.436222203593646e-05, ,0.21420544173236522,-0.22791329258411372,0.09878766832000001,1.7957846760014666,0.8289736440769272,-1.1480755397386384, ,0.030621794630032523,0.013445302006017396,0.016270491848825334,-0.0022898691003601424,0.03049441616120647,-0.0290587192534444, ,1.2144839763641357
0.012037267829013603,0.021643359351498685,-0.08609639940738648, ,0.012460089829312801,0.021496262511501007,-0.08661361916382483, ,0.0006840557000160655, ,0.005841946824402831,0.0024906926496593923,-0.015242136878997182,0.014955211487684623,-0.0016083108172434456,-0.009960143073160352, ,0.016512256938780466, ,0.01504141587914404, ,6.546188788929131e-05, ,0.21420544173236522,-0.22791329258411372,0.09878766832000001,1.7957846760014666,0.8289736440769272,-1.1480755397386384, ,0.030621794630032523,0.013445302006017396,0.016270491848825334,-0.0022898691003601424,0.03049441616120647,-0.0290587192534444, ,1.2188959121704102
0.012037267829013603,0.021643359351498685,-0.08609639940738648, ,0.012493819978335199,0.02150164494458324,-0.08668881324352087, ,0.0007612338611892134, ,0.005841946824402831,0.0024906926496593923,-0.015242136878997182,0.014955211487684623,-0.0016083108172434456,-0.009960143073160352, ,0.016512256938780466, ,0.01504141587914404, ,6.670510304789215e-05, ,0.21452979651308265,-0.22775883792662924,0.0989587786,1.7957846760014666,0.8289736440769272,-1.1479938609984979, ,0.033496979018168296,0.017502202426866613,0.018080376299659483,-0.0022898691003601424,0.017116135517084647,-0.014637077749991166, ,1.2235009670257568
0.01210139159101354,0.021668606235226602,-0.08625862574326496, ,0.012527648330541805,0.0215067983006028,-0.08676387035959478, ,0.0006805503199843176, ,0.006592091225435532,0.0025446764898244224,-0.017086247590283238,-0.002883811374609687,-0.017472870465592094,-0.005758282903127005, ,0.018489751266006504, ,0.017709209866901013, ,6.778003450936274e-05, ,0.21452979651308265,-0.22775883792662924,0.0989587786,1.7957846760014666,0.8289736440769272,-1.1479938609984979, ,0.033496979018168296,0.017502202426866613,0.018080376299659483,-0.0022898691003601424,0.017116135517084647,-0.014637077749991166, ,1.2286608219146729
0.01210139159101354,0.021668606235226602,-0.08625862574326496, ,0.012561574313199111,0.021511724360405365,-0.0868387914895579, ,0.0007569493732193764, ,0.006592091225435532,0.0025446764898244224,-0.017086247590283238,-0.002883811374609687,-0.017472870465592094,-0.005758282903127005, ,0.018489751266006504, ,0.017709209866901013, ,6.899606054498046e-05, ,0.21452979651308265,-0.22775883792662924,0.0989587786,1.7957846760014666,0.8289736440769272,-1.1479938609984979, ,0.033496979018168296,0.017502202426866613,0.018080376299659483,-0.0022898691003601424,0.017116135517084647,-0.014637077749991166, ,1.2330379486083984
0.012168974861375905,0.021694169658694445,-0.08643509320875549, ,0.012595597355361697,0.021516424899792393,-0.08691357760667524, ,0.0006652422647009395, ,0.0068868287799158405,0.002559729532425616,-0.017695744192194496,0.007362570816554189,-0.018278439777635113,-0.01440631478154247, ,0.01916037547749611, ,0.019705508736262287, ,7.002383860270166e-05, ,0.21488504222529697,-0.22756576960477362,0.09914674065000001,1.7957846760014666,0.8293835535762235,-1.1482464359694464, ,0.03521222321279064,0.018903773218818882,0.018717757367802585,-0.0022898691003601424,0.01777747004267078,-0.028951225887454444, ,1.2375609874725342
0.012210132896019545,0.021710321321583795,-0.08654364322282106, ,0.012629716887869954,0.02152090168952691,-0.08698822967997208, ,0.0006399903445426246, ,0.006608566107388216,0.0023936287635207562,-0.017134007820603456,0.05319376142099772,0.03483569789084007,-0.0271105043801657, ,0.018519633599231238, ,0.06358538059135374, ,7.099460106355063e-05, ,0.2151090014786495,-0.22744992861166025,0.09926340675,1.7957846760014666,0.8297934630755199,-1.148580689680536, ,0.03730225690191462,0.019969895109105806,0.018457487276940906,-0.0022898691003601424,0.07494873290929292,-0.07511959676006547, ,1.2456059455871582
0.012210132896019545,0.021710321321583795,-0.08654364322282106, ,0.012663932343347705,0.02152515649533905,-0.0870627486742405, ,0.0007139260612745414, ,0.006608566107388216,0.0023936287635207562,-0.017134007820603456,0.05319376142099772,0.03483569789084007,-0.0271105043801657, ,0.018519633599231238, ,0.06358538059135374, ,7.224059226550992e-05, ,0.2151090014786495,-0.22744992861166025,0.09926340675,1.7957846760014666,0.8297934630755199,-1.148580689680536, ,0.03730225690191462,0.019969895109105806,0.018457487276940906,-0.0022898691003601424,0.07494873290929292,-0.07511959676006547, ,1.2478909492492676
0.012210132896019545,0.021710321321583795,-0.08654364322282106, ,0.012698243156199742,0.021529191077931224,-0.08713713555004565, ,0.0007894890333204674, ,0.006608566107388216,0.0023936287635207562,-0.017134007820603456,0.05319376142099772,0.03483569789084007,-0.0271105043801657, ,0.018519633599231238, ,0.06358538059135374, ,7.362792000449437e-05, ,0.2151090014786495,-0.22744992861166025,0.09926340675,1.7957846760014666,0.8297934630755199,-1.148580689680536, ,0.03730225690191462,0.019969895109105806,0.018457487276940906,-0.0022898691003601424,0.07494873290929292,-0.07511959676006547, ,1.2501838207244873
0.012210132896019545,0.021710321321583795,-0.08654364322282106, ,0.012732648762609796,0.021533007192984847,-0.08721139126373276, ,0.0008662277859667045, ,0.006608566107388216,0.0023936287635207562,-0.017134007820603456,0.05319376142099772,0.03483569789084007,-0.0271105043801657, ,0.018519633599231238, ,0.06358538059135374, ,7.515803557584999e-05, ,0.2151090014786495,-0.22744992861166025,0.09926340675,1.7957846760014666,0.8297934630755199,-1.148580689680536, ,0.03730225690191462,0.019969895109105806,0.018457487276940906,-0.0022898691003601424,0.07494873290929292,-0.07511959676006547, ,1.2524259090423584
0.012304086504465047,0.021735590250539696,-0.086762144115423, ,0.012767148600537894,0.021536606591165405,-0.0872855167674341, ,0.0007265947525206103, ,0.0069833605361659225,0.0018691266405791878,-0.01556654400202444,0.011048581299129974,-0.011203424072172832,-0.013426943247882385, ,0.01716328205628415, ,0.015734895793529467, ,7.641321229443335e-05, ,0.21565731551271944,-0.22715646476243972,0.09949544266000002,1.7955749860579822,0.8302033725748161,-1.1489966221317656, ,0.04221394197440871,0.021172900838570007,0.016609813889468198,-0.0024396374177764668,0.032539549178267846,-0.03320313024117759, ,1.2547178268432617
0.012304086504465047,0.021735590250539696,-0.086762144115423, ,0.012801742109718139,0.021539991018127848,-0.08735951300907523, ,0.0008017292287694181, ,0.0069833605361659225,0.0018691266405791878,-0.01556654400202444,0.011048581299129974,-0.011203424072172832,-0.013426943247882385, ,0.01716328205628415, ,0.015734895793529467, ,0.000425896699048214, ,0.21565731551271944,-0.22715646476243972,0.09949544266000002,1.7955749860579822,0.8302033725748161,-1.1489966221317656, ,0.04221394197440871,0.021172900838570007,0.016609813889468198,-0.0024396374177764668,0.032539549178267846,-0.03320313024117759, ,1.25699782371521
0.012304086504465047,0.021735590250539696,-0.086762144115423, ,0.012836428731656436,0.021543162214522977,-0.08743338093238141, ,0.0008780521968179323, ,0.0069833605361659225,0.0018691266405791878,-0.01556654400202444,0.011048581299129974,-0.011203424072172832,-0.013426943247882385, ,0.01716328205628415, ,0.015734895793529467, ,0.0004306066521499819, ,0.21565731551271944,-0.22715646476243972,0.09949544266000002,1.7955749860579822,0.8302033725748161,-1.1489966221317656, ,0.04221394197440871,0.021172900838570007,0.016609813889468198,-0.0024396374177764668,0.032539549178267846,-0.03320313024117759, ,1.2592408657073975
0.012304086504465047,0.021735590250539696,-0.086762144115423, ,0.012871207909628082,0.021546121916002983,-0.08750712147688516, ,0.0009552571418614637, ,0.0069833605361659225,0.0018691266405791878,-0.01556654400202444,0.011048581299129974,-0.011203424072172832,-0.013426943247882385, ,0.01716328205628415, ,0.015734895793529467, ,0.0004360154200851518, ,0.21565731551271944,-0.22715646476243972,0.09949544266000002,1.7955749860579822,0.8302033725748161,-1.1489966221317656, ,0.04221394197440871,0.021172900838570007,0.016609813889468198,-0.0024396374177764668,0.032539549178267846,-0.03320313024117759, ,1.2614719867706299
0.012304086504465047,0.021735590250539696,-0.086762144115423, ,0.01290607908867544,0.021548871853226455,-0.08758073557793175, ,0.0010331267172190163, ,0.008968433368239383,0.002327480097718003,-0.020911116156425758,-0.010187290162970484,-0.03254772101249909,-0.00982404988062894, ,0.022871920330251094, ,0.03410470679500945, ,0.0004421083925048851, ,0.21613612495092135,-0.2268938918447161,0.09969247874,1.7953652961144975,0.8304766455743471,-1.149137779199018, ,0.05018346988813896,0.02976692018772609,0.022062065817174518,-0.003926375724728847,0.019070753587179433,-0.02047325314432867, ,1.2637989521026611
0.012385785085065663,0.02175558217778915,-0.08694822379032816, ,0.012941041715605622,0.021551413751864958,-0.0876542241666871, ,0.000921103253344553, ,0.008968433368239383,0.002327480097718003,-0.020911116156425758,-0.010187290162970484,-0.03254772101249909,-0.00982404988062894, ,0.022871920330251094, ,0.03410470679500945, ,0.0004469467244325585, ,0.21613612495092135,-0.2268938918447161,0.09969247874,1.7953652961144975,0.8304766455743471,-1.149137779199018, ,0.05018346988813896,0.02976692018772609,0.022062065817174518,-0.003926375724728847,0.019070753587179433,-0.02047325314432867, ,1.266028881072998
0.012385785085065663,0.02175558217778915,-0.08694822379032816, ,0.0129760952389881,0.021553749332608126,-0.08772758817014328, ,0.0009983042681179016, ,0.008968433368239383,0.002327480097718003,-0.020911116156425758,-0.010187290162970484,-0.03254772101249909,-0.00982404988062894, ,0.022871920330251094, ,0.03410470679500945, ,0.000452460299869412, ,0.21613612495092135,-0.2268938918447161,0.09969247874,1.7953652961144975,0.8304766455743471,-1.149137779199018, ,0.05018346988813896,0.02976692018772609,0.022062065817174518,-0.003926375724728847,0.019070753587179433,-0.02047325314432867, ,1.2682969570159912
0.012385785085065663,0.02175558217778915,-0.08694822379032816, ,0.013011239109152493,0.021555880311169787,-0.08780082851112572, ,0.0010761079786452499, ,0.008968433368239383,0.002327480097718003,-0.020911116156425758,-0.010187290162970484,-0.03254772101249909,-0.00982404988062894, ,0.022871920330251094, ,0.03410470679500945, ,0.000458635029362242, ,0.21613612495092135,-0.2268938918447161,0.09969247874,1.7953652961144975,0.8304766455743471,-1.149137779199018, ,0.05018346988813896,0.02976692018772609,0.022062065817174518,-0.003926375724728847,0.019070753587179433,-0.02047325314432867, ,1.2705798149108887
0.012385785085065663,0.02175558217778915,-0.08694822379032816, ,0.013046472778186127,0.021557808398293354,-0.08787394610830018, ,0.0011543762409580317, ,0.008968433368239383,0.002327480097718003,-0.020911116156425758,-0.010187290162970484,-0.03254772101249909,-0.00982404988062894, ,0.022871920330251094, ,0.03410470679500945, ,0.000465456021632789, ,0.21613612495092135,-0.2268938918447161,0.09969247874,1.7953652961144975,0.8304766455743471,-1.149137779199018, ,0.05018346988813896,0.02976692018772609,0.022062065817174518,-0.003926375724728847,0.019070753587179433,-0.02047325314432867, ,1.272871971130371
0.012385785085065663,0.02175558217778915,-0.08694822379032816, ,0.013081795699931597,0.021559535299757265,-0.08794694187617845, ,0.0012330056647868986, ,0.008968433368239383,0.002327480097718003,-0.020911116156425758,-0.010187290162970484,-0.03254772101249909,-0.00982404988062894, ,0.022871920330251094, ,0.03410470679500945, ,0.0004729079599158386, ,0.2166226571219975,-0.2266081507283698,0.09993229239000001,1.7949459162275283,0.8312964645729397,-1.149724607881056, ,0.05530124799444684,0.030106897702560524,0.029173647472527476,-0.016945949423016263,0.12971759485268847,-0.11581970419902728, ,1.2755248546600342
0.01247317189554204,0.021781611324471536,-0.0871727787603052, ,0.013117207329984764,0.02156106271638169,-0.08801981672512645, ,0.0010866906842320473, ,0.010103816175155038,0.0037789011809651178,-0.02704180683332938,0.08218082793041914,0.06644966095806772,-0.025277271911758242, ,0.029114026039830418, ,0.10568458478146388, ,0.0004788097168804175, ,0.2166226571219975,-0.2266081507283698,0.09993229239000001,1.7949459162275283,0.8312964645729397,-1.149724607881056, ,0.05530124799444684,0.030106897702560524,0.029173647472527476,-0.016945949423016263,0.12971759485268847,-0.11581970419902728, ,1.2778668403625488
0.01247317189554204,0.021781611324471536,-0.0871727787603052, ,0.01315270712569207,0.02156239234403276,-0.08809257156136936, ,0.0011644070968905708, ,0.010103816175155038,0.0037789011809651178,-0.02704180683332938,0.08218082793041914,0.06644966095806772,-0.025277271911758242, ,0.029114026039830418, ,0.10568458478146388, ,0.00048533921573765706, ,0.2166226571219975,-0.2266081507283698,0.09993229239000001,1.7949459162275283,0.8312964645729397,-1.149724607881056, ,0.05530124799444684,0.030106897702560524,0.029173647472527476,-0.016945949423016263,0.12971759485268847,-0.11581970419902728, ,1.2802259922027588
0.01247317189554204,0.021781611324471536,-0.0871727787603052, ,0.013188294546148338,0.021563525873629672,-0.08816520728699906, ,0.00124252808816333, ,0.010103816175155038,0.0037789011809651178,-0.02704180683332938,0.08218082793041914,0.06644966095806772,-0.025277271911758242, ,0.029114026039830418, ,0.10568458478146388, ,0.0004924825069869559, ,0.2166226571219975,-0.2266081507283698,0.09993229239000001,1.7949459162275283,0.8312964645729397,-1.149724607881056, ,0.05530124799444684,0.030106897702560524,0.029173647472527476,-0.016945949423016263,0.12971759485268847,-0.11581970419902728, ,1.2825708389282227
0.012587975547891858,0.021825626520460096,-0.08748304573808187, ,0.013223969052194504,0.021564464991149213,-0.0882377247999809, ,0.0010208984123682276, ,0.01164328143123459,0.004266685144366719,-0.03135905821251741,0.028125176701500287,0.00599504312357392,0.005269318537975357, ,0.03372181988837713, ,0.02875649110286754, ,0.0004974209733923883, ,0.217225030286187,-0.22627607321477813,0.10026543892,1.794736226284044,0.8325261930708286,-1.1507273690143236, ,0.05797003149570604,0.03362754839067001,0.033323873472803356,-0.03627297030177469,0.07439657939235894,-0.06965170833851261, ,1.28501296043396
0.012587975547891858,0.021825626520460096,-0.08748304573808187, ,0.013259730106415216,0.021565211377632395,-0.08831012499416013, ,0.0010968729777626296, ,0.01164328143123459,0.004266685144366719,-0.03135905821251741,0.028125176701500287,0.00599504312357392,0.005269318537975357, ,0.03372181988837713, ,0.02875649110286754, ,0.000502971454914335, ,0.217225030286187,-0.22627607321477813,0.10026543892,1.794736226284044,0.8325261930708286,-1.1507273690143236, ,0.05797003149570604,0.03362754839067001,0.033323873472803356,-0.03627297030177469,0.07439657939235894,-0.06965170833851261, ,1.287405014038086
0.012587975547891858,0.021825626520460096,-0.08748304573808187, ,0.013295577173136432,0.02156576670918947,-0.0883824087592682, ,0.001173490956692795, ,0.01164328143123459,0.004266685144366719,-0.03135905821251741,0.028125176701500287,0.00599504312357392,0.005269318537975357, ,0.03372181988837713, ,0.02875649110286754, ,0.0005091230099765226, ,0.217225030286187,-0.22627607321477813,0.10026543892,1.794736226284044,0.8325261930708286,-1.1507273690143236, ,0.05797003149570604,0.03362754839067001,0.033323873472803356,-0.03627297030177469,0.07439657939235894,-0.06965170833851261, ,1.2896449565887451
0.012587975547891858,0.021825626520460096,-0.08748304573808187, ,0.013331509718423182,0.02156613265700569,-0.08845457698093039, ,0.0012506210792038413, ,0.01164328143123459,0.004266685144366719,-0.03135905821251741,0.028125176701500287,0.00599504312357392,0.005269318537975357, ,0.03372181988837713, ,0.02875649110286754, ,0.0005158639015149528, ,0.217225030286187,-0.22627607321477813,0.10026543892,1.794736226284044,0.8325261930708286,-1.1507273690143236, ,0.05797003149570604,0.03362754839067001,0.033323873472803356,-0.03627297030177469,0.07439657939235894,-0.06965170833851261, ,1.291860818862915
0.012587975547891858,0.021825626520460096,-0.08748304573808187, ,0.013367527210077222,0.021566310887347735,-0.08852663054067139, ,0.0013281621255660926, ,0.01164328143123459,0.004266685144366719,-0.03135905821251741,0.028125176701500287,0.00599504312357392,0.005269318537975357, ,0.03372181988837713, ,0.02875649110286754, ,0.0005231819035334316, ,0.217225030286187,-0.22627607321477813,0.10026543892,1.794736226284044,0.8325261930708286,-1.1507273690143236, ,0.05797003149570604,0.03362754839067001,0.033323873472803356,-0.03627297030177469,0.07439657939235894,-0.06965170833851261, ,1.2944679260253906
0.012717592718025517,0.021871631669070815,-0.08783003076745088, ,0.01340362911763462,0.021566303061568176,-0.08859857031592261, ,0.0010744880351652329, ,0.013171231753609245,0.004354412795783295,-0.03542489128273686,-0.004313041445826,-0.02518223920947394,0.006519153105416725, ,0.038044252904967026, ,0.02554783180390159, ,0.0005281042797087154, ,0.21785057164899918,-0.22588221383819268,0.10063228899000001,1.7945265363405596,0.8330727390698903,-1.1511730406291094, ,0.062432198393730785,0.04276563387042396,0.03730400824355972,-0.032380251061799356,0.045859136838555754,-0.04542064082536392, ,1.2969889640808105
0.012717592718025517,0.021871631669070815,-0.08783003076745088, ,0.01343981491236355,0.021566110836112595,-0.08867039718002849, ,0.001149418803028071, ,0.013171231753609245,0.004354412795783295,-0.03542489128273686,-0.004313041445826,-0.02518223920947394,0.006519153105416725, ,0.038044252904967026, ,0.02554783180390159, ,0.0005336026383221612, ,0.21785057164899918,-0.22588221383819268,0.10063228899000001,1.7945265363405596,0.8330727390698903,-1.1511730406291094, ,0.062432198393730785,0.04276563387042396,0.03730400824355972,-0.032380251061799356,0.045859136838555754,-0.04542064082536392, ,1.2992098331451416
0.012717592718025517,0.021871631669070815,-0.08783003076745088, ,0.013476084067261758,0.021565735862523527,-0.08874211200225338, ,0.0012250606312376, ,0.013171231753609245,0.004354412795783295,-0.03542489128273686,-0.004313041445826,-0.02518223920947394,0.006519153105416725, ,0.038044252904967026, ,0.02554783180390159, ,0.0005396680593126474, ,0.21785057164899918,-0.22588221383819268,0.10063228899000001,1.7945265363405596,0.8330727390698903,-1.1511730406291094, ,0.062432198393730785,0.04276563387042396,0.03730400824355972,-0.032380251061799356,0.045859136838555754,-0.04542064082536392, ,1.3014249801635742
0.012717592718025517,0.021871631669070815,-0.08783003076745088, ,0.013512436057054489,0.021565179787448006,-0.08881371564778852, ,0.001301278076797481, ,0.013171231753609245,0.004354412795783295,-0.03542489128273686,-0.004313041445826,-0.02518223920947394,0.006519153105416725, ,0.038044252904967026, ,0.02554783180390159, ,0.0005462907551168634, ,0.21785057164899918,-0.22588221383819268,0.10063228899000001,1.7945265363405596,0.8330727390698903,-1.1511730406291094, ,0.062432198393730785,0.04276563387042396,0.03730400824355972,-0.032380251061799356,0.045859136838555754,-0.04542064082536392, ,1.3037528991699219
0.012855619328739683,0.021918080337166333,-0.0881966820030004, ,0.013548870358191894,0.02156444425264181,-0.08888520897775762, ,0.0010390981017607082, ,0.013899074862759144,0.004524243997947798,-0.03635925497810246,0.03528517114418288,0.01536814243738705,-0.012112099145555591, ,0.03918735112706929, ,0.03848583584387848, ,0.000550539094312069, ,0.21853017214193096,-0.22542657259861343,0.10102117599,1.7945265363405596,0.8338925580684831,-1.151841548051288, ,0.070713071206014,0.044385847314532635,0.03866216388349515,-0.0242139218804386,0.09447531634904516,-0.08431077210415328, ,1.3060038089752197
0.012855619328739683,0.021918080337166333,-0.0881966820030004, ,0.013585386448846833,0.021563530894976042,-0.0889565928492248, ,0.0011116338654235081, ,0.013899074862759144,0.004524243997947798,-0.03635925497810246,0.03528517114418288,0.01536814243738705,-0.012112099145555591, ,0.03918735112706929, ,0.03848583584387848, ,0.0005553347761164403, ,0.21853017214193096,-0.22542657259861343,0.10102117599,1.7945265363405596,0.8338925580684831,-1.151841548051288, ,0.070713071206014,0.044385847314532635,0.03866216388349515,-0.0242139218804386,0.09447531634904516,-0.08431077210415328, ,1.3082058429718018
0.012855619328739683,0.021918080337166333,-0.0881966820030004, ,0.01362198380891255,0.02156244134644225,-0.08902786811520033, ,0.0011851852012693639, ,0.013899074862759144,0.004524243997947798,-0.03635925497810246,0.03528517114418288,0.01536814243738705,-0.012112099145555591, ,0.03918735112706929, ,0.03848583584387848, ,0.000560672491583838, ,0.21853017214193096,-0.22542657259861343,0.10102117599,1.7945265363405596,0.8338925580684831,-1.151841548051288, ,0.070713071206014,0.044385847314532635,0.03866216388349515,-0.0242139218804386,0.09447531634904516,-0.08431077210415328, ,1.3105089664459229
0.012855619328739683,0.021918080337166333,-0.0881966820030004, ,0.013658661920000294,0.02156117723415865,-0.0890990356246478, ,0.0012595631333185474, ,0.013899074862759144,0.004524243997947798,-0.03635925497810246,0.03528517114418288,0.01536814243738705,-0.012112099145555591, ,0.03918735112706929, ,0.03848583584387848, ,0.0005665455221866506, ,0.21853017214193096,-0.22542657259861343,0.10102117599,1.7945265363405596,0.8338925580684831,-1.151841548051288, ,0.070713071206014,0.044385847314532635,0.03866216388349515,-0.0242139218804386,0.09447531634904516,-0.08431077210415328, ,1.313035011291504
0.012994728619130914,0.02195373446152323,-0.08854961573361986, ,0.013695420265436896,0.02155974018037525,-0.08917009622249043, ,0.0010154783670021576, ,0.014162268449066444,0.003155328981629342,-0.03400546423356068,0.0683200869581514,0.053485026679707594,-0.018407095451076105, ,0.03697157754743104, ,0.08676541297632602, ,0.0005702866292267798, ,0.21928699996360496,-0.22493231769466307,0.10139710009000001,1.7938974665101057,0.835122286566372,-1.1528443091845557, ,0.08237581732506143,0.053133785867004915,0.03645036961098399,-0.031885984517603,0.1476395385873961,-0.12704803174067067, ,1.3164758682250977
0.012994728619130914,0.02195373446152323,-0.08854961573361986, ,0.013732258330262582,0.02155813180247964,-0.08924105074961787, ,0.001085603021363008, ,0.014162268449066444,0.003155328981629342,-0.03400546423356068,0.0683200869581514,0.053485026679707594,-0.018407095451076105, ,0.03697157754743104, ,0.08676541297632602, ,0.0005745454423849304, ,0.21928699996360496,-0.22493231769466307,0.10139710009000001,1.7938974665101057,0.835122286566372,-1.1528443091845557, ,0.08237581732506143,0.053133785867004915,0.03645036961098399,-0.031885984517603,0.1476395385873961,-0.12704803174067067, ,1.3232369422912598
0.013055309918728258,0.021963549991680244,-0.08869525959370919, ,0.013769175601228565,0.021556353713003282,-0.08931190004289284, ,0.0010274524152433578, ,0.013938830656452584,0.0021142960036624556,-0.032930577034994496,0.05022557575235993,0.03556928417044036,0.06513074020333254, ,0.035821559869973166, ,0.061544648106744294, ,0.0005782577946214748, ,0.2196499684086935,-0.22470063570843635,0.10155265489000001,1.793268396679652,0.8358054690651993,-1.1534013987030378, ,0.08397959429953167,0.05498084678938052,0.03516293933774835,-0.12087998308867086,0.1511852557674664,-0.12970339846223608, ,1.32572603225708
0.013055309918728258,0.021963549991680244,-0.08869525959370919, ,0.013806171566794848,0.0215544075196269,-0.08938264493515832, ,0.0010971277886437545, ,0.013938830656452584,0.0021142960036624556,-0.032930577034994496,0.05022557575235993,0.03556928417044036,0.06513074020333254, ,0.035821559869973166, ,0.061544648106744294, ,0.0005824762498574283, ,0.2196499684086935,-0.22470063570843635,0.10155265489000001,1.793268396679652,0.8358054690651993,-1.1534013987030378, ,0.08397959429953167,0.05498084678938052,0.03516293933774835,-0.12087998308867086,0.1511852557674664,-0.12970339846223608, ,1.3280768394470215
0.013055309918728258,0.021963549991680244,-0.08869525959370919, ,0.013843245717127483,0.021552294825185246,-0.08945328625524282, ,0.0011681515543642744, ,0.013938830656452584,0.0021142960036624556,-0.032930577034994496,0.05022557575235993,0.03556928417044036,0.06513074020333254, ,0.035821559869973166, ,0.061544648106744294, ,0.0005871994377969997, ,0.2196499684086935,-0.22470063570843635,0.10155265489000001,1.793268396679652,0.8358054690651993,-1.1534013987030378, ,0.08397959429953167,0.05498084678938052,0.03516293933774835,-0.12087998308867086,0.1511852557674664,-0.12970339846223608, ,1.3302998542785645
0.013055309918728258,0.021963549991680244,-0.08869525959370919, ,0.013880397544096687,0.02155001722767423,-0.08952382482796868, ,0.0012402819372489666, ,0.013938830656452584,0.0021142960036624556,-0.032930577034994496,0.05022557575235993,0.03556928417044036,0.06513074020333254, ,0.035821559869973166, ,0.061544648106744294, ,0.0005924240977926154, ,0.2196499684086935,-0.22470063570843635,0.10155265489000001,1.793268396679652,0.8358054690651993,-1.1534013987030378, ,0.08397959429953167,0.05498084678938052,0.03516293933774835,-0.12087998308867086,0.1511852557674664,-0.12970339846223608, ,1.3324990272521973
0.013055309918728258,0.021963549991680244,-0.08869525959370919, ,0.013917626541274385,0.021547576320255824,-0.0895942614741575, ,0.0013133272379293995, ,0.013938830656452584,0.0021142960036624556,-0.032930577034994496,0.05022557575235993,0.03556928417044036,0.06513074020333254, ,0.035821559869973166, ,0.061544648106744294, ,0.0005981455512857644, ,0.2196499684086935,-0.22470063570843635,0.10155265489000001,1.793268396679652,0.8358054690651993,-1.1534013987030378, ,0.08397959429953167,0.05498084678938052,0.03516293933774835,-0.12087998308867086,0.1511852557674664,-0.12970339846223608, ,1.3347148895263672
0.013288713085024316,0.02198329998180146,-0.08916125415721031, ,0.013954932203931614,0.02154497369126365,-0.08966459701063742, ,0.0009430439435521553, ,0.013735921027452455,0.00024135453946458687,-0.023980962527232003,-0.034976462754155,-0.06559124666668587,-0.034298836331727665, ,0.02763729983588549, ,0.07433408810895337, ,0.0006008612866579408, ,0.22114045585341882,-0.22375846229778093,0.10204654138000001,1.7924296369057142,0.8368985610633227,-1.1543744206727498, ,0.09186538389009755,0.06075348371220921,0.02528382780952381,0.015163905586144137,0.02360913321812269,-0.021297646258750795, ,1.3379290103912354
0.013288713085024316,0.02198329998180146,-0.08916125415721031, ,0.01399231402903657,0.021542210924209316,-0.08973483225024968, ,0.00100925996351641, ,0.013735921027452455,0.00024135453946458687,-0.023980962527232003,-0.034976462754155,-0.06559124666668587,-0.034298836331727665, ,0.02763729983588549, ,0.07433408810895337, ,0.0006040519013208976, ,0.22114045585341882,-0.22375846229778093,0.10204654138000001,1.7924296369057142,0.8368985610633227,-1.1543744206727498, ,0.09186538389009755,0.06075348371220921,0.02528382780952381,0.015163905586144137,0.02360913321812269,-0.021297646258750795, ,1.3401708602905273
0.013288713085024316,0.02198329998180146,-0.08916125415721031, ,0.014029771515251963,0.0215392895977872,-0.08980496800185515, ,0.0010773487512924494, ,0.013735921027452455,0.00024135453946458687,-0.023980962527232003,-0.034976462754155,-0.06559124666668587,-0.034298836331727665, ,0.02763729983588549, ,0.07433408810895337, ,0.0006077208691501344, ,0.22114045585341882,-0.22375846229778093,0.10204654138000001,1.7924296369057142,0.8368985610633227,-1.1543744206727498, ,0.09186538389009755,0.06075348371220921,0.02528382780952381,0.015163905586144137,0.02360913321812269,-0.021297646258750795, ,1.3424339294433594
0.013288713085024316,0.02198329998180146,-0.08916125415721031, ,0.014067304162932852,0.02153621128588107,-0.08987500507034107, ,0.001146966753926884, ,0.013735921027452455,0.00024135453946458687,-0.023980962527232003,-0.034976462754155,-0.06559124666668587,-0.034298836331727665, ,0.02763729983588549, ,0.07433408810895337, ,0.0006118689144176478, ,0.22114045585341882,-0.22375846229778093,0.10204654138000001,1.7924296369057142,0.8368985610633227,-1.1543744206727498, ,0.09186538389009755,0.06075348371220921,0.02528382780952381,0.015163905586144137,0.02360913321812269,-0.021297646258750795, ,1.3447229862213135
0.013425433306956069,0.021974722779922053,-0.08938374801049642, ,0.014104911474124258,0.021532977557568892,-0.08994494425662744, ,0.0009857842805612352, ,0.013805038226451901,-0.001316216083346827,-0.021490266252958527,-0.040689877260873274,-0.06934747612183519,-0.036247817529241215, ,0.02557622037821279, ,0.08040356940055257, ,0.0006147232301897363, ,0.2221057974626969,-0.2230865845377234,0.10228116987000001,1.7924296369057142,0.8373084705626191,-1.1546269956436985, ,0.09844081074530164,0.07081861310333641,0.02256205597733711,0.012620958635303338,0.027069136509815597,-0.02632540091741884, ,1.347754955291748
0.013425433306956069,0.021974722779922053,-0.08938374801049642, ,0.014142592952558791,0.021529589977129233,-0.0900147863576742, ,0.0010538835633086177, ,0.013805038226451901,-0.001316216083346827,-0.021490266252958527,-0.040689877260873274,-0.06934747612183519,-0.036247817529241215, ,0.02557622037821279, ,0.08040356940055257, ,0.0006180502024103338, ,0.2221057974626969,-0.2230865845377234,0.10228116987000001,1.7924296369057142,0.8373084705626191,-1.1546269956436985, ,0.09844081074530164,0.07081861310333641,0.02256205597733711,0.012620958635303338,0.027069136509815597,-0.02632540091741884, ,1.3499739170074463
0.013425433306956069,0.021974722779922053,-0.08938374801049642, ,0.014180348103654443,0.021526050104046707,-0.0900845321664876, ,0.0011235221197820513, ,0.013805038226451901,-0.001316216083346827,-0.021490266252958527,-0.040689877260873274,-0.06934747612183519,-0.036247817529241215, ,0.02557622037821279, ,0.08040356940055257, ,0.0006218507431424519, ,0.2221057974626969,-0.2230865845377234,0.10228116987000001,1.7924296369057142,0.8373084705626191,-1.1546269956436985, ,0.09844081074530164,0.07081861310333641,0.02256205597733711,0.012620958635303338,0.027069136509815597,-0.02632540091741884, ,1.352236032485962
0.013425433306956069,0.021974722779922053,-0.08938374801049642, ,0.014218176434512016,0.021522359493017538,-0.09015418247212677, ,0.0011944218138052742, ,0.013805038226451901,-0.001316216083346827,-0.021490266252958527,-0.040689877260873274,-0.06934747612183519,-0.036247817529241215, ,0.02557622037821279, ,0.08040356940055257, ,0.0006261236615802342, ,0.2221057974626969,-0.2230865845377234,0.10228116987000001,1.7924296369057142,0.8373084705626191,-1.1546269956436985, ,0.09844081074530164,0.07081861310333641,0.02256205597733711,0.012620958635303338,0.027069136509815597,-0.02632540091741884, ,1.3545658588409424
0.013425433306956069,0.021974722779922053,-0.08938374801049642, ,0.01425607745391308,0.021518519693955348,-0.09022373805971043, ,0.0012663626010341723, ,0.013805038226451901,-0.001316216083346827,-0.021490266252958527,-0.040689877260873274,-0.06934747612183519,-0.036247817529241215, ,0.02557622037821279, ,0.08040356940055257, ,0.0006308661722428559, ,0.22301707994185538,-0.22242242951054012,0.10248727998000001,1.7926393268491987,0.8384015625607426,-1.15551833887327, ,0.10020796363090896,0.07367774965719781,0.023018513757225436,0.0,0.1692279340517227,-0.1419891522589175, ,1.3571219444274902
0.013425433306956069,0.021974722779922053,-0.08938374801049642, ,0.014294050672317305,0.021514532251996756,-0.09029319971042367, ,0.001339169087120748, ,0.013805038226451901,-0.001316216083346827,-0.021490266252958527,-0.040689877260873274,-0.06934747612183519,-0.036247817529241215, ,0.02557622037821279, ,0.08040356940055257, ,0.0006360742819110757, ,0.22301707994185538,-0.22242242951054012,0.10248727998000001,1.7926393268491987,0.8384015625607426,-1.15551833887327, ,0.10020796363090896,0.07367774965719781,0.023018513757225436,0.0,0.1692279340517227,-0.1419891522589175, ,1.359591007232666
0.013425433306956069,0.021974722779922053,-0.08938374801049642, ,0.014332095601860488,0.021510398707507292,-0.09036256820152445, ,0.0014127003672362122, ,0.013805038226451901,-0.001316216083346827,-0.021490266252958527,-0.040689877260873274,-0.06934747612183519,-0.036247817529241215, ,0.02557622037821279, ,0.08040356940055257, ,0.000641743085453595, ,0.22301707994185538,-0.22242242951054012,0.10248727998000001,1.7926393268491987,0.8384015625607426,-1.15551833887327, ,0.10020796363090896,0.07367774965719781,0.023018513757225436,0.0,0.1692279340517227,-0.1419891522589175, ,1.3621318340301514
0.013546807773154115,0.021961460696306757,-0.08957546648224712, ,0.01437021175635183,0.021506120596086628,-0.09043184430635008, ,0.0012722860150255744, ,0.013062109964146825,-0.00161083630781509,-0.02120012927027973,0.07052220930828688,0.06372127882691497,-0.0569837216812623, ,0.024953135903180795, ,0.09504619455089645, ,0.0006463122371171601, ,0.22301707994185538,-0.22242242951054012,0.10248727998000001,1.7926393268491987,0.8384015625607426,-1.15551833887327, ,0.10020796363090896,0.07367774965719781,0.023018513757225436,0.0,0.1692279340517227,-0.1419891522589175, ,1.3646669387817383
0.013685547074025726,0.021939054823653787,-0.08980250297403286, ,0.014408398651271977,0.021501699448575107,-0.09050102879432487, ,0.0010962355807271657, ,0.01313558439622208,-0.002350415366268884,-0.020429169068584756,0.032954692228739216,0.025845930097365848,-0.01453442518495591, ,0.024401208549108506, ,0.041881025346797676, ,0.0006495490957042824, ,0.22408281707849836,-0.221626988024495,0.10273227879,1.792010257018745,0.8401778370576933,-1.1570484503614638, ,0.10095419314730934,0.07628371507915659,0.021940511735537193,-0.03655311465500458,0.1391536156734737,-0.11466085896276207, ,1.3669660091400146
0.013685547074025726,0.021939054823653787,-0.08980250297403286, ,0.014446655803770369,0.0214971367910583,-0.09057012243096509, ,0.0011678260472722363, ,0.01313558439622208,-0.002350415366268884,-0.020429169068584756,0.032954692228739216,0.025845930097365848,-0.01453442518495591, ,0.024401208549108506, ,0.041881025346797676, ,0.0006532510739297678, ,0.22408281707849836,-0.221626988024495,0.10273227879,1.792010257018745,0.8401778370576933,-1.1570484503614638, ,0.10095419314730934,0.07628371507915659,0.021940511735537193,-0.03655311465500458,0.1391536156734737,-0.11466085896276207, ,1.3692209720611572
0.013685547074025726,0.021939054823653787,-0.08980250297403286, ,0.014484982732663073,0.021492434144873736,-0.09063912597788722, ,0.0012403650485212684, ,0.01313558439622208,-0.002350415366268884,-0.020429169068584756,0.032954692228739216,0.025845930097365848,-0.01453442518495591, ,0.024401208549108506, ,0.041881025346797676, ,0.0006574150028275798, ,0.22408281707849836,-0.221626988024495,0.10273227879,1.792010257018745,0.8401778370576933,-1.1570484503614638, ,0.10095419314730934,0.07628371507915659,0.021940511735537193,-0.03655311465500458,0.1391536156734737,-0.11466085896276207, ,1.371485948562622
0.013685547074025726,0.021939054823653787,-0.08980250297403286, ,0.014523378958430483,0.02148759302661604,-0.09070804019281384, ,0.0013136885762262557, ,0.01313558439622208,-0.002350415366268884,-0.020429169068584756,0.032954692228739216,0.025845930097365848,-0.01453442518495591, ,0.024401208549108506, ,0.041881025346797676, ,0.0006620366477106691, ,0.22408281707849836,-0.221626988024495,0.10273227879,1.792010257018745,0.8401778370576933,-1.1570484503614638, ,0.10095419314730934,0.07628371507915659,0.021940511735537193,-0.03655311465500458,0.1391536156734737,-0.11466085896276207, ,1.37373685836792
0.013833779634659713,0.021912531180265725,-0.09003561864406756, ,0.014561844003214728,0.021482614948142468,-0.09077686582957994, ,0.00112443456076043, ,0.015714384831849355,-0.0025259641998547342,-0.025469429654374095,-0.05065451881247238,-0.06897048891041094,0.05139559833499819, ,0.03003355178298956, ,0.08557334806527035, ,0.000665270199550178, ,0.22517944514663826,-0.22080065560695294,0.10297857389000001,1.791171497244807,0.8411342925560513,-1.1579100544274792, ,0.11164346065702443,0.08564705916829492,0.026681426331658296,-0.0892054064181309,0.06419138735513617,-0.05182993147388041, ,1.375945806503296
0.013833779634659713,0.021912531180265725,-0.09003561864406756, ,0.014600377390817725,0.02147750141657929,-0.09084560363814097, ,0.0011970792395090935, ,0.015714384831849355,-0.0025259641998547342,-0.025469429654374095,-0.05065451881247238,-0.06897048891041094,0.05139559833499819, ,0.03003355178298956, ,0.08557334806527035, ,0.000668963317883226, ,0.22517944514663826,-0.22080065560695294,0.10297857389000001,1.791171497244807,0.8411342925560513,-1.1579100544274792, ,0.11164346065702443,0.08564705916829492,0.026681426331658296,-0.0892054064181309,0.06419138735513617,-0.05182993147388041, ,1.3781909942626953
0.013833779634659713,0.021912531180265725,-0.09003561864406756, ,0.01463897864669847,0.02147225393432679,-0.09091425436457741, ,0.0012705078636654024, ,0.015714384831849355,-0.0025259641998547342,-0.025469429654374095,-0.05065451881247238,-0.06897048891041094,0.05139559833499819, ,0.03003355178298956, ,0.08557334806527035, ,0.0006731119009575859, ,0.22517944514663826,-0.22080065560695294,0.10297857389000001,1.791171497244807,0.8411342925560513,-1.1579100544274792, ,0.11164346065702443,0.08564705916829492,0.026681426331658296,-0.0892054064181309,0.06419138735513617,-0.05182993147388041, ,1.3804290294647217
0.013833779634659713,0.021912531180265725,-0.09003561864406756, ,0.01467764729797092,0.021466873999065036,-0.09098281875110356, ,0.0013445858094993685, ,0.015714384831849355,-0.0025259641998547342,-0.025469429654374095,-0.05065451881247238,-0.06897048891041094,0.05139559833499819, ,0.03003355178298956, ,0.08557334806527035, ,0.0006777110373174611, ,0.22517944514663826,-0.22080065560695294,0.10297857389000001,1.791171497244807,0.8411342925560513,-1.1579100544274792, ,0.11164346065702443,0.08564705916829492,0.026681426331658296,-0.0892054064181309,0.06419138735513617,-0.05182993147388041, ,1.3826730251312256
0.013833779634659713,0.021912531180265725,-0.09003561864406756, ,0.014716382873401601,0.021461363103760105,-0.09105129753607255, ,0.0014192056658426694, ,0.015714384831849355,-0.0025259641998547342,-0.025469429654374095,-0.05065451881247238,-0.06897048891041094,0.05139559833499819, ,0.03003355178298956, ,0.08557334806527035, ,0.000682755218463891, ,0.22517944514663826,-0.22080065560695294,0.10297857389000001,1.791171497244807,0.8411342925560513,-1.1579100544274792, ,0.11164346065702443,0.08564705916829492,0.026681426331658296,-0.0892054064181309,0.06419138735513617,-0.05182993147388041, ,1.384894847869873
0.013987733460075903,0.021897322137366997,-0.09030210761608444, ,0.014755184903407232,0.021455722736669285,-0.09111969145398433, ,0.0012051701458976752, ,0.01746682343640198,-0.001298784734889757,-0.03181369123979565,-0.005345977570358209,-0.014892899403760925,-0.010139561825356705, ,0.036316493677764024, ,0.01582230513824493, ,0.0006862850490546598, ,0.22622973681753278,-0.21997432318941093,0.10325986882000002,1.7909618073013225,0.8419541115546441,-1.1585785618496578, ,0.11643796510241813,0.09195440073495231,0.03367613429175476,-0.037917643706873054,0.11330475468444388,-0.09189492463183403, ,1.387253999710083
0.013987733460075903,0.021897322137366997,-0.09030210761608444, ,0.01479405292005248,0.021449954381346847,-0.09118800123549091, ,0.0012787089135407315, ,0.01746682343640198,-0.001298784734889757,-0.03181369123979565,-0.005345977570358209,-0.014892899403760925,-0.010139561825356705, ,0.036316493677764024, ,0.01582230513824493, ,0.0006902610481451703, ,0.22622973681753278,-0.21997432318941093,0.10325986882000002,1.7909618073013225,0.8419541115546441,-1.1585785618496578, ,0.11643796510241813,0.09195440073495231,0.03367613429175476,-0.037917643706873054,0.11330475468444388,-0.09189492463183403, ,1.389530897140503
0.013987733460075903,0.021897322137366997,-0.09030210761608444, ,0.014832986457047464,0.021444059516649634,-0.0912562276074042, ,0.0013528653259157048, ,0.01746682343640198,-0.001298784734889757,-0.03181369123979565,-0.005345977570358209,-0.014892899403760925,-0.010139561825356705, ,0.036316493677764024, ,0.01582230513824493, ,0.0006946784099969739, ,0.22622973681753278,-0.21997432318941093,0.10325986882000002,1.7909618073013225,0.8419541115546441,-1.1585785618496578, ,0.11643796510241813,0.09195440073495231,0.03367613429175476,-0.037917643706873054,0.11330475468444388,-0.09189492463183403, ,1.396272897720337
0.013987733460075903,0.021897322137366997,-0.09030210761608444, ,0.014871985049745644,0.02143803961674305,-0.09132437129270218, ,0.0014275378566315413, ,0.01746682343640198,-0.001298784734889757,-0.03181369123979565,-0.005345977570358209,-0.014892899403760925,-0.010139561825356705, ,0.036316493677764024, ,0.01582230513824493, ,0.0006995317838157459, ,0.22622973681753278,-0.21997432318941093,0.10325986882000002,1.7909618073013225,0.8419541115546441,-1.1585785618496578, ,0.11643796510241813,0.09195440073495231,0.03367613429175476,-0.037917643706873054,0.11330475468444388,-0.09189492463183403, ,1.398629903793335
0.013987733460075903,0.021897322137366997,-0.09030210761608444, ,0.014911048235141167,0.021431896151106453,-0.09139243301053547, ,0.0015026446646912947, ,0.01746682343640198,-0.001298784734889757,-0.03181369123979565,-0.005345977570358209,-0.014892899403760925,-0.010139561825356705, ,0.036316493677764024, ,0.01582230513824493, ,0.0007048154211899271, ,0.22704062376932635,-0.21934878182659875,0.10350486763000001,1.7909618073013225,0.8430472035527675,-1.1594699050792292, ,0.11558701773260752,0.08778625491070376,0.03579508206741574,-0.026805590989203813,0.16575205381502295,-0.13467453348969288, ,1.401054859161377
0.013987733460075903,0.021897322137366997,-0.09030210761608444, ,0.014950175551866948,0.02142563058453937,-0.09146041347623438, ,0.001578119186474121, ,0.01751899328032514,-0.0004379985789925494,-0.03343198555340595,0.04415426427525571,0.039240783343756094,-0.031925607613700356, ,0.036316493677764024, ,0.01582230513824493, ,0.0007105232889368826, ,0.22704062376932635,-0.21934878182659875,0.10350486763000001,1.7909618073013225,0.8430472035527675,-1.1594699050792292, ,0.11558701773260752,0.08778625491070376,0.03579508206741574,-0.026805590989203813,0.16575205381502295,-0.13467453348969288, ,1.4038949012756348
0.014373215886327777,0.02187040587193566,-0.09101009211035899, ,0.014989366540191907,0.021419244377166205,-0.09152831340131493, ,0.0014116339122819872, ,0.016621039796185514,-0.002420323192306448,-0.02919937356605383,-0.027879229889000226,-0.03740445933609218,0.09281655142107534, ,0.03368561035385231, ,0.04665108585502549, ,0.0007150759553222404, ,0.22883229779614644,-0.21799730357360947,0.10401560589000002,1.7894939776969307,0.8453700240487801,-1.1613640094420685, ,0.11351308798860141,0.08835841858330612,0.03081008030947776,-0.14523189185128388,0.11080494838639915,-0.08989484149712224, ,1.4072189331054688
0.014373215886327777,0.02187040587193566,-0.09101009211035899, ,0.01502862074201894,0.021412738984442823,-0.0915961334934862, ,0.0009911907018876856, ,0.016621039796185514,-0.002420323192306448,-0.02919937356605383,-0.027879229889000226,-0.03740445933609218,0.09281655142107534, ,0.03368561035385231, ,0.04665108585502549, ,0.000716857340783953, ,0.22883229779614644,-0.21799730357360947,0.10401560589000002,1.7894939776969307,0.8453700240487801,-1.1613640094420685, ,0.11351308798860141,0.08835841858330612,0.03081008030947776,-0.14523189185128388,0.11080494838639915,-0.08989484149712224, ,1.4096789360046387
0.014373215886327777,0.02187040587193566,-0.09101009211035899, ,0.015067937700882413,0.021406115857162025,-0.09166387445665634, ,0.0010609594590589536, ,0.016621039796185514,-0.002420323192306448,-0.02919937356605383,-0.027879229889000226,-0.03740445933609218,0.09281655142107534, ,0.03368561035385231, ,0.04665108585502549, ,0.0007190631235934081, ,0.22883229779614644,-0.21799730357360947,0.10401560589000002,1.7894939776969307,0.8453700240487801,-1.1613640094420685, ,0.11351308798860141,0.08835841858330612,0.03081008030947776,-0.14523189185128388,0.11080494838639915,-0.08989484149712224, ,1.4119889736175537
0.014373215886327777,0.02187040587193566,-0.09101009211035899, ,0.015107316961945892,0.021399376441458763,-0.09173153699094001, ,0.001131925717225135, ,0.016621039796185514,-0.002420323192306448,-0.02919937356605383,-0.027879229889000226,-0.03740445933609218,0.09281655142107534, ,0.03368561035385231, ,0.04665108585502549, ,0.0007216928216420179, ,0.22883229779614644,-0.21799730357360947,0.10401560589000002,1.7894939776969307,0.8453700240487801,-1.1613640094420685, ,0.11351308798860141,0.08835841858330612,0.03081008030947776,-0.14523189185128388,0.11080494838639915,-0.08989484149712224, ,1.4142520427703857
0.014543695135904009,0.021843615754850478,-0.09129393632270032, ,0.01514675807199979,0.021392522178816747,-0.09179912179266436, ,0.0012038721596258175, ,0.017041071454313744,-0.003043265332795653,-0.026897439977424904,-0.08604267490043355,-0.10383639744196856,0.02965053064461175, ,0.03171102656176199, ,0.13485297645696084, ,0.0007247445896039407, ,0.2299829849944059,-0.21707057562870252,0.10431245630000001,1.7886552179229929,0.8459165700478418,-1.1617280023167136, ,0.11601093100057551,0.09423728059431061,0.027994396344463976,-0.05825642452185915,0.025525040331164452,-0.018076768622361128, ,1.4173369407653809
0.014543695135904009,0.021843615754850478,-0.09129393632270032, ,0.015186260579459031,0.02138555450607293,-0.09186662955437568, ,0.0009750323043312325, ,0.017041071454313744,-0.003043265332795653,-0.026897439977424904,-0.08604267490043355,-0.10383639744196856,0.02965053064461175, ,0.03198643239775261, ,0.13485297645696084, ,0.0007263187261745526, ,0.2299829849944059,-0.21707057562870252,0.10431245630000001,1.7886552179229929,0.8459165700478418,-1.1617280023167136, ,0.11601093100057551,0.09423728059431061,0.027994396344463976,-0.05825642452185915,0.025525040331164452,-0.018076768622361128, ,1.4195849895477295
0.014543695135904009,0.021843615754850478,-0.09129393632270032, ,0.01522582403436071,0.021378474855424417,-0.0919340609648465, ,0.0010447083075727037, ,0.017041071454313744,-0.003043265332795653,-0.026897439977424904,-0.08604267490043355,-0.10383639744196856,0.02965053064461175, ,0.03198643239775261, ,0.13485297645696084, ,0.000728308661058291, ,0.2299829849944059,-0.21707057562870252,0.10431245630000001,1.7886552179229929,0.8459165700478418,-1.1617280023167136, ,0.11601093100057551,0.09423728059431061,0.027994396344463976,-0.05825642452185915,0.025525040331164452,-0.018076768622361128, ,1.4218308925628662
0.014543695135904009,0.021843615754850478,-0.09129393632270032, ,0.015265447988361772,0.02137128465443342,-0.09200141670908209, ,0.0011155950634378963, ,0.017041071454313744,-0.003043265332795653,-0.026897439977424904,-0.08604267490043355,-0.10383639744196856,0.02965053064461175, ,0.03198643239775261, ,0.13485297645696084, ,0.0007307141666631332, ,0.2299829849944059,-0.21707057562870252,0.10431245630000001,1.7886552179229929,0.8459165700478418,-1.1617280023167136, ,0.11601093100057551,0.09423728059431061,0.027994396344463976,-0.05825642452185915,0.025525040331164452,-0.018076768622361128, ,1.4240968227386475
0.014543695135904009,0.021843615754850478,-0.09129393632270032, ,0.015305131994736643,0.02136398532603275,-0.09206869746832685, ,0.0011874705347962658, ,0.017041071454313744,-0.003043265332795653,-0.026897439977424904,-0.08604267490043355,-0.10383639744196856,0.02965053064461175, ,0.03198643239775261, ,0.13485297645696084, ,0.0007335336504170414, ,0.2299829849944059,-0.21707057562870252,0.10431245630000001,1.7886552179229929,0.8459165700478418,-1.1617280023167136, ,0.11601093100057551,0.09423728059431061,0.027994396344463976,-0.05825642452185915,0.025525040331164452,-0.018076768622361128, ,1.4263508319854736
0.014707290132364024,0.021811793414063023,-0.09154797000189538, ,0.015344875608374862,0.021356578288532463,-0.09213590392007133, ,0.0009794908584940933, ,0.016649698511821773,-0.0030277668019328442,-0.026240094196672357,-0.02261801534609708,-0.032026490375050454,-0.05135987026100193, ,0.03122374698513433, ,0.03920788522416552, ,0.0007350425903438945, ,0.23112594945979112,-0.2161206794851729,0.10457949204000001,1.7884455279795082,0.8465997525466691,-1.1621217343549146, ,0.11544640092271385,0.0974301248033581,0.02770228090434783,0.008944738894893521,0.08391760204043773,-0.07037723213166185, ,1.4285619258880615
