NicholasDascanio/dvrk_moveit_final/test/execution/third_experiment_notsharpbends/thirdexp_500vel4.0/thirdexp_500vel4.0_13.csv
Current Position (x),Current Position (y),Current Position (z), ,Planned Position (x),Planned Position (y),Planned Position (z), ,Position Error,,Cartesian linear Velocity(x),Cartesian linear Velocity(y),Cartesian linear Velocity(z),Cartesian Angular Velocity(x),Cartesian Angular Velocity(y),Cartesian Angular Velocity(z), ,Total Linear Velocity, ,Total Angular Velocity, ,MSE, ,Joint 1 Position,Joint 2 Position,Joint 3 Position,Joint 4 Position,Joint 5 Position,Joint 6 Position, ,Joint 1 Velocity,Joint 2 Velocity,Joint 3 Velocity,Joint 4 Velocity,Joint 5 Velocity,Joint 6 Velocity, ,Time Stamp
0.010209638003847256,0.019959709825599466,-0.08016149350201943, ,0.010272903352925198,0.019937524724055664,-0.0802769552604415, ,0.0001335144216269525, ,1.8761962946872572e-05,5.040623115068035e-06,3.644670425692244e-06,-0.167329658655004,-0.0028107036494830484,0.0068366348413135165, ,1.9766202405112958e-05, ,0.16735326325054245, ,1.1126201802246043e-05, ,0.14755053429493348,-0.2415825297714911,0.08987826715000001,1.601192408447828,0.1865088221798262,-1.3143739107458159, ,0.00023633598811455004,-6.239055737883087e-05,0.0,0.0,0.0,0.16755032909264722, ,0.02426886558532715
0.010149953642357913,0.01996397276858702,-0.08016633411087815, ,0.01029185989382654,0.019975415111994833,-0.0803144560363905, ,0.00020544686964279828, ,-0.003637294757088242,0.0004012733068362677,-0.0012484298730078738,-0.2777383581473921,0.41490704987767235,0.11783453213338911, ,0.003866459693898203, ,0.499285945751129, ,1.5407331421352307e-05, ,0.1475814252264304,-0.24162114343586225,0.08988734118000001,1.601192408447828,0.19347728366786368,-1.303475439585799, ,0.0010920684776751634,-0.0012608243360737663,0.0015323810250244623,0.0,0.4335113114169203,0.2771234789320485, ,0.04683804512023926
0.010117998672142518,0.01997512761158387,-0.08019586432886339, ,0.010311006596224288,0.02001280952892536,-0.08035248774261655, ,0.00025140182853070184, ,-0.0004095828402921392,0.0006139035111833866,-0.001679776914533026,0.0907703759271107,0.08052044825214077,0.015613151245285053, ,0.0018347441529279114, ,0.12133756109573532, ,1.8448847493764142e-05, ,0.1475891479593046,-0.24166747983310757,0.08992104472000001,1.601192408447828,0.19757637866082686,-1.2984050664622138, ,0.0010201532380802595,-0.002293686138618944,0.0018471487702220698,0.0,0.08236426798789304,-0.08905552495541458, ,0.0692439079284668
0.010132948115411728,0.019988898728783615,-0.08022554053574496, ,0.010330342599388522,0.02004971087643587,-0.0803910469612653, ,0.0002646791954330063, ,0.0019870989536166354,0.0006419943435197437,-0.0014845282992018618,0.44620220559322343,-0.16000005566182204,-0.06299281186773208, ,0.002562136463911875, ,0.4740215460166723, ,2.03581503627014e-05, ,0.14762776162367572,-0.24174470716184981,0.08995345197000001,1.6009827185043435,0.19675655966223426,-1.3070479354160593, ,0.002831800994325945,-0.0029883966168872734,0.0015556803080626939,0.0,-0.17019302351124344,-0.4429753492569407, ,0.09105896949768066
0.010207650401785218,0.02002061824092674,-0.08029551001788221, ,0.010349867044958213,0.020086122048490078,-0.08043013028375183, ,0.00020649198140241848, ,0.0006850784468900514,0.0007484116811606085,-0.0017290916283471526,-0.08209165404209223,-0.04192096697713727,0.04641012251497314, ,0.0020047968431018493, ,0.09217595747074904, ,2.0414121089151484e-05, ,0.14768954348666952,-0.24188371635358588,0.09002734050000001,1.602031168221766,0.1901980076734931,-1.3091326413914224, ,0.0022767249645484515,-0.004660702573588048,0.0018875300864177737,-0.0507338729019011,-0.027056646322959916,0.07965869680030162, ,0.12490105628967285
0.010201802735263167,0.02004555288500877,-0.08033363144001873, ,0.01036957907693829,0.02012204593143553,-0.08046973431075233, ,0.00022918132209990373, ,-0.0004250332520543243,0.0007316670131269297,-0.000918541744721224,0.0026950011751471505,0.08288623596187455,0.04532724176314599, ,0.0012488830290485445, ,0.08293003764174316, ,2.0817993850577113e-05, ,0.14778993901403445,-0.24206133920969303,0.09007271065000001,1.602031168221766,0.19238419166974016,-1.3078115357252238, ,0.0035898168028113357,-0.006254646011706479,0.0011556333356981439,-0.02243696630347511,0.09465678790190021,-0.0001320816497680788, ,0.15084385871887207
0.0102056925703506,0.02006354981741527,-0.08035445878419989, ,0.010389477841696833,0.020157485404012177,-0.08050985565219215, ,0.00025835848539368345, ,0.0003209799652634859,0.0008656236766654163,-0.0011413771590496587,-0.0337779981649538,-0.00628810871983428,0.01808740844989002, ,0.0014680171344042862, ,0.03435831007634312, ,2.1514918112909226e-05, ,0.1478748890756509,-0.2422080711343033,0.09009863645,1.602031168221766,0.19306737416856737,-1.307225122881738, ,0.0018544012694206935,-0.0070325068914862225,0.0013467413717104537,-0.015873866631044477,0.0,0.03851077194961302, ,0.17635703086853027
0.010224365161151473,0.020095378486296053,-0.08040335637781224, ,0.010409562487962137,0.020192443337360432,-0.08055049092723679, ,0.00025567207670047304, ,0.0008792418327619989,0.0012678786202995546,-0.0020621260424675903,0.008419309864302383,-0.010807163115305156,0.011695963878793734, ,0.002575450681204054, ,0.01369961872296682, ,2.2009099766218746e-05, ,0.14801389826738695,-0.24243203038765582,0.09015567321000001,1.602031168221766,0.19306737416856737,-1.307061765401457, ,0.0068396731415656855,-0.008778377284701475,0.002396751658140235,-0.011234172073599738,-0.0013319770879347077,-0.0013409162849779867, ,0.20000696182250977
0.010239611092549904,0.020120979179422238,-0.0804461653585808, ,0.010429832166819858,0.020226922595029704,-0.0805916367642819, ,0.00026185872963039295, ,0.0008247213145494815,0.001293385770091313,-0.002132198049249443,0.007545069982796889,-0.009609836783719182,0.010018828870240035, ,0.0026266481527167005, ,0.012217898510421316, ,2.2709944070992638e-05, ,0.1481220165276261,-0.24260193051088874,0.09020493223,1.602031168221766,0.19306737416856737,-1.307061765401457, ,0.006037008539188328,-0.008846582984759042,0.0024638532900232023,-0.009423052959340534,-0.0013516007366778258,-0.00013935509451829323, ,0.2199389934539795
0.010252140551767189,0.02014315813104178,-0.08048344243630877, ,0.010450286031710073,0.020260926032986692,-0.08063328980094242, ,0.00027492752251812274, ,0.0007590999706607799,0.0013966465663170697,-0.0023828546432835282,0.007890883331805135,-0.007979824770575258,0.009054457583800262, ,0.002864411047262653, ,0.011222461541409896, ,2.3415324329784528e-05, ,0.14820696658924257,-0.242748662435499,0.0902477098,1.602031168221766,0.19306737416856737,-1.307061765401457, ,0.00478789637226745,-0.009321647983230723,0.0027224083951461293,-0.008301085701932163,-0.0012308591926764386,0.00014452887523015495, ,0.24828386306762695
0.010279095611373388,0.02018881431749131,-0.0805493438196243, ,0.01047092323842452,0.020294456499624462,-0.08067544668404342, ,0.00025270544426392907, ,0.0006081678382841727,0.0011070237632540532,-0.0011645757699660449,0.004069076461152836,-0.0077897708888911244,0.007679604460773931, ,0.001718023997482112, ,0.008788510325759514, ,2.3800347497636534e-05, ,0.14841548037684663,-0.24308073994909066,0.09032548720000001,1.602031168221766,0.19306737416856737,-1.3069800866613164, ,0.005184453438430774,-0.00943792577546702,0.0014616816167708983,-0.006584181270127499,-0.0009786003556484404,0.004329920857679596, ,0.27101993560791016
0.010293546741798635,0.020211309340532908,-0.08057820943630109, ,0.010491742945103542,0.020327516835769627,-0.08071810406960891, ,0.0002689914968581776, ,0.0007957914045799359,0.0012663854258709389,-0.0017707914463483529,0.00997098414978925,-0.007203475207445192,0.0011367289434804763, ,0.002317912498978794, ,0.01230083655538169, ,2.4264655712716607e-05, ,0.14853904410283422,-0.24325836280519783,0.09036048703,1.6018214782782818,0.19306737416856737,-1.3068984079211758, ,0.006367775583186103,-0.009341661399813121,0.0021072643894695067,0.0,-0.0008739865745760359,-0.0007287476213100255, ,0.2979910373687744
0.010311044151171867,0.0202389432568523,-0.08062289542421124, ,0.010512744312233351,0.020360109874691924,-0.08076125862285262, ,0.000272962779494197, ,0.0007841240346431473,0.0011860616981039123,-0.0018406040505408896,0.004369520068706098,-0.006092938975469214,-0.0021010663955655776, ,0.002325815152646855, ,0.007497773734148819, ,2.4694426406257926e-05, ,0.14867033056169604,-0.243435985661305,0.09041233863,1.6022408581652505,0.19306737416856737,-1.3068167291810353, ,0.006099915898338998,-0.008133089421947166,0.0021539975010141993,0.0034481082674836716,-0.0007794037172923352,0.004178145533786143, ,0.31796693801879883
0.010326464182786318,0.02026275477294453,-0.0806580306322274, ,0.010533926502643069,0.020392238442111802,-0.08080490701816749, ,0.0002852705864406402, ,0.0008457627248458883,0.001176296585109372,-0.0018360689229387644,-2.9467261389183255e-05,-0.006928467813310142,-0.001608467132455073, ,0.0023388324721236933, ,0.006928530474689574, ,2.5157814264966153e-05, ,0.14879389428768364,-0.24360588578453793,0.09045381991000001,1.6022408581652505,0.19306737416856737,-1.306653371700754, ,0.006860250234385635,-0.008008066148116352,0.002155163241780544,0.0031373551072923266,-0.0007087959108243684,0.0084137789200704, ,0.3404409885406494
0.010346350285465577,0.020288479432046383,-0.08069771627379624, ,0.010555288681501799,0.020423905356209467,-0.08084904593911577, ,0.00029136935645214073, ,0.0009598021659229128,0.0011870485562649289,-0.0019945366386988693,-0.012521327502446467,-0.007671099280784231,-0.0006806887249801378, ,0.002511668942307714, ,0.014684325199599923, ,2.5605738596465777e-05, ,0.14894834894516812,-0.2437835086406451,0.09050048635,1.6022408581652505,0.1929307376688019,-1.3062152388364954, ,0.008028369315655978,-0.0076323884962175275,0.002325713464739378,0.0028680009962814266,0.0,0.020506485837966378, ,0.3609750270843506
0.010362691428452288,0.02031011758616809,-0.08073461824205796, ,0.010576830016315819,0.020455113427632447,-0.08089367207841869, ,0.0003036070679599016, ,0.000977390783522229,0.0012288846390468896,-0.0021543076970815317,-0.008954798713272467,-0.0075755759114250944,-0.0006529439407235162, ,0.0026658004151669593, ,0.01172935506916677, ,2.608077379511324e-05, ,0.14907963540402994,-0.24392251783238114,0.09054326392,1.6022408581652505,0.1929307376688019,-1.3061335600963548, ,0.007943396449625623,-0.0076496443441474325,0.002491991789737172,0.002669661119719627,0.0,0.016924299971994038, ,0.38332104682922363
0.010393089074915825,0.020349676556503993,-0.08080538042546154, ,0.010598549676925605,0.020485865459504836,-0.08093878213794632, ,0.00028028109670947735, ,0.0010752362862667861,0.0012982845289865068,-0.002226011873246599,-0.0031130699728640437,-0.009060319084745588,0.0017733794811124655, ,0.002792275890621365, ,0.009580218500571733, ,2.636024700096268e-05, ,0.14933448558887935,-0.24416192255148209,0.09062493019000001,1.6024505481087352,0.19306737416856737,-1.3062449780000511, ,0.009001875134345118,-0.008251028286741749,0.0025904718685965202,0.0,0.00012874297113311036,0.011284883484342072, ,0.4041440486907959
0.010413343693510768,0.020372918321823193,-0.08084271194501598, ,0.010620446835503011,0.020516164247435253,-0.08098437282870743, ,0.0002889271752462179, ,0.0010104663844175074,0.0011993727314605091,-0.0017615806538272623,0.001949190633056657,-0.009030568939153858,0.0015824065086840302, ,0.0023585384590774257, ,0.009238534487235672, ,2.6816651674872135e-05, ,0.1495121084449865,-0.2443163772089666,0.09066900405000002,1.6024505481087352,0.19306737416856737,-1.30608162051977, ,0.009055898694291731,-0.008449561276046354,0.0021117342595784174,0.0,0.0001337263453395115,0.0064129338721692925, ,0.42311787605285645
0.010424410809022582,0.020384899033018117,-0.08086116397978864, ,0.010642520666548312,0.0205460125795252,-0.08103044087083999, ,0.00031966255749148415, ,0.0011246843941639375,0.0011767886973334466,-0.0018834201491939853,0.006345470949730754,-0.008247007797673383,-0.006132058956233754, ,0.0024893810642482093, ,0.010405678217447586, ,2.7403966446338656e-05, ,0.14971289949971633,-0.2444785545993253,0.09071048533,1.6026602380522197,0.19306737416856737,-1.3058365842993487, ,0.00971853775608318,-0.008918976637821666,0.0021883241544168154,0.007721353179764963,0.00013595647374399955,0.0072190741801118445, ,0.44063496589660645
0.010444746690490385,0.020407218292242017,-0.08089466890145455, ,0.010664770346887285,0.02057541323637748,-0.08107698299360025, ,0.00033156956555435344, ,0.0012040329812494546,0.0013392554236108171,-0.0022959035118720345,0.004086373360711228,-0.008555529909471537,-0.005640050709119936, ,0.002917957067099134, ,0.009481325815053513, ,2.8004703526465096e-05, ,0.14979784956133282,-0.24454805919519332,0.09073122597000001,1.6026602380522197,0.19306737416856737,-1.305754905559208, ,0.010407505872813147,-0.008298581533679936,0.0026843295449949446,0.0074494081518519505,0.0001363081236554925,0.005203311375830541, ,0.45990991592407227
0.010468338374695305,0.020438624974766163,-0.08095329982688163, ,0.010687195055668456,0.020604368991104943,-0.08112399593535277, ,0.00032327463124391133, ,0.0012761553094357435,0.0014318361603381363,-0.0028353047882425956,-0.00020684406624839696,-0.007348585545702821,-0.004387390401043495, ,0.003423109756651733, ,0.007351496025097455, ,2.8513611234322484e-05, ,0.15000636334893688,-0.2447334047841747,0.09079863305000001,1.6026602380522197,0.19334064716809823,-1.3058143838863197, ,0.01044978760153964,-0.007797794638761227,0.003237563317073171,0.006636762709969235,0.0016883195451247216,0.008881693349960938, ,0.47862792015075684
0.010497042052820477,0.020472338926452116,-0.08101651193696471, ,0.010709793974360013,0.020632882609338387,-0.08117147644356101, ,0.00030830448024329334, ,0.0014390144872876423,0.0016082743143351077,-0.0030581393456160346,-0.0008252006589130453,-0.01019061540020187,0.0009264056737883384, ,0.003742930031670195, ,0.010223971737775154, ,2.8908663403626492e-05, ,0.1502380453351636,-0.24492647310603033,0.09087122529000001,1.602869927995704,0.19334064716809823,-1.3054876689257573, ,0.011999539148070025,-0.009228117933359222,0.003515517881262415,0.0013810834427182195,0.0016883195451247216,0.01015380718667561, ,0.4975118637084961
0.01052753121867701,0.020508897097441334,-0.081082584426607, ,0.010732566286747038,0.02066095684923483,-0.08121942127477612, ,0.0002896305755110103, ,0.0012507398185981062,0.0014425189591272217,-0.0024773500279135345,-0.0211648009496365,-0.00570026432370567,0.0003549562269549914, ,0.0031276947104970933, ,0.021918982925868934, ,2.918525709216677e-05, ,0.15050061825288724,-0.2451427096265086,0.09094770640000001,1.6030796179391889,0.19347728366786368,-1.3051090143886104, ,0.01114571074764676,-0.00897085078852035,0.002898782806187444,0.003785421298034392,0.005171518387547887,0.0305966077045942, ,0.5172998905181885
0.01054946621929939,0.02053912811433398,-0.08112553652503379, ,0.010755511178928447,0.0206885944614866,-0.08126782719462729, ,0.0002916184990240719, ,0.0011185456576308602,0.0013877084697163653,-0.0019833450952576803,0.01519807294022029,-0.0003435059051483747,3.918094427149701e-05, ,0.002666559009662094, ,0.01520195439318374, ,2.9450720298955526e-05, ,0.15071685477336552,-0.2453589461469869,0.09099955800000001,1.6030796179391889,0.19375055666739455,-1.3048417777551597, ,0.010959385353057344,-0.009773764648405594,0.002401449045680688,0.003785421298034392,0.009917650683835863,-0.005034546251821986, ,0.534898042678833
0.010562863433205567,0.020555828170068027,-0.08115033458395957, ,0.010778627839314353,0.020715798189329258,-0.08131669097781238, ,0.00031594166515613176, ,0.0011626568727477824,0.0015303844771960876,-0.0022985622608814303,-0.002458414647121604,-0.0009829127154742897,0.0008640435885767862, ,0.002996203617736743, ,0.0026476253358926317, ,2.9804622954305692e-05, ,0.15084814123222734,-0.24547478714010026,0.09102937267000001,1.6030796179391889,0.19388719316716,-1.3049531956588565, ,0.01085615596443169,-0.0104915335446945,0.002744454086836665,0.003785421298034392,0.009456587508527332,0.013354462404567152, ,0.5530469417572021
0.01059048108929841,0.02058865187477413,-0.08120579806795013, ,0.010801915458622866,0.020742570768549656,-0.08136600940808619, ,0.0003066972316485855, ,0.0012817746810826654,0.0017177603623910484,-0.0030924186797671453,-0.0012371157183722712,-0.0009249001057712522,0.0007765960780155856, ,0.003762539074433536, ,0.0015446343332619463, ,3.0095092094791393e-05, ,0.1510798232184541,-0.24568330092770432,0.09109418717000001,1.6030796179391889,0.19388719316716,-1.3046264806982941, ,0.010820431980801392,-0.010316166337643031,0.003569081676002689,0.003785421298034392,0.009456587508527332,0.011957701990057966, ,0.5713579654693604
0.010604877633915872,0.020606059616474888,-0.08123724031976583, ,0.010825373229877389,0.02076891492749522,-0.08141577927825218, ,0.0003271334893638141, ,0.0013087809222084236,0.0016590802673291394,-0.0030247693113238613,0.032200818699354414,-0.0014307962623241123,-0.002259490250732579, ,0.0036898081552438856, ,0.032232590690165985, ,3.057636418032971e-05, ,0.151180218745819,-0.24577597372219503,0.09112789071,1.603289307882673,0.19388719316716,-1.3044631232180128, ,0.011154226461801777,-0.009718426283226955,0.003536592255772647,0.0050255617184405835,0.008475800784927344,-0.02190837423167891, ,0.5910348892211914
0.010640376524837947,0.02064968867877672,-0.08131430204189985, ,0.010849000348403573,0.020794833387081154,-0.08146599739015035, ,0.0002959769666524101, ,0.0013406804933193284,0.001505426422400446,-0.002684571916918088,0.003637716167145006,-0.006782255059247613,-0.0031330895268686433, ,0.0033571802566340733, ,0.0076962304059820024, ,3.090545019394458e-05, ,0.1514968507936622,-0.2460462693727929,0.0912199273,1.6034989978261578,0.1940238296669254,-1.304492862381569, ,0.011611029188605258,-0.008965041257498777,0.003123908907628947,0.005884208139923361,0.0036021772408395096,0.006076830739507887, ,0.6078798770904541
0.010652656365593009,0.020663898369903438,-0.08133986356749512, ,0.01087279601182661,0.020820328860800076,-0.0815166605546491, ,0.00032278342118631417, ,0.0012088119671673351,0.001450917714600742,-0.0024202084017224926,0.009266035468588597,-0.0014384581990860223,-0.002169007309326935, ,0.0030698204009807066, ,0.009377023792900613, ,3.132125202921295e-05, ,0.15161269178677558,-0.24613121943440935,0.09124974197,1.6034989978261578,0.1941604661666909,-1.3046042802852653, ,0.011024841302525599,-0.009124009405125113,0.0028474815016088667,0.005884208139923361,0.008419979216969917,0.000578347078609015, ,0.6234009265899658
0.010673298888821849,0.020686993686059578,-0.08137846725134541, ,0.010896759420068073,0.02084540405472911,-0.08156776559163367, ,0.00033295993086669186, ,0.0013173374721344542,0.0015027604543065938,-0.002765096526906724,0.004685561734522971,-0.0033025311001214333,-0.002372584528932873, ,0.0034116602705470222, ,0.0057324689509542235, ,3.175361387963957e-05, ,0.15179031464288273,-0.24627795135901961,0.09129511212000001,1.6034989978261578,0.1941604661666909,-1.3044409228049842, ,0.011541795538262865,-0.008685630523252262,0.0032037030410297673,0.005884208139923361,0.007097975540184467,0.004736266135699387, ,0.6410629749298096
0.010697354321083537,0.020712311629704123,-0.08143088126897936, ,0.010920889775343157,0.020870061667539533,-0.08161930932999659, ,0.00033220220939487804, ,0.0013735029115507843,0.0015411457557980093,-0.0032583602463872713,0.009603945831044052,-0.003826365878769607,-0.0030307070239531837, ,0.003857272609485829, ,0.010338126087283045, ,3.2160750591629944e-05, ,0.1520915012249775,-0.24648646514662367,0.09139103758000001,1.6034989978261578,0.19429710266645633,-1.304307304488259, ,0.011460224525273373,-0.00836194464797411,0.004081171283627979,0.005884208139923361,0.0,0.007992678978425606, ,0.6566739082336426
0.010725927985161069,0.02074431476352556,-0.08149964514129, ,0.01094518628215773,0.020894304390504156,-0.08167128860762735, ,0.0003162792572069081, ,0.0015993525317445768,0.0016396666163031978,-0.003917100741019124,0.002941882002197994,-0.010996181610204617,-0.0030010554361942637, ,0.004537633011682362, ,0.01138291170119762, ,3.24898264149711e-05, ,0.1522150649509651,-0.24656369247536591,0.09143251886,1.6037086877696423,0.19429710266645633,-1.3042256257481182, ,0.012005393345528467,-0.006880950561773071,0.004370044312757203,0.004427378634473119,0.0,0.00451550168869299, ,0.673814058303833
0.010757832328074703,0.020776651246104193,-0.08157731577903755, ,0.010969648147305461,0.02091813490750587,-0.08172370027140256, ,0.00029378901838731725, ,0.0016484894684788436,0.0014795601915873632,-0.0037546199680708304,-0.0030984623635711716,-0.010193432125177988,-0.0031987845251222487, ,0.004359333319769423, ,0.010653944188089272, ,3.272348920892363e-05, ,0.15246991513581448,-0.24669497893422773,0.09151937029000001,1.6039183777131267,0.19443373916622175,-1.3040103286912523, ,0.013069403878043076,-0.005462388832770209,0.004184084980299449,0.005099220350638731,0.0018321601377001978,0.0092507009295133, ,0.6898069381713867
0.010787059324649457,0.020805864345184846,-0.08164107298677625, ,0.010994274579864814,0.020941555895046666,-0.08177654117717546, ,0.0002823154074929406, ,0.0014344598477891333,0.0011499803719358813,-0.0024857417431915184,-0.0119861533213699,-0.010082771168282023,0.013911519644059709, ,0.0030917700310019534, ,0.015663018412184253, ,3.2906482277756874e-05, ,0.15273248805353812,-0.24682626539308955,0.09159196253000002,1.6043377576000957,0.19470701216575265,-1.303906449538083, ,0.013331967063567124,-0.005712126182170423,0.002863863991370011,-0.0112177900595157,0.0064339633739592785,0.01596850106505396, ,0.7072939872741699
0.010795748484859164,0.020813142368916467,-0.08165537437396062, ,0.01101906479119627,0.02096457002225532,-0.08182980818976612, ,0.00032129062072869545, ,0.0013789298216788366,0.0010593848213293795,-0.002255243736977607,-0.025416008627956996,-0.00470814698380298,0.015958818326569923, ,0.002847782991373295, ,0.025848406963276043, ,3.332349145978433e-05, ,0.15282516084802883,-0.24686487905746068,0.09160881430000001,1.6043377576000957,0.19484364866551807,-1.3038545099614982, ,0.013757167520798896,-0.005335430765993519,0.0026228900905647954,-0.0112177900595157,0.012627084601695112,0.029014164265339308, ,0.7226698398590088
0.01081552638680244,0.020829622386501653,-0.08169148130440669, ,0.011044017994939318,0.020987179950895857,-0.08188349818295097, ,0.00033749560401981566, ,0.0014274797436821464,0.0011889403725962127,-0.002802482278177861,0.009894259173548331,-0.0030789732589807496,0.014559373825377623, ,0.00336231832932473, ,0.010362260407362668, ,3.377746721972198e-05, ,0.15301050643701022,-0.24694210638620293,0.09165029558000001,1.6043377576000957,0.1949802851652835,-1.3036392129046324, ,0.013395954483126875,-0.0052269622545457976,0.0031883129543634914,-0.0112177900595157,0.013372389201909952,-0.0064480916454682955, ,0.7361140251159668
0.010847591381311871,0.020856579693177023,-0.08175699537296002, ,0.011069133407009466,0.02100938833537619,-0.08193760803945266, ,0.00032411770327849513, ,0.0017222665804280035,0.0014481451663110377,-0.0039001728893618016,0.015029141071790098,-0.00897958384815896,0.01299143035965451, ,0.004502740850158043, ,0.017507370063474505, ,3.417051867590374e-05, ,0.1532885248204823,-0.24705022464644205,0.09172418411000001,1.6043377576000957,0.19511692166504896,-1.3032605583674854, ,0.014308947762133713,-0.0049473695406767925,0.004336730607133134,-0.0112177900595157,0.008140478674783517,-0.011847574973774786, ,0.7516398429870605
0.010858052331628605,0.020866082444883,-0.08178262589722468, ,0.011094410245595541,0.02103119782275626,-0.08199213465093037, ,0.0003564015563719438, ,0.0017748769461001514,0.00143267975746596,-0.003997808487179379,0.00665103528347561,-0.00365918638755072,0.014947596640772788, ,0.004602741809119212, ,0.007591173449452729, ,3.465108516579746e-05, ,0.15338119761497299,-0.24708111557793896,0.09175270249,1.6043377576000957,0.19525355816481438,-1.3032086187909009, ,0.015488320802753515,-0.004449272073358182,0.004444422857142858,-0.0112177900595157,0.014973741414638099,-0.0039831674378316105, ,0.7665579319000244
0.010886558751363483,0.020889244502559846,-0.0818414801205677, ,0.011119847731156622,0.021052611052756767,-0.08204707491796956, ,0.0003512571686597684, ,0.0016754655745261332,0.001257818328740427,-0.003280715408699243,-0.0018829240449894425,-0.005643533809044513,0.014682611369334134, ,0.0038926065088079717, ,0.005949359329623323, ,3.509766042332078e-05, ,0.15362832506694818,-0.24716606563955543,0.09181881328000001,1.6043377576000957,0.19539019466457985,-1.3032383579544566, ,0.015380379507045508,-0.00453286037261593,0.003650885060738025,-0.011094861326333576,0.013004799001904328,0.004845001132064684, ,0.7798638343811035
0.010924624759829738,0.020918747261416782,-0.08192058785800611, ,0.011145445086419108,0.02107363065776655,-0.08210242575007096, ,0.00032529294811056166, ,0.0018664385786299688,0.0016513405144052552,-0.0041913610728821216,0.013429989838787331,-0.004908676041673624,-0.0029064510242267773, ,0.004876271742385368, ,0.01429894143838994, ,3.5448446311916e-05, ,0.15393723438191714,-0.24726646116692036,0.09190696100000001,1.6041280676566114,0.19539019466457985,-1.302993321734035, ,0.015546681120326145,-0.005989566956999522,0.004687702036492054,0.006093003116084145,0.009330207231611464,-0.006655273358626661, ,0.794313907623291
0.010953914090193825,0.020945133295717736,-0.08198771682782373, ,0.011171201536373866,0.021094259262852657,-0.08215818406564179, ,0.00031386536526142883, ,0.0017387862568173185,0.001358370946650522,-0.0038791493838222033,0.00924906792488989,-0.0014624743287776768,-0.0006955090492084633, ,0.004462773713466682, ,0.009363978201767693, ,3.5752274201975855e-05, ,0.15419208456676656,-0.24735913396141104,0.09198214582000001,1.6043377576000957,0.19566346766411072,-1.303216157541428, ,0.014942047167134431,-0.003611191304043481,0.004305084194594595,0.0043536251929972986,0.012727933627276094,-0.005094502605447334, ,0.8113229274749756
0.01096915946457459,0.020957237635436998,-0.08201877906225999, ,0.011197116308273287,0.02111449948576662,-0.08221434679198461, ,0.00033903148683833375, ,0.001610143595097227,0.0012736278420386964,-0.0030671112521676973,0.022116209150768413,-0.004358693308009545,-0.0055327276437327644, ,0.0036907806369415224, ,0.022541626256381682, ,3.6119583469310604e-05, ,0.1543310937585026,-0.24739774762578218,0.09201714565,1.6045474475435806,0.19580010416387617,-1.3032458967049838, ,0.014400142876854443,-0.004943012144124387,0.003480186043259778,0.007922939520409301,0.008102001441824701,-0.016103094810703895, ,0.8252990245819092
0.010997059419156673,0.020977598335200732,-0.0820691909331364, ,0.011223188631628418,0.021134353936954738,-0.08227091086528757, ,0.00034117102813900055, ,0.0017800724914249237,0.0013180487272438674,-0.0033670932646055443,-0.0024761785962943077,-0.007793703908699593,-0.004362639244348915, ,0.0040302887706303294, ,0.008177608490532964, ,3.64803183311168e-05, ,0.15457049847760357,-0.24747497495452442,0.09207418241000001,1.6045474475435806,0.19580010416387617,-1.3030825392247027, ,0.015669904484555942,-0.0045401413357627355,0.003798905680896733,0.007301794229635865,0.006411458896980682,0.008032788475980188, ,0.8409428596496582
0.01102296497988307,0.02099697126737465,-0.08211831708852538, ,0.011249417738205852,0.021153825219565152,-0.08232787323061425, ,0.00034611817455451003, ,0.0017721994201240212,0.0013013951286630554,-0.003454601820087494,0.004791792590550945,-0.000250781422476392,-0.001984010180628751, ,0.0040949473502046, ,0.004798350452050166, ,3.69480799965423e-05, ,0.15481762592957873,-0.24754447955039244,0.09212992288,1.6045474475435806,0.19607337716340703,-1.3033053750320955, ,0.016308118501197934,-0.004087956992116867,0.0038917203811385296,0.006583701314418428,0.01490947395122408,0.00016580532970387855, ,0.8520119190216064
0.011042703258502052,0.021012250894535976,-0.08215762431842191, ,0.011275802862025142,0.021172915929456682,-0.08238523084189338, ,0.0003632539168893574, ,0.0019749995963682316,0.0016042934770874138,-0.004339899850639773,0.00871530138005932,-0.001179989009567967,-0.0016266806357026669, ,0.005030816204142527, ,0.008794819535863046, ,3.745093497374411e-05, ,0.15497980331993746,-0.24759853868051201,0.09217399674000001,1.6045474475435806,0.19607337716340703,-1.3032236962919548, ,0.01704633403241796,-0.0049333542405175235,0.004843056102158711,0.006169074710004548,0.014766139598621409,-0.002987006628771244, ,0.8637239933013916
0.011068958236610565,0.021032917544360107,-0.08221738189392148, ,0.011302343239355573,0.021191628655207375,-0.08244298066190904, ,0.00037794985781375285, ,0.0018522230929969867,0.0015190517593049765,-0.004516758416497578,-0.0008681483775819489,-0.0013876557943502937,-0.0016686089471934383, ,0.005112666156388521, ,0.0016368470695804173, ,3.7980643815258096e-05, ,0.15514198071029617,-0.24763715234488312,0.09222195947,1.6045474475435806,0.19607337716340703,-1.3030603388116737, ,0.015010588667901104,-0.0035198880144855084,0.00497309132688105,0.0058136448869175,0.012672400992361204,0.005164921656753726, ,0.8806989192962646
0.011101621028516738,0.021062244592308862,-0.08230485875430302, ,0.011329038108713356,0.021209965978122473,-0.08250111966229001, ,0.0003347513707152336, ,0.002173366783637833,0.0019118566532167877,-0.006086436459686518,0.025644123924491346,0.003085047937417153,-0.00830408943931731, ,0.0067396904837292715, ,0.025829026390445903, ,3.837748806632369e-05, ,0.15545089002526516,-0.24771437967362536,0.09233603299000001,1.6049668274305493,0.19648328666270337,-1.3029861988220603, ,0.016271766385197322,-0.003227570228150182,0.006625961530782031,0.012514166365748666,0.016482998988991426,-0.020667966177752448, ,0.8920259475708008
0.011123755603755711,0.021081649808837213,-0.08236278778890434, ,0.01135588671085874,0.021227930472242983,-0.08255964482349963, ,0.00033769153889454047, ,0.0021630039361662874,0.0018680027085011548,-0.005258162693066104,-0.011527633590564242,-0.003835215768377042,-0.00773359635772734, ,0.005984671674669437, ,0.012148876992085765, ,3.877155319757484e-05, ,0.15562079014849808,-0.24776071607087072,0.09239955120000001,1.6049668274305493,0.19661992316246882,-1.303015937985616, ,0.017055525082399492,-0.005094730623875618,0.005809194573304159,0.012514166365748666,0.010770413803098167,0.018415036739805123, ,0.903005838394165
0.011146915509612656,0.021097252008066024,-0.08241098161032889, ,0.01138288828879298,0.021245524704353903,-0.08261855313482686, ,0.00034749659388398586, ,0.0020143665776146923,0.001390801632193298,-0.004283604078549749,0.012218398379495387,-0.0036616727500024806,-0.008476718969794298, ,0.004933686835510612, ,0.01275527752916008, ,3.918125673863114e-05, ,0.15580613573747948,-0.24779160700236763,0.09245269909,1.6049668274305493,0.19661992316246882,-1.3027709017651943, ,0.017086233625940004,-0.00253162402230691,0.004736488706512043,0.011683370822504296,0.010770413803098167,-0.00801438540423557, ,0.9154739379882812
0.011165209396832732,0.02110933397773328,-0.08244836225752508, ,0.01141004208775562,0.021262751233992648,-0.08267784159437402, ,0.00036897244762085506, ,0.002028733099449507,0.0013392071015102527,-0.004374223192542022,-0.0069300753330003685,-0.0005344246319788316,-0.006009606926479039, ,0.005004304366014323, ,0.006950651207398334, ,3.963669401212508e-05, ,0.1559683131278382,-0.2478147752009903,0.09249418037000001,1.6049668274305493,0.19675655966223426,-1.3028006409287505, ,0.017518357311883104,-0.0016876113559757158,0.004819610142208775,0.010867639484362417,0.014940581680269417,0.010179755705201042, ,0.9287269115447998
0.011208549631507093,0.021140183763224324,-0.08254050087114663, ,0.011437347355221322,0.02127961261345782,-0.08273750720904874, ,0.00033256623374577085, ,0.0019319802143011211,0.0013115665847671669,-0.004179361474498877,0.0006243345068372015,0.001893655402885826,-0.004215891229693327, ,0.004787464547049329, ,0.00199392153461223, ,3.998574015156702e-05, ,0.15635444977154941,-0.24788427979685831,0.09259658728,1.6049668274305493,0.19716646916153055,-1.3029715371595585, ,0.016927745550922364,-0.0019831976236101695,0.004617046817391305,0.009270634928252712,0.017121295344259452,0.002660991480802741, ,0.9403660297393799
0.011230979499575503,0.021155127791399057,-0.08259142170928159, ,0.011464803340897079,0.02129611138781671,-0.08279754699455197, ,0.00034210758023906423, ,0.00209448368824608,0.0015009946692296687,-0.005231036488324378,-0.004779136093803433,0.003685672410737328,-0.003031644545620285, ,0.005831259697489542, ,0.006035256333039943, ,4.035030138100607e-05, ,0.1565397953605308,-0.24789972526260676,0.09265232775000001,1.6049668274305493,0.197303105661296,-1.302919597582974, ,0.01710779548557252,-0.0010845666259290693,0.0056990381109123436,0.008670966279908083,0.019379907954014012,0.00708144122712754, ,0.9513158798217773
0.01125375929543383,0.021171735450435478,-0.08264479205719952, ,0.011492409296719314,0.02131225009491439,-0.08285795797536993, ,0.00034948232730144324, ,0.0022392452937679457,0.0017752635544054302,-0.005722477108535462,0.003384328410839118,-0.001144626542746485,0.004515881396889398, ,0.006396289895789158, ,0.0035726520371117186, ,4.082766463424825e-05, ,0.15670969548376376,-0.24792289346122942,0.09271066080000001,1.605176517374034,0.197303105661296,-1.3028379188428332, ,0.017629006419927692,-0.0029110769926026124,0.0062539503415783276,0.00012243926844968816,0.016974371349585904,-0.0005643936009553478, ,0.9601888656616211
0.01125375929543383,0.021171735450435478,-0.08264479205719952, ,0.011520164476850864,0.021328031265381804,-0.08291873718476143, ,0.00041285110557014827, ,0.0022392452937679457,0.0017752635544054302,-0.005722477108535462,0.003384328410839118,-0.001144626542746485,0.004515881396889398, ,0.006396289895789158, ,0.0035726520371117186, ,4.145465068207025e-05, ,0.15670969548376376,-0.24792289346122942,0.09271066080000001,1.605176517374034,0.197303105661296,-1.3028379188428332, ,0.017629006419927692,-0.0029110769926026124,0.0062539503415783276,0.00012243926844968816,0.016974371349585904,-0.0005643936009553478, ,0.970149040222168
0.011271846601416443,0.021184149583385836,-0.08268907774116353, ,0.011548068137678124,0.021343457422643843,-0.08297988166475, ,0.0004315602469147269, ,0.0024392436713942226,0.0019038032135482025,-0.006343786017408049,-0.001670192212020522,-0.0046806174638236485,0.00397819787600493, ,0.007058186551729495, ,0.004969679224424089, ,4.2115699548205684e-05, ,0.15684098194262558,-0.24793061619410367,0.09275862353000001,1.605176517374034,0.197303105661296,-1.3027562401026926, ,0.01853093957400328,-0.0025309405579844626,0.006904556358907673,0.00014716788895982003,0.014324210410342242,0.004134200523996662, ,0.982367992401123
0.011315849057115567,0.021217846775292013,-0.0828125276726735, ,0.011576119537808061,0.021358531082928,-0.08304138846611245, ,0.00037404553240003496, ,0.0026784930887132894,0.00191297989278891,-0.007209067609240456,-0.011453022074179265,-0.0007954207559739844,0.001440514340283482, ,0.00792492732402635, ,0.011480609275615443, ,4.262206096250916e-05, ,0.15718850492196568,-0.2479383389269779,0.0928921414,1.6053862073175185,0.19784965166035778,-1.302875196756916, ,0.0201994341333484,0.0,0.007777740000000001,0.004001597644886649,0.019204664574526468,0.011991421773524242, ,0.9918439388275146
0.011341181701000973,0.02123788660796924,-0.08288421772672701, ,0.011604317938065298,0.021373254755273165,-0.08310325464836918, ,0.0003681608175829538, ,0.0025718561892497825,0.001879628906044074,-0.0068708091463684446,0.012325287095126532,0.010250193777269568,-0.002950669121822722, ,0.007573339250848276, ,0.016030569520032775, ,4.3104189191126035e-05, ,0.15739701870956974,-0.2479460616598521,0.09296991880000001,1.6055958972610032,0.1982595611596541,-1.3031277717278646, ,0.020585019860839646,-0.0004586720424468539,0.007446849705469846,0.010207052299439806,0.029076958278611904,-0.010450989030614985, ,1.0007169246673584
0.011368618514875467,0.021257040839843987,-0.08294978047824442, ,0.011632662601489345,0.021387630941537252,-0.08316547727977362, ,0.00036510021162133475, ,0.0026630563523768703,0.0016540033762908754,-0.006531716365570444,-0.0027538458564373507,-0.003563633022715256,0.012057518145337098, ,0.0072450614203729965, ,0.004503680209877592, ,4.356960816421017e-05, ,0.15756691883280266,-0.24796150712560056,0.09302825185000001,1.6058055872044876,0.1982595611596541,-1.3028827355074428, ,0.02107415979535216,0.0007641715608150342,0.007111076571428573,-0.007446150816289878,0.021936928473431056,-0.00012732426930832028, ,1.0099408626556396
0.011379414430495218,0.021263085706943793,-0.0829723943756448, ,0.011661152793331386,0.021401662136405552,-0.08322805343730287, ,0.0004048968852731028, ,0.0026805078886812696,0.0015674782687986586,-0.006187510713663298,-0.028595757643374783,-0.007281570902775555,0.012455433629034491, ,0.006922961757523774, ,0.02950828054870952, ,4.412132695037348e-05, ,0.15768275982591604,-0.24796150712560056,0.09306584426,1.6058055872044876,0.1982595611596541,-1.3027193780271618, ,0.021865654736974834,0.0007641715608150342,0.006709693142375738,-0.007446150816289878,0.017354684827786064,0.02666671090320233, ,1.019239902496338
0.011424800373708962,0.021287564563184543,-0.08306358434215609, ,0.011689787781051564,0.02141535082739963,-0.08329098020664673, ,0.0003718286360134822, ,0.0027382693565467563,0.0012829090175440721,-0.0050513854822545326,0.0016327292919792792,-0.024553669575356853,0.0068642369485904416, ,0.005887314320352765, ,0.024607894897121486, ,4.4584225832392404e-05, ,0.15806117373675305,-0.24796150712560056,0.09316565859,1.6058055872044876,0.19839619765941952,-1.3026674384505772, ,0.02277891059972894,0.0007291852550879831,0.005528917570288095,-0.007446150816289878,0.0,-0.0034926503957182758, ,1.0283880233764648
0.011451736449176537,0.02130215032238188,-0.08312046772572854, ,0.011718566834315977,0.021428699494885305,-0.0833542546821979, ,0.00037665566305336616, ,0.0027382693565467563,0.0012829090175440721,-0.0050513854822545326,0.0016327292919792792,-0.024553669575356853,0.0068642369485904416, ,0.005887314320352765, ,0.024607894897121486, ,4.51557622689952e-05, ,0.158300578455854,-0.24795378439272633,0.09322788051000001,1.6058055872044876,0.1986694706589504,-1.3029719529981105, ,0.023777735294029257,0.0005094664549013264,0.006845213373442201,-0.007446150816289878,0.010525929881927838,7.290921238807795e-05, ,1.0350069999694824
0.011451736449176537,0.02130215032238188,-0.08312046772572854, ,0.01174748922499376,0.021441710612081208,-0.08341787396704159, ,0.0004420376129205641, ,0.002928597438425427,0.0016228354288405748,-0.00629051680389897,-0.0017570413930994495,-0.015408559236999759,0.009658498967507133, ,0.007126070407004653, ,0.015508413276905528, ,4.587204807767179e-05, ,0.158300578455854,-0.24795378439272633,0.09322788051000001,1.6058055872044876,0.1986694706589504,-1.3029719529981105, ,0.023777735294029257,0.0005094664549013264,0.006845213373442201,-0.007446150816289878,0.010525929881927838,7.290921238807795e-05, ,1.0422279834747314
0.011478178761140236,0.021319591300528552,-0.0831859014752968, ,0.011776554227154179,0.02145438664506673,-0.08348183517294637, ,0.00044133259230738235, ,0.0028937646416542805,0.001852993924650886,-0.007164169991282441,0.022227739456995636,0.0110022648356255,0.015510201486583663, ,0.007945614636393681, ,0.02480165748511222, ,4.6576726611487025e-05, ,0.15853226044208074,-0.24795378439272633,0.09329917646000001,1.6058055872044876,0.19907938015824675,-1.3032245279690593, ,0.02463575845235482,0.00045834783124801926,0.007781539579872985,-0.007446150816289878,0.03829274052520486,-0.024004155543228795, ,1.0488660335540771
0.011478178761140236,0.021319591300528552,-0.0831859014752968, ,0.011805761117063659,0.021466730052791042,-0.0835461354203521, ,0.0005086536223205402, ,0.0028937646416542805,0.001852993924650886,-0.007164169991282441,0.022227739456995636,0.0110022648356255,0.015510201486583663, ,0.007945614636393681, ,0.02480165748511222, ,4.742678062643191e-05, ,0.15853226044208074,-0.24795378439272633,0.09329917646000001,1.6058055872044876,0.19907938015824675,-1.3032245279690593, ,0.02463575845235482,0.00045834783124801926,0.007781539579872985,-0.007446150816289878,0.03829274052520486,-0.024004155543228795, ,1.0573830604553223
0.01150877572913743,0.02133772534865911,-0.08325396777582925, ,0.011835109173182881,0.021478743287080798,-0.08361077183836173, ,0.0005036752075484275, ,0.0031524070464685546,0.001966000574538903,-0.007565579099697564,0.023857101297831137,0.0009432933546609326,0.01320883312217042, ,0.008428571383069168, ,0.023875742080648937, ,4.825377116572054e-05, ,0.15876394242830746,-0.24795378439272633,0.09337306499,1.6058055872044876,0.19907938015824675,-1.3030611704887782, ,0.02591396547200185,0.0003940362639563564,0.008214962104177412,-0.007446150816289878,0.029205231587586596,-0.025536872282450638, ,1.0653350353240967
0.011560293632430087,0.02136785483550924,-0.08337387122543786, ,0.01186459767616383,0.02149042879264865,-0.08367574156473018, ,0.0004458150151643371, ,0.003854159429652993,0.0023497146095421586,-0.008934867806758241,0.0025820670954724923,-0.026227718272586197,-0.00846337318608405, ,0.010010372939092916, ,0.0263545104171683, ,4.893798412405503e-05, ,0.15915780180489292,-0.2479383389269779,0.09350269399000001,1.6055958972610032,0.19921601665801217,-1.3031725883924747, ,0.0283867608610442,0.0004622836744647775,0.009671409544626596,0.008689993577060597,0.0,-0.0017050857596679963, ,1.0726158618927002
0.011597267130377398,0.021391024719357925,-0.08346358613683583, ,0.011894225908846914,0.021501789007102118,-0.08374104174585387, ,0.0004212301728570225, ,0.003979621376464431,0.00247422155480443,-0.00928069551967613,0.014762256953371966,-0.014290917258830077,-0.005086719992935243, ,0.01039665657464976, ,0.020546398166255704, ,4.9557433831695794e-05, ,0.15945126565411344,-0.24793061619410367,0.09359991574000001,1.6055958972610032,0.19948928965754306,-1.3033954241998673, ,0.030681196753466145,0.00012994680406198537,0.010075149601518027,0.008454182047858685,0.014556417982749174,-0.01367001192522025, ,1.079334020614624
0.011597267130377398,0.021391024719357925,-0.08346358613683583, ,0.011923993156257957,0.021512826360951177,-0.08380666953676173, ,0.0004891745651474879, ,0.003979621376464431,0.00247422155480443,-0.00928069551967613,0.014762256953371966,-0.014290917258830077,-0.005086719992935243, ,0.01039665657464976, ,0.020546398166255704, ,5.0320891821947806e-05, ,0.15945126565411344,-0.24793061619410367,0.09359991574000001,1.6055958972610032,0.19948928965754306,-1.3033954241998673, ,0.030681196753466145,0.00012994680406198537,0.010075149601518027,0.008454182047858685,0.014556417982749174,-0.01367001192522025, ,1.0859270095825195
0.011634339385923361,0.021414907703847734,-0.08355286607357765, ,0.01195389870560535,0.02152354327761712,-0.08387262210110383, ,0.00046493414998593276, ,0.003893645240722504,0.0025487691250125686,-0.00975550599784168,0.04817575157032568,0.024228107627663784,0.0006979887363973804, ,0.010808635186143686, ,0.05392498632567987, ,5.102016013936449e-05, ,0.15976017496908243,-0.24792289346122942,0.09369713749000001,1.6060152771479719,0.19989919915683937,-1.303647999170816, ,0.033030609661841556,0.0007811119016164261,0.01060506758988016,0.011385591973970571,0.05546912244676338,-0.047475435742471005, ,1.094221830368042
0.011634339385923361,0.021414907703847734,-0.08355286607357765, ,0.011983941846277036,0.021533942173440443,-0.08393889661114169, ,0.000534238393574016, ,0.003893645240722504,0.0025487691250125686,-0.00975550599784168,0.04817575157032568,0.024228107627663784,0.0006979887363973804, ,0.010808635186143686, ,0.05392498632567987, ,5.197847072316779e-05, ,0.15976017496908243,-0.24792289346122942,0.09369713749000001,1.6060152771479719,0.19989919915683937,-1.303647999170816, ,0.033030609661841556,0.0007811119016164261,0.01060506758988016,0.011385591973970571,0.05546912244676338,-0.047475435742471005, ,1.1011300086975098
0.011634339385923361,0.021414907703847734,-0.08355286607357765, ,0.012014121869837644,0.021544025457689978,-0.08400549024773854, ,0.0006047931650409075, ,0.003893645240722504,0.0025487691250125686,-0.00975550599784168,0.04817575157032568,0.024228107627663784,0.0006979887363973804, ,0.010808635186143686, ,0.05392498632567987, ,5.3084069450749624e-05, ,0.15976017496908243,-0.24792289346122942,0.09369713749000001,1.6060152771479719,0.19989919915683937,-1.303647999170816, ,0.033030609661841556,0.0007811119016164261,0.01060506758988016,0.011385591973970571,0.05546912244676338,-0.047475435742471005, ,1.1071560382843018
0.011695546157060763,0.02145175324761206,-0.08369372977489464, ,0.012044438070025525,0.021553795532570343,-0.08407240020034862, ,0.0005249090263704871, ,0.004262983457537251,0.0025172835069031158,-0.009749671777855025,0.019069018025035182,-0.004247421701660366,-0.004429811335607477, ,0.010934616773772433, ,0.01953632389821873, ,5.4004379093538604e-05, ,0.16023898440728435,-0.2479151707283552,0.09385009971000001,1.6060152771479719,0.20017247215637027,-1.3039525137183494, ,0.034345617646931156,0.0011653460499355573,0.010598011656686628,0.01086021581419478,0.028020271414109153,-0.018680967359293876, ,1.1120710372924805
0.011695546157060763,0.02145175324761206,-0.08369372977489464, ,0.012074889742749857,0.021563254793230895,-0.08413962366700692, ,0.0005959492543009694, ,0.004262983457537251,0.0025172835069031158,-0.009749671777855025,0.019069018025035182,-0.004247421701660366,-0.004429811335607477, ,0.010934616773772433, ,0.01953632389821873, ,5.507208258612918e-05, ,0.16023898440728435,-0.2479151707283552,0.09385009971000001,1.6060152771479719,0.20017247215637027,-1.3039525137183494, ,0.034345617646931156,0.0011653460499355573,0.010598011656686628,0.01086021581419478,0.028020271414109153,-0.018680967359293876, ,1.1166539192199707
0.01176518444754571,0.021488935159226806,-0.08383781689092251, ,0.012105476186087618,0.021572405627773864,-0.08420715785431972, ,0.0005090958001030012, ,0.0038430829117685845,0.0018963077863988524,-0.007337286022793488,0.009112471969372067,-0.015563849775806589,-0.005860626902644901, ,0.008497119257005005, ,0.018035258356089212, ,5.594125826135956e-05, ,0.16077957570848006,-0.24789972526260676,0.0940069508,1.6060152771479719,0.20017247215637027,-1.3037891562380683, ,0.03251008617967481,0.0011118372353004626,0.008052988634984834,0.00942619641858845,0.014964485563284051,-0.008823151615961818, ,1.121340036392212
0.01176518444754571,0.021488935159226806,-0.08383781689092251, ,0.012136196700280736,0.021581250417262325,-0.08427499997745377, ,0.0005807764197130288, ,0.0038430829117685845,0.0018963077863988524,-0.007337286022793488,0.009112471969372067,-0.015563849775806589,-0.005860626902644901, ,0.008497119257005005, ,0.018035258356089212, ,5.6958381695611864e-05, ,0.16077957570848006,-0.24789972526260676,0.0940069508,1.6060152771479719,0.20017247215637027,-1.3037891562380683, ,0.03251008617967481,0.0011118372353004626,0.008052988634984834,0.00942619641858845,0.014964485563284051,-0.008823151615961818, ,1.125938892364502
0.011812065526351063,0.021510765400982543,-0.083932958437365, ,0.01216705058773322,0.021589791535729836,-0.08434314726012633, ,0.0005481919318048401, ,0.005175905471319045,0.002334669443567413,-0.010882618334710478,0.000905413794513799,-0.02542598759884232,0.00047827160914670026, ,0.012274854812898377, ,0.025442100284297667, ,5.789634102263912e-05, ,0.16118888055081396,-0.2478533888653614,0.09411065400000002,1.6062249670914566,0.20058238165566658,-1.3040417312090171, ,0.041331420539403654,0.006476449936447882,0.01174691115044248,0.0021837874300293593,0.01575358254182628,-0.007034227416700619, ,1.130573034286499
0.011812065526351063,0.021510765400982543,-0.083932958437365, ,0.012198037153008035,0.02159803135018707,-0.08441159693459546, ,0.000621034824712622, ,0.005175905471319045,0.002334669443567413,-0.010882618334710478,0.000905413794513799,-0.02542598759884232,0.00047827160914670026, ,0.012274854812898377, ,0.025442100284297667, ,5.898288326493448e-05, ,0.16118888055081396,-0.2478533888653614,0.09411065400000002,1.6062249670914566,0.20058238165566658,-1.3040417312090171, ,0.041331420539403654,0.006476449936447882,0.01174691115044248,0.0021837874300293593,0.01575358254182628,-0.007034227416700619, ,1.134997844696045
0.011812065526351063,0.021510765400982543,-0.083932958437365, ,0.012229155702824332,0.02160597222063129,-0.08448034624164896, ,0.0006947387725591223, ,0.005175905471319045,0.002334669443567413,-0.010882618334710478,0.000905413794513799,-0.02542598759884232,0.00047827160914670026, ,0.012274854812898377, ,0.025442100284297667, ,6.021794323501853e-05, ,0.16162907632464477,-0.24780705246811607,0.09425843106000001,1.6062249670914566,0.20153883715402465,-1.304821656534892, ,0.0418232444065539,0.0028375866183207913,0.015390156057971019,0.0021837874300293593,0.09377085312014691,-0.07093988144584865, ,1.1406669616699219
0.011863531879478107,0.021542952389100718,-0.08406976511738495, ,0.01226040554605441,0.021613616500054344,-0.08454939243059492, ,0.0006265337048999026, ,0.005074519280984597,0.003524733368629164,-0.014252576622865745,0.06798690612115152,0.05065803577572687,0.017669877747429764, ,0.015534169808640287, ,0.08478475926992877, ,6.129704306109499e-05, ,0.16162907632464477,-0.24780705246811607,0.09425843106000001,1.6062249670914566,0.20153883715402465,-1.304821656534892, ,0.0418232444065539,0.0028375866183207913,0.015390156057971019,0.0021837874300293593,0.09377085312014691,-0.07093988144584865, ,1.1460249423980713
0.011917029337506843,0.021577481794485466,-0.08421176669519184, ,0.012291785993720834,0.02162096653445095,-0.08461873275925141, ,0.0005549367993588974, ,0.006285294680375858,0.003806866886193068,-0.016063882123270833,0.01802545217021773,-0.014004411119403332,-0.007516728040801245, ,0.017664808902976975, ,0.022826287194052327, ,6.221496814227697e-05, ,0.16203838116697866,-0.24776843880374494,0.09441139328,1.606434657034941,0.2020853831530864,-1.3051039706693965, ,0.045470503861270134,0.005236750761372039,0.017257650617551468,0.0134658660633239,0.028732132924590665,-0.021234937950308296, ,1.150735855102539
0.011917029337506843,0.021577481794485466,-0.08421176669519184, ,0.01232329635899362,0.021628024662827497,-0.08468836449393609, ,0.0006282936702337842, ,0.006285294680375858,0.003806866886193068,-0.016063882123270833,0.01802545217021773,-0.014004411119403332,-0.007516728040801245, ,0.017664808902976975, ,0.022826287194052327, ,6.328021916542545e-05, ,0.16203838116697866,-0.24776843880374494,0.09441139328,1.606434657034941,0.2020853831530864,-1.3051039706693965, ,0.045470503861270134,0.005236750761372039,0.017257650617551468,0.0134658660633239,0.028732132924590665,-0.021234937950308296, ,1.1554388999938965
0.011917029337506843,0.021577481794485466,-0.08421176669519184, ,0.012354935957186973,0.02163479321720967,-0.08475828490945671, ,0.0007026584983173605, ,0.006285294680375858,0.003806866886193068,-0.016063882123270833,0.01802545217021773,-0.014004411119403332,-0.007516728040801245, ,0.017664808902976975, ,0.022826287194052327, ,6.449305718644967e-05, ,0.16203838116697866,-0.24776843880374494,0.09441139328,1.606434657034941,0.2020853831530864,-1.3051039706693965, ,0.045470503861270134,0.005236750761372039,0.017257650617551468,0.0134658660633239,0.028732132924590665,-0.021234937950308296, ,1.164531946182251
0.01194939657175404,0.021595834475177864,-0.08429160688204919, ,0.012386704105756704,0.021641274522651223,-0.08482849128909964, ,0.0006939362677824141, ,0.006325408966828825,0.003860683261036794,-0.016700924189868856,0.0071589613531956,-0.019298941276785064,-0.008999158643625044, ,0.018271194340694723, ,0.02058393943787328, ,6.581541687257566e-05, ,0.16226234042033116,-0.24773754787224805,0.09449694842,1.606434657034941,0.2020853831530864,-1.305022291929256, ,0.04391343894422526,0.006390293139381348,0.01787745400673401,0.0134658660633239,0.021815669859292206,-0.011464468471499324, ,1.1668319702148438
0.01194939657175404,0.021595834475177864,-0.08429160688204919, ,0.01241860012429706,0.021647470897242418,-0.08489898092462143, ,0.0007692343735125024, ,0.006325408966828825,0.003860683261036794,-0.016700924189868856,0.0071589613531956,-0.019298941276785064,-0.008999158643625044, ,0.018271194340694723, ,0.02058393943787328, ,6.729008973764887e-05, ,0.16226234042033116,-0.24773754787224805,0.09449694842,1.606434657034941,0.2020853831530864,-1.305022291929256, ,0.04391343894422526,0.006390293139381348,0.01787745400673401,0.0134658660633239,0.021815669859292206,-0.011464468471499324, ,1.1691100597381592
0.01194939657175404,0.021595834475177864,-0.08429160688204919, ,0.012450623334537907,0.021653384652118145,-0.0849697511162371, ,0.0008452336321745374, ,0.006325408966828825,0.003860683261036794,-0.016700924189868856,0.0071589613531956,-0.019298941276785064,-0.008999158643625044, ,0.018271194340694723, ,0.02058393943787328, ,6.891758668835365e-05, ,0.16226234042033116,-0.24773754787224805,0.09449694842,1.606434657034941,0.2020853831530864,-1.305022291929256, ,0.04391343894422526,0.006390293139381348,0.01787745400673401,0.0134658660633239,0.021815669859292206,-0.011464468471499324, ,1.1714129447937012
0.012061421402096756,0.021661242247274223,-0.08458257309796771, ,0.012482773060341755,0.021659018091466226,-0.0850407991726109, ,0.0006225056644383019, ,0.006472468652830591,0.0031972403196104783,-0.014844734302501774,-0.02081393841567445,-0.03950209581184914,-0.010249555633875756, ,0.016507008591355683, ,0.04465013868983365, ,7.007330292582747e-05, ,0.16303461370775363,-0.24760626141338624,0.09480805802000002,1.6066443469784255,0.2023586561526173,-1.3049184127760867, ,0.04709525635656118,0.008498269514778986,0.015928811520000002,0.011242351406277462,0.005216067666393888,0.014188706932738972, ,1.173797845840454
0.012061421402096756,0.021661242247274223,-0.08458257309796771, ,0.012515048627700838,0.021664373512536077,-0.08511212241084633, ,0.000697287558616681, ,0.006472468652830591,0.0031972403196104783,-0.014844734302501774,-0.02081393841567445,-0.03950209581184914,-0.010249555633875756, ,0.016507008591355683, ,0.04465013868983365, ,0.0003893454506828185, ,0.16303461370775363,-0.24760626141338624,0.09480805802000002,1.6066443469784255,0.2023586561526173,-1.3049184127760867, ,0.04709525635656118,0.008498269514778986,0.015928811520000002,0.011242351406277462,0.005216067666393888,0.014188706932738972, ,1.1760568618774414
0.012061421402096756,0.021661242247274223,-0.08458257309796771, ,0.012547449364734113,0.02166945320564676,-0.08518371815647456, ,0.0007730885988488118, ,0.006472468652830591,0.0031972403196104783,-0.014844734302501774,-0.02081393841567445,-0.03950209581184914,-0.010249555633875756, ,0.016507008591355683, ,0.04465013868983365, ,0.00039365717144872853, ,0.16303461370775363,-0.24760626141338624,0.09480805802000002,1.6066443469784255,0.2023586561526173,-1.3049184127760867, ,0.04709525635656118,0.008498269514778986,0.015928811520000002,0.011242351406277462,0.005216067666393888,0.014188706932738972, ,1.1783008575439453
0.012061421402096756,0.021661242247274223,-0.08458257309796771, ,0.01257997460168444,0.021674259454195394,-0.08525558374344629, ,0.0008497118319796082, ,0.006472468652830591,0.0031972403196104783,-0.014844734302501774,-0.02081393841567445,-0.03950209581184914,-0.010249555633875756, ,0.016507008591355683, ,0.04465013868983365, ,0.00039872444545462716, ,0.16303461370775363,-0.24760626141338624,0.09480805802000002,1.6066443469784255,0.2023586561526173,-1.3049184127760867, ,0.04709525635656118,0.008498269514778986,0.015928811520000002,0.011242351406277462,0.005216067666393888,0.014188706932738972, ,1.1805520057678223
0.0121258617651829,0.021691828863225023,-0.0847424041976265, ,0.012612623670915563,0.02167879453466549,-0.08532771651411998, ,0.0007613787194507405, ,0.006672961453361467,0.003294251787745836,-0.017652323102319678,0.08150910600308185,0.05605951729100312,0.011149438004915755, ,0.019156853089894583, ,0.09892624589221884, ,0.0004027096572567823, ,0.1635597595432009,-0.24747497495452442,0.09497916830000001,1.6066443469784255,0.20317847515120993,-1.3055052414581247, ,0.054822034406973294,0.015490849095408226,0.01885066452071006,0.010033277204495738,0.11038069003786613,-0.09580236777974058, ,1.182800054550171
0.0121258617651829,0.021691828863225023,-0.0847424041976265, ,0.0126453959069091,0.021683060716635245,-0.08540011381925214, ,0.0008381972030451618, ,0.006672961453361467,0.003294251787745836,-0.017652323102319678,0.08150910600308185,0.05605951729100312,0.011149438004915755, ,0.019156853089894583, ,0.09892624589221884, ,0.0004074432175370908, ,0.1635597595432009,-0.24747497495452442,0.09497916830000001,1.6066443469784255,0.20317847515120993,-1.3055052414581247, ,0.054822034406973294,0.015490849095408226,0.01885066452071006,0.010033277204495738,0.11038069003786613,-0.09580236777974058, ,1.1850268840789795
0.0121258617651829,0.021691828863225023,-0.0847424041976265, ,0.012678290646261837,0.02168706026278633,-0.085472773017988, ,0.000915772363612549, ,0.006672961453361467,0.003294251787745836,-0.017652323102319678,0.08150910600308185,0.05605951729100312,0.011149438004915755, ,0.019156853089894583, ,0.09892624589221884, ,0.00041290912233360113, ,0.1635597595432009,-0.24747497495452442,0.09497916830000001,1.6066443469784255,0.20317847515120993,-1.3055052414581247, ,0.054822034406973294,0.015490849095408226,0.01885066452071006,0.010033277204495738,0.11038069003786613,-0.09580236777974058, ,1.1873269081115723
0.0121258617651829,0.021691828863225023,-0.0847424041976265, ,0.012711307227682572,0.0216907954289116,-0.08554569147784993, ,0.0009939909014255045, ,0.006672961453361467,0.003294251787745836,-0.017652323102319678,0.08150910600308185,0.05605951729100312,0.011149438004915755, ,0.019156853089894583, ,0.09892624589221884, ,0.0004190908433877703, ,0.1635597595432009,-0.24747497495452442,0.09497916830000001,1.6066443469784255,0.20317847515120993,-1.3055052414581247, ,0.054822034406973294,0.015490849095408226,0.01885066452071006,0.010033277204495738,0.11038069003786613,-0.09580236777974058, ,1.189682960510254
0.01219548607224274,0.021726029356824196,-0.08492707902091395, ,0.012744444991989274,0.021694268463923666,-0.0856188665747284, ,0.0008837050806121374, ,0.008412928695584347,0.004392498564248917,-0.02281581385732263,0.07672467815926373,0.04574135971767122,0.011516996721716818, ,0.024710984902385227, ,0.08932492398396145, ,0.00042398151956907947, ,0.16412351904301928,-0.2473127975641657,0.09517620438,1.6066443469784255,0.20427156714933348,-1.306396584687696, ,0.06473188373701963,0.018203902082960056,0.024318796213740463,0.00914689037207927,0.11018860817547567,-0.09384007750894623, ,1.1920149326324463
0.01219548607224274,0.021726029356824196,-0.08492707902091395, ,0.01277770328210607,0.021697481609863307,-0.08569229569287126, ,0.0009619503149118482, ,0.008412928695584347,0.004392498564248917,-0.02281581385732263,0.07672467815926373,0.04574135971767122,0.011516996721716818, ,0.024710984902385227, ,0.08932492398396145, ,0.0004295853611872333, ,0.16412351904301928,-0.2473127975641657,0.09517620438,1.6066443469784255,0.20427156714933348,-1.306396584687696, ,0.06473188373701963,0.018203902082960056,0.024318796213740463,0.00914689037207927,0.11018860817547567,-0.09384007750894623, ,1.1943738460540771
0.01219548607224274,0.021726029356824196,-0.08492707902091395, ,0.012811081443060436,0.021700437101907853,-0.085765976224874, ,0.001040846358929053, ,0.008412928695584347,0.004392498564248917,-0.02281581385732263,0.07672467815926373,0.04574135971767122,0.011516996721716818, ,0.024710984902385227, ,0.08932492398396145, ,0.0004358870209577675, ,0.16412351904301928,-0.2473127975641657,0.09517620438,1.6066443469784255,0.20427156714933348,-1.306396584687696, ,0.06473188373701963,0.018203902082960056,0.024318796213740463,0.00914689037207927,0.11018860817547567,-0.09384007750894623, ,1.1969120502471924
0.01219548607224274,0.021726029356824196,-0.08492707902091395, ,0.012844578821980196,0.021703137168379474,-0.0858399055716689, ,0.001120311457504874, ,0.008412928695584347,0.004392498564248917,-0.02281581385732263,0.07672467815926373,0.04574135971767122,0.011516996721716818, ,0.024710984902385227, ,0.08932492398396145, ,0.00044287094377967674, ,0.16412351904301928,-0.2473127975641657,0.09517620438,1.6066443469784255,0.20427156714933348,-1.306396584687696, ,0.06473188373701963,0.018203902082960056,0.024318796213740463,0.00914689037207927,0.11018860817547567,-0.09384007750894623, ,1.1993749141693115
0.01229338371897471,0.02178007212294264,-0.08520005614590374, ,0.012878194768090477,0.021705584030753653,-0.08591408114251567, ,0.0009259503954491842, ,0.01014168916300175,0.005927609371742901,-0.029052845230122328,0.0425881827392401,0.006735095943234732,0.013305504060253156, ,0.0313378082818241, ,0.04311721382095573, ,0.00044775053420058087, ,0.16482628773457372,-0.24711200650943585,0.09546657334000001,1.6068540369219102,0.20522802264769155,-1.307176510013571, ,0.0688157661772812,0.018735822617664516,0.030869789767441865,0.0,0.07697698971375372,-0.06148435036461126, ,1.202082872390747
0.01229338371897471,0.02178007212294264,-0.08520005614590374, ,0.012911928632710927,0.02170777990366683,-0.08598850035499081, ,0.0010047229698378036, ,0.01014168916300175,0.005927609371742901,-0.029052845230122328,0.0425881827392401,0.006735095943234732,0.013305504060253156, ,0.0313378082818241, ,0.04311721382095573, ,0.0004533202585569531, ,0.16482628773457372,-0.24711200650943585,0.09546657334000001,1.6068540369219102,0.20522802264769155,-1.307176510013571, ,0.0688157661772812,0.018735822617664516,0.030869789767441865,0.0,0.07697698971375372,-0.06148435036461126, ,1.2045390605926514
0.01229338371897471,0.02178007212294264,-0.08520005614590374, ,0.012945779769252702,0.02170972699492606,-0.08606316063497746, ,0.0010842132643134347, ,0.01014168916300175,0.005927609371742901,-0.029052845230122328,0.0425881827392401,0.006735095943234732,0.013305504060253156, ,0.0313378082818241, ,0.04311721382095573, ,0.0004595667239604826, ,0.16482628773457372,-0.24711200650943585,0.09546657334000001,1.6068540369219102,0.20522802264769155,-1.307176510013571, ,0.0688157661772812,0.018735822617664516,0.030869789767441865,0.0,0.07697698971375372,-0.06148435036461126, ,1.206864833831787
0.01229338371897471,0.02178007212294264,-0.08520005614590374, ,0.012979747533215616,0.021711427505516117,-0.08613805941665563, ,0.0011643270609850973, ,0.01014168916300175,0.005927609371742901,-0.029052845230122328,0.0425881827392401,0.006735095943234732,0.013305504060253156, ,0.0313378082818241, ,0.04311721382095573, ,0.0004664761390293514, ,0.16482628773457372,-0.24711200650943585,0.09546657334000001,1.6068540369219102,0.20522802264769155,-1.307176510013571, ,0.0688157661772812,0.018735822617664516,0.030869789767441865,0.0,0.07697698971375372,-0.06148435036461126, ,1.2091069221496582
0.01229338371897471,0.02178007212294264,-0.08520005614590374, ,0.013013831282185005,0.02171288362960824,-0.08621319414249128, ,0.0012449930060452535, ,0.01014168916300175,0.005927609371742901,-0.029052845230122328,0.0425881827392401,0.006735095943234732,0.013305504060253156, ,0.0313378082818241, ,0.04311721382095573, ,0.0004740345552139718, ,0.16482628773457372,-0.24711200650943585,0.09546657334000001,1.6068540369219102,0.20522802264769155,-1.307176510013571, ,0.0688157661772812,0.018735822617664516,0.030869789767441865,0.0,0.07697698971375372,-0.06148435036461126, ,1.211333990097046
0.012402504700320529,0.021844069221779283,-0.08552149131788708, ,0.013048030375828981,0.021714097554569115,-0.08628856226322722, ,0.001010937123268822, ,0.011302869188439575,0.006557528202388814,-0.03458333531012108,0.05396363402822098,0.027976969378016504,-0.0024691320798516984, ,0.03696975938775324, ,0.06078433304699741, ,0.0004791970799068069, ,0.16555994735762503,-0.24688032452320913,0.09580749761000001,1.6072734168088794,0.20618447814604965,-1.307956435339446, ,0.07316649310599135,0.027690966314114614,0.036533971376146786,0.019602636326445953,0.09818073629085831,-0.07864613370676936, ,1.2135789394378662
0.012402504700320529,0.021844069221779283,-0.08552149131788708, ,0.013082344175895416,0.021715071460968037,-0.0863641612378718, ,0.0010903736648008803, ,0.011302869188439575,0.006557528202388814,-0.03458333531012108,0.05396363402822098,0.027976969378016504,-0.0024691320798516984, ,0.03696975938775324, ,0.06078433304699741, ,0.0004850178092867505, ,0.16555994735762503,-0.24688032452320913,0.09580749761000001,1.6072734168088794,0.20618447814604965,-1.307956435339446, ,0.07316649310599135,0.027690966314114614,0.036533971376146786,0.019602636326445953,0.09818073629085831,-0.07864613370676936, ,1.2157838344573975
0.012402504700320529,0.021844069221779283,-0.08552149131788708, ,0.01311677204620894,0.02171580752258596,-0.08643998853368962, ,0.0011705836323473167, ,0.011302869188439575,0.006557528202388814,-0.03458333531012108,0.05396363402822098,0.027976969378016504,-0.0024691320798516984, ,0.03696975938775324, ,0.06078433304699741, ,0.0004914854113910954, ,0.16555994735762503,-0.24688032452320913,0.09580749761000001,1.6072734168088794,0.20618447814604965,-1.307956435339446, ,0.07316649310599135,0.027690966314114614,0.036533971376146786,0.019602636326445953,0.09818073629085831,-0.07864613370676936, ,1.2180240154266357
0.012402504700320529,0.021844069221779283,-0.08552149131788708, ,0.013151313352668208,0.02171630790642413,-0.08651604162619114, ,0.0012514662070066962, ,0.011302869188439575,0.006557528202388814,-0.03458333531012108,0.05396363402822098,0.027976969378016504,-0.0024691320798516984, ,0.03696975938775324, ,0.06078433304699741, ,0.0004985880356491851, ,0.16555994735762503,-0.24688032452320913,0.09580749761000001,1.6072734168088794,0.20618447814604965,-1.307956435339446, ,0.07316649310599135,0.027690966314114614,0.036533971376146786,0.019602636326445953,0.09818073629085831,-0.07864613370676936, ,1.2211589813232422
0.01250247492760244,0.021898121507013365,-0.08582671757068262, ,0.013185967463242694,0.021716574772711855,-0.08659231799912215, ,0.0010422405092099763, ,0.012125576080080674,0.00627066987083026,-0.03667738917508724,0.034827384393085054,0.010682842702425433,-0.009391616416740507, ,0.039135428611471346, ,0.036428058674238505, ,0.0005036218548488221, ,0.16620093418618567,-0.24659458340686283,0.09612897753,1.6074831067523636,0.2070042971446423,-1.308543264021484, ,0.07646812373768798,0.03658324655299568,0.038568550895883784,0.021906460001274407,0.08333728668596102,-0.06781259283801257, ,1.2234740257263184
0.01250247492760244,0.021898121507013365,-0.08582671757068262, ,0.0132207337479699,0.021716610274914765,-0.08666881514445424, ,0.0011215927889237003, ,0.012125576080080674,0.00627066987083026,-0.03667738917508724,0.034827384393085054,0.010682842702425433,-0.009391616416740507, ,0.039135428611471346, ,0.036428058674238505, ,0.0005092913129596009, ,0.16620093418618567,-0.24659458340686283,0.09612897753,1.6074831067523636,0.2070042971446423,-1.308543264021484, ,0.07646812373768798,0.03658324655299568,0.038568550895883784,0.021906460001274407,0.08333728668596102,-0.06781259283801257, ,1.225693941116333
0.01250247492760244,0.021898121507013365,-0.08582671757068262, ,0.01325561157895243,0.021716416559743646,-0.0867455305623739, ,0.0012018522443169289, ,0.012125576080080674,0.00627066987083026,-0.03667738917508724,0.034827384393085054,0.010682842702425433,-0.009391616416740507, ,0.039135428611471346, ,0.036428058674238505, ,0.0005155873214264857, ,0.16620093418618567,-0.24659458340686283,0.09612897753,1.6074831067523636,0.2070042971446423,-1.308543264021484, ,0.07646812373768798,0.03658324655299568,0.038568550895883784,0.021906460001274407,0.08333728668596102,-0.06781259283801257, ,1.2279858589172363
0.01250247492760244,0.021898121507013365,-0.08582671757068262, ,0.013290600330355042,0.02171599576716288,-0.08682246176127278, ,0.001282894356006796, ,0.012125576080080674,0.00627066987083026,-0.03667738917508724,0.034827384393085054,0.010682842702425433,-0.009391616416740507, ,0.039135428611471346, ,0.036428058674238505, ,0.0005224999974136956, ,0.16620093418618567,-0.24659458340686283,0.09612897753,1.6074831067523636,0.2070042971446423,-1.308543264021484, ,0.07646812373768798,0.03658324655299568,0.038568550895883784,0.021906460001274407,0.08333728668596102,-0.06781259283801257, ,1.2350659370422363
0.012607013878552313,0.021948608625814596,-0.08613396718888483, ,0.013325699378401569,0.021715350030397776,-0.08689960625773815, ,0.0010756958695579285, ,0.013000718045117283,0.005863221372861104,-0.0367052882775574,-0.0005593048920438264,-0.027791831981494895,-0.016980919807520683, ,0.03937860106827573, ,0.027796260916413885, ,0.0005274392462721263, ,0.16685736648049476,-0.2462702286261454,0.09645175374,1.6074831067523636,0.20755084314370403,-1.3089072568961289, ,0.08237581732506143,0.04104538994743546,0.038568550895883784,0.021906460001274407,0.05022630668261001,-0.03664178670344547, ,1.2385928630828857
0.012607013878552313,0.021948608625814596,-0.08613396718888483, ,0.013360908101372262,0.021714481475944396,-0.08697696157654135, ,0.0011549075976579365, ,0.013000718045117283,0.005863221372861104,-0.0367052882775574,-0.0005593048920438264,-0.027791831981494895,-0.016980919807520683, ,0.03937860106827573, ,0.027796260916413885, ,0.0005329920635410272, ,0.16685736648049476,-0.2462702286261454,0.09645175374,1.6074831067523636,0.20755084314370403,-1.3089072568961289, ,0.08237581732506143,0.04104538994743546,0.038568550895883784,0.021906460001274407,0.05022630668261001,-0.03664178670344547, ,1.2410919666290283
0.012739327416558595,0.022002001989893872,-0.08649283057627642, ,0.01339622587960046,0.021713392223576197,-0.08705452525062847, ,0.0009112146262852458, ,0.012995665981360687,0.004683972514444607,-0.03377726928109478,0.03882201686527126,0.007337124018849809,-0.008588760645860161, ,0.03649288770298614, ,0.039508713162741474, ,0.0005363098053194853, ,0.16773775802815635,-0.24583003285231458,0.09682897413000001,1.6074831067523636,0.20823402564253127,-1.3093826676744706, ,0.09177653922482666,0.0457114362035023,0.03555538285714287,0.021906460001274407,0.09546127957294245,-0.08085302929488629, ,1.2433738708496094
0.012739327416558595,0.022002001989893872,-0.08649283057627642, ,0.013431652095470028,0.021712084386354073,-0.0871322948211104, ,0.000986042695978815, ,0.012995665981360687,0.004683972514444607,-0.03377726928109478,0.03882201686527126,0.007337124018849809,-0.008588760645860161, ,0.03649288770298614, ,0.039508713162741474, ,0.0005402205261078273, ,0.16773775802815635,-0.24583003285231458,0.09682897413000001,1.6074831067523636,0.20823402564253127,-1.3093826676744706, ,0.09177653922482666,0.0457114362035023,0.03555538285714287,0.021906460001274407,0.09546127957294245,-0.08085302929488629, ,1.2456510066986084
0.012739327416558595,0.022002001989893872,-0.08649283057627642, ,0.013467186133412223,0.021710560070633513,-0.08721026783725244, ,0.0010627478193055704, ,0.012995665981360687,0.004683972514444607,-0.03377726928109478,0.03882201686527126,0.007337124018849809,-0.008588760645860161, ,0.03649288770298614, ,0.039508713162741474, ,0.0005447250717388423, ,0.16773775802815635,-0.24583003285231458,0.09682897413000001,1.6074831067523636,0.20823402564253127,-1.3093826676744706, ,0.09177653922482666,0.0457114362035023,0.03555538285714287,0.021906460001274407,0.09546127957294245,-0.08085302929488629, ,1.2479019165039062
0.012739327416558595,0.022002001989893872,-0.08649283057627642, ,0.013502827379902762,0.02170882137607338,-0.08728844185646353, ,0.001141001479187332, ,0.012995665981360687,0.004683972514444607,-0.03377726928109478,0.03882201686527126,0.007337124018849809,-0.008588760645860161, ,0.03649288770298614, ,0.039508713162741474, ,0.0005498214512896842, ,0.16773775802815635,-0.24583003285231458,0.09682897413000001,1.6074831067523636,0.20823402564253127,-1.3093826676744706, ,0.09177653922482666,0.0457114362035023,0.03555538285714287,0.021906460001274407,0.09546127957294245,-0.08085302929488629, ,1.2501559257507324
0.01291924441539801,0.022044693895420138,-0.08689356009313895, ,0.013538575223458879,0.02170687039564405,-0.0873668144442869, ,0.0008495087096050062, ,0.012653577462427814,0.0008173950743655628,-0.02395246662024291,0.004674019312931782,-0.03107389319554345,0.025861074342996976, ,0.027101693941506848, ,0.03142332590261809, ,0.0005523611738177801, ,0.16912012721264255,-0.2451427096265086,0.09725156467000001,1.607692796695848,0.2094637541404202,-1.3103854288077383, ,0.10416788315968253,0.059571212528857984,0.0251243083911672,-0.020182256563688966,0.07938022016697781,-0.06711485064906104, ,1.2524640560150146
0.01291924441539801,0.022044693895420138,-0.08689356009313895, ,0.01357442905463646,0.02170470921563647,-0.08744538317438974, ,0.0009216101165800743, ,0.012653577462427814,0.0008173950743655628,-0.02395246662024291,0.004674019312931782,-0.03107389319554345,0.025861074342996976, ,0.027101693941506848, ,0.03142332590261809, ,0.0005554641061099001, ,0.16912012721264255,-0.2451427096265086,0.09725156467000001,1.607692796695848,0.2094637541404202,-1.3103854288077383, ,0.10416788315968253,0.059571212528857984,0.0251243083911672,-0.020182256563688966,0.07938022016697781,-0.06711485064906104, ,1.2551119327545166
0.01291924441539801,0.022044693895420138,-0.08689356009313895, ,0.01361038826602704,0.021702339915669118,-0.08752414562855237, ,0.0009962550813854458, ,0.012653577462427814,0.0008173950743655628,-0.02395246662024291,0.004674019312931782,-0.03107389319554345,0.025861074342996976, ,0.027101693941506848, ,0.03142332590261809, ,0.0005591373642371964, ,0.16912012721264255,-0.2451427096265086,0.09725156467000001,1.607692796695848,0.2094637541404202,-1.3103854288077383, ,0.10416788315968253,0.059571212528857984,0.0251243083911672,-0.020182256563688966,0.07938022016697781,-0.06711485064906104, ,1.2574150562286377
0.01291924441539801,0.022044693895420138,-0.08689356009313895, ,0.013646452252254863,0.021699764568697887,-0.0876030993966599, ,0.0010729648184633496, ,0.012653577462427814,0.0008173950743655628,-0.02395246662024291,0.004674019312931782,-0.03107389319554345,0.025861074342996976, ,0.027101693941506848, ,0.03142332590261809, ,0.0005633838721233629, ,0.16912012721264255,-0.2451427096265086,0.09725156467000001,1.607692796695848,0.2094637541404202,-1.3103854288077383, ,0.10416788315968253,0.059571212528857984,0.0251243083911672,-0.020182256563688966,0.07938022016697781,-0.06711485064906104, ,1.259718894958496
0.01291924441539801,0.022044693895420138,-0.08689356009313895, ,0.013682620409973931,0.021696985241023165,-0.0876822420766891, ,0.0011513746082895523, ,0.012653577462427814,0.0008173950743655628,-0.02395246662024291,0.004674019312931782,-0.03107389319554345,0.025861074342996976, ,0.027101693941506848, ,0.03142332590261809, ,0.0005682034683214465, ,0.16912012721264255,-0.2451427096265086,0.09725156467000001,1.607692796695848,0.2094637541404202,-1.3103854288077383, ,0.10416788315968253,0.059571212528857984,0.0251243083911672,-0.020182256563688966,0.07938022016697781,-0.06711485064906104, ,1.261962890625
0.013047664202331088,0.022045505934786002,-0.08712645088262093, ,0.013718892137865086,0.021694003992298917,-0.08776157127470136, ,0.000988675108137057, ,0.013056592304367575,-0.00019146260535970848,-0.023516525139065873,0.02182760951960546,-0.004205844614955387,0.005288437157005435, ,0.026898665675978033, ,0.02222895575593682, ,0.0005716219369378335, ,0.1702090325479082,-0.24448627733219952,0.09749526719000001,1.6074831067523636,0.21042020963877828,-1.3111653541336132, ,0.11177496061068408,0.06967470011635153,0.024581499259259263,0.005735671600471436,0.10804371689451764,-0.09016788278107687, ,1.264193058013916
0.013047664202331088,0.022045505934786002,-0.08712645088262093, ,0.013755266836633076,0.021690822875540822,-0.08784108460482992, ,0.0010663971668683824, ,0.013056592304367575,-0.00019146260535970848,-0.023516525139065873,0.02182760951960546,-0.004205844614955387,0.005288437157005435, ,0.026898665675978033, ,0.02222895575593682, ,0.000575612059759854, ,0.1702090325479082,-0.24448627733219952,0.09749526719000001,1.6074831067523636,0.21042020963877828,-1.3111653541336132, ,0.11177496061068408,0.06967470011635153,0.024581499259259263,0.005735671600471436,0.10804371689451764,-0.09016788278107687, ,1.2664690017700195
0.013047664202331088,0.022045505934786002,-0.08712645088262093, ,0.013791743909003678,0.0216874439371349,-0.087920779689272, ,0.0011457841232621385, ,0.013056592304367575,-0.00019146260535970848,-0.023516525139065873,0.02182760951960546,-0.004205844614955387,0.005288437157005435, ,0.026898665675978033, ,0.02222895575593682, ,0.0005801734362678723, ,0.1702090325479082,-0.24448627733219952,0.09749526719000001,1.6074831067523636,0.21042020963877828,-1.3111653541336132, ,0.11177496061068408,0.06967470011635153,0.024581499259259263,0.005735671600471436,0.10804371689451764,-0.09016788278107687, ,1.2687349319458008
0.013047664202331088,0.022045505934786002,-0.08712645088262093, ,0.013828322759720537,0.02168386921684488,-0.08800065415827689, ,0.0012265562629395412, ,0.013056592304367575,-0.00019146260535970848,-0.023516525139065873,0.02182760951960546,-0.004205844614955387,0.005288437157005435, ,0.026898665675978033, ,0.02222895575593682, ,0.0005853034587017744, ,0.1702090325479082,-0.24448627733219952,0.09749526719000001,1.6074831067523636,0.21042020963877828,-1.3111653541336132, ,0.11177496061068408,0.06967470011635153,0.024581499259259263,0.005735671600471436,0.10804371689451764,-0.09016788278107687, ,1.2710719108581543
0.013047664202331088,0.022045505934786002,-0.08712645088262093, ,0.013865002795542402,0.021680100747821646,-0.08808070565013633, ,0.001308497416099465, ,0.013056592304367575,-0.00019146260535970848,-0.023516525139065873,0.02182760951960546,-0.004205844614955387,0.005288437157005435, ,0.026898665675978033, ,0.02222895575593682, ,0.000590997899311205, ,0.17100447403395333,-0.24398429969537494,0.09766897005000001,1.6074831067523636,0.21124002863737093,-1.3118338615557916, ,0.1121713257192326,0.07288551578991612,0.02492771755868545,0.005313812688624189,0.12333040426512956,-0.1024521498058684, ,1.274087905883789
0.013140077201323017,0.022043134871385137,-0.08729272225982622, ,0.013901783425240228,0.021676140556611077,-0.0881609318111748, ,0.0012118865556163295, ,0.013060414559546865,-0.0004186106543082434,-0.023895381931085022,0.030791613195816518,0.010333288952259293,0.008244817867890115, ,0.027234884633123537, ,0.03247910887309011, ,0.0005958485919385888, ,0.17100447403395333,-0.24398429969537494,0.09766897005000001,1.6074831067523636,0.21124002863737093,-1.3118338615557916, ,0.1121713257192326,0.07288551578991612,0.02492771755868545,0.005313812688624189,0.12333040426512956,-0.1024521498058684, ,1.2764370441436768
0.013140077201323017,0.022043134871385137,-0.08729272225982622, ,0.01393866405959409,0.021671990663162624,-0.08824133029573888, ,0.001294351652101724, ,0.013060414559546865,-0.0004186106543082434,-0.023895381931085022,0.030791613195816518,0.010333288952259293,0.008244817867890115, ,0.027234884633123537, ,0.03247910887309011, ,0.0006012633443429542, ,0.17100447403395333,-0.24398429969537494,0.09766897005000001,1.6074831067523636,0.21124002863737093,-1.3118338615557916, ,0.1121713257192326,0.07288551578991612,0.02492771755868545,0.005313812688624189,0.12333040426512956,-0.1024521498058684, ,1.2786948680877686
0.013140077201323017,0.022043134871385137,-0.08729272225982622, ,0.013975644111390247,0.021667653080837044,-0.08832189876618673, ,0.0013778109149941205, ,0.013060414559546865,-0.0004186106543082434,-0.023895381931085022,0.030791613195816518,0.010333288952259293,0.008244817867890115, ,0.027234884633123537, ,0.03247910887309011, ,0.0006072367871941169, ,0.17100447403395333,-0.24398429969537494,0.09766897005000001,1.6074831067523636,0.21124002863737093,-1.3118338615557916, ,0.1121713257192326,0.07288551578991612,0.02492771755868545,0.005313812688624189,0.12333040426512956,-0.1024521498058684, ,1.2810568809509277
0.013140077201323017,0.022043134871385137,-0.08729272225982622, ,0.01401272299541845,0.02166312981641565,-0.08840263489287936, ,0.001462128782551582, ,0.013060414559546865,-0.0004186106543082434,-0.023895381931085022,0.030791613195816518,0.010333288952259293,0.008244817867890115, ,0.027234884633123537, ,0.03247910887309011, ,0.0006137626802884487, ,0.17100447403395333,-0.24398429969537494,0.09766897005000001,1.6074831067523636,0.21124002863737093,-1.3118338615557916, ,0.1121713257192326,0.07288551578991612,0.02492771755868545,0.005313812688624189,0.12333040426512956,-0.1024521498058684, ,1.2835760116577148
0.013280499275745183,0.02203597633024381,-0.08755046975450508, ,0.014049900128468637,0.02165842287010812,-0.08848353635416865, ,0.001266940238069564, ,0.013795391230355102,-0.0007825510404251591,-0.02551177930821986,0.017418228574433512,0.00017704984845015243,0.005886611393376903, ,0.02901337775579989, ,0.01741881816757392, ,0.0006187109951201239, ,0.17220922036233235,-0.24317341274358137,0.09793730208000001,1.6074831067523636,0.21260639363502531,-1.3129480405927558, ,0.11586928151217434,0.080832147835154,0.026503846123128123,0.004751193992016165,0.11686473145256986,-0.09696191221476722, ,1.2859399318695068
0.013280499275745183,0.02203597633024381,-0.08755046975450508, ,0.014087174929328119,0.021653534235560268,-0.08856460083638854, ,0.0013510919351071224, ,0.013795391230355102,-0.0007825510404251591,-0.02551177930821986,0.017418228574433512,0.00017704984845015243,0.005886611393376903, ,0.02901337775579989, ,0.01741881816757392, ,0.0006242176187290486, ,0.17220922036233235,-0.24317341274358137,0.09793730208000001,1.6074831067523636,0.21260639363502531,-1.3129480405927558, ,0.11586928151217434,0.080832147835154,0.026503846123128123,0.004751193992016165,0.11686473145256986,-0.09696191221476722, ,1.288261890411377
0.013280499275745183,0.02203597633024381,-0.08755046975450508, ,0.014124546818778934,0.02164846589986414,-0.08864582603384438, ,0.0014361009599754464, ,0.013795391230355102,-0.0007825510404251591,-0.02551177930821986,0.017418228574433512,0.00017704984845015243,0.005886611393376903, ,0.02901337775579989, ,0.01741881816757392, ,0.0006302764496338724, ,0.17220922036233235,-0.24317341274358137,0.09793730208000001,1.6074831067523636,0.21260639363502531,-1.3129480405927558, ,0.11586928151217434,0.080832147835154,0.026503846123128123,0.004751193992016165,0.11686473145256986,-0.09696191221476722, ,1.2907609939575195
0.013280499275745183,0.02203597633024381,-0.08755046975450508, ,0.01416201521959435,0.02164321984356411,-0.0887272096488021, ,0.0015218557079826702, ,0.013795391230355102,-0.0007825510404251591,-0.02551177930821986,0.017418228574433512,0.00017704984845015243,0.005886611393376903, ,0.02901337775579989, ,0.01741881816757392, ,0.0006368807404364561, ,0.17220922036233235,-0.24317341274358137,0.09793730208000001,1.6074831067523636,0.21260639363502531,-1.3129480405927558, ,0.11586928151217434,0.080832147835154,0.026503846123128123,0.004751193992016165,0.11686473145256986,-0.09696191221476722, ,1.2934279441833496
0.013476245577530962,0.022030040755170215,-0.08793297440311205, ,0.014199579556536392,0.02163779804066697,-0.08880874939147944, ,0.0012016855755623407, ,0.01575049331747838,-0.0001722431993623754,-0.032256003522171235,-0.013392262320132756,-0.0292630738366532,0.003431032086568905, ,0.03589648270633184, ,0.03218144282261124, ,0.000641033717165323, ,0.17377693513579992,-0.24203044827819614,0.09833396682000001,1.607692796695848,0.21397275863267975,-1.3140622196297203, ,0.12104201729396784,0.09177653922482666,0.033393734842767295,0.0,0.09332797046287611,-0.07755674794117323, ,1.2957608699798584
0.013476245577530962,0.022030040755170215,-0.08793297440311205, ,0.01423723925635269,0.02163220245864934,-0.08889044298003491, ,0.001286130928474992, ,0.01575049331747838,-0.0001722431993623754,-0.032256003522171235,-0.013392262320132756,-0.0292630738366532,0.003431032086568905, ,0.03589648270633184, ,0.03218144282261124, ,0.0006457424559340066, ,0.17377693513579992,-0.24203044827819614,0.09833396682000001,1.607692796695848,0.21397275863267975,-1.3140622196297203, ,0.12104201729396784,0.09177653922482666,0.033393734842767295,0.0,0.09332797046287611,-0.07755674794117323, ,1.2979750633239746
0.013476245577530962,0.022030040755170215,-0.08793297440311205, ,0.01427499374777364,0.02162643505846668,-0.08897228814055762, ,0.0013715207773565216, ,0.01575049331747838,-0.0001722431993623754,-0.032256003522171235,-0.013392262320132756,-0.0292630738366532,0.003431032086568905, ,0.03589648270633184, ,0.03218144282261124, ,0.0006510017191327205, ,0.17377693513579992,-0.24203044827819614,0.09833396682000001,1.607692796695848,0.21397275863267975,-1.3140622196297203, ,0.12104201729396784,0.09177653922482666,0.033393734842767295,0.0,0.09332797046287611,-0.07755674794117323, ,1.300196886062622
0.013476245577530962,0.022030040755170215,-0.08793297440311205, ,0.01431284246150922,0.0216204977945607,-0.08905428260705711, ,0.0014577214655418324, ,0.01575049331747838,-0.0001722431993623754,-0.032256003522171235,-0.013392262320132756,-0.0292630738366532,0.003431032086568905, ,0.03589648270633184, ,0.03218144282261124, ,0.00065680545831552, ,0.17377693513579992,-0.24203044827819614,0.09833396682000001,1.607692796695848,0.21397275863267975,-1.3140622196297203, ,0.12104201729396784,0.09177653922482666,0.033393734842767295,0.0,0.09332797046287611,-0.07755674794117323, ,1.3024699687957764
0.013476245577530962,0.022030040755170215,-0.08793297440311205, ,0.014350784830246424,0.021614392614868815,-0.08913642412145376, ,0.0015446273031553114, ,0.01575049331747838,-0.0001722431993623754,-0.032256003522171235,-0.013392262320132756,-0.0292630738366532,0.003431032086568905, ,0.03589648270633184, ,0.03218144282261124, ,0.0006631470429215184, ,0.17508207699154385,-0.24099560207305004,0.09873581672000001,1.607692796695848,0.21492921413103783,-1.3147604662154546, ,0.12754965263235318,0.10171162010554209,0.04012295093198993,0.0,0.10650766651795099,-0.08861216596201492, ,1.3048388957977295
0.013654243233754502,0.022033764468455973,-0.08832161917085944, ,0.014388820288645977,0.021608121460831457,-0.08921871043356809, ,0.0012351308243019746, ,0.017474679769265956,0.0004729431990136372,-0.03879189911034805,-0.012191402315485584,-0.02278107138289709,0.004229461204807496, ,0.04254879016958423, ,0.025836401861818223, ,0.0006672036654845004, ,0.17508207699154385,-0.24099560207305004,0.09873581672000001,1.607692796695848,0.21492921413103783,-1.3147604662154546, ,0.12754965263235318,0.10171162010554209,0.04012295093198993,0.0,0.10650766651795099,-0.08861216596201492, ,1.3071210384368896
0.013654243233754502,0.022033764468455973,-0.08832161917085944, ,0.01442694827333968,0.02160168626740114,-0.08930113930111046, ,0.0013203122114083764, ,0.017474679769265956,0.0004729431990136372,-0.03879189911034805,-0.012191402315485584,-0.02278107138289709,0.004229461204807496, ,0.04254879016958423, ,0.025836401861818223, ,0.0006718030214417108, ,0.17508207699154385,-0.24099560207305004,0.09873581672000001,1.607692796695848,0.21492921413103783,-1.3147604662154546, ,0.12754965263235318,0.10171162010554209,0.04012295093198993,0.0,0.10650766651795099,-0.08861216596201492, ,1.3093738555908203
0.013654243233754502,0.022033764468455973,-0.08832161917085944, ,0.014465168222927075,0.021595088963050336,-0.08938370848967139, ,0.0014064385014076737, ,0.017474679769265956,0.0004729431990136372,-0.03879189911034805,-0.012191402315485584,-0.02278107138289709,0.004229461204807496, ,0.04254879016958423, ,0.025836401861818223, ,0.0006769403324904239, ,0.17508207699154385,-0.24099560207305004,0.09873581672000001,1.607692796695848,0.21492921413103783,-1.3147604662154546, ,0.12754965263235318,0.10171162010554209,0.04012295093198993,0.0,0.10650766651795099,-0.08861216596201492, ,1.3116700649261475
0.013654243233754502,0.022033764468455973,-0.08832161917085944, ,0.014503479577973048,0.021588331469780318,-0.08946641577271114, ,0.0014933761027490897, ,0.017474679769265956,0.0004729431990136372,-0.03879189911034805,-0.012191402315485584,-0.02278107138289709,0.004229461204807496, ,0.04254879016958423, ,0.025836401861818223, ,0.0006826100253394424, ,0.17508207699154385,-0.24099560207305004,0.09873581672000001,1.607692796695848,0.21492921413103783,-1.3147604662154546, ,0.12754965263235318,0.10171162010554209,0.04012295093198993,0.0,0.10650766651795099,-0.08861216596201492, ,1.3139410018920898
0.013843075325634571,0.022037808010472677,-0.08874909436669824, ,0.01454188178100434,0.021581415703128902,-0.08954925893154955, ,0.001156238613398084, ,0.017414818439822722,0.0001847085715910971,-0.03962226754430218,0.020083953909990567,0.020419142966607504,0.012395635579148268, ,0.04328087457411958, ,0.02863929029614251, ,0.0006858764293950193, ,0.17647216890890427,-0.23986808307341326,0.09917785161,1.607692796695848,0.21643221562845769,-1.3161494206363962, ,0.1284126408098387,0.10603010229996734,0.04094810159383034,0.0,0.1512530787932811,-0.12540792730702446, ,1.3161818981170654
0.013843075325634571,0.022037808010472677,-0.08874909436669824, ,0.014580374276506991,0.021574343572179244,-0.08963223575535595, ,0.001240301471772279, ,0.017414818439822722,0.0001847085715910971,-0.03962226754430218,0.020083953909990567,0.020419142966607504,0.012395635579148268, ,0.04328087457411958, ,0.02863929029614251, ,0.0006896738611921237, ,0.17647216890890427,-0.23986808307341326,0.09917785161,1.607692796695848,0.21643221562845769,-1.3161494206363962, ,0.1284126408098387,0.10603010229996734,0.04094810159383034,0.0,0.1512530787932811,-0.12540792730702446, ,1.3184330463409424
0.013843075325634571,0.022037808010472677,-0.08874909436669824, ,0.014618956510923195,0.021567116979567834,-0.08971534404113898, ,0.0013255866978873858, ,0.017414818439822722,0.0001847085715910971,-0.03962226754430218,0.020083953909990567,0.020419142966607504,0.012395635579148268, ,0.04328087457411958, ,0.02863929029614251, ,0.0006939997988567174, ,0.17647216890890427,-0.23986808307341326,0.09917785161,1.607692796695848,0.21643221562845769,-1.3161494206363962, ,0.1284126408098387,0.10603010229996734,0.04094810159383034,0.0,0.1512530787932811,-0.12540792730702446, ,1.3207318782806396
0.013843075325634571,0.022037808010472677,-0.08874909436669824, ,0.014657627932648491,0.021559737821493275,-0.0897985815937364, ,0.001411903146430451, ,0.017414818439822722,0.0001847085715910971,-0.03962226754430218,0.020083953909990567,0.020419142966607504,0.012395635579148268, ,0.04328087457411958, ,0.02863929029614251, ,0.0006988504971511346, ,0.17647216890890427,-0.23986808307341326,0.09917785161,1.607692796695848,0.21643221562845769,-1.3161494206363962, ,0.1284126408098387,0.10603010229996734,0.04094810159383034,0.0,0.1512530787932811,-0.12540792730702446, ,1.3231208324432373
0.014011903682526049,0.022032161426929573,-0.08912508499410053, ,0.014696387992028551,0.021552207987724042,-0.08988194622580475, ,0.0011277025307310296, ,0.017817024841499468,-0.0012931562178336272,-0.0384153173495391,0.008776436483871894,0.015108266657060861,0.01006315308483873, ,0.04236573183921329, ,0.01747002856078116, ,0.0007017286987187849, ,0.17773097436740287,-0.23878690047102183,0.09956544232000002,1.607692796695848,0.21793521712587752,-1.3173750175770569, ,0.1340352281899305,0.11773814089140294,0.039525586898263035,0.0,0.1515146555086742,-0.1256212255789718, ,1.3255400657653809
0.014011903682526049,0.022032161426929573,-0.08912508499410053, ,0.014735236141356658,0.02154452936160739,-0.08996543575780963, ,0.0012112738266778407, ,0.017817024841499468,-0.0012931562178336272,-0.0384153173495391,0.008776436483871894,0.015108266657060861,0.01006315308483873, ,0.04236573183921329, ,0.01747002856078116, ,0.0007051256662385119, ,0.17773097436740287,-0.23878690047102183,0.09956544232000002,1.607692796695848,0.21793521712587752,-1.3173750175770569, ,0.1340352281899305,0.11773814089140294,0.039525586898263035,0.0,0.1515146555086742,-0.1256212255789718, ,1.3278260231018066
0.014011903682526049,0.022032161426929573,-0.08912508499410053, ,0.014774171834870406,0.02153670382007731,-0.09004904801801505, ,0.0012962401960391148, ,0.017817024841499468,-0.0012931562178336272,-0.0384153173495391,0.008776436483871894,0.015108266657060861,0.01006315308483873, ,0.04236573183921329, ,0.01747002856078116, ,0.0007090403319987808, ,0.17773097436740287,-0.23878690047102183,0.09956544232000002,1.607692796695848,0.21793521712587752,-1.3173750175770569, ,0.1340352281899305,0.11773814089140294,0.039525586898263035,0.0,0.1515146555086742,-0.1256212255789718, ,1.3324189186096191
0.014011903682526049,0.022032161426929573,-0.08912508499410053, ,0.014813194528748914,0.021528733233663184,-0.09013278084247373, ,0.0013823740046906947, ,0.017817024841499468,-0.0012931562178336272,-0.0384153173495391,0.008776436483871894,0.015108266657060861,0.01006315308483873, ,0.04236573183921329, ,0.01747002856078116, ,0.0007134701587928065, ,0.17773097436740287,-0.23878690047102183,0.09956544232000002,1.607692796695848,0.21793521712587752,-1.3173750175770569, ,0.1340352281899305,0.11773814089140294,0.039525586898263035,0.0,0.1515146555086742,-0.1256212255789718, ,1.33530592918396
0.014011903682526049,0.022032161426929573,-0.08912508499410053, ,0.014852303681109806,0.021520619466497498,-0.0902166320750163, ,0.0014694973170298795, ,0.017817024841499468,-0.0012931562178336272,-0.0384153173495391,0.008776436483871894,0.015108266657060861,0.01006315308483873, ,0.04236573183921329, ,0.01747002856078116, ,0.0007184115127682122, ,0.17773097436740287,-0.23878690047102183,0.09956544232000002,1.607692796695848,0.21793521712587752,-1.3173750175770569, ,0.1340352281899305,0.11773814089140294,0.039525586898263035,0.0,0.1515146555086742,-0.1256212255789718, ,1.337759017944336
0.014118817044342556,0.02202377395660256,-0.08935050989831024, ,0.014891498752006427,0.02151236437632507,-0.09030059956724211, ,0.001327119873699819, ,0.01831913674544377,-0.0015855449135793063,-0.03830425377933533,6.550688629541749e-05,0.002368435075074925,0.0076200637389733745, ,0.042489064256146784, ,0.002351875301310489, ,0.0007223641644625733, ,0.17853413858632222,-0.2380841317794674,0.09979747823000001,1.6079024866393328,0.21875503612447017,-1.318125203739376, ,0.1381323749031598,0.12012271083350731,0.03942775128712872,0.0,0.14271688913404043,-0.11916586328409627, ,1.3401188850402832
0.014118817044342556,0.02202377395660256,-0.08935050989831024, ,0.01493077920342473,0.021503969814510894,-0.09038468117850822, ,0.0014138561209342912, ,0.01831913674544377,-0.0015855449135793063,-0.03830425377933533,6.550688629541749e-05,0.002368435075074925,0.0076200637389733745, ,0.042489064256146784, ,0.002351875301310489, ,0.0007268254028914231, ,0.17853413858632222,-0.2380841317794674,0.09979747823000001,1.6079024866393328,0.21875503612447017,-1.318125203739376, ,0.1381323749031598,0.12012271083350731,0.03942775128712872,0.0,0.14271688913404043,-0.11916586328409627, ,1.3424060344696045
0.014118817044342556,0.02202377395660256,-0.08935050989831024, ,0.014970144499280285,0.021495437626048382,-0.09046887477591899, ,0.001501545108607474, ,0.01831913674544377,-0.0015855449135793063,-0.03830425377933533,6.550688629541749e-05,0.002368435075074925,0.0076200637389733745, ,0.042489064256146784, ,0.002351875301310489, ,0.0007317915548511415, ,0.17853413858632222,-0.2380841317794674,0.09979747823000001,1.6079024866393328,0.21875503612447017,-1.318125203739376, ,0.1381323749031598,0.12012271083350731,0.03942775128712872,0.0,0.14271688913404043,-0.11916586328409627, ,1.3446829319000244
0.014118817044342556,0.02202377395660256,-0.08935050989831024, ,0.015009594105415561,0.021486769649567576,-0.09055317823431716, ,0.0015900529943186296, ,0.01831913674544377,-0.0015855449135793063,-0.03830425377933533,6.550688629541749e-05,0.002368435075074925,0.0076200637389733745, ,0.042489064256146784, ,0.002351875301310489, ,0.0007372581882235459, ,0.17853413858632222,-0.2380841317794674,0.09979747823000001,1.6079024866393328,0.21875503612447017,-1.318125203739376, ,0.1381323749031598,0.12012271083350731,0.03942775128712872,0.0,0.14271688913404043,-0.11916586328409627, ,1.346987009048462
0.014393902082261191,0.021991960166795048,-0.08990268916741083, ,0.015049127489596813,0.02147796771734425,-0.09063758943627294, ,0.0011106696077971, ,0.017384317873171427,-0.0030182533046178937,-0.03317248982766072,-0.04798558921113078,-0.04957664387763367,0.006181134036688442, ,0.037573107966903115, ,0.06899579857622695, ,0.0007396215516385684, ,0.1806038309966144,-0.23626156682115043,0.10036525325000001,1.6081121765828172,0.22053131062142087,-1.3196553152275703, ,0.13071204071414708,0.12012271083350731,0.033963350788912584,-0.011195164369429435,0.08502673957800937,-0.0726649593149772, ,1.3492228984832764
0.014393902082261191,0.021991960166795048,-0.08990268916741083, ,0.01508874412151125,0.02146903365530765,-0.09072210627207343, ,0.00119486484061554, ,0.017384317873171427,-0.0030182533046178937,-0.03317248982766072,-0.04798558921113078,-0.04957664387763367,0.006181134036688442, ,0.037573107966903115, ,0.06899579857622695, ,0.0007424847169780461, ,0.1806038309966144,-0.23626156682115043,0.10036525325000001,1.6081121765828172,0.22053131062142087,-1.3196553152275703, ,0.13071204071414708,0.12012271083350731,0.033963350788912584,-0.011195164369429435,0.08502673957800937,-0.0726649593149772, ,1.3514878749847412
0.014393902082261191,0.021991960166795048,-0.08990268916741083, ,0.01512844347276389,0.021459969283048632,-0.09080672663971302, ,0.001280565931952538, ,0.017384317873171427,-0.0030182533046178937,-0.03317248982766072,-0.04798558921113078,-0.04957664387763367,0.006181134036688442, ,0.037573107966903115, ,0.06899579857622695, ,0.0007458477245716367, ,0.1806038309966144,-0.23626156682115043,0.10036525325000001,1.6081121765828172,0.22053131062142087,-1.3196553152275703, ,0.13071204071414708,0.12012271083350731,0.033963350788912584,-0.011195164369429435,0.08502673957800937,-0.0726649593149772, ,1.3537788391113281
0.014393902082261191,0.021991960166795048,-0.08990268916741083, ,0.015168225016874896,0.02145077641382855,-0.09089144844488334, ,0.0013675162779037194, ,0.017384317873171427,-0.0030182533046178937,-0.03317248982766072,-0.04798558921113078,-0.04957664387763367,0.006181134036688442, ,0.037573107966903115, ,0.06899579857622695, ,0.0007497090199339477, ,0.1806038309966144,-0.23626156682115043,0.10036525325000001,1.6081121765828172,0.22053131062142087,-1.3196553152275703, ,0.13071204071414708,0.12012271083350731,0.033963350788912584,-0.011195164369429435,0.08502673957800937,-0.0726649593149772, ,1.3560738563537598
0.014587474261756028,0.021944994955637856,-0.09026330382125845, ,0.015208088229276353,0.021441456854587527,-0.09097626960096264, ,0.0010709960405715273, ,0.01669483266051438,-0.00474861374423523,-0.03169904566553219,-0.04008248028241092,-0.022832949967271754,0.007968489031174449, ,0.036139953876008366, ,0.04612934883381669, ,0.0007516922731477599, ,0.18207115024271703,-0.2348096930407962,0.10073210332000002,1.6081121765828172,0.22148776611977897,-1.3205169192935857, ,0.12737844504492724,0.13328222128998704,0.03211453935483872,-0.010918633127878987,0.10867078932959538,-0.09360096243353984, ,1.358353853225708
