NicholasDascanio/dvrk_moveit_final/test/execution/third_experiment_notsharpbends/thirdexp_500vel4.0/thirdexp_500vel4.0_10.csv
Current Position (x),Current Position (y),Current Position (z), ,Planned Position (x),Planned Position (y),Planned Position (z), ,Position Error,,Cartesian linear Velocity(x),Cartesian linear Velocity(y),Cartesian linear Velocity(z),Cartesian Angular Velocity(x),Cartesian Angular Velocity(y),Cartesian Angular Velocity(z), ,Total Linear Velocity, ,Total Angular Velocity, ,MSE, ,Joint 1 Position,Joint 2 Position,Joint 3 Position,Joint 4 Position,Joint 5 Position,Joint 6 Position, ,Joint 1 Velocity,Joint 2 Velocity,Joint 3 Velocity,Joint 4 Velocity,Joint 5 Velocity,Joint 6 Velocity, ,Time Stamp
0.007851336407683773,0.019740776285664126,-0.07382525939227773, ,0.008067944778332886,0.019701345280333002,-0.0740475828054909, ,0.00031289245832943994, ,0.00020836406284892973,0.00030086221525866397,-0.0011815292129679694,0.13349652243830135,0.0012045101003910466,-0.004895931837942133, ,0.0012369094293253537, ,0.13350195634409082, ,2.6074371527453328e-05, ,0.12656014634279125,-0.25938342904657863,0.08343570585000001,1.598466439182529,0.16901935020984984,-1.2711981450629148, ,0.0007760340313528695,0.00019099821000336155,0.0012343025724669326,-0.00104454645000656,0.0,-0.13396113702345125, ,0.02364516258239746
0.007885281391468595,0.01976106084379758,-0.07393759116608509, ,0.008161060992810868,0.019719212274035686,-0.07432309374969878, ,0.00047583393456168417, ,0.002617203105831162,0.0017552661909632998,-0.008366329985981809,0.24768246589876847,-0.11094887042035849,-0.041927144052870555, ,0.008940144793718359, ,0.2713968601886514, ,3.585119967686928e-05, ,0.12670687826740154,-0.2592521425877168,0.08355107566,1.5986761291260139,0.16806289471149174,-1.2787494512313773, ,0.007181570862001641,0.006333139831439814,0.00861016838918919,0.001446391885883018,-0.11206178081534712,-0.2535243479019367, ,0.048142194747924805
0.00794819250157951,0.019813903279991336,-0.07417699875098681, ,0.008253957947343162,0.019736967102481774,-0.07459739223997401, ,0.0005254925011983146, ,0.0033365725118911717,0.0032882216330097458,-0.01542093072424024,0.23062320040598996,-0.06176219221129095,-0.0024171224654046764, ,0.01611676834966358, ,0.23875013734063624, ,4.106934044029496e-05, ,0.12690766932213138,-0.2590976879302323,0.08379866705000001,1.5990955090129826,0.16614998371477557,-1.2815185738070771, ,0.012398921437611524,0.01034008949477998,0.01569341036453202,-0.022429961350124383,-0.0511900994036899,-0.18718193739430355, ,0.07302498817443848
0.008067529330645733,0.019884914394656002,-0.07457935533531107, ,0.008346635794042852,0.01975461003224032,-0.07487048121027383, ,0.0004238324195332822, ,0.004037135732939501,0.001343276971064085,-0.010467231225342712,-0.06250370127635889,-0.1272105522221662,-0.012596305667893116, ,0.011298928598409565, ,0.1417365060394243, ,4.138217413387431e-05, ,0.1274559833562013,-0.25863432395777886,0.08420829469,1.5990955090129826,0.16328061721970133,-1.2879184230244924, ,0.023316201857118125,0.018433749331482282,0.010880335737704918,-0.015277355481443341,-0.10770383713002032,0.044544980082347335, ,0.09913110733032227
0.00812534783135571,0.01989527965390981,-0.07473773669287402, ,0.008439094685760155,0.019772141329932262,-0.07514236359062544, ,0.0005266147186175313, ,0.002307775561671822,-0.00017411843221578352,-0.005462202257056721,-0.1763934492096285,-0.0152348711445432,0.018012803956716394, ,0.005932267590768517, ,0.17705013475848683, ,4.355126985077408e-05, ,0.12794251552727745,-0.2582172963825707,0.08437292352,1.5990955090129826,0.1631439807199359,-1.2862551090581253, ,0.022773444098505104,0.020629769904015386,0.0054644293379073755,-0.01201383086164439,0.013289689380419065,0.15451213769934805, ,0.12683701515197754
0.008205401172372588,0.019897683362096567,-0.07498330851312172, ,0.008531334776080732,0.019789561262229593,-0.07541304230713222, ,0.0005500856626203585, ,0.00384853461164751,0.0010455644060384343,-0.011855223459049881,-0.028035598162126127,-0.01610514379681988,0.010379466429945784, ,0.01250802729642968, ,0.03233218499954864, ,4.539922088484856e-05, ,0.1288074616091906,-0.25741413216365133,0.08462051491000001,1.5990955090129826,0.16505689171665208,-1.2851195612852366, ,0.03275696981652426,0.026754141967429035,0.012094769567198179,-0.009152411912261729,0.019640729504411047,0.00027548854655982946, ,0.15067219734191895
0.008295484563350886,0.019924895885164468,-0.07526014038297894, ,0.008623356219323844,0.019806870095853215,-0.07568252028197846, ,0.000547571628932539, ,0.004651039395480131,0.0014389913007955585,-0.014294247101941616,0.02739608092827927,-0.02829662522908911,-0.0037829229557747156, ,0.015100608055089695, ,0.03938583060968898, ,4.6698935052682634e-05, ,0.12951795303361927,-0.2568272044652103,0.08490310613,1.5988858190694981,0.16505689171665208,-1.2856913124662206, ,0.03756806870881661,0.030011682972318397,0.014613588550458717,0.0,0.008704999427256152,-0.05724546381368858, ,0.17349505424499512
0.008387358763935447,0.01994981729007628,-0.07553018626777235, ,0.00871515917054073,0.019824068097572305,-0.07595080043343366, ,0.000547888895982531, ,0.00495786034626826,0.0012181208108581676,-0.013394801406079024,0.018494360985773877,-0.03967193918773895,-0.005203212919872108, ,0.014334744582002207, ,0.04377103741042869, ,4.768551487531318e-05, ,0.1302902263210417,-0.256232554033895,0.08517921590000001,1.5988858190694981,0.16533016471618295,-1.2870576506355813, ,0.041989797149765834,0.02972961828272894,0.013719906563307495,0.0,0.0016565482095256096,-0.048018086912520984, ,0.19594502449035645
0.008483640961329586,0.019968508774884982,-0.07577587552014697, ,0.008806743785512789,0.01984115553420282,-0.07621788567585894, ,0.0005621274416535142, ,0.0048184879033476785,0.0007862053784353717,-0.01158832067924016,-0.02867107117725918,-0.04253184104151812,-0.00475840991678058, ,0.012574781140707529, ,0.051293153693777564, ,4.861238762423038e-05, ,0.1311397269372064,-0.2556379036025797,0.08543069616000001,1.5990955090129826,0.1654668012159484,-1.2872507472794186, ,0.04278491503988764,0.029047120158699348,0.011860619151154134,0.0010008218234583758,0.0,0.0, ,0.2178480625152588
0.008613176408813896,0.01998162034226533,-0.07609930694106548, ,0.00889811022075004,0.01985813267260596,-0.07648377891971, ,0.0004942217964691547, ,0.004132630727773248,0.00023120923645380024,-0.010281617254348488,-0.01410185422789465,-0.016819823747300365,0.0003506805833336034, ,0.011083489874947951, ,0.021949228885280756, ,4.869177899900343e-05, ,0.13234447326558543,-0.254718898390547,0.08575995382000001,1.5993051989564673,0.16614998371477557,-1.287889515538041, ,0.038342198609483145,0.03125722712729604,0.01042461486910995,0.00048401667685010156,0.021869573716492313,-0.016941667097794773, ,0.24099016189575195
0.008696586994058167,0.01999225569624219,-0.07631389824271641, ,0.008989258633489452,0.019874999779687395,-0.07674848307154276, ,0.0005369074519323928, ,0.004276650659405029,0.0007542956423815712,-0.011973348781378946,0.02282001165333039,0.022659815320155447,0.010329560832846108, ,0.012736553058785332, ,0.03215928973283829, ,4.958080098946615e-05, ,0.1331321920187563,-0.25413969342498016,0.08597902683000001,1.5993051989564673,0.16683316621360278,-1.2883649263163826, ,0.042497510774057674,0.030116452414621003,0.012177990458715598,0.0005101644279646544,0.05399014545817356,-0.043180957968617935, ,0.26116108894348145
0.008795226381531874,0.020013737020046475,-0.07658486435339401, ,0.009080189181693243,0.019891757122395846,-0.07701200103401751, ,0.0005277581234246662, ,0.004960743012477679,0.0014171960934738115,-0.014669380641612965,-0.018693057948569833,-0.019849000303399825,0.00040183613771734613, ,0.01555018149127954, ,0.027265592772159186, ,5.026022527712841e-05, ,0.13398169263492102,-0.253514152062168,0.08625643289000001,1.5993051989564673,0.1672430757128991,-1.288862537507753, ,0.04085102951290176,0.03053312147955945,0.015041370651558077,0.0005307557886053833,0.021392156754246102,-0.011618250247483872, ,0.2814180850982666
0.008893756191684863,0.02004515083807143,-0.07689186243504671, ,0.009170902024047356,0.01990840496772199,-0.0772743357059032, ,0.000491726599212593, ,0.004540939671071584,0.0013777926435457172,-0.014615151774880597,0.011121927154472421,0.016510802842144585,0.00804564555139601, ,0.015366232689495362, ,0.01990736565418008, ,5.0565532034635675e-05, ,0.1347925795867146,-0.25289633343223,0.08657143136,1.5995148888999517,0.1679262582117263,-1.2893379482860945, ,0.039359992351087,0.030562622080022795,0.014984770950141113,0.0007493154476478162,0.05691660555473907,-0.04163309521062274, ,0.3018460273742676
0.008985555265899375,0.02006772498027833,-0.07716316014349306, ,0.009261397319959907,0.019924943582696957,-0.0775354899820816, ,0.0004848761439656411, ,0.004254589167768469,0.0007906335858928365,-0.011965884444253996,-0.01162934083946614,-0.013432366807269398,0.0005305927384794902, ,0.01272434756625558, ,0.01776709883719213, ,5.078137519154814e-05, ,0.13554168467551436,-0.2522939602680405,0.08684883742,1.5995148888999517,0.1683361677110226,-1.2897538807373243, ,0.036109947320574876,0.029056013949317443,0.012215346257668713,0.0007493154476478162,0.02297941625294996,-0.017195230268098438, ,0.32277417182922363
0.009061281373298011,0.020074321882791644,-0.07736744772080813, ,0.00935167522955953,0.01994137323439199,-0.07779546675355102, ,0.0005340451546975146, ,0.003935371656461814,0.00019460040343282942,-0.009995231906379855,-0.010087852887877306,-0.015935718596357798,-0.000683520040407412, ,0.010743820561318635, ,0.018860323520765377, ,5.130527164034801e-05, ,0.1362135624355719,-0.25171475530247367,0.08705624382,1.5995148888999517,0.1688827137100844,-1.29019955235211, ,0.03482456570953056,0.029888800490856935,0.010132831755725191,0.0007493154476478162,0.019027092300899308,-0.019541158244784054, ,0.34561705589294434
0.009143859019117163,0.02008095643579129,-0.07758837027585548, ,0.009441735913693924,0.019957694189916858,-0.07805426890743172, ,0.000566556052377272, ,0.0041415326976367425,0.0007662532379249776,-0.012214024857722012,-0.0033694303779121734,-0.008403564248118623,-0.003817430337172161, ,0.012919823541181822, ,0.009053876590498413, ,5.197712168915661e-05, ,0.136939499325749,-0.25108149120678724,0.08728050199000001,1.5997245788434364,0.16942925970914616,-1.2907269027070363, ,0.03401324070196086,0.029832424256042368,0.012444384000000001,0.005257775789376573,0.02472257347226319,-0.02563595244096452, ,0.36751317977905273
0.009264092694478672,0.020104761992859783,-0.0779508264218185, ,0.00953157953392829,0.019973906716418847,-0.07831189932696771, ,0.00046802345612593984, ,0.004230287608070724,0.0009996166293705158,-0.012278755434420405,-0.010938145939592516,-0.019261402594009984,-0.006008087922715983, ,0.013025452071656455, ,0.02215049406619872, ,5.1978511755359826e-05, ,0.13792028640077553,-0.2502165451248741,0.08764994464,1.5997245788434364,0.1702490787077388,-1.2916404463496363, ,0.0333556912332059,0.03129846357469353,0.012601907848101265,0.005084884181688434,0.05661961580242773,-0.05477612743432625, ,0.39040613174438477
0.009349971716645696,0.020120764781100038,-0.07819359821022508, ,0.00962120625254385,0.01999001108108193,-0.07856836089153259, ,0.00048074085621372704, ,0.004011892151153189,0.0006256257532748768,-0.011251605573690577,-0.004704116272247205,-0.014000739058202033,-0.003115264500559298, ,0.011961827377184065, ,0.01476987554946927, ,5.2052846527862635e-05, ,0.13859216416083306,-0.24963734015930727,0.08789753603000001,1.599934268786921,0.17038571520750423,-1.2917518642533325, ,0.03280226116780877,0.028067714155122974,0.011467826868250543,0.0031415985134105673,0.018278958514836564,-0.022785249086125847, ,0.413405179977417
0.009425664971181351,0.02013220123001338,-0.07841866497948789, ,0.009710616232536261,0.02000600755112548,-0.07882365647663211, ,0.0005110187655048829, ,0.0035666725940241275,0.0005741121895862756,-0.010940400346456023,0.027782020449026456,0.025926655496987708,0.005760584267012658, ,0.01152141996196343, ,0.03800042063917946, ,5.228532273963378e-05, ,0.13925631918801637,-0.24906585792661468,0.08812697936000001,1.599934268786921,0.17134217070586233,-1.2927768257996295, ,0.03211402421606456,0.027538288322249208,0.011162446755430976,0.0031415985134105673,0.058308385524905054,-0.05498028192887241, ,0.4357481002807617
0.009503524500241195,0.020142076950570787,-0.07862612628482948, ,0.00979980963761426,0.020021896393803577,-0.07907778895390799, ,0.0005533781848719487, ,0.003866198941892327,0.000652112914201011,-0.01094067325800675,-0.016111706919498703,-0.013616673384231615,-0.002686286574410701, ,0.011622008296745494, ,0.021095040582044006, ,5.271662628242152e-05, ,0.13988186055082855,-0.24853298935829318,0.08833827463,1.599934268786921,0.17147880720562775,-1.293051601183607, ,0.03101207240472901,0.02647055552537539,0.011162446755430976,0.0030089153071756547,0.01704751125614624,-0.009792735804064713, ,0.45783114433288574
0.009619645437035376,0.020168514080115024,-0.07897027794647667, ,0.009888786632198117,0.020037677876404193,-0.07933076119114207, ,0.0004685117552629719, ,0.003909254821023737,0.0009650595076643157,-0.011109089606105679,0.0036833303639530707,-0.012823659354371969,-0.002527243030423258, ,0.011816322819960354, ,0.013342150973891386, ,5.268708458451693e-05, ,0.14083175669435816,-0.24776843880374494,0.08869086551000001,1.6003536486738899,0.17243526270398585,-1.2939948839897633, ,0.03105266412253625,0.024559249885732604,0.01194063832083958,0.006476569173023429,0.042797720164413085,-0.04635566677233827, ,0.4810330867767334
0.00970531819731355,0.020189784183693407,-0.07921010067452347, ,0.009977547381418117,0.020053352266247392,-0.07958257605225925, ,0.0004811032153245804, ,0.004363816106618162,0.0011048563017592688,-0.012123951500415614,-0.031316125811036245,-0.0348998207769792,0.004998725115764841, ,0.012932664011886618, ,0.0468902651317561, ,5.297228333403102e-05, ,0.14114838874220137,-0.24752131135176977,0.08881012419,1.6003536486738899,0.17243526270398585,-1.2940765627299038, ,0.032734371010165846,0.024502179591652667,0.012159398106870231,0.006476569173023429,0.02416735896122534,-0.018015985762036304, ,0.5010530948638916
0.009785086235239071,0.020213229189049553,-0.07945827523429863, ,0.010066092051113269,0.020068919830685726,-0.07983323639733134, ,0.0004902910699261631, ,0.004008466509917909,0.0012228997087637176,-0.012356535774265072,0.017822699316135327,0.0046111562652415665,0.013193758098160313, ,0.013047883498848402, ,0.018409537880006228, ,5.3278793948104364e-05, ,0.14214462128297634,-0.24678765172871844,0.08919252974000001,1.6005633386173743,0.17352835470210937,-1.2950495846996155, ,0.032124895585128904,0.02332766508320324,0.012722692907348242,-0.00854881216749641,0.039454914345515776,-0.04231948877489071, ,0.5216701030731201
0.009869836731968677,0.020235261535621836,-0.07970443760367954, ,0.010154420807829684,0.02008438083710211,-0.0800827450825803, ,0.0004968597689607341, ,0.004184441335258723,0.0009480265721043319,-0.011726461026439173,-0.009785870360871812,-0.024426105329058312,0.0065449359123124756, ,0.01248672062129343, ,0.0263134501449496, ,5.359270246977503e-05, ,0.14278560811153695,-0.24629339682476806,0.08944530629000001,1.6005633386173743,0.17380162770164026,-1.2952724205070085, ,0.031876701900729186,0.024546544634886387,0.012030824410876134,-0.00854032258402547,0.009610740612389139,-0.01574973943809129, ,0.5409641265869141
0.009950221601266773,0.020252895458075106,-0.07993927993943688, ,0.010242533818819318,0.02009973555290964,-0.08033110496038161, ,0.0005122804272262601, ,0.004183711614534362,0.00105220461446587,-0.012351094211659393,0.012620080794599258,0.0031530873965510235,0.01207499040562356, ,0.013082817190864479, ,0.013008001843702204, ,5.395123812414438e-05, ,0.14344976313872027,-0.24578369645506926,0.08968641623000001,1.6005633386173743,0.1746214467002329,-1.2959409279291871, ,0.03389176484231099,0.025105010994304438,0.01270240153110048,-0.007560283950530094,0.039553726167295106,-0.03875068900206169, ,0.5617082118988037
0.00999478251540509,0.02026291946316393,-0.08006046900521274, ,0.010330431252038379,0.020114984245550707,-0.08057831887926759, ,0.0006345970336145699, ,0.004259398874187412,0.000880382190484712,-0.011972233798480239,-0.0017547745291671066,-0.01103485844003892,-0.002989957486640456, ,0.01273781510684718, ,0.01117349938351545, ,5.479350836738677e-05, ,0.14378184065231192,-0.24553656900309406,0.08981086007000001,1.6003536486738899,0.1746214467002329,-1.2959409279291871, ,0.03340265454363632,0.02613520836091181,0.012281273338473403,0.003946480056350585,0.02173792013780058,-0.023698260780188544, ,0.580449104309082
0.010084199558458374,0.020281499951346774,-0.0803234738526975, ,0.010418113276146036,0.02013012718249598,-0.08082438968393099, ,0.0006207485448955069, ,0.004444200731672439,0.0010040565425986565,-0.013135299924820116,0.01698920023548292,0.01576963998015771,-0.0034740586248748965, ,0.013903062748873443, ,0.023180036210589137, ,5.552604040737236e-05, ,0.14482440959033224,-0.24469479111980358,0.09020104336000001,1.600773028560859,0.1759878116978873,-1.2971367857062917, ,0.03644275789495806,0.028084327185105295,0.013498992813559325,0.010734909874223984,0.05053865088515657,-0.0435717750706179, ,0.6019191741943359
0.010174223506012213,0.02029975064135258,-0.08058371810970406, ,0.010505580060502995,0.020145164631243502,-0.08106932021522731, ,0.0006078679179016241, ,0.004761192730788055,0.0006839123685942895,-0.012617884748181669,-0.023922163663371368,-0.030509109228346647,-0.010776913666788554, ,0.013503618324953533, ,0.0387695156070373, ,5.616284816862779e-05, ,0.14522599169979192,-0.2443781590719604,0.09034752413000001,1.600773028560859,0.17626108469741816,-1.2973596215136847, ,0.0365550622336174,0.029983235879453642,0.013285080500417015,0.010003107681850592,0.014944594662254304,-0.014399686084044839, ,0.6211881637573242
0.010306756326194863,0.020314659357151987,-0.08094797610077283, ,0.010592831775169937,0.020160096859317692,-0.08131311331017903, ,0.0004889313959401826, ,0.003945120064590071,0.00011834471058242153,-0.010585088839432854,0.022784322391202462,0.026809582693845656,0.001120450435314761, ,0.011296994446897812, ,0.03518350377890818, ,5.6312390095386886e-05, ,0.14630717430218335,-0.24345915385992767,0.09071955936000001,1.600773028560859,0.1773541766955417,-1.2982509647432559, ,0.035688958841094694,0.030493875822130714,0.010791877723577238,0.008006529809184112,0.06168932059721771,-0.05219086249134983, ,0.64229416847229
0.010347981084842727,0.020315651164696278,-0.08104977372760355, ,0.010679868590906427,0.020174924134269204,-0.08155577180197811, ,0.0006212788947363036, ,0.004350162805590044,-2.6343111726166366e-05,-0.010244920330000674,-0.013603337488348709,-0.017066677751155338,-0.008021179931932017, ,0.011130274163862072, ,0.021824806240215405, ,5.693795703301769e-05, ,0.14700222026086354,-0.24287994889436082,0.09093085463000002,1.600773028560859,0.17762744969507258,-1.2984738005506489, ,0.0352776734418107,0.029100564722008823,0.011878308366890382,0.007100913853302567,0.011831745882513846,-0.011373335021735124, ,0.6625301837921143
0.010440701783830705,0.02032432374787525,-0.08128708245046791, ,0.01076669067916921,0.0201896467236737,-0.08179729851998922, ,0.0006202637328826993, ,0.00452788181337225,0.0004951453733766395,-0.012028590551668978,-0.016619281476363202,-0.02085396955157727,-0.0014301862429091199, ,0.012862109986947852, ,0.02666623916187421, ,5.752429182525454e-05, ,0.14738063417170055,-0.2425555941136434,0.09106566879000001,1.6009827185043435,0.17790072269460347,-1.2986966363580417, ,0.034633920276814154,0.029935943709296774,0.012281273338473403,0.0,0.014017780771351329,-0.013075959945656027, ,0.6819159984588623
0.01057047061294412,0.020345096237285826,-0.08166428881890996, ,0.010853298212111073,0.020204264895130875,-0.08203769628975253, ,0.0004891401200727248, ,0.004618316145028097,0.0008302680681273936,-0.013250729805968885,-0.008014072734216901,-0.010670000889959027,0.0007926560475054788, ,0.014057027760916295, ,0.013344432257481978, ,5.762445025248876e-05, ,0.14807568013038075,-0.24196866641520234,0.09131714905,1.6009827185043435,0.17913045119249243,-1.2996993974913096, ,0.0344203632783717,0.029416286905911585,0.013567982555366271,0.0,0.024171041002691563,-0.021226486530482418, ,0.7026381492614746
0.010617986100767517,0.0203563333614153,-0.08179647146763876, ,0.010939691362579248,0.020218778916264078,-0.08227696793298768, ,0.0005943840122942605, ,0.004875560896430536,0.0011265427123981911,-0.013322002956939838,-0.023517690640143658,-0.03283724787425118,-0.010615250914355938, ,0.0142308100725986, ,0.04039017456497033, ,5.8269763970484836e-05, ,0.14876300335618672,-0.2414203523811324,0.09158807366,1.601192408447828,0.1794037241920233,-1.2999222332987022, ,0.034520531669141784,0.026214624739909057,0.013708099414802067,0.006960346504358039,0.0,-0.0014065314343337204, ,0.7197251319885254
0.01070631807719681,0.020376262768372625,-0.08205991117837012, ,0.011025870304114203,0.02023318905471924,-0.08251511626759461, ,0.0005742781438661146, ,0.00412000524214494,0.0010379246255144226,-0.012678988839186086,0.033849333494661266,0.03615627709541899,0.004685858232373883, ,0.013371929131870105, ,0.04952830931673082, ,5.881890521164893e-05, ,0.1494503265819927,-0.2408797610799367,0.09185899827,1.601192408447828,0.1803601796903814,-1.3007021586245773, ,0.03396454601233743,0.02518496325861751,0.013077841970443352,0.006682028533265584,0.0697717570210988,-0.05820475939290108, ,0.7376201152801514
0.010795997196245072,0.0203962856025398,-0.08232236078616234, ,0.011111835210948282,0.020247495578164458,-0.0827521441076596, ,0.0005537199890942161, ,0.004524084855976648,0.0011438092550413673,-0.012862060934461678,-0.01052987866138119,-0.016945227100841512,-0.006329764175143075, ,0.013682406764813007, ,0.01995040636464024, ,5.9276929897496264e-05, ,0.1501067588763018,-0.2403468925116152,0.09212862659000001,1.601192408447828,0.18090672568944316,-1.3011478302393629, ,0.03223401547502404,0.024313846158972786,0.013251923061564062,0.005896412062470922,0.014121743293278019,-0.012740291628757706, ,0.7555630207061768
0.010879150220356515,0.020417411575341354,-0.08257280212892493, ,0.01119758625800411,0.02026169875428882,-0.08298805426345526, ,0.0005459691639138968, ,0.0045683698711689105,0.0010281772136235138,-0.012896948998372338,-0.013066480247699934,-0.018601572637899192,-0.006531026289411477, ,0.013720730488171384, ,0.02273215902324947, ,5.9690275811160063e-05, ,0.150732300239114,-0.23986036034053904,0.0923865883,1.6014020983913126,0.1817265446880358,-1.3018163376615415, ,0.03266676129379373,0.02503216606659741,0.013363096912751681,0.0011985439293904644,0.07738258029094792,-0.06425440602040992, ,0.7726070880889893
0.010925641592645864,0.02042836562820257,-0.08270983259458801, ,0.01128312362089352,0.020275798850802128,-0.08322284954144513, ,0.0006436275396912456, ,0.004338461046148966,0.000980379352994074,-0.012937315801939258,0.02161949042135946,0.022096567289845173,0.006973704674823424, ,0.013680552915866971, ,0.03091375567035837, ,6.038717583897836e-05, ,0.1510798232184541,-0.2395977874228154,0.09252269875000001,1.6014020983913126,0.18227309068709754,-1.302262009276327, ,0.03420942377738672,0.026077752557974936,0.013329549389121339,0.0011932258889565835,0.059409790262998516,-0.04956458237708358, ,0.7906219959259033
0.011024895840265996,0.020453930379596585,-0.0829914413613056, ,0.011368447475916045,0.02028979613543394,-0.08345653274428602, ,0.0006010638659804065, ,0.00504928710077645,0.0013076941624764688,-0.013957153117727526,-0.014912587923005618,-0.024675855256519004,-0.002664221126263352, ,0.014899915684336395, ,0.02883197151701314, ,6.092600857344228e-05, ,0.15179031464288273,-0.23907264158736816,0.09281825287,1.6014020983913126,0.18254636368662844,-1.30248484508372, ,0.035568568800026526,0.02516492748832426,0.014415214045248871,0.001157608384438426,0.01079496920024023,-0.009858959342067528, ,0.8078620433807373
0.01111191921046768,0.020478440401528922,-0.0832522854247412, ,0.011453558000057524,0.020303690875932548,-0.08368910667083054, ,0.0005814355168749344, ,0.004455783594885286,0.001399099483385151,-0.014635996108254312,0.051722867918516,0.05664047961031198,0.015222729420231883, ,0.015363068342284129, ,0.07670331364811611, ,6.138445075350393e-05, ,0.15244674693719182,-0.23860155488204046,0.09308788119000001,1.601611788334797,0.1835028191849865,-1.3032647704095948, ,0.03600035719213611,0.025829325410579963,0.015141455817490494,0.0007287298779922884,0.09411451414368757,-0.07770516366606266, ,0.8269591331481934
0.011167925244528382,0.02049372184791287,-0.08342167191122224, ,0.011538455370988835,0.020317483340065223,-0.08392057411613092, ,0.000645953555858244, ,0.004770913947269783,0.00048822684975949874,-0.011879118818569852,-0.0098277631009086,-0.01571035918459571,-0.0005985542879771042, ,0.012810677158323045, ,0.01853105708608074, ,6.201129829142775e-05, ,0.1532035747588658,-0.2380532408479705,0.0933847316,1.601611788334797,0.18418600168381372,-1.3039035386682176, ,0.03668223485058786,0.028344367251634046,0.01220598583908046,0.0007287298779922884,0.021156070152419205,-0.018204953544483975, ,0.8430910110473633
0.011268741221245418,0.020506483390835037,-0.08366453005046609, ,0.011623139767064564,0.02033117379561639,-0.08415093787144026, ,0.0006268367823917905, ,0.004891830000101161,0.00048779350437262714,-0.011144408477702405,-0.024935132137383513,-0.03688475877907672,-0.004751805900841009, ,0.012180549395272904, ,0.044522422137567935, ,6.255890537765443e-05, ,0.15359743413545127,-0.23775977699874998,0.09350399028,1.601611788334797,0.18432263818357916,-1.3040149565719141, ,0.03753834713547103,0.026367585873428946,0.011492649004329005,0.0007287298779922884,0.0,-0.0009298303851600565, ,0.8599421977996826
0.011355703242031445,0.020515833596357412,-0.08389216379489643, ,0.01170761136732152,0.020344762510387616,-0.08438020072421633, ,0.0006255275289546045, ,0.004480575453472185,0.0006877913145722666,-0.01241633905063838,0.043228306559664226,0.04556040257076945,0.01302300380321646, ,0.013217945706767983, ,0.0628047488278381, ,6.308151036737873e-05, ,0.1543619846899995,-0.23720374023180582,0.0937476928,1.601611788334797,0.18555236668146813,-1.3050177177051818, ,0.03879678722750236,0.027395190981082788,0.012835464560838037,0.0007287298779922884,0.0856392255379919,-0.07072011390879407, ,0.8786001205444336
0.011460643917845332,0.020533287544567503,-0.08416750644101471, ,0.011791870351477522,0.020358249752196786,-0.08460836545812428, ,0.0005785376842190366, ,0.005059517648121418,0.0007781668301417642,-0.0132768503529391,-0.006538114976221622,-0.012091222195547023,0.00023598745572588103, ,0.014229512210245439, ,0.013745697111300253, ,6.362958878385754e-05, ,0.15514198071029617,-0.23662453526623897,0.09403158031000002,1.601611788334797,0.1860989126805299,-1.3054633893199674, ,0.039213612214244124,0.0289231763360167,0.015494952840466926,0.0007222474015181234,0.01504021759071041,-0.01311170531289276, ,0.8939521312713623
0.011517020010496268,0.020546088923950476,-0.08431952347004198, ,0.011875916899930002,0.02037163578887758,-0.08483543485303914, ,0.0006522311160072092, ,0.005693569740399263,0.0013272906930095595,-0.015585354449036687,-0.018707068893255536,-0.02787536845452223,-0.005701418993963217, ,0.016645771543387453, ,0.03357066686089652, ,6.435857418359895e-05, ,0.15552039462113318,-0.23633879414989267,0.09418843140000001,1.6018214782782818,0.1860989126805299,-1.3054633893199674, ,0.03881265503413938,0.028730530293209437,0.01608970860606061,0.0035156578653944654,0.010278591858744064,-0.009210650538898772, ,0.908715009689331
0.011624333043516299,0.020575401852311305,-0.08464406010746278, ,0.011959751193754701,0.020384920888278427,-0.08506141168504804, ,0.000568305087502431, ,0.005191354084865894,0.001572201684467415,-0.016410856420351887,0.04593052475193986,0.0493461801556296,0.008741618386849268, ,0.017284044197481696, ,0.06741407426970257, ,6.484174034381337e-05, ,0.1563158361071783,-0.23575958918432582,0.09452417051,1.602031168221766,0.1874652776781843,-1.3065775683569316, ,0.03942540156147519,0.028059415008418326,0.016999798847385277,0.0056257096110711845,0.08895599722470457,-0.07333265602958584, ,0.924793004989624
0.01168013110200112,0.0205893215447431,-0.08480437610001677, ,0.012043373414704203,0.020398105318261923,-0.08528629872645394, ,0.0006330545323111407, ,0.005460822664639487,0.0011930703399876163,-0.01498267356020762,0.0023222241246318004,-0.0044732918458649145,0.011313337695287272, ,0.015991388558300464, ,0.005040070418549556, ,6.54788267413284e-05, ,0.1567251409495122,-0.2354661253351053,0.09469009563000001,1.6022408581652505,0.18801182367724606,-1.3070232399717172, ,0.03963949104363859,0.028084327185105295,0.015494952840466926,-0.008202467353315802,0.03771070129708248,-0.0315292696072159, ,0.939000129699707
0.011788664584744068,0.02060662773876593,-0.08508616097606554, ,0.012126783745206792,0.0204111893467046,-0.08551009874577704, ,0.0005764060759148003, ,0.005619197747563067,0.0009223135756554712,-0.014450563082584434,-0.029581731851192578,-0.040132882334518435,0.003235840369963058, ,0.015532057785812167, ,0.049857060419476316, ,6.595063423610175e-05, ,0.15748969150406042,-0.23487919763666423,0.09498046459000001,1.6022408581652505,0.18828509667677693,-1.3072460757791102, ,0.03823406186884399,0.02944366787417647,0.01488673973831776,-0.008202467353315802,0.0,-0.0007491762491435665, ,0.9542381763458252
0.011842949304232067,0.020615804993432945,-0.08523813040972647, ,0.012209982368365005,0.020424173241496157,-0.08573281450775877, ,0.0006450956172252342, ,0.004858061602314223,0.0006796337260664106,-0.013479180830320221,0.038441906087106695,0.040889886653155315,0.02062348448720672, ,0.014344022461985998, ,0.05612274520336098, ,6.658200591156661e-05, ,0.15790671907926854,-0.23456256558882102,0.09513731568000001,1.6022408581652505,0.18896827917560413,-1.3078031652975923, ,0.039855918336191,0.029434535222850736,0.013923786293706296,-0.008173476715554368,0.08404371684472742,-0.06926562480740281, ,0.9692630767822266
0.011944595444122231,0.020632287854756383,-0.08551603231996512, ,0.012292969467954254,0.020437057270538062,-0.08595444877336307, ,0.0005930332436762574, ,0.005627402954313745,0.0009538537818837204,-0.014965840440027871,-0.018603659137937347,-0.026053314377055097,0.005199453848100221, ,0.016017299432919598, ,0.03201359980668484, ,6.706465231607249e-05, ,0.1586481014351941,-0.2339833606232542,0.09542379577000001,1.6022408581652505,0.18978809817419678,-1.3083899939796302, ,0.0384665348838552,0.03020271851001616,0.01541995306873185,-0.007320574118220122,0.014337755551943736,-0.012432640595932675, ,0.9850552082061768
0.012004424206245121,0.020644107798829584,-0.08567434073891152, ,0.012375745228421556,0.02044984170174409,-0.0861750042997798, ,0.0006529032234323017, ,0.005647556469321918,0.001214562537346342,-0.015400261154774319,-0.02022443520467223,-0.029243584492176775,0.004169852165740394, ,0.016448042432659148, ,0.03555578921996658, ,6.768016904711885e-05, ,0.15904196081177954,-0.23368217404115943,0.09558712831,1.6022408581652505,0.18978809817419678,-1.3083899939796302, ,0.037287599826511114,0.028369788208810396,0.015897017485029943,-0.006940837272903152,0.009800661645914564,-0.00891732618101404, ,0.9996070861816406
0.01211155748286105,0.020666350736507768,-0.08598831606935173, ,0.012458309834884253,0.020462526803038734,-0.0863944838404275, ,0.0005716236941809467, ,0.005766049607970869,0.001143574785475927,-0.015928453430169232,-0.01499826145932427,-0.021510304206220958,0.005347719989546685, ,0.016978537040882744, ,0.02622289092579351, ,6.808099878052862e-05, ,0.159814234099202,-0.23307980087696992,0.09591120081000001,1.602031168221766,0.19101782667208575,-1.309392755112898, ,0.03988942478287969,0.030770733319867308,0.015992782650602413,0.002122403618746087,0.07534469310804694,-0.062364088926397075, ,1.0160200595855713
0.012170037480846456,0.020677827020945904,-0.08614616683448971, ,0.01254066347312851,0.020475112842357007,-0.08661289014495505, ,0.0006295135525846535, ,0.005522137104590117,0.001139854238575768,-0.014600610194030705,-0.0032527948356441097,-0.010563173879263603,-0.0005671753042543402, ,0.01565155212511281, ,0.011052631049881337, ,6.86085108566658e-05, ,0.16023126167441012,-0.23277861429487517,0.09607453335,1.602031168221766,0.19142773617138206,-1.3096453300838469, ,0.03878093239005753,0.027013077585673433,0.015127076467236471,0.002122403618746087,0.02817435273396657,-0.0232677237499308, ,1.0297701358795166
0.012225316821080265,0.020688478666645086,-0.08628490615860472, ,0.012622806329608174,0.020487600087644144,-0.08683022595924511, ,0.0007040765568186969, ,0.005836766249551932,0.0007936502040151029,-0.013938777569730613,-0.02494235926665571,-0.03579606302826449,-0.012512925031194826, ,0.015132324376534723, ,0.04362887676692597, ,6.929657083708628e-05, ,0.1610421486262037,-0.2321916865964341,0.09637138376000001,1.6024505481087352,0.19197428217044385,-1.3099276442183516, ,0.039573370124466545,0.02935259559494921,0.014389170298102983,0.009003031218398507,0.028810631680413378,-0.02488558138346973, ,1.044011116027832
0.012333833732484915,0.02070354353395989,-0.08656815489381253, ,0.012704738591443353,0.020499988806854098,-0.0870464940254164, ,0.0006386025885866956, ,0.005112661574186195,0.000834480483992544,-0.013756222922332606,0.03911178409581249,0.03937310614512883,0.0032968545148495095, ,0.014699297096774169, ,0.055497501295744815, ,6.997591905662409e-05, ,0.16143600800278915,-0.23191366821296203,0.09651138308000001,1.6024505481087352,0.19265746466927103,-1.3104847337368337, ,0.04050232247480613,0.028034546989208504,0.014273128602150539,0.008690086319180496,0.07912708118674473,-0.06591527209617228, ,1.0578382015228271
0.012388328421616272,0.02071243497555406,-0.08671095304015419, ,0.012786460446419056,0.020512279267949712,-0.08726169708182602, ,0.0007084422459856398, ,0.005603125240206017,0.0010761323202990599,-0.015297567010760951,0.0024485656577566783,-9.705786119160551e-05,-0.004817824048566326, ,0.016326929585104104, ,0.0024503175842753235, ,7.080020101226207e-05, ,0.1618298673793746,-0.23162792709661573,0.09665916014,1.6024505481087352,0.19306737416856737,-1.3109006661880636, ,0.03881265503413938,0.029280142412363704,0.015818084925521354,0.008083617279303937,0.03745981139241898,-0.030312951060188397, ,1.0698580741882324
0.012447692301112258,0.020723868846320728,-0.08686766970640944, ,0.01286797208298396,0.020524471738902025,-0.0874758378630723, ,0.0007656780056105612, ,0.006207379793732479,0.0013532215456565188,-0.016540001849094738,-0.01673608308261455,-0.025222960525111027,-0.009139360708352452, ,0.017718194987732937, ,0.03027033162556535, ,7.173583055896491e-05, ,0.16222372675596006,-0.23133446324739518,0.09682119639,1.6024505481087352,0.19320401066833282,-1.3110120840917598, ,0.040798341168732065,0.029461950188907415,0.017127754322580648,0.007561206063436842,0.014068406061674707,-0.01123882847260132, ,1.0822710990905762
0.012508221862216949,0.02073824499079293,-0.08703403302706317, ,0.012949273690248914,0.020536566487688864,-0.08768891909999692, ,0.0008149090146434898, ,0.0063086393920280745,0.0015249058891707735,-0.017263109830283483,-0.018138505102437134,-0.026557950877735364,-0.009057837665069478, ,0.018442863930580474, ,0.0321609792914986, ,7.276106620356865e-05, ,0.16304233644062785,-0.23074753554895414,0.09718675017000002,1.6024505481087352,0.1941604661666909,-1.3117920094176347, ,0.04305668854740053,0.029757585938686354,0.01988615670411985,0.006684340824007471,0.09158735257059748,-0.07445033148684761, ,1.0946471691131592
0.012639004359912462,0.020776723120643735,-0.08742619624736507, ,0.013030365457985875,0.020548563782295744,-0.08790094351968789, ,0.0006562051244379106, ,0.006623927001082763,0.001856672358420969,-0.01945672873832492,0.01687004995988039,0.014534272577294177,0.0006570693124517851, ,0.020637052462959837, ,0.022267484739821215, ,7.341084352227992e-05, ,0.16350570041308132,-0.23043090350111092,0.09740063802000001,1.6024505481087352,0.19484364866551807,-1.3123490989361168, ,0.04399487323063087,0.031226371029440866,0.020188607756653994,0.006299896495419838,0.05799307133872472,-0.04705644773346697, ,1.107809066772461
0.012708302342661158,0.02079375784521728,-0.08761345242405774, ,0.0131112475766263,0.020560463890713563,-0.08811191384548182, ,0.00068209582862771, ,0.006664866161007228,0.001596355231666485,-0.017423407148099458,-0.010524976267503752,-0.02105397836644241,-0.005846407305609878, ,0.018722817833281707, ,0.023538129169124178, ,7.41032426673707e-05, ,0.16393045072116366,-0.2301374396518904,0.09758211862,1.6024505481087352,0.19511692166504896,-1.312490256003369, ,0.04426163318958525,0.028454855040021224,0.01812151481228669,0.005989545231991057,0.023385647812261188,-0.017875751485947194, ,1.1205341815948486
0.012768465917207041,0.020805345892334307,-0.08776966819014483, ,0.01319192023726004,0.02057226708093943,-0.08832183279696637, ,0.0007338426578764607, ,0.006570201337353965,0.0009660831607848377,-0.01626096771671935,-0.029215297710937425,-0.03666424953398771,-0.009493003748600428, ,0.01756473550529893, ,0.04688069621180881, ,7.489308276419593e-05, ,0.16437064649499447,-0.22983625306979563,0.09775711777000001,1.6024505481087352,0.19539019466457985,-1.3126314130706214, ,0.04367093490955857,0.03242123046070064,0.01682028671594509,0.005691517085877532,0.0058398744081413064,-0.0018985708344699927, ,1.1325981616973877
0.012821697696787877,0.020812400328257485,-0.08790753968522229, ,0.013272383631633872,0.020583973620975197,-0.08853070308998244, ,0.00080226504442117, ,0.006044260217544797,0.0007510615639939425,-0.015439978934386268,0.010437930386338938,0.0055808622282481285,-0.0008216233629456389, ,0.01659789518416704, ,0.01183619603116807, ,7.581308196978774e-05, ,0.16474906040583145,-0.22955051195344933,0.09789970967000002,1.6024505481087352,0.19580010416387617,-1.3128839880415701, ,0.043490807313689636,0.03251008617967481,0.01597674174523571,0.005459322093675877,0.04853733203131443,-0.04195807672984066, ,1.1446499824523926
0.012935057962576081,0.020827649033773356,-0.08819874220278476, ,0.013352637952150252,0.02059558377882734,-0.08873852743662745, ,0.0007208296809375552, ,0.006070138048912262,0.0006450553816133536,-0.014698515044700638,-0.01598762223376039,-0.015401361099493674,0.0006957160698065755, ,0.015915684619189074, ,0.022199218507375447, ,7.654023999338055e-05, ,0.16559083828912194,-0.22894813878925982,0.09820174524000001,1.6026602380522197,0.19702983266176513,-1.314050106655119, ,0.04278491503988764,0.03146450316925424,0.015213764584527223,0.0,0.027912601606321055,-0.015223108488779571, ,1.1598970890045166
0.013014960830677788,0.020836568134198895,-0.0883880183614445, ,0.013432683391865903,0.020607097822506026,-0.08894530854525669, ,0.0007332946959084085, ,0.006272988650720287,0.0007092694219739566,-0.01559925091128864,-0.027520810120062623,-0.02627018218930549,-0.010387094819990183, ,0.01682825239644189, ,0.03804624210417957, ,7.727833156378371e-05, ,0.16612370685744343,-0.22854655667980014,0.09839748503000001,1.602869927995704,0.19702983266176513,-1.314050106655119, ,0.041768020052143834,0.033053619490933744,0.01610597726996967,0.008307967446349393,0.013932357023040217,-0.0038231564459039902, ,1.1715140342712402
0.013078153873656358,0.02084296060369844,-0.08854242078680244, ,0.013512520144490697,0.020618516020025027,-0.08915104912048727, ,0.0007806906409986191, ,0.006549224209136415,0.0006151030681480012,-0.015533728653588192,-0.022116663004228293,-0.04137595017425686,-0.013915689357158565, ,0.016869126100936303, ,0.04691604342682429, ,7.809978777874142e-05, ,0.16654845716552577,-0.2282144791662085,0.0985569287,1.602869927995704,0.19716646916153055,-1.3139164883383936, ,0.043391377027192854,0.03384341710359157,0.01604109921450151,0.008307967446349393,0.0,-0.009923063379586414, ,1.1826581954956055
0.01314224040702681,0.02084987274317067,-0.08871288288824161, ,0.013592148404386002,0.02062983863940041,-0.0893557518631986, ,0.000814931120937212, ,0.0060159172072386125,0.0008785365274937958,-0.017348988973321766,0.06404080545990662,0.06403283195780435,0.02203892507333438, ,0.018383430166074303, ,0.090561729007267, ,7.913807697258903e-05, ,0.16701954387085347,-0.2278437879882457,0.09873322414,1.6030796179391889,0.1979862881601232,-1.3145849957605722, ,0.045146023576817684,0.03517306951759481,0.01795807386696731,-0.0058816716877590665,0.11209630839471045,-0.10038057583698297, ,1.1915230751037598
0.013204132676132085,0.02086294164761814,-0.08889652622125056, ,0.013671568366563667,0.020641065948650717,-0.08955941947053667, ,0.0008409235461268878, ,0.006795794093295951,0.00167814732705254,-0.019763924526175092,0.04433382596081383,0.04491922715258906,0.018826745263974144, ,0.020966919384738308, ,0.06311277269114225, ,8.021260819848357e-05, ,0.16745201691181005,-0.22752715594040251,0.09891600103,1.6030796179391889,0.19907938015824675,-1.3155580177302841, ,0.04716547791176481,0.032734371010165846,0.02044776831835687,-0.005525128000346345,0.09491122485022875,-0.07805332820363602, ,1.200232982635498
0.013277611904218509,0.020881045209691893,-0.08909856252890125, ,0.013750780226684483,0.020652198215795958,-0.08976205463591536, ,0.0008464519974992615, ,0.008124796503459672,0.002123940007524447,-0.022635192850318696,-0.01828812624646464,-0.0299196394423223,0.003218313354172001, ,0.02414281248631385, ,0.03506614384452079, ,8.128090406170578e-05, ,0.1679385490828862,-0.22718735569393664,0.09913377775000001,1.6030796179391889,0.19948928965754306,-1.3158922714413734, ,0.04896643011273001,0.03504318373651063,0.02349382230088496,-0.005195863783789113,0.020516674317589974,-0.01723875144074251, ,1.2093641757965088
0.013363784059630306,0.02090461665666787,-0.089339780698016, ,0.013829784181056983,0.020663235708856968,-0.08996366004901932, ,0.0008152584373952151, ,0.00834836200166004,0.0024670693662368435,-0.024388588555906518,-0.025215737708511442,-0.035872260754626774,0.0012329553194924685, ,0.02589565274554553, ,0.04384796336628972, ,8.226907910434366e-05, ,0.16843280398683655,-0.22682438724884807,0.09938396172000001,1.6030796179391889,0.19948928965754306,-1.3158922714413734, ,0.04709525635656118,0.035528619078424105,0.02528382780952381,-0.004897809985827168,0.012504242631664046,-0.010690281098657408, ,1.2181010246276855
0.013446420245517041,0.02092883042225935,-0.08958468085998637, ,0.013908580426636135,0.020674178695855652,-0.09016423839580624, ,0.0007837898137243277, ,0.008554565433720787,0.0023777631612639663,-0.02504535896848775,-0.021256974226952722,-0.029683190649912115,0.002107149479608907, ,0.026572624132202002, ,0.036509463237708234, ,8.317850609895758e-05, ,0.16891933615791271,-0.22646141880375953,0.09963803456,1.6030796179391889,0.19989919915683937,-1.3162265251524627, ,0.048615236454134625,0.03794359918371483,0.025942689771986976,-0.004638744613129261,0.020266990725597973,-0.017037229678221178, ,1.2274000644683838
0.013532960378921868,0.02095593642654582,-0.08985179539016275, ,0.013987169161021867,0.020685027444813042,-0.090363792358509, ,0.0007360965899364071, ,0.007997889049272768,0.002645833804538306,-0.025351800064534663,0.033969929254115364,0.03530509660807588,0.01524433530333011, ,0.02671479800181642, ,0.04899383091460204, ,8.3978868332173e-05, ,0.16944448199335996,-0.2260752821600483,0.09991544062,1.6030796179391889,0.20071901815543203,-1.3168950325746414, ,0.04812218131768295,0.03563535169300442,0.02632861408264463,-0.004390259034415573,0.0856588906322771,-0.07037340753426102, ,1.2360970973968506
0.013532960378921868,0.02095593642654582,-0.08985179539016275, ,0.014065550582457892,0.020695782223749966,-0.09056232461563897, ,0.0009253022827112939, ,0.008571911933457299,0.0019099115021865675,-0.023829953439607095,-0.012660863510437293,-0.020065801047877054,-0.0003593034037451639, ,0.025396695002991514, ,0.02372606482366264, ,8.513907858686316e-05, ,0.16993873689731034,-0.22569686824921129,0.10016692088000001,1.602869927995704,0.2011289276547283,-1.3172292862857304, ,0.051630544917557544,0.039656055812148254,0.024695831813953493,0.0,0.032017686394594715,-0.026640498209001856, ,1.2451701164245605
0.01361643607319132,0.02097741272971642,-0.09009443918868569, ,0.014143724889830272,0.020706443300685815,-0.09075983784198727, ,0.000891186453800343, ,0.008571911933457299,0.0019099115021865675,-0.023829953439607095,-0.012660863510437293,-0.020065801047877054,-0.0003593034037451639, ,0.025396695002991514, ,0.02372606482366264, ,8.621452807798208e-05, ,0.16993873689731034,-0.22569686824921129,0.10016692088000001,1.602869927995704,0.2011289276547283,-1.3172292862857304, ,0.051630544917557544,0.039656055812148254,0.024695831813953493,0.0,0.032017686394594715,-0.026640498209001856, ,1.254296064376831
0.013701187532693905,0.02099540604925105,-0.09031906266560714, ,0.014221692282666296,0.020717010943638422,-0.09095633470862774, ,0.0008686453167942199, ,0.008587460430899623,0.001468786318937612,-0.021494568574213925,-0.031270470764992925,-0.04534722828588632,-0.015486345264726241, ,0.02319306551740304, ,0.055083653354353605, ,8.722961955953691e-05, ,0.17046388273275762,-0.2253184543383743,0.10040025308000002,1.6030796179391889,0.20140220065425923,-1.3174521220931235, ,0.05328295427202177,0.038686074830195996,0.022309259831932778,0.010445061206380757,0.005676837284081298,-0.005165508176213481, ,1.263038158416748
0.013784110549806204,0.021007039492890713,-0.09052633384098502, ,0.014299452961132757,0.02072748542062293,-0.09115181788291972, ,0.0008572972453871168, ,0.00829228572265495,0.0009056484129550919,-0.02020395240108524,-0.005042435763137142,-0.012628865009733675,-0.009852665454778102, ,0.02185822257594046, ,0.013598199268126802, ,8.820727103482337e-05, ,0.17101219676682755,-0.22491687222891463,0.10061543722,1.603289307882673,0.20181211015355555,-1.3177863758042125, ,0.05569069340285844,0.041331420539403654,0.020958962526315794,0.011405046450217182,0.04110892605887672,-0.03405908305296706, ,1.2726390361785889
0.013864516911571931,0.021014369276315666,-0.09072371146775246, ,0.014377007126035235,0.020737866999652087,-0.09134629002850923, ,0.0008524692330135794, ,0.008170923063485143,0.0006862118312147632,-0.019626869470748234,0.008292416845607395,0.003312185009989049,-0.0065827302544193885, ,0.02127084567215139, ,0.0089292684053, ,8.933126227747943e-05, ,0.17157595626664593,-0.2244998446537065,0.10082025104000002,1.603289307882673,0.20249529265238275,-1.3183434653226946, ,0.05689265081443092,0.04208290091284735,0.020369324194373404,0.011405046450217182,0.058500872785078754,-0.04823964226771299, ,1.2800190448760986
0.01394888272540371,0.021019854741556165,-0.09091998592677587, ,0.014454354978816036,0.020748155948734796,-0.09153975380533273, ,0.0008446506119581003, ,0.008680096438972183,0.0006721193858835217,-0.02045939101735465,-0.012580732556087847,-0.021121740124966447,-0.010832235901673955, ,0.022234713838045008, ,0.02458453076156081, ,9.04275680286689e-05, ,0.17215516123221278,-0.22406737161274992,0.10102376857,1.603289307882673,0.20290520215167906,-1.318677719033784, ,0.05829050464279532,0.04409709180226338,0.02121013517976032,0.010655290434375023,0.03529862460636415,-0.02931646989994752, ,1.2865421772003174
0.01394888272540371,0.021019854741556165,-0.09091998592677587, ,0.014531496721553488,0.020758352535876146,-0.09173221186961854, ,0.0010332151055379437, ,0.008680096438972183,0.0006721193858835217,-0.02045939101735465,-0.012580732556087847,-0.021121740124966447,-0.010832235901673955, ,0.022234713838045008, ,0.02458453076156081, ,9.186789392933418e-05, ,0.17215516123221278,-0.22406737161274992,0.10102376857,1.603289307882673,0.20290520215167906,-1.318677719033784, ,0.05829050464279532,0.04409709180226338,0.02121013517976032,0.010655290434375023,0.03529862460636415,-0.02931646989994752, ,1.2930781841278076
0.014042519101693823,0.021030216003807917,-0.0911472808493003, ,0.014608432556960305,0.02076845702907664,-0.09192366687388966, ,0.000995766568469584, ,0.009568318300769641,0.0014884725398522118,-0.024459496684747208,-0.0036683738948105338,-0.012032401256144094,-0.007737790519492212, ,0.0263065627492057, ,0.012578827147048766, ,9.322158356595369e-05, ,0.17277297986215073,-0.22361173037317067,0.10125969335000001,1.603289307882673,0.20331511165097538,-1.3190119727448733, ,0.061223833263529544,0.045081682450579946,0.02540480306220096,0.009766825405666715,0.047695625657146364,-0.03942046802587813, ,1.2999529838562012
0.014144323016776802,0.02105035894331633,-0.09142409060621073, ,0.014685162688382407,0.020778469696331927,-0.09211412146696601, ,0.0009179182435287343, ,0.010427745277792465,0.0023969028838755854,-0.028888739594728565,0.01704137325178807,0.01127443254024288,-0.0019355961164679737, ,0.0308065299958514, ,0.020432843921406908, ,9.441458074881515e-05, ,0.17336763029346602,-0.2231715345993399,0.10152672909,1.603289307882673,0.20399829414980258,-1.3195690622633554, ,0.06411955510707486,0.04582179698622442,0.02982923505617978,0.009062152057718069,0.07433844931144436,-0.06114032212860554, ,1.306636095046997
0.014144323016776802,0.02105035894331633,-0.09142409060621073, ,0.01476168731979732,0.020788390805631538,-0.09230357829396636, ,0.0011060129206839262, ,0.010427745277792465,0.0023969028838755854,-0.028888739594728565,0.01704137325178807,0.01127443254024288,-0.0019355961164679737, ,0.0308065299958514, ,0.020432843921406908, ,9.594389148940526e-05, ,0.17336763029346602,-0.2231715345993399,0.10152672909,1.603289307882673,0.20399829414980258,-1.3195690622633554, ,0.06411955510707486,0.04582179698622442,0.02982923505617978,0.009062152057718069,0.07433844931144436,-0.06114032212860554, ,1.3133280277252197
0.014251066120567625,0.02107542225211435,-0.0917168976955734, ,0.014838006655813326,0.020798220624959535,-0.09249203999631185, ,0.0010110319086981837, ,0.011326672697464304,0.0028769949529377165,-0.03093496438878009,0.003195312165012168,-0.009547314986261076,-0.004761027193738009, ,0.03306875619205846, ,0.01006642504462806, ,9.728067565618893e-05, ,0.17406267625214622,-0.22268500242826375,0.10185209788,1.603289307882673,0.20468147664862982,-1.3201261517818375, ,0.06797775183271546,0.04582179698622442,0.03224455773279353,0.008405311677237506,0.057364415507439065,-0.047292250758172456, ,1.3203990459442139
0.014368693826231991,0.021107013419279806,-0.09204007050608444, ,0.014914120901667622,0.020807959422292858,-0.09267950921172706, ,0.0008920795065497494, ,0.011444510945903139,0.0027438340224101936,-0.03130445278530801,-0.010055561315263183,-0.022545214249386873,-0.0008649527559085215, ,0.03344359759536959, ,0.024685439757796822, ,9.838405337600728e-05, ,0.17475772221082642,-0.22222163845581028,0.10218913328000001,1.6034989978261578,0.20522802264769155,-1.320571823396623, ,0.06682883208343011,0.04759124451277371,0.03257425668711657,0.0013712698584725767,0.04459645963592753,-0.03687337241789825, ,1.328721046447754
0.014455706909598543,0.021124768644011173,-0.09227184703572318, ,0.014990030263225398,0.02081760746560135,-0.09286598857424304, ,0.001073291865836609, ,0.011423828818747359,0.002198444456803864,-0.030186525420656873,0.005943025612365376,-0.003356883643314214,0.0031536712772799297, ,0.032399564393759926, ,0.006823720124951802, ,9.980661225298824e-05, ,0.1752828680462737,-0.22184322454497327,0.10243024322000001,1.6034989978261578,0.20563793214698786,-1.3209060771077126, ,0.0705553468836214,0.05042345460067523,0.03141777420118344,0.0013712698584725767,0.06782956289719323,-0.05581266292237104, ,1.3362810611724854
0.014455706909598543,0.021124768644011173,-0.09227184703572318, ,0.01506573494697822,0.02082716502284701,-0.09305148071419922, ,0.0010336976319666243, ,0.011423828818747359,0.002198444456803864,-0.030186525420656873,0.005943025612365376,-0.003356883643314214,0.0031536712772799297, ,0.03235063121303289, ,0.006823720124951802, ,0.00010114166278972944, ,0.1752828680462737,-0.22184322454497327,0.10243024322000001,1.6034989978261578,0.20563793214698786,-1.3209060771077126, ,0.0705553468836214,0.05042345460067523,0.03141777420118344,0.0013712698584725767,0.06782956289719323,-0.05581266292237104, ,1.343729019165039
0.014590269990902368,0.021148106157644415,-0.0926140472302546, ,0.015141235160042963,0.02083663236198385,-0.09323598825824655, ,0.000887349528251982, ,0.011243920478195849,0.0014453762776747959,-0.02627378086119329,-0.014496267672428545,-0.03256330009166795,-0.0019584968995814685, ,0.028615143212048822, ,0.035644042546330065, ,0.00010219758420000574, ,0.17612464592956417,-0.2212562968465322,0.10278672297000001,1.6034989978261578,0.20632111464581507,-1.3214631666261947, ,0.07282957909322392,0.04874008297815653,0.027416198829604135,0.0013712698584725767,0.04051362688747508,-0.03352887594602079, ,1.3508601188659668
0.014590269990902368,0.021148106157644415,-0.0926140472302546, ,0.015216531110160154,0.020846009750956466,-0.09341951382934902, ,0.0010640684520671177, ,0.011243920478195849,0.0014453762776747959,-0.02627378086119329,-0.014496267672428545,-0.03256330009166795,-0.0019584968995814685, ,0.028615143212048822, ,0.035644042546330065, ,0.000103746545071478, ,0.17612464592956417,-0.2212562968465322,0.10278672297000001,1.6034989978261578,0.20632111464581507,-1.3214631666261947, ,0.07282957909322392,0.04874008297815653,0.027416198829604135,0.0013712698584725767,0.04051362688747508,-0.03352887594602079, ,1.3555011749267578
0.014703957445273606,0.02115745119256231,-0.09286761985588554, ,0.015291623005693058,0.02085529745770079,-0.09360206004678609, ,0.0009879524707210913, ,0.01101233536105684,0.0007295083831236162,-0.023707219626374197,-0.026913919163918425,-0.047001668353976754,-0.0049311766623201135, ,0.02615025764688701, ,0.054161872051992084, ,0.00010514772887862007, ,0.17685058281974128,-0.22075431920970762,0.10304338839,1.6034989978261578,0.20673102414511138,-1.3217974203372838, ,0.07333612176079658,0.049867021312911604,0.02473417937888199,0.0013712698584725767,0.02650152040452791,-0.022094923063911243, ,1.361464023590088
0.014800612695925166,0.021163545032653344,-0.09307748049911924, ,0.015366511055626052,0.0208644957501426,-0.09378362952615583, ,0.0009530571206738229, ,0.011098141805127769,0.0006729186994891745,-0.024382224375908465,-0.002637376601730916,-0.01705281297968374,-0.005366760343743671, ,0.026797657297233872, ,0.017255305521798273, ,0.00010647646172820252, ,0.17753790604554726,-0.22029095523725414,0.10327023914000001,1.6037086877696423,0.20714093364440772,-1.322131674048373, ,0.07567539199240093,0.0519414020571816,0.025445385814696485,0.007733235695398853,0.0577155244956421,-0.047539869475964974, ,1.366962194442749
0.014800612695925166,0.021163545032653344,-0.09307748049911924, ,0.015441195469563275,0.020873604896196968,-0.09396422487937604, ,0.001131692170392313, ,0.011098141805127769,0.0006729186994891745,-0.024382224375908465,-0.002637376601730916,-0.01705281297968374,-0.005366760343743671, ,0.026797657297233872, ,0.017255305521798273, ,0.0001081141430952897, ,0.17753790604554726,-0.22029095523725414,0.10327023914000001,1.6037086877696423,0.20714093364440772,-1.322131674048373, ,0.07567539199240093,0.0519414020571816,0.025445385814696485,0.007733235695398853,0.0577155244956421,-0.047539869475964974, ,1.3715322017669678
0.014800612695925166,0.021163545032653344,-0.09307748049911924, ,0.015515676457727529,0.020882625163768487,-0.09414384871468726, ,0.0013142957533793353, ,0.011098141805127769,0.0006729186994891745,-0.024382224375908465,-0.002637376601730916,-0.01705281297968374,-0.005366760343743671, ,0.026797657297233872, ,0.017255305521798273, ,0.00011006452936027862, ,0.17838740666171196,-0.21972719573743574,0.10356838584000001,1.6039183777131267,0.20782411614323493,-1.3226887635668552, ,0.0779121030857724,0.05010398181545448,0.029120313564899455,0.00873887910371522,0.06577110471827015,-0.05410034271255938, ,1.3766460418701172
0.014927208431322126,0.021175705964657638,-0.09336268052367994, ,0.015589954230958849,0.020891556820750095,-0.0943225036366556, ,0.0012005136980150672, ,0.011907140223402649,0.0016189607564673979,-0.02782775337128389,0.005874111498120791,-0.011130661772500041,-0.00450598323175274, ,0.03031146449651941, ,0.012584916762032746, ,0.00011179972341212731, ,0.17838740666171196,-0.21972719573743574,0.10356838584000001,1.6039183777131267,0.20782411614323493,-1.3226887635668552, ,0.0779121030857724,0.05010398181545448,0.029120313564899455,0.00873887910371522,0.06577110471827015,-0.05410034271255938, ,1.3811612129211426
0.014927208431322126,0.021175705964657638,-0.09336268052367994, ,0.015664029000712995,0.020900400135022847,-0.0945001922461736, ,0.0013829789478220196, ,0.011907140223402649,0.0016189607564673979,-0.02782775337128389,0.005874111498120791,-0.011130661772500041,-0.00450598323175274, ,0.03031146449651941, ,0.012584916762032746, ,0.00011384448443681474, ,0.1791905708806313,-0.21917115897049158,0.10389893979,1.6039183777131267,0.208780571641593,-1.32346868889273, ,0.07646812373768798,0.055854585967316524,0.034931604210526324,0.008254875945334044,0.09837666852742451,-0.08067970806772398, ,1.3857600688934326
0.015053093909483645,0.021194894994966303,-0.09367944072989086, ,0.015737900979060415,0.02090915537445514,-0.09467691714046395, ,0.0012432083666553875, ,0.012556852553106755,0.0022996318534355496,-0.03353195637769781,0.026503078877959864,0.022381759133234674,0.0011727280580424012, ,0.03587972897358101, ,0.03468881576069004, ,0.00011562922854539427, ,0.1791905708806313,-0.21917115897049158,0.10389893979,1.6039183777131267,0.208780571641593,-1.32346868889273, ,0.07646812373768798,0.055854585967316524,0.034931604210526324,0.008254875945334044,0.09837666852742451,-0.08067970806772398, ,1.3912861347198486
0.015185757250026155,0.021223277670841756,-0.0940386645410953, ,0.015811570378684747,0.020917822806902475,-0.09485268091308122, ,0.0010712457233364957, ,0.012556852553106755,0.0022996318534355496,-0.03353195637769781,0.026503078877959864,0.022381759133234674,0.0011727280580424012, ,0.03587972897358101, ,0.03468881576069004, ,0.00011710030957209429, ,0.1799473987023053,-0.21863056766929587,0.10425930841000002,1.6039183777131267,0.20960039064018565,-1.3241371963149087, ,0.07994687578641177,0.05530124799444684,0.04012295093198993,0.007673493889100424,0.08873426379956055,-0.07280936157889971, ,1.3965530395507812
0.015185757250026155,0.021223277670841756,-0.0940386645410953, ,0.015885037412881463,0.020926402700206594,-0.09502748615391401, ,0.00124695456065166, ,0.014002236670297867,0.003486036154699732,-0.03864375874170741,0.015568624011169478,0.004941099106841616,-0.0009772992417059578, ,0.041249911145724856, ,0.016331268655726233, ,0.00011886776845779668, ,0.1799473987023053,-0.21863056766929587,0.10425930841000002,1.6039183777131267,0.20960039064018565,-1.3241371963149087, ,0.07994687578641177,0.05530124799444684,0.04012295093198993,0.007673493889100424,0.08873426379956055,-0.07280936157889971, ,1.402414083480835
0.015328347939324935,0.021258955546117328,-0.09443537883909506, ,0.01595830229555665,0.02093489532219542,-0.09520133544918787, ,0.0010433345811428354, ,0.014292459679999156,0.003642556141764063,-0.039784891004950855,-0.0007373214565226088,-0.012680533015150791,-0.004387533726153194, ,0.04243088699551453, ,0.012698026792322483, ,0.00012026881027384405, ,0.1807660083869731,-0.21805136270372902,0.10468708411000001,1.6039183777131267,0.21042020963877828,-1.3248057037370873, ,0.0782332576739248,0.05578891332067653,0.04148128,0.007126236164224849,0.06485817905586658,-0.053331836009590156, ,1.407029151916504
0.015328347939324935,0.021258955546117328,-0.09443537883909506, ,0.01603136524122569,0.02094330094068229,-0.09537423138146675, ,0.0012146255608301516, ,0.014292459679999156,0.003642556141764063,-0.039784891004950855,-0.0007373214565226088,-0.012680533015150791,-0.004387533726153194, ,0.04243088699551453, ,0.012698026792322483, ,0.0001219570042777998, ,0.1807660083869731,-0.21805136270372902,0.10468708411000001,1.6039183777131267,0.21042020963877828,-1.3248057037370873, ,0.0782332576739248,0.05578891332067653,0.04148128,0.007126236164224849,0.06485817905586658,-0.053331836009590156, ,1.4116320610046387
0.015463551261083609,0.021291086406880967,-0.09479792484434955, ,0.01610422646501171,0.020951619823465238,-0.09554617652965618, ,0.0010419130783076206, ,0.014292459679999156,0.003642556141764063,-0.039784891004950855,-0.0007373214565226088,-0.012680533015150791,-0.004387533726153194, ,0.04243088699551453, ,0.012698026792322483, ,0.00012333524101312281, ,0.1815228362086471,-0.217533939601156,0.10506560079,1.6039183777131267,0.21096675563784006,-1.3252513753518729, ,0.08722145363830036,0.056519917545247635,0.04032610511392406,0.006704213918598103,0.06058368642159774,-0.049839175620957465, ,1.4163291454315186
0.015463551261083609,0.021291086406880967,-0.09479792484434955, ,0.016176886182644484,0.02095985223832668,-0.09571717346900467, ,0.0012097854432362935, ,0.015043132733293687,0.0032806824007537727,-0.03854338632935252,-0.004985609961087443,-0.025974513602857397,-0.004998802085181547, ,0.041504835250604555, ,0.026447052744981846, ,0.00012499292597217625, ,0.1815228362086471,-0.217533939601156,0.10506560079,1.6039183777131267,0.21096675563784006,-1.3252513753518729, ,0.08722145363830036,0.056519917545247635,0.04032610511392406,0.006704213918598103,0.06058368642159774,-0.049839175620957465, ,1.421720027923584
0.015625046409659712,0.021323810041309708,-0.09521059122527407, ,0.01624934461045915,0.020967998453033366,-0.09588722477110731, ,0.0009870071353440188, ,0.015043132733293687,0.0032806824007537727,-0.03854338632935252,-0.004985609961087443,-0.025974513602857397,-0.004998802085181547, ,0.041504835250604555, ,0.026447052744981846, ,0.00012625711342226145, ,0.1824727323521767,-0.2169083982383438,0.10549726536000001,1.6039183777131267,0.21178657463643272,-1.3259198827740515, ,0.09055051675426601,0.061501582345088,0.03972272199501248,0.0062726130034322924,0.08050993038372456,-0.06607960289584607, ,1.4265069961547852
0.015625046409659712,0.021323810041309708,-0.09521059122527407, ,0.016321601965394554,0.020976058735334764,-0.09605633300390629, ,0.00114952153923114, ,0.015166448092013429,0.002617895043523422,-0.03799703522033085,0.006151349554934273,-0.009720261756953785,-0.0017459972060196545, ,0.040995721822181704, ,0.011499712418478544, ,0.00012779045925540098, ,0.1824727323521767,-0.2169083982383438,0.10549726536000001,1.6039183777131267,0.21178657463643272,-1.3259198827740515, ,0.09055051675426601,0.061501582345088,0.03972272199501248,0.0062726130034322924,0.08050993038372456,-0.06607960289584607, ,1.4315869808197021
0.015625046409659712,0.021323810041309708,-0.09521059122527407, ,0.01639365846499217,0.02098403335296341,-0.09622450073169496, ,0.0013168998355063326, ,0.015166448092013429,0.002617895043523422,-0.03799703522033085,0.006151349554934273,-0.009720261756953785,-0.0017459972060196545, ,0.040995721822181704, ,0.011499712418478544, ,0.0001298196561432012, ,0.1824727323521767,-0.2169083982383438,0.10549726536000001,1.6039183777131267,0.21178657463643272,-1.3259198827740515, ,0.09055051675426601,0.061501582345088,0.03972272199501248,0.0062726130034322924,0.08050993038372456,-0.06607960289584607, ,1.4339430332183838
0.01577460963418731,0.021346951406426604,-0.09557073711766158, ,0.01646551432739486,0.020991922573634223,-0.09639173051511896, ,0.0011302322442218445, ,0.014945210312130844,0.0019988113105720634,-0.03474011206348388,0.017008389163327618,-0.0025951068464592415,0.006938902959032977, ,0.03787122844736504, ,0.017203757753122526, ,0.00013152393653175084, ,0.18339173756420943,-0.21630602507415428,0.10587448575000001,1.6041280676566114,0.21260639363502531,-1.3265883901962299, ,0.09489694155847078,0.060023365944636795,0.03645036961098399,0.0,0.0934986897964351,-0.0766637773267622, ,1.436873197555542
0.01577460963418731,0.021346951406426604,-0.09557073711766158, ,0.01653716977134513,0.020999726665043794,-0.09655802491117871, ,0.001294913190541528, ,0.014945210312130844,0.0019988113105720634,-0.03474011206348388,0.017008389163327618,-0.0025951068464592415,0.006938902959032977, ,0.03787122844736504, ,0.017203757753122526, ,0.00013350248968482868, ,0.18339173756420943,-0.21630602507415428,0.10587448575000001,1.6041280676566114,0.21260639363502531,-1.3265883901962299, ,0.09489694155847078,0.060023365944636795,0.03645036961098399,0.0,0.0934986897964351,-0.0766637773267622, ,1.4397130012512207
0.01577460963418731,0.021346951406426604,-0.09557073711766158, ,0.016608625016184347,0.021007445894870212,-0.09672338647323267, ,0.0014626845820898252, ,0.014945210312130844,0.0019988113105720634,-0.03474011206348388,0.017008389163327618,-0.0025951068464592415,0.006938902959032977, ,0.03787122844736504, ,0.017203757753122526, ,0.00013575916556327522, ,0.18339173756420943,-0.21630602507415428,0.10587448575000001,1.6041280676566114,0.21260639363502531,-1.3265883901962299, ,0.09489694155847078,0.060023365944636795,0.03645036961098399,0.0,0.0934986897964351,-0.0766637773267622, ,1.4420201778411865
0.01577460963418731,0.021346951406426604,-0.09557073711766158, ,0.016679880281850974,0.021015080530772372,-0.09688781775099817, ,0.001632285091011742, ,0.014945210312130844,0.0019988113105720634,-0.03474011206348388,0.017008389163327618,-0.0025951068464592415,0.006938902959032977, ,0.03787122844736504, ,0.017203757753122526, ,0.00013829565018267937, ,0.18339173756420943,-0.21630602507415428,0.10587448575000001,1.6041280676566114,0.21260639363502531,-1.3265883901962299, ,0.09489694155847078,0.060023365944636795,0.03645036961098399,0.0,0.0934986897964351,-0.0766637773267622, ,1.4443621635437012
0.015929709182668558,0.0213657926511956,-0.09592651179344562, ,0.016750935788879307,0.021022630840388738,-0.09705132129055435, ,0.0014343533636906464, ,0.01626285895018817,0.001963344707104616,-0.038210518163925664,0.016068959005697787,-0.000855525049436156,-0.0032631509782790357, ,0.04157377781761388, ,0.01608918618889054, ,0.0007687850645506618, ,0.18438024737211017,-0.21567276097846788,0.10624781727000002,1.6043377576000957,0.21356284913338341,-1.3273683155221048, ,0.1014940551427495,0.06797775183271546,0.040022139497487445,0.010226281327418367,0.09972469696614127,-0.08173346615056173, ,1.4469761848449707
0.015929709182668558,0.0213657926511956,-0.09592651179344562, ,0.016821791758398482,0.021030097091338705,-0.09721389963434497, ,0.0016018334132250028, ,0.01626285895018817,0.001963344707104616,-0.038210518163925664,0.016068959005697787,-0.000855525049436156,-0.0032631509782790357, ,0.04157377781761388, ,0.01608918618889054, ,0.0007764277099513439, ,0.18438024737211017,-0.21567276097846788,0.10624781727000002,1.6043377576000957,0.21356284913338341,-1.3273683155221048, ,0.1014940551427495,0.06797775183271546,0.040022139497487445,0.010226281327418367,0.09972469696614127,-0.08173346615056173, ,1.4495630264282227
0.015929709182668558,0.0213657926511956,-0.09592651179344562, ,0.016892448412130584,0.02103747955121993,-0.09737555532117996, ,0.0017704190071363192, ,0.01626285895018817,0.001963344707104616,-0.038210518163925664,0.016068959005697787,-0.000855525049436156,-0.0032631509782790357, ,0.04157377781761388, ,0.01608918618889054, ,0.0007854639944712072, ,0.18438024737211017,-0.21567276097846788,0.10624781727000002,1.6043377576000957,0.21356284913338341,-1.3273683155221048, ,0.1014940551427495,0.06797775183271546,0.040022139497487445,0.010226281327418367,0.09972469696614127,-0.08173346615056173, ,1.4518961906433105
0.015929709182668558,0.0213657926511956,-0.09592651179344562, ,0.01696290597238984,0.02104477848760923,-0.09753629088623766, ,0.0019395706811312118, ,0.01626285895018817,0.001963344707104616,-0.038210518163925664,0.016068959005697787,-0.000855525049436156,-0.0032631509782790357, ,0.04157377781761388, ,0.01608918618889054, ,0.0007958613520086848, ,0.18438024737211017,-0.21567276097846788,0.10624781727000002,1.6043377576000957,0.21356284913338341,-1.3273683155221048, ,0.1014940551427495,0.06797775183271546,0.040022139497487445,0.010226281327418367,0.09972469696614127,-0.08173346615056173, ,1.454240083694458
0.015929709182668558,0.0213657926511956,-0.09592651179344562, ,0.0170331646620809,0.021051994168061666,-0.09769610886106816, ,0.0021089232477263338, ,0.01901714199227358,0.0045410816489540925,-0.05082185082304436,0.055333461653795685,0.041835078876503694,0.001720765692241079, ,0.05445304062379379, ,0.06936589047987848, ,0.0008075851189347352, ,0.18538420264575936,-0.2150163286841588,0.10669114845000001,1.6045474475435806,0.21479257763127238,-1.3283710766553727, ,0.10907694432008136,0.06998299524960973,0.05327361712374583,0.014398772493916245,0.14974601103501828,-0.12251576820747993, ,1.4570879936218262
0.01609723817798927,0.02139680913289471,-0.09634950154665094, ,0.017103224704697766,0.021059126860109884,-0.09785501177359417, ,0.0018419009888435383, ,0.01901714199227358,0.0045410816489540925,-0.05082185082304436,0.055333461653795685,0.041835078876503694,0.001720765692241079, ,0.05445304062379379, ,0.06936589047987848, ,0.0008167383567215388, ,0.18538420264575936,-0.2150163286841588,0.10669114845000001,1.6045474475435806,0.21479257763127238,-1.3283710766553727, ,0.10907694432008136,0.06998299524960973,0.05327361712374583,0.014398772493916245,0.14974601103501828,-0.12251576820747993, ,1.4596261978149414
0.01609723817798927,0.02139680913289471,-0.09634950154665094, ,0.01717308632432227,0.021066176831263807,-0.09801300214811423, ,0.0020084823135687914, ,0.01901714199227358,0.0045410816489540925,-0.05082185082304436,0.055333461653795685,0.041835078876503694,0.001720765692241079, ,0.05445304062379379, ,0.06936589047987848, ,0.000827192251079848, ,0.18538420264575936,-0.2150163286841588,0.10669114845000001,1.6045474475435806,0.21479257763127238,-1.3283710766553727, ,0.10907694432008136,0.06998299524960973,0.05327361712374583,0.014398772493916245,0.14974601103501828,-0.12251576820747993, ,1.4619929790496826
0.01609723817798927,0.02139680913289471,-0.09634950154665094, ,0.017242749745622735,0.021073144349009917,-0.09817008250530444, ,0.0021751943984207457, ,0.01901714199227358,0.0045410816489540925,-0.05082185082304436,0.055333461653795685,0.041835078876503694,0.001720765692241079, ,0.05445304062379379, ,0.06936589047987848, ,0.0008389140088828124, ,0.18538420264575936,-0.2150163286841588,0.10669114845000001,1.6045474475435806,0.21479257763127238,-1.3283710766553727, ,0.10907694432008136,0.06998299524960973,0.05327361712374583,0.014398772493916245,0.14974601103501828,-0.12251576820747993, ,1.4644901752471924
0.01630083181280615,0.021453131930880182,-0.09692537456257, ,0.017312215193853012,0.021080029680811314,-0.09832625536222167, ,0.0017676449437873379, ,0.02100865550262849,0.006436174058360977,-0.06084984625098809,0.0677995878069885,0.05864673210219456,0.005144970888790525, ,0.06469537642912769, ,0.08964033155191996, ,0.0008469203100457825, ,0.18648855344677345,-0.21428266906110746,0.10729392330000001,1.6045474475435806,0.21643221562845769,-1.3297080914997297, ,0.11047373871766097,0.07244041340341281,0.06371524608000001,0.01375238835723798,0.16828598868575043,-0.13762688577572132, ,1.467142105102539
0.01630083181280615,0.021453131930880182,-0.09692537456257, ,0.01738148289485041,0.021086833094106097,-0.09848152323230457, ,0.0019296580736654191, ,0.02100865550262849,0.006436174058360977,-0.06084984625098809,0.0677995878069885,0.05864673210219456,0.005144970888790525, ,0.06469537642912769, ,0.08964033155191996, ,0.0008561744789656084, ,0.18648855344677345,-0.21428266906110746,0.10729392330000001,1.6045474475435806,0.21643221562845769,-1.3297080914997297, ,0.11047373871766097,0.07244041340341281,0.06371524608000001,0.01375238835723798,0.16828598868575043,-0.13762688577572132, ,1.4697861671447754
0.01630083181280615,0.021453131930880182,-0.09692537456257, ,0.017450553075035253,0.02109355485630831,-0.09863588862537659, ,0.0020921312130070743, ,0.02100865550262849,0.006436174058360977,-0.06084984625098809,0.0677995878069885,0.05864673210219456,0.005144970888790525, ,0.06469537642912769, ,0.08964033155191996, ,0.0008666486885761293, ,0.18648855344677345,-0.21428266906110746,0.10729392330000001,1.6045474475435806,0.21643221562845769,-1.3297080914997297, ,0.11047373871766097,0.07244041340341281,0.06371524608000001,0.01375238835723798,0.16828598868575043,-0.13762688577572132, ,1.4721322059631348
0.01630083181280615,0.021453131930880182,-0.09692537456257, ,0.017519425961408853,0.021100195234806343,-0.09878935404764864, ,0.002254762854767285, ,0.02100865550262849,0.006436174058360977,-0.06084984625098809,0.0677995878069885,0.05864673210219456,0.005144970888790525, ,0.06469537642912769, ,0.08964033155191996, ,0.0008783135135021053, ,0.18648855344677345,-0.21428266906110746,0.10729392330000001,1.6045474475435806,0.21643221562845769,-1.3297080914997297, ,0.11047373871766097,0.07244041340341281,0.06371524608000001,0.01375238835723798,0.16828598868575043,-0.13762688577572132, ,1.4744842052459717
0.016527680900611286,0.021524752428278133,-0.09758790651189948, ,0.01758810178155232,0.021106754496962324,-0.09894192200172015, ,0.0017699075292213335, ,0.023573451351452106,0.0076818776759084335,-0.06950227590676857,0.052113521325924735,0.03987091907950226,0.002703610282739413, ,0.07379217580114765, ,0.0656040204661125, ,0.0008857434636330989, ,0.18764696337790715,-0.21351811850655925,0.10798743845000001,1.6045474475435806,0.21807185362564296,-1.331045106344087, ,0.1170122583951551,0.07816881512229883,0.0727342991780822,0.012522366035300384,0.15611925082986075,-0.1276989290525383, ,1.4771721363067627
0.016527680900611286,0.021524752428278133,-0.09758790651189948, ,0.01765658076362558,0.021113232910112995,-0.09909359498658259, ,0.0019263595192326097, ,0.023573451351452106,0.0076818776759084335,-0.06950227590676857,0.052113521325924735,0.03987091907950226,0.002703610282739413, ,0.07379217580114765, ,0.0656040204661125, ,0.0008943435963240039, ,0.18764696337790715,-0.21351811850655925,0.10798743845000001,1.6045474475435806,0.21807185362564296,-1.331045106344087, ,0.1170122583951551,0.07816881512229883,0.0727342991780822,0.012522366035300384,0.15611925082986075,-0.1276989290525383, ,1.479607105255127
0.016527680900611286,0.021524752428278133,-0.09758790651189948, ,0.017724863136365458,0.0211196307415673,-0.09924437549762095, ,0.002083568666328495, ,0.023573451351452106,0.0076818776759084335,-0.06950227590676857,0.052113521325924735,0.03987091907950226,0.002703610282739413, ,0.07379217580114765, ,0.0656040204661125, ,0.0009040913427994506, ,0.18764696337790715,-0.21351811850655925,0.10798743845000001,1.6045474475435806,0.21807185362564296,-1.331045106344087, ,0.1170122583951551,0.07816881512229883,0.0727342991780822,0.012522366035300384,0.15611925082986075,-0.1276989290525383, ,1.481964111328125
0.016527680900611286,0.021524752428278133,-0.09758790651189948, ,0.017792949129085026,0.02112594825860763,-0.0993942660266166, ,0.0022411789647729468, ,0.023573451351452106,0.0076818776759084335,-0.06950227590676857,0.052113521325924735,0.03987091907950226,0.002703610282739413, ,0.07379217580114765, ,0.0656040204661125, ,0.0009149619738724058, ,0.18764696337790715,-0.21351811850655925,0.10798743845000001,1.6045474475435806,0.21807185362564296,-1.331045106344087, ,0.1170122583951551,0.07816881512229883,0.0727342991780822,0.012522366035300384,0.15611925082986075,-0.1276989290525383, ,1.4842979907989502
0.016527680900611286,0.021524752428278133,-0.09758790651189948, ,0.017860838971671494,0.021132185728487934,-0.09954326906174873, ,0.0023989292939914065, ,0.025696947611279584,0.007418136002655129,-0.07359506954597811,0.021991116010429964,0.006341529075087157,-0.003055536327194132, ,0.07830450893638304, ,0.022839991666921102, ,0.0009269294522604623, ,0.18892121430215417,-0.21266089515752032,0.10877039761000001,1.6045474475435806,0.2195748551230628,-1.3322707032847474, ,0.12619274143413667,0.0885232663791705,0.0769507802898551,0.011474057495550713,0.1316671812538735,-0.10775312270278171, ,1.4867990016937256
0.01678553785123327,0.02160498453653008,-0.09833611949580956, ,0.017928532894585576,0.0211383434184343,-0.09969138708759759, ,0.0018332871699699806, ,0.025696947611279584,0.007418136002655129,-0.07359506954597811,0.021991116010429964,0.006341529075087157,-0.003055536327194132, ,0.07830450893638304, ,0.022839991666921102, ,0.0009341803140021385, ,0.18892121430215417,-0.21266089515752032,0.10877039761000001,1.6045474475435806,0.2195748551230628,-1.3322707032847474, ,0.12619274143413667,0.0885232663791705,0.0769507802898551,0.011474057495550713,0.1316671812538735,-0.10775312270278171, ,1.4895710945129395
0.01678553785123327,0.02160498453653008,-0.09833611949580956, ,0.017996031128859717,0.02114442159564362,-0.09983862258514631, ,0.0019836652265851906, ,0.025696947611279584,0.007418136002655129,-0.07359506954597811,0.021991116010429964,0.006341529075087157,-0.003055536327194132, ,0.07830450893638304, ,0.022839991666921102, ,0.0009425095593400992, ,0.18892121430215417,-0.21266089515752032,0.10877039761000001,1.6045474475435806,0.2195748551230628,-1.3322707032847474, ,0.12619274143413667,0.0885232663791705,0.0769507802898551,0.011474057495550713,0.1316671812538735,-0.10775312270278171, ,1.4919052124023438
0.01678553785123327,0.02160498453653008,-0.09833611949580956, ,0.018063333906096844,0.021150420527283477,-0.09998497803178277, ,0.002134976737104877, ,0.025696947611279584,0.007418136002655129,-0.07359506954597811,0.021991116010429964,0.006341529075087157,-0.003055536327194132, ,0.07830450893638304, ,0.022839991666921102, ,0.0009518990646768297, ,0.18892121430215417,-0.21266089515752032,0.10877039761000001,1.6045474475435806,0.2195748551230628,-1.3322707032847474, ,0.12619274143413667,0.0885232663791705,0.0769507802898551,0.011474057495550713,0.1316671812538735,-0.10775312270278171, ,1.4947280883789062
0.017049455225468725,0.021678212903910244,-0.09907001729614708, ,0.018130441458469187,0.02115634048049192,-0.10013045590130266, ,0.0016016903875485345, ,0.02666846818474224,0.006767620148618721,-0.07090452205556841,0.030757879849750706,0.004013691094475268,0.008349316473499705, ,0.0760556317817766, ,0.030989752473913806, ,0.000956975559386765, ,0.19014912882915588,-0.2118345627399783,0.10948724598000001,1.6047571374870648,0.22080458362095176,-1.3333551431581558, ,0.13833373405024896,0.08754330402072949,0.07513590339622642,0.002080954916908857,0.14613820686117113,-0.11869660258069713, ,1.4975450038909912
0.017049455225468725,0.021678212903910244,-0.09907001729614708, ,0.01819735401871675,0.021162181722376303,-0.10027505866391129, ,0.0017424363741263633, ,0.02666846818474224,0.006767620148618721,-0.07090452205556841,0.030757879849750706,0.004013691094475268,0.008349316473499705, ,0.0760556317817766, ,0.030989752473913806, ,0.0009630644029118781, ,0.19014912882915588,-0.2118345627399783,0.10948724598000001,1.6047571374870648,0.22080458362095176,-1.3333551431581558, ,0.13833373405024896,0.08754330402072949,0.07513590339622642,0.002080954916908857,0.14613820686117113,-0.11869660258069713, ,1.4998981952667236
0.017049455225468725,0.021678212903910244,-0.09907001729614708, ,0.018264071820146017,0.021167944520013294,-0.10041878878622583, ,0.0018854314700140994, ,0.02666846818474224,0.006767620148618721,-0.07090452205556841,0.030757879849750706,0.004013691094475268,0.008349316473499705, ,0.0760556317817766, ,0.030989752473913806, ,0.0009701595341972799, ,0.19014912882915588,-0.2118345627399783,0.10948724598000001,1.6047571374870648,0.22080458362095176,-1.3333551431581558, ,0.13833373405024896,0.08754330402072949,0.07513590339622642,0.002080954916908857,0.14613820686117113,-0.11869660258069713, ,1.5022180080413818
0.017049455225468725,0.021678212903910244,-0.09907001729614708, ,0.018330595096628738,0.021173629140448253,-0.10056164873127789, ,0.002029997163075794, ,0.02666846818474224,0.006767620148618721,-0.07090452205556841,0.030757879849750706,0.004013691094475268,0.008349316473499705, ,0.0760556317817766, ,0.030989752473913806, ,0.000978249897776505, ,0.19014912882915588,-0.2118345627399783,0.10948724598000001,1.6047571374870648,0.22080458362095176,-1.3333551431581558, ,0.13833373405024896,0.08754330402072949,0.07513590339622642,0.002080954916908857,0.14613820686117113,-0.11869660258069713, ,1.5045411586761475
0.017302091146827795,0.02173101987616844,-0.09970401172238319, ,0.01839692408260024,0.021179235850694318,-0.1007036409585152, ,0.0015818923407584964, ,0.026637306929614638,0.004290210730968938,-0.06393740757790653,0.017472341220945174,-0.010611023711237306,-0.009404560228004595, ,0.06939700365550343, ,0.020415876921901728, ,0.0009828229465869748, ,0.19162417080813277,-0.21090783479507136,0.11020539064000001,1.6049668274305493,0.22217094861860617,-1.3343876434549795, ,0.15015338854188412,0.09683361383517426,0.06721017518987342,0.01719833541759596,0.13757558570042488,-0.11026778203787475, ,1.507350206375122
0.017302091146827795,0.02173101987616844,-0.09970401172238319, ,0.018463059013058572,0.02118476491773278,-0.10084476792380456, ,0.0017168475695638523, ,0.026637306929614638,0.004290210730968938,-0.06393740757790653,0.017472341220945174,-0.010611023711237306,-0.009404560228004595, ,0.06939700365550343, ,0.020415876921901728, ,0.0009883419287146206, ,0.19162417080813277,-0.21090783479507136,0.11020539064000001,1.6049668274305493,0.22217094861860617,-1.3343876434549795, ,0.15015338854188412,0.09683361383517426,0.06721017518987342,0.01719833541759596,0.13757558570042488,-0.11026778203787475, ,1.5098240375518799
0.017302091146827795,0.02173101987616844,-0.09970401172238319, ,0.018529000123562983,0.02119021660851192,-0.10098503207943377, ,0.0018543966583984522, ,0.026637306929614638,0.004290210730968938,-0.06393740757790653,0.017472341220945174,-0.010611023711237306,-0.009404560228004595, ,0.06939700365550343, ,0.020415876921901728, ,0.0009948050237122612, ,0.19162417080813277,-0.21090783479507136,0.11020539064000001,1.6049668274305493,0.22217094861860617,-1.3343876434549795, ,0.15015338854188412,0.09683361383517426,0.06721017518987342,0.01719833541759596,0.13757558570042488,-0.11026778203787475, ,1.5121181011199951
0.017302091146827795,0.02173101987616844,-0.09970401172238319, ,0.018594747650232234,0.021195591189946506,-0.10112443587411377, ,0.0019938027697449577, ,0.026637306929614638,0.004290210730968938,-0.06393740757790653,0.017472341220945174,-0.010611023711237306,-0.009404560228004595, ,0.06939700365550343, ,0.020415876921901728, ,0.001002205007016207, ,0.19162417080813277,-0.21090783479507136,0.11020539064000001,1.6049668274305493,0.22217094861860617,-1.3343876434549795, ,0.15015338854188412,0.09683361383517426,0.06721017518987342,0.01719833541759596,0.13757558570042488,-0.11026778203787475, ,1.5144309997558594
0.017588395655637454,0.02176331040661548,-0.10034516640165389, ,0.0186603018297437,0.02120088892891744,-0.10126298175298114, ,0.0015191069033465342, ,0.02709668278804788,0.0021545231208216836,-0.05736737302682238,0.01783470099260321,-0.019079807648316283,-0.001051970040191872, ,0.06348139629838677, ,0.02610544552056314, ,0.00100600575625393, ,0.19331544930758793,-0.20983437492555415,0.11088075773000002,1.605176517374034,0.223673950116026,-1.335449882915359, ,0.16561420865352666,0.1027023177039727,0.060565823269961974,0.008715987127043662,0.1464321176862774,-0.11797609432497531, ,1.517529010772705
0.017588395655637454,0.02176331040661548,-0.10034516640165389, ,0.018725662899331943,0.021206110092271566,-0.10140067215760067, ,0.0016486180196522752, ,0.02709668278804788,0.0021545231208216836,-0.05736737302682238,0.01783470099260321,-0.019079807648316283,-0.001051970040191872, ,0.06348139629838677, ,0.02610544552056314, ,0.0010106963567166915, ,0.19331544930758793,-0.20983437492555415,0.11088075773000002,1.605176517374034,0.223673950116026,-1.335449882915359, ,0.16561420865352666,0.1027023177039727,0.060565823269961974,0.008715987127043662,0.1464321176862774,-0.11797609432497531, ,1.5198700428009033
0.017588395655637454,0.02176331040661548,-0.10034516640165389, ,0.01879083109678716,0.021211254946820603,-0.10153750952596624, ,0.0017810947046457565, ,0.02709668278804788,0.0021545231208216836,-0.05736737302682238,0.01783470099260321,-0.019079807648316283,-0.001051970040191872, ,0.06348139629838677, ,0.02610544552056314, ,0.0010162789534408152, ,0.19331544930758793,-0.20983437492555415,0.11088075773000002,1.605176517374034,0.223673950116026,-1.335449882915359, ,0.16561420865352666,0.1027023177039727,0.060565823269961974,0.008715987127043662,0.1464321176862774,-0.11797609432497531, ,1.5222291946411133
0.017588395655637454,0.02176331040661548,-0.10034516640165389, ,0.01885580666045418,0.02121632375934115,-0.10167349629250522, ,0.0019157205814930448, ,0.02709668278804788,0.0021545231208216836,-0.05736737302682238,0.01783470099260321,-0.019079807648316283,-0.001051970040191872, ,0.06348139629838677, ,0.02610544552056314, ,0.0010227497565203278, ,0.19331544930758793,-0.20983437492555415,0.11088075773000002,1.605176517374034,0.223673950116026,-1.335449882915359, ,0.16561420865352666,0.1027023177039727,0.060565823269961974,0.008715987127043662,0.1464321176862774,-0.11797609432497531, ,1.5251080989837646
0.017836901808095953,0.021777655433418905,-0.10085246963229316, ,0.018920589829230696,0.021221316796573703,-0.10180863488807912, ,0.001548594331117719, ,0.02704984392843357,0.0010949364150414198,-0.05309113471466164,0.029691606642197277,-0.010149914234002511,0.0019459245548996834, ,0.059594979046862236, ,0.03137180996674554, ,0.0010265057891960237, ,0.19487544134818127,-0.20888447878202454,0.11141742179000001,1.605176517374034,0.22517695161344586,-1.3364304436355976, ,0.1728541740591453,0.10326108983511509,0.05628555307420496,0.008350989770595927,0.16284105316890787,-0.13054072578725764, ,1.527773141860962
0.017836901808095953,0.021777655433418905,-0.10085246963229316, ,0.018985180842566278,0.02122623432522261,-0.10194292773998583, ,0.0016768150954118927, ,0.02704984392843357,0.0010949364150414198,-0.05309113471466164,0.029691606642197277,-0.010149914234002511,0.0019459245548996834, ,0.059594979046862236, ,0.03137180996674554, ,0.0010311179119351433, ,0.19487544134818127,-0.20888447878202454,0.11141742179000001,1.605176517374034,0.22517695161344586,-1.3364304436355976, ,0.1728541740591453,0.10326108983511509,0.05628555307420496,0.008350989770595927,0.16284105316890787,-0.13054072578725764, ,1.5304911136627197
0.017836901808095953,0.021777655433418905,-0.10085246963229316, ,0.019049579940460817,0.021231076611955276,-0.1020763772719631, ,0.0018075637115274646, ,0.02704984392843357,0.0010949364150414198,-0.05309113471466164,0.029691606642197277,-0.010149914234002511,0.0019459245548996834, ,0.059594979046862236, ,0.03137180996674554, ,0.0010365858401012863, ,0.19487544134818127,-0.20888447878202454,0.11141742179000001,1.605176517374034,0.22517695161344586,-1.3364304436355976, ,0.1728541740591453,0.10326108983511509,0.05628555307420496,0.008350989770595927,0.16284105316890787,-0.13054072578725764, ,1.5329620838165283
0.017836901808095953,0.021777655433418905,-0.10085246963229316, ,0.019113787363463416,0.021235843923401772,-0.10220898590418986, ,0.0019401373224113916, ,0.02704984392843357,0.0010949364150414198,-0.05309113471466164,0.029691606642197277,-0.010149914234002511,0.0019459245548996834, ,0.059594979046862236, ,0.03137180996674554, ,0.0010429043819356228, ,0.19487544134818127,-0.20888447878202454,0.11141742179000001,1.605176517374034,0.22517695161344586,-1.3364304436355976, ,0.1728541740591453,0.10326108983511509,0.05628555307420496,0.008350989770595927,0.16284105316890787,-0.13054072578725764, ,1.5352561473846436
0.018122395712828872,0.02178177427155355,-0.1014004928881643, ,0.019177803352670685,0.021240536526154333,-0.10234075605328845, ,0.001513578013506596, ,0.026733930448407377,-0.00019962745453995533,-0.050451664325442805,-0.0363928208624988,-0.017507186941653482,0.001930986407894668, ,0.05709740205603095, ,0.04038083868761288, ,0.0010461729488215324, ,0.19670572903937247,-0.20775695978238776,0.11199815971000002,1.605176517374034,0.22681658961063117,-1.3372773860391116, ,0.17222675418960212,0.10895171246667139,0.053452387651006725,0.007332332100775951,0.15569075791215453,-0.07012286312993238, ,1.5376501083374023
0.018122395712828872,0.02178177427155355,-0.1014004928881643, ,0.01924162814972584,0.021245154686766955,-0.1024716901323276, ,0.0016395442545054724, ,0.026733930448407377,-0.00019962745453995533,-0.050451664325442805,-0.0363928208624988,-0.017507186941653482,0.001930986407894668, ,0.05709740205603095, ,0.04038083868761288, ,0.0010502651647228008, ,0.19670572903937247,-0.20775695978238776,0.11199815971000002,1.605176517374034,0.22681658961063117,-1.3372773860391116, ,0.17222675418960212,0.10895171246667139,0.053452387651006725,0.007332332100775951,0.15569075791215453,-0.07012286312993238, ,1.5399529933929443
0.018122395712828872,0.02178177427155355,-0.1014004928881643, ,0.01930526199681707,0.021249698671754857,-0.10260179055082386, ,0.0017678781530435016, ,0.026733930448407377,-0.00019962745453995533,-0.050451664325442805,-0.0363928208624988,-0.017507186941653482,0.001930986407894668, ,0.05709740205603095, ,0.04038083868761288, ,0.0010551803221770521, ,0.19670572903937247,-0.20775695978238776,0.11199815971000002,1.605176517374034,0.22681658961063117,-1.3372773860391116, ,0.17222675418960212,0.10895171246667139,0.053452387651006725,0.007332332100775951,0.15569075791215453,-0.07012286312993238, ,1.5423600673675537
0.018122395712828872,0.02178177427155355,-0.1014004928881643, ,0.019368705136676066,0.021254168747593522,-0.10273105971474397, ,0.0018979101266597843, ,0.026733930448407377,-0.00019962745453995533,-0.050451664325442805,-0.0363928208624988,-0.017507186941653482,0.001930986407894668, ,0.05709740205603095, ,0.04038083868761288, ,0.00106091317798986, ,0.19670572903937247,-0.20775695978238776,0.11199815971000002,1.605176517374034,0.22681658961063117,-1.3372773860391116, ,0.17222675418960212,0.10895171246667139,0.053452387651006725,0.007332332100775951,0.15569075791215453,-0.07012286312993238, ,1.5446751117706299
0.0183756159605083,0.021775272630442155,-0.10187644232549488, ,0.019431957812577103,0.021258565180719065,-0.10285950002650819, ,0.0015327253963293844, ,0.025926310252013657,-0.0009467071666196494,-0.048985251611994116,-0.0029972156336115544,0.03567290671905364,0.011271919837756819, ,0.05543126097459239, ,0.03579465777100614, ,0.0010641010983840457, ,0.19835839387445653,-0.20669122264574477,0.11250241652000001,1.605176517374034,0.22859286410758187,-1.338154067606181, ,0.17006620350980425,0.11190677070574384,0.05188537954397395,0.006605143308906306,0.20745057229905292,-0.10690117324500642, ,1.5476222038269043
0.0183756159605083,0.021775272630442155,-0.10187644232549488, ,0.01949502026833519,0.021262888237526832,-0.10298711388499085, ,0.001658069685977587, ,0.025926310252013657,-0.0009467071666196494,-0.048985251611994116,-0.0029972156336115544,0.03567290671905364,0.011271919837756819, ,0.05543126097459239, ,0.03579465777100614, ,0.001068087464743734, ,0.19835839387445653,-0.20669122264574477,0.11250241652000001,1.605176517374034,0.22859286410758187,-1.338154067606181, ,0.17006620350980425,0.11190677070574384,0.05188537954397395,0.006605143308906306,0.20745057229905292,-0.10690117324500642, ,1.549921989440918
0.0183756159605083,0.021775272630442155,-0.10187644232549488, ,0.019557892748305553,0.02126713818437232,-0.10311390368552413, ,0.0017852981924071775, ,0.025926310252013657,-0.0009467071666196494,-0.048985251611994116,-0.0029972156336115544,0.03567290671905364,0.011271919837756819, ,0.05543126097459239, ,0.03579465777100614, ,0.0010728688695948235, ,0.19835839387445653,-0.20669122264574477,0.11250241652000001,1.605176517374034,0.22859286410758187,-1.338154067606181, ,0.17006620350980425,0.11190677070574384,0.05188537954397395,0.006605143308906306,0.20745057229905292,-0.10690117324500642, ,1.5522441864013672
0.0183756159605083,0.021775272630442155,-0.10187644232549488, ,0.019620575497380933,0.021271315287568225,-0.10323987181989942, ,0.0019138540273748426, ,0.025926310252013657,-0.0009467071666196494,-0.048985251611994116,-0.0029972156336115544,0.03567290671905364,0.011271919837756819, ,0.05543126097459239, ,0.03579465777100614, ,0.001078438307725817, ,0.19835839387445653,-0.20669122264574477,0.11250241652000001,1.605176517374034,0.22859286410758187,-1.338154067606181, ,0.17006620350980425,0.11190677070574384,0.05188537954397395,0.006605143308906306,0.20745057229905292,-0.10690117324500642, ,1.5545060634613037
0.018648606015717845,0.021762525005962045,-0.10238469428454938, ,0.019683068760991594,0.021275419813386518,-0.10336502067636955, ,0.0015061289700727763, ,0.027077555508216757,-0.0010983638536377369,-0.050539849112629924,-0.03472571469047211,-0.04027219265789306,-0.004354526291788237, ,0.05734698565559429, ,0.05317325477815746, ,0.0010812520620833628, ,0.2001191769697797,-0.20550964451598844,0.11304037687000001,1.605176517374034,0.23036913860453262,-1.339112427913391, ,0.16976197058760426,0.11601093100057551,0.053452387651006725,0.005972033386893119,0.12969622931003613,-0.07805679989467634, ,1.5586981773376465
0.018648606015717845,0.021762525005962045,-0.10238469428454938, ,0.01974537278510329,0.021279452028056593,-0.10348935263965199, ,0.001629885557304139, ,0.027077555508216757,-0.0010983638536377369,-0.050539849112629924,-0.03472571469047211,-0.04027219265789306,-0.004354526291788237, ,0.05734698565559429, ,0.05317325477815746, ,0.001084837901921407, ,0.2001191769697797,-0.20550964451598844,0.11304037687000001,1.605176517374034,0.23036913860453262,-1.339112427913391, ,0.16976197058760426,0.11601093100057551,0.053452387651006725,0.005972033386893119,0.12969622931003613,-0.07805679989467634, ,1.5611741542816162
0.018648606015717845,0.021762525005962045,-0.10238469428454938, ,0.01980748781621609,0.021283412197764993,-0.10361287009092988, ,0.001755269757582268, ,0.027077555508216757,-0.0010983638536377369,-0.050539849112629924,-0.03472571469047211,-0.04027219265789306,-0.004354526291788237, ,0.05734698565559429, ,0.05317325477815746, ,0.0010891913555295947, ,0.2001191769697797,-0.20550964451598844,0.11304037687000001,1.605176517374034,0.23036913860453262,-1.339112427913391, ,0.16976197058760426,0.11601093100057551,0.053452387651006725,0.005972033386893119,0.12969622931003613,-0.07805679989467634, ,1.563582181930542
0.018648606015717845,0.021762525005962045,-0.10238469428454938, ,0.019869414101362875,0.021287300588654905,-0.103735575407855, ,0.001881778530562146, ,0.027077555508216757,-0.0010983638536377369,-0.050539849112629924,-0.03472571469047211,-0.04027219265789306,-0.004354526291788237, ,0.05734698565559429, ,0.05317325477815746, ,0.0010943048211749659, ,0.2001191769697797,-0.20550964451598844,0.11304037687000001,1.605176517374034,0.23036913860453262,-1.339112427913391, ,0.16976197058760426,0.11601093100057551,0.053452387651006725,0.005972033386893119,0.12969622931003613,-0.07805679989467634, ,1.5659360885620117
0.018942079573352817,0.02175279430625148,-0.10291875086969263, ,0.01993115188810823,0.021291117466826,-0.10385747096455036, ,0.0014396544600588197, ,0.028144458113101792,-0.0010332997101941935,-0.05050634923503024,-0.07756621689648598,-0.06402654956084237,-0.016282266569247996, ,0.05782793048192256, ,0.10057628152371288, ,0.0010965186009114008, ,0.20195718739384516,-0.2043048981876094,0.11360685560000001,1.6055958972610032,0.23159886710242156,-1.3397884740860966, ,0.1760611160639532,0.11405882398854661,0.05363236202020203,0.015811774355932805,0.11076934387504073,-0.03181733589674351, ,1.5682530403137207
0.018942079573352817,0.02175279430625148,-0.10291875086969263, ,0.019992701424546983,0.02129486309833333,-0.10397855913161122, ,0.0015609935353559103, ,0.028144458113101792,-0.0010332997101941935,-0.05050634923503024,-0.07756621689648598,-0.06402654956084237,-0.016282266569247996, ,0.05782793048192256, ,0.10057628152371288, ,0.0010994770399842958, ,0.20195718739384516,-0.2043048981876094,0.11360685560000001,1.6055958972610032,0.23159886710242156,-1.3397884740860966, ,0.1760611160639532,0.11405882398854661,0.05363236202020203,0.015811774355932805,0.11076934387504073,-0.03181733589674351, ,1.57051420211792
0.018942079573352817,0.02175279430625148,-0.10291875086969263, ,0.020054062959302694,0.021298537749187205,-0.10409884227610848, ,0.0016838859218370435, ,0.028144458113101792,-0.0010332997101941935,-0.05050634923503024,-0.07756621689648598,-0.06402654956084237,-0.016282266569247996, ,0.05782793048192256, ,0.10057628152371288, ,0.0011031758303757689, ,0.20195718739384516,-0.2043048981876094,0.11360685560000001,1.6055958972610032,0.23159886710242156,-1.3397884740860966, ,0.1760611160639532,0.11405882398854661,0.05363236202020203,0.015811774355932805,0.11076934387504073,-0.03181733589674351, ,1.5728111267089844
0.018942079573352817,0.02175279430625148,-0.10291875086969263, ,0.02011523674152674,0.021302141685352927,-0.10421832276159068, ,0.001807836449508662, ,0.028144458113101792,-0.0010332997101941935,-0.05050634923503024,-0.07756621689648598,-0.06402654956084237,-0.016282266569247996, ,0.05782793048192256, ,0.10057628152371288, ,0.0011076076581690575, ,0.20195718739384516,-0.2043048981876094,0.11360685560000001,1.6055958972610032,0.23159886710242156,-1.3397884740860966, ,0.1760611160639532,0.11405882398854661,0.05363236202020203,0.015811774355932805,0.11076934387504073,-0.03181733589674351, ,1.5751140117645264
0.018942079573352817,0.02175279430625148,-0.10291875086969263, ,0.02017622302089638,0.021305675172749526,-0.10433700294808564, ,0.0019324762680365149, ,0.02807888074474117,-0.0017789233746544494,-0.04770683613074669,-0.019770583533390045,-0.03327705905834335,-0.011599067427025642, ,0.05538528979662566, ,0.03870389535388507, ,0.0011127630869807292, ,0.20371024775629412,-0.20319282465372107,0.11410981612000001,1.6058055872044876,0.23282859560031052,-1.3404645202588024, ,0.18214384176289977,0.11474841784579294,0.05089077162939297,0.016398756413252197,0.14748709076076494,-0.0903699067487223, ,1.5778582096099854
0.019215826289447308,0.02173820880706789,-0.10339100663783134, ,0.02023702204761404,0.021309138477250286,-0.10445488519210394, ,0.0015358319252667862, ,0.02807888074474117,-0.0017789233746544494,-0.04770683613074669,-0.019770583533390045,-0.03327705905834335,-0.011599067427025642, ,0.05538528979662566, ,0.03870389535388507, ,0.0011153908437402699, ,0.20371024775629412,-0.20319282465372107,0.11410981612000001,1.6058055872044876,0.23282859560031052,-1.3404645202588024, ,0.18214384176289977,0.11474841784579294,0.05089077162939297,0.016398756413252197,0.14748709076076494,-0.0903699067487223, ,1.5801820755004883
0.019215826289447308,0.02173820880706789,-0.10339100663783134, ,0.020297634072405472,0.021312531864681523,-0.10457197184663986, ,0.0016571625638314462, ,0.02807888074474117,-0.0017789233746544494,-0.04770683613074669,-0.019770583533390045,-0.03327705905834335,-0.011599067427025642, ,0.05538528979662566, ,0.03870389535388507, ,0.001118735113617376, ,0.20371024775629412,-0.20319282465372107,0.11410981612000001,1.6058055872044876,0.23282859560031052,-1.3404645202588024, ,0.18214384176289977,0.11474841784579294,0.05089077162939297,0.016398756413252197,0.14748709076076494,-0.0903699067487223, ,1.5825490951538086
