NicholasDascanio/dvrk_moveit_final/test/execution/noob_justexecution/no_ramp/noob__noramp_700vel5.csv
Current Position (x),Current Position (y),Current Position (z), ,Planned Position (x),Planned Position (y),Planned Position (z), ,Position Error,,Cartesian linear Velocity(x),Cartesian linear Velocity(y),Cartesian linear Velocity(z),Cartesian Angular Velocity(x),Cartesian Angular Velocity(y),Cartesian Angular Velocity(z), ,Total Linear Velocity, ,Total Angular Velocity, ,MSE, ,Joint 1 Position,Joint 2 Position,Joint 3 Position,Joint 4 Position,Joint 5 Position,Joint 6 Position, ,Joint 1 Velocity,Joint 2 Velocity,Joint 3 Velocity,Joint 4 Velocity,Joint 5 Velocity,Joint 6 Velocity, ,Time Stamp
0.009898961577819115,0.018863787446110558,-0.08056865865943004, ,0.010151880366462645,0.018764575652580835,-0.08072097759138584, ,0.00031146741507973437, ,6.460163460851995e-05,-4.444882432976721e-06,-1.587234734968931e-05,-0.00020857393710221748,-0.0009407912715479796,0.0007514207240504425, ,6.667128005614483e-05, ,0.0009636344243846751, ,0.00015573370753986718, ,0.13922542825651946,-0.2254420180643619,0.08993400762,-4.537690377005107,0.1543992447349477,-1.38596015532541, ,0.000763486158289206,0.00010227366900986929,2.2015466959792518e-05,-0.0007931666858774246,0.0,0.0, ,0.0017287731170654297
0.009898961577819115,0.018863787446110558,-0.08056865865943004, ,0.010166541795951688,0.01884548203339635,-0.08075533597683221, ,0.0003267761957410352, ,6.460163460851995e-05,-4.444882432976721e-06,-1.587234734968931e-05,-0.00020857393710221748,-0.0009407912715479796,0.0007514207240504425, ,6.667128005614483e-05, ,0.0009636344243846751, ,0.00021274787027358985, ,0.13922542825651946,-0.2254420180643619,0.08993400762,-4.537690377005107,0.1543992447349477,-1.38596015532541, ,0.000763486158289206,0.00010227366900986929,2.2015466959792518e-05,-0.0007931666858774246,0.0,0.0, ,0.003525972366333008
0.009898961577819115,0.018863787446110558,-0.08056865865943004, ,0.010181216769473804,0.01892627078469419,-0.08078968556028153, ,0.00036390253051689033, ,6.460163460851995e-05,-4.444882432976721e-06,-1.587234734968931e-05,-0.00020857393710221748,-0.0009407912715479796,0.0007514207240504425, ,6.667128005614483e-05, ,0.0009636344243846751, ,0.00025053653533441497, ,0.13922542825651946,-0.2254420180643619,0.08993400762,-4.537690377005107,0.1543992447349477,-1.38596015532541, ,0.000763486158289206,0.00010227366900986929,2.2015466959792518e-05,-0.0007931666858774246,0.0,0.0, ,0.005448818206787109
0.009899624223493489,0.01886253384672056,-0.0805688707406643, ,0.010195905314073068,0.01900694206762604,-0.0808240265663343, ,0.00041682216144712847, ,-2.4764304476227297e-05,1.4659352521986594e-05,-2.1813315289902736e-05,2.602061759998327e-05,0.00015979513326234147,0.0007842996281787195, ,3.611077562850001e-05, ,0.00016189983679613154, ,0.00028379366055695767, ,0.13923315098939368,-0.22542657259861343,0.08993400762,-4.537690377005107,0.1543992447349477,-1.38596015532541, ,-0.000337088305683534,-0.00013461967427889505,2.1467903847635204e-05,-0.0007931666858774246,0.0,0.0, ,0.007465839385986328
0.009899624223493489,0.01886253384672056,-0.0805688707406643, ,0.010210607456756454,0.019087496043003003,-0.08085835921901986, ,0.00048075164089946774, ,-2.4764304476227297e-05,1.4659352521986594e-05,-2.1813315289902736e-05,2.602061759998327e-05,0.00015979513326234147,0.0007842996281787195, ,3.611077562850001e-05, ,0.00016189983679613154, ,0.0003166199906140427, ,0.13923315098939368,-0.22542657259861343,0.08993400762,-4.537690377005107,0.1543992447349477,-1.38596015532541, ,-0.000337088305683534,-0.00013461967427889505,2.1467903847635204e-05,-0.0007931666858774246,0.0,0.0, ,0.00934290885925293
0.009899624223493489,0.01886253384672056,-0.0805688707406643, ,0.010225323224493849,0.019167932871295913,-0.08089268374179773, ,0.0005515462475325622, ,-2.4764304476227297e-05,1.4659352521986594e-05,-2.1813315289902736e-05,2.602061759998327e-05,0.00015979513326234147,0.0007842996281787195, ,3.611077562850001e-05, ,0.00016189983679613154, ,0.0003501808844595455, ,0.13923315098939368,-0.22542657259861343,0.08993400762,-4.537690377005107,0.1543992447349477,-1.38596015532541, ,-0.000337088305683534,-0.00013461967427889505,2.1467903847635204e-05,-0.0007931666858774246,0.0,0.0, ,0.01172780990600586
0.009899624223493489,0.01886253384672056,-0.0805688707406643, ,0.010240052644216522,0.01924825271263582,-0.0809270003575574, ,0.0006268391944150705, ,-2.4764304476227297e-05,1.4659352521986594e-05,-2.1813315289902736e-05,2.602061759998327e-05,0.00015979513326234147,0.0007842996281787195, ,3.611077562850001e-05, ,0.00016189983679613154, ,0.00038476317320398614, ,0.13923315098939368,-0.22542657259861343,0.08993400762,-4.537690377005107,0.1543992447349477,-1.38596015532541, ,-0.000337088305683534,-0.00013461967427889505,2.1467903847635204e-05,-0.0007931666858774246,0.0,0.0, ,0.013713836669921875
0.009899624223493489,0.01886253384672056,-0.0805688707406643, ,0.01025479574281894,0.019328455726814492,-0.08096130928861925, ,0.0007051510621215911, ,-2.4764304476227297e-05,1.4659352521986594e-05,-2.1813315289902736e-05,2.602061759998327e-05,0.00015979513326234147,0.0007842996281787195, ,3.611077562850001e-05, ,0.00016189983679613154, ,0.00042036182752816444, ,0.13922542825651946,-0.22548835446160723,0.08994048907,-4.537690377005107,0.15453588123471315,-1.3865616456699494, ,0.0002506043317716867,-0.01724771747700305,0.0013076983264066738,-0.0007931666858774246,0.0,-0.10854988352300832, ,0.015581846237182617
0.009898486301163998,0.01886916274393262,-0.08057398516253242, ,0.010269552547156263,0.019408542073285046,-0.08099561075673473, ,0.0007787094204733331, ,0.00015175669669949902,0.0016912794092084407,-0.0009377467730600679,0.12441370417665702,-0.014862748161854376,-0.002437372343877355, ,0.0019398002849237257, ,0.1252983282804631, ,0.0004561965868226813, ,0.13922542825651946,-0.22548835446160723,0.08994048907,-4.537690377005107,0.15453588123471315,-1.3865616456699494, ,0.0002506043317716867,-0.01724771747700305,0.0013076983264066738,-0.0007931666858774246,0.0,-0.10854988352300832, ,0.017506837844848633
0.009898486301163998,0.01886916274393262,-0.08057398516253242, ,0.010284323084048797,0.019488511911161667,-0.08102990498308742, ,0.0008604221619351218, ,0.00015175669669949902,0.0016912794092084407,-0.0009377467730600679,0.12441370417665702,-0.014862748161854376,-0.002437372343877355, ,0.0019398002849237257, ,0.1252983282804631, ,0.0004929443663783577, ,0.13922542825651946,-0.22548835446160723,0.08994048907,-4.537690377005107,0.15453588123471315,-1.3865616456699494, ,0.0002506043317716867,-0.01724771747700305,0.0013076983264066738,-0.0007931666858774246,0.0,-0.10854988352300832, ,0.019319772720336914
0.009898486301163998,0.01886916274393262,-0.08057398516253242, ,0.010299107380276416,0.01956836539922097,-0.08106419218829272, ,0.0009432308997781198, ,0.00015175669669949902,0.0016912794092084407,-0.0009377467730600679,0.12441370417665702,-0.014862748161854376,-0.002437372343877355, ,0.0019398002849237257, ,0.1252983282804631, ,0.0005304682441616712, ,0.13922542825651946,-0.22548835446160723,0.08994048907,-4.537690377005107,0.15453588123471315,-1.3865616456699494, ,0.0002506043317716867,-0.01724771747700305,0.0013076983264066738,-0.0007931666858774246,0.0,-0.10854988352300832, ,0.02098393440246582
0.009898486301163998,0.01886916274393262,-0.08057398516253242, ,0.010313905462582963,0.01964810269590185,-0.0810984725923992, ,0.0010268435092730204, ,0.00015175669669949902,0.0016912794092084407,-0.0009377467730600679,0.12441370417665702,-0.014862748161854376,-0.002437372343877355, ,0.0019398002849237257, ,0.1252983282804631, ,0.0005686509568625442, ,0.13922542825651946,-0.22548835446160723,0.08994048907,-4.537690377005107,0.15453588123471315,-1.3865616456699494, ,0.0002506043317716867,-0.01724771747700305,0.0013076983264066738,-0.0007931666858774246,0.0,-0.10854988352300832, ,0.02269291877746582
0.009898486301163998,0.01886916274393262,-0.08057398516253242, ,0.010328717357674856,0.019727723959305988,-0.08113274641488877, ,0.0011110536709199432, ,0.00015175669669949902,0.0016912794092084407,-0.0009377467730600679,0.12441370417665702,-0.014862748161854376,-0.002437372343877355, ,0.0019398002849237257, ,0.1252983282804631, ,0.0006073940078666441, ,0.13922542825651946,-0.22548835446160723,0.08994048907,-4.537690377005107,0.15453588123471315,-1.3865616456699494, ,0.0002506043317716867,-0.01724771747700305,0.0013076983264066738,-0.0007931666858774246,0.0,-0.10854988352300832, ,0.02443099021911621
0.009936813269103279,0.018941318760545504,-0.08065472045315715, ,0.010343543092218908,0.01980722934719868,-0.08116701387467674, ,0.0010852072810398799, ,0.00015175669669949902,0.0016912794092084407,-0.0009377467730600679,0.12441370417665702,-0.014862748161854376,-0.002437372343877355, ,0.0019398002849237257, ,0.1252983282804631, ,0.0006392482260781932, ,0.13928721011951326,-0.22615250948879054,0.09003641453000001,-4.537900066948591,0.1520764242389352,-1.3854545895449601, ,0.007043938262768995,-0.06921731696460305,0.013602742544833478,0.0008496254098352978,-0.290683744653347,0.331127011242625, ,0.028450965881347656
0.009936813269103279,0.018941318760545504,-0.08065472045315715, ,0.010358382692847171,0.01988661901700864,-0.08120127519011354, ,0.0011704851277972287, ,0.004845189492251186,0.00832292877747325,-0.011889331990044952,-0.30017085762509443,-0.24170653197651865,-0.045510442432788026, ,0.015300432014169401, ,0.385388882986955, ,0.0006724505324356329, ,0.13928721011951326,-0.22615250948879054,0.09003641453000001,-4.537900066948591,0.1520764242389352,-1.3854545895449601, ,0.007043938262768995,-0.06921731696460305,0.013602742544833478,0.0008496254098352978,-0.290683744653347,0.331127011242625, ,0.030440807342529297
0.009936813269103279,0.018941318760545504,-0.08065472045315715, ,0.010373236186150887,0.01996589312582911,-0.08123553057898344, ,0.0012560087558544342, ,0.004845189492251186,0.00832292877747325,-0.011889331990044952,-0.30017085762509443,-0.24170653197651865,-0.045510442432788026, ,0.015300432014169401, ,0.385388882986955, ,0.0007067774867543859, ,0.13928721011951326,-0.22615250948879054,0.09003641453000001,-4.537900066948591,0.1520764242389352,-1.3854545895449601, ,0.007043938262768995,-0.06921731696460305,0.013602742544833478,0.0008496254098352978,-0.290683744653347,0.331127011242625, ,0.032301902770996094
0.009936813269103279,0.018941318760545504,-0.08065472045315715, ,0.010388103598686364,0.02004505183041774,-0.08126978025850712, ,0.0013417109283530263, ,0.004845189492251186,0.00832292877747325,-0.011889331990044952,-0.30017085762509443,-0.24170653197651865,-0.045510442432788026, ,0.015300432014169401, ,0.385388882986955, ,0.0007420515668431992, ,0.13928721011951326,-0.22615250948879054,0.09003641453000001,-4.537900066948591,0.1520764242389352,-1.3854545895449601, ,0.007043938262768995,-0.06921731696460305,0.013602742544833478,0.0008496254098352978,-0.290683744653347,0.331127011242625, ,0.03413200378417969
0.009936813269103279,0.018941318760545504,-0.08065472045315715, ,0.010402984956970254,0.020124095287197503,-0.08130402444534021, ,0.0014275405524301486, ,0.004845189492251186,0.00832292877747325,-0.011889331990044952,-0.30017085762509443,-0.24170653197651865,-0.045510442432788026, ,0.015300432014169401, ,0.385388882986955, ,0.0007781299345056702, ,0.13928721011951326,-0.22615250948879054,0.09003641453000001,-4.537900066948591,0.1520764242389352,-1.3854545895449601, ,0.007043938262768995,-0.06921731696460305,0.013602742544833478,0.0008496254098352978,-0.290683744653347,0.331127011242625, ,0.03586387634277344
0.00999631395705257,0.019049755048204973,-0.08083988550753224, ,0.01041788028748354,0.020203023652256593,-0.08133826335557551, ,0.0013251894670063013, ,0.006835757608082134,0.012744383648042366,-0.024143015582766693,-0.2427796628638028,-0.21298348748770643,-0.1188285535182516, ,0.02814306483087188, ,0.32296117791458107, ,0.0008054829111307019, ,0.1393953283797524,-0.22694022824196144,0.09024382093000001,-4.537061307174653,0.1493436942436264,-1.38298119525061, ,0.012214820640812302,-0.08541578898152184,0.026726193825503362,0.08170747711259496,-0.2709358252570167,0.30305941155978955, ,0.03787088394165039
0.00999631395705257,0.019049755048204973,-0.08083988550753224, ,0.010432789616667302,0.020281837081349598,-0.08137249720474203, ,0.0014114575295908136, ,0.006835757608082134,0.012744383648042366,-0.024143015582766693,-0.2427796628638028,-0.21298348748770643,-0.1188285535182516, ,0.02814306483087188, ,0.32296117791458107, ,0.0008343388453430882, ,0.1393953283797524,-0.22694022824196144,0.09024382093000001,-4.537061307174653,0.1493436942436264,-1.38298119525061, ,0.012214820640812302,-0.08541578898152184,0.026726193825503362,0.08170747711259496,-0.2709358252570167,0.30305941155978955, ,0.03984498977661133
0.00999631395705257,0.019049755048204973,-0.08083988550753224, ,0.01044771297092683,0.020360535729897097,-0.08140672620780676, ,0.0014977367741734957, ,0.006835757608082134,0.012744383648042366,-0.024143015582766693,-0.2427796628638028,-0.21298348748770643,-0.1188285535182516, ,0.02814306483087188, ,0.32296117791458107, ,0.0008644932966535612, ,0.1393953283797524,-0.22694022824196144,0.09024382093000001,-4.537061307174653,0.1493436942436264,-1.38298119525061, ,0.012214820640812302,-0.08541578898152184,0.026726193825503362,0.08170747711259496,-0.2709358252570167,0.30305941155978955, ,0.04180598258972168
0.00999631395705257,0.019049755048204973,-0.08083988550753224, ,0.010462650376629098,0.020439119752986835,-0.08144095057917443, ,0.0015840085730403344, ,0.006835757608082134,0.012744383648042366,-0.024143015582766693,-0.2427796628638028,-0.21298348748770643,-0.1188285535182516, ,0.02814306483087188, ,0.32296117791458107, ,0.0008957765695399427, ,0.1393953283797524,-0.22694022824196144,0.09024382093000001,-4.537061307174653,0.1493436942436264,-1.38298119525061, ,0.012214820640812302,-0.08541578898152184,0.026726193825503362,0.08170747711259496,-0.2709358252570167,0.30305941155978955, ,0.043846845626831055
0.00999631395705257,0.019049755048204973,-0.08083988550753224, ,0.010477601860103315,0.02051758930537366,-0.08147517053268817, ,0.0016702582181591882, ,0.006835757608082134,0.012744383648042366,-0.024143015582766693,-0.2427796628638028,-0.21298348748770643,-0.1188285535182516, ,0.02814306483087188, ,0.32296117791458107, ,0.0009280466382324113, ,0.1393953283797524,-0.22694022824196144,0.09024382093000001,-4.537061307174653,0.1493436942436264,-1.38298119525061, ,0.012214820640812302,-0.08541578898152184,0.026726193825503362,0.08170747711259496,-0.2709358252570167,0.30305941155978955, ,0.04574179649353027
0.00999631395705257,0.019049755048204973,-0.08083988550753224, ,0.010492567447640152,0.020595944541480397,-0.08150938628162968, ,0.0017564739572657334, ,0.006835757608082134,0.012744383648042366,-0.024143015582766693,-0.2427796628638028,-0.21298348748770643,-0.1188285535182516, ,0.02814306483087188, ,0.32296117791458107, ,0.0009611837309937442, ,0.1393953283797524,-0.22694022824196144,0.09024382093000001,-4.537061307174653,0.1493436942436264,-1.38298119525061, ,0.012214820640812302,-0.08541578898152184,0.026726193825503362,0.08170747711259496,-0.2709358252570167,0.30305941155978955, ,0.04758191108703613
0.010065377940808137,0.01918890804128077,-0.08110988009406415, ,0.01050754716549486,0.020674185615397807,-0.08154359803872104, ,0.0016092465165264247, ,0.006811808540259416,0.01622569527932488,-0.029649282374720917,-0.15123244080790155,-0.11886052759570291,-0.09389919418124425, ,0.03447831011262868, ,0.19235137966915106, ,0.000986109222745001, ,0.13951889210574,-0.2278437879882457,0.09054196763000001,-4.536222547400715,0.1470208737476139,-1.3801069460060842, ,0.014056723679228377,-0.10857773633692308,0.03297890583850932,0.08291869357900312,-0.164081166786015,0.2491450002304263, ,0.049272775650024414
0.010065377940808137,0.01918890804128077,-0.08110988009406415, ,0.01052254103988343,0.020752312680885312,-0.08157780601612347, ,0.0016947527356013284, ,0.006811808540259416,0.01622569527932488,-0.029649282374720917,-0.15123244080790155,-0.11886052759570291,-0.09389919418124425, ,0.03447831011262868, ,0.19235137966915106, ,0.001012355278776717, ,0.13951889210574,-0.2278437879882457,0.09054196763000001,-4.536222547400715,0.1470208737476139,-1.3801069460060842, ,0.014056723679228377,-0.10857773633692308,0.03297890583850932,0.08291869357900312,-0.164081166786015,0.2491450002304263, ,0.05112290382385254
0.010065377940808137,0.01918890804128077,-0.08110988009406415, ,0.01053754909698411,0.020830325891371605,-0.08161201042543892, ,0.0017802620675080119, ,0.006811808540259416,0.01622569527932488,-0.029649282374720917,-0.15123244080790155,-0.11886052759570291,-0.09389919418124425, ,0.03447831011262868, ,0.19235137966915106, ,0.001039780521231406, ,0.13951889210574,-0.2278437879882457,0.09054196763000001,-4.536222547400715,0.1470208737476139,-1.3801069460060842, ,0.014056723679228377,-0.10857773633692308,0.03297890583850932,0.08291869357900312,-0.164081166786015,0.2491450002304263, ,0.05298280715942383
0.010065377940808137,0.01918890804128077,-0.08110988009406415, ,0.010552571362938398,0.020908225399954686,-0.08164621147771062, ,0.0018657601570106948, ,0.006811808540259416,0.01622569527932488,-0.029649282374720917,-0.15123244080790155,-0.11886052759570291,-0.09389919418124425, ,0.03447831011262868, ,0.19235137966915106, ,0.0010682625776375883, ,0.13951889210574,-0.2278437879882457,0.09054196763000001,-4.536222547400715,0.1470208737476139,-1.3801069460060842, ,0.014056723679228377,-0.10857773633692308,0.03297890583850932,0.08291869357900312,-0.164081166786015,0.2491450002304263, ,0.054750919342041016
0.010134778905348859,0.019383080101842774,-0.08143340558962162, ,0.0105676078638494,0.02098601135940253,-0.0816804093834228, ,0.0016786126408230534, ,0.006482249492911777,0.02077877850844298,-0.03247528705712919,-0.1591805389014847,-0.011550324883677826,-0.0035264575774645052, ,0.039095031196230416, ,0.15959892809305073, ,0.0010886075797437703, ,0.13970423769472137,-0.22921843443985768,0.09090622512,-4.536012857457231,0.14606441824925584,-1.3770400159562737, ,0.018323410225617065,-0.15135078398480187,0.036872248888888896,0.028452361217195382,-0.04362984682664276,0.30987167290146367, ,0.05646491050720215
0.010134778905348859,0.019383080101842774,-0.08143340558962162, ,0.010582658625782792,0.02106368392215356,-0.08171460435250191, ,0.0017618451092716978, ,0.006482249492911777,0.02077877850844298,-0.03247528705712919,-0.1591805389014847,-0.011550324883677826,-0.0035264575774645052, ,0.039095031196230416, ,0.15959892809305073, ,0.0011103249194059617, ,0.13970423769472137,-0.22921843443985768,0.09090622512,-4.536012857457231,0.14606441824925584,-1.3770400159562737, ,0.018323410225617065,-0.15135078398480187,0.036872248888888896,0.028452361217195382,-0.04362984682664276,0.30987167290146367, ,0.05830788612365723
0.010134778905348859,0.019383080101842774,-0.08143340558962162, ,0.010597723674766947,0.021141243240317,-0.08174879659431747, ,0.0018452444192746293, ,0.006482249492911777,0.02077877850844298,-0.03247528705712919,-0.1591805389014847,-0.011550324883677826,-0.0035264575774645052, ,0.039095031196230416, ,0.15959892809305073, ,0.0011332911537768576, ,0.13970423769472137,-0.22921843443985768,0.09090622512,-4.536012857457231,0.14606441824925584,-1.3770400159562737, ,0.018323410225617065,-0.15135078398480187,0.036872248888888896,0.028452361217195382,-0.04362984682664276,0.30987167290146367, ,0.06008791923522949
0.010134778905348859,0.019383080101842774,-0.08143340558962162, ,0.01061280303679172,0.02121868946567343,-0.0817829863176812, ,0.0019287756459099006, ,0.006482249492911777,0.02077877850844298,-0.03247528705712919,-0.1591805389014847,-0.011550324883677826,-0.0035264575774645052, ,0.039095031196230416, ,0.15959892809305073, ,0.0011573967444475559, ,0.13970423769472137,-0.22921843443985768,0.09090622512,-4.536012857457231,0.14606441824925584,-1.3770400159562737, ,0.018323410225617065,-0.15135078398480187,0.036872248888888896,0.028452361217195382,-0.04362984682664276,0.30987167290146367, ,0.062207937240600586
0.010134778905348859,0.019383080101842774,-0.08143340558962162, ,0.0106278967378104,0.02129602274967498,-0.08181717373084882, ,0.002012409689106033, ,0.006482249492911777,0.02077877850844298,-0.03247528705712919,-0.1591805389014847,-0.011550324883677826,-0.0035264575774645052, ,0.039095031196230416, ,0.15959892809305073, ,0.0011825441839963347, ,0.13970423769472137,-0.22921843443985768,0.09090622512,-4.536012857457231,0.14606441824925584,-1.3770400159562737, ,0.018323410225617065,-0.15135078398480187,0.036872248888888896,0.028452361217195382,-0.04362984682664276,0.30987167290146367, ,0.06392598152160645
0.010134778905348859,0.019383080101842774,-0.08143340558962162, ,0.01064300480373752,0.021373243243446024,-0.08185135904152, ,0.002096122129538937, ,0.006482249492911777,0.02077877850844298,-0.03247528705712919,-0.1591805389014847,-0.011550324883677826,-0.0035264575774645052, ,0.039095031196230416, ,0.15959892809305073, ,0.0012086464110118375, ,0.13970423769472137,-0.22921843443985768,0.09090622512,-4.536012857457231,0.14606441824925584,-1.3770400159562737, ,0.018323410225617065,-0.15135078398480187,0.036872248888888896,0.028452361217195382,-0.04362984682664276,0.30987167290146367, ,0.06567096710205078
0.01020004703700851,0.01961528719978648,-0.08175907147433459, ,0.010658127260451362,0.021450351097783506,-0.08188554245683907, ,0.0018955980349897865, ,0.006792504517712553,0.02474742043852207,-0.031254846578119624,0.09263476740854727,-0.01520748444527914,-0.034229257500300383, ,0.04044055353980607, ,0.09387458596739172, ,0.0012277284005667807, ,0.13993591968094812,-0.23098694026805508,0.09128214922000001,-4.535174097683293,0.14606441824925584,-1.3749980474527592, ,0.02647055552537539,-0.19770196158014744,0.03670233069124424,0.06419387382772755,-0.019281471474480595,0.11022975474276997, ,0.06836390495300293
0.01020004703700851,0.01961528719978648,-0.08175907147433459, ,0.010673264133790848,0.021527346463157532,-0.08191972418339535, ,0.0019762880205725876, ,0.006792504517712553,0.02474742043852207,-0.031254846578119624,0.09263476740854727,-0.01520748444527914,-0.034229257500300383, ,0.04044055353980607, ,0.09387458596739172, ,0.0012479597416480185, ,0.13993591968094812,-0.23098694026805508,0.09128214922000001,-4.535174097683293,0.14606441824925584,-1.3749980474527592, ,0.02647055552537539,-0.19770196158014744,0.03670233069124424,0.06419387382772755,-0.019281471474480595,0.11022975474276997, ,0.07006978988647461
0.01020004703700851,0.01961528719978648,-0.08175907147433459, ,0.01068841544955838,0.021604229489711572,-0.08195390442722393, ,0.0020572688250592164, ,0.006792504517712553,0.02474742043852207,-0.031254846578119624,0.09263476740854727,-0.01520748444527914,-0.034229257500300383, ,0.04044055353980607, ,0.09387458596739172, ,0.001269257349106208, ,0.13993591968094812,-0.23098694026805508,0.09128214922000001,-4.535174097683293,0.14606441824925584,-1.3749980474527592, ,0.02647055552537539,-0.19770196158014744,0.03670233069124424,0.06419387382772755,-0.019281471474480595,0.11022975474276997, ,0.0719289779663086
0.01020004703700851,0.01961528719978648,-0.08175907147433459, ,0.010703581233519048,0.021681000327262927,-0.08198808339380603, ,0.002138495702905206, ,0.006792504517712553,0.02474742043852207,-0.031254846578119624,0.09263476740854727,-0.01520748444527914,-0.034229257500300383, ,0.04044055353980607, ,0.09387458596739172, ,0.001291545512024131, ,0.13993591968094812,-0.23098694026805508,0.09128214922000001,-4.535174097683293,0.14606441824925584,-1.3749980474527592, ,0.02647055552537539,-0.19770196158014744,0.03670233069124424,0.06419387382772755,-0.019281471474480595,0.11022975474276997, ,0.07377481460571289
0.01020004703700851,0.01961528719978648,-0.08175907147433459, ,0.01071876151139813,0.02175765912530345,-0.08202226128806886, ,0.002219930415854981, ,0.006792504517712553,0.02474742043852207,-0.031254846578119624,0.09263476740854727,-0.01520748444527914,-0.034229257500300383, ,0.04044055353980607, ,0.09387458596739172, ,0.0013147551346199022, ,0.13993591968094812,-0.23098694026805508,0.09128214922000001,-4.535174097683293,0.14606441824925584,-1.3749980474527592, ,0.02647055552537539,-0.19770196158014744,0.03670233069124424,0.06419387382772755,-0.019281471474480595,0.11022975474276997, ,0.0755608081817627
0.010278868703508377,0.01988095468679675,-0.0820543386563297, ,0.01073395630888659,0.02183420603299962,-0.08205643831438754, ,0.00200556724110067, ,0.008419962843904942,0.027710474512929684,-0.026038876632210467,0.05662731294729709,-0.12698080756802518,-0.13302242048388183, ,0.03894597884624216, ,0.13903512538847326, ,0.0013316042103877256, ,0.140275719927414,-0.23321108733583173,0.09163733268,-4.533915958022385,0.14510796275089774,-1.3729112622846353, ,0.040142530270080704,-0.24457974628471849,0.032441571323828924,0.14253964165575742,-0.15167026070703482,0.18503506283933735, ,0.07924795150756836
0.010278868703508377,0.01988095468679675,-0.0820543386563297, ,0.0107491656516347,0.021910641199193295,-0.08209061467658482, ,0.0020837760214732614, ,0.008419962843904942,0.027710474512929684,-0.026038876632210467,0.05662731294729709,-0.12698080756802518,-0.13302242048388183, ,0.03894597884624216, ,0.13903512538847326, ,0.0013495130630326194, ,0.140275719927414,-0.23321108733583173,0.09163733268,-4.533915958022385,0.14510796275089774,-1.3729112622846353, ,0.040142530270080704,-0.24457974628471849,0.032441571323828924,0.14253964165575742,-0.15167026070703482,0.18503506283933735, ,0.08113884925842285
0.010278868703508377,0.01988095468679675,-0.0820543386563297, ,0.010764389565256912,0.02198696477240198,-0.0821247905779308, ,0.002162399699667311, ,0.008419962843904942,0.027710474512929684,-0.026038876632210467,0.05662731294729709,-0.12698080756802518,-0.13302242048388183, ,0.03894597884624216, ,0.13903512538847326, ,0.0013684174034194728, ,0.140275719927414,-0.23321108733583173,0.09163733268,-4.533915958022385,0.14510796275089774,-1.3729112622846353, ,0.040142530270080704,-0.24457974628471849,0.032441571323828924,0.14253964165575742,-0.15167026070703482,0.18503506283933735, ,0.08288884162902832
0.010278868703508377,0.01988095468679675,-0.0820543386563297, ,0.010779628075328798,0.022063176900819312,-0.08215896622114525, ,0.002241383650149778, ,0.008419962843904942,0.027710474512929684,-0.026038876632210467,0.05662731294729709,-0.12698080756802518,-0.13302242048388183, ,0.03894597884624216, ,0.13903512538847326, ,0.001388257545390616, ,0.140275719927414,-0.23321108733583173,0.09163733268,-4.533915958022385,0.14510796275089774,-1.3729112622846353, ,0.040142530270080704,-0.24457974628471849,0.032441571323828924,0.14253964165575742,-0.15167026070703482,0.18503506283933735, ,0.08466887474060059
0.010361271940255951,0.020158739231896088,-0.08228068584005767, ,0.010794881207389417,0.022139277732315416,-0.0821931418083964, ,0.0020293382432869022, ,0.007702527372787339,0.028723155753992195,-0.020067170208004404,-0.029587324707276607,-0.12408056677397329,-0.0366728461309252, ,0.035875338668138766, ,0.127559372764944, ,0.0014025037831216446, ,0.14070047023549634,-0.23575958918432582,0.09192899793,-4.5330771982484475,0.14346832475371246,-1.3705124238184512, ,0.04295923112651461,-0.2719110073308618,0.02690677621621622,0.053641622821564504,-0.13964254450320157,0.28899836254510347, ,0.08658099174499512
0.010361271940255951,0.020158739231896088,-0.08228068584005767, ,0.01081014898693969,0.022215267414437547,-0.08222731754130244, ,0.002105622697431527, ,0.007702527372787339,0.028723155753992195,-0.020067170208004404,-0.029587324707276607,-0.12408056677397329,-0.0366728461309252, ,0.035875338668138766, ,0.127559372764944, ,0.00141778897691099, ,0.14070047023549634,-0.23575958918432582,0.09192899793,-4.5330771982484475,0.14346832475371246,-1.3705124238184512, ,0.04295923112651461,-0.2719110073308618,0.02690677621621622,0.053641622821564504,-0.13964254450320157,0.28899836254510347, ,0.08840084075927734
0.010361271940255951,0.020158739231896088,-0.08228068584005767, ,0.010825431439441795,0.022291146094410314,-0.08226149362093182, ,0.0021824232882869435, ,0.007702527372787339,0.028723155753992195,-0.020067170208004404,-0.029587324707276607,-0.12408056677397329,-0.0366728461309252, ,0.035875338668138766, ,0.127559372764944, ,0.0014340577920466486, ,0.14070047023549634,-0.23575958918432582,0.09192899793,-4.5330771982484475,0.14346832475371246,-1.3705124238184512, ,0.04295923112651461,-0.2719110073308618,0.02690677621621622,0.053641622821564504,-0.13964254450320157,0.28899836254510347, ,0.09011387825012207
0.010361271940255951,0.020158739231896088,-0.08228068584005767, ,0.010840728590322545,0.022366913919136196,-0.08229567024780363, ,0.0022596766718131446, ,0.007702527372787339,0.028723155753992195,-0.020067170208004404,-0.029587324707276607,-0.12408056677397329,-0.0366728461309252, ,0.035875338668138766, ,0.127559372764944, ,0.0014512581853751174, ,0.14070047023549634,-0.23575958918432582,0.09192899793,-4.5330771982484475,0.14346832475371246,-1.3705124238184512, ,0.04295923112651461,-0.2719110073308618,0.02690677621621622,0.053641622821564504,-0.13964254450320157,0.28899836254510347, ,0.09190583229064941
0.010361271940255951,0.020158739231896088,-0.08228068584005767, ,0.01085604046496852,0.022442571035196267,-0.08232984762188816, ,0.0023373276363412025, ,0.007702527372787339,0.028723155753992195,-0.020067170208004404,-0.029587324707276607,-0.12408056677397329,-0.0366728461309252, ,0.035875338668138766, ,0.127559372764944, ,0.0014693412353948333, ,0.14070047023549634,-0.23575958918432582,0.09192899793,-4.5330771982484475,0.14346832475371246,-1.3705124238184512, ,0.04295923112651461,-0.2719110073308618,0.02690677621621622,0.053641622821564504,-0.13964254450320157,0.28899836254510347, ,0.09388279914855957
0.010361271940255951,0.020158739231896088,-0.08228068584005767, ,0.010871367088731152,0.022518117588849897,-0.08236402594260736, ,0.0024153278999864566, ,0.007702527372787339,0.028723155753992195,-0.020067170208004404,-0.029587324707276607,-0.12408056677397329,-0.0366728461309252, ,0.035875338668138766, ,0.127559372764944, ,0.0014882609686866658, ,0.14070047023549634,-0.23575958918432582,0.09192899793,-4.5330771982484475,0.14346832475371246,-1.3705124238184512, ,0.04295923112651461,-0.2719110073308618,0.02690677621621622,0.053641622821564504,-0.13964254450320157,0.28899836254510347, ,0.09563398361206055
0.010437391437046757,0.020487212188320603,-0.0824603483122529, ,0.0108867084869227,0.022593553726036004,-0.08239820540883562, ,0.002154628094418995, ,0.007036610064018704,0.034869131186114746,-0.015736419372528006,-0.12041439145484974,-0.05353727997688169,0.050212963629923946, ,0.03889736604881626, ,0.1317796078752692, ,0.0015013269907598486, ,0.14118700240657248,-0.2389954142586259,0.09218825593,-4.532867508304963,0.14237523275558894,-1.3664356097233976, ,0.0496063468679931,-0.3514701539202621,0.024281724878048784,0.0,-0.0710148434596267,0.4629896355328271, ,0.09822297096252441
0.010437391437046757,0.020487212188320603,-0.0824603483122529, ,0.010902064684817683,0.02266887959237322,-0.08243238621890008, ,0.0022307791839992442, ,0.007036610064018704,0.034869131186114746,-0.015736419372528006,-0.12041439145484974,-0.05353727997688169,0.050212963629923946, ,0.03889736604881626, ,0.1317796078752692, ,0.001515354917552914, ,0.14118700240657248,-0.2389954142586259,0.09218825593,-4.532867508304963,0.14237523275558894,-1.3664356097233976, ,0.0496063468679931,-0.3514701539202621,0.024281724878048784,0.0,-0.0710148434596267,0.4629896355328271, ,0.1002187728881836
0.010437391437046757,0.020487212188320603,-0.0824603483122529, ,0.010917435707247349,0.022744095333207814,-0.08246656857047639, ,0.0023073800559597402, ,0.007036610064018704,0.034869131186114746,-0.015736419372528006,-0.12041439145484974,-0.05353727997688169,0.050212963629923946, ,0.03889736604881626, ,0.1317796078752692, ,0.0015302987880888917, ,0.14118700240657248,-0.2389954142586259,0.09218825593,-4.532867508304963,0.14237523275558894,-1.3664356097233976, ,0.0496063468679931,-0.3514701539202621,0.024281724878048784,0.0,-0.0710148434596267,0.4629896355328271, ,0.10202383995056152
0.010437391437046757,0.020487212188320603,-0.0824603483122529, ,0.010932821580225372,0.02281920109342319,-0.08250075266100707, ,0.002384377443210238, ,0.007036610064018704,0.034869131186114746,-0.015736419372528006,-0.12041439145484974,-0.05353727997688169,0.050212963629923946, ,0.03889736604881626, ,0.1317796078752692, ,0.0015461150594800277, ,0.14118700240657248,-0.2389954142586259,0.09218825593,-4.532867508304963,0.14237523275558894,-1.3664356097233976, ,0.0496063468679931,-0.3514701539202621,0.024281724878048784,0.0,-0.0710148434596267,0.4629896355328271, ,0.1039879322052002
0.010437391437046757,0.020487212188320603,-0.0824603483122529, ,0.010948222328505394,0.022894197017727432,-0.08253493868707656, ,0.002461724576933695, ,0.007036610064018704,0.034869131186114746,-0.015736419372528006,-0.12041439145484974,-0.05353727997688169,0.050212963629923946, ,0.03889736604881626, ,0.1317796078752692, ,0.0015627625052519127, ,0.14118700240657248,-0.2389954142586259,0.09218825593,-4.532867508304963,0.14237523275558894,-1.3664356097233976, ,0.0496063468679931,-0.3514701539202621,0.024281724878048784,0.0,-0.0710148434596267,0.4629896355328271, ,0.10592079162597656
0.010504179682679322,0.02083273849890667,-0.082601295381078, ,0.010963637977211699,0.022969083250462097,-0.08256912684482819, ,0.002185430309261194, ,0.006784254908111401,0.036158418956381375,-0.013197303219781197,-0.032666928790463116,0.009852798768747428,0.022853105877553858, ,0.0390848588120551, ,0.034120455445984195, ,0.0015738815731806497, ,0.14171214824201975,-0.24249381225064962,0.09241510668000001,-4.53223843847451,0.14210195975605808,-1.3614754069878523, ,0.05814763575886691,-0.3692487998384077,0.022309259831932778,0.04781569124120494,0.0,0.4090359163061156, ,0.10903477668762207
0.010504179682679322,0.02083273849890667,-0.082601295381078, ,0.01097906855143071,0.023043859935650512,-0.08260331732986011, ,0.0022615440597010274, ,0.006784254908111401,0.036158418956381375,-0.013197303219781197,-0.032666928790463116,0.009852798768747428,0.022853105877553858, ,0.0390848588120551, ,0.034120455445984195, ,0.00158594582733013, ,0.14171214824201975,-0.24249381225064962,0.09241510668000001,-4.53223843847451,0.14210195975605808,-1.3614754069878523, ,0.05814763575886691,-0.3692487998384077,0.022309259831932778,0.04781569124120494,0.0,0.4090359163061156, ,0.11080598831176758
0.010504179682679322,0.02083273849890667,-0.082601295381078, ,0.010994514076211319,0.023118527216998485,-0.08263751033722698, ,0.002338069589273401, ,0.006784254908111401,0.036158418956381375,-0.013197303219781197,-0.032666928790463116,0.009852798768747428,0.022853105877553858, ,0.0390848588120551, ,0.034120455445984195, ,0.0015989134783981175, ,0.14171214824201975,-0.24249381225064962,0.09241510668000001,-4.53223843847451,0.14210195975605808,-1.3614754069878523, ,0.05814763575886691,-0.3692487998384077,0.022309259831932778,0.04781569124120494,0.0,0.4090359163061156, ,0.11252784729003906
0.010504179682679322,0.02083273849890667,-0.082601295381078, ,0.011009974576564677,0.023193085237894342,-0.08267170606143948, ,0.002414958150121696, ,0.006784254908111401,0.036158418956381375,-0.013197303219781197,-0.032666928790463116,0.009852798768747428,0.022853105877553858, ,0.0390848588120551, ,0.034120455445984195, ,0.001612744744020551, ,0.14171214824201975,-0.24249381225064962,0.09241510668000001,-4.53223843847451,0.14210195975605808,-1.3614754069878523, ,0.05814763575886691,-0.3692487998384077,0.022309259831932778,0.04781569124120494,0.0,0.4090359163061156, ,0.11421990394592285
0.010504179682679322,0.02083273849890667,-0.082601295381078, ,0.011025450077464265,0.023267534141409765,-0.08270590469646481, ,0.0024921668792633076, ,0.0062846487965799855,0.03939856264652999,-0.010853773764222148,0.20635792267038922,0.0221729427564587,-0.06371967198478776, ,0.04134668008478818, ,0.20754573348708516, ,0.0016274017796079304, ,0.14224501681034124,-0.24621616949602582,0.09262121679000002,-4.530770608870118,0.1422385962558235,-1.359136462687332, ,0.05737420892289647,-0.40903854120030503,0.020931421182654404,0.14046162686713282,0.015127931933954765,0.2223975843060641, ,0.11642098426818848
0.01056449944556191,0.021194719757382147,-0.08271567848738978, ,0.01104094060384593,0.023341874070299994,-0.08274010643572795, ,0.0021995146158752255, ,0.0062846487965799855,0.03939856264652999,-0.010853773764222148,0.20635792267038922,0.0221729427564587,-0.06371967198478776, ,0.04134668008478818, ,0.20754573348708516, ,0.001636780678563132, ,0.14224501681034124,-0.24621616949602582,0.09262121679000002,-4.530770608870118,0.1422385962558235,-1.359136462687332, ,0.05737420892289647,-0.40903854120030503,0.020931421182654404,0.14046162686713282,0.015127931933954765,0.2223975843060641, ,0.1183009147644043
0.01056449944556191,0.021194719757382147,-0.08271567848738978, ,0.01105644618060779,0.02341610516700426,-0.08277431147211173, ,0.002275961896671759, ,0.0062846487965799855,0.03939856264652999,-0.010853773764222148,0.20635792267038922,0.0221729427564587,-0.06371967198478776, ,0.04134668008478818, ,0.20754573348708516, ,0.001647090053048755, ,0.14224501681034124,-0.24621616949602582,0.09262121679000002,-4.530770608870118,0.1422385962558235,-1.359136462687332, ,0.05737420892289647,-0.40903854120030503,0.020931421182654404,0.14046162686713282,0.015127931933954765,0.2223975843060641, ,0.12012982368469238
0.01056449944556191,0.021194719757382147,-0.08271567848738978, ,0.01107196683261033,0.023490227573646497,-0.08280851999795706, ,0.002352764082846576, ,0.0062846487965799855,0.03939856264652999,-0.010853773764222148,0.20635792267038922,0.0221729427564587,-0.06371967198478776, ,0.04134668008478818, ,0.20754573348708516, ,0.0016582912281249108, ,0.14224501681034124,-0.24621616949602582,0.09262121679000002,-4.530770608870118,0.1422385962558235,-1.359136462687332, ,0.05737420892289647,-0.40903854120030503,0.020931421182654404,0.14046162686713282,0.015127931933954765,0.2223975843060641, ,0.12191390991210938
0.01056449944556191,0.021194719757382147,-0.08271567848738978, ,0.011087502584676334,0.023564241432035386,-0.08284273220506407, ,0.0024298781651247224, ,0.0062846487965799855,0.03939856264652999,-0.010853773764222148,0.20635792267038922,0.0221729427564587,-0.06371967198478776, ,0.04134668008478818, ,0.20754573348708516, ,0.0016703472740155327, ,0.14224501681034124,-0.24621616949602582,0.09262121679000002,-4.530770608870118,0.1422385962558235,-1.359136462687332, ,0.05737420892289647,-0.40903854120030503,0.020931421182654404,0.14046162686713282,0.015127931933954765,0.2223975843060641, ,0.12370586395263672
0.01056449944556191,0.021194719757382147,-0.08271567848738978, ,0.011103053461590965,0.023638146883665077,-0.08287694828469198, ,0.002507266339493707, ,0.0062846487965799855,0.03939856264652999,-0.010853773764222148,0.20635792267038922,0.0221729427564587,-0.06371967198478776, ,0.04134668008478818, ,0.20754573348708516, ,0.0016832229519459661, ,0.14224501681034124,-0.24621616949602582,0.09262121679000002,-4.530770608870118,0.1422385962558235,-1.359136462687332, ,0.05737420892289647,-0.40903854120030503,0.020931421182654404,0.14046162686713282,0.015127931933954765,0.2223975843060641, ,0.12549686431884766
0.010637111782229895,0.021636362672650074,-0.08284440097513356, ,0.011118619488101587,0.02371194406971559,-0.08291116842756022, ,0.0021317471002353454, ,0.007139821319590666,0.042448293001488925,-0.012736208593631509,0.2013330801515377,-0.03173291550855402,0.02610471485845897, ,0.04488925970158595, ,0.20381851425927472, ,0.001690018772374593, ,0.1428860036389019,-0.2507880273575667,0.09286362302000001,-4.5303512289831485,0.1422385962558235,-1.356686100483115, ,0.06118435948321777,-0.43731309473949664,0.023738914336810735,0.04377361437624733,-0.015051401372495889,0.23788275123251293, ,0.12722396850585938
0.010637111782229895,0.021636362672650074,-0.08284440097513356, ,0.011134200688918018,0.02378563313105315,-0.08294539282384854, ,0.002208316154454212, ,0.007139821319590666,0.042448293001488925,-0.012736208593631509,0.2013330801515377,-0.03173291550855402,0.02610471485845897, ,0.04488925970158595, ,0.20381851425927472, ,0.0016977545541966772, ,0.1428860036389019,-0.2507880273575667,0.09286362302000001,-4.5303512289831485,0.1422385962558235,-1.356686100483115, ,0.06118435948321777,-0.43731309473949664,0.023738914336810735,0.04377361437624733,-0.015051401372495889,0.23788275123251293, ,0.12896299362182617
0.010637111782229895,0.021636362672650074,-0.08284440097513356, ,0.011149797088712297,0.02385921420823064,-0.08297962166319739, ,0.00228521329577707, ,0.007139821319590666,0.042448293001488925,-0.012736208593631509,0.2013330801515377,-0.03173291550855402,0.02610471485845897, ,0.04488925970158595, ,0.20381851425927472, ,0.001706393653337565, ,0.1428860036389019,-0.2507880273575667,0.09286362302000001,-4.5303512289831485,0.1422385962558235,-1.356686100483115, ,0.06118435948321777,-0.43731309473949664,0.023738914336810735,0.04377361437624733,-0.015051401372495889,0.23788275123251293, ,0.1307079792022705
0.010637111782229895,0.021636362672650074,-0.08284440097513356, ,0.011165408712118883,0.02393268744148838,-0.0830138551347089, ,0.002362397045864184, ,0.007139821319590666,0.042448293001488925,-0.012736208593631509,0.2013330801515377,-0.03173291550855402,0.02610471485845897, ,0.04488925970158595, ,0.20381851425927472, ,0.0017159009488814292, ,0.1428860036389019,-0.2507880273575667,0.09286362302000001,-4.5303512289831485,0.1422385962558235,-1.356686100483115, ,0.06118435948321777,-0.43731309473949664,0.023738914336810735,0.04377361437624733,-0.015051401372495889,0.23788275123251293, ,0.13248991966247559
0.010637111782229895,0.021636362672650074,-0.08284440097513356, ,0.011181035583734442,0.024006052970753873,-0.0830480934269474, ,0.0024398311059776997, ,0.007139821319590666,0.042448293001488925,-0.012736208593631509,0.2013330801515377,-0.03173291550855402,0.02610471485845897, ,0.04488925970158595, ,0.20381851425927472, ,0.0017262428082685187, ,0.1428860036389019,-0.2507880273575667,0.09286362302000001,-4.5303512289831485,0.1422385962558235,-1.356686100483115, ,0.06118435948321777,-0.43731309473949664,0.023738914336810735,0.04377361437624733,-0.015051401372495889,0.23788275123251293, ,0.1343247890472412
0.010637111782229895,0.021636362672650074,-0.08284440097513356, ,0.011196677728118014,0.024079310935642938,-0.08308233672793912, ,0.002517483601916935, ,0.007139821319590666,0.042448293001488925,-0.012736208593631509,0.2013330801515377,-0.03173291550855402,0.02610471485845897, ,0.04488925970158595, ,0.20381851425927472, ,0.0017373870447987781, ,0.14347293133734293,-0.25501236223976753,0.09309954780000002,-4.5303512289831485,0.14196532325629263,-1.3540129024715053, ,0.06682883208343011,-0.4817103632409684,0.028242573617021278,0.026121462035548017,-0.021553880995546483,0.2632127594370097, ,0.1363070011138916
0.010637111782229895,0.021636362672650074,-0.08284440097513356, ,0.011212335169790998,0.02415246147545981,-0.08311658522517369, ,0.002595326452889457, ,0.008204749681100397,0.04767630568020955,-0.015893601061902022,0.2193542185042616,-0.04534608129881969,0.049559418549177774, ,0.05092106239423125, ,0.22399227497974722, ,0.0017493028699111489, ,0.14347293133734293,-0.25501236223976753,0.09309954780000002,-4.5303512289831485,0.14196532325629263,-1.3540129024715053, ,0.06682883208343011,-0.4817103632409684,0.028242573617021278,0.026121462035548017,-0.021553880995546483,0.2632127594370097, ,0.13817191123962402
0.010637111782229895,0.021636362672650074,-0.08284440097513356, ,0.011228007933236982,0.02422550472919758,-0.08315083910560381, ,0.002673334842114646, ,0.008204749681100397,0.04767630568020955,-0.015893601061902022,0.2193542185042616,-0.04534608129881969,0.049559418549177774, ,0.05092106239423125, ,0.22399227497974722, ,0.0017619608421331147, ,0.14347293133734293,-0.25501236223976753,0.09309954780000002,-4.5303512289831485,0.14196532325629263,-1.3540129024715053, ,0.06682883208343011,-0.4817103632409684,0.028242573617021278,0.026121462035548017,-0.021553880995546483,0.2632127594370097, ,0.13998889923095703
0.010711099993318502,0.022065611426118237,-0.08297872078397149, ,0.011243696042902,0.02429844083553873,-0.08318509855564679, ,0.0023047293785272657, ,0.008204749681100397,0.04767630568020955,-0.015893601061902022,0.2193542185042616,-0.04534608129881969,0.049559418549177774, ,0.05092106239423125, ,0.22399227497974722, ,0.001769295552084387, ,0.14347293133734293,-0.25501236223976753,0.09309954780000002,-4.5303512289831485,0.14196532325629263,-1.3540129024715053, ,0.06682883208343011,-0.4817103632409684,0.028242573617021278,0.026121462035548017,-0.021553880995546483,0.2632127594370097, ,0.14228200912475586
0.010711099993318502,0.022065611426118237,-0.08297872078397149, ,0.011259399523194378,0.02437126993285558,-0.08321936376118406, ,0.0023821424320628073, ,0.008204749681100397,0.04767630568020955,-0.015893601061902022,0.2193542185042616,-0.04534608129881969,0.049559418549177774, ,0.05092106239423125, ,0.22399227497974722, ,0.0017774668438174327, ,0.14347293133734293,-0.25501236223976753,0.09309954780000002,-4.5303512289831485,0.14196532325629263,-1.3540129024715053, ,0.06682883208343011,-0.4817103632409684,0.028242573617021278,0.026121462035548017,-0.021553880995546483,0.2632127594370097, ,0.1441049575805664
0.010711099993318502,0.022065611426118237,-0.08297872078397149, ,0.011275118398484631,0.02444399215921065,-0.08325363490756187, ,0.002459753940592597, ,0.008204749681100397,0.04767630568020955,-0.015893601061902022,0.2193542185042616,-0.04534608129881969,0.049559418549177774, ,0.05092106239423125, ,0.22399227497974722, ,0.0017864443056171057, ,0.14347293133734293,-0.25501236223976753,0.09309954780000002,-4.5303512289831485,0.14196532325629263,-1.3540129024715053, ,0.06682883208343011,-0.4817103632409684,0.028242573617021278,0.026121462035548017,-0.021553880995546483,0.2632127594370097, ,0.14592480659484863
0.01080143191037089,0.022542874757951577,-0.0831401065041427, ,0.011290852693105773,0.024516607652357143,-0.08328791217959249, ,0.002038872423357225, ,0.009610534843872523,0.048294950896874536,-0.017377129861546756,0.17362055740165838,-0.10826260718168806,0.03591693324460025, ,0.05221809364905876, ,0.204609111433842, ,0.0017897225928604841, ,0.14420659096039426,-0.260016693142265,0.0933976945,-4.529722159152695,0.14114550425769998,-1.3508123541049692, ,0.07460451380382924,-0.48416806917587135,0.030282911634980987,0.023261551815610463,-0.08510891505645267,0.29964313583919466, ,0.14803194999694824
0.01080143191037089,0.022542874757951577,-0.0831401065041427, ,0.011306602431352977,0.024589116549739345,-0.08332219576155386, ,0.0021155281192630545, ,0.009610534843872523,0.048294950896874536,-0.017377129861546756,0.17362055740165838,-0.10826260718168806,0.03591693324460025, ,0.05221809364905876, ,0.204609111433842, ,0.001793899586788722, ,0.14420659096039426,-0.260016693142265,0.0933976945,-4.529722159152695,0.14114550425769998,-1.3508123541049692, ,0.07460451380382924,-0.48416806917587135,0.030282911634980987,0.023261551815610463,-0.08510891505645267,0.29964313583919466, ,0.1497969627380371
0.01080143191037089,0.022542874757951577,-0.0831401065041427, ,0.011322367637483816,0.024661518988493197,-0.08335648583719084, ,0.0021924523764862763, ,0.009610534843872523,0.048294950896874536,-0.017377129861546756,0.17362055740165838,-0.10826260718168806,0.03591693324460025, ,0.05221809364905876, ,0.204609111433842, ,0.0017989445588102101, ,0.14420659096039426,-0.260016693142265,0.0933976945,-4.529722159152695,0.14114550425769998,-1.3508123541049692, ,0.07460451380382924,-0.48416806917587135,0.030282911634980987,0.023261551815610463,-0.08510891505645267,0.29964313583919466, ,0.1516427993774414
0.01080143191037089,0.022542874757951577,-0.0831401065041427, ,0.01133814833571813,0.024733815105446595,-0.08339078258971491, ,0.002269608474472395, ,0.009610534843872523,0.048294950896874536,-0.017377129861546756,0.17362055740165838,-0.10826260718168806,0.03591693324460025, ,0.05221809364905876, ,0.204609111433842, ,0.0018048278577559873, ,0.14420659096039426,-0.260016693142265,0.0933976945,-4.529722159152695,0.14114550425769998,-1.3508123541049692, ,0.07460451380382924,-0.48416806917587135,0.030282911634980987,0.023261551815610463,-0.08510891505645267,0.29964313583919466, ,0.1534879207611084
0.01080143191037089,0.022542874757951577,-0.0831401065041427, ,0.011353944550238072,0.024806005037119883,-0.08342508620180536, ,0.00234696448754158, ,0.009610534843872523,0.048294950896874536,-0.017377129861546756,0.17362055740165838,-0.10826260718168806,0.03591693324460025, ,0.05221809364905876, ,0.204609111433842, ,0.0018115209025681548, ,0.14420659096039426,-0.260016693142265,0.0933976945,-4.529722159152695,0.14114550425769998,-1.3508123541049692, ,0.07460451380382924,-0.48416806917587135,0.030282911634980987,0.023261551815610463,-0.08510891505645267,0.29964313583919466, ,0.15570378303527832
0.010878019712632636,0.02291648758522043,-0.08327112537989308, ,0.01136975630518808,0.02487808891972628,-0.08345939685560946, ,0.0020310418066996055, ,0.010158068835537687,0.05011613726462666,-0.016387957765994283,0.18494816441291895,-0.06410292768509716,-0.10738100794105548, ,0.05369710175171874, ,0.19574219697216705, ,0.00181419798676488, ,0.14482440959033224,-0.2637467731205155,0.09362973041000001,-4.528673709435273,0.14059895825863825,-1.3483247139866696, ,0.08287942494189587,-0.5021002198860888,0.03005436135849057,0.17937581266189248,-0.0773781300413027,0.32918313302070934, ,0.15771698951721191
0.010878019712632636,0.02291648758522043,-0.08327112537989308, ,0.011385583624674981,0.02495006688917224,-0.08349371473274335, ,0.0021077504430722237, ,0.010158068835537687,0.05011613726462666,-0.016387957765994283,0.18494816441291895,-0.06410292768509716,-0.10738100794105548, ,0.05369710175171874, ,0.19574219697216705, ,0.0018177347633468962, ,0.14482440959033224,-0.2637467731205155,0.09362973041000001,-4.528673709435273,0.14059895825863825,-1.3483247139866696, ,0.08287942494189587,-0.5021002198860888,0.03005436135849057,0.17937581266189248,-0.0773781300413027,0.32918313302070934, ,0.15954184532165527
0.010878019712632636,0.02291648758522043,-0.08327112537989308, ,0.011401426532767812,0.02502193908105822,-0.08352804001429182, ,0.0021846935322964263, ,0.010158068835537687,0.05011613726462666,-0.016387957765994283,0.18494816441291895,-0.06410292768509716,-0.10738100794105548, ,0.05369710175171874, ,0.19574219697216705, ,0.001822103320120105, ,0.14482440959033224,-0.2637467731205155,0.09362973041000001,-4.528673709435273,0.14059895825863825,-1.3483247139866696, ,0.08287942494189587,-0.5021002198860888,0.03005436135849057,0.17937581266189248,-0.0773781300413027,0.32918313302070934, ,0.16129589080810547
0.010878019712632636,0.02291648758522043,-0.08327112537989308, ,0.011417285053497936,0.02509370563067865,-0.08356237288080984, ,0.0022618378881161514, ,0.010158068835537687,0.05011613726462666,-0.016387957765994283,0.18494816441291895,-0.06410292768509716,-0.10738100794105548, ,0.05369710175171874, ,0.19574219697216705, ,0.001827276667978882, ,0.14482440959033224,-0.2637467731205155,0.09362973041000001,-4.528673709435273,0.14059895825863825,-1.3483247139866696, ,0.08287942494189587,-0.5021002198860888,0.03005436135849057,0.17937581266189248,-0.0773781300413027,0.32918313302070934, ,0.16307783126831055
0.010878019712632636,0.02291648758522043,-0.08327112537989308, ,0.011433159210859049,0.025165366673022774,-0.0835967135123221, ,0.002339154686211324, ,0.010158068835537687,0.05011613726462666,-0.016387957765994283,0.18494816441291895,-0.06410292768509716,-0.10738100794105548, ,0.05369710175171874, ,0.19574219697216705, ,0.0018332287379583289, ,0.14482440959033224,-0.2637467731205155,0.09362973041000001,-4.528673709435273,0.14059895825863825,-1.3483247139866696, ,0.08287942494189587,-0.5021002198860888,0.03005436135849057,0.17937581266189248,-0.0773781300413027,0.32918313302070934, ,0.16484498977661133
0.010995153967322226,0.023497870108180136,-0.08346783918227203, ,0.011449049028807157,0.02523692234277477,-0.08363106208832388, ,0.0018047063801485846, ,0.010158068835537687,0.05011613726462666,-0.016387957765994283,0.18494816441291895,-0.06410292768509716,-0.10738100794105548, ,0.05369710175171874, ,0.19574219697216705, ,0.0018329008947651135, ,0.14482440959033224,-0.2637467731205155,0.09362973041000001,-4.528673709435273,0.14059895825863825,-1.3483247139866696, ,0.08287942494189587,-0.5021002198860888,0.03005436135849057,0.17937581266189248,-0.0773781300413027,0.32918313302070934, ,0.16670584678649902
0.010995153967322226,0.023497870108180136,-0.08346783918227203, ,0.01146495453126055,0.025308372774314507,-0.083665418787782, ,0.0018808695261686575, ,0.01025210649134671,0.051187444354985755,-0.017600949479894004,0.13387149181723013,-0.07135988429596697,0.010050836316480313, ,0.055091320275506714, ,0.1517030247520029, ,0.0018334459928492446, ,0.14577430573386185,-0.26953882277618385,0.09398621016000001,-4.527415569774365,0.1397791392600456,-1.3442256994785875, ,0.08368336998101479,-0.5074702757137475,0.031794034970059885,0.06434316269648427,-0.059516374714992853,0.3725388167162406, ,0.1686568260192871
0.010995153967322226,0.023497870108180136,-0.08346783918227203, ,0.011480875742099762,0.025379718101717665,-0.08369978378913444, ,0.001957313417398148, ,0.01025210649134671,0.051187444354985755,-0.017600949479894004,0.13387149181723013,-0.07135988429596697,0.010050836316480313, ,0.055091320275506714, ,0.1517030247520029, ,0.001834837761664401, ,0.14577430573386185,-0.26953882277618385,0.09398621016000001,-4.527415569774365,0.1397791392600456,-1.3442256994785875, ,0.08368336998101479,-0.5074702757137475,0.031794034970059885,0.06434316269648427,-0.059516374714992853,0.3725388167162406, ,0.1705319881439209
0.010995153967322226,0.023497870108180136,-0.08346783918227203, ,0.0114968126851677,0.02545095845875657,-0.08373415727029211, ,0.002033996287694354, ,0.01025210649134671,0.051187444354985755,-0.017600949479894004,0.13387149181723013,-0.07135988429596697,0.010050836316480313, ,0.055091320275506714, ,0.1517030247520029, ,0.0018370506341758449, ,0.14577430573386185,-0.26953882277618385,0.09398621016000001,-4.527415569774365,0.1397791392600456,-1.3442256994785875, ,0.08368336998101479,-0.5074702757137475,0.031794034970059885,0.06434316269648427,-0.059516374714992853,0.3725388167162406, ,0.17397189140319824
0.010995153967322226,0.023497870108180136,-0.08346783918227203, ,0.011512765384269557,0.025522093978900165,-0.08376853940863745, ,0.0021108823946120758, ,0.01025210649134671,0.051187444354985755,-0.017600949479894004,0.13387149181723013,-0.07135988429596697,0.010050836316480313, ,0.055091320275506714, ,0.1517030247520029, ,0.0018400597744004188, ,0.14577430573386185,-0.26953882277618385,0.09398621016000001,-4.527415569774365,0.1397791392600456,-1.3442256994785875, ,0.08368336998101479,-0.5074702757137475,0.031794034970059885,0.06434316269648427,-0.059516374714992853,0.3725388167162406, ,0.1756589412689209
0.011105334375945297,0.024073799826337415,-0.08366325140471347, ,0.011528733863172807,0.025593124795314674,-0.08380293038102728, ,0.0015833905720214266, ,0.009979481687180249,0.05213257543072241,-0.017794768489406556,0.12391557217110426,-0.0410534914458221,0.05711970369872743, ,0.055982579981421934, ,0.1305390991316765, ,0.0018372698917658644, ,0.1467010336787688,-0.2752381996373615,0.09434268991000001,-4.527415569774365,0.1395058662605147,-1.3400822841444477, ,0.08405397835116987,-0.5129564408565989,0.0325077786122449,0.028803948269199766,-0.019329440730499158,0.38881261719070787, ,0.17742681503295898
0.011105334375945297,0.024073799826337415,-0.08366325140471347, ,0.011544718145607202,0.02566405104086439,-0.08383733036379123, ,0.0016589938234786831, ,0.009979481687180249,0.05213257543072241,-0.017794768489406556,0.12391557217110426,-0.0410534914458221,0.05711970369872743, ,0.055982579981421934, ,0.1305390991316765, ,0.0018353529447950345, ,0.1467010336787688,-0.2752381996373615,0.09434268991000001,-4.527415569774365,0.1395058662605147,-1.3400822841444477, ,0.08405397835116987,-0.5129564408565989,0.0325077786122449,0.028803948269199766,-0.019329440730499158,0.38881261719070787, ,0.1791698932647705
0.011105334375945297,0.024073799826337415,-0.08366325140471347, ,0.011560718255264803,0.02573487284811138,-0.08387173953273394, ,0.0017349367022271595, ,0.009979481687180249,0.05213257543072241,-0.017794768489406556,0.12391557217110426,-0.0410534914458221,0.05711970369872743, ,0.055982579981421934, ,0.1305390991316765, ,0.0018342846868953761, ,0.1467010336787688,-0.2752381996373615,0.09434268991000001,-4.527415569774365,0.1395058662605147,-1.3400822841444477, ,0.08405397835116987,-0.5129564408565989,0.0325077786122449,0.028803948269199766,-0.019329440730499158,0.38881261719070787, ,0.18087291717529297
0.011105334375945297,0.024073799826337415,-0.08366325140471347, ,0.011576734215800015,0.025805590349316572,-0.08390615806313405, ,0.0018111653345844851, ,0.009979481687180249,0.05213257543072241,-0.017794768489406556,0.12391557217110426,-0.0410534914458221,0.05711970369872743, ,0.055982579981421934, ,0.1305390991316765, ,0.0018340413252921034, ,0.1467010336787688,-0.2752381996373615,0.09434268991000001,-4.527415569774365,0.1395058662605147,-1.3400822841444477, ,0.08405397835116987,-0.5129564408565989,0.0325077786122449,0.028803948269199766,-0.019329440730499158,0.38881261719070787, ,0.18262100219726562
0.011105334375945297,0.024073799826337415,-0.08366325140471347, ,0.011592766050829434,0.025876203676439804,-0.08394058612974556, ,0.0018876344524968005, ,0.009979481687180249,0.05213257543072241,-0.017794768489406556,0.12391557217110426,-0.0410534914458221,0.05711970369872743, ,0.055982579981421934, ,0.1305390991316765, ,0.001834599587033819, ,0.1467010336787688,-0.2752381996373615,0.09434268991000001,-4.527415569774365,0.1395058662605147,-1.3400822841444477, ,0.08405397835116987,-0.5129564408565989,0.0325077786122449,0.028803948269199766,-0.019329440730499158,0.38881261719070787, ,0.18437695503234863
0.011105334375945297,0.024073799826337415,-0.08366325140471347, ,0.01160881378393202,0.0259467129611406,-0.0839750239067987, ,0.0019643057852181387, ,0.009979481687180249,0.05213257543072241,-0.017794768489406556,0.12391557217110426,-0.0410534914458221,0.05711970369872743, ,0.055982579981421934, ,0.1305390991316765, ,0.0018359367643346882, ,0.1467010336787688,-0.2752381996373615,0.09434268991000001,-4.527415569774365,0.1395058662605147,-1.3400822841444477, ,0.08405397835116987,-0.5129564408565989,0.0325077786122449,0.028803948269199766,-0.019329440730499158,0.38881261719070787, ,0.18613386154174805
0.01120558773265731,0.024597739533391266,-0.0838364843919146, ,0.011624877438649057,0.02601711833477829,-0.08400947156799979, ,0.0014900887901287767, ,0.009759474231496649,0.04983147526569693,-0.01627120844322114,0.11959842202092316,-0.0459953647405453,0.08258950095677785, ,0.053321435545507986, ,0.1281380309939277, ,0.0018324077033734034, ,0.14757370249355617,-0.28038926246446927,0.09466546612000001,-4.5272058798308805,0.1395058662605147,-1.336243383357841, ,0.08457837928562457,-0.48915949256943697,0.030632329846153848,0.0,-0.012170100845559584,0.36623479065094794, ,0.1879129409790039
0.01120558773265731,0.024597739533391266,-0.0838364843919146, ,0.011640957038484001,0.026087419928412556,-0.08404392928653132, ,0.0015657993153879403, ,0.009759474231496649,0.04983147526569693,-0.01627120844322114,0.11959842202092316,-0.0459953647405453,0.08258950095677785, ,0.053321435545507986, ,0.1281380309939277, ,0.0018297146893533481, ,0.14757370249355617,-0.28038926246446927,0.09466546612000001,-4.5272058798308805,0.1395058662605147,-1.336243383357841, ,0.08457837928562457,-0.48915949256943697,0.030632329846153848,0.0,-0.012170100845559584,0.36623479065094794, ,0.18975496292114258
0.01120558773265731,0.024597739533391266,-0.0838364843919146, ,0.011657052606902677,0.026157617872804045,-0.08407839723505381, ,0.0016418169173577947, ,0.009759474231496649,0.04983147526569693,-0.01627120844322114,0.11959842202092316,-0.0459953647405453,0.08258950095677785, ,0.053321435545507986, ,0.1281380309939277, ,0.0018278357116333927, ,0.14757370249355617,-0.28038926246446927,0.09466546612000001,-4.5272058798308805,0.1395058662605147,-1.336243383357841, ,0.08457837928562457,-0.48915949256943697,0.030632329846153848,0.0,-0.012170100845559584,0.36623479065094794, ,0.1917579174041748
0.01120558773265731,0.024597739533391266,-0.0838364843919146, ,0.011673164167333211,0.026227712298414533,-0.08411287558570527, ,0.0017180893541916997, ,0.009759474231496649,0.04983147526569693,-0.01627120844322114,0.11959842202092316,-0.0459953647405453,0.08258950095677785, ,0.053321435545507986, ,0.1281380309939277, ,0.0018267491140349602, ,0.14757370249355617,-0.28038926246446927,0.09466546612000001,-4.5272058798308805,0.1395058662605147,-1.336243383357841, ,0.08457837928562457,-0.48915949256943697,0.030632329846153848,0.0,-0.012170100845559584,0.36623479065094794, ,0.19367194175720215
0.01120558773265731,0.024597739533391266,-0.0838364843919146, ,0.011689291743165995,0.026297703335407475,-0.08414736451010213, ,0.0017945731932222447, ,0.009759474231496649,0.04983147526569693,-0.01627120844322114,0.11959842202092316,-0.0459953647405453,0.08258950095677785, ,0.053321435545507986, ,0.1281380309939277, ,0.0018264336638309138, ,0.14757370249355617,-0.28038926246446927,0.09466546612000001,-4.5272058798308805,0.1395058662605147,-1.336243383357841, ,0.08457837928562457,-0.48915949256943697,0.030632329846153848,0.0,-0.012170100845559584,0.36623479065094794, ,0.1956779956817627
0.011303331393151164,0.0251065262430209,-0.08399041974729503, ,0.01170543535775364,0.026367591113648656,-0.08418186417933919, ,0.001337394174071781, ,0.009176448789569906,0.049350971522527126,-0.014767406907312177,0.15582863913054948,-0.012593164492707951,0.00933646213069159, ,0.05232400891914737, ,0.15633666192842222, ,0.00182168570761966, ,0.14843092584259507,-0.28539359336696674,0.09496750169000001,-4.526367120056943,0.13936922976074928,-1.3325381008879602, ,0.08110849705852202,-0.48416806917587135,0.029227177100917434,0.07945657964116151,0.0,0.3377164416018994, ,0.19739079475402832
0.011303331393151164,0.0251065262430209,-0.08399041974729503, ,0.011721595034411125,0.026437375762706355,-0.08421637476399102, ,0.0014132093217981323, ,0.009176448789569906,0.049350971522527126,-0.014767406907312177,0.15582863913054948,-0.012593164492707951,0.00933646213069159, ,0.05232400891914737, ,0.15633666192842222, ,0.001817758050063684, ,0.14843092584259507,-0.28539359336696674,0.09496750169000001,-4.526367120056943,0.13936922976074928,-1.3325381008879602, ,0.08110849705852202,-0.48416806917587135,0.029227177100917434,0.07945657964116151,0.0,0.3377164416018994, ,0.1991279125213623
0.011303331393151164,0.0251065262430209,-0.08399041974729503, ,0.011737770796415707,0.02650705741185171,-0.08425089643411213, ,0.0014893197287186729, ,0.009176448789569906,0.049350971522527126,-0.014767406907312177,0.15582863913054948,-0.012593164492707951,0.00933646213069159, ,0.05232400891914737, ,0.15633666192842222, ,0.0018146300660508744, ,0.14843092584259507,-0.28539359336696674,0.09496750169000001,-4.526367120056943,0.13936922976074928,-1.3325381008879602, ,0.08110849705852202,-0.48416806917587135,0.029227177100917434,0.07945657964116151,0.0,0.3377164416018994, ,0.2012009620666504
0.011303331393151164,0.0251065262430209,-0.08399041974729503, ,0.011753962667006896,0.026576636190059667,-0.08428542935923694, ,0.0015656699756006324, ,0.009176448789569906,0.049350971522527126,-0.014767406907312177,0.15582863913054948,-0.012593164492707951,0.00933646213069159, ,0.05232400891914737, ,0.15633666192842222, ,0.001812281385952287, ,0.14843092584259507,-0.28539359336696674,0.09496750169000001,-4.526367120056943,0.13936922976074928,-1.3325381008879602, ,0.08110849705852202,-0.48416806917587135,0.029227177100917434,0.07945657964116151,0.0,0.3377164416018994, ,0.20292878150939941
0.011303331393151164,0.0251065262430209,-0.08399041974729503, ,0.011770170669386492,0.026646112226008697,-0.0843199737083809, ,0.0016422148830514904, ,0.009176448789569906,0.049350971522527126,-0.014767406907312177,0.15582863913054948,-0.012593164492707951,0.00933646213069159, ,0.05232400891914737, ,0.15633666192842222, ,0.001810691979383121, ,0.14843092584259507,-0.28539359336696674,0.09496750169000001,-4.526367120056943,0.13936922976074928,-1.3325381008879602, ,0.08110849705852202,-0.48416806917587135,0.029227177100917434,0.07945657964116151,0.0,0.3377164416018994, ,0.2051539421081543
0.011381554185748485,0.025527858252716983,-0.08411365787964792, ,0.011786394826718552,0.026715485648082064,-0.08435452965004106, ,0.0012776439193198659, ,0.009176448789569906,0.049350971522527126,-0.014767406907312177,0.15582863913054948,-0.012593164492707951,0.00933646213069159, ,0.05232400891914737, ,0.15633666192842222, ,0.00180575634919735, ,0.1491259718012753,-0.2895252554546769,0.09521509308000001,-4.525738050226489,0.13936922976074928,-1.329761023723181, ,0.07954479594171901,-0.4721240873555759,0.02789634241681261,0.09051780358933717,0.0,0.3303731685752336, ,0.20751690864562988
0.011381554185748485,0.025527858252716983,-0.08411365787964792, ,0.01180263516212942,0.02678475658436731,-0.084389097352196, ,0.001353872042629165, ,0.008888586466601012,0.0481418787477954,-0.013579724702612598,0.15274350508412535,-0.008618922839456967,-0.002769736361753512, ,0.050804098080178765, ,0.15298648212994434, ,0.0018016106216141555, ,0.1491259718012753,-0.2895252554546769,0.09521509308000001,-4.525738050226489,0.13936922976074928,-1.329761023723181, ,0.07954479594171901,-0.4721240873555759,0.02789634241681261,0.09051780358933717,0.0,0.3303731685752336, ,0.20939087867736816
0.011381554185748485,0.025527858252716983,-0.08411365787964792, ,0.01181889169870779,0.02685392516265761,-0.08442367698230678, ,0.001430324925985113, ,0.008888586466601012,0.0481418787477954,-0.013579724702612598,0.15274350508412535,-0.008618922839456967,-0.002769736361753512, ,0.050804098080178765, ,0.15298648212994434, ,0.0017982352971084368, ,0.1491259718012753,-0.2895252554546769,0.09521509308000001,-4.525738050226489,0.13936922976074928,-1.329761023723181, ,0.07954479594171901,-0.4721240873555759,0.02789634241681261,0.09051780358933717,0.0,0.3303731685752336, ,0.2111368179321289
0.011381554185748485,0.025527858252716983,-0.08411365787964792, ,0.011835164459504492,0.026922991510451716,-0.08445826870731767, ,0.001506955775675503, ,0.008888586466601012,0.0481418787477954,-0.013579724702612598,0.15274350508412535,-0.008618922839456967,-0.002769736361753512, ,0.050804098080178765, ,0.15298648212994434, ,0.0017956111572757078, ,0.1491259718012753,-0.2895252554546769,0.09521509308000001,-4.525738050226489,0.13936922976074928,-1.329761023723181, ,0.07954479594171901,-0.4721240873555759,0.02789634241681261,0.09051780358933717,0.0,0.3303731685752336, ,0.21286988258361816
0.011381554185748485,0.025527858252716983,-0.08411365787964792, ,0.011851453467532757,0.026991955754954337,-0.08449287269365571, ,0.0015837268407910493, ,0.008888586466601012,0.0481418787477954,-0.013579724702612598,0.15274350508412535,-0.008618922839456967,-0.002769736361753512, ,0.050804098080178765, ,0.15298648212994434, ,0.0017937193330213805, ,0.1491259718012753,-0.2895252554546769,0.09521509308000001,-4.525738050226489,0.13936922976074928,-1.329761023723181, ,0.07954479594171901,-0.4721240873555759,0.02789634241681261,0.09051780358933717,0.0,0.3303731685752336, ,0.21455883979797363
0.011381554185748485,0.025527858252716983,-0.08411365787964792, ,0.011867758745768023,0.027060818023076905,-0.0845274891072326, ,0.0016606073637828957, ,0.008888586466601012,0.0481418787477954,-0.013579724702612598,0.15274350508412535,-0.008618922839456967,-0.002769736361753512, ,0.050804098080178765, ,0.15298648212994434, ,0.0017925413509927214, ,0.1491259718012753,-0.2895252554546769,0.09521509308000001,-4.525738050226489,0.13936922976074928,-1.329761023723181, ,0.07954479594171901,-0.4721240873555759,0.02789634241681261,0.09051780358933717,0.0,0.3303731685752336, ,0.21625089645385742
0.011482333537546493,0.026054957652479463,-0.08427068196594616, ,0.011884080317148065,0.027129578441437846,-0.0845621181134439, ,0.0011836998534468515, ,0.008725253662796294,0.04573093853315627,-0.013657751399394683,0.12623486764881836,-0.022764790319299715,0.04322278560668018, ,0.04851786231782192, ,0.12827110747699555, ,0.001787200636101968, ,0.15002180881468533,-0.29465315008316195,0.09553009155000002,-4.525108980396035,0.13936922976074928,-1.3260854804168556, ,0.07734062066705036,-0.44344365214238685,0.02746346813793104,0.03757684079164784,0.0,0.3208328089348234, ,0.217911958694458
0.011482333537546493,0.026054957652479463,-0.08427068196594616, ,0.01190041820457284,0.027198237136362866,-0.08459675987717025, ,0.0012602418701421953, ,0.008725253662796294,0.04573093853315627,-0.013657751399394683,0.12623486764881836,-0.022764790319299715,0.04322278560668018, ,0.04851786231782192, ,0.12827110747699555, ,0.0017826183859631875, ,0.15002180881468533,-0.29465315008316195,0.09553009155000002,-4.525108980396035,0.13936922976074928,-1.3260854804168556, ,0.07734062066705036,-0.44344365214238685,0.02746346813793104,0.03757684079164784,0.0,0.3208328089348234, ,0.21958398818969727
0.011482333537546493,0.026054957652479463,-0.08427068196594616, ,0.01191677243090461,0.02726679423388566,-0.084631414562778, ,0.0013369416810442918, ,0.008725253662796294,0.04573093853315627,-0.013657751399394683,0.12623486764881836,-0.022764790319299715,0.04322278560668018, ,0.04851786231782192, ,0.12827110747699555, ,0.0017787763454035418, ,0.15002180881468533,-0.29465315008316195,0.09553009155000002,-4.525108980396035,0.13936922976074928,-1.3260854804168556, ,0.07734062066705036,-0.44344365214238685,0.02746346813793104,0.03757684079164784,0.0,0.3208328089348234, ,0.2244269847869873
0.011482333537546493,0.026054957652479463,-0.08427068196594616, ,0.01193314301896791,0.027335249859748372,-0.08466608233411924, ,0.0014137605086026242, ,0.008725253662796294,0.04573093853315627,-0.013657751399394683,0.12623486764881836,-0.022764790319299715,0.04322278560668018, ,0.04851786231782192, ,0.12827110747699555, ,0.0017756565519266108, ,0.15002180881468533,-0.29465315008316195,0.09553009155000002,-4.525108980396035,0.13936922976074928,-1.3260854804168556, ,0.07734062066705036,-0.44344365214238685,0.02746346813793104,0.03757684079164784,0.0,0.3208328089348234, ,0.22615599632263184
0.011568143868631791,0.026499782706882528,-0.0844049742290088, ,0.011949529991549641,0.027403604139401728,-0.08470076335453253, ,0.00102461688616451, ,0.008559404950795038,0.04393873892610359,-0.013422877062721224,0.10250361312216019,-0.005816685446085617,-0.0031157414297991043, ,0.04673381880575257, ,0.10266851560695499, ,0.0017692918089964235, ,0.15079408210210776,-0.29893926682835653,0.09579971987000001,-4.524270220622098,0.1395058662605147,-1.3229297487149296, ,0.0754347707142057,-0.4217641847043146,0.02686140222596965,0.08402982048242,0.0,0.3298592821223625, ,0.2278449535369873
0.011568143868631791,0.026499782706882528,-0.0844049742290088, ,0.011965933371398776,0.02747185719800553,-0.08473545778684344, ,0.0011010834150066413, ,0.008559404950795038,0.04393873892610359,-0.013422877062721224,0.10250361312216019,-0.005816685446085617,-0.0031157414297991043, ,0.04673381880575257, ,0.10266851560695499, ,0.001763676612408274, ,0.15079408210210776,-0.29893926682835653,0.09579971987000001,-4.524270220622098,0.1395058662605147,-1.3229297487149296, ,0.0754347707142057,-0.4217641847043146,0.02686140222596965,0.08402982048242,0.0,0.3298592821223625, ,0.22958087921142578
0.011568143868631791,0.026499782706882528,-0.0844049742290088, ,0.011982353181226698,0.027540009160429525,-0.08477016579336477, ,0.0011777118951492615, ,0.008559404950795038,0.04393873892610359,-0.013422877062721224,0.10250361312216019,-0.005816685446085617,-0.0031157414297991043, ,0.04673381880575257, ,0.10266851560695499, ,0.0017587935730977824, ,0.15079408210210776,-0.29893926682835653,0.09579971987000001,-4.524270220622098,0.1395058662605147,-1.3229297487149296, ,0.0754347707142057,-0.4217641847043146,0.02686140222596965,0.08402982048242,0.0,0.3298592821223625, ,0.231428861618042
0.011568143868631791,0.026499782706882528,-0.0844049742290088, ,0.011998789443707022,0.027608060151253465,-0.08480488753589813, ,0.001254458113314432, ,0.008559404950795038,0.04393873892610359,-0.013422877062721224,0.10250361312216019,-0.005816685446085617,-0.0031157414297991043, ,0.04673381880575257, ,0.10266851560695499, ,0.0017546255114466803, ,0.15079408210210776,-0.29893926682835653,0.09579971987000001,-4.524270220622098,0.1395058662605147,-1.3229297487149296, ,0.0754347707142057,-0.4217641847043146,0.02686140222596965,0.08402982048242,0.0,0.3298592821223625, ,0.2332618236541748
0.011568143868631791,0.026499782706882528,-0.0844049742290088, ,0.012015242181475578,0.02767601029476737,-0.08483962317573265, ,0.0013312880780422052, ,0.008559404950795038,0.04393873892610359,-0.013422877062721224,0.10250361312216019,-0.005816685446085617,-0.0031157414297991043, ,0.04673381880575257, ,0.10266851560695499, ,0.0017511555324843484, ,0.15079408210210776,-0.29893926682835653,0.09579971987000001,-4.524270220622098,0.1395058662605147,-1.3229297487149296, ,0.0754347707142057,-0.4217641847043146,0.02686140222596965,0.08402982048242,0.0,0.3298592821223625, ,0.23502779006958008
0.011568143868631791,0.026499782706882528,-0.0844049742290088, ,0.012031711417130577,0.027743859714972653,-0.0848743728736472, ,0.001408175259571057, ,0.008559404950795038,0.04393873892610359,-0.013422877062721224,0.10250361312216019,-0.005816685446085617,-0.0031157414297991043, ,0.04673381880575257, ,0.10266851560695499, ,0.0017483670749809885, ,0.15079408210210776,-0.29893926682835653,0.09579971987000001,-4.524270220622098,0.1395058662605147,-1.3229297487149296, ,0.0754347707142057,-0.4217641847043146,0.02686140222596965,0.08402982048242,0.0,0.3298592821223625, ,0.23688483238220215
0.011568143868631791,0.026499782706882528,-0.0844049742290088, ,0.01204819717323238,0.027811608535581695,-0.08490913678990991, ,0.001485098672787288, ,0.008559404950795038,0.04393873892610359,-0.013422877062721224,0.10250361312216019,-0.005816685446085617,-0.0031157414297991043, ,0.04673381880575257, ,0.10266851560695499, ,0.0017462439427052329, ,0.15079408210210776,-0.29893926682835653,0.09579971987000001,-4.524270220622098,0.1395058662605147,-1.3229297487149296, ,0.0754347707142057,-0.4217641847043146,0.02686140222596965,0.08402982048242,0.0,0.3298592821223625, ,0.23876190185546875
0.011647763855494347,0.026896617290241034,-0.0845332050785029, ,0.0120646994723036,0.02787925688001899,-0.08494391508427884, ,0.001143721373765297, ,0.008258542406366955,0.040896778408110644,-0.013394475589748508,0.08517459708724835,-0.007043829264894855,-0.00017887942749471455, ,0.04381965293295047, ,0.08546535607214131, ,0.0017414237621537134, ,0.151489128060788,-0.30271568320385234,0.09604990384,-4.523641150791644,0.1395058662605147,-1.3198259565895882, ,0.07178286048295822,-0.38733445534069705,0.026027469803921573,0.07507615209431881,0.0,0.3116716834822114, ,0.24178600311279297
0.011647763855494347,0.026896617290241034,-0.0845332050785029, ,0.01208121833682919,0.027946804871421274,-0.08497870791600293, ,0.001220348114791447, ,0.008258542406366955,0.040896778408110644,-0.013394475589748508,0.08517459708724835,-0.007043829264894855,-0.00017887942749471455, ,0.04381965293295047, ,0.08546535607214131, ,0.0017372882411429017, ,0.151489128060788,-0.30271568320385234,0.09604990384,-4.523641150791644,0.1395058662605147,-1.3198259565895882, ,0.07178286048295822,-0.38733445534069705,0.026027469803921573,0.07507615209431881,0.0,0.3116716834822114, ,0.2436978816986084
0.011647763855494347,0.026896617290241034,-0.0845332050785029, ,0.012097753789256314,0.028014252632637984,-0.08501351544382164, ,0.0012970342116129677, ,0.008258542406366955,0.040896778408110644,-0.013394475589748508,0.08517459708724835,-0.007043829264894855,-0.00017887942749471455, ,0.04381965293295047, ,0.08546535607214131, ,0.0017338216739812488, ,0.151489128060788,-0.30271568320385234,0.09604990384,-4.523641150791644,0.1395058662605147,-1.3198259565895882, ,0.07178286048295822,-0.38733445534069705,0.026027469803921573,0.07507615209431881,0.0,0.3116716834822114, ,0.24546289443969727
0.011647763855494347,0.026896617290241034,-0.0845332050785029, ,0.01211430585199444,0.028081600286231714,-0.08504833782596685, ,0.0013737568499538417, ,0.008258542406366955,0.040896778408110644,-0.013394475589748508,0.08517459708724835,-0.007043829264894855,-0.00017887942749471455, ,0.04381965293295047, ,0.08546535607214131, ,0.0017310086675435346, ,0.151489128060788,-0.30271568320385234,0.09604990384,-4.523641150791644,0.1395058662605147,-1.3198259565895882, ,0.07178286048295822,-0.38733445534069705,0.026027469803921573,0.07507615209431881,0.0,0.3116716834822114, ,0.24726200103759766
0.0117541107567851,0.02742527067717718,-0.08471679974246818, ,0.012130874547415215,0.028148847954478723,-0.08508317522016175, ,0.0008942852010473373, ,0.008258542406366955,0.040896778408110644,-0.013394475589748508,0.08517459708724835,-0.007043829264894855,-0.00017887942749471455, ,0.04381965293295047, ,0.08546535607214131, ,0.0017245224391210835, ,0.151489128060788,-0.30271568320385234,0.09604990384,-4.523641150791644,0.1395058662605147,-1.3198259565895882, ,0.07178286048295822,-0.38733445534069705,0.026027469803921573,0.07507615209431881,0.0,0.3116716834822114, ,0.2491598129272461
0.0117541107567851,0.02742527067717718,-0.08471679974246818, ,0.012147459897852566,0.02821599575936918,-0.08511802778362258, ,0.000970027650840251, ,0.007879299347438518,0.038540577319862455,-0.014810336892423767,0.08194462267976642,-0.017495506700483193,0.03468345759876813, ,0.0420333859833101, ,0.08379148660974223, ,0.0017187186330573849, ,0.15239268780707224,-0.3076736777091045,0.09639730956,-4.52301208096119,0.1395058662605147,-1.3159870558029818, ,0.06468775839023229,-0.35541925677329883,0.02677111179831933,0.03195774079837466,0.0,0.2767473718255308, ,0.2513699531555176
0.0117541107567851,0.02742527067717718,-0.08471679974246818, ,0.012164061925602742,0.028283043822608,-0.08515289567305839, ,0.0010459514283725497, ,0.007879299347438518,0.038540577319862455,-0.014810336892423767,0.08194462267976642,-0.017495506700483193,0.03468345759876813, ,0.0420333859833101, ,0.08379148660974223, ,0.0017135830055407066, ,0.15239268780707224,-0.3076736777091045,0.09639730956,-4.52301208096119,0.1395058662605147,-1.3159870558029818, ,0.06468775839023229,-0.35541925677329883,0.02677111179831933,0.03195774079837466,0.0,0.2767473718255308, ,0.2531089782714844
0.0117541107567851,0.02742527067717718,-0.08471679974246818, ,0.012180680652924134,0.028349992265614767,-0.0851877790446721, ,0.0011220041869436567, ,0.007879299347438518,0.038540577319862455,-0.014810336892423767,0.08194462267976642,-0.017495506700483193,0.03468345759876813, ,0.0420333859833101, ,0.08379148660974223, ,0.0017091013478240623, ,0.15239268780707224,-0.3076736777091045,0.09639730956,-4.52301208096119,0.1395058662605147,-1.3159870558029818, ,0.06468775839023229,-0.35541925677329883,0.02677111179831933,0.03195774079837466,0.0,0.2767473718255308, ,0.25486278533935547
0.0117541107567851,0.02742527067717718,-0.08471679974246818, ,0.01219731610203744,0.028416841209524604,-0.08522267805416064, ,0.0011981468878734438, ,0.007879299347438518,0.038540577319862455,-0.014810336892423767,0.08194462267976642,-0.017495506700483193,0.03468345759876813, ,0.0420333859833101, ,0.08379148660974223, ,0.001705259584967291, ,0.15239268780707224,-0.3076736777091045,0.09639730956,-4.52301208096119,0.1395058662605147,-1.3159870558029818, ,0.06468775839023229,-0.35541925677329883,0.02677111179831933,0.03195774079837466,0.0,0.2767473718255308, ,0.25667381286621094
0.0117541107567851,0.02742527067717718,-0.08471679974246818, ,0.012213968295125674,0.028483590775188306,-0.08525759285671575, ,0.0012743498647704691, ,0.007879299347438518,0.038540577319862455,-0.014810336892423767,0.08194462267976642,-0.017495506700483193,0.03468345759876813, ,0.0420333859833101, ,0.08379148660974223, ,0.0017020438407867175, ,0.15239268780707224,-0.3076736777091045,0.09639730956,-4.52301208096119,0.1395058662605147,-1.3159870558029818, ,0.06468775839023229,-0.35541925677329883,0.02677111179831933,0.03195774079837466,0.0,0.2767473718255308, ,0.2584648132324219
0.011830988537862588,0.02778283739897897,-0.08486332228078455, ,0.01223063725433393,0.0285502410831731,-0.08529252360702394, ,0.0009658370926494622, ,0.008131117931762008,0.036613553754583486,-0.015340217927141044,0.06104326938226691,-0.007693660025850918,-0.002936714167188214, ,0.040521471881117245, ,0.0615261919184066, ,0.0016965904574671824, ,0.15301822916988445,-0.310924948249153,0.09665527127000001,-4.522383011130737,0.1395058662605147,-1.3132916573783433, ,0.06631512338118153,-0.33065136431522923,0.026816181010101015,0.06827304169487648,0.0,0.2784362374127586, ,0.2613029479980469
0.011830988537862588,0.02778283739897897,-0.08486332228078455, ,0.012247323001769748,0.02861679225376282,-0.08532747045926785, ,0.0010412725950699818, ,0.008131117931762008,0.036613553754583486,-0.015340217927141044,0.06104326938226691,-0.007693660025850918,-0.002936714167188214, ,0.040521471881117245, ,0.0615261919184066, ,0.0016917719437730852, ,0.15301822916988445,-0.310924948249153,0.09665527127000001,-4.522383011130737,0.1395058662605147,-1.3132916573783433, ,0.06631512338118153,-0.33065136431522923,0.026816181010101015,0.06827304169487648,0.0,0.2784362374127586, ,0.26306700706481934
0.011830988537862588,0.02778283739897897,-0.08486332228078455, ,0.012264025559502782,0.028683244406958346,-0.08536243356712593, ,0.0011168553703513843, ,0.008131117931762008,0.036613553754583486,-0.015340217927141044,0.06104326938226691,-0.007693660025850918,-0.002936714167188214, ,0.040521471881117245, ,0.0615261919184066, ,0.0016875754724342408, ,0.15301822916988445,-0.310924948249153,0.09665527127000001,-4.522383011130737,0.1395058662605147,-1.3132916573783433, ,0.06631512338118153,-0.33065136431522923,0.026816181010101015,0.06827304169487648,0.0,0.2784362374127586, ,0.26500487327575684
0.011830988537862588,0.02778283739897897,-0.08486332228078455, ,0.012280744949564937,0.02874959766247834,-0.08539741308377347, ,0.0011925431743908014, ,0.008131117931762008,0.036613553754583486,-0.015340217927141044,0.06104326938226691,-0.007693660025850918,-0.002936714167188214, ,0.040521471881117245, ,0.0615261919184066, ,0.0016839882818687085, ,0.15301822916988445,-0.310924948249153,0.09665527127000001,-4.522383011130737,0.1395058662605147,-1.3132916573783433, ,0.06631512338118153,-0.33065136431522923,0.026816181010101015,0.06827304169487648,0.0,0.2784362374127586, ,0.26680779457092285
0.011830988537862588,0.02778283739897897,-0.08486332228078455, ,0.012297481193950442,0.028815852139759256,-0.08543240916188305, ,0.0012683038796328255, ,0.008131117931762008,0.036613553754583486,-0.015340217927141044,0.06104326938226691,-0.007693660025850918,-0.002936714167188214, ,0.040521471881117245, ,0.0615261919184066, ,0.0016809977466008246, ,0.15301822916988445,-0.310924948249153,0.09665527127000001,-4.522383011130737,0.1395058662605147,-1.3132916573783433, ,0.06631512338118153,-0.33065136431522923,0.026816181010101015,0.06827304169487648,0.0,0.2784362374127586, ,0.26851677894592285
0.011915065861605489,0.02814372218443415,-0.0850287321429008, ,0.012314234314615669,0.028882007957956257,-0.08546742195362486, ,0.0009470216931500506, ,0.008708320823923825,0.03514721936643298,-0.018488593764851225,0.024689434995772048,-0.005257531632589688,-0.011767673457479751, ,0.040656979476668485, ,0.02524297286279087, ,0.0016757550605047476, ,0.15369010692994198,-0.3141221596590819,0.09693397362000002,-4.521544251356799,0.1395058662605147,-1.3105145802135643, ,0.06706497636641044,-0.30221955910341014,0.02949779911111111,0.07374127237950871,0.0,0.2875870786807597, ,0.27022290229797363
0.011915065861605489,0.02814372218443415,-0.0850287321429008, ,0.012331004333479348,0.028948065235943135,-0.08550245161066702, ,0.0010219504347258044, ,0.008708320823923825,0.03514721936643298,-0.018488593764851225,0.024689434995772048,-0.005257531632589688,-0.011767673457479751, ,0.040656979476668485, ,0.02524297286279087, ,0.0016711181482651806, ,0.15369010692994198,-0.3141221596590819,0.09693397362000002,-4.521544251356799,0.1395058662605147,-1.3105145802135643, ,0.06706497636641044,-0.30221955910341014,0.02949779911111111,0.07374127237950871,0.0,0.2875870786807597, ,0.271960973739624
0.011915065861605489,0.02814372218443415,-0.0850287321429008, ,0.012347791272422328,0.02901402409231318,-0.08553749828417713, ,0.0010970504448445792, ,0.008708320823923825,0.03514721936643298,-0.018488593764851225,0.024689434995772048,-0.005257531632589688,-0.011767673457479751, ,0.040656979476668485, ,0.02524297286279087, ,0.0016670754179594017, ,0.15369010692994198,-0.3141221596590819,0.09693397362000002,-4.521544251356799,0.1395058662605147,-1.3105145802135643, ,0.06706497636641044,-0.30221955910341014,0.02949779911111111,0.07374127237950871,0.0,0.2875870786807597, ,0.27362680435180664
0.011915065861605489,0.02814372218443415,-0.0850287321429008, ,0.012364595153287784,0.029079884645379545,-0.08557256212482117, ,0.0011722746208117092, ,0.008708320823923825,0.03514721936643298,-0.018488593764851225,0.024689434995772048,-0.005257531632589688,-0.011767673457479751, ,0.040656979476668485, ,0.02524297286279087, ,0.0016636152725248024, ,0.15369010692994198,-0.3141221596590819,0.09693397362000002,-4.521544251356799,0.1395058662605147,-1.3105145802135643, ,0.06706497636641044,-0.30221955910341014,0.02949779911111111,0.07374127237950871,0.0,0.2875870786807597, ,0.2753868103027344
0.011915065861605489,0.02814372218443415,-0.0850287321429008, ,0.012381415997881085,0.02914564701317537,-0.08560764328276545, ,0.0012475872393992236, ,0.008708320823923825,0.03514721936643298,-0.018488593764851225,0.024689434995772048,-0.005257531632589688,-0.011767673457479751, ,0.040656979476668485, ,0.02524297286279087, ,0.0016607261889614302, ,0.15369010692994198,-0.3141221596590819,0.09693397362000002,-4.521544251356799,0.1395058662605147,-1.3105145802135643, ,0.06706497636641044,-0.30221955910341014,0.02949779911111111,0.07374127237950871,0.0,0.2875870786807597, ,0.27738380432128906
0.011987513924823872,0.028424452390675543,-0.08519275141535666, ,0.012398253827969866,0.02921131131345467,-0.08564274190767625, ,0.000995161130456535, ,0.008708320823923825,0.03514721936643298,-0.018488593764851225,0.024689434995772048,-0.005257531632589688,-0.011767673457479751, ,0.040656979476668485, ,0.02524297286279087, ,0.0016561360851096725, ,0.15421525276538922,-0.3164775931857204,0.09718545388000001,-4.52112487146983,0.13936922976074928,-1.3079528001056508, ,0.06334909316319812,-0.2807601821256532,0.0325077786122449,0.038783989209323876,0.0,0.30893987297827313, ,0.2791938781738281
0.011987513924823872,0.028424452390675543,-0.08519275141535666, ,0.012415108665283954,0.02927687766369252,-0.08567785814872074, ,0.001069950770317195, ,0.008923400192785653,0.03431480803570771,-0.021865304674278458,-0.022756324790786375,-0.009363538857862869,0.018754988953872766, ,0.041656028015487755, ,0.024607339964741223, ,0.001652121117200135, ,0.15421525276538922,-0.3164775931857204,0.09718545388000001,-4.52112487146983,0.13936922976074928,-1.3079528001056508, ,0.06334909316319812,-0.2807601821256532,0.0325077786122449,0.038783989209323876,0.0,0.30893987297827313, ,0.2812058925628662
0.011987513924823872,0.028424452390675543,-0.08519275141535666, ,0.012431980531515454,0.02934234618108536,-0.08571299215456755, ,0.0011448711725218369, ,0.008923400192785653,0.03431480803570771,-0.021865304674278458,-0.022756324790786375,-0.009363538857862869,0.018754988953872766, ,0.041656028015487755, ,0.024607339964741223, ,0.0016486704373043642, ,0.15421525276538922,-0.3164775931857204,0.09718545388000001,-4.52112487146983,0.13936922976074928,-1.3079528001056508, ,0.06334909316319812,-0.2807601821256532,0.0325077786122449,0.038783989209323876,0.0,0.30893987297827313, ,0.28298377990722656
0.011987513924823872,0.028424452390675543,-0.08519275141535666, ,0.012448869448318745,0.029407716982551953,-0.08574814407338655, ,0.001219884904935957, ,0.008923400192785653,0.03431480803570771,-0.021865304674278458,-0.022756324790786375,-0.009363538857862869,0.018754988953872766, ,0.041656028015487755, ,0.024607339964741223, ,0.0016457732377613344, ,0.15421525276538922,-0.3164775931857204,0.09718545388000001,-4.52112487146983,0.13936922976074928,-1.3079528001056508, ,0.06334909316319812,-0.2807601821256532,0.0325077786122449,0.038783989209323876,0.0,0.30893987297827313, ,0.2847177982330322
0.011987513924823872,0.028424452390675543,-0.08519275141535666, ,0.01246577543731029,0.029472990184733178,-0.08578331405285053, ,0.001294963246079501, ,0.008923400192785653,0.03431480803570771,-0.021865304674278458,-0.022756324790786375,-0.009363538857862869,0.018754988953872766, ,0.041656028015487755, ,0.024607339964741223, ,0.0016434188082869597, ,0.15421525276538922,-0.3164775931857204,0.09718545388000001,-4.52112487146983,0.13936922976074928,-1.3079528001056508, ,0.06334909316319812,-0.2807601821256532,0.0325077786122449,0.038783989209323876,0.0,0.30893987297827313, ,0.28673577308654785
0.011987513924823872,0.028424452390675543,-0.08519275141535666, ,0.012482698520068945,0.02953816590399285,-0.08581850224013472, ,0.0013700838178097095, ,0.008923400192785653,0.03431480803570771,-0.021865304674278458,-0.022756324790786375,-0.009363538857862869,0.018754988953872766, ,0.041656028015487755, ,0.024607339964741223, ,0.0016415965750171113, ,0.15421525276538922,-0.3164775931857204,0.09718545388000001,-4.52112487146983,0.13936922976074928,-1.3079528001056508, ,0.06334909316319812,-0.2807601821256532,0.0325077786122449,0.038783989209323876,0.0,0.30893987297827313, ,0.2885119915008545
0.01208970000452567,0.02879813414480466,-0.08544214265696928, ,0.012499638718135697,0.029603244256418408,-0.08585370878191786, ,0.000992793390360822, ,0.009023915177489648,0.03317081317856142,-0.022875911717720552,-0.04998549050996664,-0.002459488400453005,-0.0038558036554531896, ,0.04129214488222302, ,0.05004589973346958, ,0.0016372998651849504, ,0.1549257441898179,-0.3194817362737937,0.09755100766000001,-4.520495801639376,0.1392325932609838,-1.3041658388956292, ,0.061943173341038375,-0.26287241428939273,0.033185024,0.05955578133705669,-0.0030262071060032075,0.3212244741216737, ,0.2903008460998535
0.01208970000452567,0.02879813414480466,-0.08544214265696928, ,0.012516596053013798,0.02966822535782054,-0.08588893382438247, ,0.0010672025592457397, ,0.009023915177489648,0.03317081317856142,-0.022875911717720552,-0.04998549050996664,-0.002459488400453005,-0.0038558036554531896, ,0.04129214488222302, ,0.05004589973346958, ,0.0016335492250142978, ,0.1549257441898179,-0.3194817362737937,0.09755100766000001,-4.520495801639376,0.1392325932609838,-1.3041658388956292, ,0.061943173341038375,-0.26287241428939273,0.033185024,0.05955578133705669,-0.0030262071060032075,0.3212244741216737, ,0.2920188903808594
0.01208970000452567,0.02879813414480466,-0.08544214265696928, ,0.012533570546168766,0.029733109323734484,-0.0859241775132153, ,0.0011417343147989828, ,0.009023915177489648,0.03317081317856142,-0.022875911717720552,-0.04998549050996664,-0.002459488400453005,-0.0038558036554531896, ,0.04129214488222302, ,0.05004589973346958, ,0.0016303347484769427, ,0.1549257441898179,-0.3194817362737937,0.09755100766000001,-4.520495801639376,0.1392325932609838,-1.3041658388956292, ,0.061943173341038375,-0.26287241428939273,0.033185024,0.05955578133705669,-0.0030262071060032075,0.3212244741216737, ,0.2937929630279541
0.01208970000452567,0.02879813414480466,-0.08544214265696928, ,0.012550562219028233,0.029797896269419883,-0.08595943999360807, ,0.0012163530824003904, ,0.009023915177489648,0.03317081317856142,-0.022875911717720552,-0.04998549050996664,-0.002459488400453005,-0.0038558036554531896, ,0.04129214488222302, ,0.05004589973346958, ,0.001627646555840082, ,0.1549257441898179,-0.3194817362737937,0.09755100766000001,-4.520495801639376,0.1392325932609838,-1.3041658388956292, ,0.061943173341038375,-0.26287241428939273,0.033185024,0.05955578133705669,-0.0030262071060032075,0.3212244741216737, ,0.29560089111328125
0.01208970000452567,0.02879813414480466,-0.08544214265696928, ,0.012567571092982175,0.029862586309861713,-0.08599472141025777, ,0.0012910315516915561, ,0.009023915177489648,0.03317081317856142,-0.022875911717720552,-0.04998549050996664,-0.002459488400453005,-0.0038558036554531896, ,0.04129214488222302, ,0.05004589973346958, ,0.0016254748461358981, ,0.1549257441898179,-0.3194817362737937,0.09755100766000001,-4.520495801639376,0.1392325932609838,-1.3041658388956292, ,0.061943173341038375,-0.26287241428939273,0.033185024,0.05955578133705669,-0.0030262071060032075,0.3212244741216737, ,0.29742980003356934
0.012161186555754409,0.02906071126807872,-0.08562621810103362, ,0.01258459718938271,0.029927179559770225,-0.08603002190736751, ,0.001045514887118333, ,0.008672225550178166,0.03169055009643525,-0.02265126041997017,-0.0638176730127728,0.011494668142050496,-0.03437502454914804, ,0.03990711791173527, ,0.06484455891978505, ,0.0016217571540909138, ,0.15541227636089402,-0.3215437059512117,0.09781674711,-4.519866731808922,0.1392325932609838,-1.301715476691412, ,0.05797003149570604,-0.24648556248953452,0.0325077786122449,0.08967154282367891,-0.0030262071060032075,0.3233202708551649, ,0.30038881301879883
0.012161186555754409,0.02906071126807872,-0.08562621810103362, ,0.01260164052954428,0.029991676133581703,-0.08606534162864664, ,0.0011196091980381299, ,0.008672225550178166,0.03169055009643525,-0.02265126041997017,-0.0638176730127728,0.011494668142050496,-0.03437502454914804, ,0.03990711791173527, ,0.06484455891978505, ,0.0016185587594663737, ,0.15541227636089402,-0.3215437059512117,0.09781674711,-4.519866731808922,0.1392325932609838,-1.301715476691412, ,0.05797003149570604,-0.24648556248953452,0.0325077786122449,0.08967154282367891,-0.0030262071060032075,0.3233202708551649, ,0.30233097076416016
0.012161186555754409,0.02906071126807872,-0.08562621810103362, ,0.012618701134743395,0.030056076145458945,-0.08610068071731128, ,0.0011938113767905993, ,0.008672225550178166,0.03169055009643525,-0.02265126041997017,-0.0638176730127728,0.011494668142050496,-0.03437502454914804, ,0.03990711791173527, ,0.06484455891978505, ,0.0016158704848924764, ,0.15541227636089402,-0.3215437059512117,0.09781674711,-4.519866731808922,0.1392325932609838,-1.301715476691412, ,0.05797003149570604,-0.24648556248953452,0.0325077786122449,0.08967154282367891,-0.0030262071060032075,0.3233202708551649, ,0.3041398525238037
0.012161186555754409,0.02906071126807872,-0.08562621810103362, ,0.012635779026218898,0.030120379709291434,-0.08613603931608503, ,0.0012680902529553148, ,0.008672225550178166,0.03169055009643525,-0.02265126041997017,-0.0638176730127728,0.011494668142050496,-0.03437502454914804, ,0.03990711791173527, ,0.06484455891978505, ,0.0016136831878362677, ,0.15541227636089402,-0.3215437059512117,0.09781674711,-4.519866731808922,0.1392325932609838,-1.301715476691412, ,0.05797003149570604,-0.24648556248953452,0.0325077786122449,0.08967154282367891,-0.0030262071060032075,0.3233202708551649, ,0.3059389591217041
0.012161186555754409,0.02906071126807872,-0.08562621810103362, ,0.012652874225171857,0.03018458693869591,-0.08617141756719954, ,0.0013424215974015042, ,0.008672225550178166,0.03169055009643525,-0.02265126041997017,-0.0638176730127728,0.011494668142050496,-0.03437502454914804, ,0.03990711791173527, ,0.06484455891978505, ,0.0016119878028960505, ,0.15541227636089402,-0.3215437059512117,0.09781674711,-4.519866731808922,0.1392325932609838,-1.301715476691412, ,0.05797003149570604,-0.24648556248953452,0.0325077786122449,0.08967154282367891,-0.0030262071060032075,0.3233202708551649, ,0.30769991874694824
0.012161186555754409,0.02906071126807872,-0.08562621810103362, ,0.012669986752765502,0.030248697947016987,-0.08620681561239484, ,0.001416786314167435, ,0.008672225550178166,0.03169055009643525,-0.02265126041997017,-0.0638176730127728,0.011494668142050496,-0.03437502454914804, ,0.03990711791173527, ,0.06484455891978505, ,0.0016107753712890404, ,0.15613821325107113,-0.3245324035735366,0.09822637475000001,-4.519027972034984,0.1392325932609838,-1.2975498609442435, ,0.05546285304410916,-0.2191615278486623,0.03141777420118344,0.06544308164176582,-0.0028210298213028895,0.313909365307792, ,0.3093888759613037
0.012270300378675362,0.029450636529005148,-0.08591435119270859, ,0.012687116630125313,0.030312712847327256,-0.08624223359291978, ,0.001012135482261563, ,0.008429095739722281,0.029109783076560564,-0.02233197493359689,-0.08500720835940165,0.005507985964348357,-0.015985181475496747, ,0.037645002725310246, ,0.0851854320178121, ,0.0016070800633320808, ,0.15613821325107113,-0.3245324035735366,0.09822637475000001,-4.519027972034984,0.1392325932609838,-1.2975498609442435, ,0.05546285304410916,-0.2191615278486623,0.03141777420118344,0.06544308164176582,-0.0028210298213028895,0.313909365307792, ,0.31110692024230957
0.012270300378675362,0.029450636529005148,-0.08591435119270859, ,0.012704263878338978,0.030376631752428225,-0.08627767164953293, ,0.0010852618242570306, ,0.008429095739722281,0.029109783076560564,-0.02233197493359689,-0.08500720835940165,0.005507985964348357,-0.015985181475496747, ,0.037645002725310246, ,0.0851854320178121, ,0.00160387872444205, ,0.15613821325107113,-0.3245324035735366,0.09822637475000001,-4.519027972034984,0.1392325932609838,-1.2975498609442435, ,0.05546285304410916,-0.2191615278486623,0.03141777420118344,0.06544308164176582,-0.0028210298213028895,0.313909365307792, ,0.3128039836883545
0.012270300378675362,0.029450636529005148,-0.08591435119270859, ,0.012721428518456401,0.03044045477485002,-0.08631312992250226, ,0.0011585686141293383, ,0.008429095739722281,0.029109783076560564,-0.02233197493359689,-0.08500720835940165,0.005507985964348357,-0.015985181475496747, ,0.037645002725310246, ,0.0851854320178121, ,0.0016011634188913626, ,0.15613821325107113,-0.3245324035735366,0.09822637475000001,-4.519027972034984,0.1392325932609838,-1.2975498609442435, ,0.05546285304410916,-0.2191615278486623,0.03141777420118344,0.06544308164176582,-0.0028210298213028895,0.313909365307792, ,0.3146548271179199
0.012270300378675362,0.029450636529005148,-0.08591435119270859, ,0.012738610571489662,0.030504182026852424,-0.08634860855160698, ,0.0012320113662160099, ,0.008429095739722281,0.029109783076560564,-0.02233197493359689,-0.08500720835940165,0.005507985964348357,-0.015985181475496747, ,0.037645002725310246, ,0.0851854320178121, ,0.0015989261337236334, ,0.15613821325107113,-0.3245324035735366,0.09822637475000001,-4.519027972034984,0.1392325932609838,-1.2975498609442435, ,0.05546285304410916,-0.2191615278486623,0.03141777420118344,0.06544308164176582,-0.0028210298213028895,0.313909365307792, ,0.31653785705566406
