NicholasDascanio/dvrk_moveit_final/test/execution/noob_justexecution/no_ramp/noob__noramp_500vel5.csv
Current Position (x),Current Position (y),Current Position (z), ,Planned Position (x),Planned Position (y),Planned Position (z), ,Position Error,,Cartesian linear Velocity(x),Cartesian linear Velocity(y),Cartesian linear Velocity(z),Cartesian Angular Velocity(x),Cartesian Angular Velocity(y),Cartesian Angular Velocity(z), ,Total Linear Velocity, ,Total Angular Velocity, ,MSE, ,Joint 1 Position,Joint 2 Position,Joint 3 Position,Joint 4 Position,Joint 5 Position,Joint 6 Position, ,Joint 1 Velocity,Joint 2 Velocity,Joint 3 Velocity,Joint 4 Velocity,Joint 5 Velocity,Joint 6 Velocity, ,Time Stamp
0.010177889751521374,0.018790486842929527,-0.0807229152504073, ,0.010244256576229932,0.018836350470558948,-0.08083785626687612, ,0.0001404260126476294, ,-5.1102946121991414e-05,-2.7455066093092103e-05,-7.970925941014455e-06,0.0005310415980516191,0.0008990512847657733,0.0025916233389140365, ,5.8556190252443424e-05, ,0.001044173544723388, ,7.02130063238147e-05, ,0.1461681651104473,-0.22335688018832128,0.09014919176000001,-4.533496578135416,0.18965146167443137,-1.1821666012989058, ,-0.0005036490463780791,0.0002945424965561519,-2.9644344146374178e-06,-0.0025314763774668607,0.0011345109538633885,-0.001030135606477754, ,0.0024089813232421875
0.010177214481033037,0.018790141653763637,-0.08072308073996816, ,0.010265049296463765,0.018949824881220073,-0.08088559405945675, ,0.00024418080789418133, ,-3.6978902181798686e-05,-2.9098187265839986e-05,-6.631952408829467e-06,0.00028598112566519064,0.00032783305671557866,0.004244143375294133, ,4.751974854186317e-05, ,0.00043503990312637915, ,0.0001282022735139369, ,0.14616044237757306,-0.22335688018832128,0.09014919176000001,-4.533706268078901,0.18965146167443137,-1.1821666012989058, ,-0.000324722543391294,0.00027991175629750453,-2.9302339164249777e-06,-0.004244840718804615,0.0011190838943638635,-0.0010161884141808631, ,0.00496220588684082
0.010177214481033037,0.018790141653763637,-0.08072308073996816, ,0.010285868591219383,0.01906306536551566,-0.08093331845445717, ,0.00036123809972157036, ,-3.6978902181798686e-05,-2.9098187265839986e-05,-6.631952408829467e-06,0.00028598112566519064,0.00032783305671557866,0.004244143375294133, ,4.751974854186317e-05, ,0.00043503990312637915, ,0.00018646123006584527, ,0.14616044237757306,-0.22335688018832128,0.09014919176000001,-4.533706268078901,0.18965146167443137,-1.1821666012989058, ,-0.000324722543391294,0.00027991175629750453,-2.9302339164249777e-06,-0.004244840718804615,0.0011190838943638635,-0.0010161884141808631, ,0.007330179214477539
0.010177214481033037,0.018790141653763637,-0.08072308073996816, ,0.010306714533504485,0.019176072381863977,-0.08098103005195423, ,0.0004819238923691717, ,-3.6978902181798686e-05,-2.9098187265839986e-05,-6.631952408829467e-06,0.00028598112566519064,0.00032783305671557866,0.004244143375294133, ,4.751974854186317e-05, ,0.00043503990312637915, ,0.00024555376252651055, ,0.14616044237757306,-0.22335688018832128,0.09014919176000001,-4.533706268078901,0.18965146167443137,-1.1821666012989058, ,-0.000324722543391294,0.00027991175629750453,-2.9302339164249777e-06,-0.004244840718804615,0.0011190838943638635,-0.0010161884141808631, ,0.00965118408203125
0.010177214481033037,0.018790141653763637,-0.08072308073996816, ,0.010327587196184372,0.01928884638733108,-0.08102872944986983, ,0.000603936667713688, ,-3.6978902181798686e-05,-2.9098187265839986e-05,-6.631952408829467e-06,0.00028598112566519064,0.00032783305671557866,0.004244143375294133, ,4.751974854186317e-05, ,0.00043503990312637915, ,0.0003052842467243735, ,0.14616044237757306,-0.22335688018832128,0.09014919176000001,-4.533706268078901,0.18965146167443137,-1.1821666012989058, ,-0.000324722543391294,0.00027991175629750453,-2.9302339164249777e-06,-0.004244840718804615,0.0011190838943638635,-0.0010161884141808631, ,0.011979103088378906
0.01017768772437771,0.01879722737118326,-0.08072673411973855, ,0.010348486651983426,0.019401387837633066,-0.08107641724397384, ,0.0007186518143489681, ,0.00028216195026724587,0.002801477468697653,-0.0013484939989799347,-0.13221641639129217,0.021755788642525274,0.013724020499347773, ,0.003121910863411081, ,0.13399438459431545, ,0.00036433675638502985, ,0.14616044237757306,-0.22343410751706352,0.09015437692000002,-4.533915958022385,0.18965146167443137,-1.1815948501179219, ,0.0011221406443709713,-0.028976165361365123,0.001970655885191142,0.0038657699517311486,0.0011038903361707375,0.16346050957594271, ,0.014333009719848633
0.01017768772437771,0.01879722737118326,-0.08072673411973855, ,0.010369412973482666,0.019513697187138225,-0.08112409402788735, ,0.0008414169388138826, ,0.00028216195026724587,0.002801477468697653,-0.0013484939989799347,-0.13221641639129217,0.021755788642525274,0.013724020499347773, ,0.003121910863411081, ,0.13399438459431545, ,0.00042397177918863645, ,0.14616044237757306,-0.22343410751706352,0.09015437692000002,-4.533915958022385,0.18965146167443137,-1.1815948501179219, ,0.0011221406443709713,-0.028976165361365123,0.001970655885191142,0.0038657699517311486,0.0011038903361707375,0.16346050957594271, ,0.017147064208984375
0.01017768772437771,0.01879722737118326,-0.08072673411973855, ,0.010390366233122473,0.019625774888869917,-0.0811717603930835, ,0.0009642466080385858, ,0.00028216195026724587,0.002801477468697653,-0.0013484939989799347,-0.13221641639129217,0.021755788642525274,0.013724020499347773, ,0.003121910863411081, ,0.13399438459431545, ,0.00048400231572751974, ,0.14616044237757306,-0.22343410751706352,0.09015437692000002,-4.533915958022385,0.18965146167443137,-1.1815948501179219, ,0.0011221406443709713,-0.028976165361365123,0.001970655885191142,0.0038657699517311486,0.0011038903361707375,0.16346050957594271, ,0.019785165786743164
0.01017768772437771,0.01879722737118326,-0.08072673411973855, ,0.010411346503200393,0.01973762139450882,-0.08121941692889309, ,0.0010870481564603054, ,0.00028216195026724587,0.002801477468697653,-0.0013484939989799347,-0.13221641639129217,0.021755788642525274,0.013724020499347773, ,0.003121910863411081, ,0.13399438459431545, ,0.0005443068998007983, ,0.14616044237757306,-0.22343410751706352,0.09015437692000002,-4.533915958022385,0.18965146167443137,-1.1815948501179219, ,0.0011221406443709713,-0.028976165361365123,0.001970655885191142,0.0038657699517311486,0.0011038903361707375,0.16346050957594271, ,0.022047996520996094
0.010186198569242614,0.018845238173178815,-0.080753783903228, ,0.010432353855872588,0.01984923715439526,-0.08126706422250465, ,0.0011541503652368194, ,0.002502090615351397,0.007360819574605507,-0.006259788234233961,-0.7711692277860064,-0.012326807570851445,-0.02320006092243418, ,0.009981336132741901, ,0.7712677408392903, ,0.0005997472148404365, ,0.14618361057619575,-0.22391291695526544,0.09019196933000001,-4.533286888191932,0.18937818867490044,-1.1788399733661716, ,0.004319911321251573,-0.0701900455314133,0.0064177322804190185,0.041769669977140794,-0.0014352747485870507,0.5399402158165905, ,0.024407148361206055
0.010186198569242614,0.018845238173178815,-0.080753783903228, ,0.01045338836315274,0.019960622617531735,-0.08131470285896863, ,0.0012767548392637362, ,0.002502090615351397,0.007360819574605507,-0.006259788234233961,-0.7711692277860064,-0.012326807570851445,-0.02320006092243418, ,0.009981336132741901, ,0.7712677408392903, ,0.0006561645168757115, ,0.14618361057619575,-0.22391291695526544,0.09019196933000001,-4.533286888191932,0.18937818867490044,-1.1788399733661716, ,0.004319911321251573,-0.0701900455314133,0.0064177322804190185,0.041769669977140794,-0.0014352747485870507,0.5399402158165905, ,0.026890039443969727
0.010186198569242614,0.018845238173178815,-0.080753783903228, ,0.0104744500969129,0.020071778231585458,-0.08136233342119957, ,0.0013992219173182827, ,0.002502090615351397,0.007360819574605507,-0.006259788234233961,-0.7711692277860064,-0.012326807570851445,-0.02320006092243418, ,0.009981336132741901, ,0.7712677408392903, ,0.000713322778448217, ,0.14618361057619575,-0.22391291695526544,0.09019196933000001,-4.533286888191932,0.18937818867490044,-1.1788399733661716, ,0.004319911321251573,-0.0701900455314133,0.0064177322804190185,0.041769669977140794,-0.0014352747485870507,0.5399402158165905, ,0.02918219566345215
0.010186198569242614,0.018845238173178815,-0.080753783903228, ,0.01049553912888341,0.020182704442890533,-0.08140995648997901, ,0.0015215354310889257, ,0.002502090615351397,0.007360819574605507,-0.006259788234233961,-0.7711692277860064,-0.012326807570851445,-0.02320006092243418, ,0.009981336132741901, ,0.7712677408392903, ,0.0007710522536368391, ,0.14618361057619575,-0.22391291695526544,0.09019196933000001,-4.533286888191932,0.18937818867490044,-1.1788399733661716, ,0.004319911321251573,-0.0701900455314133,0.0064177322804190185,0.041769669977140794,-0.0014352747485870507,0.5399402158165905, ,0.03168010711669922
0.010186198569242614,0.018845238173178815,-0.080753783903228, ,0.010516655530652251,0.02029340169645075,-0.08145757264395834, ,0.0016436842717073939, ,0.002502090615351397,0.007360819574605507,-0.006259788234233961,-0.7711692277860064,-0.012326807570851445,-0.02320006092243418, ,0.009981336132741901, ,0.7712677408392903, ,0.0008292277215082094, ,0.14618361057619575,-0.22391291695526544,0.09019196933000001,-4.533286888191932,0.18937818867490044,-1.1788399733661716, ,0.004319911321251573,-0.0701900455314133,0.0064177322804190185,0.041769669977140794,-0.0014352747485870507,0.5399402158165905, ,0.03412008285522461
0.01023664185340953,0.018984231700825346,-0.08096627230407177, ,0.010537799373665006,0.020403870435941565,-0.08150518245966085, ,0.0015480614154631733, ,0.004258638616613266,0.01479562597127896,-0.0256531896023124,-1.0290932757868207,0.22706760782138335,-0.01794344115098182, ,0.0299187681484563, ,1.0538466006405103, ,0.0008741548273803947, ,0.14627628337068643,-0.2249400404275373,0.09043307927000001,-4.531399678700571,0.18814846017701148,-1.1645235775899923, ,0.011310720090401762,-0.09905735026980249,0.02875236736462094,0.14294872348452656,0.056030715165332395,1.1692566244772826, ,0.03687715530395508
0.01023664185340953,0.018984231700825346,-0.08096627230407177, ,0.01055897072922641,0.020514111103712967,-0.08155278651148536, ,0.0016698580200313852, ,0.004258638616613266,0.01479562597127896,-0.0256531896023124,-1.0290932757868207,0.22706760782138335,-0.01794344115098182, ,0.0299187681484563, ,1.0538466006405103, ,0.0009209608975363354, ,0.14627628337068643,-0.2249400404275373,0.09043307927000001,-4.531399678700571,0.18814846017701148,-1.1645235775899923, ,0.011310720090401762,-0.09905735026980249,0.02875236736462094,0.14294872348452656,0.056030715165332395,1.1692566244772826, ,0.039247989654541016
0.01023664185340953,0.018984231700825346,-0.08096627230407177, ,0.010580169668498287,0.02062412414079163,-0.08160038537170851, ,0.0017914681010126564, ,0.004258638616613266,0.01479562597127896,-0.0256531896023124,-1.0290932757868207,0.22706760782138335,-0.01794344115098182, ,0.0299187681484563, ,1.0538466006405103, ,0.0009693224088405754, ,0.14627628337068643,-0.2249400404275373,0.09043307927000001,-4.531399678700571,0.18814846017701148,-1.1645235775899923, ,0.011310720090401762,-0.09905735026980249,0.02875236736462094,0.14294872348452656,0.056030715165332395,1.1692566244772826, ,0.04191398620605469
0.01023664185340953,0.018984231700825346,-0.08096627230407177, ,0.01060139626250107,0.02073390998688349,-0.08164797961048667, ,0.0019128891068942119, ,0.004258638616613266,0.01479562597127896,-0.0256531896023124,-1.0290932757868207,0.22706760782138335,-0.01794344115098182, ,0.0299187681484563, ,1.0538466006405103, ,0.0010189838140012932, ,0.14640756982954825,-0.22610617309154518,0.09076752209000001,-4.530560918926633,0.1911544631718512,-1.1544779242298076, ,0.01221324859182378,-0.12823911021414972,0.03603803511312218,0.05094536896878002,0.45329085019377224,0.8612088187409448, ,0.044463157653808594
0.01026476145411027,0.01915929238233638,-0.08126287075573282, ,0.010622650582111957,0.02084346908037604,-0.08169556979586076, ,0.0017753208829643214, ,0.001694866912267577,0.019203327676457316,-0.03183046408243764,-0.6503308701672058,0.5459990434296734,0.15076797068090192, ,0.037213153741695204, ,0.8491437825501694, ,0.0010568006674494446, ,0.14640756982954825,-0.22610617309154518,0.09076752209000001,-4.530560918926633,0.1911544631718512,-1.1544779242298076, ,0.01221324859182378,-0.12823911021414972,0.03603803511312218,0.05094536896878002,0.45329085019377224,0.8612088187409448, ,0.047103166580200195
0.01026476145411027,0.01915929238233638,-0.08126287075573282, ,0.010643932698068105,0.020952801858340954,-0.08174315649375619, ,0.001895025451784588, ,0.001694866912267577,0.019203327676457316,-0.03183046408243764,-0.6503308701672058,0.5459990434296734,0.15076797068090192, ,0.037213153741695204, ,0.8491437825501694, ,0.0010967161333701656, ,0.14640756982954825,-0.22610617309154518,0.09076752209000001,-4.530560918926633,0.1911544631718512,-1.1544779242298076, ,0.01221324859182378,-0.12823911021414972,0.03603803511312218,0.05094536896878002,0.45329085019377224,0.8612088187409448, ,0.049591064453125
0.01026476145411027,0.01915929238233638,-0.08126287075573282, ,0.010665242680963107,0.021061908756536324,-0.08179074026798813, ,0.002014691167996712, ,0.001694866912267577,0.019203327676457316,-0.03183046408243764,-0.6503308701672058,0.5459990434296734,0.15076797068090192, ,0.037213153741695204, ,0.8491437825501694, ,0.001138442271307736, ,0.14640756982954825,-0.22610617309154518,0.09076752209000001,-4.530560918926633,0.1911544631718512,-1.1544779242298076, ,0.01221324859182378,-0.12823911021414972,0.03603803511312218,0.05094536896878002,0.45329085019377224,0.8612088187409448, ,0.05195116996765137
0.01026476145411027,0.01915929238233638,-0.08126287075573282, ,0.010686580601249338,0.021170790209409204,-0.0818383216802623, ,0.0021342911394075666, ,0.0017654828332773482,0.024562338586619527,-0.03559325288960789,-0.3795336552844897,0.6703293836926953,0.048054377429246176, ,0.037213153741695204, ,0.8491437825501694, ,0.0011817400481816415, ,0.14640756982954825,-0.22610617309154518,0.09076752209000001,-4.530560918926633,0.1911544631718512,-1.1544779242298076, ,0.01221324859182378,-0.12823911021414972,0.03603803511312218,0.05094536896878002,0.45329085019377224,0.8612088187409448, ,0.054923057556152344
0.01028030027865189,0.019377020077739116,-0.08160306273135841, ,0.01070794652923658,0.02127944665009803,-0.08188590129017884, ,0.0019703060242541137, ,0.0017654828332773482,0.024562338586619527,-0.03559325288960789,-0.3795336552844897,0.6703293836926953,0.048054377429246176, ,0.04328169425683237, ,0.7703163123086719, ,0.001214596963851328, ,0.14656202448703273,-0.22752715594040251,0.09114214990000001,-4.529302779265726,0.19634665016293792,-1.1472767809505928, ,0.01935487284488492,-0.17006620350980425,0.04105363793814434,0.18675432466428268,0.5850136965567011,0.6609624029657581, ,0.05752921104431152
0.01028030027865189,0.019377020077739116,-0.08160306273135841, ,0.010729340535093166,0.021387878510435117,-0.08193347965523486, ,0.0020867113197166106, ,0.0017654828332773482,0.024562338586619527,-0.03559325288960789,-0.3795336552844897,0.6703293836926953,0.048054377429246176, ,0.04328169425683237, ,0.7703163123086719, ,0.0012494815380859393, ,0.14656202448703273,-0.22752715594040251,0.09114214990000001,-4.529302779265726,0.19634665016293792,-1.1472767809505928, ,0.01935487284488492,-0.17006620350980425,0.04105363793814434,0.18675432466428268,0.5850136965567011,0.6609624029657581, ,0.05979418754577637
0.01028030027865189,0.019377020077739116,-0.08160306273135841, ,0.010750762688844562,0.021496086220948885,-0.08198105733082647, ,0.002203328417628486, ,0.0017654828332773482,0.024562338586619527,-0.03559325288960789,-0.3795336552844897,0.6703293836926953,0.048054377429246176, ,0.04328169425683237, ,0.7703163123086719, ,0.0012861679565298832, ,0.14656202448703273,-0.22752715594040251,0.09114214990000001,-4.529302779265726,0.19634665016293792,-1.1472767809505928, ,0.01935487284488492,-0.17006620350980425,0.04105363793814434,0.18675432466428268,0.5850136965567011,0.6609624029657581, ,0.062052011489868164
0.01028030027865189,0.019377020077739116,-0.08160306273135841, ,0.010772213060375586,0.021604070210866515,-0.08202863487025236, ,0.002320095283752088, ,0.0017654828332773482,0.024562338586619527,-0.03559325288960789,-0.3795336552844897,0.6703293836926953,0.048054377429246176, ,0.04328169425683237, ,0.7703163123086719, ,0.0013244615612418168, ,0.14656202448703273,-0.22752715594040251,0.09114214990000001,-4.529302779265726,0.19634665016293792,-1.1472767809505928, ,0.01935487284488492,-0.17006620350980425,0.04105363793814434,0.18675432466428268,0.5850136965567011,0.6609624029657581, ,0.06430721282958984
0.010313595730940527,0.01963115689750229,-0.08194866465419784, ,0.010793691719427555,0.02171183090811625,-0.08207621282471578, ,0.002139150539912557, ,0.005001105438087217,0.027510514022494468,-0.034616018987372654,-0.20562103770977805,0.33273149356549814,0.009512756238894984, ,0.044498406802029156, ,0.39113962757029597, ,0.0013535575961943433, ,0.1468014292061337,-0.2294732846247071,0.09155955528000001,-4.527834949661335,0.20085565465519745,-1.1426223402782374, ,0.027466553273074033,-0.21373185035691616,0.040843106461538464,0.14012889064110245,0.2773355317340159,0.48444305845948743, ,0.06674814224243164
0.010313595730940527,0.01963115689750229,-0.08194866465419784, ,0.010815198735600383,0.021819368739329832,-0.08212379174332764, ,0.0022517873204068693, ,0.005001105438087217,0.027510514022494468,-0.034616018987372654,-0.20562103770977805,0.33273149356549814,0.009512756238894984, ,0.044498406802029156, ,0.39113962757029597, ,0.0013845310349602925, ,0.1468014292061337,-0.2294732846247071,0.09155955528000001,-4.527834949661335,0.20085565465519745,-1.1426223402782374, ,0.027466553273074033,-0.21373185035691616,0.040843106461538464,0.14012889064110245,0.2773355317340159,0.48444305845948743, ,0.06902217864990234
0.010313595730940527,0.01963115689750229,-0.08194866465419784, ,0.010836734178352136,0.021926684129845088,-0.08217137217310952, ,0.0023648927562507785, ,0.005001105438087217,0.027510514022494468,-0.034616018987372654,-0.20562103770977805,0.33273149356549814,0.009512756238894984, ,0.044498406802029156, ,0.39113962757029597, ,0.0014172097590033086, ,0.1468014292061337,-0.2294732846247071,0.09155955528000001,-4.527834949661335,0.20085565465519745,-1.1426223402782374, ,0.027466553273074033,-0.21373185035691616,0.040843106461538464,0.14012889064110245,0.2773355317340159,0.48444305845948743, ,0.0712900161743164
0.010313595730940527,0.01963115689750229,-0.08194866465419784, ,0.01085829811699815,0.02203377750370812,-0.08221895465899562, ,0.0024783751034569645, ,0.005001105438087217,0.027510514022494468,-0.034616018987372654,-0.20562103770977805,0.33273149356549814,0.009512756238894984, ,0.044498406802029156, ,0.39113962757029597, ,0.001451440899146975, ,0.1468014292061337,-0.2294732846247071,0.09155955528000001,-4.527834949661335,0.20085565465519745,-1.1426223402782374, ,0.027466553273074033,-0.21373185035691616,0.040843106461538464,0.14012889064110245,0.2773355317340159,0.48444305845948743, ,0.07359910011291504
0.010389157185261545,0.019925961340331356,-0.08229072954919421, ,0.010879890620712488,0.02214064928367591,-0.082266539743836, ,0.002268534138545966, ,0.007976682671329453,0.031404105234451196,-0.030306172621077668,0.15273251322283465,-0.05949238449949734,0.02181095596579668, ,0.04436563299395299, ,0.1639101547898433, ,0.0014769750628781935, ,0.14712578398685114,-0.23189050001433936,0.09196788663000001,-4.5272058798308805,0.2011289276547283,-1.138761239078602, ,0.036838874828598905,-0.2750635987202052,0.03747955651764706,0.018956963381326977,-0.044093815231924294,0.11698278399016526, ,0.07589101791381836
0.010389157185261545,0.019925961340331356,-0.08229072954919421, ,0.01090151175852658,0.022247299891218698,-0.08231412796839903, ,0.00237732357128823, ,0.007976682671329453,0.031404105234451196,-0.030306172621077668,0.15273251322283465,-0.05949238449949734,0.02181095596579668, ,0.04436563299395299, ,0.1639101547898433, ,0.001504258351011831, ,0.14712578398685114,-0.23189050001433936,0.09196788663000001,-4.5272058798308805,0.2011289276547283,-1.138761239078602, ,0.036838874828598905,-0.2750635987202052,0.03747955651764706,0.018956963381326977,-0.044093815231924294,0.11698278399016526, ,0.07824110984802246
0.010389157185261545,0.019925961340331356,-0.08229072954919421, ,0.010923161599329798,0.022353729746522357,-0.08236171987137443, ,0.0024868171975814435, ,0.007976682671329453,0.031404105234451196,-0.030306172621077668,0.15273251322283465,-0.05949238449949734,0.02181095596579668, ,0.04436563299395299, ,0.1639101547898433, ,0.0015331571406168197, ,0.14712578398685114,-0.23189050001433936,0.09196788663000001,-4.5272058798308805,0.2011289276547283,-1.138761239078602, ,0.036838874828598905,-0.2750635987202052,0.03747955651764706,0.018956963381326977,-0.044093815231924294,0.11698278399016526, ,0.08065414428710938
0.010389157185261545,0.019925961340331356,-0.08229072954919421, ,0.010944840211869838,0.02245993926849107,-0.0824093159893758, ,0.0025969001733328334, ,0.007976682671329453,0.031404105234451196,-0.030306172621077668,0.15273251322283465,-0.05949238449949734,0.02181095596579668, ,0.04436563299395299, ,0.1639101547898433, ,0.00156354979869442, ,0.14712578398685114,-0.23189050001433936,0.09196788663000001,-4.5272058798308805,0.2011289276547283,-1.138761239078602, ,0.036838874828598905,-0.2750635987202052,0.03747955651764706,0.018956963381326977,-0.044093815231924294,0.11698278399016526, ,0.08317804336547852
0.010389157185261545,0.019925961340331356,-0.08229072954919421, ,0.010966547664751473,0.02256592887474933,-0.08245691685694298, ,0.0027074760515733683, ,0.007976682671329453,0.031404105234451196,-0.030306172621077668,0.15273251322283465,-0.05949238449949734,0.02181095596579668, ,0.04436563299395299, ,0.1639101547898433, ,0.0015953255279410577, ,0.14746558423331702,-0.23436949726696543,0.09226732962,-4.526576810000427,0.19976256265707393,-1.1383821687029028, ,0.04407661010611741,-0.31738107544639055,0.03410880411134904,0.07208020917030585,-0.21011003743182738,-0.026798483827864206, ,0.08558511734008789
0.010465065477354272,0.02020048926362781,-0.08252702744180707, ,0.01098828402643819,0.022671698981644776,-0.08250452300654545, ,0.0025260921539273706, ,0.0094774288321395,0.03419324824351513,-0.026154273135976472,0.31934749125951567,-0.2316698072934656,-0.07828970922244605, ,0.044079994169488955, ,0.39452972961116417, ,0.0016204813826974445, ,0.14746558423331702,-0.23436949726696543,0.09226732962,-4.526576810000427,0.19976256265707393,-1.1383821687029028, ,0.04407661010611741,-0.31738107544639055,0.03410880411134904,0.07208020917030585,-0.21011003743182738,-0.026798483827864206, ,0.0879662036895752
0.010465065477354272,0.02020048926362781,-0.08252702744180707, ,0.011010049365251257,0.022777250004250432,-0.08255213496858438, ,0.002633881876694974, ,0.0094774288321395,0.03419324824351513,-0.026154273135976472,0.31934749125951567,-0.2316698072934656,-0.07828970922244605, ,0.044079994169488955, ,0.39452972961116417, ,0.001647149816750011, ,0.14746558423331702,-0.23436949726696543,0.09226732962,-4.526576810000427,0.19976256265707393,-1.1383821687029028, ,0.04407661010611741,-0.31738107544639055,0.03410880411134904,0.07208020917030585,-0.21011003743182738,-0.026798483827864206, ,0.09023118019104004
0.010465065477354272,0.02020048926362781,-0.08252702744180707, ,0.011031843749369377,0.022882582356367146,-0.08259975327139552, ,0.0027422891922694475, ,0.0094774288321395,0.03419324824351513,-0.026154273135976472,0.31934749125951567,-0.2316698072934656,-0.07828970922244605, ,0.044079994169488955, ,0.39452972961116417, ,0.0016752303135582015, ,0.14746558423331702,-0.23436949726696543,0.09226732962,-4.526576810000427,0.19976256265707393,-1.1383821687029028, ,0.04407661010611741,-0.31738107544639055,0.03410880411134904,0.07208020917030585,-0.21011003743182738,-0.026798483827864206, ,0.09254717826843262
0.010465065477354272,0.02020048926362781,-0.08252702744180707, ,0.011053667246829015,0.022987696450526035,-0.0826473784412527, ,0.002851220845321085, ,0.0094774288321395,0.03419324824351513,-0.026154273135976472,0.31934749125951567,-0.2316698072934656,-0.07828970922244605, ,0.044079994169488955, ,0.39452972961116417, ,0.0017046300768522736, ,0.14746558423331702,-0.23436949726696543,0.09226732962,-4.526576810000427,0.19976256265707393,-1.1383821687029028, ,0.04407661010611741,-0.31738107544639055,0.03410880411134904,0.07208020917030585,-0.21011003743182738,-0.026798483827864206, ,0.0948631763458252
0.010597463309205813,0.02064498538702218,-0.08278737850779812, ,0.011075519925525136,0.023092592697991063,-0.08269501100236908, ,0.002495566355193585, ,0.011408268211273708,0.03878630594722616,-0.018049754025572927,-0.10946885469278972,-0.418890983207984,-0.10865286967006227, ,0.0442754981112113, ,0.43295852462432816, ,0.0017239212055923056, ,0.14808340286325497,-0.2387173958751538,0.0926328834,-4.52531867033952,0.19511692166504896,-1.1354924261187707, ,0.0540107806251968,-0.39213612214244126,0.027369091958762887,0.08890009956852836,-0.4656099026948786,0.44593739144879563, ,0.0971682071685791
0.010597463309205813,0.02064498538702218,-0.08278737850779812, ,0.011097401853210283,0.023197271508761167,-0.08274265147690098, ,0.0026011734856206006, ,0.011408268211273708,0.03878630594722616,-0.018049754025572927,-0.10946885469278972,-0.418890983207984,-0.10865286967006227, ,0.0442754981112113, ,0.43295852462432816, ,0.0017448081646405983, ,0.14808340286325497,-0.2387173958751538,0.0926328834,-4.52531867033952,0.19511692166504896,-1.1354924261187707, ,0.0540107806251968,-0.39213612214244126,0.027369091958762887,0.08890009956852836,-0.4656099026948786,0.44593739144879563, ,0.09953904151916504
0.010597463309205813,0.02064498538702218,-0.08278737850779812, ,0.011119313097494836,0.023301733291572903,-0.0827903003849498, ,0.0027075164204927817, ,0.011408268211273708,0.03878630594722616,-0.018049754025572927,-0.10946885469278972,-0.418890983207984,-0.10865286967006227, ,0.0442754981112113, ,0.43295852462432816, ,0.001767196728730184, ,0.14808340286325497,-0.2387173958751538,0.0926328834,-4.52531867033952,0.19511692166504896,-1.1354924261187707, ,0.0540107806251968,-0.39213612214244126,0.027369091958762887,0.08890009956852836,-0.4656099026948786,0.44593739144879563, ,0.10204410552978516
0.010597463309205813,0.02064498538702218,-0.08278737850779812, ,0.01114125372584653,0.023405978453902892,-0.08283795824456618, ,0.0028144891263540486, ,0.011408268211273708,0.03878630594722616,-0.018049754025572927,-0.10946885469278972,-0.418890983207984,-0.10865286967006227, ,0.0442754981112113, ,0.43295852462432816, ,0.0017909988286761809, ,0.14808340286325497,-0.2387173958751538,0.0926328834,-4.52531867033952,0.19511692166504896,-1.1354924261187707, ,0.0540107806251968,-0.39213612214244126,0.027369091958762887,0.08890009956852836,-0.4656099026948786,0.44593739144879563, ,0.10438704490661621
0.010712087930132508,0.021078190051863656,-0.08296521035096571, ,0.011163223805591597,0.02351000740197017,-0.08288562557175037, ,0.002474589448673871, ,0.010220957724324537,0.04254658161909532,-0.016889102541449028,-0.007017379668258807,-0.27807180040691676,-0.002501053105022119, ,0.04690331938070427, ,0.27816032863225965, ,0.0018061897313427961, ,0.1486934987603187,-0.24314252181208446,0.09291677091000002,-4.524899290452551,0.19101782667208575,-1.130107920504364, ,0.06040543702003232,-0.43331936784689856,0.02746346813793104,0.025071936548415285,-0.2900309741091263,0.4007542776184333, ,0.10660719871520996
0.010712087930132508,0.021078190051863656,-0.08296521035096571, ,0.011185223403913896,0.023613820540738593,-0.08293330288045737, ,0.002579592456055168, ,0.010220957724324537,0.04254658161909532,-0.016889102541449028,-0.007017379668258807,-0.27807180040691676,-0.002501053105022119, ,0.04690331938070427, ,0.27816032863225965, ,0.0018230028340539349, ,0.1486934987603187,-0.24314252181208446,0.09291677091000002,-4.524899290452551,0.19101782667208575,-1.130107920504364, ,0.06040543702003232,-0.43331936784689856,0.02746346813793104,0.025071936548415285,-0.2900309741091263,0.4007542776184333, ,0.10889720916748047
0.010712087930132508,0.021078190051863656,-0.08296521035096571, ,0.011207252587855007,0.023717418273919415,-0.08298099068259779, ,0.0026853235680676293, ,0.010220957724324537,0.04254658161909532,-0.016889102541449028,-0.007017379668258807,-0.27807180040691676,-0.002501053105022119, ,0.04690331938070427, ,0.27816032863225965, ,0.0018413500837138005, ,0.1486934987603187,-0.24314252181208446,0.09291677091000002,-4.524899290452551,0.19101782667208575,-1.130107920504364, ,0.06040543702003232,-0.43331936784689856,0.02746346813793104,0.025071936548415285,-0.2900309741091263,0.4007542776184333, ,0.11127209663391113
0.010712087930132508,0.021078190051863656,-0.08296521035096571, ,0.011229311424313902,0.023820801003973543,-0.08302868948804183, ,0.0027916777354147168, ,0.010220957724324537,0.04254658161909532,-0.016889102541449028,-0.007017379668258807,-0.27807180040691676,-0.002501053105022119, ,0.04690331938070427, ,0.27816032863225965, ,0.0018611485764575698, ,0.1486934987603187,-0.24314252181208446,0.09291677091000002,-4.524899290452551,0.19101782667208575,-1.130107920504364, ,0.06040543702003232,-0.43331936784689856,0.02746346813793104,0.025071936548415285,-0.2900309741091263,0.4007542776184333, ,0.1136631965637207
0.010712087930132508,0.021078190051863656,-0.08296521035096571, ,0.011251399980048387,0.02392396913211409,-0.08307639980462098, ,0.0028985650165865924, ,0.010220957724324537,0.04254658161909532,-0.016889102541449028,-0.007017379668258807,-0.27807180040691676,-0.002501053105022119, ,0.04690331938070427, ,0.27816032863225965, ,0.0018823203405418357, ,0.1486934987603187,-0.24314252181208446,0.09291677091000002,-4.524899290452551,0.19101782667208575,-1.130107920504364, ,0.06040543702003232,-0.43331936784689856,0.02746346813793104,0.025071936548415285,-0.2900309741091263,0.4007542776184333, ,0.11597108840942383
0.010712087930132508,0.021078190051863656,-0.08296521035096571, ,0.011273518321672758,0.02402692305830864,-0.08312412213813139, ,0.0030059080797561507, ,0.010220957724324537,0.04254658161909532,-0.016889102541449028,-0.007017379668258807,-0.27807180040691676,-0.002501053105022119, ,0.04690331938070427, ,0.27816032863225965, ,0.0019047920953261218, ,0.1486934987603187,-0.24314252181208446,0.09291677091000002,-4.524899290452551,0.19101782667208575,-1.130107920504364, ,0.06040543702003232,-0.43331936784689856,0.02746346813793104,0.025071936548415285,-0.2900309741091263,0.4007542776184333, ,0.12089920043945312
0.010712087930132508,0.021078190051863656,-0.08296521035096571, ,0.011295666515660378,0.02412966318128205,-0.08317185699233641, ,0.003113640162163732, ,0.010220957724324537,0.04254658161909532,-0.016889102541449028,-0.007017379668258807,-0.27807180040691676,-0.002501053105022119, ,0.04690331938070427, ,0.27816032863225965, ,0.0019284949985974476, ,0.1486934987603187,-0.24314252181208446,0.09291677091000002,-4.524899290452551,0.19101782667208575,-1.130107920504364, ,0.06040543702003232,-0.43331936784689856,0.02746346813793104,0.025071936548415285,-0.2900309741091263,0.4007542776184333, ,0.1248621940612793
0.010809640599038819,0.021605360251350483,-0.08314253715501799, ,0.011317844628341534,0.02423218989851845,-0.08321960486896908, ,0.0026766480461901864, ,0.00787999651548557,0.04849240873672008,-0.015113853404731576,0.487830566835009,-0.039077379661049155,-0.11836822302364365, ,0.05140074527585088, ,0.48939319851332735, ,0.001942882557205, ,0.1494117129176216,-0.24852526662541893,0.09322788051000001,-4.523641150791644,0.18992473467396223,-1.1286448260938087, ,0.06230921967069651,-0.49425490395036864,0.027558497439446373,0.19425086027791025,-0.029238776939252697,0.024874977887936925, ,0.12717318534851074
0.010809640599038819,0.021605360251350483,-0.08314253715501799, ,0.011340052725904236,0.02433450360626379,-0.08326736626773536, ,0.0027830096628246124, ,0.00787999651548557,0.04849240873672008,-0.015113853404731576,0.487830566835009,-0.039077379661049155,-0.11836822302364365, ,0.05140074527585088, ,0.48939319851332735, ,0.0019587340120280116, ,0.1494117129176216,-0.24852526662541893,0.09322788051000001,-4.523641150791644,0.18992473467396223,-1.1286448260938087, ,0.06230921967069651,-0.49425490395036864,0.027558497439446373,0.19425086027791025,-0.029238776939252697,0.024874977887936925, ,0.12952399253845215
0.010809640599038819,0.021605360251350483,-0.08314253715501799, ,0.011362290874394484,0.02443660469952859,-0.08331514168631626, ,0.002889837326981354, ,0.00787999651548557,0.04849240873672008,-0.015113853404731576,0.487830566835009,-0.039077379661049155,-0.11836822302364365, ,0.05140074527585088, ,0.48939319851332735, ,0.0019759766660086293, ,0.1494117129176216,-0.24852526662541893,0.09322788051000001,-4.523641150791644,0.18992473467396223,-1.1286448260938087, ,0.06230921967069651,-0.49425490395036864,0.027558497439446373,0.19425086027791025,-0.029238776939252697,0.024874977887936925, ,0.1318671703338623
0.010809640599038819,0.021605360251350483,-0.08314253715501799, ,0.011384559139716217,0.0245384935720899,-0.08336293162037063, ,0.002997061248290491, ,0.00787999651548557,0.04849240873672008,-0.015113853404731576,0.487830566835009,-0.039077379661049155,-0.11836822302364365, ,0.05140074527585088, ,0.48939319851332735, ,0.0019945418402319355, ,0.1494117129176216,-0.24852526662541893,0.09322788051000001,-4.523641150791644,0.18992473467396223,-1.1286448260938087, ,0.06230921967069651,-0.49425490395036864,0.027558497439446373,0.19425086027791025,-0.029238776939252697,0.024874977887936925, ,0.13421201705932617
0.010809640599038819,0.021605360251350483,-0.08314253715501799, ,0.011406857587630648,0.024640170616494008,-0.08341073656353848, ,0.003104621233995544, ,0.00787999651548557,0.04849240873672008,-0.015113853404731576,0.487830566835009,-0.039077379661049155,-0.11836822302364365, ,0.05140074527585088, ,0.48939319851332735, ,0.002014364686549143, ,0.1494117129176216,-0.24852526662541893,0.09322788051000001,-4.523641150791644,0.18992473467396223,-1.1286448260938087, ,0.06230921967069651,-0.49425490395036864,0.027558497439446373,0.19425086027791025,-0.029238776939252697,0.024874977887936925, ,0.13742613792419434
0.010942582584758694,0.022399162751886192,-0.08337454541585937, ,0.011429186283757367,0.02474163622405892,-0.08345855700744281, ,0.0023939555290841425, ,0.00839550176212098,0.05047978476715434,-0.012703056522378724,0.1778178254419101,-0.059817144938882905,0.059498158225902535, ,0.0527262815395392, ,0.18760935355879108, ,0.002021024175014669, ,0.1504851727871388,-0.2566418588762289,0.09366732282000001,-4.521544251356799,0.18924155217513502,-1.1245755507492823, ,0.07124395011897205,-0.5214117668047844,0.026155683940886704,0.03579944807695399,-0.04499614139593819,0.3402911910836575, ,0.13969206809997559
0.010942582584758694,0.022399162751886192,-0.08337454541585937, ,0.011451545293573031,0.02484289078487649,-0.08350639344169292, ,0.002499646703056746, ,0.00839550176212098,0.05047978476715434,-0.012703056522378724,0.1778178254419101,-0.059817144938882905,0.059498158225902535, ,0.0527262815395392, ,0.18760935355879108, ,0.002029276287567119, ,0.1504851727871388,-0.2566418588762289,0.09366732282000001,-4.521544251356799,0.18924155217513502,-1.1245755507492823, ,0.07124395011897205,-0.5214117668047844,0.026155683940886704,0.03579944807695399,-0.04499614139593819,0.3402911910836575, ,0.14197015762329102
0.010942582584758694,0.022399162751886192,-0.08337454541585937, ,0.011473934682411733,0.024943934687815215,-0.0835542463538869, ,0.0026058571880861405, ,0.00839550176212098,0.05047978476715434,-0.012703056522378724,0.1778178254419101,-0.059817144938882905,0.059498158225902535, ,0.0527262815395392, ,0.18760935355879108, ,0.0020390488452030346, ,0.1504851727871388,-0.2566418588762289,0.09366732282000001,-4.521544251356799,0.18924155217513502,-1.1245755507492823, ,0.07124395011897205,-0.5214117668047844,0.026155683940886704,0.03579944807695399,-0.04499614139593819,0.3402911910836575, ,0.144287109375
0.010942582584758694,0.022399162751886192,-0.08337454541585937, ,0.011496354515465995,0.025044768320522343,-0.08360211622961458, ,0.002712504497933803, ,0.009262410429961336,0.055215253810575474,-0.014051757797560488,0.32102058754213214,-0.06705885695340441,0.07485683631489581, ,0.0577232050179183, ,0.3279498549686422, ,0.0020502731060818807, ,0.1514350689306684,-0.2635459820657856,0.09401213596,-4.5213345614133145,0.1888316426758387,-1.1209741474325707, ,0.07921280597535124,-0.5648627473718498,0.029014228633879785,0.0,-0.025372836481024775,0.2563648366921657, ,0.14728999137878418
0.011052104021106615,0.02306875120945647,-0.08353855880190586, ,0.011518804857785704,0.025145392069426665,-0.08365000355245948, ,0.002131353294196123, ,0.009262410429961336,0.055215253810575474,-0.014051757797560488,0.32102058754213214,-0.06705885695340441,0.07485683631489581, ,0.0577232050179183, ,0.3279498549686422, ,0.0020516022894935897, ,0.1514350689306684,-0.2635459820657856,0.09401213596,-4.5213345614133145,0.1888316426758387,-1.1209741474325707, ,0.07921280597535124,-0.5648627473718498,0.029014228633879785,0.0,-0.025372836481024775,0.2563648366921657, ,0.14972901344299316
0.011052104021106615,0.02306875120945647,-0.08353855880190586, ,0.011541285774278973,0.025245806319740553,-0.08369790880400246, ,0.002237020376308406, ,0.009262410429961336,0.055215253810575474,-0.014051757797560488,0.32102058754213214,-0.06705885695340441,0.07485683631489581, ,0.0577232050179183, ,0.3279498549686422, ,0.0020545929037970546, ,0.1514350689306684,-0.2635459820657856,0.09401213596,-4.5213345614133145,0.1888316426758387,-1.1209741474325707, ,0.07921280597535124,-0.5648627473718498,0.029014228633879785,0.0,-0.025372836481024775,0.2563648366921657, ,0.1521141529083252
0.011052104021106615,0.02306875120945647,-0.08353855880190586, ,0.011563797329710811,0.025346011455462662,-0.08374583246382397, ,0.0023432256914423396, ,0.009262410429961336,0.055215253810575474,-0.014051757797560488,0.32102058754213214,-0.06705885695340441,0.07485683631489581, ,0.0577232050179183, ,0.3279498549686422, ,0.002059174376616821, ,0.1514350689306684,-0.2635459820657856,0.09401213596,-4.5213345614133145,0.1888316426758387,-1.1209741474325707, ,0.07921280597535124,-0.5648627473718498,0.029014228633879785,0.0,-0.025372836481024775,0.2563648366921657, ,0.15465021133422852
0.011156769791842,0.02364064402716777,-0.08368888978588612, ,0.011586339588704201,0.02544600785938023,-0.08379377500950672, ,0.0018587279755712053, ,0.010709545653297205,0.05553479740781373,-0.014410260262378724,0.2672956312492131,-0.09714154058593835,-0.09102068267867398, ,0.058364918333331565, ,0.28440012793763325, ,0.0020560424016004834, ,0.15231546047833,-0.26934575445432823,0.09432065298,-4.519866731808922,0.18814846017701148,-1.1182117319302933, ,0.08819418360452676,-0.5615203642513064,0.029941375037593993,0.18000095971319435,-0.10208680496829432,0.3024229894313272, ,0.15743613243103027
0.011156769791842,0.02364064402716777,-0.08368888978588612, ,0.011608912615738848,0.02554579591307156,-0.08384173691663892, ,0.001964026243954887, ,0.010709545653297205,0.05553479740781373,-0.014410260262378724,0.2672956312492131,-0.09714154058593835,-0.09102068267867398, ,0.058364918333331565, ,0.28440012793763325, ,0.002054626768405936, ,0.15231546047833,-0.26934575445432823,0.09432065298,-4.519866731808922,0.18814846017701148,-1.1182117319302933, ,0.08819418360452676,-0.5615203642513064,0.029941375037593993,0.18000095971319435,-0.10208680496829432,0.3024229894313272, ,0.1596670150756836
0.011156769791842,0.02364064402716777,-0.08368888978588612, ,0.011631516475154074,0.025645375996908488,-0.08388971865881562, ,0.002069943699721913, ,0.010709545653297205,0.05553479740781373,-0.014410260262378724,0.2672956312492131,-0.09714154058593835,-0.09102068267867398, ,0.058364918333331565, ,0.28440012793763325, ,0.0020548588431228447, ,0.15231546047833,-0.26934575445432823,0.09432065298,-4.519866731808922,0.18814846017701148,-1.1182117319302933, ,0.08819418360452676,-0.5615203642513064,0.029941375037593993,0.18000095971319435,-0.10208680496829432,0.3024229894313272, ,0.16188716888427734
0.011156769791842,0.02364064402716777,-0.08368888978588612, ,0.011654151231145108,0.025744748490058773,-0.08393772070764323, ,0.0021763641043133285, ,0.010709545653297205,0.05553479740781373,-0.014410260262378724,0.2672956312492131,-0.09714154058593835,-0.09102068267867398, ,0.058364918333331565, ,0.28440012793763325, ,0.0020566723544838965, ,0.15231546047833,-0.26934575445432823,0.09432065298,-4.519866731808922,0.18814846017701148,-1.1182117319302933, ,0.08819418360452676,-0.5615203642513064,0.029941375037593993,0.18000095971319435,-0.10208680496829432,0.3024229894313272, ,0.16408514976501465
0.011156769791842,0.02364064402716777,-0.08368888978588612, ,0.011676816947765423,0.025843913770488405,-0.08398574353274096, ,0.002283192666692405, ,0.010709545653297205,0.05553479740781373,-0.014410260262378724,0.2672956312492131,-0.09714154058593835,-0.09102068267867398, ,0.058364918333331565, ,0.28440012793763325, ,0.0020600035355457865, ,0.15231546047833,-0.26934575445432823,0.09432065298,-4.519866731808922,0.18814846017701148,-1.1182117319302933, ,0.08819418360452676,-0.5615203642513064,0.029941375037593993,0.18000095971319435,-0.10208680496829432,0.3024229894313272, ,0.16633200645446777
0.011267406884181291,0.024192535926071852,-0.08383646287160453, ,0.011699513688926558,0.02594287221496437,-0.08403378760174372, ,0.0018136511417705743, ,0.011296827837289494,0.056578257452042986,-0.015175158131007959,0.22689796947373275,-0.12954069646677457,-0.017225292853800173, ,0.059657379759725564, ,0.26127280721047197, ,0.0020564332109983194, ,0.15321129749174006,-0.27490612212376986,0.09462398484000001,-4.5186085921480155,0.1869187316791225,-1.1148402873329493, ,0.09222248936683264,-0.5682451590327592,0.03129432518664047,0.10209250947075067,-0.11575490352840512,0.33638872299521744, ,0.16857409477233887
0.011267406884181291,0.024192535926071852,-0.08383646287160453, ,0.01172224151839669,0.026041624199056555,-0.08408185338030527, ,0.0019199527305462023, ,0.011296827837289494,0.056578257452042986,-0.015175158131007959,0.22689796947373275,-0.12954069646677457,-0.017225292853800173, ,0.059657379759725564, ,0.26127280721047197, ,0.0020544834898490036, ,0.15321129749174006,-0.27490612212376986,0.09462398484000001,-4.5186085921480155,0.1869187316791225,-1.1148402873329493, ,0.09222248936683264,-0.5682451590327592,0.03129432518664047,0.10209250947075067,-0.11575490352840512,0.33638872299521744, ,0.1710360050201416
0.011267406884181291,0.024192535926071852,-0.08383646287160453, ,0.011745000499801405,0.026140170097140886,-0.08412994133210118, ,0.0020266978395341384, ,0.011296827837289494,0.056578257452042986,-0.015175158131007959,0.22689796947373275,-0.12954069646677457,-0.017225292853800173, ,0.059657379759725564, ,0.26127280721047197, ,0.0020540921426614703, ,0.15321129749174006,-0.27490612212376986,0.09462398484000001,-4.5186085921480155,0.1869187316791225,-1.1148402873329493, ,0.09222248936683264,-0.5682451590327592,0.03129432518664047,0.10209250947075067,-0.11575490352840512,0.33638872299521744, ,0.17330718040466309
0.011267406884181291,0.024192535926071852,-0.08383646287160453, ,0.011767790696625932,0.02623851028240097,-0.08417805191882965, ,0.0021337942974188383, ,0.011296827837289494,0.056578257452042986,-0.015175158131007959,0.22689796947373275,-0.12954069646677457,-0.017225292853800173, ,0.059657379759725564, ,0.26127280721047197, ,0.0020551991170331004, ,0.15321129749174006,-0.27490612212376986,0.09462398484000001,-4.5186085921480155,0.1869187316791225,-1.1148402873329493, ,0.09222248936683264,-0.5682451590327592,0.03129432518664047,0.10209250947075067,-0.11575490352840512,0.33638872299521744, ,0.17566204071044922
0.011370428755216737,0.02470529403005719,-0.0839834665651914, ,0.011790612172211378,0.026336645126831204,-0.08422618560021655, ,0.0017019909032737562, ,0.011257531968858717,0.05631820351434112,-0.016412288432341514,0.21100469310848274,-0.11185861632660503,0.042847752506907935, ,0.059731359307310196, ,0.2388207054873776, ,0.002050360648351465, ,0.15406079810790474,-0.2800108485536323,0.09491824267000001,-4.517979522317562,0.1860989126805299,-1.1118030964466945, ,0.09294509457244934,-0.5582173032851222,0.03270803186858317,0.04802602889558571,-0.08142314929935805,0.3395555410472451, ,0.1779630184173584
0.011370428755216737,0.02470529403005719,-0.0839834665651914, ,0.011813464989754923,0.02643457500123879,-0.08427434283401747, ,0.0018086743173304385, ,0.011257531968858717,0.05631820351434112,-0.016412288432341514,0.21100469310848274,-0.11185861632660503,0.042847752506907935, ,0.059731359307310196, ,0.2388207054873776, ,0.0020470946168511814, ,0.15406079810790474,-0.2800108485536323,0.09491824267000001,-4.517979522317562,0.1860989126805299,-1.1118030964466945, ,0.09294509457244934,-0.5582173032851222,0.03270803186858317,0.04802602889558571,-0.08142314929935805,0.3395555410472451, ,0.18073606491088867
0.011370428755216737,0.02470529403005719,-0.0839834665651914, ,0.01183634921231539,0.026532300275246317,-0.08432252407601905, ,0.0019157227586349068, ,0.011257531968858717,0.05631820351434112,-0.016412288432341514,0.21100469310848274,-0.11185861632660503,0.042847752506907935, ,0.059731359307310196, ,0.2388207054873776, ,0.002045342992074964, ,0.15406079810790474,-0.2800108485536323,0.09491824267000001,-4.517979522317562,0.1860989126805299,-1.1118030964466945, ,0.09294509457244934,-0.5582173032851222,0.03270803186858317,0.04802602889558571,-0.08142314929935805,0.3395555410472451, ,0.1831371784210205
0.011370428755216737,0.02470529403005719,-0.0839834665651914, ,0.01185926490280531,0.02662982131729408,-0.0843707297800437, ,0.00202305186687993, ,0.011257531968858717,0.05631820351434112,-0.016412288432341514,0.21100469310848274,-0.11185861632660503,0.042847752506907935, ,0.059731359307310196, ,0.2388207054873776, ,0.0020450496877960824, ,0.15406079810790474,-0.2800108485536323,0.09491824267000001,-4.517979522317562,0.1860989126805299,-1.1118030964466945, ,0.09294509457244934,-0.5582173032851222,0.03270803186858317,0.04802602889558571,-0.08142314929935805,0.3395555410472451, ,0.18540716171264648
0.011490993123552376,0.025316998384488462,-0.08416642244745, ,0.011882212123997113,0.02672713849464293,-0.08441896039795088, ,0.0014850329467788299, ,0.010514433592706193,0.05554337871114976,-0.01674398162364253,0.2105449656830676,-0.02745943984222026,0.013267325665035284, ,0.058957452056873284, ,0.2123280530095307, ,0.0020377767431075462, ,0.15507247611442815,-0.28601913472977897,0.09527990758,-4.51693107260014,0.18555236668146813,-1.1080085964861457, ,0.09037803957949597,-0.5422682374769758,0.03311603226611227,0.09954504718113336,-0.010678029372566716,0.34241226988491424, ,0.18767404556274414
0.011490993123552376,0.025316998384488462,-0.08416642244745, ,0.011905190938518648,0.026824252173375914,-0.0844672163796405, ,0.0015918074015662308, ,0.010514433592706193,0.05554337871114976,-0.01674398162364253,0.2105449656830676,-0.02745943984222026,0.013267325665035284, ,0.058957452056873284, ,0.2123280530095307, ,0.00203205918744676, ,0.15507247611442815,-0.28601913472977897,0.09527990758,-4.51693107260014,0.18555236668146813,-1.1080085964861457, ,0.09037803957949597,-0.5422682374769758,0.03311603226611227,0.09954504718113336,-0.010678029372566716,0.34241226988491424, ,0.1898961067199707
0.011490993123552376,0.025316998384488462,-0.08416642244745, ,0.011928201408857085,0.026921162718401507,-0.08451549817305525, ,0.0016989255890546224, ,0.010514433592706193,0.05554337871114976,-0.01674398162364253,0.2105449656830676,-0.02745943984222026,0.013267325665035284, ,0.058957452056873284, ,0.2123280530095307, ,0.002027842306454455, ,0.15507247611442815,-0.28601913472977897,0.09527990758,-4.51693107260014,0.18555236668146813,-1.1080085964861457, ,0.09037803957949597,-0.5422682374769758,0.03311603226611227,0.09954504718113336,-0.010678029372566716,0.34241226988491424, ,0.19215011596679688
0.011490993123552376,0.025316998384488462,-0.08416642244745, ,0.011951243597357462,0.02701787049345554,-0.08456380622418315, ,0.001806297399574783, ,0.010514433592706193,0.05554337871114976,-0.01674398162364253,0.2105449656830676,-0.02745943984222026,0.013267325665035284, ,0.058957452056873284, ,0.2123280530095307, ,0.0020250729951184587, ,0.15507247611442815,-0.28601913472977897,0.09527990758,-4.51693107260014,0.18555236668146813,-1.1080085964861457, ,0.09037803957949597,-0.5422682374769758,0.03311603226611227,0.09954504718113336,-0.010678029372566716,0.34241226988491424, ,0.1944901943206787
0.011490993123552376,0.025316998384488462,-0.08416642244745, ,0.01197431756621974,0.027114375861103827,-0.08461214097706153, ,0.0019138530032275203, ,0.010514433592706193,0.05554337871114976,-0.01674398162364253,0.2105449656830676,-0.02745943984222026,0.013267325665035284, ,0.058957452056873284, ,0.2123280530095307, ,0.0020236999087988178, ,0.15597603586071243,-0.29144821594035875,0.09562472072000001,-4.5158826228827165,0.18541573018170268,-1.104058277795843, ,0.08902152116179247,-0.5242924947981811,0.03531887254988914,0.1064630618498157,0.0,0.40819394262884445, ,0.19699811935424805
0.011598288517389565,0.025878292385642016,-0.08434480729993755, ,0.011997423377504587,0.02721067918274461,-0.08466050287377781, ,0.0014262632677716535, ,0.010682730491882684,0.054945564081896714,-0.018927984230260528,0.1303755389269347,-0.0050249364515974684,0.013024109458812567, ,0.05908810650258654, ,0.13047232927829455, ,0.002016414096103364, ,0.15597603586071243,-0.29144821594035875,0.09562472072000001,-4.5158826228827165,0.18541573018170268,-1.104058277795843, ,0.08902152116179247,-0.5242924947981811,0.03531887254988914,0.1064630618498157,0.0,0.40819394262884445, ,0.19943618774414062
0.011598288517389565,0.025878292385642016,-0.08434480729993755, ,0.012020561093126807,0.027306780818610987,-0.08470889235447379, ,0.001533444246877782, ,0.010682730491882684,0.054945564081896714,-0.018927984230260528,0.1303755389269347,-0.0050249364515974684,0.013024109458812567, ,0.05908810650258654, ,0.13047232927829455, ,0.002010595182257273, ,0.15597603586071243,-0.29144821594035875,0.09562472072000001,-4.5158826228827165,0.18541573018170268,-1.104058277795843, ,0.08902152116179247,-0.5242924947981811,0.03531887254988914,0.1064630618498157,0.0,0.40819394262884445, ,0.2018280029296875
0.011598288517389565,0.025878292385642016,-0.08434480729993755, ,0.012043730774861771,0.02740268112777308,-0.08475730985734697, ,0.001640834605238191, ,0.010682730491882684,0.054945564081896714,-0.018927984230260528,0.1303755389269347,-0.0050249364515974684,0.013024109458812567, ,0.05908810650258654, ,0.13047232927829455, ,0.0020061932706260934, ,0.15597603586071243,-0.29144821594035875,0.09562472072000001,-4.5158826228827165,0.18541573018170268,-1.104058277795843, ,0.08902152116179247,-0.5242924947981811,0.03531887254988914,0.1064630618498157,0.0,0.40819394262884445, ,0.20408010482788086
0.011598288517389565,0.025878292385642016,-0.08434480729993755, ,0.012066932484339524,0.02749838046814095,-0.08480575581865543, ,0.0017483666948674898, ,0.010682730491882684,0.054945564081896714,-0.018927984230260528,0.1303755389269347,-0.0050249364515974684,0.013024109458812567, ,0.05908810650258654, ,0.13047232927829455, ,0.0020031600167936398, ,0.15597603586071243,-0.29144821594035875,0.09562472072000001,-4.5158826228827165,0.18541573018170268,-1.104058277795843, ,0.08902152116179247,-0.5242924947981811,0.03531887254988914,0.1064630618498157,0.0,0.40819394262884445, ,0.2063910961151123
0.011703275395411404,0.026418613912580834,-0.08454323809338808, ,0.01209016628305027,0.027593879196466466,-0.08485423067271738, ,0.0012757936474378046, ,0.010637128848949828,0.05296198568961801,-0.020487116831482008,0.11185166435653343,-0.007511057938873427,0.030799140117525287, ,0.057774063336442395, ,0.1121035557042846, ,0.0019947022683127575, ,0.15684098194262558,-0.2965452196373469,0.09598508934000001,-4.515043863108779,0.18555236668146813,-1.0999224012122302, ,0.08556983007977528,-0.49425490395036864,0.03645036961098399,0.08306685564618228,0.002610846568650079,0.39374703802144934, ,0.20981311798095703
0.011703275395411404,0.026418613912580834,-0.08454323809338808, ,0.012113432232340002,0.027689177668346377,-0.08490273485191674, ,0.0013826781287548183, ,0.010637128848949828,0.05296198568961801,-0.020487116831482008,0.11185166435653343,-0.007511057938873427,0.030799140117525287, ,0.057774063336442395, ,0.1121035557042846, ,0.0019876675080879535, ,0.15684098194262558,-0.2965452196373469,0.09598508934000001,-4.515043863108779,0.18555236668146813,-1.0999224012122302, ,0.08556983007977528,-0.49425490395036864,0.03645036961098399,0.08306685564618228,0.002610846568650079,0.39374703802144934, ,0.21224212646484375
0.011703275395411404,0.026418613912580834,-0.08454323809338808, ,0.012136730393412424,0.02778427623822416,-0.08495126878670445, ,0.0014897670521466884, ,0.010637128848949828,0.05296198568961801,-0.020487116831482008,0.11185166435653343,-0.007511057938873427,0.030799140117525287, ,0.057774063336442395, ,0.1121035557042846, ,0.0019820095483613484, ,0.15684098194262558,-0.2965452196373469,0.09598508934000001,-4.515043863108779,0.18555236668146813,-1.0999224012122302, ,0.08556983007977528,-0.49425490395036864,0.03645036961098399,0.08306685564618228,0.002610846568650079,0.39374703802144934, ,0.21470117568969727
0.01181409295556052,0.026952950144536924,-0.08474732920358535, ,0.012160060827327922,0.02787917525939275,-0.08499983290560167, ,0.0010204630572523926, ,0.010205089144650004,0.04924710888744326,-0.018179577281978478,0.1459213621342214,-0.015485319011812838,0.022349495609973163, ,0.0534782068545064, ,0.14674071366284175, ,0.0019712056552028206, ,0.15684098194262558,-0.3015186596083475,0.09635193941,-4.51420510333484,0.18555236668146813,-1.0962468579059048, ,0.08442788394881742,-0.45843933120034197,0.033323873472803356,0.08091199298925192,0.003098888959371,0.3231942068242297, ,0.21770000457763672
0.01181409295556052,0.026952950144536924,-0.08474732920358535, ,0.012183423595004982,0.027973875083996805,-0.08504842763520179, ,0.0011266557232648732, ,0.010205089144650004,0.04924710888744326,-0.018179577281978478,0.1459213621342214,-0.015485319011812838,0.022349495609973163, ,0.0534782068545064, ,0.14674071366284175, ,0.001961821767070177, ,0.15774454168890983,-0.3015186596083475,0.09635193941,-4.51420510333484,0.18555236668146813,-1.0962468579059048, ,0.08442788394881742,-0.45843933120034197,0.033323873472803356,0.08091199298925192,0.003098888959371,0.3231942068242297, ,0.2199561595916748
0.01181409295556052,0.026952950144536924,-0.08474732920358535, ,0.01220681875722032,0.028068376063035503,-0.08509705340017405, ,0.0012331729597373367, ,0.010205089144650004,0.04924710888744326,-0.018179577281978478,0.1459213621342214,-0.015485319011812838,0.022349495609973163, ,0.0534782068545064, ,0.14674071366284175, ,0.0019538146373192667, ,0.15774454168890983,-0.3015186596083475,0.09635193941,-4.51420510333484,0.18555236668146813,-1.0962468579059048, ,0.08442788394881742,-0.45843933120034197,0.033323873472803356,0.08091199298925192,0.003098888959371,0.3231942068242297, ,0.22222304344177246
0.01181409295556052,0.026952950144536924,-0.08474732920358535, ,0.01223024637460759,0.02816267854636441,-0.08514571062326524, ,0.0013399008283894792, ,0.010205089144650004,0.04924710888744326,-0.018179577281978478,0.1459213621342214,-0.015485319011812838,0.022349495609973163, ,0.0534782068545064, ,0.14674071366284175, ,0.0019471416611352471, ,0.15774454168890983,-0.3015186596083475,0.09635193941,-4.51420510333484,0.18555236668146813,-1.0962468579059048, ,0.08442788394881742,-0.45843933120034197,0.033323873472803356,0.08091199298925192,0.003098888959371,0.3231942068242297, ,0.22458600997924805
0.01191045456495672,0.027413736108695148,-0.08490884970535625, ,0.012253706507656295,0.028256782882698405,-0.08519439972530346, ,0.0009539856252670591, ,0.009600384061521689,0.046844532506292294,-0.014222451674286743,0.19039183297177636,-0.027147611960635726,0.027248996283580417, ,0.04988843284258603, ,0.19231755592141325, ,0.0019364625639753741, ,0.15846275584621272,-0.30530279871671756,0.09662286402,-4.513576033504387,0.18555236668146813,-1.0938781744418284, ,0.08442788394881742,-0.44138112352777104,0.029388951143911442,0.07033612894970304,0.002989077927794206,0.2640027175816108, ,0.22932219505310059
0.01191045456495672,0.027413736108695148,-0.08490884970535625, ,0.012277199216244344,0.02835068941961275,-0.08524312112526769, ,0.001060245503766531, ,0.009600384061521689,0.046844532506292294,-0.014222451674286743,0.19039183297177636,-0.027147611960635726,0.027248996283580417, ,0.04988843284258603, ,0.19231755592141325, ,0.001927141105888046, ,0.15846275584621272,-0.30530279871671756,0.09662286402,-4.513576033504387,0.18555236668146813,-1.0938781744418284, ,0.08442788394881742,-0.44138112352777104,0.029388951143911442,0.07033612894970304,0.002989077927794206,0.2640027175816108, ,0.23208403587341309
0.01191045456495672,0.027413736108695148,-0.08490884970535625, ,0.012300724561523226,0.028444398503550284,-0.0852918752400188, ,0.0011667408463716675, ,0.009600384061521689,0.046844532506292294,-0.014222451674286743,0.19039183297177636,-0.027147611960635726,0.027248996283580417, ,0.04988843284258603, ,0.19231755592141325, ,0.001919136892629979, ,0.15846275584621272,-0.30530279871671756,0.09662286402,-4.513576033504387,0.18555236668146813,-1.0938781744418284, ,0.08442788394881742,-0.44138112352777104,0.029388951143911442,0.07033612894970304,0.002989077927794206,0.2640027175816108, ,0.2343921661376953
0.01191045456495672,0.027413736108695148,-0.08490884970535625, ,0.012324282603080175,0.02853791047981628,-0.08534066248471299, ,0.001273375018695785, ,0.009600384061521689,0.046844532506292294,-0.014222451674286743,0.19039183297177636,-0.027147611960635726,0.027248996283580417, ,0.04988843284258603, ,0.19231755592141325, ,0.0019124102064431645, ,0.15846275584621272,-0.30530279871671756,0.09662286402,-4.513576033504387,0.18555236668146813,-1.0938781744418284, ,0.08442788394881742,-0.44138112352777104,0.029388951143911442,0.07033612894970304,0.002989077927794206,0.2640027175816108, ,0.23662209510803223
0.012003011437318967,0.02786610656516597,-0.08504410273281948, ,0.012347873400835237,0.02863122569258647,-0.08538948327252824, ,0.0009075377514101082, ,0.008678465017078694,0.04147685822433602,-0.012326257664049288,0.148246005136246,-0.01650608717785255,-0.001923735410037163, ,0.04413141909359887, ,0.14916208857558377, ,0.0019020506965974628, ,0.15938176105824542,-0.3100908930987367,0.09693526991000001,-4.512527583786964,0.18568900318123358,-1.090967478960324, ,0.07665342613769853,-0.3905223932447357,0.02556791576243981,0.08942323956162475,0.0,0.2537884008836455, ,0.23904204368591309
0.012003011437318967,0.02786610656516597,-0.08504410273281948, ,0.012371497014565795,0.028724344484907526,-0.08543833801473721, ,0.0010137925848170293, ,0.008678465017078694,0.04147685822433602,-0.012326257664049288,0.148246005136246,-0.01650608717785255,-0.001923735410037163, ,0.04413141909359887, ,0.14916208857558377, ,0.0018929868383139891, ,0.15938176105824542,-0.3100908930987367,0.09693526991000001,-4.512527583786964,0.18568900318123358,-1.090967478960324, ,0.07665342613769853,-0.3905223932447357,0.02556791576243981,0.08942323956162475,0.0,0.2537884008836455, ,0.24140501022338867
0.012003011437318967,0.02786610656516597,-0.08504410273281948, ,0.012395153503906513,0.028817267198700227,-0.08548722712070973, ,0.0011201969355055155, ,0.008678465017078694,0.04147685822433602,-0.012326257664049288,0.148246005136246,-0.01650608717785255,-0.001923735410037163, ,0.04413141909359887, ,0.14916208857558377, ,0.0018851808796997622, ,0.15938176105824542,-0.3100908930987367,0.09693526991000001,-4.512527583786964,0.18568900318123358,-1.090967478960324, ,0.07665342613769853,-0.3905223932447357,0.02556791576243981,0.08942323956162475,0.0,0.2537884008836455, ,0.24365806579589844
0.012003011437318967,0.02786610656516597,-0.08504410273281948, ,0.012418842928349402,0.02890999417476096,-0.0855361509979149, ,0.0012266738220007556, ,0.008678465017078694,0.04147685822433602,-0.012326257664049288,0.148246005136246,-0.01650608717785255,-0.001923735410037163, ,0.04413141909359887, ,0.14916208857558377, ,0.0018785958091227723, ,0.15938176105824542,-0.3100908930987367,0.09693526991000001,-4.512527583786964,0.18568900318123358,-1.090967478960324, ,0.07665342613769853,-0.3905223932447357,0.02556791576243981,0.08942323956162475,0.0,0.2537884008836455, ,0.2459251880645752
0.012092131099711847,0.028278495047239654,-0.08516695479130663, ,0.012442565347243691,0.029002525752765292,-0.08558511005192482, ,0.0009065751189889475, ,0.008615407885176587,0.0401736332398736,-0.011860777189767588,0.15399846003221732,-0.027357452916301817,0.006920256025987959, ,0.042764752966258916, ,0.1564095767132999, ,0.0018689718418937245, ,0.1601617570785421,-0.31396770500159743,0.09719063904000001,-4.511898513956511,0.18555236668146813,-1.088569056332692, ,0.07616126930856403,-0.37657516491456666,0.024849939968798754,0.07456664507600007,-0.004376150502212801,0.23108865562600872, ,0.2482600212097168
0.012092131099711847,0.028278495047239654,-0.08516695479130663, ,0.012466320819795984,0.029094862271269287,-0.08563410468641655, ,0.00101227585943146, ,0.008615407885176587,0.0401736332398736,-0.011860777189767588,0.15399846003221732,-0.027357452916301817,0.006920256025987959, ,0.042764752966258916, ,0.1564095767132999, ,0.0018605728616735062, ,0.1601617570785421,-0.31396770500159743,0.09719063904000001,-4.511898513956511,0.18555236668146813,-1.088569056332692, ,0.07616126930856403,-0.37657516491456666,0.024849939968798754,0.07456664507600007,-0.004376150502212801,0.23108865562600872, ,0.2505791187286377
0.012092131099711847,0.028278495047239654,-0.08516695479130663, ,0.012490109405070044,0.029187004067712703,-0.08568313530317481, ,0.0011181313396239167, ,0.008615407885176587,0.0401736332398736,-0.011860777189767588,0.15399846003221732,-0.027357452916301817,0.006920256025987959, ,0.042764752966258916, ,0.1564095767132999, ,0.0018533646915565197, ,0.1601617570785421,-0.31396770500159743,0.09719063904000001,-4.511898513956511,0.18555236668146813,-1.088569056332692, ,0.07616126930856403,-0.37657516491456666,0.024849939968798754,0.07456664507600007,-0.004376150502212801,0.23108865562600872, ,0.25281620025634766
0.012092131099711847,0.028278495047239654,-0.08516695479130663, ,0.012518624188007534,0.029270124176716258,-0.08573232779764425, ,0.0012185529619535447, ,0.008615407885176587,0.0401736332398736,-0.011860777189767588,0.15399846003221732,-0.027357452916301817,0.006920256025987959, ,0.042764752966258916, ,0.1564095767132999, ,0.0018472607326180297, ,0.1601617570785421,-0.31396770500159743,0.09719063904000001,-4.511898513956511,0.18555236668146813,-1.088569056332692, ,0.07616126930856403,-0.37657516491456666,0.024849939968798754,0.07456664507600007,-0.004376150502212801,0.23108865562600872, ,0.2550361156463623
0.012184065546845027,0.028669417309880863,-0.0853024633433569, ,0.012542438222510315,0.02936185952285285,-0.08578144996007023, ,0.0013244090773992315, ,0.009375436418970715,0.038027768321645346,-0.015994337926426384,0.05963776513385738,-0.03658941351261495,-0.026125033721775097, ,0.04230636851912035, ,0.06996747218984191, ,0.0018422811930445173, ,0.1609185849002161,-0.3175510530552376,0.09745248962000001,-4.510850064239088,0.18514245718217182,-1.0857027616772452, ,0.07396488040410817,-0.3377115357952697,0.028242573617021278,0.09809779864190571,-0.03268049828381612,0.28710664753289283, ,0.2577371597290039
0.012184065546845027,0.028669417309880863,-0.0853024633433569, ,0.012566285823346955,0.02945340125541339,-0.08583060913899623, ,0.0010196377533582541, ,0.009375436418970715,0.038027768321645346,-0.015994337926426384,0.05963776513385738,-0.03658941351261495,-0.026125033721775097, ,0.04230636851912035, ,0.06996747218984191, ,0.0018345204058776658, ,0.1609185849002161,-0.3175510530552376,0.09745248962000001,-4.510850064239088,0.18514245718217182,-1.0857027616772452, ,0.07396488040410817,-0.3377115357952697,0.028242573617021278,0.09809779864190571,-0.03268049828381612,0.28710664753289283, ,0.25995707511901855
0.012184065546845027,0.028669417309880863,-0.0853024633433569, ,0.012590167046162124,0.029544749707683938,-0.08587980573040083, ,0.0011244774191902927, ,0.009375436418970715,0.038027768321645346,-0.015994337926426384,0.05963776513385738,-0.03658941351261495,-0.026125033721775097, ,0.04230636851912035, ,0.06996747218984191, ,0.0018278844901142325, ,0.1609185849002161,-0.3175510530552376,0.09745248962000001,-4.510850064239088,0.18514245718217182,-1.0857027616772452, ,0.07396488040410817,-0.3377115357952697,0.028242573617021278,0.09809779864190571,-0.03268049828381612,0.28710664753289283, ,0.26231813430786133
0.012184065546845027,0.028669417309880863,-0.0853024633433569, ,0.012614081946520046,0.029635905211876826,-0.08592904012834927, ,0.0012294760819899712, ,0.009375436418970715,0.038027768321645346,-0.015994337926426384,0.05963776513385738,-0.03658941351261495,-0.026125033721775097, ,0.04230636851912035, ,0.06996747218984191, ,0.0018223436715204893, ,0.1609185849002161,-0.3175510530552376,0.09745248962000001,-4.510850064239088,0.18514245718217182,-1.0857027616772452, ,0.07396488040410817,-0.3377115357952697,0.028242573617021278,0.09809779864190571,-0.03268049828381612,0.28710664753289283, ,0.2646751403808594
0.012184065546845027,0.028669417309880863,-0.0853024633433569, ,0.012638030579900709,0.02972686809913368,-0.08597831272499633, ,0.0013345631530920742, ,0.009375436418970715,0.038027768321645346,-0.015994337926426384,0.05963776513385738,-0.03658941351261495,-0.026125033721775097, ,0.04230636851912035, ,0.06996747218984191, ,0.0018178686208927058, ,0.1609185849002161,-0.3175510530552376,0.09745248962000001,-4.510850064239088,0.18514245718217182,-1.0857027616772452, ,0.07396488040410817,-0.3377115357952697,0.028242573617021278,0.09809779864190571,-0.03268049828381612,0.28710664753289283, ,0.26697707176208496
0.012284484867966412,0.029044760473990787,-0.0854869996342697, ,0.01266201300169904,0.029817638699526253,-0.08602762391059025, ,0.0010159443151145707, ,0.010387750990470405,0.03735743838790057,-0.02115176244542658,-0.06080386697775971,-0.05911129488643959,-0.04078283962098405, ,0.04416877435579987, ,0.08480124520770144, ,0.0018105783999310863, ,0.161636799057519,-0.32078687812953766,0.09775711777000001,-4.509801614521665,0.18432263818357916,-1.0820121408698657, ,0.07140477167680269,-0.31113751330646156,0.03304732680497926,0.10184374016544752,-0.07397949315610197,0.37678450094901744, ,0.270143985748291
0.012284484867966412,0.029044760473990787,-0.0854869996342697, ,0.012686029267225141,0.029908217342056974,-0.08607697407347553, ,0.0011202077961266637, ,0.010387750990470405,0.03735743838790057,-0.02115176244542658,-0.06080386697775971,-0.05911129488643959,-0.04078283962098405, ,0.04416877435579987, ,0.08480124520770144, ,0.0018043588449418574, ,0.161636799057519,-0.32078687812953766,0.09775711777000001,-4.509801614521665,0.18432263818357916,-1.0820121408698657, ,0.07140477167680269,-0.31113751330646156,0.03304732680497926,0.10184374016544752,-0.07397949315610197,0.37678450094901744, ,0.27256298065185547
0.012284484867966412,0.029044760473990787,-0.0854869996342697, ,0.012710079431701505,0.029998604354661892,-0.0861263636000967, ,0.0012246367470285274, ,0.010387750990470405,0.03735743838790057,-0.02115176244542658,-0.06080386697775971,-0.05911129488643959,-0.04078283962098405, ,0.04416877435579987, ,0.08480124520770144, ,0.001799182754781917, ,0.161636799057519,-0.32078687812953766,0.09775711777000001,-4.509801614521665,0.18432263818357916,-1.0820121408698657, ,0.07140477167680269,-0.31113751330646156,0.03304732680497926,0.10184374016544752,-0.07397949315610197,0.37678450094901744, ,0.2748711109161377
0.012284484867966412,0.029044760473990787,-0.0854869996342697, ,0.012734163550262155,0.030088800064211236,-0.08617579287500142, ,0.001329159776601979, ,0.010387750990470405,0.03735743838790057,-0.02115176244542658,-0.06080386697775971,-0.05911129488643959,-0.04078283962098405, ,0.04416877435579987, ,0.08480124520770144, ,0.0017950232593997935, ,0.161636799057519,-0.32078687812953766,0.09775711777000001,-4.509801614521665,0.18432263818357916,-1.0820121408698657, ,0.07140477167680269,-0.31113751330646156,0.03304732680497926,0.10184374016544752,-0.07397949315610197,0.37678450094901744, ,0.27945399284362793
0.012366117263438642,0.029336974163172987,-0.08567154967260689, ,0.012758281677952085,0.030178804796510597,-0.08622526228084335, ,0.0010812351251029053, ,0.010995483697350506,0.037108617974359354,-0.026212380436336287,-0.05591388575148193,-0.028714575769419756,-0.023081126780859277, ,0.04674440156687079, ,0.06285600294971798, ,0.0017887619599761366, ,0.16220828129021161,-0.3231423116561762,0.09803452383000001,-4.509172544691212,0.18418600168381372,-1.079368682021812, ,0.07271796288005423,-0.2884405518494553,0.03792574171428572,0.09179156594841302,-0.0335106384712377,0.3537233152349919, ,0.28197813034057617
0.012366117263438642,0.029336974163172987,-0.08567154967260689, ,0.012782433869725269,0.03026861887630334,-0.0862747721983856, ,0.001185393944552021, ,0.010995483697350506,0.037108617974359354,-0.026212380436336287,-0.05591388575148193,-0.028714575769419756,-0.023081126780859277, ,0.04674440156687079, ,0.06285600294971798, ,0.0017835152815811443, ,0.16220828129021161,-0.3231423116561762,0.09803452383000001,-4.509172544691212,0.18418600168381372,-1.079368682021812, ,0.07271796288005423,-0.2884405518494553,0.03792574171428572,0.09179156594841302,-0.0335106384712377,0.3537233152349919, ,0.2842690944671631
0.012366117263438642,0.029336974163172987,-0.08567154967260689, ,0.012806620180444147,0.03035824262727239,-0.0863243230065051, ,0.0012896298387920844, ,0.010995483697350506,0.037108617974359354,-0.026212380436336287,-0.05591388575148193,-0.028714575769419756,-0.023081126780859277, ,0.04674440156687079, ,0.06285600294971798, ,0.0017792576484536526, ,0.16220828129021161,-0.3231423116561762,0.09803452383000001,-4.509172544691212,0.18418600168381372,-1.079368682021812, ,0.07271796288005423,-0.2884405518494553,0.03792574171428572,0.09179156594841302,-0.0335106384712377,0.3537233152349919, ,0.28658413887023926
0.012366117263438642,0.029336974163172987,-0.08567154967260689, ,0.012830840664878572,0.03044767637203891,-0.08637391508219336, ,0.001393895406839807, ,0.010995483697350506,0.037108617974359354,-0.026212380436336287,-0.05591388575148193,-0.028714575769419756,-0.023081126780859277, ,0.04674440156687079, ,0.06285600294971798, ,0.0017759639540808846, ,0.16220828129021161,-0.3231423116561762,0.09803452383000001,-4.509172544691212,0.18418600168381372,-1.079368682021812, ,0.07271796288005423,-0.2884405518494553,0.03792574171428572,0.09179156594841302,-0.0335106384712377,0.3537233152349919, ,0.2888221740722656
0.012517176126395526,0.02984011448437972,-0.08606434873399856, ,0.012855095377704557,0.03053692043216794,-0.08642354880056259, ,0.0008536700985145848, ,0.009711031165359782,0.032473279441595566,-0.02520481597742693,-0.027056891940129255,-0.002577234092877953,0.02166298433243547, ,0.042238616838652494, ,0.02717917152461744, ,0.0017681479044574415, ,0.1631890683652381,-0.3268955598330493,0.09858544708000001,-4.508124094973789,0.18418600168381372,-1.074876351314081, ,0.06407626033657716,-0.24146804467804267,0.035476194922048995,0.04613204754747944,0.01145189766965352,0.2773275114891597, ,0.2911820411682129
0.012517176126395526,0.02984011448437972,-0.08606434873399856, ,0.012879384373502561,0.030625975128167414,-0.0864732245348468, ,0.0009570533873541465, ,0.009711031165359782,0.032473279441595566,-0.02520481597742693,-0.027056891940129255,-0.002577234092877953,0.02166298433243547, ,0.042238616838652494, ,0.02717917152461744, ,0.001761331984145649, ,0.1631890683652381,-0.3268955598330493,0.09858544708000001,-4.508124094973789,0.18418600168381372,-1.074876351314081, ,0.06407626033657716,-0.24146804467804267,0.035476194922048995,0.04613204754747944,0.01145189766965352,0.2773275114891597, ,0.293438196182251
0.012517176126395526,0.02984011448437972,-0.08606434873399856, ,0.01290370770675742,0.03071484077949017,-0.08652294265640591, ,0.0010605947103600306, ,0.009711031165359782,0.032473279441595566,-0.02520481597742693,-0.027056891940129255,-0.002577234092877953,0.02166298433243547, ,0.042238616838652494, ,0.02717917152461744, ,0.0017554925068641021, ,0.1631890683652381,-0.3268955598330493,0.09858544708000001,-4.508124094973789,0.18418600168381372,-1.074876351314081, ,0.06407626033657716,-0.24146804467804267,0.035476194922048995,0.04613204754747944,0.01145189766965352,0.2773275114891597, ,0.29574012756347656
0.012517176126395526,0.02984011448437972,-0.08606434873399856, ,0.012928065431856742,0.0308035177045359,-0.08657270353472907, ,0.0011642166419423216, ,0.009711031165359782,0.032473279441595566,-0.02520481597742693,-0.027056891940129255,-0.002577234092877953,0.02166298433243547, ,0.042238616838652494, ,0.02717917152461744, ,0.0017506059294680543, ,0.1631890683652381,-0.3268955598330493,0.09858544708000001,-4.508124094973789,0.18418600168381372,-1.074876351314081, ,0.06407626033657716,-0.24146804467804267,0.035476194922048995,0.04613204754747944,0.01145189766965352,0.2773275114891597, ,0.29796719551086426
0.01261946551107564,0.030175969866201045,-0.0863148538178635, ,0.012952457603090769,0.03089200622065256,-0.08662250753743722, ,0.0008474919500552043, ,0.009432159079534663,0.03126891474223842,-0.023306533174257297,-0.02982268281606646,0.010379212650624662,-0.024187653522222238, ,0.04012362324942476, ,0.031577105452574826, ,0.0017432033558663095, ,0.16387639159104408,-0.32941317075004645,0.09894322312,-4.507285335199851,0.18418600168381372,-1.071935916669021, ,0.06356124685764955,-0.23316201857118127,0.033323873472803356,0.09292946052050338,0.008197334398520158,0.27865578665486923, ,0.3018221855163574
0.01261946551107564,0.030175969866201045,-0.0863148538178635, ,0.012976884274649015,0.030980306644138773,-0.08667235503028713, ,0.0009500068114397551, ,0.009432159079534663,0.03126891474223842,-0.023306533174257297,-0.02982268281606646,0.010379212650624662,-0.024187653522222238, ,0.04012362324942476, ,0.031577105452574826, ,0.0017367546034725977, ,0.16387639159104408,-0.32941317075004645,0.09894322312,-4.507285335199851,0.18418600168381372,-1.071935916669021, ,0.06356124685764955,-0.23316201857118127,0.033323873472803356,0.09292946052050338,0.008197334398520158,0.27865578665486923, ,0.3041870594024658
0.01261946551107564,0.030175969866201045,-0.0863148538178635, ,0.013001345500622647,0.03106841929024402,-0.08672224637717382, ,0.001052742607797593, ,0.009432159079534663,0.03126891474223842,-0.023306533174257297,-0.02982268281606646,0.010379212650624662,-0.024187653522222238, ,0.04012362324942476, ,0.031577105452574826, ,0.0017312383777010251, ,0.16387639159104408,-0.32941317075004645,0.09894322312,-4.507285335199851,0.18418600168381372,-1.071935916669021, ,0.06356124685764955,-0.23316201857118127,0.033323873472803356,0.09292946052050338,0.008197334398520158,0.27865578665486923, ,0.3064591884613037
0.01261946551107564,0.030175969866201045,-0.0863148538178635, ,0.013025841335000996,0.031156344473171376,-0.08677218194013431, ,0.0011556057682804237, ,0.009432159079534663,0.03126891474223842,-0.023306533174257297,-0.02982268281606646,0.010379212650624662,-0.024187653522222238, ,0.04012362324942476, ,0.031577105452574826, ,0.0017266333168256603, ,0.16387639159104408,-0.32941317075004645,0.09894322312,-4.507285335199851,0.18418600168381372,-1.071935916669021, ,0.06356124685764955,-0.23316201857118127,0.033323873472803356,0.09292946052050338,0.008197334398520158,0.27865578665486923, ,0.30872511863708496
0.01261946551107564,0.030175969866201045,-0.0863148538178635, ,0.013050371831672,0.03124408250607897,-0.08682216207935055, ,0.0012585334881400245, ,0.009432159079534663,0.03126891474223842,-0.023306533174257297,-0.02982268281606646,0.010379212650624662,-0.024187653522222238, ,0.04012362324942476, ,0.031577105452574826, ,0.0017229182388202187, ,0.16387639159104408,-0.32941317075004645,0.09894322312,-4.507285335199851,0.18418600168381372,-1.071935916669021, ,0.06356124685764955,-0.23316201857118127,0.033323873472803356,0.09292946052050338,0.008197334398520158,0.27865578665486923, ,0.3110811710357666
0.01271996235777636,0.03049786758909641,-0.0865601595128054, ,0.013074937044419798,0.03133163370108182,-0.08687218715315229, ,0.0009584019021231757, ,0.009084534452751244,0.02859362123609424,-0.02194099019350852,-0.05641380606289791,0.012301091465929689,-0.031180870300025882, ,0.037168951993405475, ,0.05773932179087874, ,0.001716898425145439, ,0.16454826935110162,-0.33178404974243336,0.09929192513000001,-4.506236885482428,0.18418600168381372,-1.0687504458035388, ,0.06162139062238363,-0.20902410034905458,0.031171842504892373,0.09601664169216,0.006326736899264299,0.28170740525893595, ,0.31374120712280273
0.01271996235777636,0.03049786758909641,-0.0865601595128054, ,0.013099537026925265,0.03141899836925334,-0.08692225751802105, ,0.001060034814991075, ,0.009084534452751244,0.02859362123609424,-0.02194099019350852,-0.05641380606289791,0.012301091465929689,-0.031180870300025882, ,0.037168951993405475, ,0.05773932179087874, ,0.0017117666781911079, ,0.16454826935110162,-0.33178404974243336,0.09929192513000001,-4.506236885482428,0.18418600168381372,-1.0687504458035388, ,0.06162139062238363,-0.20902410034905458,0.031171842504892373,0.09601664169216,0.006326736899264299,0.28170740525893595, ,0.3160121440887451
0.01271996235777636,0.03049786758909641,-0.0865601595128054, ,0.013124171832764955,0.03150617682062716,-0.0869723735285923, ,0.0011618920779796408, ,0.009084534452751244,0.02859362123609424,-0.02194099019350852,-0.05641380606289791,0.012301091465929689,-0.031180870300025882, ,0.037168951993405475, ,0.05773932179087874, ,0.001707504084391019, ,0.16454826935110162,-0.33178404974243336,0.09929192513000001,-4.506236885482428,0.18418600168381372,-1.0687504458035388, ,0.06162139062238363,-0.20902410034905458,0.031171842504892373,0.09601664169216,0.006326736899264299,0.28170740525893595, ,0.31828904151916504
0.01271996235777636,0.03049786758909641,-0.0865601595128054, ,0.013148841515409408,0.031593169364199106,-0.08702253553765965, ,0.0012638887999959349, ,0.009084534452751244,0.02859362123609424,-0.02194099019350852,-0.05641380606289791,0.012301091465929689,-0.031180870300025882, ,0.037168951993405475, ,0.05773932179087874, ,0.0017040916591264414, ,0.16454826935110162,-0.33178404974243336,0.09929192513000001,-4.506236885482428,0.18418600168381372,-1.0687504458035388, ,0.06162139062238363,-0.20902410034905458,0.031171842504892373,0.09601664169216,0.006326736899264299,0.28170740525893595, ,0.3205070495605469
0.012784430278481336,0.03069705412613273,-0.08670790684121292, ,0.013173546128222498,0.031679976307928466,-0.08707274389617707, ,0.0011183260869088185, ,0.009073042092950068,0.02757573158187364,-0.019904002208966022,-0.05998529745570481,-0.0037046144030179412,-0.0005866835812450353, ,0.035198158602837606, ,0.06009955869046753, ,0.0016996201662087494, ,0.16499618785780665,-0.33325909172141027,0.09950451669000002,-4.505817505595459,0.18418600168381372,-1.0667084773000248, ,0.06513173751439313,-0.2054046354079454,0.028961475490909095,0.06192306610367384,0.0054970019361576345,0.27624505247051395, ,0.3227400779724121
0.012784430278481336,0.03069705412613273,-0.08670790684121292, ,0.013198285724461639,0.031766597958740275,-0.08712299895326242, ,0.001219631830316881, ,0.009073042092950068,0.02757573158187364,-0.019904002208966022,-0.05998529745570481,-0.0037046144030179412,-0.0005866835812450353, ,0.035198158602837606, ,0.06009955869046753, ,0.0016959838909368413, ,0.16499618785780665,-0.33325909172141027,0.09950451669000002,-4.505817505595459,0.18418600168381372,-1.0667084773000248, ,0.06513173751439313,-0.2054046354079454,0.028961475490909095,0.06192306610367384,0.0054970019361576345,0.27624505247051395, ,0.32505297660827637
0.012784430278481336,0.03069705412613273,-0.08670790684121292, ,0.013223060357275258,0.03185303462252719,-0.08717330105620086, ,0.001321090091330408, ,0.009073042092950068,0.02757573158187364,-0.019904002208966022,-0.05998529745570481,-0.0037046144030179412,-0.0005866835812450353, ,0.035198158602837606, ,0.06009955869046753, ,0.0016931651405638606, ,0.16499618785780665,-0.33325909172141027,0.09950451669000002,-4.505817505595459,0.18418600168381372,-1.0667084773000248, ,0.06513173751439313,-0.2054046354079454,0.028961475490909095,0.06192306610367384,0.0054970019361576345,0.27624505247051395, ,0.32744812965393066
0.012784430278481336,0.03069705412613273,-0.08670790684121292, ,0.013244295088268049,0.03194860769286873,-0.08722303689396246, ,0.0014294127972477096, ,0.009073042092950068,0.02757573158187364,-0.019904002208966022,-0.05998529745570481,-0.0037046144030179412,-0.0005866835812450353, ,0.035198158602837606, ,0.06009955869046753, ,0.0016911968394943372, ,0.16499618785780665,-0.33325909172141027,0.09950451669000002,-4.505817505595459,0.18418600168381372,-1.0667084773000248, ,0.06513173751439313,-0.2054046354079454,0.028961475490909095,0.06192306610367384,0.0054970019361576345,0.27624505247051395, ,0.32987403869628906
0.012784430278481336,0.03069705412613273,-0.08670790684121292, ,0.013269173611711989,0.032034689997182605,-0.08727341990479957, ,0.0015310293425398753, ,0.009073042092950068,0.02757573158187364,-0.019904002208966022,-0.05998529745570481,-0.0037046144030179412,-0.0005866835812450353, ,0.035198158602837606, ,0.06009955869046753, ,0.0016900104135909708, ,0.16499618785780665,-0.33325909172141027,0.09950451669000002,-4.505817505595459,0.18418600168381372,-1.0667084773000248, ,0.06513173751439313,-0.2054046354079454,0.028961475490909095,0.06192306610367384,0.0054970019361576345,0.27624505247051395, ,0.33219099044799805
0.012900675924976585,0.03104839038755856,-0.08696162571142643, ,0.01329408711684602,0.032120588104452966,-0.0873238511130239, ,0.0011981600692579245, ,0.008535639421926866,0.025354335744550434,-0.019012997210550026,-0.06234761813797807,0.006349904738637941,-0.027564672711354203, ,0.03282062681176157, ,0.06267012281054878, ,0.001686393866941463, ,0.16582252027534866,-0.33586165270002394,0.09987395934000001,-4.504769055878036,0.18418600168381372,-1.0630329339936995, ,0.06017561290962003,-0.1842659059387782,0.027369091958762887,0.08570438899354439,0.004414376289408627,0.26114870369909227, ,0.334522008895874
0.012900675924976585,0.03104839038755856,-0.08696162571142643, ,0.013319035657875093,0.032206302315602134,-0.08737433085769769, ,0.0012985031524702885, ,0.008535639421926866,0.025354335744550434,-0.019012997210550026,-0.06234761813797807,0.006349904738637941,-0.027564672711354203, ,0.03282062681176157, ,0.06267012281054878, ,0.001683562547857732, ,0.16582252027534866,-0.33586165270002394,0.09987395934000001,-4.504769055878036,0.18418600168381372,-1.0630329339936995, ,0.06017561290962003,-0.1842659059387782,0.027369091958762887,0.08570438899354439,0.004414376289408627,0.26114870369909227, ,0.3369920253753662
0.012900675924976585,0.03104839038755856,-0.08696162571142643, ,0.013344019288861,0.03229183293052075,-0.08742485947608498, ,0.0013990311707279294, ,0.008535639421926866,0.025354335744550434,-0.019012997210550026,-0.06234761813797807,0.006349904738637941,-0.027564672711354203, ,0.03282062681176157, ,0.06267012281054878, ,0.0016815007262843277, ,0.16582252027534866,-0.33586165270002394,0.09987395934000001,-4.504769055878036,0.18418600168381372,-1.0630329339936995, ,0.06017561290962003,-0.1842659059387782,0.027369091958762887,0.08570438899354439,0.004414376289408627,0.26114870369909227, ,0.3393070697784424
0.012900675924976585,0.03104839038755856,-0.08696162571142643, ,0.013369038063722598,0.03237718024807045,-0.08747543730365574, ,0.0014996826126614825, ,0.008535639421926866,0.025354335744550434,-0.019012997210550026,-0.06234761813797807,0.006349904738637941,-0.027564672711354203, ,0.03282062681176157, ,0.06267012281054878, ,0.0016801926823014294, ,0.1664326161724124,-0.33776144498708316,0.10016173572,-4.503930296104099,0.18418600168381372,-1.060337535569061, ,0.060443911820682025,-0.19936332260182937,0.030282911634980987,0.07858040464728726,0.0038434711570799833,0.26213614597979173, ,0.34183311462402344
0.012989121580614644,0.03131197615976314,-0.08716268163776643, ,0.013394092036235495,0.03246234456608621,-0.08752606467408766, ,0.0012725548205394063, ,0.008952868369226905,0.02772653362639164,-0.021186647055567595,-0.0496023206608329,0.0035535403473873745,-0.018397236448560898, ,0.03602483216379115, ,0.04972940372745285, ,0.0016772809832888435, ,0.1664326161724124,-0.33776144498708316,0.10016173572,-4.503930296104099,0.18418600168381372,-1.060337535569061, ,0.060443911820682025,-0.19936332260182937,0.030282911634980987,0.07858040464728726,0.0038434711570799833,0.26213614597979173, ,0.3441121578216553
0.012989121580614644,0.03131197615976314,-0.08716268163776643, ,0.013419181260032255,0.032547326181378906,-0.08757674191926909, ,0.0013720375069526782, ,0.008952868369226905,0.02772653362639164,-0.021186647055567595,-0.0496023206608329,0.0035535403473873745,-0.018397236448560898, ,0.03602483216379115, ,0.04972940372745285, ,0.0016751161359389415, ,0.1664326161724124,-0.33776144498708316,0.10016173572,-4.503930296104099,0.18418600168381372,-1.060337535569061, ,0.060443911820682025,-0.19936332260182937,0.030282911634980987,0.07858040464728726,0.0038434711570799833,0.26213614597979173, ,0.346480131149292
0.012989121580614644,0.03131197615976314,-0.08716268163776643, ,0.01344430578860229,0.03263212538973733,-0.08762746936930191, ,0.001471738525686098, ,0.008952868369226905,0.02772653362639164,-0.021186647055567595,-0.0496023206608329,0.0035535403473873745,-0.018397236448560898, ,0.03602483216379115, ,0.04972940372745285, ,0.0016736838992470202, ,0.1664326161724124,-0.33776144498708316,0.10016173572,-4.503930296104099,0.18418600168381372,-1.060337535569061, ,0.060443911820682025,-0.19936332260182937,0.030282911634980987,0.07858040464728726,0.0038434711570799833,0.26213614597979173, ,0.3488140106201172
0.012989121580614644,0.03131197615976314,-0.08716268163776643, ,0.013469465675291835,0.03271674248593134,-0.08767824735250385, ,0.0015715937409649006, ,0.008952868369226905,0.02772653362639164,-0.021186647055567595,-0.0496023206608329,0.0035535403473873745,-0.018397236448560898, ,0.03602483216379115, ,0.04972940372745285, ,0.001672969982056236, ,0.1664326161724124,-0.33776144498708316,0.10016173572,-4.503930296104099,0.18418600168381372,-1.060337535569061, ,0.060443911820682025,-0.19936332260182937,0.030282911634980987,0.07858040464728726,0.0038434711570799833,0.26213614597979173, ,0.3510720729827881
0.013079853181041132,0.031590741501114655,-0.08739068961261598, ,0.01349466097330408,0.03280117776371343,-0.08772907619541147, ,0.0013235282126770665, ,0.009951912158802246,0.029173488020208384,-0.0258006012313043,-0.06264404520225979,0.013352162549319424,-0.054751175169687624, ,0.040197064355230454, ,0.06405111405227601, ,0.0016705433031022141, ,0.1670272666037277,-0.3396998509385135,0.10048062306000001,-4.502881846386677,0.18432263818357916,-1.0579169125284, ,0.06206470997937919,-0.19526119662236785,0.03524073345132744,0.11693993357679176,0.0,0.2767738233031162, ,0.3533589839935303
0.013079853181041132,0.031590741501114655,-0.08739068961261598, ,0.013519891735698926,0.03288543151582188,-0.08777995622278274, ,0.00142175407773589, ,0.009951912158802246,0.029173488020208384,-0.0258006012313043,-0.06264404520225979,0.013352162549319424,-0.054751175169687624, ,0.040197064355230454, ,0.06405111405227601, ,0.001668827515341067, ,0.1670272666037277,-0.3396998509385135,0.10048062306000001,-4.502881846386677,0.18432263818357916,-1.0579169125284, ,0.06206470997937919,-0.19526119662236785,0.03524073345132744,0.11693993357679176,0.0,0.2767738233031162, ,0.35560011863708496
0.013079853181041132,0.031590741501114655,-0.08739068961261598, ,0.013545158015393207,0.032969504033982855,-0.0878308877576004, ,0.0015202858671185056, ,0.009951912158802246,0.029173488020208384,-0.0258006012313043,-0.06264404520225979,0.013352162549319424,-0.054751175169687624, ,0.040197064355230454, ,0.06405111405227601, ,0.0016678101067915975, ,0.1670272666037277,-0.3396998509385135,0.10048062306000001,-4.502881846386677,0.18432263818357916,-1.0579169125284, ,0.06206470997937919,-0.19526119662236785,0.03524073345132744,0.11693993357679176,0.0,0.2767738233031162, ,0.3578450679779053
0.013079853181041132,0.031590741501114655,-0.08739068961261598, ,0.013570459865160499,0.033053395608912746,-0.08788187112107287, ,0.0016190463958179887, ,0.009951912158802246,0.029173488020208384,-0.0258006012313043,-0.06264404520225979,0.013352162549319424,-0.054751175169687624, ,0.040197064355230454, ,0.06405111405227601, ,0.001667478380866607, ,0.1670272666037277,-0.3396998509385135,0.10048062306000001,-4.502881846386677,0.18432263818357916,-1.0579169125284, ,0.06206470997937919,-0.19526119662236785,0.03524073345132744,0.11693993357679176,0.0,0.2767738233031162, ,0.36006617546081543
0.01318289079662353,0.03188645717901084,-0.08766202403965127, ,0.013595797337631273,0.03313710653032108,-0.08793290663263961, ,0.0013446162986978042, ,0.010627345640886963,0.030674294702700777,-0.02799239359044247,-0.08324687169982921,0.004624901056135478,-0.026949339926773737, ,0.04286521818212594, ,0.08337514120277577, ,0.0016652968803114124, ,0.1676605306994141,-0.34163825688994387,0.10084747313,-4.501833396669253,0.18432263818357916,-1.0550581566234805, ,0.06477606932318823,-0.19936332260182937,0.03774599886255925,0.09015796118882681,0.0,0.29790517737850897, ,0.362429141998291
0.01318289079662353,0.03188645717901084,-0.08766202403965127, ,0.013621170485292686,0.033220637086912176,-0.08798399460997125, ,0.0014407602716273512, ,0.010627345640886963,0.030674294702700777,-0.02799239359044247,-0.08324687169982921,0.004624901056135478,-0.026949339926773737, ,0.04286521818212594, ,0.08337514120277577, ,0.0016637899232061501, ,0.1676605306994141,-0.34163825688994387,0.10084747313,-4.501833396669253,0.18432263818357916,-1.0550581566234805, ,0.06477606932318823,-0.19936332260182937,0.03774599886255925,0.09015796118882681,0.0,0.29790517737850897, ,0.364670991897583
0.01318289079662353,0.03188645717901084,-0.08766202403965127, ,0.013646579360488794,0.033303987566388346,-0.08803513536897398, ,0.0015374041587907215, ,0.010627345640886963,0.030674294702700777,-0.02799239359044247,-0.08324687169982921,0.004624901056135478,-0.026949339926773737, ,0.04286521818212594, ,0.08337514120277577, ,0.0016629473514433806, ,0.1676605306994141,-0.34163825688994387,0.10084747313,-4.501833396669253,0.18432263818357916,-1.0550581566234805, ,0.06477606932318823,-0.19936332260182937,0.03774599886255925,0.09015796118882681,0.0,0.29790517737850897, ,0.36695098876953125
0.01318289079662353,0.03188645717901084,-0.08766202403965127, ,0.013672024015420383,0.033387158255451764,-0.08808632922379153, ,0.0016344387158440093, ,0.010627345640886963,0.030674294702700777,-0.02799239359044247,-0.08324687169982921,0.004624901056135478,-0.026949339926773737, ,0.04286521818212594, ,0.08337514120277577, ,0.0016627585525321265, ,0.1676605306994141,-0.34163825688994387,0.10084747313,-4.501833396669253,0.18432263818357916,-1.0550581566234805, ,0.06477606932318823,-0.19936332260182937,0.03774599886255925,0.09015796118882681,0.0,0.29790517737850897, ,0.3692750930786133
0.013298777075319608,0.0322179522467736,-0.08796668697834042, ,0.013697504502144983,0.03347014943980729,-0.08813757648680821, ,0.0013252111511938764, ,0.011105225416878018,0.031563071256486525,-0.029164457473121932,-0.10358545848941013,-0.008225093282087346,0.009984462855557355, ,0.04438602345787756, ,0.10391139624983052, ,0.0016605378459443748, ,0.1683478539252201,-0.3437311174988587,0.10124543416000001,-4.5012043268388,0.18432263818357916,-1.051954364498139, ,0.06792909202467486,-0.20451927060015251,0.03942775128712872,0.052662586374623684,0.0,0.31679192434244063, ,0.37249207496643066
0.013298777075319608,0.0322179522467736,-0.08796668697834042, ,0.013723020872576914,0.03355296140416473,-0.08818887746865126, ,0.00141830915664182, ,0.011105225416878018,0.031563071256486525,-0.029164457473121932,-0.10358545848941013,-0.008225093282087346,0.009984462855557355, ,0.04438602345787756, ,0.10391139624983052, ,0.0016589546518966456, ,0.1683478539252201,-0.3437311174988587,0.10124543416000001,-4.5012043268388,0.18432263818357916,-1.051954364498139, ,0.06792909202467486,-0.20451927060015251,0.03942775128712872,0.052662586374623684,0.0,0.31679192434244063, ,0.37488508224487305
0.013298777075319608,0.0322179522467736,-0.08796668697834042, ,0.013748573178487232,0.03363559443224107,-0.08824023247819372, ,0.0015122344530302634, ,0.011105225416878018,0.031563071256486525,-0.029164457473121932,-0.10358545848941013,-0.008225093282087346,0.009984462855557355, ,0.04438602345787756, ,0.10391139624983052, ,0.0016580019233325785, ,0.1683478539252201,-0.3437311174988587,0.10124543416000001,-4.5012043268388,0.18432263818357916,-1.051954364498139, ,0.06792909202467486,-0.20451927060015251,0.03942775128712872,0.052662586374623684,0.0,0.31679192434244063, ,0.37718820571899414
0.013298777075319608,0.0322179522467736,-0.08796668697834042, ,0.013774161471503742,0.03371804880676332,-0.08829164182255746, ,0.001606821603106102, ,0.011105225416878018,0.031563071256486525,-0.029164457473121932,-0.10358545848941013,-0.008225093282087346,0.009984462855557355, ,0.04438602345787756, ,0.10391139624983052, ,0.001657671727718214, ,0.1683478539252201,-0.3437311174988587,0.10124543416000001,-4.5012043268388,0.18432263818357916,-1.051954364498139, ,0.06792909202467486,-0.20451927060015251,0.03942775128712872,0.052662586374623684,0.0,0.31679192434244063, ,0.3795511722564697
0.013402695647643037,0.032511615226638244,-0.08823239524561409, ,0.013799785803110951,0.033800324809470664,-0.0883431058071151, ,0.0017019411879250308, ,0.011111327010707167,0.031134396305723164,-0.027180339213358537,-0.09278490287487963,-0.006936686630977991,-0.005274975505078226, ,0.04310828619250544, ,0.09304375846002635, ,0.0016579555063092834, ,0.16900428621952918,-0.3457158598475344,0.10162135826000002,-4.500575257008347,0.18418600168381372,-1.0487391544691012, ,0.07124395011897205,-0.2054046354079454,0.03747955651764706,0.06873864259971249,0.0,0.30980127773361676, ,0.3825650215148926
0.013402695647643037,0.032511615226638244,-0.08823239524561409, ,0.013825446224650114,0.033882422721116925,-0.08839462473549378, ,0.0014436584238196248, ,0.011111327010707167,0.031134396305723164,-0.027180339213358537,-0.09278490287487963,-0.006936686630977991,-0.005274975505078226, ,0.04279699827106961, ,0.09304375846002635, ,0.0016565905567392854, ,0.16900428621952918,-0.3457158598475344,0.10162135826000002,-4.500575257008347,0.18418600168381372,-1.0487391544691012, ,0.07124395011897205,-0.2054046354079454,0.03747955651764706,0.06873864259971249,0.0,0.30980127773361676, ,0.3850882053375244
0.013402695647643037,0.032511615226638244,-0.08823239524561409, ,0.013851142787319163,0.03396434282147306,-0.08844619890957678, ,0.0015353287298172055, ,0.011111327010707167,0.031134396305723164,-0.027180339213358537,-0.09278490287487963,-0.006936686630977991,-0.005274975505078226, ,0.04279699827106961, ,0.09304375846002635, ,0.0016558230768220572, ,0.16900428621952918,-0.3457158598475344,0.10162135826000002,-4.500575257008347,0.18418600168381372,-1.0487391544691012, ,0.07124395011897205,-0.2054046354079454,0.03747955651764706,0.06873864259971249,0.0,0.30980127773361676, ,0.38739514350891113
0.013402695647643037,0.032511615226638244,-0.08823239524561409, ,0.013876875542172755,0.0340460853893296,-0.0884978286295072, ,0.0016278513856772055, ,0.011111327010707167,0.031134396305723164,-0.027180339213358537,-0.09278490287487963,-0.006936686630977991,-0.005274975505078226, ,0.04279699827106961, ,0.09304375846002635, ,0.0016556471542362406, ,0.16900428621952918,-0.3457158598475344,0.10162135826000002,-4.500575257008347,0.18418600168381372,-1.0487391544691012, ,0.07124395011897205,-0.2054046354079454,0.03747955651764706,0.06873864259971249,0.0,0.30980127773361676, ,0.38973212242126465
0.013514986198519948,0.032843133746064464,-0.08849309678474487, ,0.013902644540122168,0.034127650702498874,-0.08854951419368984, ,0.0013429243184980184, ,0.011111327010707167,0.031134396305723164,-0.027180339213358537,-0.09278490287487963,-0.006936686630977991,-0.005274975505078226, ,0.04279699827106961, ,0.09304375846002635, ,0.0016536926365128767, ,0.16976111404120317,-0.34799406604543065,0.10199339349000001,-4.499736497234409,0.18432263818357916,-1.0457467802474563, ,0.07425425787047792,-0.2243426514384652,0.03381913273885351,0.08694012809671227,0.004347028412545965,0.2818203531275214, ,0.39263010025024414
0.013514986198519948,0.032843133746064464,-0.08849309678474487, ,0.013928449831935412,0.034209039037817815,-0.08860125589879418, ,0.0014312050293891702, ,0.010680311821427771,0.031750994409831396,-0.023013298074834664,-0.0429001758640718,-0.0032590615286524857,-0.019310417555730118, ,0.040642423585426884, ,0.04302371574195527, ,0.0016523107259096238, ,0.16976111404120317,-0.34799406604543065,0.10199339349000001,-4.499736497234409,0.18432263818357916,-1.0457467802474563, ,0.07425425787047792,-0.2243426514384652,0.03381913273885351,0.08694012809671227,0.004347028412545965,0.2818203531275214, ,0.39502906799316406
0.013514986198519948,0.032843133746064464,-0.08849309678474487, ,0.013954291468237193,0.03429025067115005,-0.08865305403975764, ,0.0015207638995918173, ,0.010680311821427771,0.031750994409831396,-0.023013298074834664,-0.0429001758640718,-0.0032590615286524857,-0.019310417555730118, ,0.040642423585426884, ,0.04302371574195527, ,0.0016514987084632177, ,0.16976111404120317,-0.34799406604543065,0.10199339349000001,-4.499736497234409,0.18432263818357916,-1.0457467802474563, ,0.07425425787047792,-0.2243426514384652,0.03381913273885351,0.08694012809671227,0.004347028412545965,0.2818203531275214, ,0.39730119705200195
0.013514986198519948,0.032843133746064464,-0.08849309678474487, ,0.01398016949950876,0.03437128587738857,-0.08870490890978741, ,0.0016113686158990127, ,0.010680311821427771,0.031750994409831396,-0.023013298074834664,-0.0429001758640718,-0.0032590615286524857,-0.019310417555730118, ,0.040642423585426884, ,0.04302371574195527, ,0.0016512525115763206, ,0.16976111404120317,-0.34799406604543065,0.10199339349000001,-4.499736497234409,0.18432263818357916,-1.0457467802474563, ,0.07425425787047792,-0.2243426514384652,0.03381913273885351,0.08694012809671227,0.004347028412545965,0.2818203531275214, ,0.3997220993041992
0.013620248608889995,0.033154402155891605,-0.08870756207547265, ,0.014006083976088117,0.034452144930457826,-0.08875682080036357, ,0.0013547810382115713, ,0.010680311821427771,0.031750994409831396,-0.023013298074834664,-0.0429001758640718,-0.0032590615286524857,-0.019310417555730118, ,0.040642423585426884, ,0.04302371574195527, ,0.0016494447586899502, ,0.17051021913000294,-0.3502259358460815,0.10231487341,-4.49889773746047,0.18432263818357916,-1.0431330605629583, ,0.07579627920005652,-0.22172182607119342,0.030632329846153848,0.06842818606315902,0.004110356920984381,0.2387235122974698, ,0.40236616134643555
