NicholasDascanio/dvrk_moveit_final/test/execution/noob_justexecution/no_ramp/noob__noramp_300vel3.csv
Current Position (x),Current Position (y),Current Position (z), ,Planned Position (x),Planned Position (y),Planned Position (z), ,Position Error,,Cartesian linear Velocity(x),Cartesian linear Velocity(y),Cartesian linear Velocity(z),Cartesian Angular Velocity(x),Cartesian Angular Velocity(y),Cartesian Angular Velocity(z), ,Total Linear Velocity, ,Total Angular Velocity, ,MSE, ,Joint 1 Position,Joint 2 Position,Joint 3 Position,Joint 4 Position,Joint 5 Position,Joint 6 Position, ,Joint 1 Velocity,Joint 2 Velocity,Joint 3 Velocity,Joint 4 Velocity,Joint 5 Velocity,Joint 6 Velocity, ,Time Stamp
0.009954850237001146,0.018799194090026308,-0.0806145996173215, ,0.010233066470075344,0.018819598261811274,-0.08074349377026369, ,0.0003073016518584175, ,7.031310328551965e-05,-3.350276646456027e-05,-1.4495085879226905e-06,-0.0004145698277703393,-0.0008547988815494999,-5.843887304557194e-05, ,7.790037823762783e-05, ,0.0009500259312228297, ,0.00015365082592920875, ,0.14003631520831303,-0.22450756738658073,0.08997289632000001,-4.537480687061622,0.15631215573166388,-1.3807406705454932, ,0.0008547988815494997,0.0004186684177011269,2.243025098493722e-06,0.0,0.0,0.0, ,0.0036568641662597656
0.009954850237001146,0.018799194090026308,-0.0806145996173215, ,0.010253540104480515,0.01893265208171799,-0.08079163135549057, ,0.0003719770272481685, ,7.031310328551965e-05,-3.350276646456027e-05,-1.4495085879226905e-06,-0.0004145698277703393,-0.0008547988815494999,-5.843887304557194e-05, ,7.790037823762783e-05, ,0.0009500259312228297, ,0.000226426226368862, ,0.14003631520831303,-0.22450756738658073,0.08997289632000001,-4.537480687061622,0.15631215573166388,-1.3807406705454932, ,0.0008547988815494997,0.0004186684177011269,2.243025098493722e-06,0.0,0.0,0.0, ,0.008650064468383789
0.009955430439059621,0.018808568075236683,-0.0806228867297832, ,0.010274041469830297,0.019045475548826168,-0.08083975457667138, ,0.00045240446835240287, ,0.0002368569331898981,0.0021514697576995446,-0.001575496051947265,0.16409980669575147,-0.019432006837055968,-0.004693717127386297, ,0.0026771460802125237, ,0.16524632960307675, ,0.0002829207868647472, ,0.14004403794118725,-0.2245925174481972,0.08998326664,-4.537480687061622,0.1564487922314293,-1.381668875850595, ,0.00017992254076765407,-0.020902410034905457,0.002037192930042205,0.0,0.0,-0.14488866105274023, ,0.01299595832824707
0.009955430439059621,0.018808568075236683,-0.0806228867297832, ,0.010294570636305029,0.01915806910419729,-0.0808878640364839, ,0.0005544186285637747, ,0.0002368569331898981,0.0021514697576995446,-0.001575496051947265,0.16409980669575147,-0.019432006837055968,-0.004693717127386297, ,0.0026771460802125237, ,0.16524632960307675, ,0.00033722035520455273, ,0.14004403794118725,-0.2245925174481972,0.08998326664,-4.537480687061622,0.1564487922314293,-1.381668875850595, ,0.00017992254076765407,-0.020902410034905457,0.002037192930042205,0.0,0.0,-0.14488866105274023, ,0.016644001007080078
0.009955430439059621,0.018808568075236683,-0.0806228867297832, ,0.010315127673950418,0.019270433187589885,-0.08093596033544073, ,0.000663864869801476, ,0.0002368569331898981,0.0021514697576995446,-0.001575496051947265,0.16409980669575147,-0.019432006837055968,-0.004693717127386297, ,0.0026771460802125237, ,0.16524632960307675, ,0.0003916611076373733, ,0.14004403794118725,-0.2245925174481972,0.08998326664,-4.537480687061622,0.1564487922314293,-1.381668875850595, ,0.00017992254076765407,-0.020902410034905457,0.002037192930042205,0.0,0.0,-0.14488866105274023, ,0.020251989364624023
0.009962506709119696,0.018828087819684175,-0.0806381004602882, ,0.010335712652676661,0.019382568237461328,-0.080984044071892, ,0.0007526009516430662, ,0.0003904828142197068,0.0030822708914450504,-0.0022369400262391348,0.2838085800683503,-0.03575396171576129,-0.009404981522942881, ,0.003828416298868391, ,0.2860518412783412, ,0.00044322394249532947, ,0.14005948340693572,-0.2247855857700528,0.09000271099000001,-4.537480687061622,0.15603888273213298,-1.3827231607218953, ,0.0008269774617920372,-0.029983235879453642,0.0029045972866520793,0.0,-0.0008118110288994348,-0.25686648962239556, ,0.023894071578979492
0.009962506709119696,0.018828087819684175,-0.0806381004602882, ,0.010356325642258512,0.019494474690970414,-0.08103211584202838, ,0.0008685694764203471, ,0.0003904828142197068,0.0030822708914450504,-0.0022369400262391348,0.2838085800683503,-0.03575396171576129,-0.009404981522942881, ,0.003828416298868391, ,0.2860518412783412, ,0.0004963921342359567, ,0.14005948340693572,-0.2247855857700528,0.09000271099000001,-4.537480687061622,0.15603888273213298,-1.3827231607218953, ,0.0008269774617920372,-0.029983235879453642,0.0029045972866520793,0.0,-0.0008118110288994348,-0.25686648962239556, ,0.02770209312438965
0.009962506709119696,0.018828087819684175,-0.0806381004602882, ,0.010376966712335574,0.01960615298397996,-0.08108017623988371, ,0.0009862015458623635, ,0.0003904828142197068,0.0030822708914450504,-0.0022369400262391348,0.2838085800683503,-0.03575396171576129,-0.009404981522942881, ,0.003828416298868391, ,0.2860518412783412, ,0.0005508154021944463, ,0.14005948340693572,-0.2247855857700528,0.09000271099000001,-4.537480687061622,0.15603888273213298,-1.3827231607218953, ,0.0008269774617920372,-0.029983235879453642,0.0029045972866520793,0.0,-0.0008118110288994348,-0.25686648962239556, ,0.03167104721069336
0.010008769390321364,0.018895253056914797,-0.08073469218168058, ,0.010397635932412263,0.019717603551058647,-0.0811282258573368, ,0.0009911338338750506, ,0.004972509189839075,0.007668943552155898,-0.01273238076031519,0.09587077401869881,-0.31145939597794275,-0.0702153108680097, ,0.015673291379759136, ,0.32588059211814424, ,0.0005948472453625068, ,0.14011354253705527,-0.2253493452698712,0.09011289564000001,-4.537061307174653,0.15289624323752785,-1.383836092243203, ,0.00516114089247133,-0.05972117152830131,0.014260350510295436,0.0,-0.3077890575834523,-0.08127116393092315, ,0.0352480411529541
0.010008769390321364,0.018895253056914797,-0.08073469218168058, ,0.010418333371857704,0.019828826825484,-0.08117626528411605, ,0.0011109857969960222, ,0.004972509189839075,0.007668943552155898,-0.01273238076031519,0.09587077401869881,-0.31145939597794275,-0.0702153108680097, ,0.015673291379759136, ,0.32588059211814424, ,0.0006417689318746445, ,0.14011354253705527,-0.2253493452698712,0.09011289564000001,-4.537061307174653,0.15289624323752785,-1.383836092243203, ,0.00516114089247133,-0.05972117152830131,0.014260350510295436,0.0,-0.3077890575834523,-0.08127116393092315, ,0.03898286819458008
0.010008769390321364,0.018895253056914797,-0.08073469218168058, ,0.010439059099904868,0.019939823239244217,-0.08122429510780073, ,0.001231254289434389, ,0.004972509189839075,0.007668943552155898,-0.01273238076031519,0.09587077401869881,-0.31145939597794275,-0.0702153108680097, ,0.015673291379759136, ,0.32588059211814424, ,0.0006908927116712898, ,0.14011354253705527,-0.2253493452698712,0.09011289564000001,-4.537061307174653,0.15289624323752785,-1.383836092243203, ,0.00516114089247133,-0.05972117152830131,0.014260350510295436,0.0,-0.3077890575834523,-0.08127116393092315, ,0.042639970779418945
0.010069374130912087,0.01899249760501346,-0.08090715231183691, ,0.010459813185652655,0.020050593223040862,-0.08127231591382358, ,0.0011854760430187433, ,0.006114549624572667,0.010715929465979497,-0.01986263171518039,-0.000163542537793597,-0.29267715919717063,-0.06127870786397438, ,0.023382536220095954, ,0.29267719960783245, ,0.0007289375833134016, ,0.1401830471329233,-0.22606755942717408,0.09030474656000001,-4.537061307174653,0.14948033074339184,-1.383746043075431, ,0.00742092760445479,-0.07549478246497278,0.022001120883977904,0.0,-0.3018136453564142,0.03242663759077824, ,0.04642200469970703
0.010069374130912087,0.01899249760501346,-0.08090715231183691, ,0.01048059569806359,0.020161137206291226,-0.08132032828547488, ,0.0013059617452884573, ,0.006114549624572667,0.010715929465979497,-0.01986263171518039,-0.000163542537793597,-0.29267715919717063,-0.06127870786397438, ,0.023382536220095954, ,0.29267719960783245, ,0.0007701535948830484, ,0.1401830471329233,-0.22606755942717408,0.09030474656000001,-4.537061307174653,0.14948033074339184,-1.383746043075431, ,0.00742092760445479,-0.07549478246497278,0.022001120883977904,0.0,-0.3018136453564142,0.03242663759077824, ,0.05017399787902832
0.010069374130912087,0.01899249760501346,-0.08090715231183691, ,0.010501406705965197,0.02027145561713061,-0.08136833280390385, ,0.001426559914244325, ,0.0063493324058285505,0.015082534122665645,-0.02485243790486505,-0.13044487529344576,-0.2012432665768579,-0.03135307939541897, ,0.029756352723011116, ,0.23982224323870976, ,0.0008139140161738003, ,0.140275719927414,-0.22706379196794904,0.09056659714000001,-4.536641927287684,0.14674760074808305,-1.3824978298831891, ,0.009511652123965873,-0.11099057492218804,0.02794528336842106,0.0,-0.2295269048691363,0.20985991063643833, ,0.05417490005493164
0.010134587671684249,0.01912983096477259,-0.08114104101915993, ,0.010522246278049919,0.020381548882414675,-0.08141633004812199, ,0.0013389775912622606, ,0.0063493324058285505,0.015082534122665645,-0.02485243790486505,-0.13044487529344576,-0.2012432665768579,-0.03135307939541897, ,0.029756352723011116, ,0.23982224323870976, ,0.000846730489616829, ,0.140275719927414,-0.22706379196794904,0.09056659714000001,-4.536641927287684,0.14674760074808305,-1.3824978298831891, ,0.009511652123965873,-0.11099057492218804,0.02794528336842106,0.0,-0.2295269048691363,0.20985991063643833, ,0.0579829216003418
0.010134587671684249,0.01912983096477259,-0.08114104101915993, ,0.01054311448287372,0.020491417427721825,-0.08146432059500615, ,0.0014578482553772724, ,0.0063493324058285505,0.015082534122665645,-0.02485243790486505,-0.13044487529344576,-0.2012432665768579,-0.03135307939541897, ,0.029756352723011116, ,0.23982224323870976, ,0.0008826785934850904, ,0.140275719927414,-0.22706379196794904,0.09056659714000001,-4.536641927287684,0.14674760074808305,-1.3824978298831891, ,0.009511652123965873,-0.11099057492218804,0.02794528336842106,0.0,-0.2295269048691363,0.20985991063643833, ,0.06176495552062988
0.010134587671684249,0.01912983096477259,-0.08114104101915993, ,0.010564011388859065,0.020601061677355675,-0.08151230501929982, ,0.0015769468907733835, ,0.0063493324058285505,0.015082534122665645,-0.02485243790486505,-0.13044487529344576,-0.2012432665768579,-0.03135307939541897, ,0.029756352723011116, ,0.23982224323870976, ,0.0009212490544455512, ,0.140275719927414,-0.22706379196794904,0.09056659714000001,-4.536641927287684,0.14674760074808305,-1.3824978298831891, ,0.009511652123965873,-0.11099057492218804,0.02794528336842106,0.0,-0.2295269048691363,0.20985991063643833, ,0.06542086601257324
0.010192617641602602,0.019298374057032434,-0.08139598008282913, ,0.010584937064290215,0.020710482054347234,-0.08156028389361818, ,0.0014747743107805206, ,0.005284143401937447,0.017237149324457288,-0.024780318669841015,0.07345888872339358,-0.050152307868613265,-0.08557346142576118, ,0.030644831239619325, ,0.0889463488457483, ,0.0009503819626737075, ,0.14040700638627582,-0.22833032015932186,0.0908569661,-4.536012857457231,0.14551787225019408,-1.380678281348516, ,0.013859638025189247,-0.13125441432706886,0.02844430628571429,0.09303943600269633,-0.068344195978814,0.06005921413876214, ,0.06907391548156738
0.010192617641602602,0.019298374057032434,-0.08139598008282913, ,0.010605891577318349,0.02081967898045753,-0.08160825778844862, ,0.0015906683627590291, ,0.005284143401937447,0.017237149324457288,-0.024780318669841015,0.07345888872339358,-0.050152307868613265,-0.08557346142576118, ,0.030644831239619325, ,0.0889463488457483, ,0.0009823962826779734, ,0.14040700638627582,-0.22833032015932186,0.0908569661,-4.536012857457231,0.14551787225019408,-1.380678281348516, ,0.013859638025189247,-0.13125441432706886,0.02844430628571429,0.09303943600269633,-0.068344195978814,0.06005921413876214, ,0.07267498970031738
0.010192617641602602,0.019298374057032434,-0.08139598008282913, ,0.010626874995958548,0.020928652876179833,-0.08165622727215426, ,0.0017070785211947604, ,0.005284143401937447,0.017237149324457288,-0.024780318669841015,0.07345888872339358,-0.050152307868613265,-0.08557346142576118, ,0.030644831239619325, ,0.0889463488457483, ,0.0010169049607025825, ,0.14040700638627582,-0.22833032015932186,0.0908569661,-4.536012857457231,0.14551787225019408,-1.380678281348516, ,0.013859638025189247,-0.13125441432706886,0.02844430628571429,0.09303943600269633,-0.068344195978814,0.06005921413876214, ,0.07637596130371094
0.010255166319372214,0.019521097984448198,-0.081667311343779, ,0.010647887388089791,0.0210374041607418,-0.08170419291097772, ,0.0015667720025836043, ,0.005281722622029646,0.02067847607841019,-0.020118551180214123,0.1806348317522199,-0.04379831491716494,-0.001230981429179413, ,0.029330054012434707, ,0.18586885574448442, ,0.0010418989171517199, ,0.14063868837250254,-0.23016060785051307,0.09117714973,-4.5358031675137465,0.1449713262511323,-1.379905894773168, ,0.02673906496434792,-0.18249411838167456,0.024811232897196264,0.021915425827299072,-0.02298196740589725,-0.0002277187106779488, ,0.0803070068359375
0.010255166319372214,0.019521097984448198,-0.081667311343779, ,0.010668928821455967,0.02114593325210838,-0.08175215526904184, ,0.001678835175595554, ,0.005281722622029646,0.02067847607841019,-0.020118551180214123,0.1806348317522199,-0.04379831491716494,-0.001230981429179413, ,0.029330054012434707, ,0.18586885574448442, ,0.0010695917979536256, ,0.14063868837250254,-0.23016060785051307,0.09117714973,-4.5358031675137465,0.1449713262511323,-1.379905894773168, ,0.02673906496434792,-0.18249411838167456,0.024811232897196264,0.021915425827299072,-0.02298196740589725,-0.0002277187106779488, ,0.08397507667541504
0.010308720451629972,0.01972083804442311,-0.08182983306948588, ,0.010689999363665374,0.021254240566983686,-0.08180011490835437, ,0.0015803733970359923, ,0.005814019875954916,0.021856554834273956,-0.015505921474621483,0.016207360308070726,-0.12735013032849107,0.0050929660731215565, ,0.02742162316710575, ,0.128377308456238, ,0.0010908743645820578, ,0.14091670675597462,-0.23201406374032693,0.09138585242000001,-4.535593477570262,0.1441515072525397,-1.3792373873509893, ,0.02976692018772609,-0.20948552220412975,0.020606483208279434,0.0,-0.1267573765185503,0.17494298088449634, ,0.0876760482788086
0.010308720451629972,0.01972083804442311,-0.08182983306948588, ,0.010711099082191243,0.021362326520813695,-0.081848072388809, ,0.0016901850943683136, ,0.005814019875954916,0.021856554834273956,-0.015505921474621483,0.016207360308070726,-0.12735013032849107,0.0050929660731215565, ,0.02742162316710575, ,0.128377308456238, ,0.001114846793773508, ,0.14091670675597462,-0.23201406374032693,0.09138585242000001,-4.535593477570262,0.1441515072525397,-1.3792373873509893, ,0.02976692018772609,-0.20948552220412975,0.020606483208279434,0.0,-0.1267573765185503,0.17494298088449634, ,0.09132003784179688
0.010308720451629972,0.01972083804442311,-0.08182983306948588, ,0.010732228044370408,0.02147019152778831,-0.08189602826818969, ,0.0018011046874632794, ,0.005814019875954916,0.021856554834273956,-0.015505921474621483,0.016207360308070726,-0.12735013032849107,0.0050929660731215565, ,0.02742162316710575, ,0.128377308456238, ,0.0011412413281461915, ,0.14091670675597462,-0.23201406374032693,0.09138585242000001,-4.535593477570262,0.1441515072525397,-1.3792373873509893, ,0.02976692018772609,-0.20948552220412975,0.020606483208279434,0.0,-0.1267573765185503,0.17494298088449634, ,0.09512495994567871
0.010368996431114342,0.019966974464181497,-0.08196158217197796, ,0.010753386317404327,0.021577836000843988,-0.0819439831021725, ,0.001656182418164945, ,0.005529553293491694,0.024872731431812557,-0.011024858663851415,-0.1404376647486768,-0.031871982280107514,-0.09887168631937257, ,0.027762857148761557, ,0.1440088912937191, ,0.0011603132203691082, ,0.1412796752010632,-0.23446217006145612,0.09157640705,-4.534335337909355,0.14292177875465073,-1.3753758703128018, ,0.038126533370217264,-0.25238548286827334,0.01705440205567452,0.1345262121181525,-0.08366551698390856,0.40088851871306974, ,0.09888291358947754
0.010368996431114342,0.019966974464181497,-0.08196158217197796, ,0.010774573968359477,0.021685260351666107,-0.08199193744432764, ,0.001765763566394444, ,0.005529553293491694,0.024872731431812557,-0.011024858663851415,-0.1404376647486768,-0.031871982280107514,-0.09887168631937257, ,0.027762857148761557, ,0.1440088912937191, ,0.0011819364470128703, ,0.1412796752010632,-0.23446217006145612,0.09157640705,-4.534335337909355,0.14292177875465073,-1.3753758703128018, ,0.038126533370217264,-0.25238548286827334,0.01705440205567452,0.1345262121181525,-0.08366551698390856,0.40088851871306974, ,0.1025090217590332
0.010368996431114342,0.019966974464181497,-0.08196158217197796, ,0.010795791064166341,0.02179246499069108,-0.08203989184612377, ,0.0018763533052820948, ,0.00482262327263989,0.027639793783637363,-0.009647884550931676,-0.2718989535398982,0.048597428238179294,0.016162954982383758, ,0.029669809098474373, ,0.2762078038069625, ,0.0012058818559187055, ,0.14167353457764864,-0.23718829476605738,0.09173973959000001,-4.533706268078901,0.1426485057551198,-1.3700889526166944, ,0.041116525805229974,-0.28669770863586336,0.016455383801652894,0.04900234573138719,0.0,0.5683187558196905, ,0.10657691955566406
0.010418542687812064,0.020230908372643422,-0.08206036296712235, ,0.010817037671619527,0.021899450327109035,-0.08208784685692994, ,0.001715688162263351, ,0.00482262327263989,0.027639793783637363,-0.009647884550931676,-0.2718989535398982,0.048597428238179294,0.016162954982383758, ,0.029669809098474373, ,0.2762078038069625, ,0.001222875399463527, ,0.14167353457764864,-0.23718829476605738,0.09173973959000001,-4.533706268078901,0.1426485057551198,-1.3700889526166944, ,0.041116525805229974,-0.28669770863586336,0.016455383801652894,0.04900234573138719,0.0,0.5683187558196905, ,0.1102900505065918
0.010418542687812064,0.020230908372643422,-0.08206036296712235, ,0.010838313857378292,0.02200621676886588,-0.08213580302401799, ,0.0018258200729210341, ,0.00482262327263989,0.027639793783637363,-0.009647884550931676,-0.2718989535398982,0.048597428238179294,0.016162954982383758, ,0.029669809098474373, ,0.2762078038069625, ,0.0012423252276395757, ,0.14167353457764864,-0.23718829476605738,0.09173973959000001,-4.533706268078901,0.1426485057551198,-1.3700889526166944, ,0.041116525805229974,-0.28669770863586336,0.016455383801652894,0.04900234573138719,0.0,0.5683187558196905, ,0.11393404006958008
0.010462748160426767,0.02052709251907443,-0.08215549996202098, ,0.010859619687966358,0.022112764722666024,-0.08218376089256585, ,0.0016348278278797113, ,0.0042136691826296716,0.03001926818442468,-0.008789466123411029,0.16541810953661384,0.054207259915214856,0.04435416293025475, ,0.03156210045360804, ,0.17407348430397074, ,0.00125459093389708, ,0.14209828488573098,-0.24027738791574718,0.09190825729,-4.533706268078901,0.1431950517541816,-1.3666957234448736, ,0.042978687300032056,-0.3142282833061946,0.016287128343558284,0.02623901169592618,0.07205871976166743,0.16119297675369335, ,0.11760091781616211
0.010462748160426767,0.02052709251907443,-0.08215549996202098, ,0.010880955229771404,0.022219094593974392,-0.08223172100565981, ,0.0017445852864818624, ,0.0042136691826296716,0.03001926818442468,-0.008789466123411029,0.16541810953661384,0.054207259915214856,0.04435416293025475, ,0.03156210045360804, ,0.17407348430397074, ,0.0012694392476117705, ,0.14209828488573098,-0.24027738791574718,0.09190825729,-4.533706268078901,0.1431950517541816,-1.3666957234448736, ,0.042978687300032056,-0.3142282833061946,0.016287128343558284,0.02623901169592618,0.07205871976166743,0.16119297675369335, ,0.1211700439453125
0.010462748160426767,0.02052709251907443,-0.08215549996202098, ,0.010902320549045837,0.022325206787019127,-0.08227968390429773, ,0.0018552251768833787, ,0.0042136691826296716,0.03001926818442468,-0.008789466123411029,0.16541810953661384,0.054207259915214856,0.04435416293025475, ,0.03156210045360804, ,0.17407348430397074, ,0.0012866682455315236, ,0.14209828488573098,-0.24027738791574718,0.09190825729,-4.533706268078901,0.1431950517541816,-1.3666957234448736, ,0.042978687300032056,-0.3142282833061946,0.016287128343558284,0.02623901169592618,0.07205871976166743,0.16119297675369335, ,0.1247870922088623
0.010507921257809963,0.020811921117600895,-0.08223938570540203, ,0.010923715711905903,0.0224311017047936,-0.0823276501273915, ,0.0016740434313923253, ,0.005317282535468364,0.031898159828517895,-0.009433202166234455,0.15101098718179853,-0.031875116864933765,0.052051179539788585, ,0.033686071262715105, ,0.15433839849525063, ,0.0012977361079846894, ,0.14252303519381332,-0.24325836280519783,0.09206381209,-4.533496578135416,0.14346832475371246,-1.3654483419297363, ,0.04617856036908554,-0.33414416041715067,0.01748497422612514,0.0,-0.0107546496088663,0.1800506915304257, ,0.12848496437072754
0.010507921257809963,0.020811921117600895,-0.08223938570540203, ,0.010945140784332116,0.022536779749059037,-0.08237562021176983, ,0.001784617060776118, ,0.005317282535468364,0.031898159828517895,-0.009433202166234455,0.15101098718179853,-0.031875116864933765,0.052051179539788585, ,0.033686071262715105, ,0.15433839849525063, ,0.0013112605788955624, ,0.14252303519381332,-0.24325836280519783,0.09206381209,-4.533496578135416,0.14346832475371246,-1.3654483419297363, ,0.04617856036908554,-0.33414416041715067,0.01748497422612514,0.0,-0.0107546496088663,0.1800506915304257, ,0.13217997550964355
0.010507921257809963,0.020811921117600895,-0.08223938570540203, ,0.01096659583216993,0.022642241320346874,-0.0824235946921805, ,0.0018958869588016926, ,0.005317282535468364,0.031898159828517895,-0.009433202166234455,0.15101098718179853,-0.031875116864933765,0.052051179539788585, ,0.033686071262715105, ,0.15433839849525063, ,0.0013270612918659982, ,0.14252303519381332,-0.24325836280519783,0.09206381209,-4.533496578135416,0.14346832475371246,-1.3654483419297363, ,0.04617856036908554,-0.33414416041715067,0.01748497422612514,0.0,-0.0107546496088663,0.1800506915304257, ,0.13584303855895996
0.010567606248679473,0.021175036910090084,-0.08234685354869739, ,0.010988080921128603,0.022747486817961102,-0.08247157410129392, ,0.0016324683394096072, ,0.005730755529798586,0.03478519921196913,-0.010141470954675023,0.20568307874668984,-0.00287333247556917,-0.10289310311836726, ,0.03668379855308351, ,0.20570314731417122, ,0.0013350983194329355, ,0.14303273556351215,-0.2470347791806936,0.09226344075000001,-4.53223843847451,0.14333168825394704,-1.3635399917429474, ,0.04844152197982173,-0.3608248728458964,0.019030838136200722,0.16304451480482926,-0.018887144520902364,0.17307227754130225, ,0.13948392868041992
0.010567606248679473,0.021175036910090084,-0.08234685354869739, ,0.011009596116781853,0.022852516639980412,-0.0825195589697052, ,0.0017433073309498731, ,0.005730755529798586,0.03478519921196913,-0.010141470954675023,0.20568307874668984,-0.00287333247556917,-0.10289310311836726, ,0.03668379855308351, ,0.20570314731417122, ,0.0013455652171641388, ,0.14303273556351215,-0.2470347791806936,0.09226344075000001,-4.53223843847451,0.14333168825394704,-1.3635399917429474, ,0.04844152197982173,-0.3608248728458964,0.019030838136200722,0.16304451480482926,-0.018887144520902364,0.17307227754130225, ,0.14308905601501465
0.01062996622929088,0.021533744730791452,-0.08245939481795375, ,0.01103114148456611,0.0229573311832609,-0.0825675498259376, ,0.011123146063318684, ,0.006524178472539984,0.03631847437967489,-0.01163951538027627,0.30419657118807136,-0.05249420208582674,0.008995584788571634, ,0.038692050918713826, ,0.30869271932063924, ,0.0015900047383180023, ,0.1435501586660852,-0.25073396822744715,0.09246825457,-4.531189988757087,0.14305841525441615,-1.3621736535735867, ,0.0555602702332967,-0.3736100061357117,0.02106985650793651,0.04424367912213613,-0.018367514353988253,0.06978932660002302, ,0.14760708808898926
0.01062996622929088,0.021533744730791452,-0.08245939481795375, ,0.011052717089784735,0.023061930843438272,-0.08261554719644439, ,0.0015932528519488598, ,0.006524178472539984,0.03631847437967489,-0.01163951538027627,0.30419657118807136,-0.05249420208582674,0.008995584788571634, ,0.038692050918713826, ,0.30869271932063924, ,0.0015900839606016817, ,0.1435501586660852,-0.25073396822744715,0.09246825457,-4.531189988757087,0.14305841525441615,-1.3621736535735867, ,0.0555602702332967,-0.3736100061357117,0.02106985650793651,0.04424367912213613,-0.018367514353988253,0.06978932660002302, ,0.1512298583984375
0.01062996622929088,0.021533744730791452,-0.08245939481795375, ,0.011074322997602486,0.023166316014930213,-0.08266355160561208, ,0.001704236465190726, ,0.006524178472539984,0.03631847437967489,-0.01163951538027627,0.30419657118807136,-0.05249420208582674,0.008995584788571634, ,0.038692050918713826, ,0.30869271932063924, ,0.0015928018773776116, ,0.1435501586660852,-0.25073396822744715,0.09246825457,-4.531189988757087,0.14305841525441615,-1.3621736535735867, ,0.0555602702332967,-0.3736100061357117,0.02106985650793651,0.04424367912213613,-0.018367514353988253,0.06978932660002302, ,0.1549379825592041
0.010706698043294901,0.021903863838430945,-0.08258402603729745, ,0.011095959273050501,0.02327048709093882,-0.08271156357576284, ,0.0014266917126709092, ,0.007964200804102328,0.0367155333502065,-0.01217386041412845,0.15529719102150025,-0.1418014506406696,0.04111359426243974, ,0.03949255323501981, ,0.21029709621290255, ,0.0015889388502914094, ,0.14416025456314893,-0.2545258300686914,0.09268992016000001,-4.530980298813603,0.1422385962558235,-1.3603616437894401, ,0.06190276683527121,-0.37657516491456666,0.021880235604395604,-0.009217746252100105,-0.1106515407761173,0.20234946216204938, ,0.1588459014892578
0.010706698043294901,0.021903863838430945,-0.08258402603729745, ,0.01111762598102266,0.023374444463452815,-0.08275958362715793, ,0.0015369741741657619, ,0.007964200804102328,0.0367155333502065,-0.01217386041412845,0.15529719102150025,-0.1418014506406696,0.04111359426243974, ,0.03949255323501981, ,0.21029709621290255, ,0.0015877578349249174, ,0.14416025456314893,-0.2545258300686914,0.09268992016000001,-4.530980298813603,0.1422385962558235,-1.3603616437894401, ,0.06190276683527121,-0.37657516491456666,0.021880235604395604,-0.009217746252100105,-0.1106515407761173,0.20234946216204938, ,0.16252899169921875
0.010706698043294901,0.021903863838430945,-0.08258402603729745, ,0.011139323186277292,0.023478188523250097,-0.08280761227799925, ,0.0016479240075326952, ,0.007925071782131888,0.03794047906123097,-0.011296334218229726,0.10218740673118663,-0.11961304307764734,0.04024353150023046, ,0.04037194423009123, ,0.15731988426386292, ,0.0015890948609828678, ,0.14480896412458377,-0.25844125563592324,0.09291158575000001,-4.531189988757087,0.14114550425769998,-1.3578367257570578, ,0.06411955510707486,-0.3905223932447357,0.02149637182186235,0.0,-0.09757498148801148,0.273157103116649, ,0.16672396659851074
0.010788533928600219,0.022284753845206874,-0.08270409629238297, ,0.011161050953436964,0.023581719659899993,-0.08285565004443343, ,0.0013578872552743027, ,0.007925071782131888,0.03794047906123097,-0.011296334218229726,0.10218740673118663,-0.11961304307764734,0.04024353150023046, ,0.04037194423009123, ,0.15731988426386292, ,0.0015840686086848557, ,0.14480896412458377,-0.25844125563592324,0.09291158575000001,-4.531189988757087,0.14114550425769998,-1.3578367257570578, ,0.06411955510707486,-0.3905223932447357,0.02149637182186235,0.0,-0.09757498148801148,0.273157103116649, ,0.17061686515808105
0.010788533928600219,0.022284753845206874,-0.08270409629238297, ,0.011182809346988492,0.023685038261765812,-0.08290369744055343, ,0.0014683630924107354, ,0.007925071782131888,0.03794047906123097,-0.011296334218229726,0.10218740673118663,-0.11961304307764734,0.04024353150023046, ,0.04037194423009123, ,0.15731988426386292, ,0.0015816067891896615, ,0.14480896412458377,-0.25844125563592324,0.09291158575000001,-4.531189988757087,0.14114550425769998,-1.3578367257570578, ,0.06411955510707486,-0.3905223932447357,0.02149637182186235,0.0,-0.09757498148801148,0.273157103116649, ,0.174407958984375
0.010824769644010211,0.02246247590522111,-0.08275735077937289, ,0.011204598431282563,0.023788144716006827,-0.08295175497840182, ,0.0013926452154554242, ,0.007568760678867108,0.037557029873504545,-0.011503702994894121,0.10554533074082689,-0.09111670430210275,0.033797262344741084, ,0.04000189762658784, ,0.1394348250710977, ,0.001577670089736865, ,0.14510242797380432,-0.2602638205942402,0.09301269637000001,-4.530980298813603,0.14073559475840366,-1.356522327164282, ,0.06206470997937919,-0.38419814396142016,0.021642406956521743,0.012659749548110293,-0.07260277472637255,0.26880114045910286, ,0.17818093299865723
0.010824769644010211,0.02246247590522111,-0.08275735077937289, ,0.011226418270533306,0.023891039408581127,-0.08299982316797364, ,0.0015036316575391345, ,0.007568760678867108,0.037557029873504545,-0.011503702994894121,0.10554533074082689,-0.09111670430210275,0.033797262344741084, ,0.04000189762658784, ,0.1394348250710977, ,0.0015761591013246665, ,0.14510242797380432,-0.2602638205942402,0.09301269637000001,-4.530980298813603,0.14073559475840366,-1.356522327164282, ,0.06206470997937919,-0.38419814396142016,0.021642406956521743,0.012659749548110293,-0.07260277472637255,0.26880114045910286, ,0.18193387985229492
0.010824769644010211,0.02246247590522111,-0.08275735077937289, ,0.011248268928819404,0.02399372272424751,-0.0830479025172185, ,0.0016150816627581016, ,0.007568760678867108,0.037557029873504545,-0.011503702994894121,0.10554533074082689,-0.09111670430210275,0.033797262344741084, ,0.04000189762658784, ,0.1394348250710977, ,0.0015769375525533352, ,0.14510242797380432,-0.2602638205942402,0.09301269637000001,-4.530980298813603,0.14073559475840366,-1.356522327164282, ,0.06206470997937919,-0.38419814396142016,0.021642406956521743,0.012659749548110293,-0.07260277472637255,0.26880114045910286, ,0.1856689453125
0.010916353414109535,0.022951213622872998,-0.08290412879604954, ,0.011270150470084415,0.024096195046568254,-0.08309599353204365, ,0.0012136584751658095, ,0.007142113417899795,0.03779335473190102,-0.011136228210948994,0.12251771471155504,-0.005788394452878476,-0.08717845989489989, ,0.04004201574261448, ,0.12265437520614758, ,0.0015698144333888742, ,0.1459133149255979,-0.26522181509949233,0.09329269501000001,-4.529302779265726,0.14059895825863825,-1.3533887958753845, ,0.06226833435595196,-0.3826489578970596,0.021525420972972976,0.15407968389519527,-0.023134195809891643,0.27722003735011824, ,0.1893770694732666
0.010916353414109535,0.022951213622872998,-0.08290412879604954, ,0.01129206295813452,0.024198456757911276,-0.08314409671631728, ,0.001324521688055428, ,0.007142113417899795,0.03779335473190102,-0.011136228210948994,0.12251771471155504,-0.005788394452878476,-0.08717845989489989, ,0.04004201574261448, ,0.12265437520614758, ,0.0015650972652093847, ,0.1459133149255979,-0.26522181509949233,0.09329269501000001,-4.529302779265726,0.14059895825863825,-1.3533887958753845, ,0.06226833435595196,-0.3826489578970596,0.021525420972972976,0.15407968389519527,-0.023134195809891643,0.27722003735011824, ,0.19306206703186035
0.010997522235211294,0.023397874083755564,-0.08303318830750057, ,0.011314006456640336,0.02430050823945244,-0.0831922125718702, ,0.0014358677398894914, ,0.007142113417899795,0.03779335473190102,-0.011136228210948994,0.12251771471155504,-0.005788394452878476,-0.08717845989489989, ,0.04004201574261448, ,0.12265437520614758, ,0.0015626589722788206, ,0.14664697454864922,-0.2697550592966621,0.09354547156000001,-4.528883399378757,0.14059895825863825,-1.3497949313092, ,0.05709803944552995,-0.3594581119639045,0.01981195462686567,0.03966394032599999,-0.013392535822914182,0.28818536420814, ,0.19676804542541504
0.010997522235211294,0.023397874083755564,-0.08303318830750057, ,0.011335981029136756,0.024402349871178293,-0.08324034159849913, ,0.0010800178001660545, ,0.006430196578425069,0.035415357834071355,-0.0099325685858563,0.07402631005563255,-0.019796060557959464,0.022115695630707432, ,0.03733966948521703, ,0.07662753093629893, ,0.001553721172795251, ,0.14664697454864922,-0.2697550592966621,0.09354547156000001,-4.528883399378757,0.14059895825863825,-1.3497949313092, ,0.05709803944552995,-0.3594581119639045,0.01981195462686567,0.03966394032599999,-0.013392535822914182,0.28818536420814, ,0.20185089111328125
0.010997522235211294,0.023397874083755564,-0.08303318830750057, ,0.011357986738592701,0.024503982031865233,-0.08328848429410896, ,0.0011910438664666108, ,0.006430196578425069,0.035415357834071355,-0.0099325685858563,0.07402631005563255,-0.019796060557959464,0.022115695630707432, ,0.03733966948521703, ,0.07662753093629893, ,0.001547127039952912, ,0.14664697454864922,-0.2697550592966621,0.09354547156000001,-4.528883399378757,0.14059895825863825,-1.3497949313092, ,0.05709803944552995,-0.3594581119639045,0.01981195462686567,0.03966394032599999,-0.013392535822914182,0.28818536420814, ,0.20555686950683594
0.011060608043531915,0.023751364810405073,-0.08313232568974507, ,0.01138002364913213,0.024605405099173576,-0.0833366411541555, ,0.0009344281422014138, ,0.006320324257701522,0.03491259915495402,-0.01036165678335892,0.07184280938254664,-0.02655000514318253,0.05758317603665179, ,0.036962142927231836, ,0.07659172222662831, ,0.0015361859882073497, ,0.14721845678134182,-0.2733384073503023,0.09374380393000001,-4.528883399378757,0.14059895825863825,-1.3470995328845614, ,0.05536577687191993,-0.3514701539202621,0.020188607756653994,0.001964567388935911,-0.010024865058752153,0.2774791208740384, ,0.2091670036315918
0.011060608043531915,0.023751364810405073,-0.08313232568974507, ,0.011402091823449333,0.024706619449511677,-0.08338481267249118, ,0.0010454053156252867, ,0.006320324257701522,0.03491259915495402,-0.01036165678335892,0.07184280938254664,-0.02655000514318253,0.05758317603665179, ,0.036962142927231836, ,0.07659172222662831, ,0.001527575800969068, ,0.14721845678134182,-0.2733384073503023,0.09374380393000001,-4.528883399378757,0.14059895825863825,-1.3470995328845614, ,0.05536577687191993,-0.3514701539202621,0.020188607756653994,0.001964567388935911,-0.010024865058752153,0.2774791208740384, ,0.21272587776184082
0.011060608043531915,0.023751364810405073,-0.08313232568974507, ,0.011424191324534524,0.024807625458131304,-0.08343299934080334, ,0.001156842254847377, ,0.006320324257701522,0.03491259915495402,-0.01036165678335892,0.07184280938254664,-0.02655000514318253,0.05758317603665179, ,0.036962142927231836, ,0.07659172222662831, ,0.0015211838432773145, ,0.14721845678134182,-0.2733384073503023,0.09374380393000001,-4.528883399378757,0.14059895825863825,-1.3470995328845614, ,0.05536577687191993,-0.3514701539202621,0.020188607756653994,0.001964567388935911,-0.010024865058752153,0.2774791208740384, ,0.21634507179260254
0.011119897889148217,0.024073985132203754,-0.083235629009197, ,0.011446322215241805,0.024908423499106463,-0.08348120164875941, ,0.0009290565914553141, ,0.006192394584106564,0.03298781390317368,-0.010458242441641688,0.0723119057734502,-0.024417687218210537,0.04778949199960342, ,0.03515560341913998, ,0.07632322739876944, ,0.0015111477881616874, ,0.14773587988391487,-0.2765510642259797,0.09393824743000001,-4.528673709435273,0.14059895825863825,-1.3446491706803443, ,0.053735527496302816,-0.32836311957948366,0.01983662704856787,0.008519665118756466,-0.008074184849583834,0.25509676567855316, ,0.222243070602417
0.011119897889148217,0.024073985132203754,-0.083235629009197, ,0.011468484558289072,0.025009013945335657,-0.08352942008400838, ,0.0010402426365653341, ,0.006192394584106564,0.03298781390317368,-0.010458242441641688,0.0723119057734502,-0.024417687218210537,0.04778949199960342, ,0.03515560341913998, ,0.07632322739876944, ,0.0015032993689684149, ,0.14773587988391487,-0.2765510642259797,0.09393824743000001,-4.528673709435273,0.14059895825863825,-1.3446491706803443, ,0.053735527496302816,-0.32836311957948366,0.01983662704856787,0.008519665118756466,-0.008074184849583834,0.25509676567855316, ,0.22593903541564941
0.011126884645883886,0.02411138660971547,-0.08324699735621524, ,0.01149067841625805,0.02510939716854447,-0.0835776551321844, ,0.001112522156051775, ,0.006126455750199098,0.032940379187281855,-0.01018772051502883,0.07461460714168522,-0.020652373719264823,0.036363397502890894, ,0.035019875647314895, ,0.07742002343969621, ,0.0014968931851501092, ,0.14779766174690867,-0.2769217554039425,0.09396028436000001,-4.528464019491787,0.14059895825863825,-1.3443224557197824, ,0.05340289339249904,-0.32836311957948366,0.019568564520884523,0.020594091620537446,-0.007891966767277167,0.2545257288801321, ,0.23186802864074707
0.011126884645883886,0.02411138660971547,-0.08324699735621524, ,0.011512903851594244,0.025209573539287822,-0.08362590727690947, ,0.0012241724092060347, ,0.006126455750199098,0.032940379187281855,-0.01018772051502883,0.07461460714168522,-0.020652373719264823,0.036363397502890894, ,0.035019875647314895, ,0.07742002343969621, ,0.001492494462957463, ,0.14779766174690867,-0.2769217554039425,0.09396028436000001,-4.528464019491787,0.14059895825863825,-1.3443224557197824, ,0.05340289339249904,-0.32836311957948366,0.019568564520884523,0.020594091620537446,-0.007891966767277167,0.2545257288801321, ,0.23558306694030762
0.011238881957855253,0.02471459840133732,-0.08341492515579355, ,0.011535160926606995,0.025309543426952436,-0.08367417699979576, ,0.0007134089496546273, ,0.004935492060957534,0.02659020793039787,-0.007110516471183428,0.09698412450420545,-0.02254827614792688,0.04609475035037949, ,0.027963506292175512, ,0.09957080468146313, ,0.0014801280262383705, ,0.14880161702055786,-0.2829532097787118,0.09430250492000002,-4.526996189887396,0.14046232175887277,-1.3398003858484953, ,0.045470503861270134,-0.2665644425799741,0.01488673973831776,0.0,0.0,0.1683321401086807, ,0.23939204216003418
0.011238881957855253,0.02471459840133732,-0.08341492515579355, ,0.011557449703469346,0.025409307199758993,-0.08372246478044866, ,0.000823824219043809, ,0.004935492060957534,0.02659020793039787,-0.007110516471183428,0.09698412450420545,-0.02254827614792688,0.04609475035037949, ,0.027963506292175512, ,0.09957080468146313, ,0.0014698732792509555, ,0.14880161702055786,-0.2829532097787118,0.09430250492000002,-4.526996189887396,0.14046232175887277,-1.3398003858484953, ,0.045470503861270134,-0.2665644425799741,0.01488673973831776,0.0,0.0,0.1683321401086807, ,0.24306702613830566
0.011238881957855253,0.02471459840133732,-0.08341492515579355, ,0.011579770244218099,0.025508865224764744,-0.08377077109646934, ,0.0009347143649652184, ,0.004935492060957534,0.02659020793039787,-0.007110516471183428,0.09698412450420545,-0.02254827614792688,0.04609475035037949, ,0.027963506292175512, ,0.09957080468146313, ,0.001461640065185021, ,0.14880161702055786,-0.2829532097787118,0.09430250492000002,-4.526996189887396,0.14046232175887277,-1.3398003858484953, ,0.045470503861270134,-0.2665644425799741,0.01488673973831776,0.0,0.0,0.1683321401086807, ,0.24669909477233887
0.011285760573028243,0.02498733545334369,-0.08348130779342064, ,0.011602122610753773,0.025608217867865695,-0.08381909642345761, ,0.0007743907735496216, ,0.0049469629731606155,0.027744505042561436,-0.0073677851697770465,0.10635071983684298,-0.023610760691407794,0.04872707260302793, ,0.029129268116836124, ,0.10894009183276075, ,0.0014512271971299394, ,0.14924953552726286,-0.28570250268193575,0.09444898569000001,-4.526996189887396,0.14059895825863825,-1.3382782289493806, ,0.04493226399548806,-0.2774764373054701,0.015525157426900587,-0.001317137478182447,-0.0013527915246078464,0.16935760045304382, ,0.250748872756958
0.011285760573028243,0.02498733545334369,-0.08348130779342064, ,0.011624506864840593,0.02570736549379918,-0.08386744123501447, ,0.000884472353492211, ,0.0049469629731606155,0.027744505042561436,-0.0073677851697770465,0.10635071983684298,-0.023610760691407794,0.04872707260302793, ,0.029129268116836124, ,0.10894009183276075, ,0.001442768169612958, ,0.14924953552726286,-0.28570250268193575,0.09444898569000001,-4.526996189887396,0.14059895825863825,-1.3382782289493806, ,0.04493226399548806,-0.2774764373054701,0.015525157426900587,-0.001317137478182447,-0.0013527915246078464,0.16935760045304382, ,0.2545630931854248
0.011339548080432214,0.025258662704557122,-0.08357683531618865, ,0.011646923068106465,0.02580630846614578,-0.08391580600274504, ,0.0007136500469966204, ,0.005194624205884355,0.025082368631450965,-0.010653972570384371,0.020293781977940933,-0.010584791221283554,0.031789049372647794, ,0.027741962229353163, ,0.02288832136487898, ,0.001432045844280365, ,0.1496974540339679,-0.2883359545920463,0.09462398484000001,-4.526996189887396,0.14046232175887277,-1.3361248425421701, ,0.04186014184317194,-0.23665072707848075,0.01797834257336343,0.012090471789733175,-0.0016397586377803308,0.21736940806290506, ,0.2582390308380127
0.011339548080432214,0.025258662704557122,-0.08357683531618865, ,0.011669371282043007,0.025905047147332508,-0.0839641911962614, ,0.0008225817710171912, ,0.005194624205884355,0.025082368631450965,-0.010653972570384371,0.020293781977940933,-0.010584791221283554,0.031789049372647794, ,0.027741962229353163, ,0.02288832136487898, ,0.0014232130316243772, ,0.1496974540339679,-0.2883359545920463,0.09462398484000001,-4.526996189887396,0.14046232175887277,-1.3361248425421701, ,0.04186014184317194,-0.23665072707848075,0.01797834257336343,0.012090471789733175,-0.0016397586377803308,0.21736940806290506, ,0.2619450092315674
0.011339548080432214,0.025258662704557122,-0.08357683531618865, ,0.011691851568005406,0.026003581898634238,-0.08401259728318451, ,0.0009321538740684604, ,0.005194624205884355,0.025082368631450965,-0.010653972570384371,0.020293781977940933,-0.010584791221283554,0.031789049372647794, ,0.027741962229353163, ,0.02288832136487898, ,0.0014161979008021498, ,0.1496974540339679,-0.2883359545920463,0.09462398484000001,-4.526996189887396,0.14046232175887277,-1.3361248425421701, ,0.04186014184317194,-0.23665072707848075,0.01797834257336343,0.012090471789733175,-0.0016397586377803308,0.21736940806290506, ,0.265531063079834
0.011394815271198191,0.0255054352925735,-0.08369828758289644, ,0.011714363987212503,0.02610191308017673,-0.08406102472914823, ,0.000767772993977603, ,0.005986018672828216,0.025769641475290032,-0.014143038776099388,-0.038809018203677575,-0.001533441517742741,-0.044251779146247415, ,0.02999887309781298, ,0.038839294161398405, ,0.001407065155635607, ,0.15009903614342757,-0.29059871532419407,0.09481713205,-4.526157430113458,0.1401890487593419,-1.333533323270701, ,0.04234580167714001,-0.2308928018454277,0.02161304141112619,0.08704789419770521,-0.0233425338363874,0.27907670445546084, ,0.2691068649291992
0.011394815271198191,0.0255054352925735,-0.08369828758289644, ,0.011736908600746776,0.026200041050938754,-0.08410947399780054, ,0.0008766865309091363, ,0.005986018672828216,0.025769641475290032,-0.014143038776099388,-0.038809018203677575,-0.001533441517742741,-0.044251779146247415, ,0.02999887309781298, ,0.038839294161398405, ,0.0013996987858477393, ,0.15009903614342757,-0.29059871532419407,0.09481713205,-4.526157430113458,0.1401890487593419,-1.333533323270701, ,0.04234580167714001,-0.2308928018454277,0.02161304141112619,0.08704789419770521,-0.0233425338363874,0.27907670445546084, ,0.2727060317993164
0.011394815271198191,0.0255054352925735,-0.08369828758289644, ,0.01175948546955423,0.02629796616875433,-0.08415794555080815, ,0.0009860907619147993, ,0.005986018672828216,0.025769641475290032,-0.014143038776099388,-0.038809018203677575,-0.001533441517742741,-0.044251779146247415, ,0.02999887309781298, ,0.038839294161398405, ,0.0013940329225061922, ,0.15009903614342757,-0.29059871532419407,0.09481713205,-4.526157430113458,0.1401890487593419,-1.333533323270701, ,0.04234580167714001,-0.2308928018454277,0.02161304141112619,0.08704789419770521,-0.0233425338363874,0.27907670445546084, ,0.27634406089782715
0.011443933692759804,0.02569986295011184,-0.08381837718952555, ,0.011782094654444507,0.026395688790315532,-0.08420643984785683, ,0.0008655166449548165, ,0.006095759578951292,0.023423249748242395,-0.016297224387547257,-0.08612763672732017,-0.001088832629810953,-0.04824551479467361, ,0.029178869689399877, ,0.08613451233432587, ,0.00138689081064739, ,0.15043111365701922,-0.2922977165565235,0.09499342749,-4.525738050226489,0.139915775759811,-1.3311051614795129, ,0.0392298228848577,-0.19770196158014744,0.023018513757225436,0.08514419659923603,-0.027794077236299126,0.2928273998481076, ,0.28005504608154297
0.011443933692759804,0.02569986295011184,-0.08381837718952555, ,0.011804736216090737,0.02649320927117432,-0.08425495734665683, ,0.0009747712960413415, ,0.006095759578951292,0.023423249748242395,-0.016297224387547257,-0.08612763672732017,-0.001088832629810953,-0.04824551479467361, ,0.029178869689399877, ,0.08613451233432587, ,0.001381395883785976, ,0.15043111365701922,-0.2922977165565235,0.09499342749,-4.525738050226489,0.139915775759811,-1.3311051614795129, ,0.0392298228848577,-0.19770196158014744,0.023018513757225436,0.08514419659923603,-0.027794077236299126,0.2928273998481076, ,0.2839829921722412
0.011516454556438406,0.025987117755755584,-0.0840265416216038, ,0.011827410215029654,0.026590527965745413,-0.08430349850294314, ,0.0007331455634804689, ,0.005486771976456164,0.023502758661737375,-0.017499124169187707,-0.03375608929607116,0.03374721304995404,0.008945157118571762, ,0.029811133459198516, ,0.0477320260653725, ,0.001372866274308272, ,0.1508944776294727,-0.2946994864804073,0.09528379645000001,-4.525738050226489,0.1397791392600456,-1.3278899514504752, ,0.035702385838401345,-0.1932727933981075,0.0242079202431611,0.03984235282450648,0.027464778250604036,0.23677889854604867, ,0.28861403465270996
0.011516454556438406,0.025987117755755584,-0.0840265416216038, ,0.011850116711661399,0.026687645227308113,-0.0843520637704797, ,0.0008414474681384517, ,0.005486771976456164,0.023502758661737375,-0.017499124169187707,-0.03375608929607116,0.03374721304995404,0.008945157118571762, ,0.029811133459198516, ,0.0477320260653725, ,0.0013659647313710016, ,0.1508944776294727,-0.2946994864804073,0.09528379645000001,-4.525738050226489,0.1397791392600456,-1.3278899514504752, ,0.035702385838401345,-0.1932727933981075,0.0242079202431611,0.03984235282450648,0.027464778250604036,0.23677889854604867, ,0.2922980785369873
0.011516454556438406,0.025987117755755584,-0.0840265416216038, ,0.011872855766249671,0.0267845614080092,-0.08440065360106205, ,0.000950209436939399, ,0.005486771976456164,0.023502758661737375,-0.017499124169187707,-0.03375608929607116,0.03374721304995404,0.008945157118571762, ,0.029811133459198516, ,0.0477320260653725, ,0.0013606345352885451, ,0.1508944776294727,-0.2946994864804073,0.09528379645000001,-4.525738050226489,0.1397791392600456,-1.3278899514504752, ,0.035702385838401345,-0.1932727933981075,0.0242079202431611,0.03984235282450648,0.027464778250604036,0.23677889854604867, ,0.2958869934082031
0.01157570775623668,0.026220663791480588,-0.08420599422926325, ,0.011895627438921665,0.026881276858864857,-0.08444926844451896, ,0.0007732661714936151, ,0.005356559667952839,0.021683771907942358,-0.01673160154628068,-0.05399624880131197,0.019125744526791,0.028299741177080243, ,0.027907439616265607, ,0.057283397918253945, ,0.0013531994927088624, ,0.15126516880743548,-0.2965992787674665,0.09553009155000002,-4.52531867033952,0.1397791392600456,-1.3251945530258364, ,0.03458343351256224,-0.17573507696013105,0.02295217798270894,0.01386432259729383,0.019020776545904405,0.23473230078515123, ,0.29948997497558594
0.01157570775623668,0.026220663791480588,-0.08420599422926325, ,0.01191843178966798,0.026977791929763503,-0.08449790874871682, ,0.0008808614349254826, ,0.005356559667952839,0.021683771907942358,-0.01673160154628068,-0.05399624880131197,0.019125744526791,0.028299741177080243, ,0.027907439616265607, ,0.057283397918253945, ,0.0013472952669865703, ,0.15126516880743548,-0.2965992787674665,0.09553009155000002,-4.52531867033952,0.1397791392600456,-1.3251945530258364, ,0.03458343351256224,-0.17573507696013105,0.02295217798270894,0.01386432259729383,0.019020776545904405,0.23473230078515123, ,0.3032059669494629
0.01157570775623668,0.026220663791480588,-0.08420599422926325, ,0.01194126887834263,0.027074106969467757,-0.08454657495956078, ,0.0009889365125720629, ,0.005356559667952839,0.021683771907942358,-0.01673160154628068,-0.05399624880131197,0.019125744526791,0.028299741177080243, ,0.027907439616265607, ,0.057283397918253945, ,0.0013428710848333047, ,0.15126516880743548,-0.2965992787674665,0.09553009155000002,-4.52531867033952,0.1397791392600456,-1.3251945530258364, ,0.03458343351256224,-0.17573507696013105,0.02295217798270894,0.01386432259729383,0.019020776545904405,0.23473230078515123, ,0.30686092376708984
0.011629878827677846,0.02643220615877312,-0.08436803215403915, ,0.011964138764663092,0.027170222325616816,-0.08459526752099854, ,0.0008414472532447948, ,0.0051274865017559915,0.020871079402723678,-0.01554745976072047,-0.04472880719050633,0.04424069176957177,-0.06428411286298907, ,0.026525771963728195, ,0.0629118756078194, ,0.0013367561600578352, ,0.15160496905390136,-0.29830600273267016,0.09575305343000001,-4.524479910565582,0.1397791392600456,-1.3227441908216195, ,0.03316915119135644,-0.16885576789763485,0.021583755447154476,0.10933215398604339,0.014674580853657944,0.23182342862797764, ,0.31041908264160156
0.011629878827677846,0.02643220615877312,-0.08436803215403915, ,0.011987041508210217,0.027266138344729306,-0.08464398687502253, ,0.0009482399902829175, ,0.0051274865017559915,0.020871079402723678,-0.01554745976072047,-0.04472880719050633,0.04424069176957177,-0.06428411286298907, ,0.026525771963728195, ,0.0629118756078194, ,0.0013320752423497035, ,0.15160496905390136,-0.29830600273267016,0.09575305343000001,-4.524479910565582,0.1397791392600456,-1.3227441908216195, ,0.03316915119135644,-0.16885576789763485,0.021583755447154476,0.10933215398604339,0.014674580853657944,0.23182342862797764, ,0.3141188621520996
0.011683299279386649,0.026639106922919865,-0.08452038396683545, ,0.012009977168428228,0.02736185537220494,-0.08469273346167297, ,0.0008116576325664619, ,0.0051274865017559915,0.020871079402723678,-0.01554745976072047,-0.04472880719050633,0.04424069176957177,-0.06428411286298907, ,0.026525771963728195, ,0.0629118756078194, ,0.0013258797946141888, ,0.15160496905390136,-0.29830600273267016,0.09575305343000001,-4.524479910565582,0.1397791392600456,-1.3227441908216195, ,0.03316915119135644,-0.16885576789763485,0.021583755447154476,0.10933215398604339,0.014674580853657944,0.23182342862797764, ,0.31876397132873535
0.011683299279386649,0.026639106922919865,-0.08452038396683545, ,0.012032945804624686,0.027457373752327523,-0.0847415077190402, ,0.0009169018543492002, ,0.005204296313661356,0.020428573858804318,-0.015049298949601893,-0.025239200430086692,0.022475428837064344,-0.022474943120368903, ,0.02590159703376417, ,0.03379587797089964, ,0.0013210682894346007, ,0.15195249203324146,-0.2999895584992511,0.09596564499000002,-4.523850840735128,0.1397791392600456,-1.3204571860976837, ,0.03465921897679722,-0.16561420865352666,0.021014263218997364,0.06255977666773667,0.011922437563246503,0.20170588485879315, ,0.322537899017334
0.011683299279386649,0.026639106922919865,-0.08452038396683545, ,0.012055947475970523,0.027552693828266868,-0.08479031008326787, ,0.001022921219044271, ,0.005204296313661356,0.020428573858804318,-0.015049298949601893,-0.025239200430086692,0.022475428837064344,-0.022474943120368903, ,0.02590159703376417, ,0.03379587797089964, ,0.001317601463034713, ,0.15195249203324146,-0.2999895584992511,0.09596564499000002,-4.523850840735128,0.1397791392600456,-1.3204571860976837, ,0.03465921897679722,-0.16561420865352666,0.021014263218997364,0.06255977666773667,0.011922437563246503,0.20170588485879315, ,0.326171875
0.011734998718059327,0.02683313496580937,-0.08466580292702848, ,0.012078982241499949,0.02764781594208145,-0.08483914098855552, ,0.0009011525071108689, ,0.005133484701942425,0.019416248362762466,-0.014564426814261067,-0.033241558547990546,0.007102573356031927,0.016079491251812742, ,0.024808585088584148, ,0.03399186825752343, ,0.001312814693426393, ,0.15229229227970734,-0.30155727327271864,0.09616786623000001,-4.523641150791644,0.1397791392600456,-1.3184152175941697, ,0.03450797874853483,-0.15633763024459765,0.020265663511450382,0.019388670758626887,0.010094395939765608,0.19395159355617111, ,0.3298509120941162
0.011734998718059327,0.02683313496580937,-0.08466580292702848, ,0.012102050160110511,0.027742740434720622,-0.08488800086716075, ,0.0010057240152169654, ,0.005133484701942425,0.019416248362762466,-0.014564426814261067,-0.033241558547990546,0.007102573356031927,0.016079491251812742, ,0.024808585088584148, ,0.03399186825752343, ,0.0013093250266285586, ,0.15229229227970734,-0.30155727327271864,0.09616786623000001,-4.523641150791644,0.1397791392600456,-1.3184152175941697, ,0.03450797874853483,-0.15633763024459765,0.020265663511450382,0.019388670758626887,0.010094395939765608,0.19395159355617111, ,0.33360791206359863
0.011734998718059327,0.02683313496580937,-0.08466580292702848, ,0.012125151290562974,0.027837467646026955,-0.08493689014940282, ,0.0011110317027514948, ,0.005133484701942425,0.019416248362762466,-0.014564426814261067,-0.033241558547990546,0.007102573356031927,0.016079491251812742, ,0.024808585088584148, ,0.03399186825752343, ,0.0013070970117535355, ,0.15229229227970734,-0.30155727327271864,0.09616786623000001,-4.523641150791644,0.1397791392600456,-1.3184152175941697, ,0.03450797874853483,-0.15633763024459765,0.020265663511450382,0.019388670758626887,0.010094395939765608,0.19395159355617111, ,0.3375709056854248
0.011777865935859826,0.026997200884365927,-0.08477921275130428, ,0.012148285691481438,0.027931997914738833,-0.08498580926366515, ,0.00102651760933189, ,0.0049194342470953245,0.01919458587541925,-0.012419359754814115,-0.011360158374747447,-0.00377014280803802,0.03393903468677799, ,0.023385325675727396, ,0.011969414339647199, ,0.0013039794628377395, ,0.15258575612892786,-0.30290875152570795,0.09632990248000001,-4.523431460848159,0.1397791392600456,-1.3167816427913586, ,0.035675541939274726,-0.16084227382791658,0.01816284095781072,0.0,0.008893106645070932,0.1733276639631151, ,0.3412148952484131
0.011777865935859826,0.026997200884365927,-0.08477921275130428, ,0.012171453421353163,0.028026331578492596,-0.08503475863639706, ,0.001131072408698251, ,0.0049194342470953245,0.01919458587541925,-0.012419359754814115,-0.011360158374747447,-0.00377014280803802,0.03393903468677799, ,0.023385325675727396, ,0.011969414339647199, ,0.0013020793853197232, ,0.15258575612892786,-0.30290875152570795,0.09632990248000001,-4.523431460848159,0.1397791392600456,-1.3167816427913586, ,0.035675541939274726,-0.16084227382791658,0.01816284095781072,0.0,0.008893106645070932,0.1733276639631151, ,0.3448679447174072
0.011834671262638995,0.027217610036818277,-0.08492034442606226, ,0.01219465453852867,0.028120468973824846,-0.08508373869211827, ,0.0009856165102274186, ,0.005195742672733242,0.019135757427672054,-0.012469147211274678,-0.041364508150273066,0.00476246331435476,-0.012289935972883073, ,0.023423334229532876, ,0.04163776278699979, ,0.0012986395714600241, ,0.15300278370413598,-0.3047467619497734,0.09653730888,-4.522802391017706,0.139915775759811,-1.3146060559711192, ,0.037597837384497144,-0.15869053772319527,0.01824606130584193,0.04717076387462548,0.0,0.2071443675289405, ,0.34865498542785645
0.011834671262638995,0.027217610036818277,-0.08492034442606226, ,0.012217889101221669,0.0282144104361752,-0.08513274985342009, ,0.0010888448069110474, ,0.005195742672733242,0.019135757427672054,-0.012469147211274678,-0.041364508150273066,0.00476246331435476,-0.012289935972883073, ,0.023423334229532876, ,0.04163776278699979, ,0.001296383713776702, ,0.15300278370413598,-0.3047467619497734,0.09653730888,-4.522802391017706,0.139915775759811,-1.3146060559711192, ,0.037597837384497144,-0.15869053772319527,0.01824606130584193,0.04717076387462548,0.0,0.2071443675289405, ,0.35239100456237793
0.011834671262638995,0.027217610036818277,-0.08492034442606226, ,0.012241157167509023,0.02830815629988814,-0.08518179254096861, ,0.00119284410529697, ,0.005195742672733242,0.019135757427672054,-0.012469147211274678,-0.041364508150273066,0.00476246331435476,-0.012289935972883073, ,0.023423334229532876, ,0.04163776278699979, ,0.0012952822285801089, ,0.15300278370413598,-0.3047467619497734,0.09653730888,-4.522802391017706,0.139915775759811,-1.3146060559711192, ,0.037597837384497144,-0.15869053772319527,0.01824606130584193,0.04717076387462548,0.0,0.2071443675289405, ,0.35625290870666504
0.011890680758312408,0.02741967123244407,-0.08505238365666248, ,0.012264458795330804,0.02840170689821583,-0.08523086717350818, ,0.0010658144470735594, ,0.005601685408574293,0.020342861010415377,-0.013608298224329496,-0.06279438848369814,0.01261269753746505,-0.0376740138303803, ,0.02510770109086058, ,0.06404853548312626, ,0.001292866778248461, ,0.15339664308072143,-0.3064148722506059,0.09673045609000001,-4.521963631243768,0.1397791392600456,-1.3122893120836276, ,0.03967263443079882,-0.16648586238328208,0.019762793449131517,0.075594911983043,-0.0035844062740623263,0.24026494081963526, ,0.35991406440734863
0.011890680758312408,0.02741967123244407,-0.08505238365666248, ,0.01228779404249016,0.02849506256332024,-0.08527997416786268, ,0.0011687441618174709, ,0.005601685408574293,0.020342861010415377,-0.013608298224329496,-0.06279438848369814,0.01261269753746505,-0.0376740138303803, ,0.02510770109086058, ,0.06404853548312626, ,0.0012915738343273048, ,0.15339664308072143,-0.3064148722506059,0.09673045609000001,-4.521963631243768,0.1397791392600456,-1.3122893120836276, ,0.03967263443079882,-0.16648586238328208,0.019762793449131517,0.075594911983043,-0.0035844062740623263,0.24026494081963526, ,0.36357808113098145
0.011890680758312408,0.02741967123244407,-0.08505238365666248, ,0.012311162966653431,0.028588223626275517,-0.08532911393893969, ,0.0012723598680364641, ,0.005601685408574293,0.020342861010415377,-0.013608298224329496,-0.06279438848369814,0.01261269753746505,-0.0376740138303803, ,0.02510770109086058, ,0.06404853548312626, ,0.0012913757522005952, ,0.15339664308072143,-0.3064148722506059,0.09673045609000001,-4.521963631243768,0.1397791392600456,-1.3122893120836276, ,0.03967263443079882,-0.16648586238328208,0.019762793449131517,0.075594911983043,-0.0035844062740623263,0.24026494081963526, ,0.36716699600219727
0.011950298775670474,0.027623711243638608,-0.08519140607769739, ,0.012334565625349986,0.0286811904170704,-0.08537828689973219, ,0.0011405470861165744, ,0.006032997177232378,0.02130053252027943,-0.014989036848547566,-0.08103674524598162,-0.007685962431968847,0.018625423151289268, ,0.02673538790133953, ,0.081400413647375, ,0.0012898366841793297, ,0.15380594792305533,-0.30808298255143834,0.09693138104000001,-4.521753941300283,0.1395058662605147,-1.309616114072018, ,0.041952670892338985,-0.17191474920012823,0.021438508102288024,0.01648806253633898,-0.005969551001714199,0.2550638924484219, ,0.37074899673461914
0.011950298775670474,0.027623711243638608,-0.08519140607769739, ,0.012358002075972319,0.028773963264610763,-0.08542749346132165, ,0.0012429959555582215, ,0.006032997177232378,0.02130053252027943,-0.014989036848547566,-0.08103674524598162,-0.007685962431968847,0.018625423151289268, ,0.02673538790133953, ,0.081400413647375, ,0.0012893635455063892, ,0.15380594792305533,-0.30808298255143834,0.09693138104000001,-4.521753941300283,0.1395058662605147,-1.309616114072018, ,0.041952670892338985,-0.17191474920012823,0.021438508102288024,0.01648806253633898,-0.005969551001714199,0.2550638924484219, ,0.3743929862976074
0.011950298775670474,0.027623711243638608,-0.08519140607769739, ,0.012381472375775963,0.028866542496721645,-0.08547673403288121, ,0.001346087753111684, ,0.006032997177232378,0.02130053252027943,-0.014989036848547566,-0.08103674524598162,-0.007685962431968847,0.018625423151289268, ,0.02673538790133953, ,0.081400413647375, ,0.001289930787582442, ,0.15380594792305533,-0.30808298255143834,0.09693138104000001,-4.521753941300283,0.1395058662605147,-1.309616114072018, ,0.041952670892338985,-0.17191474920012823,0.021438508102288024,0.01648806253633898,-0.005969551001714199,0.2550638924484219, ,0.37802886962890625
0.012005172330010338,0.02781827664226105,-0.08533219792027878, ,0.012404976581879501,0.028958928440149787,-0.08552600902167752, ,0.0012241293668827907, ,0.006430754169907984,0.02269380330594079,-0.01693032978445551,-0.08344980549367105,-0.012697092457092475,0.035613928635008577, ,0.029034451506665993, ,0.08441021740758413, ,0.001289279288367594, ,0.15418436183389234,-0.30963525185915747,0.0971310097,-4.521544251356799,0.1395058662605147,-1.3074107880882226, ,0.04295923112651461,-0.1793893035131773,0.023774345552238813,0.0,-0.005969551001714199,0.26251738245738065, ,0.381727933883667
0.012005172330010338,0.02781827664226105,-0.08533219792027878, ,0.012428514751264533,0.029051121420566067,-0.08557531883307393, ,0.0013259837220967901, ,0.006430754169907984,0.02269380330594079,-0.01693032978445551,-0.08344980549367105,-0.012697092457092475,0.035613928635008577, ,0.029034451506665993, ,0.08441021740758413, ,0.001289639135757096, ,0.15418436183389234,-0.30963525185915747,0.0971310097,-4.521544251356799,0.1395058662605147,-1.3074107880882226, ,0.04295923112651461,-0.1793893035131773,0.023774345552238813,0.0,-0.005969551001714199,0.26251738245738065, ,0.3854539394378662
0.01208448492061679,0.02808973613637419,-0.0855419560206767, ,0.012452086940775629,0.029143121762567822,-0.08562466387053362, ,0.0011187462228424124, ,0.00662006182387042,0.02358666601813729,-0.018191005411313924,-0.02143898393782301,0.033243958519717766,-0.05838027873260377, ,0.0305134185282061, ,0.0395574116743454, ,0.0012879799812627788, ,0.1547017849364654,-0.31173583520094655,0.09742267495000001,-4.520495801639376,0.13936922976074928,-1.3043589355394662, ,0.04461539330440563,-0.181447306995164,0.025324024674085854,0.10631641745613056,0.016012735724399874,0.2208352093373374, ,0.3891479969024658
0.01208448492061679,0.02808973613637419,-0.0855419560206767, ,0.0124756932071204,0.029234929789681105,-0.08567404453562141, ,0.001217357713568131, ,0.00662006182387042,0.02358666601813729,-0.018191005411313924,-0.02143898393782301,0.033243958519717766,-0.05838027873260377, ,0.0305134185282061, ,0.0395574116743454, ,0.001287300920996484, ,0.1547017849364654,-0.31173583520094655,0.09742267495000001,-4.520495801639376,0.13936922976074928,-1.3043589355394662, ,0.04461539330440563,-0.181447306995164,0.025324024674085854,0.10631641745613056,0.016012735724399874,0.2208352093373374, ,0.39272308349609375
0.01208448492061679,0.02808973613637419,-0.0855419560206767, ,0.012499333606869363,0.029326545824363122,-0.08572346122800714, ,0.0013170959635033551, ,0.00662006182387042,0.02358666601813729,-0.018191005411313924,-0.02143898393782301,0.033243958519717766,-0.05838027873260377, ,0.0305134185282061, ,0.0395574116743454, ,0.0012875846833060732, ,0.1547017849364654,-0.31173583520094655,0.09742267495000001,-4.520495801639376,0.13936922976074928,-1.3043589355394662, ,0.04461539330440563,-0.181447306995164,0.025324024674085854,0.10631641745613056,0.016012735724399874,0.2208352093373374, ,0.3963038921356201
0.01214130540737031,0.028292616328141076,-0.08568879272539935, ,0.012523008196456019,0.029417970188004832,-0.08577291434546865, ,0.0014176918237595291, ,0.00662006182387042,0.02358666601813729,-0.018191005411313924,-0.02143898393782301,0.033243958519717766,-0.05838027873260377, ,0.0305134185282061, ,0.0395574116743454, ,0.0012888121091594077, ,0.1550879215801766,-0.313334440905911,0.09763137764,-4.520076421752408,0.13936922976074928,-1.302480324516233, ,0.04551412065154474,-0.1924887252707318,0.023253739445255477,0.07460245506911488,0.01558928145575162,0.19827347054398187, ,0.40015292167663574
0.01214130540737031,0.028292616328141076,-0.08568879272539935, ,0.012546717032176753,0.02950920320093281,-0.0858224042838933, ,0.0012892999081441652, ,0.006348909676602543,0.023932330145119952,-0.015886380399877154,0.00710403500971007,0.019249282717224578,-0.02771913281305936, ,0.029418398366775095, ,0.02051831344620385, ,0.0012888166680284242, ,0.1550879215801766,-0.313334440905911,0.09763137764,-4.520076421752408,0.13936922976074928,-1.302480324516233, ,0.04551412065154474,-0.1924887252707318,0.023253739445255477,0.07460245506911488,0.01558928145575162,0.19827347054398187, ,0.403778076171875
0.01214130540737031,0.028292616328141076,-0.08568879272539935, ,0.012570460170190879,0.029600245182412176,-0.08587193143728214, ,0.0013883828069966928, ,0.006348909676602543,0.023932330145119952,-0.015886380399877154,0.00710403500971007,0.019249282717224578,-0.02771913281305936, ,0.029418398366775095, ,0.02051831344620385, ,0.0012897385767225748, ,0.1550879215801766,-0.313334440905911,0.09763137764,-4.520076421752408,0.13936922976074928,-1.302480324516233, ,0.04551412065154474,-0.1924887252707318,0.023253739445255477,0.07460245506911488,0.01558928145575162,0.19827347054398187, ,0.407412052154541
0.012216382708476142,0.028561432438860224,-0.08585220733987303, ,0.012594237666520586,0.029691096450648415,-0.08592149619775154, ,0.0011931957486826152, ,0.006382890294314498,0.023547854260791472,-0.013154339207000463,0.01735533969558068,-0.005310729538844434,0.017679696944187702, ,0.027717852888879378, ,0.018149690639808556, ,0.0012888528627038596, ,0.155651681079995,-0.31555086524081344,0.09787896903000001,-4.519866731808922,0.13936922976074928,-1.3001933197922975, ,0.05042345460067523,-0.19729093879099954,0.020606483208279434,0.025654335663848258,0.012649944099785124,0.18500353927477212, ,0.41106200218200684
0.012216382708476142,0.028561432438860224,-0.08585220733987303, ,0.012618049577050915,0.029781757322790214,-0.08597109895553667, ,0.0012902187070123106, ,0.006382890294314498,0.023547854260791472,-0.013154339207000463,0.01735533969558068,-0.005310729538844434,0.017679696944187702, ,0.027717852888879378, ,0.018149690639808556, ,0.0012888652794703001, ,0.155651681079995,-0.31555086524081344,0.09787896903000001,-4.519866731808922,0.13936922976074928,-1.3001933197922975, ,0.05042345460067523,-0.19729093879099954,0.020606483208279434,0.025654335663848258,0.012649944099785124,0.18500353927477212, ,0.41497802734375
0.012216382708476142,0.028561432438860224,-0.08585220733987303, ,0.012641895957529747,0.029872228114931572,-0.08602074009899398, ,0.0013883984011890883, ,0.006382890294314498,0.023547854260791472,-0.013154339207000463,0.01735533969558068,-0.005310729538844434,0.02453575634877643, ,0.027717852888879378, ,0.018149690639808556, ,0.0012897619742605595, ,0.15602237225795776,-0.3169872935554192,0.09802544980000001,-4.519866731808922,0.13936922976074928,-1.2988864599500485, ,0.05355357875760201,-0.20765195089380914,0.02076768125162973,0.019373115300528702,0.011330339004642398,0.17751854258993893, ,0.419158935546875
0.012263445503514003,0.02873161231527631,-0.08594454854525571, ,0.012665776863567756,0.029962509142114332,-0.08607042001460324, ,0.0013010846046273567, ,0.006643315675120489,0.024535887566938103,-0.012930813129101187,0.033869077485170915,-0.012674218714425096,0.02453575634877643, ,0.028519280321152304, ,0.03616282439467661, ,0.0012898630691745487, ,0.15602237225795776,-0.3169872935554192,0.09802544980000001,-4.519866731808922,0.13936922976074928,-1.2988864599500485, ,0.05355357875760201,-0.20765195089380914,0.02076768125162973,0.019373115300528702,0.011330339004642398,0.17751854258993893, ,0.42290687561035156
0.012263445503514003,0.02873161231527631,-0.08594454854525571, ,0.01268969235063853,0.030052600718330352,-0.08612013908697176, ,0.0013991171409238785, ,0.006643315675120489,0.024535887566938103,-0.012930813129101187,0.033869077485170915,-0.012674218714425096,0.02453575634877643, ,0.028519280321152304, ,0.03616282439467661, ,0.0012908299193670207, ,0.15602237225795776,-0.3169872935554192,0.09802544980000001,-4.519866731808922,0.13936922976074928,-1.2988864599500485, ,0.05355357875760201,-0.20765195089380914,0.02076768125162973,0.019373115300528702,0.011330339004642398,0.17751854258993893, ,0.4265620708465576
0.012349591319783968,0.029053291374139617,-0.08610153035258093, ,0.012713642474078322,0.03014250315652388,-0.08616989769883551, ,0.00115047366065532, ,0.006491186886690429,0.024859465852029482,-0.011058633456898,0.03385785057019942,0.01175666365706714,-0.04685395405464682, ,0.027971805869128032, ,0.03584094055950668, ,0.0012895987241151638, ,0.15671741821663798,-0.31973658645864317,0.09828600409,-4.5188182820915,0.13936922976074928,-1.2962727402655505, ,0.054569834133680724,-0.2151858085226095,0.019145206153846156,0.0970847840715553,0.009516370188038784,0.19642387625111934, ,0.43026089668273926
0.012349591319783968,0.029053291374139617,-0.08610153035258093, ,0.012737627289086163,0.03023221676859419,-0.08621969623106276, ,0.001246755859821621, ,0.006491186886690429,0.024859465852029482,-0.011058633456898,0.03385785057019942,0.01175666365706714,-0.04685395405464682, ,0.027971805869128032, ,0.03584094055950668, ,0.001289226177469133, ,0.15671741821663798,-0.31973658645864317,0.09828600409,-4.5188182820915,0.13936922976074928,-1.2962727402655505, ,0.054569834133680724,-0.2151858085226095,0.019145206153846156,0.0970847840715553,0.009516370188038784,0.19642387625111934, ,0.4340240955352783
0.012349591319783968,0.029053291374139617,-0.08610153035258093, ,0.012761646850723904,0.03032174186539774,-0.08626953506265699, ,0.0013442403029067763, ,0.006491186886690429,0.024859465852029482,-0.011058633456898,0.03385785057019942,0.01175666365706714,-0.04685395405464682, ,0.027971805869128032, ,0.03584094055950668, ,0.0012897004371711816, ,0.15671741821663798,-0.31973658645864317,0.09828600409,-4.5188182820915,0.13936922976074928,-1.2962727402655505, ,0.054569834133680724,-0.2151858085226095,0.019145206153846156,0.0970847840715553,0.009516370188038784,0.19642387625111934, ,0.4378669261932373
0.01241596367438816,0.029307437098113207,-0.08621031877017274, ,0.012785701213916045,0.03041107875675042,-0.0863194145707588, ,0.0011690306465277744, ,0.0062752798935438335,0.024631060186671296,-0.010500606556510611,0.022576915998942244,0.007108742796062804,-0.02752347824740111, ,0.027501472719044937, ,0.023669626792555156, ,0.0012886690714391867, ,0.157234841319211,-0.3217985561360611,0.09846489211000001,-4.5181892122610465,0.13936922976074928,-1.2942307717620363, ,0.05337285801938739,-0.21665968392344928,0.01867387048065651,0.081532438736121,0.008539975185528906,0.2041021088646514, ,0.4415879249572754
0.01241596367438816,0.029307437098113207,-0.08621031877017274, ,0.012809790433449778,0.03050022775143025,-0.08636933513064911, ,0.0012661497785383146, ,0.0062752798935438335,0.024631060186671296,-0.010500606556510611,0.022576915998942244,0.007108742796062804,-0.02752347824740111, ,0.027501472719044937, ,0.023669626792555156, ,0.001288478229973925, ,0.157234841319211,-0.3217985561360611,0.09846489211000001,-4.5181892122610465,0.13936922976074928,-1.2942307717620363, ,0.05337285801938739,-0.21665968392344928,0.01867387048065651,0.081532438736121,0.008539975185528906,0.2041021088646514, ,0.4452669620513916
0.01241596367438816,0.029307437098113207,-0.08621031877017274, ,0.012833914563975039,0.030589189157179477,-0.08641929711575205, ,0.0013642738859731035, ,0.0061977150106007715,0.025793017450888554,-0.010671981583836003,0.032216848399989534,-0.0032976891617066254,0.005199563648546477, ,0.028593401537770954, ,0.03238518081170309, ,0.0012891151682596323, ,0.15767503709304181,-0.32365201202587496,0.09862433578000002,-4.5181892122610465,0.13936922976074928,-1.2925155182190846, ,0.051658650821159925,-0.2254084122528997,0.019122222713085234,0.04308322395598479,0.007809973274353544,0.19994251691758785, ,0.44934797286987305
0.01246455166039533,0.029501948336261897,-0.08629317855103019, ,0.012858073660004422,0.030677963280707123,-0.08646930089763742, ,0.0012525533101266728, ,0.0061977150106007715,0.025793017450888554,-0.010671981583836003,0.032216848399989534,-0.0032976891617066254,0.005199563648546477, ,0.028593401537770954, ,0.03238518081170309, ,0.0012888104861085241, ,0.15767503709304181,-0.32365201202587496,0.09862433578000002,-4.5181892122610465,0.13936922976074928,-1.2925155182190846, ,0.051658650821159925,-0.2254084122528997,0.019122222713085234,0.04308322395598479,0.007809973274353544,0.19994251691758785, ,0.4530150890350342
0.01246455166039533,0.029501948336261897,-0.08629317855103019, ,0.012882267775913104,0.03076655042769112,-0.08651934684602333, ,0.0013508727921127603, ,0.0061977150106007715,0.025793017450888554,-0.010671981583836003,0.032216848399989534,-0.0032976891617066254,0.005199563648546477, ,0.028593401537770954, ,0.03238518081170309, ,0.001289323397728394, ,0.15767503709304181,-0.32365201202587496,0.09862433578000002,-4.5181892122610465,0.13936922976074928,-1.2925155182190846, ,0.051658650821159925,-0.2254084122528997,0.019122222713085234,0.04308322395598479,0.007809973274353544,0.19994251691758785, ,0.45661306381225586
0.012542522536015756,0.02981807492250544,-0.0864264559324984, ,0.012906496965938917,0.030854950902780894,-0.08656943532877936, ,0.0011081661842300295, ,0.006567259726491286,0.026009562746116023,-0.011980338866585142,0.025616470497544612,-0.016289138614104626,0.03497128680025747, ,0.029379495807749175, ,0.030356866615987976, ,0.0012878385025357846, ,0.15831602392160246,-0.3264013049290989,0.09886155685,-4.517769832374077,0.13936922976074928,-1.2899017985345866, ,0.05331288851599482,-0.2222410809331868,0.02052681896907217,0.010548849275513026,0.006978807475333827,0.19841431668615453, ,0.46016907691955566
0.012542522536015756,0.02981807492250544,-0.0864264559324984, ,0.012930761284182335,0.03094316500959968,-0.08661956671192877, ,0.001205756527159561, ,0.006567259726491286,0.026009562746116023,-0.011980338866585142,0.025616470497544612,-0.016289138614104626,0.03497128680025747, ,0.029379495807749175, ,0.030356866615987976, ,0.0012871711694026446, ,0.15831602392160246,-0.3264013049290989,0.09886155685,-4.517769832374077,0.13936922976074928,-1.2899017985345866, ,0.05331288851599482,-0.2222410809331868,0.02052681896907217,0.010548849275513026,0.006978807475333827,0.19841431668615453, ,0.4637470245361328
0.012542522536015756,0.02981807492250544,-0.0864264559324984, ,0.012955060784606329,0.03103119305074694,-0.08666974135965134, ,0.0013042358677337964, ,0.006567259726491286,0.026009562746116023,-0.011980338866585142,0.025616470497544612,-0.016289138614104626,0.03497128680025747, ,0.029379495807749175, ,0.030356866615987976, ,0.001287308787937573, ,0.15831602392160246,-0.3264013049290989,0.09886155685,-4.517769832374077,0.13936922976074928,-1.2899017985345866, ,0.05331288851599482,-0.2222410809331868,0.02052681896907217,0.010548849275513026,0.006978807475333827,0.19841431668615453, ,0.467379093170166
0.012608439366585027,0.03007914615896915,-0.0865424584705307, ,0.012979395521036524,0.031119035327800377,-0.08671995963428654, ,0.0011182506942151286, ,0.00671658404522001,0.027280056806955652,-0.012046368476553897,0.048159159373555804,0.015574510594823482,-0.05877382415191934, ,0.030568431332015433, ,0.05061491636028886, ,0.0012859563231877936, ,0.15884889248992393,-0.3286331747297498,0.09906377809000001,-4.51693107260014,0.13936922976074928,-1.2878598300310726, ,0.05438220146617236,-0.23259054303546764,0.02106985650793651,0.11268501129240799,0.006423300169462063,0.20133083811291594, ,0.4709889888763428
0.012608439366585027,0.03007914615896915,-0.0865424584705307, ,0.013003765547161069,0.031206692141319037,-0.08677022189633585, ,0.001216354763009833, ,0.00671658404522001,0.027280056806955652,-0.012046368476553897,0.048159159373555804,0.015574510594823482,-0.05877382415191934, ,0.030568431332015433, ,0.05061491636028886, ,0.0012854039298530477, ,0.15884889248992393,-0.3286331747297498,0.09906377809000001,-4.51693107260014,0.13936922976074928,-1.2878598300310726, ,0.05438220146617236,-0.23259054303546764,0.02106985650793651,0.11268501129240799,0.006423300169462063,0.20133083811291594, ,0.47460198402404785
0.012608439366585027,0.03007914615896915,-0.0865424584705307, ,0.013028170916530524,0.03129416379084469,-0.08682052850446523, ,0.0013152054453812285, ,0.00671658404522001,0.027280056806955652,-0.012046368476553897,0.048159159373555804,0.015574510594823482,-0.05877382415191934, ,0.030568431332015433, ,0.05061491636028886, ,0.0012856385874556319, ,0.15884889248992393,-0.3286331747297498,0.09906377809000001,-4.51693107260014,0.13936922976074928,-1.2878598300310726, ,0.05438220146617236,-0.23259054303546764,0.02106985650793651,0.11268501129240799,0.006423300169462063,0.20133083811291594, ,0.4784669876098633
0.012678994299635132,0.030355440208432602,-0.08667827296508158, ,0.013052611682558139,0.03138145057490524,-0.08687087981550853, ,0.0011087761810946982, ,0.0070773762235424595,0.02757524471719533,-0.014353154764568977,0.020144131763228414,0.0005510285125911842,-0.010028688356834896, ,0.031882541101964285, ,0.020151651737471476, ,0.001284256849905937, ,0.1593972065239939,-0.33094227185914293,0.09929062884,-4.516302002769685,0.13936922976074928,-1.2857361827874179, ,0.054195854687875945,-0.22702617597720282,0.023424722823529417,0.06019458159442857,0.00594177000036469,0.21608271834150056, ,0.4822089672088623
0.012678994299635132,0.030355440208432602,-0.08667827296508158, ,0.013077087898519527,0.031468552791016194,-0.0869212761844699, ,0.0012068755940906797, ,0.0070773762235424595,0.02757524471719533,-0.014353154764568977,0.020144131763228414,0.0005510285125911842,-0.010028688356834896, ,0.031882541101964285, ,0.020151651737471476, ,0.0012836569952096948, ,0.1593972065239939,-0.33094227185914293,0.09929062884,-4.516302002769685,0.13936922976074928,-1.2857361827874179, ,0.054195854687875945,-0.22702617597720282,0.023424722823529417,0.06019458159442857,0.00594177000036469,0.21608271834150056, ,0.4859499931335449
0.012752623201848674,0.03063420271323002,-0.0868288599200755, ,0.013101599617552771,0.03155547073568373,-0.08697171796452609, ,0.0009954535291904383, ,0.007097144484964889,0.02650876774440146,-0.014131801354797522,0.018303414807553223,-0.011678087986814478,0.014980011480714749, ,0.030867329601028722, ,0.02171156763164626, ,0.0012814400454710852, ,0.15995324329093805,-0.33322047805703914,0.09953303507000001,-4.516302002769685,0.13936922976074928,-1.2834491780634822, ,0.05466413684243708,-0.21616615389173302,0.022919153266187053,0.03098350929948226,0.005521528020169725,0.20259531718287244, ,0.4896860122680664
0.012752623201848674,0.03063420271323002,-0.0868288599200755, ,0.013126146892658428,0.03164220470440651,-0.08702220550702983, ,0.0010922318791385965, ,0.007097144484964889,0.02650876774440146,-0.014131801354797522,0.018303414807553223,-0.011678087986814478,0.014980011480714749, ,0.030867329601028722, ,0.02171156763164626, ,0.001279995708323509, ,0.15995324329093805,-0.33322047805703914,0.09953303507000001,-4.516302002769685,0.13936922976074928,-1.2834491780634822, ,0.05466413684243708,-0.21616615389173302,0.022919153266187053,0.03098350929948226,0.005521528020169725,0.20259531718287244, ,0.4932858943939209
0.012752623201848674,0.03063420271323002,-0.0868288599200755, ,0.013150729776699455,0.03172875499167838,-0.08707273916151215, ,0.001189962444617325, ,0.007097144484964889,0.02650876774440146,-0.014131801354797522,0.018303414807553223,-0.011678087986814478,0.014980011480714749, ,0.030867329601028722, ,0.02171156763164626, ,0.0012793136381439166, ,0.15995324329093805,-0.33322047805703914,0.09953303507000001,-4.516302002769685,0.13936922976074928,-1.2834491780634822, ,0.05466413684243708,-0.21616615389173302,0.022919153266187053,0.03098350929948226,0.005521528020169725,0.20259531718287244, ,0.4968559741973877
0.01282279567281891,0.030902515391775513,-0.08696090850773164, ,0.013175348322401251,0.03181512189099078,-0.08712331927568558, ,0.0009917263991065617, ,0.006837307097215613,0.02737575687490987,-0.012763407537687893,0.040981735959795144,-0.023641842633931716,0.04539727122787196, ,0.030969104035940696, ,0.047312145023153736, ,0.0012771513280759666, ,0.16050155732500798,-0.3354446251248158,0.09975470066000001,-4.516092312826201,0.13936922976074928,-1.2815705670402493, ,0.054103159383392684,-0.22921966560017099,0.021940511735537193,0.0,0.005164163547207854,0.1879123296596893, ,0.5006449222564697
0.01282279567281891,0.030902515391775513,-0.08696090850773164, ,0.013200002582351572,0.031901305694834764,-0.087173946195446, ,0.0010886928761000743, ,0.006837307097215613,0.02737575687490987,-0.012763407537687893,0.040981735959795144,-0.023641842633931716,0.04539727122787196, ,0.030969104035940696, ,0.047312145023153736, ,0.0012757449217179375, ,0.16050155732500798,-0.3354446251248158,0.09975470066000001,-4.516092312826201,0.13936922976074928,-1.2815705670402493, ,0.054103159383392684,-0.22921966560017099,0.021940511735537193,0.0,0.005164163547207854,0.1879123296596893, ,0.5043380260467529
0.01282279567281891,0.030902515391775513,-0.08696090850773164, ,0.013224692609000515,0.03198730669470374,-0.08722462026487636, ,0.0011865231599413623, ,0.006837307097215613,0.02737575687490987,-0.012763407537687893,0.040981735959795144,-0.023641842633931716,0.04539727122787196, ,0.030969104035940696, ,0.047312145023153736, ,0.0012750840197788518, ,0.16050155732500798,-0.3354446251248158,0.09975470066000001,-4.516092312826201,0.13936922976074928,-1.2815705670402493, ,0.054103159383392684,-0.22921966560017099,0.021940511735537193,0.0,0.005164163547207854,0.1879123296596893, ,0.5080540180206299
0.012896062094869008,0.031186513672835217,-0.08710582526642512, ,0.01324941845466058,0.03207312518109562,-0.08727534182624863, ,0.0009693691493127552, ,0.007000274841413561,0.026993169674762087,-0.014787277530214202,0.03936259306997002,0.012800592228285038,-0.05166059706463081, ,0.03156419860698828, ,0.041391643933909504, ,0.0012728361163195422, ,0.1610421486262037,-0.3376842176583409,0.09998673657000001,-4.515253553052263,0.13936922976074928,-1.2796102772768758, ,0.0518279309440037,-0.21616615389173302,0.023774345552238813,0.10206926591777246,0.004850829591770345,0.19121743629879492, ,0.5116939544677734
0.012896062094869008,0.031186513672835217,-0.08710582526642512, ,0.013274180171506517,0.0321587614435152,-0.08732611122002708, ,0.0010661917786339225, ,0.007000274841413561,0.026993169674762087,-0.014787277530214202,0.03936259306997002,0.012800592228285038,-0.05166059706463081, ,0.03156419860698828, ,0.041391643933909504, ,0.0012713277634897203, ,0.1610421486262037,-0.3376842176583409,0.09998673657000001,-4.515253553052263,0.13936922976074928,-1.2796102772768758, ,0.0518279309440037,-0.21616615389173302,0.023774345552238813,0.10206926591777246,0.004850829591770345,0.19121743629879492, ,0.5152630805969238
0.012896062094869008,0.031186513672835217,-0.08710582526642512, ,0.013298977811575427,0.03224421577047682,-0.08737692878487058, ,0.0011638607819829674, ,0.007000274841413561,0.026993169674762087,-0.014787277530214202,0.03936259306997002,0.012800592228285038,-0.05166059706463081, ,0.03156419860698828, ,0.041391643933909504, ,0.0012705490172469178, ,0.1610421486262037,-0.3376842176583409,0.09998673657000001,-4.515253553052263,0.13936922976074928,-1.2796102772768758, ,0.0518279309440037,-0.21616615389173302,0.023774345552238813,0.10206926591777246,0.004850829591770345,0.19121743629879492, ,0.519615888595581
0.012952732483191327,0.03140612544577232,-0.0872243705816766, ,0.013323811426766731,0.032329488449506096,-0.08742779485763545, ,0.0010157166214445226, ,0.006810274597545334,0.02702086170893728,-0.013990153972546715,0.043494646115104944,0.008382592330566381,-0.03820151661421912, ,0.03118062244027609, ,0.04429505117869547, ,0.0012687156906584114, ,0.16147462166716028,-0.33952222808240634,0.10018636523,-4.51462448322181,0.13936922976074928,-1.2779767024740645, ,0.050937703466704655,-0.21815388864016272,0.023051825643994214,0.08797853831859692,0.004613095273037851,0.18771688671408043, ,0.5231950283050537
0.012952732483191327,0.03140612544577232,-0.0872243705816766, ,0.013348681068841989,0.03241457976714303,-0.08747870977337836, ,0.0011128539100913092, ,0.006810274597545334,0.02702086170893728,-0.013990153972546715,0.043494646115104944,0.008382592330566381,-0.03820151661421912, ,0.03118062244027609, ,0.04429505117869547, ,0.0012676023922257892, ,0.16147462166716028,-0.33952222808240634,0.10018636523,-4.51462448322181,0.13936922976074928,-1.2779767024740645, ,0.050937703466704655,-0.21815388864016272,0.023051825643994214,0.08797853831859692,0.004613095273037851,0.18771688671408043, ,0.5268969535827637
0.012952732483191327,0.03140612544577232,-0.0872243705816766, ,0.013373586789425174,0.03249949000894388,-0.08752967386535924, ,0.0012106917485893369, ,0.006810274597545334,0.02702086170893728,-0.013990153972546715,0.043494646115104944,0.008382592330566381,-0.03820151661421912, ,0.03118062244027609, ,0.04429505117869547, ,0.001267198770639715, ,0.16147462166716028,-0.33952222808240634,0.10018636523,-4.51462448322181,0.13936922976074928,-1.2779767024740645, ,0.050937703466704655,-0.21815388864016272,0.023051825643994214,0.08797853831859692,0.004613095273037851,0.18771688671408043, ,0.5308070182800293
0.012952732483191327,0.03140612544577232,-0.0872243705816766, ,0.013398528640002324,0.0325842194594838,-0.08758068746504304, ,0.0013090460037532097, ,0.006810274597545334,0.02702086170893728,-0.013990153972546715,0.043494646115104944,0.008382592330566381,-0.03820151661421912, ,0.03118062244027609, ,0.04429505117869547, ,0.001267493469464458, ,0.16147462166716028,-0.33952222808240634,0.10018636523,-4.51462448322181,0.13936922976074928,-1.2779767024740645, ,0.050937703466704655,-0.21815388864016272,0.023051825643994214,0.08797853831859692,0.004613095273037851,0.18771688671408043, ,0.5348310470581055
0.013035398920917679,0.03173449305807751,-0.08738681835924386, ,0.013423506671921772,0.0326687684023588,-0.08763175090210361, ,0.0010409082552622578, ,0.006461626082198136,0.025335233404914878,-0.012349896343104214,0.030698392084331953,-0.014267211259191087,0.010568990119587255, ,0.02891619966373653, ,0.033851799160316054, ,0.00126590895747703, ,0.1621156084957209,-0.3422020163897623,0.10045988242000001,-4.514414793278324,0.1395058662605147,-1.2758011156538251, ,0.049528675134901244,-0.20674714936486008,0.020958962526315794,0.03170020210316492,0.0,0.17997504251564733, ,0.5389750003814697
0.013107768043446091,0.032016089142367046,-0.08752412851278231, ,0.013448520936394053,0.032753137120188694,-0.08768286450442575, ,0.0008273749879627809, ,0.006247971041320785,0.024115552859568394,-0.011894535141302691,0.031327891074517555,-0.02559030028255945,0.03771638565045296, ,0.027605742121585956, ,0.04045120504559135, ,0.0012628635826887366, ,0.16267164526266506,-0.3444956680534069,0.10069321462000001,-4.51420510333484,0.1395058662605147,-1.2737591471503111, ,0.047903554547436035,-0.1956637970277748,0.020137561972187107,0.0,0.0,0.16339561756835824, ,0.5426650047302246
0.013107768043446091,0.032016089142367046,-0.08752412851278231, ,0.01347357148449177,0.032837325894619,-0.08773402859810847, ,0.0009232009567532532, ,0.006247971041320785,0.024115552859568394,-0.011894535141302691,0.031327891074517555,-0.02559030028255945,0.03771638565045296, ,0.027605742121585956, ,0.04045120504559135, ,0.001260521081820216, ,0.16267164526266506,-0.3444956680534069,0.10069321462000001,-4.51420510333484,0.1395058662605147,-1.2737591471503111, ,0.047903554547436035,-0.1956637970277748,0.020137561972187107,0.0,0.0,0.16339561756835824, ,0.546212911605835
0.013168269111125414,0.032255051475755414,-0.08763372614396811, ,0.013498658367149712,0.03292133500632359,-0.08778524350746643, ,0.0007589784681031238, ,0.006172945496060723,0.024138428903829678,-0.010763989407162677,0.05229035536267459,-0.0010044155344255193,-0.03401378134220932, ,0.02714097407979468, ,0.05229999971339482, ,0.0012570858584385921, ,0.16314273196799275,-0.3464495194705857,0.10088506554000001,-4.513366343560902,0.1395058662605147,-1.2722072510876403, ,0.04879020131540914,-0.19811470053960498,0.019122222713085234,0.07756179319557839,0.0,0.1566266497440688, ,0.5531449317932129
0.013168269111125414,0.032255051475755414,-0.08763372614396811, ,0.0135237816351649,0.03300516473500686,-0.08783650955503465, ,0.0008545058035247803, ,0.006172945496060723,0.024138428903829678,-0.010763989407162677,0.05229035536267459,-0.0010044155344255193,-0.03401378134220932, ,0.02714097407979468, ,0.05229999971339482, ,0.0012543472186092464, ,0.16314273196799275,-0.3464495194705857,0.10088506554000001,-4.513366343560902,0.1395058662605147,-1.2722072510876403, ,0.04879020131540914,-0.19811470053960498,0.019122222713085234,0.07756179319557839,0.0,0.1566266497440688, ,0.5567638874053955
0.013168269111125414,0.032255051475755414,-0.08763372614396811, ,0.013548941339196274,0.03308881535940634,-0.08788782706156958, ,0.0009511260879773069, ,0.006172945496060723,0.024138428903829678,-0.010763989407162677,0.05229035536267459,-0.0010044155344255193,-0.03401378134220932, ,0.02714097407979468, ,0.05229999971339482, ,0.0012522984271860578, ,0.16314273196799275,-0.3464495194705857,0.10088506554000001,-4.513366343560902,0.1395058662605147,-1.2722072510876403, ,0.04879020131540914,-0.19811470053960498,0.019122222713085234,0.07756179319557839,0.0,0.1566266497440688, ,0.5603458881378174
0.013229075840563292,0.0324850426677666,-0.08774060593903368, ,0.013574137529765,0.03317228715729452,-0.0879391963460528, ,0.0007942359268512381, ,0.006107688974167955,0.022178045448135408,-0.011167231784646283,0.03762842701865356,-0.008115521001642837,-0.017459444642126017, ,0.025571011521579406, ,0.038493636192948884, ,0.0012492241822173677, ,0.1636215414061947,-0.34831842082614806,0.10107173130000001,-4.5127372737304485,0.1395058662605147,-1.2707370337651103, ,0.047259433047047196,-0.17671683716661224,0.01885066452071006,0.05571906937358743,0.0,0.14674739388865743, ,0.5639030933380127
0.013229075840563292,0.0324850426677666,-0.08774060593903368, ,0.013599370257254221,0.033255580405482245,-0.08799061772569294, ,0.0008907032355083132, ,0.006107688974167955,0.022178045448135408,-0.011167231784646283,0.03762842701865356,-0.008115521001642837,-0.017459444642126017, ,0.025571011521579406, ,0.038493636192948884, ,0.0012468340425726406, ,0.1636215414061947,-0.34831842082614806,0.10107173130000001,-4.5127372737304485,0.1395058662605147,-1.2707370337651103, ,0.047259433047047196,-0.17671683716661224,0.01885066452071006,0.05571906937358743,0.0,0.14674739388865743, ,0.5674819946289062
0.013229075840563292,0.0324850426677666,-0.08774060593903368, ,0.013624639571909191,0.033338695379819754,-0.08804209151592907, ,0.0009879712401825978, ,0.006107688974167955,0.022178045448135408,-0.011167231784646283,0.03762842701865356,-0.008115521001642837,-0.017459444642126017, ,0.025571011521579406, ,0.038493636192948884, ,0.0012451197193780045, ,0.1636215414061947,-0.34831842082614806,0.10107173130000001,-4.5127372737304485,0.1395058662605147,-1.2707370337651103, ,0.047259433047047196,-0.17671683716661224,0.01885066452071006,0.05571906937358743,0.0,0.14674739388865743, ,0.571160078048706
0.013229075840563292,0.0324850426677666,-0.08774060593903368, ,0.013649945523837128,0.03342163235520022,-0.08809361803043332, ,0.0010857942114325262, ,0.006107688974167955,0.022178045448135408,-0.011167231784646283,0.03762842701865356,-0.008115521001642837,-0.017459444642126017, ,0.025571011521579406, ,0.038493636192948884, ,0.0012440715252467845, ,0.1636215414061947,-0.34831842082614806,0.10107173130000001,-4.5127372737304485,0.1395058662605147,-1.2707370337651103, ,0.047259433047047196,-0.17671683716661224,0.01885066452071006,0.05571906937358743,0.0,0.14674739388865743, ,0.5748660564422607
0.013278105677969006,0.03266486996923102,-0.08783123995129587, ,0.01367528816300731,0.03350439160556146,-0.08814519758111306, ,0.0009803672258947467, ,0.006072280959087829,0.022219208461682873,-0.011105755960341196,0.04334645061005998,-0.01569265722854085,0.0006696770348914201, ,0.02557153957352733, ,0.04609961065388382, ,0.0012423479677346797, ,0.16399995531703168,-0.34975484914075383,0.10122469352,-4.5127372737304485,0.1395058662605147,-1.2695935314031424, ,0.046932216398848065,-0.177046532758341,0.01882838241134752,0.03595440246703421,0.0,0.13823454428971002, ,0.5786569118499756
0.013357294395400706,0.032937905557072156,-0.08797726541722918, ,0.013700667539250954,0.03358697340388838,-0.08819683047811448, ,0.0007664222084789947, ,0.006072280959087829,0.022219208461682873,-0.011105755960341196,0.04334645061005998,-0.01569265722854085,0.0006696770348914201, ,0.02557153957352733, ,0.04609961065388382, ,0.001239257540726526, ,0.16461005121409542,-0.351894046146914,0.10146580346,-4.5127372737304485,0.1395058662605147,-1.2677965991200502, ,0.047025243586952814,-0.1659037439833405,0.020291479643312103,0.021663400261882654,0.0,0.14604236108493168, ,0.582503080368042
0.013357294395400706,0.032937905557072156,-0.08797726541722918, ,0.013726083702261246,0.03366937802221565,-0.08824851702982467, ,0.0008629223357020229, ,0.006366943821432054,0.021780876434141047,-0.012761720114234938,0.022414993989395633,-0.019632566884230134,0.012454882765500051, ,0.02603470860483484, ,0.02979713576030805, ,0.0012368295716618516, ,0.16461005121409542,-0.351894046146914,0.10146580346,-4.5127372737304485,0.1395058662605147,-1.2677965991200502, ,0.047025243586952814,-0.1659037439833405,0.020291479643312103,0.021663400261882654,0.0,0.14604236108493168, ,0.5867879390716553
0.013357294395400706,0.032937905557072156,-0.08797726541722918, ,0.01375153670159334,0.03375160573162976,-0.08830025754287461, ,0.0009601348255823862, ,0.006366943821432054,0.021780876434141047,-0.012761720114234938,0.022414993989395633,-0.019632566884230134,0.012454882765500051, ,0.02603470860483484, ,0.02979713576030805, ,0.0012350558873921115, ,0.16461005121409542,-0.351894046146914,0.10146580346,-4.5127372737304485,0.1395058662605147,-1.2677965991200502, ,0.047025243586952814,-0.1659037439833405,0.020291479643312103,0.021663400261882654,0.0,0.14604236108493168, ,0.5905349254608154
0.013419004027138581,0.03314560778996214,-0.08810388774877692, ,0.013777026586664314,0.033833656802271385,-0.08835205232214173, ,0.000814356956096296, ,0.006436698591231886,0.021502515488865063,-0.013458722025523489,-0.0006556038927965282,-0.011810396576110561,0.0004502321245290695, ,0.02617109970298458, ,0.011828560443239454, ,0.0012323762763647495, ,0.16505796972080045,-0.3534463154546331,0.10166413583000002,-4.511898513956511,0.1395058662605147,-1.26632638179752, ,0.04633639724534706,-0.15975916087284645,0.020876555072083886,0.03440603799025804,0.0,0.16521412535075258, ,0.5943138599395752
0.013419004027138581,0.03314560778996214,-0.08810388774877692, ,0.013802553406753092,0.03391553150333809,-0.08840390167075295, ,0.0009109890254008173, ,0.006436698591231886,0.021502515488865063,-0.013458722025523489,-0.0006556038927965282,-0.011810396576110561,0.0004502321245290695, ,0.02617109970298458, ,0.011828560443239454, ,0.0012303421798396613, ,0.16505796972080045,-0.3534463154546331,0.10166413583000002,-4.511898513956511,0.1395058662605147,-1.26632638179752, ,0.04633639724534706,-0.15975916087284645,0.020876555072083886,0.03440603799025804,0.0,0.16521412535075258, ,0.5980000495910645
0.013419004027138581,0.03314560778996214,-0.08810388774877692, ,0.013828117211000591,0.03399723010308614,-0.0884558058900867, ,0.0010082065956952047, ,0.006436698591231886,0.021502515488865063,-0.013458722025523489,-0.0006556038927965282,-0.011810396576110561,0.0004502321245290695, ,0.02617109970298458, ,0.011828560443239454, ,0.0012289451006940988, ,0.16505796972080045,-0.3534463154546331,0.10166413583000002,-4.511898513956511,0.1395058662605147,-1.26632638179752, ,0.04633639724534706,-0.15975916087284645,0.020876555072083886,0.03440603799025804,0.0,0.16521412535075258, ,0.601754903793335
0.013486184523352568,0.033369261439154155,-0.08824997155459169, ,0.013853718048409493,0.034078752868833447,-0.08850776527977693, ,0.0008395931071501338, ,0.006363518615786013,0.020554196234394327,-0.013681987103957577,-0.020022709312652157,0.0027631718236957262,-0.03045347896092839, ,0.025498355302417182, ,0.02021245970418757, ,0.001226511650734449, ,0.16552905642612814,-0.3550758120910945,0.10188709771000001,-4.511059754182572,0.1395058662605147,-1.2645294495144275, ,0.04486853028769304,-0.14850851574095583,0.02076768125162973,0.06646175684265974,0.0,0.17858248718343595, ,0.605370044708252
0.013486184523352568,0.033369261439154155,-0.08824997155459169, ,0.013879355967844334,0.03416010006696169,-0.08855978013771423, ,0.0009359438434931066, ,0.006363518615786013,0.020554196234394327,-0.013681987103957577,-0.020022709312652157,0.0027631718236957262,-0.03045347896092839, ,0.025498355302417182, ,0.02021245970418757, ,0.0012247068817453721, ,0.16552905642612814,-0.3550758120910945,0.10188709771000001,-4.511059754182572,0.1395058662605147,-1.2645294495144275, ,0.04486853028769304,-0.14850851574095583,0.02076768125162973,0.06646175684265974,0.0,0.17858248718343595, ,0.6090359687805176
0.013553731040488367,0.03357781537439028,-0.08839863871507396, ,0.013905031018031505,0.03424127196291849,-0.08861185076005, ,0.000780413797421706, ,0.006943172535239479,0.02107746470599478,-0.015694528411093003,-0.04758036307481474,-0.0074947280793926895,-0.002325548695817853, ,0.027180606787435134, ,0.04816701098351799, ,0.0012219643318421398, ,0.16600014313145584,-0.35655085407007137,0.10210746701000001,-4.511059754182572,0.1395058662605147,-1.2625691597510542, ,0.04747220688267672,-0.14577103157983223,0.022919153266187053,0.036405867879252936,0.0,0.198995083849753, ,0.6126868724822998
0.013553731040488367,0.03357781537439028,-0.08839863871507396, ,0.013930743247559196,0.03432226882122016,-0.08866397744119814, ,0.0008756447786394348, ,0.006943172535239479,0.02107746470599478,-0.015694528411093003,-0.04758036307481474,-0.0074947280793926895,-0.002325548695817853, ,0.027180606787435134, ,0.04816701098351799, ,0.0012198396720065404, ,0.16600014313145584,-0.35655085407007137,0.10210746701000001,-4.511059754182572,0.1395058662605147,-1.2625691597510542, ,0.04747220688267672,-0.14577103157983223,0.022919153266187053,0.036405867879252936,0.0,0.198995083849753, ,0.6164770126342773
0.013553731040488367,0.03357781537439028,-0.08839863871507396, ,0.0139564927048774,0.03440309090545363,-0.08871616047383826, ,0.000971656692336393, ,0.006943172535239479,0.02107746470599478,-0.015694528411093003,-0.04758036307481474,-0.0074947280793926895,-0.002325548695817853, ,0.027180606787435134, ,0.04816701098351799, ,0.0012183263611548931, ,0.16600014313145584,-0.35655085407007137,0.10210746701000001,-4.511059754182572,0.1395058662605147,-1.2625691597510542, ,0.04747220688267672,-0.14577103157983223,0.022919153266187053,0.036405867879252936,0.0,0.198995083849753, ,0.6201229095458984
0.013622750411531248,0.03378998138839998,-0.08856631140859866, ,0.013982279438297818,0.03448373847827933,-0.08876840014891858, ,0.0008070934765005069, ,0.006937330342164322,0.02083822327139265,-0.0170377358069614,-0.021831043677065294,-0.02296299711480456,0.02872341529362333, ,0.02779644838486634, ,0.03168425900725275, ,0.0012158340406418363, ,0.1664635071039093,-0.35797955965180295,0.10234728066000001,-4.510850064239088,0.13964250276028015,-1.260883645371658, ,0.04484732587829433,-0.13833373405024896,0.024098050711043876,0.0,0.0,0.1598637995259054, ,0.6249659061431885
