NicholasDascanio/dvrk_moveit_final/test/execution/noob_justexecution/no_ramp/noob__noramp_700vel4.csv
Current Position (x),Current Position (y),Current Position (z), ,Planned Position (x),Planned Position (y),Planned Position (z), ,Position Error,,Cartesian linear Velocity(x),Cartesian linear Velocity(y),Cartesian linear Velocity(z),Cartesian Angular Velocity(x),Cartesian Angular Velocity(y),Cartesian Angular Velocity(z), ,Total Linear Velocity, ,Total Angular Velocity, ,MSE, ,Joint 1 Position,Joint 2 Position,Joint 3 Position,Joint 4 Position,Joint 5 Position,Joint 6 Position, ,Joint 1 Velocity,Joint 2 Velocity,Joint 3 Velocity,Joint 4 Velocity,Joint 5 Velocity,Joint 6 Velocity, ,Time Stamp
0.009959622336001308,0.018797235910043578,-0.08065243700076744, ,0.010234476431780366,0.01867780481376562,-0.08079528686022884, ,0.0003319859079431258, ,4.1656957795775514e-05,3.395612855744896e-05,2.392434046388647e-05,0.00044232218038483574,-0.0005487262971850753,6.228124425457617e-05, ,5.8827670921437796e-05, ,0.0007048045548113596, ,0.0001659929539715629, ,0.13988186055082855,-0.22441489459209002,0.09000789615,-4.537900066948591,0.15494579073400946,-1.3862424694599145, ,0.0005487262971850753,-0.00044668542023027045,-1.050838345337502e-05,0.0,0.0,0.0, ,0.0017800331115722656
0.009959622336001308,0.018797235910043578,-0.08065243700076744, ,0.010246327123341501,0.018742446702158477,-0.0808227675252712, ,0.000337955588742355, ,4.1656957795775514e-05,3.395612855744896e-05,2.392434046388647e-05,0.00044232218038483574,-0.0005487262971850753,6.228124425457617e-05, ,5.8827670921437796e-05, ,0.0007048045548113596, ,0.0002233138322284936, ,0.13988186055082855,-0.22441489459209002,0.09000789615,-4.537900066948591,0.15494579073400946,-1.3862424694599145, ,0.0005487262971850753,-0.00044668542023027045,-1.050838345337502e-05,0.0,0.0,0.0, ,0.003509044647216797
0.009960245192930919,0.018797235910043578,-0.08065236008285949, ,0.010258186200181334,0.01880701421740208,-0.08085024223084422, ,0.0003578013465419612, ,-2.7399429724102026e-05,3.07735407162532e-05,1.4540373528456785e-05,0.00040323564281874495,0.0003089633643302842,5.678083400291171e-05, ,4.369395861864596e-05, ,0.000507993448912222, ,0.0002569357108068605, ,0.13988958328370277,-0.22441489459209002,0.09000789615,-4.537900066948591,0.15494579073400946,-1.3862424694599145, ,-0.00030896336433028414,-0.0004072137605110032,-1.0397776928897586e-05,0.0,0.0,0.0, ,0.005226850509643555
0.009960245192930919,0.018797235910043578,-0.08065236008285949, ,0.010270053676689882,0.01887150743902666,-0.08087771109342679, ,0.00039023151409158945, ,-2.7399429724102026e-05,3.07735407162532e-05,1.4540373528456785e-05,0.00040323564281874495,0.0003089633643302842,5.678083400291171e-05, ,4.369395861864596e-05, ,0.000507993448912222, ,0.00028359487146380625, ,0.13988958328370277,-0.22441489459209002,0.09000789615,-4.537900066948591,0.15494579073400946,-1.3862424694599145, ,-0.00030896336433028414,-0.0004072137605110032,-1.0397776928897586e-05,0.0,0.0,0.0, ,0.006968021392822266
0.009960245192930919,0.018797235910043578,-0.08065236008285949, ,0.010281929567552434,0.018935926446427588,-0.0809051742292248, ,0.00043200797951026515, ,-2.7399429724102026e-05,3.07735407162532e-05,1.4540373528456785e-05,0.00040323564281874495,0.0003089633643302842,5.678083400291171e-05, ,4.369395861864596e-05, ,0.000507993448912222, ,0.0003083303894715494, ,0.13988958328370277,-0.22441489459209002,0.09000789615,-4.537900066948591,0.15494579073400946,-1.3862424694599145, ,-0.00030896336433028414,-0.0004072137605110032,-1.0397776928897586e-05,0.0,0.0,0.0, ,0.00875401496887207
0.009960245192930919,0.018797235910043578,-0.08065236008285949, ,0.010293813887437275,0.019000271318865905,-0.08093263175420701, ,0.00048067001253485276, ,-2.7399429724102026e-05,3.07735407162532e-05,1.4540373528456785e-05,0.00040323564281874495,0.0003089633643302842,5.678083400291171e-05, ,4.369395861864596e-05, ,0.000507993448912222, ,0.00033295033562344986, ,0.13988958328370277,-0.22441489459209002,0.09000789615,-4.537900066948591,0.15494579073400946,-1.3862424694599145, ,-0.00030896336433028414,-0.0004072137605110032,-1.0397776928897586e-05,0.0,0.0,0.0, ,0.01055002212524414
0.009960245192930919,0.018797235910043578,-0.08065236008285949, ,0.010305706650995911,0.01906454213546855,-0.08096008378410664, ,0.0005343127487423295, ,-2.7399429724102026e-05,3.07735407162532e-05,1.4540373528456785e-05,0.00040323564281874495,0.0003089633643302842,5.678083400291171e-05, ,4.369395861864596e-05, ,0.000507993448912222, ,0.0003581206372633098, ,0.13988958328370277,-0.22441489459209002,0.09000789615,-4.537900066948591,0.15494579073400946,-1.3862424694599145, ,-0.00030896336433028414,-0.0004072137605110032,-1.0397776928897586e-05,0.0,0.0,0.0, ,0.012598991394042969
0.009960245192930919,0.018797235910043578,-0.08065236008285949, ,0.010317607872862901,0.019128738975228262,-0.08098753043442129, ,0.0005915585615989952, ,-3.466968538203638e-05,0.0006007208193712891,6.61694192276274e-05,0.0755440596081265,-0.008873984428300223,-0.0025270450894872474, ,0.0006053477363891964, ,0.07606347705508791, ,0.0003840581844117193, ,0.13988958328370277,-0.22444578552358693,0.09000919244000001,-4.537900066948591,0.15494579073400946,-1.3865691844204766, ,-0.00030896336433028414,-0.007208822664727345,6.728385609608519e-05,0.0,0.0,-0.06910960544424405, ,0.01438593864440918
0.00996034043872316,0.018800034405682894,-0.08065303648184052, ,0.0103295175676559,0.019192861917004006,-0.08101497182041223, ,0.0006493091678736523, ,-3.466968538203638e-05,0.0006007208193712891,6.61694192276274e-05,0.0755440596081265,-0.008873984428300223,-0.0025270450894872474, ,0.0006053477363891964, ,0.07606347705508791, ,0.00041058328275791263, ,0.13988958328370277,-0.22444578552358693,0.09000919244000001,-4.537900066948591,0.15494579073400946,-1.3865691844204766, ,-0.00030896336433028414,-0.007208822664727345,6.728385609608519e-05,0.0,0.0,-0.06910960544424405, ,0.016289949417114258
0.00996034043872316,0.018800034405682894,-0.08065303648184052, ,0.01034143574997575,0.01925691103952087,-0.08104240805710589, ,0.0007110415729269695, ,-3.466968538203638e-05,0.0006007208193712891,6.61694192276274e-05,0.0755440596081265,-0.008873984428300223,-0.0025270450894872474, ,0.0006053477363891964, ,0.07606347705508791, ,0.00043789767277328145, ,0.13988958328370277,-0.22444578552358693,0.09000919244000001,-4.537900066948591,0.15494579073400946,-1.3865691844204766, ,-0.00030896336433028414,-0.007208822664727345,6.728385609608519e-05,0.0,0.0,-0.06910960544424405, ,0.017941951751708984
0.00996034043872316,0.018800034405682894,-0.08065303648184052, ,0.010353362434406401,0.019320886421370358,-0.0810698392592927, ,0.0007742594310877867, ,-3.466968538203638e-05,0.0006007208193712891,6.61694192276274e-05,0.0755440596081265,-0.008873984428300223,-0.0025270450894872474, ,0.0006053477363891964, ,0.07606347705508791, ,0.00046592781929949016, ,0.13988958328370277,-0.22444578552358693,0.09000919244000001,-4.537900066948591,0.15494579073400946,-1.3865691844204766, ,-0.00030896336433028414,-0.007208822664727345,6.728385609608519e-05,0.0,0.0,-0.06910960544424405, ,0.01966094970703125
0.00996034043872316,0.018800034405682894,-0.08065303648184052, ,0.010365297635514853,0.01938478814101054,-0.08109726554152835, ,0.0008386099925973656, ,-3.466968538203638e-05,0.0006007208193712891,6.61694192276274e-05,0.0755440596081265,-0.008873984428300223,-0.0025270450894872474, ,0.0006053477363891964, ,0.07606347705508791, ,0.0004945956787839422, ,0.13988958328370277,-0.22444578552358693,0.09000919244000001,-4.537900066948591,0.15494579073400946,-1.3865691844204766, ,-0.00030896336433028414,-0.007208822664727345,6.728385609608519e-05,0.0,0.0,-0.06910960544424405, ,0.02147698402404785
0.00996034043872316,0.018800034405682894,-0.08065303648184052, ,0.010377241367851337,0.019448616276765987,-0.08112468701813363, ,0.0009038357464667807, ,-3.466968538203638e-05,0.0006007208193712891,6.61694192276274e-05,0.0755440596081265,-0.008873984428300223,-0.0025270450894872474, ,0.0006053477363891964, ,0.07606347705508791, ,0.0005238271121898592, ,0.13988958328370277,-0.22444578552358693,0.09000919244000001,-4.537900066948591,0.15494579073400946,-1.3865691844204766, ,-0.00030896336433028414,-0.007208822664727345,6.728385609608519e-05,0.0,0.0,-0.06910960544424405, ,0.02317190170288086
0.009979199543740705,0.01885343468707641,-0.08070784767305497, ,0.010389193645949072,0.01951237090682816,-0.08115210380319386, ,0.0008942346530482669, ,0.0030551120130346476,0.005750226463880112,-0.006705617198672042,-0.1422562312393225,-0.1666025259492001,-0.030695606364467033, ,0.009346877329526802, ,0.21907358801441937, ,0.0005485209482470865, ,0.13992047421519965,-0.22493231769466307,0.09007530323000001,-4.537690377005107,0.1539893352356514,-1.386442689015726, ,0.004806382994568848,-0.051884604460618246,0.007909042462760677,0.0,-0.1918843772220315,0.16819997090540273, ,0.024946928024291992
0.009979199543740705,0.01885343468707641,-0.08070784767305497, ,0.010401154484324533,0.01957605210925551,-0.08117951601056031, ,0.0009605690664001847, ,0.0030551120130346476,0.005750226463880112,-0.006705617198672042,-0.1422562312393225,-0.1666025259492001,-0.030695606364467033, ,0.009346877329526802, ,0.21907358801441937, ,0.0005742739556316551, ,0.13992047421519965,-0.22493231769466307,0.09007530323000001,-4.537690377005107,0.1539893352356514,-1.386442689015726, ,0.004806382994568848,-0.051884604460618246,0.007909042462760677,0.0,-0.1918843772220315,0.16819997090540273, ,0.02664804458618164
0.009979199543740705,0.01885343468707641,-0.08070784767305497, ,0.010413123897477242,0.019639659961973508,-0.08120692375384962, ,0.0010273837949247783, ,0.0030551120130346476,0.005750226463880112,-0.006705617198672042,-0.1422562312393225,-0.1666025259492001,-0.030695606364467033, ,0.009346877329526802, ,0.21907358801441937, ,0.0006009274755900742, ,0.13992047421519965,-0.22493231769466307,0.09007530323000001,-4.537690377005107,0.1539893352356514,-1.386442689015726, ,0.004806382994568848,-0.051884604460618246,0.007909042462760677,0.0,-0.1918843772220315,0.16819997090540273, ,0.02836894989013672
0.009979199543740705,0.01885343468707641,-0.08070784767305497, ,0.010425101899889848,0.01970319454277475,-0.08123432714644367, ,0.0010945781650825417, ,0.0030551120130346476,0.005750226463880112,-0.006705617198672042,-0.1422562312393225,-0.1666025259492001,-0.030695606364467033, ,0.009346877329526802, ,0.21907358801441937, ,0.0006283525138952112, ,0.13992047421519965,-0.22493231769466307,0.09007530323000001,-4.537690377005107,0.1539893352356514,-1.386442689015726, ,0.004806382994568848,-0.051884604460618246,0.007909042462760677,0.0,-0.1918843772220315,0.16819997090540273, ,0.03010106086730957
0.009979199543740705,0.01885343468707641,-0.08070784767305497, ,0.010437088506028157,0.019766655929319307,-0.08126172630149062, ,0.0011620743840676006, ,0.0030551120130346476,0.005750226463880112,-0.006705617198672042,-0.1422562312393225,-0.1666025259492001,-0.030695606364467033, ,0.009346877329526802, ,0.21907358801441937, ,0.0006564431386411265, ,0.13992047421519965,-0.22493231769466307,0.09007530323000001,-4.537690377005107,0.1539893352356514,-1.386442689015726, ,0.004806382994568848,-0.051884604460618246,0.007909042462760677,0.0,-0.1918843772220315,0.16819997090540273, ,0.0318150520324707
0.009979199543740705,0.01885343468707641,-0.08070784767305497, ,0.010449083730341091,0.019830044199134738,-0.08128912133190476, ,0.001229811511709227, ,0.0030551120130346476,0.005750226463880112,-0.006705617198672042,-0.1422562312393225,-0.1666025259492001,-0.030695606364467033, ,0.009346877329526802, ,0.21907358801441937, ,0.0006851115572945316, ,0.13992047421519965,-0.22493231769466307,0.09007530323000001,-4.537690377005107,0.1539893352356514,-1.386442689015726, ,0.004806382994568848,-0.051884604460618246,0.007909042462760677,0.0,-0.1918843772220315,0.16819997090540273, ,0.033598899841308594
0.010025560163698476,0.018934615137034948,-0.08084295425781028, ,0.010461087587260706,0.019893359429616148,-0.08131651235036615, ,0.001154613364835575, ,0.005773002072953584,0.010460652769929253,-0.019769498332770963,-0.1828932720794044,-0.1982675056108276,-0.08163048952724959, ,0.02309947777844315, ,0.269740522972078, ,0.0007074687862250574, ,0.13999770154394192,-0.22553469085885258,0.09022696916,-4.536851617231169,0.1516665147396389,-1.3839768334719031, ,0.010220471676764457,-0.0711905037948018,0.021880235604395604,0.046315353638468476,-0.2386962338808263,0.228083008542332, ,0.03537297248840332
0.010025560163698476,0.018934615137034948,-0.08084295425781028, ,0.010473100091202142,0.019956601698026558,-0.08134389946932127, ,0.0012229859453375728, ,0.005773002072953584,0.010460652769929253,-0.019769498332770963,-0.1828932720794044,-0.1982675056108276,-0.08163048952724959, ,0.02309947777844315, ,0.269740522972078, ,0.0007309013843665355, ,0.13999770154394192,-0.22553469085885258,0.09022696916,-4.536851617231169,0.1516665147396389,-1.3839768334719031, ,0.010220471676764457,-0.0711905037948018,0.021880235604395604,0.046315353638468476,-0.2386962338808263,0.228083008542332, ,0.03704094886779785
0.010025560163698476,0.018934615137034948,-0.08084295425781028, ,0.010485121256563744,0.02001977108149683,-0.0813712828009832, ,0.0012914684941599211, ,0.005773002072953584,0.010460652769929253,-0.019769498332770963,-0.1828932720794044,-0.1982675056108276,-0.08163048952724959, ,0.02309947777844315, ,0.269740522972078, ,0.0007552738674010305, ,0.13999770154394192,-0.22553469085885258,0.09022696916,-4.536851617231169,0.1516665147396389,-1.3839768334719031, ,0.010220471676764457,-0.0711905037948018,0.021880235604395604,0.046315353638468476,-0.2386962338808263,0.228083008542332, ,0.03866887092590332
0.010025560163698476,0.018934615137034948,-0.08084295425781028, ,0.010497151097726932,0.02008286765702579,-0.08139866245733193, ,0.0013600343604993014, ,0.005773002072953584,0.010460652769929253,-0.019769498332770963,-0.1828932720794044,-0.1982675056108276,-0.08163048952724959, ,0.02309947777844315, ,0.269740522972078, ,0.0007804722212801251, ,0.13999770154394192,-0.22553469085885258,0.09022696916,-4.536851617231169,0.1516665147396389,-1.3839768334719031, ,0.010220471676764457,-0.0711905037948018,0.021880235604395604,0.046315353638468476,-0.2386962338808263,0.228083008542332, ,0.040266990661621094
0.010025560163698476,0.018934615137034948,-0.08084295425781028, ,0.010509189629056268,0.020145891501480717,-0.08142603855011396, ,0.0014286620253784678, ,0.005773002072953584,0.010460652769929253,-0.019769498332770963,-0.1828932720794044,-0.1982675056108276,-0.08163048952724959, ,0.02309947777844315, ,0.269740522972078, ,0.0008063998134440588, ,0.13999770154394192,-0.22553469085885258,0.09022696916,-4.536851617231169,0.1516665147396389,-1.3839768334719031, ,0.010220471676764457,-0.0711905037948018,0.021880235604395604,0.046315353638468476,-0.2386962338808263,0.228083008542332, ,0.04194498062133789
0.010025560163698476,0.018934615137034948,-0.08084295425781028, ,0.010521236864899482,0.020208842691596996,-0.08145341119084287, ,0.0014973339373721033, ,0.005773002072953584,0.010460652769929253,-0.019769498332770963,-0.1828932720794044,-0.1982675056108276,-0.08163048952724959, ,0.02309947777844315, ,0.269740522972078, ,0.0008329742028259067, ,0.13999770154394192,-0.22553469085885258,0.09022696916,-4.536851617231169,0.1516665147396389,-1.3839768334719031, ,0.010220471676764457,-0.0711905037948018,0.021880235604395604,0.046315353638468476,-0.2386962338808263,0.228083008542332, ,0.04362893104553223
0.010088867059549264,0.019059212359541295,-0.0810754725007941, ,0.010533292819587349,0.020271721303978647,-0.0814807804907994, ,0.0013535016672646377, ,0.006640929153612739,0.014521505318400725,-0.027085463293699333,-0.15581057567719458,-0.14699886761782865,-0.07072796073336413, ,0.03144198432939591, ,0.21420921547949334, ,0.000852252997805119, ,0.14012898800280374,-0.22637646874214304,0.09048493087000001,-4.536222547400715,0.14948033074339184,-1.3814590383514953, ,0.014081754200693096,-0.09713095348871113,0.03005436135849057,0.052243862032431754,-0.1839814231615305,0.2352733887091476, ,0.045358896255493164
0.010088867059549264,0.019059212359541295,-0.0810754725007941, ,0.01054535750743391,0.020334527415098252,-0.08150814656103209, ,0.001421977096279331, ,0.006640929153612739,0.014521505318400725,-0.027085463293699333,-0.15581057567719458,-0.14699886761782865,-0.07072796073336413, ,0.03144198432939591, ,0.21420921547949334, ,0.0008726002870363408, ,0.14012898800280374,-0.22637646874214304,0.09048493087000001,-4.536222547400715,0.14948033074339184,-1.3814590383514953, ,0.014081754200693096,-0.09713095348871113,0.03005436135849057,0.052243862032431754,-0.1839814231615305,0.2352733887091476, ,0.04704904556274414
0.010088867059549264,0.019059212359541295,-0.0810754725007941, ,0.010557430942736225,0.020397261101297123,-0.08153550951235651, ,0.0014904900536229272, ,0.006640929153612739,0.014521505318400725,-0.027085463293699333,-0.15581057567719458,-0.14699886761782865,-0.07072796073336413, ,0.03144198432939591, ,0.21420921547949334, ,0.0008939068307117403, ,0.14012898800280374,-0.22637646874214304,0.09048493087000001,-4.536222547400715,0.14948033074339184,-1.3814590383514953, ,0.014081754200693096,-0.09713095348871113,0.03005436135849057,0.052243862032431754,-0.1839814231615305,0.2352733887091476, ,0.04880404472351074
0.010088867059549264,0.019059212359541295,-0.0810754725007941, ,0.010569513139774559,0.020459922438785565,-0.08156286945535603, ,0.0015590269952276887, ,0.006640929153612739,0.014521505318400725,-0.027085463293699333,-0.15581057567719458,-0.14699886761782865,-0.07072796073336413, ,0.03144198432939591, ,0.21420921547949334, ,0.000916077502862272, ,0.14012898800280374,-0.22637646874214304,0.09048493087000001,-4.536222547400715,0.14948033074339184,-1.3814590383514953, ,0.014081754200693096,-0.09713095348871113,0.03005436135849057,0.052243862032431754,-0.1839814231615305,0.2352733887091476, ,0.05063891410827637
0.010088867059549264,0.019059212359541295,-0.0810754725007941, ,0.010581604112812268,0.020522511503642853,-0.08159022650038185, ,0.0016275766860207384, ,0.006640929153612739,0.014521505318400725,-0.027085463293699333,-0.15581057567719458,-0.14699886761782865,-0.07072796073336413, ,0.03144198432939591, ,0.21420921547949334, ,0.0009390290894157709, ,0.14012898800280374,-0.22637646874214304,0.09048493087000001,-4.536222547400715,0.14948033074339184,-1.3814590383514953, ,0.014081754200693096,-0.09713095348871113,0.03005436135849057,0.052243862032431754,-0.1839814231615305,0.2352733887091476, ,0.052377939224243164
0.010088867059549264,0.019059212359541295,-0.0810754725007941, ,0.01059370387609591,0.02058502837181757,-0.08161758075755372, ,0.0016961297346331122, ,0.006640929153612739,0.014521505318400725,-0.027085463293699333,-0.15581057567719458,-0.14699886761782865,-0.07072796073336413, ,0.03144198432939591, ,0.21420921547949334, ,0.0009626884845788128, ,0.14026799719453978,-0.22734181035142112,0.09075844806000001,-4.536222547400715,0.14838723874526832,-1.379260835279675, ,0.016523932014360226,-0.12502890850918416,0.03346388974789917,0.03345220568502046,-0.10568044023377765,0.3444454654012055, ,0.05422496795654297
0.010144661555491655,0.019198363755850222,-0.08132012995027937, ,0.01060581244385509,0.020647473119127447,-0.08164493233675876, ,0.0015550159738211102, ,0.006524636232292115,0.01770014652648104,-0.029770621397125836,-0.22761464715598723,-0.06366243883959923,-0.02504259969124465, ,0.035244233051573766, ,0.23634997426239737, ,0.00098063780243464, ,0.14026799719453978,-0.22734181035142112,0.09075844806000001,-4.536222547400715,0.14838723874526832,-1.379260835279675, ,0.016523932014360226,-0.12502890850918416,0.03346388974789917,0.03345220568502046,-0.10568044023377765,0.3444454654012055, ,0.056105852127075195
0.010144661555491655,0.019198363755850222,-0.08132012995027937, ,0.010617929830302655,0.020709845821259933,-0.08167228134765314, ,0.0016225201079401392, ,0.006524636232292115,0.01770014652648104,-0.029770621397125836,-0.22761464715598723,-0.06366243883959923,-0.02504259969124465, ,0.035244233051573766, ,0.23634997426239737, ,0.0009995166937730368, ,0.14026799719453978,-0.22734181035142112,0.09075844806000001,-4.536222547400715,0.14838723874526832,-1.379260835279675, ,0.016523932014360226,-0.12502890850918416,0.03346388974789917,0.03345220568502046,-0.10568044023377765,0.3444454654012055, ,0.05782008171081543
0.010144661555491655,0.019198363755850222,-0.08132012995027937, ,0.010630056049634483,0.02077214655377177,-0.08169962789966127, ,0.001690094317948857, ,0.006524636232292115,0.01770014652648104,-0.029770621397125836,-0.22761464715598723,-0.06366243883959923,-0.02504259969124465, ,0.035244233051573766, ,0.23634997426239737, ,0.0010192474830352032, ,0.14026799719453978,-0.22734181035142112,0.09075844806000001,-4.536222547400715,0.14838723874526832,-1.379260835279675, ,0.016523932014360226,-0.12502890850918416,0.03346388974789917,0.03345220568502046,-0.10568044023377765,0.3444454654012055, ,0.059545040130615234
0.010144661555491655,0.019198363755850222,-0.08132012995027937, ,0.010642191116029726,0.02083437539208972,-0.08172697210197644, ,0.0017577230367488907, ,0.006524636232292115,0.01770014652648104,-0.029770621397125836,-0.22761464715598723,-0.06366243883959923,-0.02504259969124465, ,0.035244233051573766, ,0.23634997426239737, ,0.0010397606928605834, ,0.14026799719453978,-0.22734181035142112,0.09075844806000001,-4.536222547400715,0.14838723874526832,-1.379260835279675, ,0.016523932014360226,-0.12502890850918416,0.03346388974789917,0.03345220568502046,-0.10568044023377765,0.3444454654012055, ,0.06144094467163086
0.010144661555491655,0.019198363755850222,-0.08132012995027937, ,0.010654335043650553,0.020896532411510405,-0.08175431406356053, ,0.0018253930239333417, ,0.0066922441785761295,0.020039595154249013,-0.03178753737089627,-0.13351952259730349,-0.0310762225461691,-0.005735399883729448, ,0.0381682988643457, ,0.1370881543647781, ,0.0010609939991057932, ,0.14026799719453978,-0.22734181035142112,0.09075844806000001,-4.536222547400715,0.14838723874526832,-1.379260835279675, ,0.016523932014360226,-0.12502890850918416,0.03346388974789917,0.03345220568502046,-0.10568044023377765,0.3444454654012055, ,0.0677180290222168
0.010189707997503898,0.019328766495717558,-0.08153120610678125, ,0.01066648784664234,0.020958617687200393,-0.08178165389314491, ,0.0017165249851420613, ,0.0066922441785761295,0.020039595154249013,-0.03178753737089627,-0.13351952259730349,-0.0310762225461691,-0.005735399883729448, ,0.0381682988643457, ,0.1370881543647781, ,0.0010782448145278001, ,0.14039156092052738,-0.2282762610292023,0.09099696542,-4.5358031675137465,0.14784069274620656,-1.3768548739015158, ,0.02037726896252325,-0.145102357123044,0.03603803511312218,0.025488696325729247,-0.05621760683882449,0.2754770764220702, ,0.06972599029541016
0.010189707997503898,0.019328766495717558,-0.08153120610678125, ,0.010678649539133632,0.021020631294196398,-0.08180899169922985, ,0.001782872727604281, ,0.0066922441785761295,0.020039595154249013,-0.03178753737089627,-0.13351952259730349,-0.0310762225461691,-0.005735399883729448, ,0.0381682988643457, ,0.1370881543647781, ,0.0010963121969143766, ,0.14039156092052738,-0.2282762610292023,0.09099696542,-4.5358031675137465,0.14784069274620656,-1.3768548739015158, ,0.02037726896252325,-0.145102357123044,0.03603803511312218,0.025488696325729247,-0.05621760683882449,0.2754770764220702, ,0.07150602340698242
0.010189707997503898,0.019328766495717558,-0.08153120610678125, ,0.010690820135236059,0.02108257330740561,-0.08183632759008523, ,0.0018493379428540192, ,0.0066922441785761295,0.020039595154249013,-0.03178753737089627,-0.13351952259730349,-0.0310762225461691,-0.005735399883729448, ,0.0381682988643457, ,0.1370881543647781, ,0.0011151378405628676, ,0.14039156092052738,-0.2282762610292023,0.09099696542,-4.5358031675137465,0.14784069274620656,-1.3768548739015158, ,0.02037726896252325,-0.145102357123044,0.03603803511312218,0.025488696325729247,-0.05621760683882449,0.2754770764220702, ,0.07323503494262695
0.010283365699069867,0.019654409619448882,-0.0819586211380001, ,0.010702999649044396,0.021144443801605538,-0.0818636616737502, ,0.0015509067721230403, ,0.006065567187501906,0.022266567983304047,-0.022616540306487045,0.2728661627195707,-0.03212274888144009,-0.09265563383250593, ,0.03231252157440137, ,0.2747504464702547, ,0.0011257663510887254, ,0.1407854202971128,-0.23082476287769638,0.09149603707000001,-4.534125647965871,0.14784069274620656,-1.3756296927994072, ,0.03205977755353743,-0.1913244789485298,0.02770228090434783,0.1161285842153906,-0.01766260192398089,-0.0708554045390426, ,0.0749969482421875
0.010283365699069867,0.019654409619448882,-0.0819586211380001, ,0.01071518809463662,0.021206242851444356,-0.08189099405803403, ,0.001612212883952757, ,0.006065567187501906,0.022266567983304047,-0.022616540306487045,0.2728661627195707,-0.03212274888144009,-0.09265563383250593, ,0.03231252157440137, ,0.2747504464702547, ,0.001137348411395012, ,0.1407854202971128,-0.23082476287769638,0.09149603707000001,-4.534125647965871,0.14784069274620656,-1.3756296927994072, ,0.03205977755353743,-0.1913244789485298,0.02770228090434783,0.1161285842153906,-0.01766260192398089,-0.0708554045390426, ,0.0768280029296875
0.010283365699069867,0.019654409619448882,-0.0819586211380001, ,0.010727385486073847,0.021267970531441006,-0.08191832485051548, ,0.001674023948079883, ,0.006065567187501906,0.022266567983304047,-0.022616540306487045,0.2728661627195707,-0.03212274888144009,-0.09265563383250593, ,0.03231252157440137, ,0.2747504464702547, ,0.0011498292378295438, ,0.1407854202971128,-0.23082476287769638,0.09149603707000001,-4.534125647965871,0.14784069274620656,-1.3756296927994072, ,0.03205977755353743,-0.1913244789485298,0.02770228090434783,0.1161285842153906,-0.01766260192398089,-0.0708554045390426, ,0.07853388786315918
0.010283365699069867,0.019654409619448882,-0.0819586211380001, ,0.010739591837400279,0.02132962691598523,-0.08194565415854384, ,0.0017362786131455538, ,0.006065567187501906,0.022266567983304047,-0.022616540306487045,0.2728661627195707,-0.03212274888144009,-0.09265563383250593, ,0.03231252157440137, ,0.2747504464702547, ,0.0011631576327230896, ,0.1407854202971128,-0.23082476287769638,0.09149603707000001,-4.534125647965871,0.14784069274620656,-1.3756296927994072, ,0.03205977755353743,-0.1913244789485298,0.02770228090434783,0.1161285842153906,-0.01766260192398089,-0.0708554045390426, ,0.08025598526000977
0.010283365699069867,0.019654409619448882,-0.0819586211380001, ,0.010751807162643333,0.02139121207933777,-0.08197298208923813, ,0.001798923685538494, ,0.006065567187501906,0.022266567983304047,-0.022616540306487045,0.2728661627195707,-0.03212274888144009,-0.09265563383250593, ,0.03231252157440137, ,0.2747504464702547, ,0.0011772857672300986, ,0.1407854202971128,-0.23082476287769638,0.09149603707000001,-4.534125647965871,0.14784069274620656,-1.3756296927994072, ,0.03205977755353743,-0.1913244789485298,0.02770228090434783,0.1161285842153906,-0.01766260192398089,-0.0708554045390426, ,0.08203887939453125
0.010283365699069867,0.019654409619448882,-0.0819586211380001, ,0.010764031475813538,0.02145272609563073,-0.08200030874948833, ,0.0018619128858223444, ,0.006065567187501906,0.022266567983304047,-0.022616540306487045,0.2728661627195707,-0.03212274888144009,-0.09265563383250593, ,0.03231252157440137, ,0.2747504464702547, ,0.0011921689654603648, ,0.1407854202971128,-0.23082476287769638,0.09149603707000001,-4.534125647965871,0.14784069274620656,-1.3756296927994072, ,0.03205977755353743,-0.1913244789485298,0.02770228090434783,0.1161285842153906,-0.01766260192398089,-0.0708554045390426, ,0.08378291130065918
0.010349155598888668,0.019883300139635608,-0.08213025737204258, ,0.01077626479090464,0.02151416903886722,-0.08202763424595444, ,0.001688989974627905, ,0.006922724709003238,0.024789988660793256,-0.013772272883189595,0.21866333827474568,-0.19616239212440073,-0.0485737288903341, ,0.029191491150126977, ,0.2937572792186447, ,0.001202739625229887, ,0.1407854202971128,-0.23082476287769638,0.09149603707000001,-4.534125647965871,0.14784069274620656,-1.3756296927994072, ,0.03205977755353743,-0.1913244789485298,0.02770228090434783,0.1161285842153906,-0.01766260192398089,-0.0708554045390426, ,0.0855560302734375
0.010349155598888668,0.019883300139635608,-0.08213025737204258, ,0.010788507121893446,0.021575540982922123,-0.08205495868506792, ,0.0017499653495751794, ,0.006922724709003238,0.024789988660793256,-0.013772272883189595,0.21866333827474568,-0.19616239212440073,-0.0485737288903341, ,0.029191491150126977, ,0.2937572792186447, ,0.0012141401611537473, ,0.1411638342079498,-0.232979405349605,0.09172159153000001,-4.533915958022385,0.14674760074808305,-1.376045209412085, ,0.04072830109805613,-0.24648556248953452,0.01971387564356436,0.04175036621319522,-0.17328819373699375,0.0062332740624226335, ,0.08750486373901367
0.010349155598888668,0.019883300139635608,-0.08213025737204258, ,0.010800758482739916,0.021636842001541666,-0.08208228217303024, ,0.0018113961040810487, ,0.006922724709003238,0.024789988660793256,-0.013772272883189595,0.21866333827474568,-0.19616239212440073,-0.0485737288903341, ,0.029191491150126977, ,0.2937572792186447, ,0.001226329057948182, ,0.1411638342079498,-0.232979405349605,0.09172159153000001,-4.533915958022385,0.14674760074808305,-1.376045209412085, ,0.04072830109805613,-0.24648556248953452,0.01971387564356436,0.04175036621319522,-0.17328819373699375,0.0062332740624226335, ,0.08924198150634766
0.010349155598888668,0.019883300139635608,-0.08213025737204258, ,0.01081301888738728,0.021698072168343827,-0.08210960481581477, ,0.0018732306837859652, ,0.006922724709003238,0.024789988660793256,-0.013772272883189595,0.21866333827474568,-0.19616239212440073,-0.0485737288903341, ,0.029191491150126977, ,0.2937572792186447, ,0.0012392670904649377, ,0.1411638342079498,-0.232979405349605,0.09172159153000001,-4.533915958022385,0.14674760074808305,-1.376045209412085, ,0.04072830109805613,-0.24648556248953452,0.01971387564356436,0.04175036621319522,-0.17328819373699375,0.0062332740624226335, ,0.09093308448791504
0.010349155598888668,0.019883300139635608,-0.08213025737204258, ,0.010825288349761797,0.02175923155681862,-0.08213692671916563, ,0.0019354238705305154, ,0.006922724709003238,0.024789988660793256,-0.013772272883189595,0.21866333827474568,-0.19616239212440073,-0.0485737288903341, ,0.029191491150126977, ,0.2937572792186447, ,0.0012529172234074, ,0.1411638342079498,-0.232979405349605,0.09172159153000001,-4.533915958022385,0.14674760074808305,-1.376045209412085, ,0.04072830109805613,-0.24648556248953452,0.01971387564356436,0.04175036621319522,-0.17328819373699375,0.0062332740624226335, ,0.09260106086730957
0.010349155598888668,0.019883300139635608,-0.08213025737204258, ,0.010837566883772956,0.021820320240327932,-0.0821642479885988, ,0.001997935888786798, ,0.006922724709003238,0.024789988660793256,-0.013772272883189595,0.21866333827474568,-0.19616239212440073,-0.0485737288903341, ,0.029191491150126977, ,0.2937572792186447, ,0.001267244505433927, ,0.1415654163174095,-0.2353425616091177,0.0918810352,-4.533915958022385,0.14428814375230511,-1.373549614704706, ,0.048540635068271505,-0.2766674681004979,0.01682028671594509,0.02599310271071759,-0.270848412504877,0.490141597691375, ,0.09430789947509766
0.010419500628892195,0.020112954284420975,-0.08223380281878102, ,0.010849854503313357,0.021881338292105798,-0.08219156872940125, ,0.0018204862466304104, ,0.007958498350535062,0.02654681471971525,-0.010272146391415743,-0.24643748424938705,-0.23437584536173278,-0.0339297876334374, ,0.02955652312510785, ,0.34009332604128734, ,0.0012776830288527285, ,0.1415654163174095,-0.2353425616091177,0.0918810352,-4.533915958022385,0.14428814375230511,-1.373549614704706, ,0.048540635068271505,-0.2766674681004979,0.01682028671594509,0.02599310271071759,-0.270848412504877,0.490141597691375, ,0.09808492660522461
0.010419500628892195,0.020112954284420975,-0.08223380281878102, ,0.010862151222258786,0.021942285785258524,-0.08221888904663234, ,0.0018821837605196938, ,0.007958498350535062,0.02654681471971525,-0.010272146391415743,-0.24643748424938705,-0.23437584536173278,-0.0339297876334374, ,0.02955652312510785, ,0.34009332604128734, ,0.0012888774868465612, ,0.1415654163174095,-0.2353425616091177,0.0918810352,-4.533915958022385,0.14428814375230511,-1.373549614704706, ,0.048540635068271505,-0.2766674681004979,0.01682028671594509,0.02599310271071759,-0.270848412504877,0.490141597691375, ,0.10003399848937988
0.010419500628892195,0.020112954284420975,-0.08223380281878102, ,0.010874457054468194,0.022003162792764916,-0.08224620904512307, ,0.0019442292736816728, ,0.007958498350535062,0.02654681471971525,-0.010272146391415743,-0.24643748424938705,-0.23437584536173278,-0.0339297876334374, ,0.02955652312510785, ,0.34009332604128734, ,0.0013007929738799268, ,0.1415654163174095,-0.2353425616091177,0.0918810352,-4.533915958022385,0.14428814375230511,-1.373549614704706, ,0.048540635068271505,-0.2766674681004979,0.01682028671594509,0.02599310271071759,-0.270848412504877,0.490141597691375, ,0.1017770767211914
0.010419500628892195,0.020112954284420975,-0.08223380281878102, ,0.010886772013783623,0.02206396938747642,-0.08227352882947658, ,0.002006584320534423, ,0.007958498350535062,0.02654681471971525,-0.010272146391415743,-0.24643748424938705,-0.23437584536173278,-0.0339297876334374, ,0.02955652312510785, ,0.34009332604128734, ,0.0013133963907844715, ,0.1415654163174095,-0.2353425616091177,0.0918810352,-4.533915958022385,0.14428814375230511,-1.373549614704706, ,0.048540635068271505,-0.2766674681004979,0.01682028671594509,0.02599310271071759,-0.270848412504877,0.490141597691375, ,0.10353803634643555
0.010490855686449621,0.02041802122620414,-0.08233433721020046, ,0.010899096114030357,0.022124705642117038,-0.08230084850406834, ,0.0017551505450159124, ,0.005470897210802475,0.029428565548525642,-0.007495971555914209,-0.10914611213977986,-0.012530162888417332,0.018309702460682156, ,0.030857102522792244, ,0.1098629999297892, ,0.0013211464636657248, ,0.14208283941998254,-0.23853205028617244,0.09205733064,-4.5330771982484475,0.14278514225488526,-1.3688118319380012, ,0.04896643011273001,-0.3121609919686539,0.01488673973831776,0.03616352551678033,-0.03183825817458032,0.42295223052320696, ,0.1052560806274414
0.010490855686449621,0.02041802122620414,-0.08233433721020046, ,0.0109114293690168,0.022185371629283676,-0.082328168173046, ,0.0018167134410117982, ,0.005470897210802475,0.029428565548525642,-0.007495971555914209,-0.10914611213977986,-0.012530162888417332,0.018309702460682156, ,0.030857102522792244, ,0.1098629999297892, ,0.0013296907218958295, ,0.14208283941998254,-0.23853205028617244,0.09205733064,-4.5330771982484475,0.14278514225488526,-1.3688118319380012, ,0.04896643011273001,-0.3121609919686539,0.01488673973831776,0.03616352551678033,-0.03183825817458032,0.42295223052320696, ,0.10697698593139648
0.010490855686449621,0.02041802122620414,-0.08233433721020046, ,0.010923771792534552,0.022245967421446387,-0.08235548794033015, ,0.0018786300862578995, ,0.005470897210802475,0.029428565548525642,-0.007495971555914209,-0.10914611213977986,-0.012530162888417332,0.018309702460682156, ,0.030857102522792244, ,0.1098629999297892, ,0.0013389947789189153, ,0.14208283941998254,-0.23853205028617244,0.09205733064,-4.5330771982484475,0.14278514225488526,-1.3688118319380012, ,0.04896643011273001,-0.3121609919686539,0.01488673973831776,0.03616352551678033,-0.03183825817458032,0.42295223052320696, ,0.1087179183959961
0.010490855686449621,0.02041802122620414,-0.08233433721020046, ,0.010936123398358285,0.02230649309094803,-0.08238280790961426, ,0.0019408603061269777, ,0.005470897210802475,0.029428565548525642,-0.007495971555914209,-0.10914611213977986,-0.012530162888417332,0.018309702460682156, ,0.030857102522792244, ,0.1098629999297892, ,0.0013490258710390497, ,0.14208283941998254,-0.23853205028617244,0.09205733064,-4.5330771982484475,0.14278514225488526,-1.3688118319380012, ,0.04896643011273001,-0.3121609919686539,0.01488673973831776,0.03616352551678033,-0.03183825817458032,0.42295223052320696, ,0.1106109619140625
0.010490855686449621,0.02041802122620414,-0.08233433721020046, ,0.010948484200245913,0.02236694871000513,-0.08241012818436422, ,0.0020033687792113926, ,0.005470897210802475,0.029428565548525642,-0.007495971555914209,-0.10914611213977986,-0.012530162888417332,0.018309702460682156, ,0.030857102522792244, ,0.1098629999297892, ,0.0013597528039599079, ,0.14208283941998254,-0.23853205028617244,0.09205733064,-4.5330771982484475,0.14278514225488526,-1.3688118319380012, ,0.04896643011273001,-0.3121609919686539,0.01488673973831776,0.03616352551678033,-0.03183825817458032,0.42295223052320696, ,0.11260199546813965
0.010540950673530648,0.020724089435844834,-0.08240059692675934, ,0.010960854211938506,0.02242733435070731,-0.08243744886781951, ,0.001754628247559074, ,0.004687369738404666,0.03252157149229228,-0.006573049634093789,-0.0956393759855567,0.09430675048887789,-0.01363922496984898, ,0.033508641107706086, ,0.1343154995315449, ,0.0013661217627276363, ,0.14259253978968134,-0.24178332082622095,0.09220121883000001,-4.531819058587541,0.14305841525441615,-1.3640522645968196, ,0.05061170216451775,-0.3463392027681415,0.014845117912395157,0.10101509793292135,0.05888797237180393,0.4657751920626433, ,0.11538195610046387
0.010540950673530648,0.020724089435844834,-0.08240059692675934, ,0.010973233447160306,0.022487650085017984,-0.08246477006299288, ,0.001816901965187726, ,0.004687369738404666,0.03252157149229228,-0.006573049634093789,-0.0956393759855567,0.09430675048887789,-0.01363922496984898, ,0.033508641107706086, ,0.1343154995315449, ,0.0013732770040365268, ,0.14259253978968134,-0.24178332082622095,0.09220121883000001,-4.531819058587541,0.14305841525441615,-1.3640522645968196, ,0.05061170216451775,-0.3463392027681415,0.014845117912395157,0.10101509793292135,0.05888797237180393,0.4657751920626433, ,0.11730003356933594
0.010540950673530648,0.020724089435844834,-0.08240059692675934, ,0.010985621919618695,0.022547895984774153,-0.08249209187267005, ,0.0018794611382367482, ,0.004687369738404666,0.03252157149229228,-0.006573049634093789,-0.0956393759855567,0.09430675048887789,-0.01363922496984898, ,0.033508641107706086, ,0.1343154995315449, ,0.0013811861311334053, ,0.14259253978968134,-0.24178332082622095,0.09220121883000001,-4.531819058587541,0.14305841525441615,-1.3640522645968196, ,0.05061170216451775,-0.3463392027681415,0.014845117912395157,0.10101509793292135,0.05888797237180393,0.4657751920626433, ,0.11929106712341309
0.010540950673530648,0.020724089435844834,-0.08240059692675934, ,0.010998019643004158,0.02260807212168665,-0.08251941439941124, ,0.0019422719673657203, ,0.004687369738404666,0.03252157149229228,-0.006573049634093789,-0.0956393759855567,0.09430675048887789,-0.01363922496984898, ,0.033508641107706086, ,0.1343154995315449, ,0.0013898182209215947, ,0.14259253978968134,-0.24178332082622095,0.09220121883000001,-4.531819058587541,0.14305841525441615,-1.3640522645968196, ,0.05061170216451775,-0.3463392027681415,0.014845117912395157,0.10101509793292135,0.05888797237180393,0.4657751920626433, ,0.12109804153442383
0.010540950673530648,0.020724089435844834,-0.08240059692675934, ,0.011010426630990453,0.022668178567340266,-0.08254673774554956, ,0.002005304805945505, ,0.004687369738404666,0.03252157149229228,-0.006573049634093789,-0.0956393759855567,0.09430675048887789,-0.01363922496984898, ,0.033508641107706086, ,0.1343154995315449, ,0.0013991437752401388, ,0.14259253978968134,-0.24178332082622095,0.09220121883000001,-4.531819058587541,0.14305841525441615,-1.3640522645968196, ,0.05061170216451775,-0.3463392027681415,0.014845117912395157,0.10101509793292135,0.05888797237180393,0.4657751920626433, ,0.1228170394897461
0.010592408720018534,0.02107470927587956,-0.08248096825540922, ,0.011022842897234479,0.022728215393194078,-0.08257406201319271, ,0.00171114654797605, ,0.004687369738404666,0.03252157149229228,-0.006573049634093789,-0.0956393759855567,0.09430675048887789,-0.01363922496984898, ,0.033508641107706086, ,0.1343154995315449, ,0.0014038005330421674, ,0.14312540835800283,-0.24549795533872293,0.09237103282,-4.531609368644055,0.1436049612534779,-1.35935217558275, ,0.049867021312911604,-0.3635898144002712,0.017917673250843646,0.033556714568419084,0.04479912038252162,0.48997524667699355, ,0.12485384941101074
0.010592408720018534,0.02107470927587956,-0.08248096825540922, ,0.011035268455376265,0.022788182670581313,-0.08260138730422222, ,0.0017738705045377181, ,0.005102103151150693,0.034684589179875186,-0.00906197801254087,-0.11391666891065429,0.06856909547578206,0.051646777705603227, ,0.03621010395789372, ,0.13296137878706044, ,0.0014092427385053372, ,0.14312540835800283,-0.24549795533872293,0.09237103282,-4.531609368644055,0.1436049612534779,-1.35935217558275, ,0.049867021312911604,-0.3635898144002712,0.017917673250843646,0.033556714568419084,0.04479912038252162,0.48997524667699355, ,0.12652897834777832
0.010592408720018534,0.02107470927587956,-0.08248096825540922, ,0.011047703319039027,0.022848080470709537,-0.08262871372029386, ,0.0018368362172343816, ,0.005102103151150693,0.034684589179875186,-0.00906197801254087,-0.11391666891065429,0.06856909547578206,0.051646777705603227, ,0.03621010395789372, ,0.13296137878706044, ,0.0014154397454434393, ,0.14312540835800283,-0.24549795533872293,0.09237103282,-4.531609368644055,0.1436049612534779,-1.35935217558275, ,0.049867021312911604,-0.3635898144002712,0.017917673250843646,0.033556714568419084,0.04479912038252162,0.48997524667699355, ,0.12824702262878418
0.010592408720018534,0.02107470927587956,-0.08248096825540922, ,0.011060147501829164,0.022907908864660882,-0.0826560413628384, ,0.0019000133929166425, ,0.005102103151150693,0.034684589179875186,-0.00906197801254087,-0.11391666891065429,0.06856909547578206,0.051646777705603227, ,0.03621010395789372, ,0.13296137878706044, ,0.0014223622261216279, ,0.14312540835800283,-0.24549795533872293,0.09237103282,-4.531609368644055,0.1436049612534779,-1.35935217558275, ,0.049867021312911604,-0.3635898144002712,0.017917673250843646,0.033556714568419084,0.04479912038252162,0.48997524667699355, ,0.12991595268249512
0.010592408720018534,0.02107470927587956,-0.08248096825540922, ,0.011072601017336226,0.022967667923392384,-0.08268337033306059, ,0.0019633755842004387, ,0.005102103151150693,0.034684589179875186,-0.00906197801254087,-0.11391666891065429,0.06856909547578206,0.051646777705603227, ,0.03621010395789372, ,0.13296137878706044, ,0.001429982132573442, ,0.14312540835800283,-0.24549795533872293,0.09237103282,-4.531609368644055,0.1436049612534779,-1.35935217558275, ,0.049867021312911604,-0.3635898144002712,0.017917673250843646,0.033556714568419084,0.04479912038252162,0.48997524667699355, ,0.1316080093383789
0.010592408720018534,0.02107470927587956,-0.08248096825540922, ,0.011085063879132934,0.023027357717735644,-0.08271070073194038, ,0.0020268996161769254, ,0.005102103151150693,0.034684589179875186,-0.00906197801254087,-0.11391666891065429,0.06856909547578206,0.051646777705603227, ,0.03621010395789372, ,0.13296137878706044, ,0.001438272653179046, ,0.14312540835800283,-0.24549795533872293,0.09237103282,-4.531609368644055,0.1436049612534779,-1.35935217558275, ,0.049867021312911604,-0.3635898144002712,0.017917673250843646,0.033556714568419084,0.04479912038252162,0.48997524667699355, ,0.13325786590576172
0.010592408720018534,0.02107470927587956,-0.08248096825540922, ,0.011097536100775192,0.023086978318397323,-0.08273803266023275, ,0.0020905651098429615, ,0.005608348748580855,0.03863669088978026,-0.012616199595332396,0.18478876663909652,0.07785713657204686,0.07299815296180623, ,0.04102945223650204, ,0.20052087589966872, ,0.0014472081662840312, ,0.14363510872770166,-0.24911219432386,0.09256418003000001,-4.531609368644055,0.144561416751836,-1.3560481639015969, ,0.05578891332067653,-0.3954039231602949,0.02256205597733711,0.02119093008584754,0.10218510925043035,0.22645520923565207, ,0.1351940631866455
0.010641647659264574,0.021423902097469836,-0.08258453022286528, ,0.01111001769580206,0.023146529795959266,-0.08276536621846758, ,0.0017943016290564394, ,0.005608348748580855,0.03863669088978026,-0.012616199595332396,0.18478876663909652,0.07785713657204686,0.07299815296180623, ,0.04102945223650204, ,0.20052087589966872, ,0.0014518986184836582, ,0.14363510872770166,-0.24911219432386,0.09256418003000001,-4.531609368644055,0.144561416751836,-1.3560481639015969, ,0.05578891332067653,-0.3954039231602949,0.02256205597733711,0.02119093008584754,0.10218510925043035,0.22645520923565207, ,0.13786602020263672
0.010641647659264574,0.021423902097469836,-0.08258453022286528, ,0.011122508677735801,0.023206012220878366,-0.08279270150695012, ,0.0018575465255432715, ,0.005608348748580855,0.03863669088978026,-0.012616199595332396,0.18478876663909652,0.07785713657204686,0.07299815296180623, ,0.04102945223650204, ,0.20052087589966872, ,0.0014573072572444533, ,0.14363510872770166,-0.24911219432386,0.09256418003000001,-4.531609368644055,0.144561416751836,-1.3560481639015969, ,0.05578891332067653,-0.3954039231602949,0.02256205597733711,0.02119093008584754,0.10218510925043035,0.22645520923565207, ,0.13955998420715332
0.010641647659264574,0.021423902097469836,-0.08258453022286528, ,0.01113500906008183,0.023265425663487233,-0.08282003862576119, ,0.0019209577621198174, ,0.005608348748580855,0.03863669088978026,-0.012616199595332396,0.18478876663909652,0.07785713657204686,0.07299815296180623, ,0.04102945223650204, ,0.20052087589966872, ,0.001463407921782287, ,0.14363510872770166,-0.24911219432386,0.09256418003000001,-4.531609368644055,0.144561416751836,-1.3560481639015969, ,0.05578891332067653,-0.3954039231602949,0.02256205597733711,0.02119093008584754,0.10218510925043035,0.22645520923565207, ,0.14130187034606934
0.010641647659264574,0.021423902097469836,-0.08258453022286528, ,0.01114751885632871,0.023324770193993642,-0.08284737767475739, ,0.0019845135351937793, ,0.005608348748580855,0.03863669088978026,-0.012616199595332396,0.18478876663909652,0.07785713657204686,0.07299815296180623, ,0.04102945223650204, ,0.20052087589966872, ,0.0014701755271512675, ,0.14363510872770166,-0.24911219432386,0.09256418003000001,-4.531609368644055,0.144561416751836,-1.3560481639015969, ,0.05578891332067653,-0.3954039231602949,0.02256205597733711,0.02119093008584754,0.10218510925043035,0.22645520923565207, ,0.14300799369812012
0.010708204921258242,0.02180598988313545,-0.08272275613267366, ,0.011160038079948198,0.02338404588248132,-0.08287471875357107, ,0.0016484861475042, ,0.007272790125123279,0.03976925891639327,-0.015310786001641517,0.1820051122585596,0.006196389636048707,0.04043534353997134, ,0.04323086396258208, ,0.18211055788010155, ,0.0014724615607455357, ,0.14421431369326848,-0.25297356076097227,0.09280140110000001,-4.530770608870118,0.14483468975136687,-1.3536572800244917, ,0.06309637071706833,-0.39872664520365875,0.02569163148387097,0.03631170024670939,0.03095910976784509,0.22439292322369292, ,0.14531397819519043
0.010708204921258242,0.02180598988313545,-0.08272275613267366, ,0.011172566744395283,0.023443252798909717,-0.08290206196161046, ,0.0017112604531302417, ,0.007272790125123279,0.03976925891639327,-0.015310786001641517,0.1820051122585596,0.006196389636048707,0.04043534353997134, ,0.04323086396258208, ,0.18211055788010155, ,0.0014754843315352155, ,0.14421431369326848,-0.25297356076097227,0.09280140110000001,-4.530770608870118,0.14483468975136687,-1.3536572800244917, ,0.06309637071706833,-0.39872664520365875,0.02569163148387097,0.03631170024670939,0.03095910976784509,0.22439292322369292, ,0.14716696739196777
0.010708204921258242,0.02180598988313545,-0.08272275613267366, ,0.011185104863108029,0.02350239101311414,-0.08292940739805997, ,0.0017742364819310482, ,0.007272790125123279,0.03976925891639327,-0.015310786001641517,0.1820051122585596,0.006196389636048707,0.04043534353997134, ,0.04323086396258208, ,0.18211055788010155, ,0.0014792187334151635, ,0.14421431369326848,-0.25297356076097227,0.09280140110000001,-4.530770608870118,0.14483468975136687,-1.3536572800244917, ,0.06309637071706833,-0.39872664520365875,0.02569163148387097,0.03631170024670939,0.03095910976784509,0.22439292322369292, ,0.14897799491882324
0.010708204921258242,0.02180598988313545,-0.08272275613267366, ,0.011197652449507762,0.023561460594806176,-0.08295675516188049, ,0.0018373872341215997, ,0.007272790125123279,0.03976925891639327,-0.015310786001641517,0.1820051122585596,0.006196389636048707,0.04043534353997134, ,0.04323086396258208, ,0.18211055788010155, ,0.0014836405667572182, ,0.14421431369326848,-0.25297356076097227,0.09280140110000001,-4.530770608870118,0.14483468975136687,-1.3536572800244917, ,0.06309637071706833,-0.39872664520365875,0.02569163148387097,0.03631170024670939,0.03095910976784509,0.22439292322369292, ,0.1507549285888672
0.010708204921258242,0.02180598988313545,-0.08272275613267366, ,0.011210209516998916,0.023620461613573503,-0.08298410535180925, ,0.0019006892668309567, ,0.007272790125123279,0.03976925891639327,-0.015310786001641517,0.1820051122585596,0.006196389636048707,0.04043534353997134, ,0.04323086396258208, ,0.18211055788010155, ,0.001488726526514215, ,0.14421431369326848,-0.25297356076097227,0.09280140110000001,-4.530770608870118,0.14483468975136687,-1.3536572800244917, ,0.06309637071706833,-0.39872664520365875,0.02569163148387097,0.03631170024670939,0.03095910976784509,0.22439292322369292, ,0.15256404876708984
0.010708204921258242,0.02180598988313545,-0.08272275613267366, ,0.011222776078969194,0.023679394138880205,-0.08301145806636037, ,0.0019641221419008014, ,0.007272790125123279,0.03976925891639327,-0.015310786001641517,0.1820051122585596,0.006196389636048707,0.04043534353997134, ,0.04323086396258208, ,0.18211055788010155, ,0.0014944541845309208, ,0.14421431369326848,-0.25297356076097227,0.09280140110000001,-4.530770608870118,0.14483468975136687,-1.3536572800244917, ,0.06309637071706833,-0.39872664520365875,0.02569163148387097,0.03631170024670939,0.03095910976784509,0.22439292322369292, ,0.1544489860534668
0.010708204921258242,0.02180598988313545,-0.08272275613267366, ,0.011235352148789365,0.02373825824006702,-0.08303881340382457, ,0.0020276679711777605, ,0.008461646379720937,0.042305766144798716,-0.01582740370567322,0.384609543963719,-0.03621349201453102,-0.0744898648271125, ,0.0459552392727554, ,0.3863106487254004, ,0.001500801967705288, ,0.14491708238482293,-0.25718245017742464,0.09307491829,-4.529302779265726,0.14483468975136687,-1.3521870627019614, ,0.07156632093399003,-0.4217641847043146,0.027089815510204087,0.14147758659480786,-0.008165610892310035,0.05185765798084382, ,0.15631484985351562
0.010791453256888458,0.02222823484681125,-0.08288488323357164, ,0.011247937739813472,0.023797053986351093,-0.08306617146226976, ,0.0016439090600158985, ,0.008461646379720937,0.042305766144798716,-0.01582740370567322,0.384609543963719,-0.03621349201453102,-0.0744898648271125, ,0.0459552392727554, ,0.3863106487254004, ,0.001502485580556001, ,0.14491708238482293,-0.25718245017742464,0.09307491829,-4.529302779265726,0.14483468975136687,-1.3521870627019614, ,0.07156632093399003,-0.4217641847043146,0.027089815510204087,0.14147758659480786,-0.008165610892310035,0.05185765798084382, ,0.1580519676208496
0.010791453256888458,0.02222823484681125,-0.08288488323357164, ,0.011260532865378717,0.023855781446826624,-0.08309353233954112, ,0.0017065983897053348, ,0.008461646379720937,0.042305766144798716,-0.01582740370567322,0.384609543963719,-0.03621349201453102,-0.0744898648271125, ,0.0459552392727554, ,0.3863106487254004, ,0.0015048589853135514, ,0.14491708238482293,-0.25718245017742464,0.09307491829,-4.529302779265726,0.14483468975136687,-1.3521870627019614, ,0.07156632093399003,-0.4217641847043146,0.027089815510204087,0.14147758659480786,-0.008165610892310035,0.05185765798084382, ,0.15991497039794922
0.010791453256888458,0.02222823484681125,-0.08288488323357164, ,0.011273137538805392,0.02391444069046464,-0.08312089613326087, ,0.0017694665816105125, ,0.008461646379720937,0.042305766144798716,-0.01582740370567322,0.384609543963719,-0.03621349201453102,-0.0744898648271125, ,0.0459552392727554, ,0.3863106487254004, ,0.0015079004519376544, ,0.14491708238482293,-0.25718245017742464,0.09307491829,-4.529302779265726,0.14483468975136687,-1.3521870627019614, ,0.07156632093399003,-0.4217641847043146,0.027089815510204087,0.14147758659480786,-0.008165610892310035,0.05185765798084382, ,0.16165995597839355
0.010791453256888458,0.02222823484681125,-0.08288488323357164, ,0.011285751773397135,0.02397303178611311,-0.08314826294082894, ,0.0018324890867382447, ,0.008461646379720937,0.042305766144798716,-0.01582740370567322,0.384609543963719,-0.03621349201453102,-0.0744898648271125, ,0.0459552392727554, ,0.3863106487254004, ,0.0015115889591512976, ,0.14491708238482293,-0.25718245017742464,0.09307491829,-4.529302779265726,0.14483468975136687,-1.3521870627019614, ,0.07156632093399003,-0.4217641847043146,0.027089815510204087,0.14147758659480786,-0.008165610892310035,0.05185765798084382, ,0.1632990837097168
0.010791453256888458,0.02222823484681125,-0.08288488323357164, ,0.011298375582440606,0.024031554802497572,-0.08317563285942299, ,0.0018956446005653114, ,0.008461646379720937,0.042305766144798716,-0.01582740370567322,0.384609543963719,-0.03621349201453102,-0.0744898648271125, ,0.0459552392727554, ,0.3863106487254004, ,0.0015159041910772976, ,0.14491708238482293,-0.25718245017742464,0.09307491829,-4.529302779265726,0.14483468975136687,-1.3521870627019614, ,0.07156632093399003,-0.4217641847043146,0.027089815510204087,0.14147758659480786,-0.008165610892310035,0.05185765798084382, ,0.1650068759918213
0.010883092956251431,0.022667994325012403,-0.0830521775888845, ,0.011311008979205754,0.024090009808220566,-0.0832030059859985, ,0.001492645089283038, ,0.009181343459449194,0.042118340961669436,-0.01629290025156334,0.3070216481616815,-0.10257939308164997,0.05800337641420808, ,0.04608373152958867, ,0.32370483959431706, ,0.0015156457566129172, ,0.1456661874736227,-0.26156123971710993,0.09336010209000001,-4.528673709435273,0.14442478025207056,-1.3512810578098882, ,0.07585686775257457,-0.41804820069810916,0.02770228090434783,-0.004758718085626939,-0.041457660461857435,0.10101907023161615, ,0.16719889640808105
0.010883092956251431,0.022667994325012403,-0.0830521775888845, ,0.01132365197694571,0.024148396871762418,-0.0832303824172889, ,0.0015548121790125253, ,0.009181343459449194,0.042118340961669436,-0.01629290025156334,0.3070216481616815,-0.10257939308164997,0.05800337641420808, ,0.04608373152958867, ,0.32370483959431706, ,0.0015160761568590666, ,0.1456661874736227,-0.26156123971710993,0.09336010209000001,-4.528673709435273,0.14442478025207056,-1.3512810578098882, ,0.07585686775257457,-0.41804820069810916,0.02770228090434783,-0.004758718085626939,-0.041457660461857435,0.10101907023161615, ,0.16891789436340332
0.010883092956251431,0.022667994325012403,-0.0830521775888845, ,0.011336304588896702,0.024206716061480883,-0.0832577622498061, ,0.001617198323970136, ,0.009181343459449194,0.042118340961669436,-0.01629290025156334,0.3070216481616815,-0.10257939308164997,0.05800337641420808, ,0.04608373152958867, ,0.32370483959431706, ,0.0015171753108494043, ,0.1456661874736227,-0.26156123971710993,0.09336010209000001,-4.528673709435273,0.14442478025207056,-1.3512810578098882, ,0.07585686775257457,-0.41804820069810916,0.02770228090434783,-0.004758718085626939,-0.041457660461857435,0.10101907023161615, ,0.17078804969787598
0.010883092956251431,0.022667994325012403,-0.0830521775888845, ,0.011348966828278212,0.024264967445611654,-0.0832851455798399, ,0.0016797725135754339, ,0.009181343459449194,0.042118340961669436,-0.01629290025156334,0.3070216481616815,-0.10257939308164997,0.05800337641420808, ,0.04608373152958867, ,0.32370483959431706, ,0.0015189236678679638, ,0.1456661874736227,-0.26156123971710993,0.09336010209000001,-4.528673709435273,0.14442478025207056,-1.3512810578098882, ,0.07585686775257457,-0.41804820069810916,0.02770228090434783,-0.004758718085626939,-0.041457660461857435,0.10101907023161615, ,0.1725480556488037
0.010883092956251431,0.022667994325012403,-0.0830521775888845, ,0.01136163870829292,0.024323151092268274,-0.08331253250345898, ,0.0017425081470492307, ,0.009181343459449194,0.042118340961669436,-0.01629290025156334,0.3070216481616815,-0.10257939308164997,0.05800337641420808, ,0.04608373152958867, ,0.32370483959431706, ,0.0015213022261571262, ,0.1456661874736227,-0.26156123971710993,0.09336010209000001,-4.528673709435273,0.14442478025207056,-1.3512810578098882, ,0.07585686775257457,-0.41804820069810916,0.02770228090434783,-0.004758718085626939,-0.041457660461857435,0.10101907023161615, ,0.17427492141723633
0.010953996367216908,0.02297337426349814,-0.08316476273997363, ,0.011374320242126664,0.02438126706944242,-0.08333992311651084, ,0.0014797011422437508, ,0.009564629345015466,0.041763954953789005,-0.014280127233880677,0.18315885786560354,-0.17791079644222801,0.040473013263705254, ,0.04516228627633314, ,0.2553417672679357, ,0.0015208643200106695, ,0.1462067787748184,-0.2646117192024286,0.09355584188,-4.528673709435273,0.14346832475371246,-1.3499293813030293, ,0.07344964516909504,-0.4198979714976583,0.02573313654281099,-0.009717757569279338,-0.13822212702047257,0.21328956439364122, ,0.17606806755065918
0.010953996367216908,0.02297337426349814,-0.08316476273997363, ,0.011387011442948432,0.024439315445003884,-0.08336731751462137, ,0.0015419189473438052, ,0.009564629345015466,0.041763954953789005,-0.014280127233880677,0.18315885786560354,-0.17791079644222801,0.040473013263705254, ,0.04516228627633314, ,0.2553417672679357, ,0.0015210836390453899, ,0.1462067787748184,-0.2646117192024286,0.09355584188,-4.528673709435273,0.14346832475371246,-1.3499293813030293, ,0.07344964516909504,-0.4198979714976583,0.02573313654281099,-0.009717757569279338,-0.13822212702047257,0.21328956439364122, ,0.17780685424804688
0.010953996367216908,0.02297337426349814,-0.08316476273997363, ,0.011399712323910495,0.024497296286700915,-0.08339471579319603, ,0.0016043314662313455, ,0.009564629345015466,0.041763954953789005,-0.014280127233880677,0.18315885786560354,-0.17791079644222801,0.040473013263705254, ,0.04516228627633314, ,0.2553417672679357, ,0.0015219418640679255, ,0.1462067787748184,-0.2646117192024286,0.09355584188,-4.528673709435273,0.14346832475371246,-1.3499293813030293, ,0.07344964516909504,-0.4198979714976583,0.02573313654281099,-0.009717757569279338,-0.13822212702047257,0.21328956439364122, ,0.17946100234985352
0.010953996367216908,0.02297337426349814,-0.08316476273997363, ,0.011412422898148214,0.02455520966216008,-0.0834221180474194, ,0.0016669102756273963, ,0.009564629345015466,0.041763954953789005,-0.014280127233880677,0.18315885786560354,-0.17791079644222801,0.040473013263705254, ,0.04516228627633314, ,0.2553417672679357, ,0.0015234211335736344, ,0.1462067787748184,-0.2646117192024286,0.09355584188,-4.528673709435273,0.14346832475371246,-1.3499293813030293, ,0.07344964516909504,-0.4198979714976583,0.02573313654281099,-0.009717757569279338,-0.13822212702047257,0.21328956439364122, ,0.18129801750183105
0.010953996367216908,0.02297337426349814,-0.08316476273997363, ,0.011425143178780215,0.024613055638886924,-0.08344952437225496, ,0.0017296310352392069, ,0.009564629345015466,0.041763954953789005,-0.014280127233880677,0.18315885786560354,-0.17791079644222801,0.040473013263705254, ,0.04516228627633314, ,0.2553417672679357, ,0.0015255040618732867, ,0.1462067787748184,-0.2646117192024286,0.09355584188,-4.528673709435273,0.14346832475371246,-1.3499293813030293, ,0.07344964516909504,-0.4198979714976583,0.02573313654281099,-0.009717757569279338,-0.13822212702047257,0.21328956439364122, ,0.18304991722106934
0.010953996367216908,0.02297337426349814,-0.08316476273997363, ,0.011437873178908233,0.024670834284265294,-0.08347693486244627, ,0.0017924727961797526, ,0.008718729565866943,0.04108171024225547,-0.012303574950990895,0.1714176478681877,-0.12615444251467853,0.03076501452782702, ,0.043938218073913966, ,0.21283550710563168, ,0.0015281737492163514, ,0.1462067787748184,-0.2646117192024286,0.09355584188,-4.528673709435273,0.14346832475371246,-1.3499293813030293, ,0.07344964516909504,-0.4198979714976583,0.02380988269058296,0.012636571576291849,-0.09464370709885546,0.22915409415922766, ,0.18545889854431152
0.011071468405230388,0.023510903136224212,-0.08333198538261005, ,0.01145061291161731,0.024728545665558398,-0.08350434961251646, ,0.0012869006619463542, ,0.008718729565866943,0.04108171024225547,-0.012303574950990895,0.1714176478681877,-0.12615444251467853,0.03076501452782702, ,0.04376186831301894, ,0.21283550710563168, ,0.0015257849067681338, ,0.14714122945259958,-0.27004080041300843,0.09387213664,-4.528673709435273,0.14196532325629263,-1.3470702095595577, ,0.07113713760005305,-0.41439712470947937,0.02380988269058296,0.012636571576291849,-0.09464370709885546,0.22915409415922766, ,0.1873948574066162
0.011071468405230388,0.023510903136224212,-0.08333198538261005, ,0.011463362389975569,0.02478618984990819,-0.08353176871676855, ,0.0013490183386395535, ,0.008718729565866943,0.04108171024225547,-0.012303574950990895,0.1714176478681877,-0.12615444251467853,0.03076501452782702, ,0.04376186831301894, ,0.21283550710563168, ,0.0015240519011982456, ,0.14714122945259958,-0.27004080041300843,0.09387213664,-4.528673709435273,0.14196532325629263,-1.3470702095595577, ,0.07113713760005305,-0.41439712470947937,0.02380988269058296,0.012636571576291849,-0.09464370709885546,0.22915409415922766, ,0.18909597396850586
0.011071468405230388,0.023510903136224212,-0.08333198538261005, ,0.011476121627034387,0.024843766904335908,-0.08355919226928557, ,0.0014113444029059832, ,0.008718729565866943,0.04108171024225547,-0.012303574950990895,0.1714176478681877,-0.12615444251467853,0.03076501452782702, ,0.04376186831301894, ,0.21283550710563168, ,0.00152295765364201, ,0.14714122945259958,-0.27004080041300843,0.09387213664,-4.528673709435273,0.14196532325629263,-1.3470702095595577, ,0.07113713760005305,-0.41439712470947937,0.02380988269058296,0.012636571576291849,-0.09464370709885546,0.22915409415922766, ,0.19080495834350586
0.011071468405230388,0.023510903136224212,-0.08333198538261005, ,0.011488890635828333,0.02490127689574221,-0.08358662036393086, ,0.0014738451355097728, ,0.008718729565866943,0.04108171024225547,-0.012303574950990895,0.1714176478681877,-0.12615444251467853,0.03076501452782702, ,0.04376186831301894, ,0.21283550710563168, ,0.0015224854178907386, ,0.14714122945259958,-0.27004080041300843,0.09387213664,-4.528673709435273,0.14196532325629263,-1.3470702095595577, ,0.07113713760005305,-0.41439712470947937,0.02380988269058296,0.012636571576291849,-0.09464370709885546,0.22915409415922766, ,0.192457914352417
0.011071468405230388,0.023510903136224212,-0.08333198538261005, ,0.011501669429375092,0.024958719890907182,-0.083614053094348, ,0.0015364922617185413, ,0.008718729565866943,0.04108171024225547,-0.012303574950990895,0.1714176478681877,-0.12615444251467853,0.03076501452782702, ,0.04376186831301894, ,0.21283550710563168, ,0.0015226188164033842, ,0.14714122945259958,-0.27004080041300843,0.09387213664,-4.528673709435273,0.14196532325629263,-1.3470702095595577, ,0.07113713760005305,-0.41439712470947937,0.02380988269058296,0.012636571576291849,-0.09464370709885546,0.22915409415922766, ,0.1940929889678955
0.011151898923511023,0.023905584020646877,-0.08345034622736243, ,0.01151445802067567,0.0250160959564905,-0.08364149055396146, ,0.0011837322383795208, ,0.008005075572985916,0.03996912580283012,-0.011936241882181377,0.17086864047400116,-0.0481161532741696,-0.09337587339836338, ,0.04247453499029292, ,0.17751410158363592, ,0.00151942177321448, ,0.1478053844797829,-0.27399483964461135,0.09410157997000002,-4.52762525971785,0.14128214075746542,-1.3447161877579832, ,0.06659434495331282,-0.39872664520365875,0.023253739445255477,0.1518104013510555,-0.05850145218941082,0.2391374020886535, ,0.19574403762817383
0.011151898923511023,0.023905584020646877,-0.08345034622736243, ,0.011527256422714148,0.02507340515903152,-0.083668932835976, ,0.0012459853807052512, ,0.008005075572985916,0.03996912580283012,-0.011936241882181377,0.17086864047400116,-0.0481161532741696,-0.09337587339836338, ,0.04247453499029292, ,0.17751410158363592, ,0.0015168662929106553, ,0.1478053844797829,-0.27399483964461135,0.09410157997000002,-4.52762525971785,0.14128214075746542,-1.3447161877579832, ,0.06659434495331282,-0.39872664520365875,0.023253739445255477,0.1518104013510555,-0.05850145218941082,0.2391374020886535, ,0.19740605354309082
0.011151898923511023,0.023905584020646877,-0.08345034622736243, ,0.011540064648457879,0.025130647564949787,-0.08369638003337777, ,0.0013084288101788046, ,0.008005075572985916,0.03996912580283012,-0.011936241882181377,0.17086864047400116,-0.0481161532741696,-0.09337587339836338, ,0.04247453499029292, ,0.17751410158363592, ,0.001514936316218694, ,0.1478053844797829,-0.27399483964461135,0.09410157997000002,-4.52762525971785,0.14128214075746542,-1.3447161877579832, ,0.06659434495331282,-0.39872664520365875,0.023253739445255477,0.1518104013510555,-0.05850145218941082,0.2391374020886535, ,0.19908404350280762
0.011151898923511023,0.023905584020646877,-0.08345034622736243, ,0.011552882710857412,0.025187823240544516,-0.08372383223893352, ,0.0013710288156284043, ,0.008005075572985916,0.03996912580283012,-0.011936241882181377,0.17086864047400116,-0.0481161532741696,-0.09337587339836338, ,0.04247453499029292, ,0.17751410158363592, ,0.0015136160639197002, ,0.1478053844797829,-0.27399483964461135,0.09410157997000002,-4.52762525971785,0.14128214075746542,-1.3447161877579832, ,0.06659434495331282,-0.39872664520365875,0.023253739445255477,0.1518104013510555,-0.05850145218941082,0.2391374020886535, ,0.20090389251708984
0.011151898923511023,0.023905584020646877,-0.08345034622736243, ,0.011565710622846415,0.0252449322519954,-0.0837512895451916, ,0.0014337575415213335, ,0.008005075572985916,0.03996912580283012,-0.011936241882181377,0.17086864047400116,-0.0481161532741696,-0.09337587339836338, ,0.04247453499029292, ,0.17751410158363592, ,0.0015128900773524424, ,0.1478053844797829,-0.27399483964461135,0.09410157997000002,-4.52762525971785,0.14128214075746542,-1.3447161877579832, ,0.06659434495331282,-0.39872664520365875,0.023253739445255477,0.1518104013510555,-0.05850145218941082,0.2391374020886535, ,0.20267295837402344
0.011151898923511023,0.023905584020646877,-0.08345034622736243, ,0.011578548397341848,0.02530197466536228,-0.08377875204448172, ,0.0014965917903311545, ,0.008005075572985916,0.03996912580283012,-0.011936241882181377,0.17086864047400116,-0.0481161532741696,-0.09337587339836338, ,0.04247453499029292, ,0.17751410158363592, ,0.0015127432459378363, ,0.1478053844797829,-0.27399483964461135,0.09410157997000002,-4.52762525971785,0.14128214075746542,-1.3447161877579832, ,0.06659434495331282,-0.39872664520365875,0.023253739445255477,0.1518104013510555,-0.05850145218941082,0.2391374020886535, ,0.20441007614135742
0.011229373639318337,0.024301959774272568,-0.08357769279527871, ,0.011591396047243803,0.025358950546585553,-0.08380621982891497, ,0.001140400947780007, ,0.007571354559268981,0.04013711559225847,-0.013193567391168698,0.1381046932111283,-0.035187624060984184,0.0006888317165180263, ,0.042922997081212666, ,0.1425169280269053, ,0.0015094187611328555, ,0.14844637130834354,-0.27791798794471745,0.09434139362,-4.526786499943912,0.1408722312581691,-1.3423399655433796, ,0.06263824525311602,-0.3954039231602949,0.024619492302936634,0.06312570614427021,-0.02712345635501482,0.2607271852879433, ,0.20617890357971191
0.011229373639318337,0.024301959774272568,-0.08357769279527871, ,0.011604253585435605,0.02541585996148611,-0.08383369299038435, ,0.0012028485777392634, ,0.007571354559268981,0.04013711559225847,-0.013193567391168698,0.1381046932111283,-0.035187624060984184,0.0006888317165180263, ,0.042922997081212666, ,0.1425169280269053, ,0.0015067057506603458, ,0.14844637130834354,-0.27791798794471745,0.09434139362,-4.526786499943912,0.1408722312581691,-1.3423399655433796, ,0.06263824525311602,-0.3954039231602949,0.024619492302936634,0.06312570614427021,-0.02712345635501482,0.2607271852879433, ,0.2079160213470459
0.011229373639318337,0.024301959774272568,-0.08357769279527871, ,0.011617121024783782,0.02547270297576578,-0.083861171620565, ,0.0012654437653106358, ,0.007571354559268981,0.04013711559225847,-0.013193567391168698,0.1381046932111283,-0.035187624060984184,0.0006888317165180263, ,0.042922997081212666, ,0.1425169280269053, ,0.0015045894174555237, ,0.14844637130834354,-0.27791798794471745,0.09434139362,-4.526786499943912,0.1408722312581691,-1.3423399655433796, ,0.06263824525311602,-0.3954039231602949,0.024619492302936634,0.06312570614427021,-0.02712345635501482,0.2607271852879433, ,0.2098228931427002
0.011229373639318337,0.024301959774272568,-0.08357769279527871, ,0.011629998378138055,0.025529479655007094,-0.08388865581091358, ,0.001328157835517151, ,0.007571354559268981,0.04013711559225847,-0.013193567391168698,0.1381046932111283,-0.035187624060984184,0.0006888317165180263, ,0.042922997081212666, ,0.1425169280269053, ,0.0015030552297864944, ,0.14844637130834354,-0.27791798794471745,0.09434139362,-4.526786499943912,0.1408722312581691,-1.3423399655433796, ,0.06263824525311602,-0.3954039231602949,0.024619492302936634,0.06312570614427021,-0.02712345635501482,0.2607271852879433, ,0.21162104606628418
0.011229373639318337,0.024301959774272568,-0.08357769279527871, ,0.011642885658331301,0.025586190064673726,-0.08391614565266939, ,0.0013909672768717227, ,0.007571354559268981,0.04013711559225847,-0.013193567391168698,0.1381046932111283,-0.035187624060984184,0.0006888317165180263, ,0.042922997081212666, ,0.1425169280269053, ,0.0015020889543303326, ,0.14844637130834354,-0.27791798794471745,0.09434139362,-4.526786499943912,0.1408722312581691,-1.3423399655433796, ,0.06263824525311602,-0.3954039231602949,0.024619492302936634,0.06312570614427021,-0.02712345635501482,0.2607271852879433, ,0.21342897415161133
0.011304334895357556,0.024687285943929226,-0.0837138334581968, ,0.0116557828781797,0.025642834270110357,-0.08394364123685435, ,0.0010437432171893789, ,0.007571354559268981,0.04013711559225847,-0.013193567391168698,0.1381046932111283,-0.035187624060984184,0.0006888317165180263, ,0.042922997081212666, ,0.1425169280269053, ,0.001498171469397504, ,0.14844637130834354,-0.27791798794471745,0.09434139362,-4.526786499943912,0.1408722312581691,-1.3423399655433796, ,0.06263824525311602,-0.3954039231602949,0.024619492302936634,0.06312570614427021,-0.02712345635501482,0.2607271852879433, ,0.21536993980407715
0.011304334895357556,0.024687285943929226,-0.0837138334581968, ,0.011668690050482508,0.02569941233654319,-0.08397114265427255, ,0.001106057202895507, ,0.007736934599561142,0.03874378825769455,-0.014341797824704912,0.059223983525951984,-0.04118507662641874,0.06128754748833246, ,0.04203127942853592, ,0.07213660759035433, ,0.0014948484671390124, ,0.14905646720540727,-0.28167895885446476,0.09458768872000001,-4.526576810000427,0.14059895825863825,-1.3395034100514889, ,0.06330683226048751,-0.37657516491456666,0.025486098432000007,0.0,-0.02241617398284664,0.30854449618162805, ,0.21704506874084473
0.011304334895357556,0.024687285943929226,-0.0837138334581968, ,0.011681607188022275,0.02575592432907984,-0.08399864999551121, ,0.0011685216476204335, ,0.007736934599561142,0.03874378825769455,-0.014341797824704912,0.059223983525951984,-0.04118507662641874,0.06128754748833246, ,0.04203127942853592, ,0.07213660759035433, ,0.001492106224958184, ,0.14905646720540727,-0.28167895885446476,0.09458768872000001,-4.526576810000427,0.14059895825863825,-1.3395034100514889, ,0.06330683226048751,-0.37657516491456666,0.025486098432000007,0.0,-0.02241617398284664,0.30854449618162805, ,0.2187180519104004
0.011304334895357556,0.024687285943929226,-0.0837138334581968, ,0.01169453430356474,0.025812370312709325,-0.08402616335094007, ,0.0012311053476204102, ,0.007736934599561142,0.03874378825769455,-0.014341797824704912,0.059223983525951984,-0.04118507662641874,0.06128754748833246, ,0.04203127942853592, ,0.07213660759035433, ,0.001489931217647036, ,0.14905646720540727,-0.28167895885446476,0.09458768872000001,-4.526576810000427,0.14059895825863825,-1.3395034100514889, ,0.06330683226048751,-0.37657516491456666,0.025486098432000007,0.0,-0.02241617398284664,0.30854449618162805, ,0.22039484977722168
0.011304334895357556,0.024687285943929226,-0.0837138334581968, ,0.011707471409858802,0.02586875035230257,-0.08405368281071254, ,0.0012937831271053713, ,0.007736934599561142,0.03874378825769455,-0.014341797824704912,0.059223983525951984,-0.04118507662641874,0.06128754748833246, ,0.04203127942853592, ,0.07213660759035433, ,0.001488310159047518, ,0.14905646720540727,-0.28167895885446476,0.09458768872000001,-4.526576810000427,0.14059895825863825,-1.3395034100514889, ,0.06330683226048751,-0.37657516491456666,0.025486098432000007,0.0,-0.02241617398284664,0.30854449618162805, ,0.2220020294189453
0.011304334895357556,0.024687285943929226,-0.0837138334581968, ,0.011720418519636608,0.025925064512612356,-0.08408120846476469, ,0.0013565344680232809, ,0.007736934599561142,0.03874378825769455,-0.014341797824704912,0.059223983525951984,-0.04118507662641874,0.06128754748833246, ,0.04203127942853592, ,0.07213660759035433, ,0.0014872300304325653, ,0.14905646720540727,-0.28167895885446476,0.09458768872000001,-4.526576810000427,0.14059895825863825,-1.3395034100514889, ,0.06330683226048751,-0.37657516491456666,0.025486098432000007,0.0,-0.02241617398284664,0.30854449618162805, ,0.22366094589233398
0.011304334895357556,0.024687285943929226,-0.0837138334581968, ,0.011733375645613478,0.02598131285827348,-0.0841087404028164, ,0.0014193424940218856, ,0.007736934599561142,0.03874378825769455,-0.014341797824704912,0.059223983525951984,-0.04118507662641874,0.06128754748833246, ,0.04203127942853592, ,0.07213660759035433, ,0.0014866780992422346, ,0.14905646720540727,-0.28167895885446476,0.09458768872000001,-4.526576810000427,0.14059895825863825,-1.3395034100514889, ,0.06330683226048751,-0.37657516491456666,0.025486098432000007,0.0,-0.02241617398284664,0.30854449618162805, ,0.22545194625854492
0.011304334895357556,0.024687285943929226,-0.0837138334581968, ,0.011746342800488026,0.02603749545380277,-0.0841362787143713, ,0.0014821932071140778, ,0.007641768869457477,0.03728099084477827,-0.014087476786017893,0.0014118311344618367,-0.030196327297545632,0.061812353539745686, ,0.04057987077381153, ,0.030229305228120975, ,0.00148664193075733, ,0.14961250397235143,-0.2848993384630164,0.0948106506,-4.526786499943912,0.14046232175887277,-1.3364515575027323, ,0.0627625274857611,-0.35810166625838025,0.02492771755868545,0.0002473416549934669,-0.016583077944127063,0.35393622975730915, ,0.22785687446594238
0.01137205309475831,0.025021410019770703,-0.08384019973115814, ,0.011759319996941945,0.026093612363599472,-0.08416382348871636, ,0.0011850425545502216, ,0.007641768869457477,0.03728099084477827,-0.014087476786017893,0.0014118311344618367,-0.030196327297545632,0.061812353539745686, ,0.04057987077381153, ,0.030229305228120975, ,0.0014842291357476732, ,0.14961250397235143,-0.2848993384630164,0.0948106506,-4.526786499943912,0.14046232175887277,-1.3364515575027323, ,0.0627625274857611,-0.35810166625838025,0.02492771755868545,0.0002473416549934669,-0.016583077944127063,0.35393622975730915, ,0.22982096672058105
0.01137205309475831,0.025021410019770703,-0.08384019973115814, ,0.011772307247640196,0.0261496636519452,-0.084191374814923, ,0.0012475911128536459, ,0.007641768869457477,0.03728099084477827,-0.014087476786017893,0.0014118311344618367,-0.030196327297545632,0.061812353539745686, ,0.04057987077381153, ,0.030229305228120975, ,0.001482351056200895, ,0.14961250397235143,-0.2848993384630164,0.0948106506,-4.526786499943912,0.14046232175887277,-1.3364515575027323, ,0.0627625274857611,-0.35810166625838025,0.02492771755868545,0.0002473416549934669,-0.016583077944127063,0.35393622975730915, ,0.23151707649230957
0.01137205309475831,0.025021410019770703,-0.08384019973115814, ,0.011785304565230956,0.02620564938300431,-0.08421893278184629, ,0.0013102054689869437, ,0.007641768869457477,0.03728099084477827,-0.014087476786017893,0.0014118311344618367,-0.030196327297545632,0.061812353539745686, ,0.04057987077381153, ,0.030229305228120975, ,0.0014809955791362183, ,0.14961250397235143,-0.2848993384630164,0.0948106506,-4.526786499943912,0.14046232175887277,-1.3364515575027323, ,0.0627625274857611,-0.35810166625838025,0.02492771755868545,0.0002473416549934669,-0.016583077944127063,0.35393622975730915, ,0.23321294784545898
0.01137205309475831,0.025021410019770703,-0.08384019973115814, ,0.011798311962345601,0.026261569620823648,-0.08424649747812589, ,0.0013728693737831248, ,0.007641768869457477,0.03728099084477827,-0.014087476786017893,0.0014118311344618367,-0.030196327297545632,0.061812353539745686, ,0.04057987077381153, ,0.030229305228120975, ,0.0014801508431568971, ,0.14961250397235143,-0.2848993384630164,0.0948106506,-4.526786499943912,0.14046232175887277,-1.3364515575027323, ,0.0627625274857611,-0.35810166625838025,0.02492771755868545,0.0002473416549934669,-0.016583077944127063,0.35393622975730915, ,0.23485708236694336
0.011458310083901852,0.02545006397513488,-0.083994551097079, ,0.011811329451598719,0.026317424429333085,-0.08427406899218572, ,0.00097727533743613, ,0.0069703973300884285,0.03484601109684625,-0.012297217480510853,-0.01619685486275356,0.009418983415574634,-0.0019042590248701335, ,0.03760388924119176, ,0.018736463775635516, ,0.0014762525834226276, ,0.15033071812965432,-0.28901555508497806,0.09509064924,-4.525947740169974,0.14032568525910732,-1.3320928451117267, ,0.059384819498417264,-0.33414416041715067,0.022594058893617024,0.06946266935311612,0.0,0.36016382456242174, ,0.23648285865783691
0.011458310083901852,0.02545006397513488,-0.083994551097079, ,0.011824357045588096,0.02637321387234531,-0.08430164741223478, ,0.0010394730673094022, ,0.0069703973300884285,0.03484601109684625,-0.012297217480510853,-0.01619685486275356,0.009418983415574634,-0.0019042590248701335, ,0.03760388924119176, ,0.018736463775635516, ,0.0014728927409909873, ,0.15033071812965432,-0.28901555508497806,0.09509064924,-4.525947740169974,0.14032568525910732,-1.3320928451117267, ,0.059384819498417264,-0.33414416041715067,0.022594058893617024,0.06946266935311612,0.0,0.36016382456242174, ,0.2381598949432373
0.011458310083901852,0.02545006397513488,-0.083994551097079, ,0.011837394756894774,0.02642893801355636,-0.08432923282626598, ,0.0011017764892414935, ,0.0069703973300884285,0.03484601109684625,-0.012297217480510853,-0.01619685486275356,0.009418983415574634,-0.0019042590248701335, ,0.03760388924119176, ,0.018736463775635516, ,0.00147005979250435, ,0.15033071812965432,-0.28901555508497806,0.09509064924,-4.525947740169974,0.14032568525910732,-1.3320928451117267, ,0.059384819498417264,-0.33414416041715067,0.022594058893617024,0.06946266935311612,0.0,0.36016382456242174, ,0.23984885215759277
0.011458310083901852,0.02545006397513488,-0.083994551097079, ,0.01185044259808291,0.02648459691654553,-0.08435682532205833, ,0.0011641601821167503, ,0.0069703973300884285,0.03484601109684625,-0.012297217480510853,-0.01619685486275356,0.009418983415574634,-0.0019042590248701335, ,0.03760388924119176, ,0.018736463775635516, ,0.0014677423712135351, ,0.15033071812965432,-0.28901555508497806,0.09509064924,-4.525947740169974,0.14032568525910732,-1.3320928451117267, ,0.059384819498417264,-0.33414416041715067,0.022594058893617024,0.06946266935311612,0.0,0.36016382456242174, ,0.24149489402770996
0.011458310083901852,0.02545006397513488,-0.083994551097079, ,0.011863500581699963,0.02654019064477528,-0.08438442498717495, ,0.0012266039073579136, ,0.0069703973300884285,0.03484601109684625,-0.012297217480510853,-0.01619685486275356,0.009418983415574634,-0.0019042590248701335, ,0.03760388924119176, ,0.018736463775635516, ,0.001465929300056726, ,0.15033071812965432,-0.28901555508497806,0.09509064924,-4.525947740169974,0.14032568525910732,-1.3320928451117267, ,0.059384819498417264,-0.33414416041715067,0.022594058893617024,0.06946266935311612,0.0,0.36016382456242174, ,0.24314093589782715
0.011458310083901852,0.02545006397513488,-0.083994551097079, ,0.011876568720276598,0.026595719261591995,-0.0844120319089651, ,0.0012890913662662816, ,0.0069703973300884285,0.03484601109684625,-0.012297217480510853,-0.01619685486275356,0.009418983415574634,-0.0019042590248701335, ,0.03760388924119176, ,0.018736463775635516, ,0.001464609613983663, ,0.15033071812965432,-0.28901555508497806,0.09509064924,-4.525947740169974,0.14032568525910732,-1.3320928451117267, ,0.059384819498417264,-0.33414416041715067,0.022594058893617024,0.06946266935311612,0.0,0.36016382456242174, ,0.24676799774169922
0.011458310083901852,0.02545006397513488,-0.083994551097079, ,0.011889647026326602,0.026651182830225516,-0.08443964617456276, ,0.00135160929634079, ,0.0069703973300884285,0.03484601109684625,-0.012297217480510853,-0.01619685486275356,0.009418983415574634,-0.0019042590248701335, ,0.03760388924119176, ,0.018736463775635516, ,0.0014637725745937156, ,0.15033071812965432,-0.28901555508497806,0.09509064924,-4.525947740169974,0.14032568525910732,-1.3320928451117267, ,0.059384819498417264,-0.33414416041715067,0.022594058893617024,0.06946266935311612,0.0,0.36016382456242174, ,0.2511770725250244
0.011545956697389503,0.025891624526690995,-0.0841470574020954, ,0.011902735512347098,0.026706581413789583,-0.08446726787088815, ,0.000945505470611589, ,0.0065768373089327755,0.03253509803759864,-0.011736801006746487,-0.004960634349577895,0.007465290205825072,-0.002071293219848578, ,0.035207100010882605, ,0.008963159503924399, ,0.0014599617870644354, ,0.1510798232184541,-0.29324761270005306,0.09537453675000002,-4.525108980396035,0.14032568525910732,-1.3276821931441363, ,0.055625405368388496,-0.3091105588223804,0.021467400970350405,0.06468378476205212,0.0004481447277532164,0.3231819432285654, ,0.25292086601257324
0.011545956697389503,0.025891624526690995,-0.0841470574020954, ,0.011915834190818372,0.026761915075282045,-0.084494897084647, ,0.0010075750313846272, ,0.0065768373089327755,0.03253509803759864,-0.011736801006746487,-0.004960634349577895,0.007465290205825072,-0.002071293219848578, ,0.035207100010882605, ,0.008963159503924399, ,0.0014566596939572835, ,0.1510798232184541,-0.29324761270005306,0.09537453675000002,-4.525108980396035,0.14032568525910732,-1.3276821931441363, ,0.055625405368388496,-0.3091105588223804,0.021467400970350405,0.06468378476205212,0.0004481447277532164,0.3231819432285654, ,0.2546708583831787
0.011545956697389503,0.025891624526690995,-0.0841470574020954, ,0.011928943074203906,0.026817183877584683,-0.08452253390233118, ,0.0010697295354815074, ,0.0065768373089327755,0.03253509803759864,-0.011736801006746487,-0.004960634349577895,0.007465290205825072,-0.002071293219848578, ,0.035207100010882605, ,0.008963159503924399, ,0.001453855852229198, ,0.1510798232184541,-0.29324761270005306,0.09537453675000002,-4.525108980396035,0.14032568525910732,-1.3276821931441363, ,0.055625405368388496,-0.3091105588223804,0.021467400970350405,0.06468378476205212,0.0004481447277532164,0.3231819432285654, ,0.256458044052124
0.011545956697389503,0.025891624526690995,-0.0841470574020954, ,0.01194206217495035,0.026872387883463713,-0.08455017841021861, ,0.001131946491019816, ,0.0065768373089327755,0.03253509803759864,-0.011736801006746487,-0.004960634349577895,0.007465290205825072,-0.002071293219848578, ,0.035207100010882605, ,0.008963159503924399, ,0.0014515399575442385, ,0.1510798232184541,-0.29324761270005306,0.09537453675000002,-4.525108980396035,0.14032568525910732,-1.3276821931441363, ,0.055625405368388496,-0.3091105588223804,0.021467400970350405,0.06468378476205212,0.0004481447277532164,0.3231819432285654, ,0.2581899166107178
0.011545956697389503,0.025891624526690995,-0.0841470574020954, ,0.01195519150548771,0.026927527155569553,-0.08457783069437336, ,0.001194208111686015, ,0.0065768373089327755,0.03253509803759864,-0.011736801006746487,-0.004960634349577895,0.007465290205825072,-0.002071293219848578, ,0.035207100010882605, ,0.008963159503924399, ,0.0014497018729309654, ,0.1510798232184541,-0.29324761270005306,0.09537453675000002,-4.525108980396035,0.14032568525910732,-1.3276821931441363, ,0.055625405368388496,-0.3091105588223804,0.021467400970350405,0.06468378476205212,0.0004481447277532164,0.3231819432285654, ,0.25989794731140137
0.011545956697389503,0.025891624526690995,-0.0841470574020954, ,0.011968331078229137,0.026982601756437526,-0.08460549084064642, ,0.0012565001595689486, ,0.0065768373089327755,0.03253509803759864,-0.011736801006746487,-0.004960634349577895,0.007465290205825072,-0.002071293219848578, ,0.035207100010882605, ,0.008963159503924399, ,0.0014483316480135044, ,0.1510798232184541,-0.29324761270005306,0.09537453675000002,-4.525108980396035,0.14032568525910732,-1.3276821931441363, ,0.055625405368388496,-0.3091105588223804,0.021467400970350405,0.06468378476205212,0.0004481447277532164,0.3231819432285654, ,0.2615079879760742
0.011633453569894136,0.026312041187639034,-0.084317992697441, ,0.011981480905570946,0.027037611748487223,-0.08463315893467521, ,0.0008642369016885503, ,0.006578721092592258,0.030313100571328466,-0.012778818223046938,0.05423669768142398,-0.002832052402350122,-0.003927446008458877, ,0.033547903550583735, ,0.05431058419343352, ,0.0014442183047295256, ,0.1518057601086312,-0.2971630382672849,0.09567138716000001,-4.524270220622098,0.14046232175887277,-1.3240363890013667, ,0.053735527496302816,-0.2799319809984389,0.02191033221458047,0.059170380286365995,0.0019024049136082673,0.23365131818588503, ,0.2646169662475586
0.011633453569894136,0.026312041187639034,-0.084317992697441, ,0.011994640999892753,0.027092557194023363,-0.08466083506188359, ,0.0009258523006763709, ,0.006578721092592258,0.030313100571328466,-0.012778818223046938,0.05423669768142398,-0.002832052402350122,-0.003927446008458877, ,0.033547903550583735, ,0.05431058419343352, ,0.001440593367638245, ,0.1518057601086312,-0.2971630382672849,0.09567138716000001,-4.524270220622098,0.14046232175887277,-1.3240363890013667, ,0.053735527496302816,-0.2799319809984389,0.02191033221458047,0.059170380286365995,0.0019024049136082673,0.23365131818588503, ,0.266294002532959
0.011633453569894136,0.026312041187639034,-0.084317992697441, ,0.012007811373557322,0.027147438155235515,-0.08468851930748329, ,0.0009875838330908177, ,0.006578721092592258,0.030313100571328466,-0.012778818223046938,0.05423669768142398,-0.002832052402350122,-0.003927446008458877, ,0.033547903550583735, ,0.05431058419343352, ,0.0014374474680927767, ,0.1518057601086312,-0.2971630382672849,0.09567138716000001,-4.524270220622098,0.14046232175887277,-1.3240363890013667, ,0.053735527496302816,-0.2799319809984389,0.02191033221458047,0.059170380286365995,0.0019024049136082673,0.23365131818588503, ,0.26796889305114746
0.011633453569894136,0.026312041187639034,-0.084317992697441, ,0.012020992038910716,0.027202254694198413,-0.08471621175647258, ,0.0010494020064800973, ,0.006578721092592258,0.030313100571328466,-0.012778818223046938,0.05423669768142398,-0.002832052402350122,-0.003927446008458877, ,0.033547903550583735, ,0.05431058419343352, ,0.0014347712924954478, ,0.1518057601086312,-0.2971630382672849,0.09567138716000001,-4.524270220622098,0.14046232175887277,-1.3240363890013667, ,0.053735527496302816,-0.2799319809984389,0.02191033221458047,0.059170380286365995,0.0019024049136082673,0.23365131818588503, ,0.2696070671081543
0.011633453569894136,0.026312041187639034,-0.084317992697441, ,0.012034183008282132,0.027257006872871962,-0.08474391249363694, ,0.0011112838979532133, ,0.006578721092592258,0.030313100571328466,-0.012778818223046938,0.05423669768142398,-0.002832052402350122,-0.003927446008458877, ,0.033547903550583735, ,0.05431058419343352, ,0.001432555625409542, ,0.1518057601086312,-0.2971630382672849,0.09567138716000001,-4.524270220622098,0.14046232175887277,-1.3240363890013667, ,0.053735527496302816,-0.2799319809984389,0.02191033221458047,0.059170380286365995,0.0019024049136082673,0.23365131818588503, ,0.2712240219116211
0.011700939492923348,0.02661237222613124,-0.08445837396864044, ,0.012047384293984055,0.027311694753101558,-0.08477162160354978, ,0.0008409518878547355, ,0.006821910561511425,0.029070592512934385,-0.014921197538376247,0.07498425873223659,-0.01781821622757425,0.022525714032451023, ,0.03338083205586079, ,0.07707222033598733, ,0.0014285311101880807, ,0.1523386286769527,-0.29988916297188617,0.09590212678000001,-4.524060530678613,0.14046232175887277,-1.3218310630175716, ,0.052662009743879454,-0.2585747726388849,0.023668367786032693,0.0260046074909908,0.001965118462312139,0.1865105763714667, ,0.2730240821838379
0.011700939492923348,0.02661237222613124,-0.08445837396864044, ,0.012060595908312191,0.027366318396618093,-0.08479933917057195, ,0.0009022443316809135, ,0.006821910561511425,0.029070592512934385,-0.014921197538376247,0.07498425873223659,-0.01781821622757425,0.022525714032451023, ,0.03338083205586079, ,0.07707222033598733, ,0.0014249751184414107, ,0.1523386286769527,-0.29988916297188617,0.09590212678000001,-4.524060530678613,0.14046232175887277,-1.3218310630175716, ,0.052662009743879454,-0.2585747726388849,0.023668367786032693,0.0260046074909908,0.001965118462312139,0.1865105763714667, ,0.27480101585388184
0.011700939492923348,0.02661237222613124,-0.08445837396864044, ,0.012073817863545363,0.027420877865038114,-0.08482706527885238, ,0.0009636663995635308, ,0.006821910561511425,0.029070592512934385,-0.014921197538376247,0.07498425873223659,-0.01781821622757425,0.022525714032451023, ,0.03338083205586079, ,0.07707222033598733, ,0.0014218790867710893, ,0.1523386286769527,-0.29988916297188617,0.09590212678000001,-4.524060530678613,0.14046232175887277,-1.3218310630175716, ,0.052662009743879454,-0.2585747726388849,0.023668367786032693,0.0260046074909908,0.001965118462312139,0.1865105763714667, ,0.2765979766845703
0.011700939492923348,0.02661237222613124,-0.08445837396864044, ,0.012087050171945776,0.027475373219864097,-0.08485480001232759, ,0.001025185729393707, ,0.006821910561511425,0.029070592512934385,-0.014921197538376247,0.07498425873223659,-0.01781821622757425,0.022525714032451023, ,0.03338083205586079, ,0.07707222033598733, ,0.0014192344643885733, ,0.1523386286769527,-0.29988916297188617,0.09590212678000001,-4.524060530678613,0.14046232175887277,-1.3218310630175716, ,0.052662009743879454,-0.2585747726388849,0.023668367786032693,0.0260046074909908,0.001965118462312139,0.1865105763714667, ,0.2783620357513428
0.011700939492923348,0.02661237222613124,-0.08445837396864044, ,0.012100292845758726,0.02752980452248417,-0.08488254345472282, ,0.0010867772870904403, ,0.006821910561511425,0.029070592512934385,-0.014921197538376247,0.07498425873223659,-0.01781821622757425,0.022525714032451023, ,0.03338083205586079, ,0.07707222033598733, ,0.0014170327612276585, ,0.1523386286769527,-0.29988916297188617,0.09590212678000001,-4.524060530678613,0.14046232175887277,-1.3218310630175716, ,0.052662009743879454,-0.2585747726388849,0.023668367786032693,0.0260046074909908,0.001965118462312139,0.1865105763714667, ,0.28015685081481934
0.011753829904724674,0.026832143606447284,-0.08457626607991829, ,0.01211354589721283,0.027584171834173117,-0.08491029568955126, ,0.0008980633778635837, ,0.007006464237088299,0.029132961047433296,-0.01645149110856374,0.08108397339545691,-0.018307402170726482,0.020345673695632904, ,0.034182912693215814, ,0.0831250293878256, ,0.0014136184889686843, ,0.1523386286769527,-0.29988916297188617,0.09590212678000001,-4.524060530678613,0.14046232175887277,-1.3218310630175716, ,0.052662009743879454,-0.2585747726388849,0.023668367786032693,0.0260046074909908,0.001965118462312139,0.1865105763714667, ,0.28232908248901367
0.011753829904724674,0.026832143606447284,-0.08457626607991829, ,0.012126809338519862,0.02763847521609133,-0.08493805680011465, ,0.0009592584886074982, ,0.007006464237088299,0.029132961047433296,-0.01645149110856374,0.08108397339545691,-0.018307402170726482,0.020345673695632904, ,0.034182912693215814, ,0.0831250293878256, ,0.0014106488157637092, ,0.15274021078641234,-0.3018198461904423,0.09608619996000001,-4.523641150791644,0.14046232175887277,-1.3205242031753226, ,0.051912987723452285,-0.25305851082258873,0.02520381569620253,0.027066436261502288,0.0019221235092388297,0.17498399254833882, ,0.2841980457305908
0.011753829904724674,0.026832143606447284,-0.08457626607991829, ,0.01214008318187482,0.027692714729285906,-0.08496582686950332, ,0.0010205546826873458, ,0.007006464237088299,0.029132961047433296,-0.01645149110856374,0.08108397339545691,-0.018307402170726482,0.020345673695632904, ,0.034182912693215814, ,0.0831250293878256, ,0.0014081157369774991, ,0.15274021078641234,-0.3018198461904423,0.09608619996000001,-4.523641150791644,0.14046232175887277,-1.3205242031753226, ,0.051912987723452285,-0.25305851082258873,0.02520381569620253,0.027066436261502288,0.0019221235092388297,0.17498399254833882, ,0.2859179973602295
0.011753829904724674,0.026832143606447284,-0.08457626607991829, ,0.012153367439456012,0.027746890434690603,-0.0849936059805971, ,0.0010819263348948518, ,0.007006464237088299,0.029132961047433296,-0.01645149110856374,0.08108397339545691,-0.018307402170726482,0.020345673695632904, ,0.034182912693215814, ,0.0831250293878256, ,0.0014060112892221273, ,0.15274021078641234,-0.3018198461904423,0.09608619996000001,-4.523641150791644,0.14046232175887277,-1.3205242031753226, ,0.051912987723452285,-0.25305851082258873,0.02520381569620253,0.027066436261502288,0.0019221235092388297,0.17498399254833882, ,0.28757405281066895
0.011753829904724674,0.026832143606447284,-0.08457626607991829, ,0.012166662123424888,0.027801002393125513,-0.08502139421606413, ,0.0011433533342362788, ,0.007006464237088299,0.029132961047433296,-0.01645149110856374,0.08108397339545691,-0.018307402170726482,0.020345673695632904, ,0.034182912693215814, ,0.0831250293878256, ,0.0014043275843824744, ,0.15274021078641234,-0.3018198461904423,0.09608619996000001,-4.523641150791644,0.14046232175887277,-1.3205242031753226, ,0.051912987723452285,-0.25305851082258873,0.02520381569620253,0.027066436261502288,0.0019221235092388297,0.17498399254833882, ,0.28923702239990234
0.011753829904724674,0.026832143606447284,-0.08457626607991829, ,0.01217996724592612,0.02785505066529774,-0.08504919165836193, ,0.0012048196908079555, ,0.007006464237088299,0.029132961047433296,-0.01645149110856374,0.08108397339545691,-0.018307402170726482,0.020345673695632904, ,0.034182912693215814, ,0.0831250293878256, ,0.001403056833467987, ,0.15274021078641234,-0.3018198461904423,0.09608619996000001,-4.523641150791644,0.14046232175887277,-1.3205242031753226, ,0.051912987723452285,-0.25305851082258873,0.02520381569620253,0.027066436261502288,0.0019221235092388297,0.17498399254833882, ,0.2909209728240967
0.011843080501783083,0.027191386337729658,-0.08479372523586123, ,0.012193282819087662,0.027909035311801236,-0.08507699838973755, ,0.0008472929792807918, ,0.007193078796600723,0.027367454420222946,-0.017529022330484333,0.016341414786234795,0.0017999329476138391,-0.04402227436813566, ,0.03328640214681824, ,0.01644019284765184, ,0.001399539340719967, ,0.15338119761497299,-0.30487032567576094,0.09641156875000001,-4.522592701074221,0.14046232175887277,-1.3179104834908246, ,0.050937703466704655,-0.22811764797709322,0.0257747759223301,0.09105051012960377,-0.00541691476991522,0.2238568911014822, ,0.2925689220428467
0.011843080501783083,0.027191386337729658,-0.08479372523586123, ,0.012206608855020661,0.027962956393117206,-0.08510481449222755, ,0.0009078820074243776, ,0.007193078796600723,0.027367454420222946,-0.017529022330484333,0.016341414786234795,0.0017999329476138391,-0.04402227436813566, ,0.03328640214681824, ,0.01644019284765184, ,0.001396447156233831, ,0.15338119761497299,-0.30487032567576094,0.09641156875000001,-4.522592701074221,0.14046232175887277,-1.3179104834908246, ,0.050937703466704655,-0.22811764797709322,0.0257747759223301,0.09105051012960377,-0.00541691476991522,0.2238568911014822, ,0.29419994354248047
0.011843080501783083,0.027191386337729658,-0.08479372523586123, ,0.012219945365819506,0.028016813969613783,-0.08513264004765807, ,0.0009686181656763978, ,0.007193078796600723,0.027367454420222946,-0.017529022330484333,0.016341414786234795,0.0017999329476138391,-0.04402227436813566, ,0.03328640214681824, ,0.01644019284765184, ,0.001393773225042847, ,0.15338119761497299,-0.30487032567576094,0.09641156875000001,-4.522592701074221,0.14046232175887277,-1.3179104834908246, ,0.050937703466704655,-0.22811764797709322,0.0257747759223301,0.09105051012960377,-0.00541691476991522,0.2238568911014822, ,0.2959010601043701
0.011843080501783083,0.027191386337729658,-0.08479372523586123, ,0.012233292363561826,0.02807060810154678,-0.085160475137645, ,0.0010294667053872737, ,0.007193078796600723,0.027367454420222946,-0.017529022330484333,0.016341414786234795,0.0017999329476138391,-0.04402227436813566, ,0.03328640214681824, ,0.01644019284765184, ,0.0013915104516288373, ,0.15338119761497299,-0.30487032567576094,0.09641156875000001,-4.522592701074221,0.14046232175887277,-1.3179104834908246, ,0.050937703466704655,-0.22811764797709322,0.0257747759223301,0.09105051012960377,-0.00541691476991522,0.2238568911014822, ,0.2975928783416748
0.011843080501783083,0.027191386337729658,-0.08479372523586123, ,0.012246649860308476,0.028124338849059315,-0.08518831984359478, ,0.0010904006236192724, ,0.007193078796600723,0.027367454420222946,-0.017529022330484333,0.016341414786234795,0.0017999329476138391,-0.04402227436813566, ,0.03328640214681824, ,0.01644019284765184, ,0.001389651748986803, ,0.15338119761497299,-0.30487032567576094,0.09641156875000001,-4.522592701074221,0.14046232175887277,-1.3179104834908246, ,0.050937703466704655,-0.22811764797709322,0.0257747759223301,0.09105051012960377,-0.00541691476991522,0.2238568911014822, ,0.29931092262268066
0.011843080501783083,0.027191386337729658,-0.08479372523586123, ,0.012260017868103483,0.028178006272182185,-0.08521617424670347, ,0.0011513986404607585, ,0.007193078796600723,0.027367454420222946,-0.017529022330484333,0.016341414786234795,0.0017999329476138391,-0.04402227436813566, ,0.03328640214681824, ,0.01644019284765184, ,0.0013881900734743734, ,0.15338119761497299,-0.30487032567576094,0.09641156875000001,-4.522592701074221,0.14046232175887277,-1.3179104834908246, ,0.050937703466704655,-0.22811764797709322,0.0257747759223301,0.09105051012960377,-0.00541691476991522,0.2238568911014822, ,0.3011820316314697
0.0119080129601072,0.02744343626350052,-0.084953688739978, ,0.012273396398974203,0.02823161043083416,-0.08524403842795795, ,0.0009159839063872318, ,0.006710594771561464,0.026328578416919247,-0.016705076841081717,-0.03944117695235819,-0.007511858271699994,0.003299489206210395, ,0.03189491677227609, ,0.0401501326671022, ,0.0013853107675775003, ,0.15382911612167802,-0.3069786317504243,0.09664749353,-4.522173321187252,0.14032568525910732,-1.3155120608631923, ,0.0463590334921694,-0.21966884620016383,0.024657602972136226,0.03973853274059571,-0.009682509140216665,0.26360682095035065, ,0.30298590660095215
