NicholasDascanio/dvrk_moveit_final/test/execution/noob_justexecution/no_ramp/noob__noramp_400vel5.csv
Current Position (x),Current Position (y),Current Position (z), ,Planned Position (x),Planned Position (y),Planned Position (z), ,Position Error,,Cartesian linear Velocity(x),Cartesian linear Velocity(y),Cartesian linear Velocity(z),Cartesian Angular Velocity(x),Cartesian Angular Velocity(y),Cartesian Angular Velocity(z), ,Total Linear Velocity, ,Total Angular Velocity, ,MSE, ,Joint 1 Position,Joint 2 Position,Joint 3 Position,Joint 4 Position,Joint 5 Position,Joint 6 Position, ,Joint 1 Velocity,Joint 2 Velocity,Joint 3 Velocity,Joint 4 Velocity,Joint 5 Velocity,Joint 6 Velocity, ,Time Stamp
0.009888167567664303,0.018927961967284655,-0.08060016782550851, ,0.010147731105060096,0.01888838315226547,-0.08078976651534, ,0.0003238632052727827, ,2.77269933921837e-05,-3.082442345776503e-05,-3.805321842589958e-05,-0.0004664394114061294,-0.0002732275564278292,-6.52913902695376e-05, ,5.6275915600219576e-05, ,0.0005405728647503672, ,0.00016193160263639134, ,0.13907097359903497,-0.22611389582441943,0.08997808148000001,-4.538109756892076,0.1546725177344786,-1.385529561211678, ,0.00027322755642782907,0.00047098693204400643,3.307952008236356e-05,0.0,0.0,0.0, ,0.002785921096801758
0.009888167567664303,0.018927961967284655,-0.08060016782550851, ,0.010174046416774104,0.019029698139779654,-0.08085007354787312, ,0.00039310283035467065, ,2.77269933921837e-05,-3.082442345776503e-05,-3.805321842589958e-05,-0.0004664394114061294,-0.0002732275564278292,-6.52913902695376e-05, ,5.6275915600219576e-05, ,0.0005405728647503672, ,0.00023898867854248444, ,0.13907097359903497,-0.22611389582441943,0.08997808148000001,-4.538109756892076,0.1546725177344786,-1.385529561211678, ,0.00027322755642782907,0.00047098693204400643,3.307952008236356e-05,0.0,0.0,0.0, ,0.005692958831787109
0.009888167567664303,0.018927961967284655,-0.08060016782550851, ,0.010200402875408056,0.019170649958763098,-0.0809103563245692, ,0.0005025985013499318, ,2.77269933921837e-05,-3.082442345776503e-05,-3.805321842589958e-05,-0.0004664394114061294,-0.0002732275564278292,-6.52913902695376e-05, ,5.6275915600219576e-05, ,0.0005405728647503672, ,0.0003048911342443463, ,0.13907097359903497,-0.22611389582441943,0.08997808148000001,-4.538109756892076,0.1546725177344786,-1.385529561211678, ,0.00027322755642782907,0.00047098693204400643,3.307952008236356e-05,0.0,0.0,0.0, ,0.008558988571166992
0.009888167567664303,0.018927961967284655,-0.08060016782550851, ,0.010226800620371164,0.01931123949530655,-0.08097061603410498, ,0.0006315107941472379, ,2.77269933921837e-05,-3.082442345776503e-05,-3.805321842589958e-05,-0.0004664394114061294,-0.0002732275564278292,-6.52913902695376e-05, ,5.6275915600219576e-05, ,0.0005405728647503672, ,0.00037021506622492465, ,0.13907097359903497,-0.22611389582441943,0.08997808148000001,-4.538109756892076,0.1546725177344786,-1.385529561211678, ,0.00027322755642782907,0.00047098693204400643,3.307952008236356e-05,0.0,0.0,0.0, ,0.011447906494140625
0.009888167567664303,0.018927961967284655,-0.08060016782550851, ,0.010253239790746665,0.01945146763222029,-0.08103085385983623, ,0.0007699521864706524, ,2.77269933921837e-05,-3.082442345776503e-05,-3.805321842589958e-05,-0.0004664394114061294,-0.0002732275564278292,-6.52913902695376e-05, ,5.6275915600219576e-05, ,0.0005405728647503672, ,0.00043683791959921257, ,0.13907097359903497,-0.22611389582441943,0.08997808148000001,-4.538109756892076,0.1546725177344786,-1.385529561211678, ,0.00027322755642782907,0.00047098693204400643,3.307952008236356e-05,0.0,0.0,0.0, ,0.014340877532958984
0.009889866020291163,0.01894038560969937,-0.08061161362811739, ,0.01027972052529177,0.01959133524904178,-0.08109107097980542, ,0.0008975529622907938, ,0.00043273866959240415,0.003069350905302066,-0.0027003360356264747,0.11857676717600077,-0.01257061977183818,-0.0015654740442585901, ,0.004110960038888984, ,0.11924122691089707, ,0.0005026543542694385, ,0.13908641906478342,-0.22622201408465856,0.08999234067,-4.537900066948591,0.15480915423424405,-1.3862944090364993, ,0.0006647857967925404,-0.0285061404501264,0.0033590914213412065,0.000804443150879361,0.0,-0.09116641939742598, ,0.017138004302978516
0.009889866020291163,0.01894038560969937,-0.08061161362811739, ,0.010306242962437684,0.019730843222043028,-0.08115126856675024, ,0.0010437530587519965, ,0.00043273866959240415,0.003069350905302066,-0.0027003360356264747,0.11857676717600077,-0.01257061977183818,-0.0015654740442585901, ,0.004110960038888984, ,0.11924122691089707, ,0.0005702916923297582, ,0.13908641906478342,-0.22622201408465856,0.08999234067,-4.537900066948591,0.15480915423424405,-1.3862944090364993, ,0.0006647857967925404,-0.0285061404501264,0.0033590914213412065,0.000804443150879361,0.0,-0.09116641939742598, ,0.019973039627075195
0.009889866020291163,0.01894038560969937,-0.08061161362811739, ,0.010332807240289432,0.01986999242423793,-0.08121144778811291, ,0.0011917075033361225, ,0.004238364101570947,0.006958623311699206,-0.008884781534753259,-0.1891422327917936,-0.23155904871576924,-0.045384247379571425, ,0.012055103134021765, ,0.2989889248989872, ,0.0006393378935526875, ,0.139140478194903,-0.22672399172148316,0.09006234033,-4.537690377005107,0.1530328797372933,-1.3854177274694295, ,0.007812765862055385,-0.060909461847542215,0.010350104951267057,0.000638277240770811,-0.2630819976680872,0.21452572870912334, ,0.022845983505249023
0.009918404782019401,0.018995015330408704,-0.080669958084659, ,0.010359413496625896,0.02000878372538972,-0.081271609806047, ,0.0012586500065031579, ,0.004238364101570947,0.006958623311699206,-0.008884781534753259,-0.1891422327917936,-0.23155904871576924,-0.045384247379571425, ,0.012055103134021765, ,0.2989889248989872, ,0.0007012691048477345, ,0.139140478194903,-0.22672399172148316,0.09006234033,-4.537690377005107,0.1530328797372933,-1.3854177274694295, ,0.007812765862055385,-0.060909461847542215,0.010350104951267057,0.000638277240770811,-0.2630819976680872,0.21452572870912334, ,0.025784015655517578
0.009918404782019401,0.018995015330408704,-0.080669958084659, ,0.010386061868899796,0.020147217992018424,-0.08133175577742716, ,0.0014086342003810754, ,0.004238364101570947,0.006958623311699206,-0.008884781534753259,-0.1891422327917936,-0.23155904871576924,-0.045384247379571425, ,0.012055103134021765, ,0.2989889248989872, ,0.0007655750226234927, ,0.139140478194903,-0.22672399172148316,0.09006234033,-4.537690377005107,0.1530328797372933,-1.3854177274694295, ,0.007812765862055385,-0.060909461847542215,0.010350104951267057,0.000638277240770811,-0.2630819976680872,0.21452572870912334, ,0.029284954071044922
0.009918404782019401,0.018995015330408704,-0.080669958084659, ,0.010412752494237551,0.020285296087408224,-0.08139188685385668, ,0.001558969287784029, ,0.004238364101570947,0.006958623311699206,-0.008884781534753259,-0.1891422327917936,-0.23155904871576924,-0.045384247379571425, ,0.012055103134021765, ,0.2989889248989872, ,0.0008316912113868709, ,0.139140478194903,-0.22672399172148316,0.09006234033,-4.537690377005107,0.1530328797372933,-1.3854177274694295, ,0.007812765862055385,-0.060909461847542215,0.010350104951267057,0.000638277240770811,-0.2630819976680872,0.21452572870912334, ,0.03223586082458496
0.009965303965724369,0.019072898045144684,-0.08079262334901843, ,0.010439485509439175,0.020423018871614955,-0.08145200418167625, ,0.0015755816275093593, ,0.0072929796612815675,0.01324605253900648,-0.023378728754612128,-0.26115878442590995,-0.2885556325384552,-0.09039466610853784, ,0.027842600783470544, ,0.3891892300263243, ,0.0008889135510886007, ,0.13921770552364524,-0.22732636488567268,0.09020104336000001,-4.537061307174653,0.15043678624174994,-1.3829740723386352, ,0.011608188569843518,-0.09508711579005087,0.026070067954173493,0.036704999200287185,-0.3413967688323978,0.3150465097330808, ,0.03501105308532715
0.009965303965724369,0.019072898045144684,-0.08079262334901843, ,0.010466261050978387,0.02056038720147327,-0.08151210890197264, ,0.0017266271897462835, ,0.0072929796612815675,0.01324605253900648,-0.023378728754612128,-0.26115878442590995,-0.2885556325384552,-0.09039466610853784, ,0.027842600783470544, ,0.3891892300263243, ,0.0009487502395641495, ,0.13921770552364524,-0.22732636488567268,0.09020104336000001,-4.537061307174653,0.15043678624174994,-1.3829740723386352, ,0.011608188569843518,-0.09508711579005087,0.026070067954173493,0.036704999200287185,-0.3413967688323978,0.3150465097330808, ,0.0378718376159668
0.009965303965724369,0.019072898045144684,-0.08079262334901843, ,0.01049307925500244,0.020697401930604375,-0.0815722021505863, ,0.0018775789564490176, ,0.0072929796612815675,0.01324605253900648,-0.023378728754612128,-0.26115878442590995,-0.2885556325384552,-0.09039466610853784, ,0.027842600783470544, ,0.3891892300263243, ,0.0010106721540231408, ,0.13921770552364524,-0.22732636488567268,0.09020104336000001,-4.537061307174653,0.15043678624174994,-1.3829740723386352, ,0.011608188569843518,-0.09508711579005087,0.026070067954173493,0.036704999200287185,-0.3413967688323978,0.3150465097330808, ,0.04076790809631348
0.010058325544216167,0.019248887461866652,-0.08114065206582838, ,0.010519940257332081,0.020834063909423235,-0.08163228505811998, ,0.0017226652351408237, ,0.007685087546010459,0.016573367815917714,-0.03274733829887526,-0.1523382118177997,-0.16052907731155444,-0.08080282307558655, ,0.03749833672328047, ,0.2213062985600917, ,0.001055171721592996, ,0.1393953283797524,-0.22845388388530943,0.09058474520000001,-4.536012857457231,0.14715751024737936,-1.379401576508375, ,0.015714015823558664,-0.10474276110206487,0.03611975401360545,0.05944802087904866,-0.19880469054873043,0.23817701221874987, ,0.043623924255371094
0.010058325544216167,0.019248887461866652,-0.08114065206582838, ,0.010546844193461484,0.020970373985146132,-0.08169235874994778, ,0.0018725775246422678, ,0.007685087546010459,0.016573367815917714,-0.03274733829887526,-0.1523382118177997,-0.16052907731155444,-0.08080282307558655, ,0.03749833672328047, ,0.2213062985600917, ,0.001103254415890012, ,0.1393953283797524,-0.22845388388530943,0.09058474520000001,-4.536012857457231,0.14715751024737936,-1.379401576508375, ,0.015714015823558664,-0.10474276110206487,0.03611975401360545,0.05944802087904866,-0.19880469054873043,0.23817701221874987, ,0.04657101631164551
0.010058325544216167,0.019248887461866652,-0.08114065206582838, ,0.010573791198558228,0.02110633300179774,-0.08175242434622268, ,0.002022393161003821, ,0.007685087546010459,0.016573367815917714,-0.03274733829887526,-0.1523382118177997,-0.16052907731155444,-0.08080282307558655, ,0.03749833672328047, ,0.2213062985600917, ,0.001154317679507446, ,0.1393953283797524,-0.22845388388530943,0.09058474520000001,-4.536012857457231,0.14715751024737936,-1.379401576508375, ,0.015714015823558664,-0.10474276110206487,0.03611975401360545,0.05944802087904866,-0.19880469054873043,0.23817701221874987, ,0.049685001373291016
0.010138567828751237,0.019464197935624483,-0.08148405412998663, ,0.01060078140746323,0.021241941800219162,-0.08181248296188529, ,0.001865979672470224, ,0.007685087546010459,0.016573367815917714,-0.03274733829887526,-0.1523382118177997,-0.16052907731155444,-0.08080282307558655, ,0.03749833672328047, ,0.2213062985600917, ,0.001191773573873908, ,0.13960384216735647,-0.23002159865877703,0.09097363220000002,-4.535593477570262,0.14551787225019408,-1.3759409144203634, ,0.022344464694718808,-0.18680500306785586,0.04305084194594595,0.015562481345584533,-0.1358570947566565,0.3778018366366961, ,0.05295085906982422
0.010138567828751237,0.019464197935624483,-0.08148405412998663, ,0.010627814954690595,0.021377201218074453,-0.08187253570667237, ,0.0020124269537870228, ,0.008374175547720006,0.02500385052313412,-0.037730700509767005,-0.20623247023757704,-0.09749096820603355,-0.006074124792554105, ,0.046031783780829075, ,0.22811454183149282, ,0.0012328062428695638, ,0.13960384216735647,-0.23002159865877703,0.09097363220000002,-4.535593477570262,0.14551787225019408,-1.3759409144203634, ,0.022344464694718808,-0.18680500306785586,0.04305084194594595,0.015562481345584533,-0.1358570947566565,0.3778018366366961, ,0.05585289001464844
0.010138567828751237,0.019464197935624483,-0.08148405412998663, ,0.010654891974427696,0.021512112089859012,-0.08193258368512478, ,0.002159102074556707, ,0.008374175547720006,0.02500385052313412,-0.037730700509767005,-0.20623247023757704,-0.09749096820603355,-0.006074124792554105, ,0.046031783780829075, ,0.22811454183149282, ,0.001276915568187999, ,0.13960384216735647,-0.23002159865877703,0.09097363220000002,-4.535593477570262,0.14551787225019408,-1.3759409144203634, ,0.022344464694718808,-0.18680500306785586,0.04305084194594595,0.015562481345584533,-0.1358570947566565,0.3778018366366961, ,0.05880403518676758
0.010138567828751237,0.019464197935624483,-0.08148405412998663, ,0.010682012600535059,0.021646675246906222,-0.08199262799659632, ,0.0023059026024611407, ,0.008374175547720006,0.02500385052313412,-0.037730700509767005,-0.20623247023757704,-0.09749096820603355,-0.006074124792554105, ,0.046031783780829075, ,0.22811454183149282, ,0.0013236877061095055, ,0.13960384216735647,-0.23002159865877703,0.09097363220000002,-4.535593477570262,0.14551787225019408,-1.3759409144203634, ,0.022344464694718808,-0.18680500306785586,0.04305084194594595,0.015562481345584533,-0.1358570947566565,0.3778018366366961, ,0.06179404258728027
0.010223967865153326,0.01972269721143566,-0.08188635997300203, ,0.010709176966546215,0.02178089151739517,-0.08205266973526171, ,0.0021211437033311774, ,0.008167601294229,0.02676659404643823,-0.03918827775107565,-0.12609917123994807,0.023153052907469517,-0.10756908542143831, ,0.04815476488203182, ,0.1282067565425552, ,0.0013583597059887086, ,0.13960384216735647,-0.23002159865877703,0.09097363220000002,-4.535593477570262,0.14551787225019408,-1.3759409144203634, ,0.022344464694718808,-0.18680500306785586,0.04305084194594595,0.015562481345584533,-0.1358570947566565,0.3778018366366961, ,0.06481790542602539
0.010223967865153326,0.01972269721143566,-0.08188635997300203, ,0.01073638520566777,0.021914761726358065,-0.08211270999012533, ,0.002262510264881379, ,0.008167601294229,0.02676659404643823,-0.03918827775107565,-0.12609917123994807,0.023153052907469517,-0.10756908542143831, ,0.04815476488203182, ,0.1282067565425552, ,0.0013960326459425698, ,0.13985869235220588,-0.23188277728146514,0.09143122257000001,-4.534335337909355,0.14469805325160143,-1.3719235786524218, ,0.028092641077107988,-0.19729093879099954,0.04499664271186441,0.14744673656663382,-0.03074574301488413,0.3405968279046021, ,0.06761693954467773
0.010223967865153326,0.01972269721143566,-0.08188635997300203, ,0.010763637450779257,0.022048286695687657,-0.08217274984502904, ,0.002404501792412052, ,0.008167601294229,0.02676659404643823,-0.03918827775107565,-0.12609917123994807,0.023153052907469517,-0.10756908542143831, ,0.04815476488203182, ,0.1282067565425552, ,0.001436371411801349, ,0.13985869235220588,-0.23188277728146514,0.09143122257000001,-4.534335337909355,0.14469805325160143,-1.3719235786524218, ,0.028092641077107988,-0.19729093879099954,0.04499664271186441,0.14744673656663382,-0.03074574301488413,0.3405968279046021, ,0.0704350471496582
0.010312274373450461,0.020036308049721282,-0.08227762027074137, ,0.01079093383443313,0.02218146724414453,-0.08223279037866135, ,0.0021983704347153885, ,0.008631149453551652,0.03162815761520261,-0.03357697249609857,0.10742836138190538,-0.013196661069018109,-0.053677527048097876, ,0.0469281384355421, ,0.10823567810207728, ,0.001465679066528812, ,0.1402525517287913,-0.23436949726696543,0.09189270181,-4.533286888191932,0.14469805325160143,-1.3695548951883452, ,0.04455255472228675,-0.26581776346910585,0.040843106461538464,0.09790483482111591,-0.015308194109554345,0.16865317796069101, ,0.07337784767150879
0.010312274373450461,0.020036308049721282,-0.08227762027074137, ,0.010818274488854605,0.022314304187364513,-0.08229283266456508, ,0.002333566784309447, ,0.008631149453551652,0.03162815761520261,-0.03357697249609857,0.10742836138190538,-0.013196661069018109,-0.053677527048097876, ,0.0469281384355421, ,0.10823567810207728, ,0.001497823056076243, ,0.1402525517287913,-0.23436949726696543,0.09189270181,-4.533286888191932,0.14469805325160143,-1.3695548951883452, ,0.04455255472228675,-0.26581776346910585,0.040843106461538464,0.09790483482111591,-0.015308194109554345,0.16865317796069101, ,0.07833695411682129
0.010312274373450461,0.020036308049721282,-0.08227762027074137, ,0.010845659545941737,0.022446798337866263,-0.08235287777114596, ,0.0024699447084584646, ,0.008631149453551652,0.03162815761520261,-0.03357697249609857,0.10742836138190538,-0.013196661069018109,-0.053677527048097876, ,0.0469281384355421, ,0.10823567810207728, ,0.0015325416865184652, ,0.1402525517287913,-0.23436949726696543,0.09189270181,-4.533286888191932,0.14469805325160143,-1.3695548951883452, ,0.04455255472228675,-0.26581776346910585,0.040843106461538464,0.09790483482111591,-0.015308194109554345,0.16865317796069101, ,0.0814828872680664
0.01040378828843965,0.02036247877231605,-0.08257470030668505, ,0.010873089137265207,0.02257895050505856,-0.08241292676168127, ,0.0022713786361190564, ,0.009619995577865893,0.033870538528901026,-0.026583020190387868,-0.011719723667161527,-0.16919938832472628,-0.0435638542031006, ,0.044118189645524865, ,0.1696047512827727, ,0.0015580188227115892, ,0.140723638434119,-0.23725007662905115,0.09226603333000001,-4.532448128417994,0.1436049612534779,-1.367356692116525, ,0.05007754171950965,-0.31113751330646156,0.03462785113043479,0.05586379288512665,-0.1823644978111219,0.3042060112404127, ,0.0843648910522461
0.01040378828843965,0.02036247877231605,-0.08257470030668505, ,0.010900563394068382,0.02271076149524751,-0.08247298069432765, ,0.002402407986152427, ,0.009619995577865893,0.033870538528901026,-0.026583020190387868,-0.011719723667161527,-0.16919938832472628,-0.0435638542031006, ,0.044118189645524865, ,0.1696047512827727, ,0.0015861651281596169, ,0.140723638434119,-0.23725007662905115,0.09226603333000001,-4.532448128417994,0.1436049612534779,-1.367356692116525, ,0.05007754171950965,-0.31113751330646156,0.03462785113043479,0.05586379288512665,-0.1823644978111219,0.3042060112404127, ,0.08720898628234863
0.01040378828843965,0.02036247877231605,-0.08257470030668505, ,0.010928082447267172,0.02284223211164436,-0.08253304062213047, ,0.0025349154854171665, ,0.009619995577865893,0.033870538528901026,-0.026583020190387868,-0.011719723667161527,-0.16919938832472628,-0.0435638542031006, ,0.044118189645524865, ,0.1696047512827727, ,0.0016167699783937314, ,0.140723638434119,-0.23725007662905115,0.09226603333000001,-4.532448128417994,0.1436049612534779,-1.367356692116525, ,0.05007754171950965,-0.31113751330646156,0.03462785113043479,0.05586379288512665,-0.1823644978111219,0.3042060112404127, ,0.0900578498840332
0.01040378828843965,0.02036247877231605,-0.08257470030668505, ,0.01095564642745001,0.022973363154372584,-0.08259310759303053, ,0.002668633262598911, ,0.009619995577865893,0.033870538528901026,-0.026583020190387868,-0.011719723667161527,-0.16919938832472628,-0.0435638542031006, ,0.044118189645524865, ,0.1696047512827727, ,0.0016496407060251433, ,0.140723638434119,-0.23725007662905115,0.09226603333000001,-4.532448128417994,0.1436049612534779,-1.367356692116525, ,0.05007754171950965,-0.31113751330646156,0.03462785113043479,0.05586379288512665,-0.1823644978111219,0.3042060112404127, ,0.09321784973144531
0.010492420952987603,0.020699625905840346,-0.08277910826648766, ,0.010983255464877743,0.02310415542047546,-0.08265318264987424, ,0.0024573436808336927, ,0.008746170941958249,0.03682408672067928,-0.018771375793057883,-0.1612582385025328,-0.11511691974458957,0.007623427677531039, ,0.04224776228538338, ,0.198131578416348, ,0.0016741165537466145, ,0.1412565070024405,-0.24050134716909968,0.09255251342000001,-4.532028748531025,0.14196532325629263,-1.3631609213672484, ,0.056926779579166635,-0.3635898144002712,0.027847572587412592,0.028914175602648445,-0.14217849351408954,0.50998337001604, ,0.09615492820739746
0.010492420952987603,0.020699625905840346,-0.08277910826648766, ,0.011010909689483598,0.023234609703923388,-0.08271326683042103, ,0.0025883022468637727, ,0.008746170941958249,0.03682408672067928,-0.018771375793057883,-0.1612582385025328,-0.11511691974458957,0.007623427677531039, ,0.04224776228538338, ,0.198131578416348, ,0.0017010043682500603, ,0.1412565070024405,-0.24050134716909968,0.09255251342000001,-4.532028748531025,0.14196532325629263,-1.3631609213672484, ,0.056926779579166635,-0.3635898144002712,0.027847572587412592,0.028914175602648445,-0.14217849351408954,0.50998337001604, ,0.09918999671936035
0.010492420952987603,0.020699625905840346,-0.08277910826648766, ,0.011038609230873103,0.023364726795621217,-0.08277336116735136, ,0.0027204994792792737, ,0.008746170941958249,0.03682408672067928,-0.018771375793057883,-0.1612582385025328,-0.11511691974458957,0.007623427677531039, ,0.04224776228538338, ,0.198131578416348, ,0.0017301327999937523, ,0.1412565070024405,-0.24050134716909968,0.09255251342000001,-4.532028748531025,0.14196532325629263,-1.3631609213672484, ,0.056926779579166635,-0.3635898144002712,0.027847572587412592,0.028914175602648445,-0.14217849351408954,0.50998337001604, ,0.10219693183898926
0.010571870903554463,0.02109537666436536,-0.08293517967082815, ,0.011066354218324033,0.02349450748341591,-0.08283346668827629, ,0.0024516704440693603, ,0.007436099254282994,0.04077689534670697,-0.013212160961623157,-0.22994674266216183,0.04993091171559136,-0.005730302196545921, ,0.0435041603011905, ,0.23530533356278352, ,0.0017501755123291857, ,0.14187432563237848,-0.244501722797948,0.09280788255000001,-4.531189988757087,0.14141877725723084,-1.3568343804623422, ,0.06544616659204881,-0.41804820069810916,0.023598239288888892,0.0954565063019963,0.0,0.663882305043247, ,0.10504984855651855
0.010571870903554463,0.02109537666436536,-0.08293517967082815, ,0.011094144780786335,0.023623952552103727,-0.08289358441574457, ,0.002582285071043891, ,0.007436099254282994,0.04077689534670697,-0.013212160961623157,-0.22994674266216183,0.04993091171559136,-0.005730302196545921, ,0.0435041603011905, ,0.23530533356278352, ,0.0017726649598620158, ,0.14187432563237848,-0.244501722797948,0.09280788255000001,-4.531189988757087,0.14141877725723084,-1.3568343804623422, ,0.06544616659204881,-0.41804820069810916,0.023598239288888892,0.0954565063019963,0.0,0.663882305043247, ,0.10784387588500977
0.010571870903554463,0.02109537666436536,-0.08293517967082815, ,0.011121981046882046,0.02375306278343763,-0.0829537153672521, ,0.002714085527271245, ,0.007436099254282994,0.04077689534670697,-0.013212160961623157,-0.22994674266216183,0.04993091171559136,-0.005730302196545921, ,0.0435041603011905, ,0.23530533356278352, ,0.0017974391853201534, ,0.14187432563237848,-0.244501722797948,0.09280788255000001,-4.531189988757087,0.14141877725723084,-1.3568343804623422, ,0.06544616659204881,-0.41804820069810916,0.023598239288888892,0.0954565063019963,0.0,0.663882305043247, ,0.11076784133911133
0.010631183076331345,0.02146461815013599,-0.08303585556909528, ,0.011149863144905237,0.023881838956134795,-0.08301386055524926, ,0.002472340837975907, ,0.007436099254282994,0.04077689534670697,-0.013212160961623157,-0.22994674266216183,0.04993091171559136,-0.005730302196545921, ,0.0435041603011905, ,0.23530533356278352, ,0.00181474435590107, ,0.14246125333081952,-0.2483244755706891,0.09300362234000001,-4.5303512289831485,0.14196532325629263,-1.3531144363299592, ,0.06706497636641044,-0.4606647648469455,0.022594058893617024,0.09066905811269393,0.075596680999543,0.2792374328280538, ,0.1136159896850586
0.010631183076331345,0.02146461815013599,-0.08303585556909528, ,0.01117779120282197,0.024010281845884038,-0.08307402098714994, ,0.0026039663390548043, ,0.006610686661401655,0.04431963841033633,-0.011119078954618666,0.20313830564160545,0.06608439548190902,0.009924315999204094, ,0.04616887960257685, ,0.213617223966591, ,0.001834474905479913, ,0.14246125333081952,-0.2483244755706891,0.09300362234000001,-4.5303512289831485,0.14196532325629263,-1.3531144363299592, ,0.06706497636641044,-0.4606647648469455,0.022594058893617024,0.09066905811269393,0.075596680999543,0.2792374328280538, ,0.11662483215332031
0.010631183076331345,0.02146461815013599,-0.08303585556909528, ,0.01120576534827022,0.024138392225353092,-0.08313419766534048, ,0.0027365824965499214, ,0.006610686661401655,0.04431963841033633,-0.011119078954618666,0.20313830564160545,0.06608439548190902,0.009924315999204094, ,0.04616887960257685, ,0.213617223966591, ,0.0018564775296523524, ,0.14246125333081952,-0.2483244755706891,0.09300362234000001,-4.5303512289831485,0.14196532325629263,-1.3531144363299592, ,0.06706497636641044,-0.4606647648469455,0.022594058893617024,0.09066905811269393,0.075596680999543,0.2792374328280538, ,0.11946702003479004
0.010631183076331345,0.02146461815013599,-0.08303585556909528, ,0.01123378570855975,0.024266170864196045,-0.08319439158718615, ,0.002870010663927569, ,0.006610686661401655,0.04431963841033633,-0.011119078954618666,0.20313830564160545,0.06608439548190902,0.009924315999204094, ,0.04616887960257685, ,0.213617223966591, ,0.0018806092709446197, ,0.14246125333081952,-0.2483244755706891,0.09300362234000001,-4.5303512289831485,0.14196532325629263,-1.3531144363299592, ,0.06706497636641044,-0.4606647648469455,0.022594058893617024,0.09066905811269393,0.075596680999543,0.2792374328280538, ,0.12237787246704102
0.010631183076331345,0.02146461815013599,-0.08303585556909528, ,0.01126185241067209,0.024393618529060874,-0.0832546037450416, ,0.003004103492474875, ,0.006610686661401655,0.04431963841033633,-0.011119078954618666,0.20313830564160545,0.06608439548190902,0.009924315999204094, ,0.04616887960257685, ,0.213617223966591, ,0.0019067370435383465, ,0.14330303121411,-0.2539852387674957,0.09328362098000001,-4.529722159152695,0.1422385962558235,-1.3506418737127135, ,0.07092447052202598,-0.5021002198860888,0.02686140222596965,0.04939405925968784,-0.02648287141798954,0.21243263497832593, ,0.12539196014404297
0.010735218841537832,0.02209264365980356,-0.08319801881331994, ,0.011289965581260566,0.024520735983596567,-0.08331483512625776, ,0.0024933957425695404, ,0.008495895060108623,0.049823232668359856,-0.014634808800838296,0.2232262449803554,-0.042918884314890965,0.02797743130589127, ,0.05261855542520141, ,0.22731472985166593, ,0.0019200701957890554, ,0.14330303121411,-0.2539852387674957,0.09328362098000001,-4.529722159152695,0.1422385962558235,-1.3506418737127135, ,0.07092447052202598,-0.5021002198860888,0.02686140222596965,0.04939405925968784,-0.02648287141798954,0.21243263497832593, ,0.1282520294189453
0.010735218841537832,0.02209264365980356,-0.08319801881331994, ,0.011318125346649964,0.02464752398846093,-0.08337508671319104, ,0.002626508429194009, ,0.008495895060108623,0.049823232668359856,-0.014634808800838296,0.2232262449803554,-0.042918884314890965,0.02797743130589127, ,0.05261855542520141, ,0.22731472985166593, ,0.0019357688231980545, ,0.14330303121411,-0.2539852387674957,0.09328362098000001,-4.529722159152695,0.1422385962558235,-1.3506418737127135, ,0.07092447052202598,-0.5021002198860888,0.02686140222596965,0.04939405925968784,-0.02648287141798954,0.21243263497832593, ,0.131058931350708
0.010812541760809235,0.022532721529288938,-0.08333411838488539, ,0.011346331832836778,0.024773983301327577,-0.08343535948321124, ,0.0023061734392250672, ,0.008495895060108623,0.049823232668359856,-0.014634808800838296,0.2232262449803554,-0.042918884314890965,0.02797743130589127, ,0.05261855542520141, ,0.22731472985166593, ,0.0019438210974595113, ,0.14407530450153244,-0.25930620171783636,0.09358306397,-4.528883399378757,0.14182868675652718,-1.3474488640967046, ,0.0779761228911017,-0.536140912759722,0.031985565301204825,0.08336860697613657,-0.04151039923717636,0.3514925724843339, ,0.13407301902770996
0.010812541760809235,0.022532721529288938,-0.08333411838488539, ,0.011374585165488922,0.02490011467689374,-0.08349565440871025, ,0.002438552232588684, ,0.009591758877952704,0.053299416937879464,-0.017783235332784905,0.1883529610130903,-0.047415094366539144,0.0003041110796627633, ,0.05700064160333554, ,0.19422931631884638, ,0.0019543472918239616, ,0.14407530450153244,-0.25930620171783636,0.09358306397,-4.528883399378757,0.14182868675652718,-1.3474488640967046, ,0.0779761228911017,-0.536140912759722,0.031985565301204825,0.08336860697613657,-0.04151039923717636,0.3514925724843339, ,0.13710999488830566
0.010812541760809235,0.022532721529288938,-0.08333411838488539, ,0.011402885469945756,0.025025918866887167,-0.08355597245711019, ,0.0025717227472040398, ,0.009591758877952704,0.053299416937879464,-0.017783235332784905,0.1883529610130903,-0.047415094366539144,0.0003041110796627633, ,0.05700064160333554, ,0.19422931631884638, ,0.0019672092804777132, ,0.14407530450153244,-0.25930620171783636,0.09358306397,-4.528883399378757,0.14182868675652718,-1.3474488640967046, ,0.0779761228911017,-0.536140912759722,0.031985565301204825,0.08336860697613657,-0.04151039923717636,0.3514925724843339, ,0.1399989128112793
0.010812541760809235,0.022532721529288938,-0.08333411838488539, ,0.011431232871217983,0.025151396620074075,-0.08361631459087193, ,0.0027055263110660295, ,0.009591758877952704,0.053299416937879464,-0.017783235332784905,0.1883529610130903,-0.047415094366539144,0.0003041110796627633, ,0.05700064160333554, ,0.19422931631884638, ,0.001982276974979516, ,0.14407530450153244,-0.25930620171783636,0.09358306397,-4.528883399378757,0.14182868675652718,-1.3474488640967046, ,0.0779761228911017,-0.536140912759722,0.031985565301204825,0.08336860697613657,-0.04151039923717636,0.3514925724843339, ,0.14287805557250977
0.010911491866903945,0.02306453100718203,-0.08352156492457777, ,0.011459627493987566,0.02527654868226625,-0.08367668176750304, ,0.0022841926572691853, ,0.01071774028896755,0.05591029980069569,-0.02053576368380176,0.30091235779103587,-0.049238493499156946,-0.02747906568105938, ,0.06051899842844709, ,0.30491420541068454, ,0.001988315288625309, ,0.144886191453326,-0.26459627373668015,0.09391361792000001,-4.52762525971785,0.1415554137569963,-1.3444489511245326, ,0.08730169416602647,-0.5517264044097138,0.03571482403587444,0.11474339483053585,-0.02943209534488073,0.25949541043316876, ,0.14576506614685059
0.010911491866903945,0.02306453100718203,-0.08352156492457777, ,0.011488069462607758,0.025401375796328375,-0.08373707493956668, ,0.002416553301499585, ,0.01071774028896755,0.05591029980069569,-0.02053576368380176,0.30091235779103587,-0.049238493499156946,-0.02747906568105938, ,0.06051899842844709, ,0.30491420541068454, ,0.0019967121124071577, ,0.144886191453326,-0.26459627373668015,0.09391361792000001,-4.52762525971785,0.1415554137569963,-1.3444489511245326, ,0.08730169416602647,-0.5517264044097138,0.03571482403587444,0.11474339483053585,-0.02943209534488073,0.25949541043316876, ,0.14870691299438477
0.010911491866903945,0.02306453100718203,-0.08352156492457777, ,0.011516558901102859,0.025525878702185645,-0.08379749505468989, ,0.0025496031119132206, ,0.01071774028896755,0.05591029980069569,-0.02053576368380176,0.30091235779103587,-0.049238493499156946,-0.02747906568105938, ,0.06051899842844709, ,0.30491420541068454, ,0.0020073446316284283, ,0.144886191453326,-0.26459627373668015,0.09391361792000001,-4.52762525971785,0.1415554137569963,-1.3444489511245326, ,0.08730169416602647,-0.5517264044097138,0.03571482403587444,0.11474339483053585,-0.02943209534488073,0.25949541043316876, ,0.15163302421569824
0.011031233287447588,0.023640937851845796,-0.0837407764073651, ,0.011545095933168303,0.025650058136831137,-0.08385794305557179, ,0.002077100662379813, ,0.01236810359610109,0.057580414055506846,-0.021196780125198593,0.1936851733517062,-0.13669724488613186,0.028461615307216165, ,0.06259215251965307, ,0.237065558140926, ,0.0020086607831520395, ,0.14581291939823296,-0.27025703693348674,0.09429083831000001,-4.5272058798308805,0.14059895825863825,-1.340973627374019, ,0.09653808907270679,-0.5648627473718498,0.03739157633802818,0.041803024302830886,-0.10523855398353366,0.3573548119073727, ,0.15448999404907227
0.011031233287447588,0.023640937851845796,-0.0837407764073651, ,0.011573680682170516,0.025773914834333018,-0.08391841987999173, ,0.0022080301599454732, ,0.01236810359610109,0.057580414055506846,-0.021196780125198593,0.1936851733517062,-0.13669724488613186,0.028461615307216165, ,0.06259215251965307, ,0.237065558140926, ,0.002012352808648214, ,0.14581291939823296,-0.27025703693348674,0.09429083831000001,-4.5272058798308805,0.14059895825863825,-1.340973627374019, ,0.09653808907270679,-0.5648627473718498,0.03739157633802818,0.041803024302830886,-0.10523855398353366,0.3573548119073727, ,0.15743589401245117
0.011031233287447588,0.023640937851845796,-0.0837407764073651, ,0.011602313271146844,0.02589744952584222,-0.083978926460818, ,0.0023398061309911353, ,0.01236810359610109,0.057580414055506846,-0.021196780125198593,0.1936851733517062,-0.13669724488613186,0.028461615307216165, ,0.06259215251965307, ,0.237065558140926, ,0.0020183065054180855, ,0.14581291939823296,-0.27025703693348674,0.09429083831000001,-4.5272058798308805,0.14059895825863825,-1.340973627374019, ,0.09653808907270679,-0.5648627473718498,0.03739157633802818,0.041803024302830886,-0.10523855398353366,0.3573548119073727, ,0.16044306755065918
0.011031233287447588,0.023640937851845796,-0.0837407764073651, ,0.011630993822805535,0.026020662939599704,-0.08403946372601617, ,0.0024722496450361076, ,0.01236810359610109,0.057580414055506846,-0.021196780125198593,0.1936851733517062,-0.13669724488613186,0.028461615307216165, ,0.06259215251965307, ,0.237065558140926, ,0.002026412632911264, ,0.14684004287050484,-0.27615720484939427,0.09467972531,-4.5272058798308805,0.13964250276028015,-1.3372532674030837, ,0.09926458322015773,-0.5682451590327592,0.037043747720930234,0.023610755102870425,-0.06566242824224607,0.3462950643109921, ,0.16370701789855957
0.011159974515364789,0.024243661891634974,-0.08396043466446453, ,0.011659722459525597,0.026143555800943716,-0.08410003259865752, ,0.0019694751731241405, ,0.012128996678646751,0.05817115902176186,-0.020535409808217216,0.21333023017564579,-0.10731430273345424,0.055082090004953635, ,0.06287049672427564, ,0.23880147199311472, ,0.0020254137301079812, ,0.14684004287050484,-0.27615720484939427,0.09467972531,-4.5272058798308805,0.13964250276028015,-1.3372532674030837, ,0.09926458322015773,-0.5682451590327592,0.037043747720930234,0.023610755102870425,-0.06566242824224607,0.3462950643109921, ,0.16675186157226562
0.011159974515364789,0.024243661891634974,-0.08396043466446453, ,0.011688499303356775,0.02626612883231758,-0.08416063399692665, ,0.0020999501780743068, ,0.012128996678646751,0.05817115902176186,-0.020535409808217216,0.21333023017564579,-0.10731430273345424,0.055082090004953635, ,0.06287049672427564, ,0.23880147199311472, ,0.0020266988412798144, ,0.14684004287050484,-0.27615720484939427,0.09467972531,-4.5272058798308805,0.13964250276028015,-1.3372532674030837, ,0.09926458322015773,-0.5682451590327592,0.037043747720930234,0.023610755102870425,-0.06566242824224607,0.3462950643109921, ,0.16956496238708496
0.011159974515364789,0.024243661891634974,-0.08396043466446453, ,0.011717324476019447,0.026388382753276752,-0.08422126883413132, ,0.002231255480008725, ,0.012128996678646751,0.05817115902176186,-0.020535409808217216,0.21333023017564579,-0.10731430273345424,0.055082090004953635, ,0.06287049672427564, ,0.23880147199311472, ,0.002030165902953186, ,0.14684004287050484,-0.27615720484939427,0.09467972531,-4.5272058798308805,0.13964250276028015,-1.3372532674030837, ,0.09926458322015773,-0.5682451590327592,0.037043747720930234,0.023610755102870425,-0.06566242824224607,0.3462950643109921, ,0.1724839210510254
0.011275797530418198,0.024823725855311195,-0.08414762392434942, ,0.011746198098904611,0.026510318280496183,-0.08428193801870928, ,0.0017561067676731483, ,0.011565620778803787,0.05776439620157444,-0.017366860087864117,0.2120858288638748,-0.064812781176877,0.050778995715534174, ,0.06141739885279263, ,0.22176810823232104, ,0.002025598250698519, ,0.14783627541127978,-0.2818411362448235,0.09503361248000002,-4.526367120056943,0.13936922976074928,-1.3338449607302092, ,0.10193011982649922,-0.5682451590327592,0.034181998969957085,0.041536066657227234,-0.024689707960215482,0.35595944263855217, ,0.17528390884399414
0.011275797530418198,0.024823725855311195,-0.08414762392434942, ,0.011775120293073746,0.0266319361277783,-0.08434264245423778, ,0.0018859957152022775, ,0.011565620778803787,0.05776439620157444,-0.017366860087864117,0.2120858288638748,-0.064812781176877,0.050778995715534174, ,0.06141739885279263, ,0.22176810823232104, ,0.0020233096845428426, ,0.14783627541127978,-0.2818411362448235,0.09503361248000002,-4.526367120056943,0.13936922976074928,-1.3338449607302092, ,0.10193011982649922,-0.5682451590327592,0.034181998969957085,0.041536066657227234,-0.024689707960215482,0.35595944263855217, ,0.17806196212768555
0.011275797530418198,0.024823725855311195,-0.08414762392434942, ,0.011804091179258788,0.026753237006059576,-0.0844033830394407, ,0.002016809407261856, ,0.011565620778803787,0.05776439620157444,-0.017366860087864117,0.2120858288638748,-0.064812781176877,0.050778995715534174, ,0.06141739885279263, ,0.22176810823232104, ,0.002023204841360891, ,0.14783627541127978,-0.2818411362448235,0.09503361248000002,-4.526367120056943,0.13936922976074928,-1.3338449607302092, ,0.10193011982649922,-0.5682451590327592,0.034181998969957085,0.041536066657227234,-0.024689707960215482,0.35595944263855217, ,0.18096685409545898
0.011275797530418198,0.024823725855311195,-0.08414762392434942, ,0.011833110877862024,0.026874221623418477,-0.08446416066819833, ,0.00214833111332294, ,0.011565620778803787,0.05776439620157444,-0.017366860087864117,0.2120858288638748,-0.064812781176877,0.050778995715534174, ,0.06141739885279263, ,0.22176810823232104, ,0.002025190972661876, ,0.1485081531713373,-0.2855634934901997,0.09524879662,-4.525738050226489,0.1392325932609838,-1.3299763207800468, ,0.10225963530007626,-0.5682451590327592,0.031794034970059885,0.11956080809780403,0.0,0.4017818751945398, ,0.18396592140197754
0.011350466786000503,0.02520074341662589,-0.08425206771855812, ,0.011862179508956055,0.02699489068508283,-0.08452497622955527, ,0.0018855485639783366, ,0.011032133893596889,0.0574019866484864,-0.014801892138886679,0.18129139746793652,-0.013440027610244775,-0.013744150694093836, ,0.06029752947120218, ,0.18178890072692927, ,0.0020230090600261955, ,0.1485081531713373,-0.2855634934901997,0.09524879662,-4.525738050226489,0.1392325932609838,-1.3299763207800468, ,0.10225963530007626,-0.5682451590327592,0.031794034970059885,0.11956080809780403,0.0,0.4017818751945398, ,0.1874089241027832
0.011350466786000503,0.02520074341662589,-0.08425206771855812, ,0.011891297192283747,0.027115244893437005,-0.08458583060772774, ,0.0020172285689180817, ,0.011032133893596889,0.0574019866484864,-0.014801892138886679,0.18129139746793652,-0.013440027610244775,-0.013744150694093836, ,0.06029752947120218, ,0.18178890072692927, ,0.002022920129393763, ,0.1485081531713373,-0.2855634934901997,0.09524879662,-4.525738050226489,0.1392325932609838,-1.3299763207800468, ,0.10225963530007626,-0.5682451590327592,0.031794034970059885,0.11956080809780403,0.0,0.4017818751945398, ,0.19024896621704102
0.011350466786000503,0.02520074341662589,-0.08425206771855812, ,0.011920464047258017,0.027235284948029556,-0.08464672468211348, ,0.002149420907995961, ,0.011032133893596889,0.0574019866484864,-0.014801892138886679,0.18129139746793652,-0.013440027610244775,-0.013744150694093836, ,0.06029752947120218, ,0.18178890072692927, ,0.0020248368078574328, ,0.1485081531713373,-0.2855634934901997,0.09524879662,-4.525738050226489,0.1392325932609838,-1.3299763207800468, ,0.10225963530007626,-0.5682451590327592,0.031794034970059885,0.11956080809780403,0.0,0.4017818751945398, ,0.19369196891784668
0.011502980590190238,0.025972312097036796,-0.08446055420754514, ,0.011949680192962024,0.027355011545580496,-0.08470765932729891, ,0.0014739264704618238, ,0.011098055465647884,0.05532258336375549,-0.016195073789387893,0.11007519238120096,-0.011593733429610268,0.004041666548462958, ,0.05870294268775622, ,0.11068406171856761, ,0.0020166142655082446, ,0.14989824508869773,-0.29313949443981396,0.09568823893000002,-4.524479910565582,0.13909595676121836,-1.3253725721686194, ,0.10010225902792276,-0.536140912759722,0.03291076760330579,0.09829358940779245,0.0,0.4385779570654917, ,0.19727587699890137
0.011502980590190238,0.025972312097036796,-0.08446055420754514, ,0.011978945748148782,0.027474425379988624,-0.08476863541306856, ,0.0016055532303874522, ,0.011098055465647884,0.05532258336375549,-0.016195073789387893,0.11007519238120096,-0.011593733429610268,0.004041666548462958, ,0.05870294268775622, ,0.11068406171856761, ,0.00201056925028588, ,0.14989824508869773,-0.29313949443981396,0.09568823893000002,-4.524479910565582,0.13909595676121836,-1.3253725721686194, ,0.10010225902792276,-0.536140912759722,0.03291076760330579,0.09829358940779245,0.0,0.4385779570654917, ,0.20044994354248047
0.011502980590190238,0.025972312097036796,-0.08446055420754514, ,0.01200826083124138,0.027593527142339105,-0.08482965380441254, ,0.0017377804399632728, ,0.011098055465647884,0.05532258336375549,-0.016195073789387893,0.11007519238120096,-0.011593733429610268,0.004041666548462958, ,0.05870294268775622, ,0.11068406171856761, ,0.0020066157892667117, ,0.14989824508869773,-0.29313949443981396,0.09568823893000002,-4.524479910565582,0.13909595676121836,-1.3253725721686194, ,0.10010225902792276,-0.536140912759722,0.03291076760330579,0.09829358940779245,0.0,0.4385779570654917, ,0.2033388614654541
0.011610398794971367,0.026507188769464063,-0.08462750567573062, ,0.012037625560332643,0.027712317520910704,-0.08489071536153524, ,0.0013054261202020455, ,0.010458745401757844,0.05413844943845334,-0.016822577124136106,0.09169388303511072,-0.01882534321567933,0.051341496389737215, ,0.05764855734601055, ,0.09360641209847682, ,0.0019965987939943594, ,0.15084814123222734,-0.2982751118011732,0.09601749659000001,-4.523850840735128,0.13909595676121836,-1.3211252776813103, ,0.09133488119198342,-0.5185625221774359,0.033323873472803356,0.04584984586684348,0.0,0.43194646178179485, ,0.20612406730651855
0.011610398794971367,0.026507188769464063,-0.08462750567573062, ,0.01206704005318536,0.027830797201183373,-0.08495182093986374, ,0.0014372337700497603, ,0.010458745401757844,0.05413844943845334,-0.016822577124136106,0.09169388303511072,-0.01882534321567933,0.051341496389737215, ,0.05764855734601055, ,0.09360641209847682, ,0.0019887204133754214, ,0.15084814123222734,-0.2982751118011732,0.09601749659000001,-4.523850840735128,0.13909595676121836,-1.3211252776813103, ,0.09133488119198342,-0.5185625221774359,0.033323873472803356,0.04584984586684348,0.0,0.43194646178179485, ,0.20889592170715332
0.011610398794971367,0.026507188769464063,-0.08462750567573062, ,0.012096504427231928,0.027948966865845592,-0.08501297139005606, ,0.0015695880293380847, ,0.010458745401757844,0.05413844943845334,-0.016822577124136106,0.09169388303511072,-0.01882534321567933,0.051341496389737215, ,0.05764855734601055, ,0.09360641209847682, ,0.0019828991302637917, ,0.15084814123222734,-0.2982751118011732,0.09601749659000001,-4.523850840735128,0.13909595676121836,-1.3211252776813103, ,0.09133488119198342,-0.5185625221774359,0.033323873472803356,0.04584984586684348,0.0,0.43194646178179485, ,0.21165800094604492
0.011610398794971367,0.026507188769464063,-0.08462750567573062, ,0.012126018799574423,0.028066827194801518,-0.08507416755800987, ,0.0017023051559627003, ,0.010458745401757844,0.05413844943845334,-0.016822577124136106,0.09169388303511072,-0.01882534321567933,0.051341496389737215, ,0.05764855734601055, ,0.09360641209847682, ,0.001979055377191174, ,0.15084814123222734,-0.2982751118011732,0.09601749659000001,-4.523850840735128,0.13909595676121836,-1.3211252776813103, ,0.09133488119198342,-0.5185625221774359,0.033323873472803356,0.04584984586684348,0.0,0.43194646178179485, ,0.21457290649414062
0.011709013717697062,0.027019743954760894,-0.0847863432175603, ,0.012155583286984574,0.028184378865178883,-0.08513541028487018, ,0.0012952400056585138, ,0.010096474792057046,0.05173241795698544,-0.016110552782341466,0.12253780517771931,-0.019714318525905355,0.039600461655211805, ,0.05511562194020388, ,0.12411352451448444, ,0.001969814628927219, ,0.15084814123222734,-0.2982751118011732,0.09601749659000001,-4.523850840735128,0.13909595676121836,-1.3211252776813103, ,0.09133488119198342,-0.5185625221774359,0.033323873472803356,0.04584984586684348,0.0,0.43194646178179485, ,0.21751689910888672
0.011709013717697062,0.027019743954760894,-0.0847863432175603, ,0.012185198005903519,0.02830162255133596,-0.0851967004070382, ,0.0014277104873356321, ,0.010096474792057046,0.05173241795698544,-0.016110552782341466,0.12253780517771931,-0.019714318525905355,0.039600461655211805, ,0.05511562194020388, ,0.12411352451448444, ,0.001962586573705998, ,0.1517208100470147,-0.30316360171055734,0.09633379135,-4.523221770904676,0.1392325932609838,-1.3173977947984001, ,0.08819418360452676,-0.4916939977122839,0.03211453935483872,0.05282360717717814,0.0016828459030978793,0.3751527957574191, ,0.22037601470947266
0.011709013717697062,0.027019743954760894,-0.0847863432175603, ,0.012214863072441894,0.028418558924869133,-0.08525803875617954, ,0.0015604690229056042, ,0.010096474792057046,0.05173241795698544,-0.016110552782341466,0.12253780517771931,-0.019714318525905355,0.039600461655211805, ,0.05511562194020388, ,0.12411352451448444, ,0.00195729555330073, ,0.1517208100470147,-0.30316360171055734,0.09633379135,-4.523221770904676,0.1392325932609838,-1.3173977947984001, ,0.08819418360452676,-0.4916939977122839,0.03211453935483872,0.05282360717717814,0.0016828459030978793,0.3751527957574191, ,0.22340083122253418
0.01181415270611472,0.027547365835180124,-0.08494684678913146, ,0.012244578602379746,0.028535188654620236,-0.085319426159233, ,0.0011401209417458424, ,0.009854878941495166,0.04837209537733292,-0.014868245889709402,0.1616866174042273,-0.015015954273947123,-0.007344001012678074, ,0.05155621190489249, ,0.16238238945086614, ,0.001946682896007809, ,0.15264753799192166,-0.30816793261305486,0.09665916014,-4.522383011130737,0.1392325932609838,-1.313885608972356, ,0.08714136047609806,-0.45623529595418644,0.030111174896030254,0.09473082689322787,0.0018096554000872449,0.3063107417957017, ,0.22624683380126953
0.01181415270611472,0.027547365835180124,-0.08494684678913146, ,0.012274344711166384,0.028651512406684315,-0.08538086343841816, ,0.0012725119978750645, ,0.009854878941495166,0.04837209537733292,-0.014868245889709402,0.1616866174042273,-0.015015954273947123,-0.007344001012678074, ,0.05155621190489249, ,0.16238238945086614, ,0.0019380396793650817, ,0.15264753799192166,-0.30816793261305486,0.09665916014,-4.522383011130737,0.1392325932609838,-1.313885608972356, ,0.08714136047609806,-0.45623529595418644,0.030111174896030254,0.09473082689322787,0.0018096554000872449,0.3063107417957017, ,0.23157095909118652
0.01181415270611472,0.027547365835180124,-0.08494684678913146, ,0.01230416151392027,0.02876753084441625,-0.08544235141124414, ,0.0014051462955956726, ,0.009854878941495166,0.04837209537733292,-0.014868245889709402,0.1616866174042273,-0.015015954273947123,-0.007344001012678074, ,0.05155621190489249, ,0.16238238945086614, ,0.0019312941934945828, ,0.1529101109096453,-0.3095425790646668,0.09675119673000002,-4.522173321187252,0.1392325932609838,-1.3129871428308098, ,0.0858019363096481,-0.44762708282297536,0.029885199849906192,0.08869947750434676,0.0018023518251751689,0.2963111776553785, ,0.23465704917907715
0.011844066699652368,0.027693507710407277,-0.08499278915109368, ,0.012334029125429165,0.028883244628439154,-0.08550389089051816, ,0.0013844717768317998, ,0.009739660780816077,0.047619519270771016,-0.01482772836457013,0.16219789404948218,-0.01677813758423636,-0.00320764285699065, ,0.05081674070774489, ,0.16306336810615588, ,0.0019244589132862981, ,0.1529101109096453,-0.3095425790646668,0.09675119673000002,-4.522173321187252,0.1392325932609838,-1.3129871428308098, ,0.0858019363096481,-0.44762708282297536,0.029885199849906192,0.08869947750434676,0.0018023518251751689,0.2963111776553785, ,0.23788690567016602
0.011844066699652368,0.027693507710407277,-0.08499278915109368, ,0.0123639476601498,0.028998654416650817,-0.0855654826843535, ,0.0015171229419344082, ,0.009739660780816077,0.047619519270771016,-0.01482772836457013,0.16219789404948218,-0.01677813758423636,-0.00320764285699065, ,0.05081674070774489, ,0.16306336810615588, ,0.0019194300741338054, ,0.1529101109096453,-0.3095425790646668,0.09675119673000002,-4.522173321187252,0.1392325932609838,-1.3129871428308098, ,0.0858019363096481,-0.44762708282297536,0.029885199849906192,0.08869947750434676,0.0018023518251751689,0.2963111776553785, ,0.24072504043579102
0.011844066699652368,0.027693507710407277,-0.08499278915109368, ,0.012393917232207976,0.029113760864231814,-0.08562712759617827, ,0.001649799955149886, ,0.009739660780816077,0.047619519270771016,-0.01482772836457013,0.16219789404948218,-0.01677813758423636,-0.00320764285699065, ,0.05081674070774489, ,0.16306336810615588, ,0.0019161419019510747, ,0.1529101109096453,-0.3095425790646668,0.09675119673000002,-4.522173321187252,0.1392325932609838,-1.3129871428308098, ,0.0858019363096481,-0.44762708282297536,0.029885199849906192,0.08869947750434676,0.0018023518251751689,0.2963111776553785, ,0.24376702308654785
0.012001615063789413,0.028441442587653767,-0.08522799746986653, ,0.012423937955398402,0.02922856462365253,-0.0856888264247433, ,0.0010051273799795899, ,0.009216245757058759,0.041675591053953354,-0.013601877890831497,0.12852600391794206,-0.03338964152338033,0.035952655759008294, ,0.044797378915601205, ,0.13279232424577353, ,0.001905165823373105, ,0.1543002028270057,-0.31653165231583996,0.09722563887,-4.52112487146983,0.1392325932609838,-1.3082497759026572, ,0.08159668233746413,-0.38575992503443407,0.027089815510204087,0.03620858372909566,0.0016565670683276325,0.2607831974186767, ,0.24700403213500977
0.012001615063789413,0.028441442587653767,-0.08522799746986653, ,0.012454009943184699,0.02934306634468071,-0.08575057996413092, ,0.0011360805382762444, ,0.009216245757058759,0.041675591053953354,-0.013601877890831497,0.12852600391794206,-0.03338964152338033,0.035952655759008294, ,0.044797378915601205, ,0.13279232424577353, ,0.001896010046169571, ,0.1543002028270057,-0.31653165231583996,0.09722563887,-4.52112487146983,0.1392325932609838,-1.3082497759026572, ,0.08159668233746413,-0.38575992503443407,0.027089815510204087,0.03620858372909566,0.0016565670683276325,0.2607831974186767, ,0.2498159408569336
0.012001615063789413,0.028441442587653767,-0.08522799746986653, ,0.012484133308699222,0.029457266674388947,-0.08581238900376324, ,0.0012673736216098047, ,0.009216245757058759,0.041675591053953354,-0.013601877890831497,0.12852600391794206,-0.03338964152338033,0.035952655759008294, ,0.044797378915601205, ,0.13279232424577353, ,0.0018886143235276914, ,0.1543002028270057,-0.31653165231583996,0.09722563887,-4.52112487146983,0.1392325932609838,-1.3082497759026572, ,0.08159668233746413,-0.38575992503443407,0.027089815510204087,0.03620858372909566,0.0016565670683276325,0.2607831974186767, ,0.2527730464935303
0.01209177115125286,0.028851934675965748,-0.08536831564081804, ,0.012514308164743068,0.029571166257161746,-0.08587425432841027, ,0.000975605222803501, ,0.009496211837091406,0.04113420057900389,-0.01634126579919784,0.08868117835748852,-0.017596759802215152,0.0004209395396374852, ,0.045268504111011576, ,0.090410155320818, ,0.0018779979386355497, ,0.15509564431305084,-0.3202926232255873,0.09749915606000001,-4.520495801639376,0.13936922976074928,-1.3057474741218558, ,0.07934526886159764,-0.36781760293980925,0.029662591284916204,0.07208004840767886,0.0,0.2881679505621484, ,0.2558770179748535
0.01209177115125286,0.028851934675965748,-0.08536831564081804, ,0.012544534623786059,0.029684765734703328,-0.08593617671819849, ,0.001105019700123924, ,0.009496211837091406,0.04113420057900389,-0.01634126579919784,0.08868117835748852,-0.017596759802215152,0.0004209395396374852, ,0.045268504111011576, ,0.090410155320818, ,0.0018691131312963353, ,0.15509564431305084,-0.3202926232255873,0.09749915606000001,-4.520495801639376,0.13936922976074928,-1.3057474741218558, ,0.07934526886159764,-0.36781760293980925,0.029662591284916204,0.07208004840767886,0.0,0.2881679505621484, ,0.25879597663879395
0.01209177115125286,0.028851934675965748,-0.08536831564081804, ,0.012574812797966475,0.029798065746044784,-0.08599815694861918, ,0.0012349871688569682, ,0.009496211837091406,0.04113420057900389,-0.01634126579919784,0.08868117835748852,-0.017596759802215152,0.0004209395396374852, ,0.045268504111011576, ,0.090410155320818, ,0.0018619071544504337, ,0.15509564431305084,-0.3202926232255873,0.09749915606000001,-4.520495801639376,0.13936922976074928,-1.3057474741218558, ,0.07934526886159764,-0.36781760293980925,0.029662591284916204,0.07208004840767886,0.0,0.2881679505621484, ,0.26168298721313477
0.01209177115125286,0.028851934675965748,-0.08536831564081804, ,0.012605142799091184,0.029911066927551588,-0.08606019579053673, ,0.0013652874117665774, ,0.00975380094284207,0.037998047171951564,-0.020066946044621264,0.008753431982626278,-0.0033748301608095945,-0.020072182878207764, ,0.0440643908986858, ,0.009381300345484896, ,0.0018563271573416263, ,0.15509564431305084,-0.3202926232255873,0.09749915606000001,-4.520495801639376,0.13936922976074928,-1.3057474741218558, ,0.07934526886159764,-0.36781760293980925,0.029662591284916204,0.07208004840767886,0.0,0.2881679505621484, ,0.26485705375671387
0.012192915724320522,0.029265358249526474,-0.08556424860834996, ,0.012635524738635459,0.030023769912930827,-0.08612229401019714, ,0.001040435322960236, ,0.00975380094284207,0.037998047171951564,-0.020066946044621264,0.008753431982626278,-0.0033748301608095945,-0.020072182878207764, ,0.0440643908986858, ,0.009381300345484896, ,0.0018472616925151665, ,0.1558988085319702,-0.323860525813479,0.09782841372000001,-4.519447351921953,0.13936922976074928,-1.3023986457760925, ,0.07519567476899429,-0.3195183217456929,0.03230996251521299,0.08781943142729888,0.0,0.32305631472305785, ,0.2681889533996582
0.012192915724320522,0.029265358249526474,-0.08556424860834996, ,0.012665958727742937,0.03013617533323897,-0.0861844523692362, ,0.0011690786035976673, ,0.00975380094284207,0.037998047171951564,-0.020066946044621264,0.008753431982626278,-0.0033748301608095945,-0.020072182878207764, ,0.0440643908986858, ,0.009381300345484896, ,0.0018398091310984908, ,0.1558988085319702,-0.323860525813479,0.09782841372000001,-4.519447351921953,0.13936922976074928,-1.3023986457760925, ,0.07519567476899429,-0.3195183217456929,0.03230996251521299,0.08781943142729888,0.0,0.32305631472305785, ,0.27097392082214355
0.012192915724320522,0.029265358249526474,-0.08556424860834996, ,0.012696444877225557,0.03024828381688882,-0.08624667162468798, ,0.0012982239606584567, ,0.00975380094284207,0.037998047171951564,-0.020066946044621264,0.008753431982626278,-0.0033748301608095945,-0.020072182878207764, ,0.0440643908986858, ,0.009381300345484896, ,0.0018339223357676207, ,0.1558988085319702,-0.323860525813479,0.09782841372000001,-4.519447351921953,0.13936922976074928,-1.3023986457760925, ,0.07519567476899429,-0.3195183217456929,0.03230996251521299,0.08781943142729888,0.0,0.32305631472305785, ,0.27376890182495117
0.01229865467269336,0.02966104100319169,-0.08579204467923476, ,0.012726983297563482,0.030360095989657297,-0.08630895252899301, ,0.0009691940002534349, ,0.0101869006533194,0.03726263347069287,-0.02336477016184062,-0.05119929138540053,-0.010978624754195785,0.01796661325879184, ,0.04514630973631663, ,0.05236306595952421, ,0.001824624181622307, ,0.1566942500180153,-0.32711179635352755,0.09818359718000001,-4.5188182820915,0.13936922976074928,-1.298804781209908, ,0.07390727535706447,-0.29841805521531695,0.03531887254988914,0.04533344253925773,0.0,0.3562286605972006, ,0.2766120433807373
0.01229865467269336,0.02966104100319169,-0.08579204467923476, ,0.012757574098904977,0.03047161247469255,-0.08637129583000686, ,0.00109688880285846, ,0.0101869006533194,0.03726263347069287,-0.02336477016184062,-0.05119929138540053,-0.010978624754195785,0.01796661325879184, ,0.04514630973631663, ,0.05236306595952421, ,0.0018168823158907768, ,0.1566942500180153,-0.32711179635352755,0.09818359718000001,-4.5188182820915,0.13936922976074928,-1.298804781209908, ,0.07390727535706447,-0.29841805521531695,0.03531887254988914,0.04533344253925773,0.0,0.3562286605972006, ,0.2794499397277832
0.01229865467269336,0.02966104100319169,-0.08579204467923476, ,0.012788217391066425,0.030582833892521595,-0.08643370227100851, ,0.0012251931484957312, ,0.0101869006533194,0.03726263347069287,-0.02336477016184062,-0.05119929138540053,-0.010978624754195785,0.01796661325879184, ,0.04514630973631663, ,0.05236306595952421, ,0.0018106540088655657, ,0.1566942500180153,-0.32711179635352755,0.09818359718000001,-4.5188182820915,0.13936922976074928,-1.298804781209908, ,0.07390727535706447,-0.29841805521531695,0.03531887254988914,0.04533344253925773,0.0,0.3562286605972006, ,0.2829408645629883
0.01229865467269336,0.02966104100319169,-0.08579204467923476, ,0.012818913283532182,0.030693760861057583,-0.08649617259070833, ,0.001353874234446691, ,0.0101869006533194,0.03726263347069287,-0.02336477016184062,-0.05119929138540053,-0.010978624754195785,0.01796661325879184, ,0.04514630973631663, ,0.05236306595952421, ,0.0018058958862153692, ,0.15737385051094707,-0.32978386192800924,0.09854526209000002,-4.5181892122610465,0.13936922976074928,-1.2952925953838639, ,0.06783198109969318,-0.26214624739909054,0.03875623240875913,0.06789063512460175,0.0,0.3686378280592645, ,0.28588294982910156
0.012439069008754695,0.030151066031268502,-0.08615398623320664, ,0.01284966188545454,0.030804393995607176,-0.0865587075232571, ,0.0008713341850310261, ,0.010180923577962285,0.03515709677232891,-0.027763994588527928,-0.09638207886444497,0.010234929181060943,-0.019230395802744465, ,0.04594030968410004, ,0.09692390006800083, ,0.0017962612295021284, ,0.15737385051094707,-0.32978386192800924,0.09854526209000002,-4.5181892122610465,0.13936922976074928,-1.2952925953838639, ,0.06783198109969318,-0.26214624739909054,0.03875623240875913,0.06789063512460175,0.0,0.3686378280592645, ,0.2897648811340332
0.012439069008754695,0.030151066031268502,-0.08615398623320664, ,0.012880463305653709,0.030914733908878004,-0.0866213077982539, ,0.0009982018822792317, ,0.010180923577962285,0.03515709677232891,-0.027763994588527928,-0.09638207886444497,0.010234929181060943,-0.019230395802744465, ,0.04594030968410004, ,0.09692390006800083, ,0.001788117766775364, ,0.15737385051094707,-0.32978386192800924,0.09854526209000002,-4.5181892122610465,0.13936922976074928,-1.2952925953838639, ,0.06783198109969318,-0.26214624739909054,0.03875623240875913,0.06789063512460175,0.0,0.3686378280592645, ,0.292590856552124
0.012509036082771288,0.030385959902525975,-0.08634425886271141, ,0.012911317652617514,0.031024781210986205,-0.08668397414075416, ,0.0008278463599705238, ,0.010180923577962285,0.03515709677232891,-0.027763994588527928,-0.09638207886444497,0.010234929181060943,-0.019230395802744465, ,0.04594030968410004, ,0.09692390006800083, ,0.001778418055595517, ,0.15806117373675305,-0.33243275930386823,0.09895100086000001,-4.517350452487108,0.13936922976074928,-1.2914536945972572, ,0.06394672611756791,-0.24332549117556607,0.03829041230769231,0.08210715591360783,0.0,0.36373668179197033, ,0.295637845993042
0.012509036082771288,0.030385959902525975,-0.08634425886271141, ,0.012942225034501651,0.03113453650946354,-0.08674670727127891, ,0.000953930985928188, ,0.010009914733486622,0.033630224416017165,-0.02758227537506455,-0.10898120445712708,0.01292925031752366,-0.024607842189700184, ,0.04463151691472341, ,0.10974539842006303, ,0.001770173184898844, ,0.15806117373675305,-0.33243275930386823,0.09895100086000001,-4.517350452487108,0.13936922976074928,-1.2914536945972572, ,0.06394672611756791,-0.24332549117556607,0.03829041230769231,0.08210715591360783,0.0,0.36373668179197033, ,0.2989070415496826
0.012509036082771288,0.030385959902525975,-0.08634425886271141, ,0.012973185559129453,0.031244000409265102,-0.0868095079058227, ,0.0010807982789238107, ,0.010009914733486622,0.033630224416017165,-0.02758227537506455,-0.10898120445712708,0.01292925031752366,-0.024607842189700184, ,0.04463151691472341, ,0.10974539842006303, ,0.0017633476907802793, ,0.15806117373675305,-0.33243275930386823,0.09895100086000001,-4.517350452487108,0.13936922976074928,-1.2914536945972572, ,0.06394672611756791,-0.24332549117556607,0.03829041230769231,0.08210715591360783,0.0,0.36373668179197033, ,0.30167102813720703
0.012509036082771288,0.030385959902525975,-0.08634425886271141, ,0.013004199333991669,0.03135317351277641,-0.08687237675586128, ,0.0012081379566414897, ,0.010009914733486622,0.033630224416017165,-0.02758227537506455,-0.10898120445712708,0.01292925031752366,-0.024607842189700184, ,0.04463151691472341, ,0.10974539842006303, ,0.0017579044580926441, ,0.15806117373675305,-0.33243275930386823,0.09895100086000001,-4.517350452487108,0.13936922976074928,-1.2914536945972572, ,0.06394672611756791,-0.24332549117556607,0.03829041230769231,0.08210715591360783,0.0,0.36373668179197033, ,0.3045790195465088
0.0125960378597639,0.03066633287485353,-0.08657271760555084, ,0.013035266466246708,0.03146205641982094,-0.08693531452836128, ,0.0009785572324600793, ,0.00960738946283625,0.03077969941845992,-0.024775772403399406,-0.07059551308036503,-0.005859915583321171,-0.0015963719622323768, ,0.040663629040782946, ,0.07083823644231532, ,0.0017503379801738813, ,0.15864037870231987,-0.3345333426456573,0.09928285110000001,-4.51693107260014,0.1392325932609838,-1.2883201633083599, ,0.06356124685764955,-0.22120499197778737,0.03462785113043479,0.05149451837552869,0.0,0.2997182303428859, ,0.3076620101928711
0.0125960378597639,0.03066633287485353,-0.08657271760555084, ,0.013066387062720286,0.03157064972766778,-0.08699832192578794, ,0.0011046068895358458, ,0.00960738946283625,0.03077969941845992,-0.024775772403399406,-0.07059551308036503,-0.005859915583321171,-0.0015963719622323768, ,0.040663629040782946, ,0.07083823644231532, ,0.0017441290273792847, ,0.15864037870231987,-0.3345333426456573,0.09928285110000001,-4.51693107260014,0.1392325932609838,-1.2883201633083599, ,0.06356124685764955,-0.22120499197778737,0.03462785113043479,0.05149451837552869,0.0,0.2997182303428859, ,0.31041502952575684
0.0125960378597639,0.03066633287485353,-0.08657271760555084, ,0.013097561229905538,0.03167895403103867,-0.08706139964611245, ,0.0012311528879547864, ,0.00960738946283625,0.03077969941845992,-0.024775772403399406,-0.07059551308036503,-0.005859915583321171,-0.0015963719622323768, ,0.040663629040782946, ,0.07083823644231532, ,0.0017392435403371465, ,0.15864037870231987,-0.3345333426456573,0.09928285110000001,-4.51693107260014,0.1392325932609838,-1.2883201633083599, ,0.06356124685764955,-0.22120499197778737,0.03462785113043479,0.05149451837552869,0.0,0.2997182303428859, ,0.3131599426269531
0.012703018906354368,0.031006957226607797,-0.0868414521709433, ,0.013128789073962801,0.03178696992211558,-0.08712454838282231, ,0.0009326540119245033, ,0.009308463560659789,0.02934324923417571,-0.023073122018357956,-0.03627984340000775,-0.009315631501871173,-0.009547857312846242, ,0.03847132346505796, ,0.03745666146494407, ,0.0017316342051634423, ,0.15864037870231987,-0.3345333426456573,0.09928285110000001,-4.51693107260014,0.1392325932609838,-1.2883201633083599, ,0.06356124685764955,-0.22120499197778737,0.03462785113043479,0.05149451837552869,0.0,0.2997182303428859, ,0.3164489269256592
0.012703018906354368,0.031006957226607797,-0.0868414521709433, ,0.0131600707007197,0.03189469799054791,-0.08718776882492849, ,0.001056842103400993, ,0.009308463560659789,0.02934324923417571,-0.023073122018357956,-0.03627984340000775,-0.009315631501871173,-0.009547857312846242, ,0.03847132346505796, ,0.03745666146494407, ,0.0017253277369226716, ,0.15935859285962276,-0.3369891716996607,0.09966136778000001,-4.516302002769685,0.1392325932609838,-1.2853797286632997, ,0.06284565666123892,-0.2108820923521573,0.03257425668711657,0.056626697723831936,0.0,0.2555397974977282, ,0.322847843170166
0.012703018906354368,0.031006957226607797,-0.0868414521709433, ,0.013191406215670939,0.0320021388234603,-0.08725106165697338, ,0.001181815766378671, ,0.009308463560659789,0.02934324923417571,-0.023073122018357956,-0.03627984340000775,-0.009315631501871173,-0.009547857312846242, ,0.03847132346505796, ,0.03745666146494407, ,0.0017202952186768938, ,0.15935859285962276,-0.3369891716996607,0.09966136778000001,-4.516302002769685,0.1392325932609838,-1.2853797286632997, ,0.06284565666123892,-0.2108820923521573,0.03257425668711657,0.056626697723831936,0.0,0.2555397974977282, ,0.3257598876953125
0.012785933576214622,0.0312626146354182,-0.08704350670688779, ,0.013222795723978274,0.032109293005459616,-0.08731442755904044, ,0.000990510427292807, ,0.009193594040723167,0.027703590743030554,-0.02161751237048905,-0.046866281705482515,0.003206919794087078,-0.04720727093597923, ,0.03632255432277851, ,0.04697582329797175, ,0.0017135999453614435, ,0.15992235235944113,-0.3388117366579777,0.09994655158000001,-4.5154632429957475,0.1392325932609838,-1.2830110451992234, ,0.06377482631617659,-0.19770196158014744,0.030691351676300584,0.0951157792579074,-1.0210201369546006e-05,0.25894780891182506, ,0.32956886291503906
0.012785933576214622,0.0312626146354182,-0.08704350670688779, ,0.013254239330470435,0.03221616111864277,-0.08737786720676152, ,0.0011137136611422457, ,0.009193594040723167,0.027703590743030554,-0.02161751237048905,-0.046866281705482515,0.003206919794087078,-0.04720727093597923, ,0.03632255432277851, ,0.04697582329797175, ,0.0017081464336867235, ,0.15992235235944113,-0.3388117366579777,0.09994655158000001,-4.5154632429957475,0.1392325932609838,-1.2830110451992234, ,0.06377482631617659,-0.19770196158014744,0.030691351676300584,0.0951157792579074,-1.0210201369546006e-05,0.25894780891182506, ,0.3328518867492676
0.012877937715078466,0.03153784556130917,-0.0872451315044888, ,0.013285737139643128,0.03232274374260353,-0.08744138127132542, ,0.0009060240044600864, ,0.008003793534490692,0.024066260622927476,-0.015986389921619507,-0.05508732499589503,-0.015550061203499575,0.005318730325712129, ,0.029980164676657168, ,0.05723999243983278, ,0.0017009201054954924, ,0.16058650738662444,-0.3408196472052761,0.10023951312000001,-4.514834173165294,0.1392325932609838,-1.2803973255147254, ,0.06052100864698392,-0.18110103350853202,0.024098050711043876,0.035317366328292306,0.00011655967895656643,0.24164493751733768, ,0.34099602699279785
0.012877937715078466,0.03153784556130917,-0.0872451315044888, ,0.013317289255658823,0.03242904145444053,-0.0875049704194867, ,0.0010270229587948988, ,0.008003793534490692,0.024066260622927476,-0.015986389921619507,-0.05508732499589503,-0.015550061203499575,0.005318730325712129, ,0.029980164676657168, ,0.05723999243983278, ,0.0016949031666856657, ,0.16058650738662444,-0.3408196472052761,0.10023951312000001,-4.514834173165294,0.1392325932609838,-1.2803973255147254, ,0.06052100864698392,-0.18110103350853202,0.024098050711043876,0.035317366328292306,0.00011655967895656643,0.24164493751733768, ,0.34378600120544434
0.01295842632168949,0.03177608976022158,-0.08739184124468867, ,0.013348895782346843,0.03253505482876444,-0.08756863531357349, ,0.0008716366890896475, ,0.00755149291901686,0.022069021479175485,-0.013489654778285119,-0.05325031381551586,-0.023152422401911434,0.01998458852785464, ,0.026945083788913724, ,0.05806573979412955, ,0.0016876176226361434, ,0.16121977148231087,-0.3426499348964673,0.10046766016000001,-4.51462448322181,0.1392325932609838,-1.2779469633105085, ,0.05983413717431954,-0.16945882421155498,0.02106985650793651,0.016973048134003618,0.0001987931798576529,0.22538108784181754, ,0.34750986099243164
0.01295842632168949,0.03177608976022158,-0.08739184124468867, ,0.013380556823203087,0.03264078443770513,-0.08763237661149634, ,0.0009918408684168026, ,0.00755149291901686,0.022069021479175485,-0.013489654778285119,-0.05325031381551586,-0.023152422401911434,0.01998458852785464, ,0.026945083788913724, ,0.05806573979412955, ,0.0016815143177745702, ,0.16121977148231087,-0.3426499348964673,0.10046766016000001,-4.51462448322181,0.1392325932609838,-1.2779469633105085, ,0.05983413717431954,-0.16945882421155498,0.02106985650793651,0.016973048134003618,0.0001987931798576529,0.22538108784181754, ,0.3504669666290283
0.01295842632168949,0.03177608976022158,-0.08739184124468867, ,0.01341227248139015,0.03274623085091951,-0.08769619496675587, ,0.0011134546513764114, ,0.00755149291901686,0.022069021479175485,-0.013489654778285119,-0.05325031381551586,-0.023152422401911434,0.01998458852785464, ,0.026945083788913724, ,0.05806573979412955, ,0.0016765746685015429, ,0.16121977148231087,-0.3426499348964673,0.10046766016000001,-4.51462448322181,0.1392325932609838,-1.2779469633105085, ,0.05983413717431954,-0.16945882421155498,0.02106985650793651,0.016973048134003618,0.0001987931798576529,0.22538108784181754, ,0.3534538745880127
0.013035058887529882,0.03199855717796819,-0.08752902359213105, ,0.013444042859737182,0.03285139463559847,-0.08776009102845204, ,0.0009736486937225829, ,0.0077675409874895015,0.022228667806724712,-0.013305665604288211,-0.0192895476546369,-0.017576951657718106,-0.010618941325361288, ,0.027046055213786488, ,0.026096656131641978, ,0.0016705149618224137, ,0.16183759011224882,-0.34434121339592244,0.10068154801000001,-4.513995413391356,0.13936922976074928,-1.2759347339705505, ,0.06239115158347849,-0.17037152883028864,0.021014263218997364,0.04944850170017246,0.0012474558852709578,0.1971058880926081, ,0.356579065322876
0.013035058887529882,0.03199855717796819,-0.08752902359213105, ,0.013475868060739773,0.03295627635647483,-0.08782406544129204, ,0.0010948006415881148, ,0.0077675409874895015,0.022228667806724712,-0.013305665604288211,-0.0192895476546369,-0.017576951657718106,-0.010618941325361288, ,0.027046055213786488, ,0.026096656131641978, ,0.001665594326606736, ,0.16183759011224882,-0.34434121339592244,0.10068154801000001,-4.513995413391356,0.13936922976074928,-1.2759347339705505, ,0.06239115158347849,-0.17037152883028864,0.021014263218997364,0.04944850170017246,0.0012474558852709578,0.1971058880926081, ,0.3595099449157715
0.013035058887529882,0.03199855717796819,-0.08752902359213105, ,0.013507748186559945,0.03306087657583027,-0.08788811884559836, ,0.0012169252555331096, ,0.0077675409874895015,0.022228667806724712,-0.013305665604288211,-0.0192895476546369,-0.017576951657718106,-0.010618941325361288, ,0.027046055213786488, ,0.026096656131641978, ,0.0016617920463434, ,0.16183759011224882,-0.34434121339592244,0.10068154801000001,-4.513995413391356,0.13936922976074928,-1.2759347339705505, ,0.06239115158347849,-0.17037152883028864,0.021014263218997364,0.04944850170017246,0.0012474558852709578,0.1971058880926081, ,0.36243200302124023
0.013035058887529882,0.03199855717796819,-0.08752902359213105, ,0.013539683339025999,0.03316519585350285,-0.08795225187731771, ,0.0013397066162720358, ,0.0077675409874895015,0.022228667806724712,-0.013305665604288211,-0.0192895476546369,-0.017576951657718106,-0.010618941325361288, ,0.027046055213786488, ,0.026096656131641978, ,0.0016590854460906996, ,0.16183759011224882,-0.34434121339592244,0.10068154801000001,-4.513995413391356,0.13936922976074928,-1.2759347339705505, ,0.06239115158347849,-0.17037152883028864,0.021014263218997364,0.04944850170017246,0.0012474558852709578,0.1971058880926081, ,0.36523985862731934
0.013116057170310993,0.03223449445966975,-0.08767578387828029, ,0.013571673619632544,0.033269234746894534,-0.08801646516802905, ,0.0011808207112357439, ,0.008362973050418367,0.024143213768586455,-0.016073144365313218,-0.02034315495201249,-0.014732809916408258,-0.016132884715988092, ,0.030185759210360878, ,0.02511769433428391, ,0.0016550999066335748, ,0.16247085420793522,-0.3461251646898683,0.10090969505000001,-4.513366343560902,0.13936922976074928,-1.2738927654670364, ,0.06373199567392263,-0.17837770969637368,0.024355980917431196,0.05731088264304088,0.0012308121674780583,0.20737029375721913, ,0.3680379390716553
0.013116057170310993,0.03223449445966975,-0.08767578387828029, ,0.013603719129540398,0.03337299381097857,-0.08808075934495205, ,0.001303073324113452, ,0.008362973050418367,0.024143213768586455,-0.016073144365313218,-0.02034315495201249,-0.014732809916408258,-0.016132884715988092, ,0.030185759210360878, ,0.02511769433428391, ,0.001652190596034235, ,0.16247085420793522,-0.3461251646898683,0.10090969505000001,-4.513366343560902,0.13936922976074928,-1.2738927654670364, ,0.06373199567392263,-0.17837770969637368,0.024355980917431196,0.05731088264304088,0.0012308121674780583,0.20737029375721913, ,0.37096691131591797
0.013116057170310993,0.03223449445966975,-0.08767578387828029, ,0.013635819969576399,0.03347647359830673,-0.08814513503095532, ,0.0014258176786767125, ,0.008362973050418367,0.024143213768586455,-0.016073144365313218,-0.02034315495201249,-0.014732809916408258,-0.016132884715988092, ,0.030185759210360878, ,0.02511769433428391, ,0.0016503350803181898, ,0.16247085420793522,-0.3461251646898683,0.10090969505000001,-4.513366343560902,0.13936922976074928,-1.2738927654670364, ,0.06373199567392263,-0.17837770969637368,0.024355980917431196,0.05731088264304088,0.0012308121674780583,0.20737029375721913, ,0.37386298179626465
0.01320420835220817,0.032486732841913835,-0.08786375848285986, ,0.01366797624023349,0.033579674659016914,-0.08820959284456503, ,0.0012366098314634528, ,0.009529572739128148,0.02598516663580961,-0.021381658470532503,-0.060940690869414754,-0.011248669300773985,-0.02783565061162008, ,0.034974518733381046, ,0.0619701209916107, ,0.0016469714604088017, ,0.16309639557074743,-0.34784733412082036,0.10117284192,-4.5127372737304485,0.1395058662605147,-1.2717988573869377, ,0.06594645000588659,-0.17573507696013105,0.029885199849906192,0.06967681262930273,-0.0029149856145645374,0.24907943927289133, ,0.3767659664154053
0.01320420835220817,0.032486732841913835,-0.08786375848285986, ,0.013700188041670537,0.03368259754084042,-0.0882741333999733, ,0.0013581221605930087, ,0.009529572739128148,0.02598516663580961,-0.021381658470532503,-0.060940690869414754,-0.011248669300773985,-0.02783565061162008, ,0.034974518733381046, ,0.0619701209916107, ,0.0016446420305715774, ,0.16309639557074743,-0.34784733412082036,0.10117284192,-4.5127372737304485,0.1395058662605147,-1.2717988573869377, ,0.06594645000588659,-0.17573507696013105,0.029885199849906192,0.06967681262930273,-0.0029149856145645374,0.24907943927289133, ,0.3795959949493408
0.01320420835220817,0.032486732841913835,-0.08786375848285986, ,0.013732455473712372,0.03378524278910952,-0.08833875730704588, ,0.0014801341112621238, ,0.009529572739128148,0.02598516663580961,-0.021381658470532503,-0.060940690869414754,-0.011248669300773985,-0.02783565061162008, ,0.034974518733381046, ,0.0619701209916107, ,0.001643325967217102, ,0.16309639557074743,-0.34784733412082036,0.10117284192,-4.5127372737304485,0.1395058662605147,-1.2717988573869377, ,0.06594645000588659,-0.17573507696013105,0.029885199849906192,0.06967681262930273,-0.0029149856145645374,0.24907943927289133, ,0.38259100914001465
0.01320420835220817,0.032486732841913835,-0.08786375848285986, ,0.01376477863584953,0.03388761094676457,-0.08840346517133138, ,0.0016024923766223753, ,0.009529572739128148,0.02598516663580961,-0.021381658470532503,-0.060940690869414754,-0.011248669300773985,-0.02783565061162008, ,0.034974518733381046, ,0.0619701209916107, ,0.0016430018911012707, ,0.16309639557074743,-0.34784733412082036,0.10117284192,-4.5127372737304485,0.1395058662605147,-1.2717988573869377, ,0.06594645000588659,-0.17573507696013105,0.029885199849906192,0.06967681262930273,-0.0029149856145645374,0.24907943927289133, ,0.385530948638916
0.01320420835220817,0.032486732841913835,-0.08786375848285986, ,0.013797157627238443,0.03398970255436165,-0.08846825759406916, ,0.0017250872368512935, ,0.009529572739128148,0.02598516663580961,-0.021381658470532503,-0.060940690869414754,-0.011248669300773985,-0.02783565061162008, ,0.034974518733381046, ,0.0619701209916107, ,0.0016436482324063892, ,0.16309639557074743,-0.34784733412082036,0.10117284192,-4.5127372737304485,0.1395058662605147,-1.2717988573869377, ,0.06594645000588659,-0.17573507696013105,0.029885199849906192,0.06967681262930273,-0.0029149856145645374,0.24907943927289133, ,0.38854193687438965
0.01320420835220817,0.032486732841913835,-0.08786375848285986, ,0.013829592546701082,0.034091518150079915,-0.08853313517219807, ,0.0018478383122602028, ,0.009529572739128148,0.02598516663580961,-0.021381658470532503,-0.060940690869414754,-0.011248669300773985,-0.02783565061162008, ,0.034974518733381046, ,0.0619701209916107, ,0.0016452434674052471, ,0.16410807357727084,-0.35054256789392474,0.10167969131000001,-4.511688824013026,0.1395058662605147,-1.2676332416397689, ,0.06788050183009356,-0.17737746085695474,0.036533971376146786,0.073383428180655,-0.0029149856145645374,0.3034398585682366, ,0.3913569450378418
0.013353395823974507,0.03289229776292289,-0.0882254936422576, ,0.01386208349272504,0.0341930582697289,-0.08859809849836381, ,0.0014455363776809623, ,0.010680797386106503,0.028453890504399133,-0.027155882518436824,-0.11449792924502453,-0.003590605974914264,-0.028795378597825452, ,0.04075714996162682, ,0.1145541508839221, ,0.0016436953504306404, ,0.16410807357727084,-0.35054256789392474,0.10167969131000001,-4.511688824013026,0.1395058662605147,-1.2676332416397689, ,0.06788050183009356,-0.17737746085695474,0.036533971376146786,0.073383428180655,-0.0029149856145645374,0.3034398585682366, ,0.39434099197387695
0.013353395823974507,0.03289229776292289,-0.0882254936422576, ,0.013894630563463562,0.034294323446756196,-0.088663148160929, ,0.0015652963103104565, ,0.010680797386106503,0.028453890504399133,-0.027155882518436824,-0.11449792924502453,-0.003590605974914264,-0.028795378597825452, ,0.04075714996162682, ,0.1145541508839221, ,0.0016430922808912543, ,0.16410807357727084,-0.35054256789392474,0.10167969131000001,-4.511688824013026,0.1395058662605147,-1.2676332416397689, ,0.06788050183009356,-0.17737746085695474,0.036533971376146786,0.073383428180655,-0.0029149856145645374,0.3034398585682366, ,0.39715099334716797
0.013353395823974507,0.03289229776292289,-0.0882254936422576, ,0.013927233856735182,0.03439531421225435,-0.0887282847439797, ,0.0016855703565186798, ,0.010680797386106503,0.028453890504399133,-0.027155882518436824,-0.11449792924502453,-0.003590605974914264,-0.028795378597825452, ,0.04075714996162682, ,0.1145541508839221, ,0.0016434165410105475, ,0.16410807357727084,-0.35054256789392474,0.10167969131000001,-4.511688824013026,0.1395058662605147,-1.2676332416397689, ,0.06788050183009356,-0.17737746085695474,0.036533971376146786,0.073383428180655,-0.0029149856145645374,0.3034398585682366, ,0.39999985694885254
0.013460259618474725,0.03317845477456828,-0.08850204090453768, ,0.0139598934700239,0.03449603109496884,-0.08879350882733503, ,0.001438956182694227, ,0.010932351128602143,0.02981084836703656,-0.02684524778754071,-0.101972464433154,-0.024107542841884134,0.01804961514903487, ,0.04157968627029254, ,0.10478331538016296, ,0.0016418675989020907, ,0.16477995133732837,-0.3523110737221221,0.10205043025,-4.511269444126056,0.1395058662605147,-1.2646928069947088, ,0.07092447052202598,-0.1909395202383718,0.036787093579676675,0.025013116469038293,-0.0029149856145645374,0.2967949780639712, ,0.4029099941253662
0.013460259618474725,0.03317845477456828,-0.08850204090453768, ,0.013992609500479038,0.0345964746213052,-0.08885882098655526, ,0.0015561069081313984, ,0.010932351128602143,0.02981084836703656,-0.02684524778754071,-0.101972464433154,-0.024107542841884134,0.01804961514903487, ,0.04157968627029254, ,0.10478331538016296, ,0.001641222781678251, ,0.16477995133732837,-0.3523110737221221,0.10205043025,-4.511269444126056,0.1395058662605147,-1.2646928069947088, ,0.07092447052202598,-0.1909395202383718,0.036787093579676675,0.025013116469038293,-0.0029149856145645374,0.2967949780639712, ,0.405850887298584
0.013460259618474725,0.03317845477456828,-0.08850204090453768, ,0.014025382044915134,0.03469664531533633,-0.0889242217929499, ,0.001674067674105204, ,0.010932351128602143,0.02981084836703656,-0.02684524778754071,-0.101972464433154,-0.024107542841884134,0.01804961514903487, ,0.04157968627029254, ,0.10478331538016296, ,0.0016414678928157657, ,0.16477995133732837,-0.3523110737221221,0.10205043025,-4.511269444126056,0.1395058662605147,-1.2646928069947088, ,0.07092447052202598,-0.1909395202383718,0.036787093579676675,0.025013116469038293,-0.0029149856145645374,0.2967949780639712, ,0.4087529182434082
0.013567251159369369,0.033473758903389814,-0.08876512936676452, ,0.014058211199811849,0.03479654369880994,-0.08898971181358593, ,0.0014287192347435655, ,0.010864295321426232,0.030234685328578318,-0.028468162564389783,-0.1085371777674983,0.0021650164803798475,-0.019514520308788103, ,0.04292557966459902, ,0.10855868254546217, ,0.0016398919768300455, ,0.16545955183026012,-0.35420314327630714,0.10241209516000001,-4.510640374295604,0.13936922976074928,-1.2615592757058116, ,0.06730279543153955,-0.18717345475043548,0.03847539014492755,0.06807601118524824,0.003765677917109656,0.30735035224164553, ,0.4119589328765869
0.013567251159369369,0.033473758903389814,-0.08876512936676452, ,0.014091097061314,0.034896170291156325,-0.08905529161129662, ,0.0015433284851851673, ,0.010864295321426232,0.030234685328578318,-0.028468162564389783,-0.1085371777674983,0.0021650164803798475,-0.019514520308788103, ,0.04292557966459902, ,0.10855868254546217, ,0.0016391819511561863, ,0.16545955183026012,-0.35420314327630714,0.10241209516000001,-4.510640374295604,0.13936922976074928,-1.2615592757058116, ,0.06730279543153955,-0.18717345475043548,0.03847539014492755,0.06807601118524824,0.003765677917109656,0.30735035224164553, ,0.41497206687927246
0.013567251159369369,0.033473758903389814,-0.08876512936676452, ,0.014124039725231427,0.03499552560949503,-0.08912096174468997, ,0.001659037099062324, ,0.010864295321426232,0.030234685328578318,-0.028468162564389783,-0.1085371777674983,0.0021650164803798475,-0.019514520308788103, ,0.04292557966459902, ,0.10855868254546217, ,0.0016393268792430924, ,0.16545955183026012,-0.35420314327630714,0.10241209516000001,-4.510640374295604,0.13936922976074928,-1.2615592757058116, ,0.06730279543153955,-0.18717345475043548,0.03847539014492755,0.06807601118524824,0.003765677917109656,0.30735035224164553, ,0.4178609848022461
0.013567251159369369,0.033473758903389814,-0.08876512936676452, ,0.014157039287038823,0.035094610168643174,-0.08918672276815633, ,0.00177559845001914, ,0.010864295321426232,0.030234685328578318,-0.028468162564389783,-0.1085371777674983,0.0021650164803798475,-0.019514520308788103, ,0.04292557966459902, ,0.10855868254546217, ,0.0016403143543936435, ,0.16545955183026012,-0.35420314327630714,0.10241209516000001,-4.510640374295604,0.13936922976074928,-1.2615592757058116, ,0.06730279543153955,-0.18717345475043548,0.03847539014492755,0.06807601118524824,0.003765677917109656,0.30735035224164553, ,0.42079687118530273
0.013658306399262167,0.033727744851112844,-0.08899253002934282, ,0.014190095841875817,0.03519342448112188,-0.08925257523187778, ,0.0015807087955914615, ,0.011106405906879412,0.031234550029618436,-0.02610157079471745,-0.055858452918573935,0.0010920384175267944,-0.04364027715823802, ,0.04219290658004909, ,0.055869018204085796, ,0.0016398855374238437, ,0.16603875679582697,-0.35580947171414584,0.10272450105000001,-4.509801614521665,0.13936922976074928,-1.259027234761454, ,0.07384975996768155,-0.20364150549028065,0.03670233069124424,0.09598904595572802,0.003765677917109656,0.27493609221850746, ,0.42368102073669434
0.013658306399262167,0.033727744851112844,-0.08899253002934282, ,0.014223209484546903,0.03529196905716458,-0.08931851968183555, ,0.0016947513434408955, ,0.011106405906879412,0.031234550029618436,-0.02610157079471745,-0.055858452918573935,0.0010920384175267944,-0.04364027715823802, ,0.04219290658004909, ,0.055869018204085796, ,0.0016402774360382512, ,0.16603875679582697,-0.35580947171414584,0.10272450105000001,-4.509801614521665,0.13936922976074928,-1.259027234761454, ,0.07384975996768155,-0.20364150549028065,0.03670233069124424,0.09598904595572802,0.003765677917109656,0.27493609221850746, ,0.426563024520874
0.013658306399262167,0.033727744851112844,-0.08899253002934282, ,0.01425638030952113,0.03539024440472368,-0.08938455665981866, ,0.0018097740319970655, ,0.011106405906879412,0.031234550029618436,-0.02610157079471745,-0.055858452918573935,0.0010920384175267944,-0.04364027715823802, ,0.04219290658004909, ,0.055869018204085796, ,0.0016414795395556896, ,0.16603875679582697,-0.35580947171414584,0.10272450105000001,-4.509801614521665,0.13936922976074928,-1.259027234761454, ,0.07384975996768155,-0.20364150549028065,0.03670233069124424,0.09598904595572802,0.003765677917109656,0.27493609221850746, ,0.42960286140441895
0.013806890964098735,0.03415596438549621,-0.08932771275074357, ,0.014289608410932408,0.035488251029478515,-0.08945068670343276, ,0.0014223664887261867, ,0.011094451045647545,0.031519114637411194,-0.024596667717063203,-0.01154078333049243,-0.02658271162460118,0.01394037324156132, ,0.041491414706107066, ,0.028979669327305245, ,0.0016399364899019606, ,0.1670581575352246,-0.35867460561048314,0.10320672093000001,-4.508962854747727,0.1395058662605147,-1.2557898243193875, ,0.07634508572684696,-0.21041450456423677,0.035476194922048995,0.03445995272188144,0.0066805496115864196,0.22768734348676312, ,0.4335050582885742
0.013806890964098735,0.03415596438549621,-0.08932771275074357, ,0.014322893882579032,0.0355859894348423,-0.0895169103461077, ,0.0015320007779792558, ,0.011094451045647545,0.031519114637411194,-0.024596667717063203,-0.01154078333049243,-0.02658271162460118,0.01394037324156132, ,0.041491414706107066, ,0.028979669327305245, ,0.00163918169471369, ,0.1670581575352246,-0.35867460561048314,0.10320672093000001,-4.508962854747727,0.1395058662605147,-1.2557898243193875, ,0.07634508572684696,-0.21041450456423677,0.035476194922048995,0.03445995272188144,0.0066805496115864196,0.22768734348676312, ,0.43950986862182617
0.013806890964098735,0.03415596438549621,-0.08932771275074357, ,0.014356236817923904,0.0356834601219701,-0.08958322811710716, ,0.0016432626675333259, ,0.011094451045647545,0.031519114637411194,-0.024596667717063203,-0.01154078333049243,-0.02658271162460118,0.01394037324156132, ,0.041491414706107066, ,0.028979669327305245, ,0.001639210034802715, ,0.16777637169252746,-0.36069796162352996,0.10352949714000001,-4.508543474860758,0.13964250276028015,-1.2538592737195697, ,0.07862215539227074,-0.2297746768970237,0.034552736485900216,0.03723329268370926,0.00887726930379548,0.22106335728484583, ,0.4425928592681885
0.01390874970497713,0.03445334124812554,-0.08954697269251945, ,0.014389637310094395,0.03578066358976542,-0.08964964054153514, ,0.0014154780728055474, ,0.011043896141802546,0.03306951438012316,-0.022955810913128934,0.014837070965521157,-0.026742601229803063,0.01535338634386936, ,0.04174361841057173, ,0.030582658821980153, ,0.0016376670557544585, ,0.16777637169252746,-0.36069796162352996,0.10352949714000001,-4.508543474860758,0.13964250276028015,-1.2538592737195697, ,0.07862215539227074,-0.2297746768970237,0.034552736485900216,0.03723329268370926,0.00887726930379548,0.22106335728484583, ,0.44567084312438965
0.01390874970497713,0.03445334124812554,-0.08954697269251945, ,0.01442309545188217,0.03587760033488851,-0.08971614814034566, ,0.001523707920086192, ,0.011043896141802546,0.03306951438012316,-0.022955810913128934,0.014837070965521157,-0.026742601229803063,0.01535338634386936, ,0.04174361841057173, ,0.030582658821980153, ,0.0016368865137293335, ,0.16777637169252746,-0.36069796162352996,0.10352949714000001,-4.508543474860758,0.13964250276028015,-1.2538592737195697, ,0.07862215539227074,-0.2297746768970237,0.034552736485900216,0.03723329268370926,0.00887726930379548,0.22106335728484583, ,0.44850587844848633
0.01390874970497713,0.03445334124812554,-0.08954697269251945, ,0.014456611335743158,0.03597427085176292,-0.08978275143035123, ,0.0016336985153019275, ,0.011043896141802546,0.03306951438012316,-0.022955810913128934,0.014837070965521157,-0.026742601229803063,0.01535338634386936, ,0.04174361841057173, ,0.030582658821980153, ,0.0016368648266652016, ,0.16777637169252746,-0.36069796162352996,0.10352949714000001,-4.508543474860758,0.13964250276028015,-1.2538592737195697, ,0.07862215539227074,-0.2297746768970237,0.034552736485900216,0.03723329268370926,0.00887726930379548,0.22106335728484583, ,0.4513528347015381
0.014024601793366589,0.03480077649926697,-0.08977086744229613, ,0.014490185053797651,0.03607067563258377,-0.08984945092423044, ,0.0013548383463813302, ,0.010166460866553406,0.030844514525568786,-0.018354872486221,0.03026947732951715,-0.014443716169787017,-0.024709521645469208, ,0.03730472284918651, ,0.033538934259623086, ,0.001634959242338959, ,0.1686335950415664,-0.3631615134104076,0.10387690286000001,-4.507914405030304,0.1397791392600456,-1.2515203294190491, ,0.07683962879228404,-0.22328692131404887,0.029443274528650653,0.07827293181816834,0.006749160273181488,0.2051987855237289, ,0.4542698860168457
0.014024601793366589,0.03480077649926697,-0.08977086744229613, ,0.01452381669782988,0.036166815167324305,-0.08991624713053656, ,0.00146164715893373, ,0.010166460866553406,0.030844514525568786,-0.018354872486221,0.03026947732951715,-0.014443716169787017,-0.024709521645469208, ,0.03730472284918651, ,0.033538934259623086, ,0.0016337960739939577, ,0.1686335950415664,-0.3631615134104076,0.10387690286000001,-4.507914405030304,0.1397791392600456,-1.2515203294190491, ,0.07683962879228404,-0.22328692131404887,0.029443274528650653,0.07827293181816834,0.006749160273181488,0.2051987855237289, ,0.4573099613189697
0.014024601793366589,0.03480077649926697,-0.08977086744229613, ,0.01455750635928829,0.03626268994374393,-0.08998314055370635, ,0.0015704260789194987, ,0.010166460866553406,0.030844514525568786,-0.018354872486221,0.03026947732951715,-0.014443716169787017,-0.024709521645469208, ,0.03730472284918651, ,0.033538934259623086, ,0.001633373607360128, ,0.1686335950415664,-0.3631615134104076,0.10387690286000001,-4.507914405030304,0.1397791392600456,-1.2515203294190491, ,0.07683962879228404,-0.22328692131404887,0.029443274528650653,0.07827293181816834,0.006749160273181488,0.2051987855237289, ,0.46021294593811035
0.014125729970012222,0.03511704697973117,-0.08993962743739149, ,0.014591254129285252,0.03635830044739525,-0.09005013169406774, ,0.0013302759505450486, ,0.009882279489263592,0.031799797059239084,-0.015401138751169965,0.046791576690504405,-0.019089779193525627,0.006513554043661189, ,0.03668898493751905, ,0.05053583334971035, ,0.001631366338109697, ,0.1686335950415664,-0.3631615134104076,0.10387690286000001,-4.507914405030304,0.1397791392600456,-1.2515203294190491, ,0.07683962879228404,-0.22328692131404887,0.029443274528650653,0.07827293181816834,0.006749160273181488,0.2051987855237289, ,0.46300792694091797
0.014125729970012222,0.03511704697973117,-0.08993962743739149, ,0.014625060098597112,0.036453647161631623,-0.09011722104784854, ,0.0014378352179732204, ,0.009882279489263592,0.031799797059239084,-0.015401138751169965,0.046791576690504405,-0.019089779193525627,0.006513554043661189, ,0.03668898493751905, ,0.05053583334971035, ,0.0016300931070561675, ,0.16942903652761152,-0.36551694693704606,0.10416079037,-4.507285335199851,0.139915775759811,-1.2495081000790913, ,0.07981239828298636,-0.24208403458793568,0.027089815510204087,0.05155671179679261,0.01532039273920881,0.20421862410480482, ,0.46610403060913086
0.014125729970012222,0.03511704697973117,-0.08993962743739149, ,0.01465892435766402,0.036548730567614596,-0.09018440910718528, ,0.0015472337304703418, ,0.009882279489263592,0.031799797059239084,-0.015401138751169965,0.046791576690504405,-0.019089779193525627,0.006513554043661189, ,0.03668898493751905, ,0.05053583334971035, ,0.0016295515425033189, ,0.16942903652761152,-0.36551694693704606,0.10416079037,-4.507285335199851,0.139915775759811,-1.2495081000790913, ,0.07981239828298636,-0.24208403458793568,0.027089815510204087,0.05155671179679261,0.01532039273920881,0.20421862410480482, ,0.46910786628723145
0.014125729970012222,0.03511704697973117,-0.08993962743739149, ,0.014692846996589974,0.03664355114432115,-0.09025169636013075, ,0.001658078315063731, ,0.009882279489263592,0.031799797059239084,-0.015401138751169965,0.046791576690504405,-0.019089779193525627,0.006513554043661189, ,0.03668898493751905, ,0.05053583334971035, ,0.0016297367812861787, ,0.16942903652761152,-0.36551694693704606,0.10416079037,-4.507285335199851,0.139915775759811,-1.2495081000790913, ,0.07981239828298636,-0.24208403458793568,0.027089815510204087,0.05155671179679261,0.01532039273920881,0.20421862410480482, ,0.47216200828552246
0.014231605716067129,0.03544945706991072,-0.09010222179964741, ,0.014726828105142585,0.03673810936855135,-0.09031908329066228, ,0.0013974615800509743, ,0.010471178184644643,0.03250992010574249,-0.01642927982706746,0.03350838997943379,-0.020234133380195973,0.004485802045821432, ,0.037900682229907466, ,0.03914372434587134, ,0.0016282382316007904, ,0.170270814410902,-0.3680345578540432,0.10444597417000001,-4.506656265369397,0.139915775759811,-1.247139416615015, ,0.08390534178467797,-0.24332549117556607,0.02844430628571429,0.05466498535377996,0.014905794149465764,0.21930931104930268, ,0.4750180244445801
0.014231605716067129,0.03544945706991072,-0.09010222179964741, ,0.014760867772753136,0.03683240571493532,-0.0903865703786911, ,0.0015078194168490606, ,0.010471178184644643,0.03250992010574249,-0.01642927982706746,0.03350838997943379,-0.020234133380195973,0.004485802045821432, ,0.037900682229907466, ,0.03914372434587134, ,0.0016274663161216125, ,0.170270814410902,-0.3680345578540432,0.10444597417000001,-4.506656265369397,0.139915775759811,-1.247139416615015, ,0.08390534178467797,-0.24332549117556607,0.02844430628571429,0.05466498535377996,0.014905794149465764,0.21930931104930268, ,0.4779670238494873
0.014231605716067129,0.03544945706991072,-0.09010222179964741, ,0.01479496608851651,0.03692644065594135,-0.09045415810007001, ,0.0016194797257778023, ,0.010471178184644643,0.03250992010574249,-0.01642927982706746,0.03350838997943379,-0.020234133380195973,0.004485802045821432, ,0.037900682229907466, ,0.03914372434587134, ,0.0016274154461194228, ,0.170270814410902,-0.3680345578540432,0.10444597417000001,-4.506656265369397,0.139915775759811,-1.247139416615015, ,0.08390534178467797,-0.24332549117556607,0.02844430628571429,0.05466498535377996,0.014905794149465764,0.21930931104930268, ,0.48084306716918945
0.014332103458737613,0.035759397136924415,-0.09026802571269762, ,0.014829123141191008,0.037020214661882406,-0.09052184692660155, ,0.001378809125519167, ,0.011180494942675596,0.03454054892934478,-0.018687392469594694,0.04283909698238773,-0.018416881700954974,-0.020025177683655228, ,0.0408322375680824, ,0.04663011347678179, ,0.0016258419883941049, ,0.17105853316407288,-0.37031276405193947,0.10472597281000001,-4.506027195538945,0.14005241225957646,-1.2451271872750567, ,0.08634844545811718,-0.25238548286827334,0.03141777420118344,0.08079517817474856,0.008647127352704738,0.2221959947072109, ,0.4838700294494629
0.014332103458737613,0.035759397136924415,-0.09026802571269762, ,0.014863339019198344,0.03711372820092428,-0.09058963732604688, ,0.001489918749950532, ,0.011180494942675596,0.03454054892934478,-0.018687392469594694,0.04283909698238773,-0.018416881700954974,-0.020025177683655228, ,0.0408322375680824, ,0.04663011347678179, ,0.0016249871252592397, ,0.17105853316407288,-0.37031276405193947,0.10472597281000001,-4.506027195538945,0.14005241225957646,-1.2451271872750567, ,0.08634844545811718,-0.25238548286827334,0.03141777420118344,0.08079517817474856,0.008647127352704738,0.2221959947072109, ,0.4867558479309082
0.014332103458737613,0.035759397136924415,-0.09026802571269762, ,0.014897613810623652,0.03720698173909276,-0.09065752976213406, ,0.001602191169321733, ,0.011180494942675596,0.03454054892934478,-0.018687392469594694,0.04283909698238773,-0.018416881700954974,-0.020025177683655228, ,0.0408322375680824, ,0.04663011347678179, ,0.0016248446505346304, ,0.17105853316407288,-0.37031276405193947,0.10472597281000001,-4.506027195538945,0.14005241225957646,-1.2451271872750567, ,0.08634844545811718,-0.25238548286827334,0.03141777420118344,0.08079517817474856,0.008647127352704738,0.2221959947072109, ,0.4896409511566162
0.014454543410816556,0.036145303459967325,-0.09048669477424219, ,0.014931947603215234,0.037299975740280794,-0.09072552469456582, ,0.001670399701156994, ,0.011486725695203343,0.03506577354873696,-0.020791262299452808,0.039916365607280506,-0.018436453731200633,0.006282472070486132, ,0.042353629475793374, ,0.04396834297944524, ,0.001625127601159614, ,0.17199298384185405,-0.37308522515378606,0.10508634143000001,-4.505188435765006,0.14032568525910732,-1.242817982138092, ,0.08634844545811718,-0.2477726933641535,0.03367613429175476,0.055846641497657425,0.018998016692708793,0.21803932763415174, ,0.49330806732177734
0.014454543410816556,0.036145303459967325,-0.09048669477424219, ,0.014966340484384649,0.03739271066625614,-0.09079362257902872, ,0.0013828107824880506, ,0.011486725695203343,0.03506577354873696,-0.020791262299452808,0.039916365607280506,-0.018436453731200633,0.006282472070486132, ,0.042353629475793374, ,0.04396834297944524, ,0.0016236318183283078, ,0.17199298384185405,-0.37308522515378606,0.10508634143000001,-4.505188435765006,0.14032568525910732,-1.242817982138092, ,0.08634844545811718,-0.2477726933641535,0.03367613429175476,0.055846641497657425,0.018998016692708793,0.21803932763415174, ,0.49608397483825684
0.014454543410816556,0.036145303459967325,-0.09048669477424219, ,0.015000792541206568,0.03748518697666879,-0.09086182386720114, ,0.0014947902151018838, ,0.011486725695203343,0.03506577354873696,-0.020791262299452808,0.039916365607280506,-0.018436453731200633,0.006282472070486132, ,0.042353629475793374, ,0.04396834297944524, ,0.0016228413790447104, ,0.17199298384185405,-0.37308522515378606,0.10508634143000001,-4.505188435765006,0.14032568525910732,-1.242817982138092, ,0.08634844545811718,-0.2477726933641535,0.03367613429175476,0.055846641497657425,0.018998016692708793,0.21803932763415174, ,0.49895501136779785
0.014454543410816556,0.036145303459967325,-0.09048669477424219, ,0.015035303860418719,0.03757740512905826,-0.09093012900676142, ,0.0016077412133191909, ,0.011486725695203343,0.03506577354873696,-0.020791262299452808,0.039916365607280506,-0.018436453731200633,0.006282472070486132, ,0.042353629475793374, ,0.04396834297944524, ,0.0016227493048634571, ,0.17199298384185405,-0.37308522515378606,0.10508634143000001,-4.505188435765006,0.14032568525910732,-1.242817982138092, ,0.08634844545811718,-0.2477726933641535,0.03367613429175476,0.055846641497657425,0.018998016692708793,0.21803932763415174, ,0.5019040107727051
