NicholasDascanio/dvrk_moveit_final/test/execution/noob_justexecution/no_ramp/noob__noramp_200vel5.csv
Current Position (x),Current Position (y),Current Position (z), ,Planned Position (x),Planned Position (y),Planned Position (z), ,Position Error,,Cartesian linear Velocity(x),Cartesian linear Velocity(y),Cartesian linear Velocity(z),Cartesian Angular Velocity(x),Cartesian Angular Velocity(y),Cartesian Angular Velocity(z), ,Total Linear Velocity, ,Total Angular Velocity, ,MSE, ,Joint 1 Position,Joint 2 Position,Joint 3 Position,Joint 4 Position,Joint 5 Position,Joint 6 Position, ,Joint 1 Velocity,Joint 2 Velocity,Joint 3 Velocity,Joint 4 Velocity,Joint 5 Velocity,Joint 6 Velocity, ,Time Stamp
0.009888697536531526,0.018909912431328637,-0.08048394284431848, ,0.010202434232504868,0.018984452882961328,-0.08073554686906816, ,0.000409012932069526, ,5.926996153730257e-05,-3.699354190063445e-05,1.3253733116567448e-05,-0.00053172001612733,-0.0009736388490511085,0.0009081621395857957, ,7.111337373878784e-05, ,0.0011093686420356468, ,0.000204506466034763, ,0.1393644374482555,-0.22619112315316167,0.08986271167000001,-4.537690377005107,0.15549233673307122,-1.3824408465873907, ,0.0007496683166246239,0.0004004049402543074,-1.4175532653259674e-05,-0.000998660768500919,0.0,0.0, ,0.005238056182861328
0.009888697536531526,0.018909912431328637,-0.08048394284431848, ,0.01025864537048902,0.019237199989398157,-0.08087595943213785, ,0.0006305993582636238, ,5.926996153730257e-05,-3.699354190063445e-05,1.3253733116567448e-05,-0.00053172001612733,-0.0009736388490511085,0.0009081621395857957, ,7.111337373878784e-05, ,0.0011093686420356468, ,0.0003465374301110499, ,0.1393644374482555,-0.22619112315316167,0.08986271167000001,-4.537690377005107,0.15549233673307122,-1.3824408465873907, ,0.0007496683166246239,0.0004004049402543074,-1.4175532653259674e-05,-0.000998660768500919,0.0,0.0, ,0.010531902313232422
0.009890851649759726,0.018916040101310344,-0.08049028365703975, ,0.010314917986703712,0.019489205839212768,-0.08101583481167239, ,0.00088575122769885, ,0.00039410098859881017,0.0023013604062167774,-0.002158280872769918,0.06282131385838452,-0.006983589543565372,0.0016577489329125024, ,0.0031795835630285436, ,0.06320829057773845, ,0.0004813408795079999, ,0.13937988291400394,-0.22624518228328125,0.08987048941,-4.537690377005107,0.15549233673307122,-1.3824408465873907, ,0.0011181982999907516,-0.021050785616342233,0.0026561299849924965,-0.000998660768500919,0.0,-0.04254461169825707, ,0.015897035598754883
0.009890851649759726,0.018916040101310344,-0.08049028365703975, ,0.010371254509767329,0.01974046900094613,-0.08115518770821768, ,0.0011629992758944347, ,0.00039410098859881017,0.0023013604062167774,-0.002158280872769918,0.06282131385838452,-0.006983589543565372,0.0016577489329125024, ,0.0031795835630285436, ,0.06320829057773845, ,0.0006176725587852869, ,0.13937988291400394,-0.22624518228328125,0.08987048941,-4.537690377005107,0.15549233673307122,-1.3824408465873907, ,0.0011181982999907516,-0.021050785616342233,0.0026561299849924965,-0.000998660768500919,0.0,-0.04254461169825707, ,0.021235942840576172
0.00992421101139462,0.018998500229778448,-0.08059558657856175, ,0.01042765735438585,0.0199909880462213,-0.0812940327031771, ,0.0013138939359967168, ,0.0041664854077243145,0.009273598699276867,-0.015033643306547054,0.041907924556371476,-0.13111047066218695,-0.021825512738446625, ,0.01814854441977362, ,0.13764530100934597, ,0.0007337094549871919, ,0.1394880011742431,-0.22694022824196144,0.08999363696000001,-4.537900066948591,0.1543992447349477,-1.3822029332789438, ,0.011288102458606812,-0.06901595749706967,0.016981675394456292,0.001137755868025423,-0.12636108420837855,0.008850894566536649, ,0.0268099308013916
0.00992421101139462,0.018998500229778448,-0.08059558657856175, ,0.010484128921376032,0.020240761549821303,-0.08143238425917755, ,0.0015990470948275884, ,0.0041664854077243145,0.009273598699276867,-0.015033643306547054,0.041907924556371476,-0.13111047066218695,-0.021825512738446625, ,0.01814854441977362, ,0.13764530100934597, ,0.0008573291178215343, ,0.1394880011742431,-0.22694022824196144,0.08999363696000001,-4.537900066948591,0.1543992447349477,-1.3822029332789438, ,0.011288102458606812,-0.06901595749706967,0.016981675394456292,0.001137755868025423,-0.12636108420837855,0.008850894566536649, ,0.03211188316345215
0.009996706618802238,0.019128796715783956,-0.0808504395873985, ,0.010540671597688137,0.02048978808976735,-0.08157025672043795, ,0.0016328907260832496, ,0.009102975603405698,0.016349972080613596,-0.03365674182812003,-0.1251421369573559,-0.27755585624489865,-0.13826777674155386, ,0.0385092459333829, ,0.30446307590636423, ,0.0009542743188542487, ,0.13963473309885335,-0.22778972885812615,0.09027493189000001,-4.537061307174653,0.1516665147396389,-1.380873041346562, ,0.018326948929793505,-0.10160272115467964,0.036957799350348035,0.08726029395363039,-0.31793018540385004,0.1944948173856429, ,0.03741312026977539
0.009996706618802238,0.019128796715783956,-0.0808504395873985, ,0.010597287756429067,0.020738066247396776,-0.08170766431313446, ,0.0019197084045926283, ,0.009102975603405698,0.016349972080613596,-0.03365674182812003,-0.1251421369573559,-0.27755585624489865,-0.13826777674155386, ,0.0385092459333829, ,0.30446307590636423, ,0.0010615447728251797, ,0.13963473309885335,-0.22778972885812615,0.09027493189000001,-4.537061307174653,0.1516665147396389,-1.380873041346562, ,0.018326948929793505,-0.10160272115467964,0.036957799350348035,0.08726029395363039,-0.31793018540385004,0.1944948173856429, ,0.042736053466796875
0.010100360624695513,0.019318034283901848,-0.08124496521887925, ,0.010653979756885316,0.020985594607441167,-0.08184462114576886, ,0.0018565664024814696, ,0.010778917417339325,0.020864651903760915,-0.04316087595919096,-0.16272417706217013,-0.25846237807386424,-0.15405045695451788, ,0.04913634065861644, ,0.30542070804227694, ,0.0011410469357908087, ,0.13985869235220588,-0.22893269332351138,0.09070789275,-4.535593477570262,0.14838723874526832,-1.3782806903979883, ,0.02312303644212251,-0.12636077437878931,0.04740717714285715,0.11173003506299296,-0.3089785257853759,0.26153563533292257, ,0.048037052154541016
0.010100360624695513,0.019318034283901848,-0.08124496521887925, ,0.01071074994454573,0.02123237175810428,-0.08198114120953459, ,0.002139910786958263, ,0.010778917417339325,0.020864651903760915,-0.04316087595919096,-0.16272417706217013,-0.25846237807386424,-0.15405045695451788, ,0.04913634065861644, ,0.30542070804227694, ,0.0012318527404423954, ,0.13985869235220588,-0.22893269332351138,0.09070789275,-4.535593477570262,0.14838723874526832,-1.3782806903979883, ,0.02312303644212251,-0.12636077437878931,0.04740717714285715,0.11173003506299296,-0.3089785257853759,0.26153563533292257, ,0.0533909797668457
0.010183276852581755,0.0194993709178571,-0.08159777479707142, ,0.010767600651124561,0.021478396291140126,-0.08211723837868444, ,0.002127867040551109, ,0.010205856001275816,0.024782381561148578,-0.045558740592914676,-0.08434893073373216,-0.157919346307143,-0.05217842865821109, ,0.05285758958724496, ,0.1790337001290755, ,0.0013065205987847883, ,0.14005176067406147,-0.23008338052177083,0.09109807604,-4.535174097683293,0.14647432774855218,-1.3759040523448325, ,0.02603482621631572,-0.16277348466290012,0.05072869910828026,0.042011297107704584,-0.1800567246470389,0.22780740888372075, ,0.058691978454589844
0.010183276852581755,0.0194993709178571,-0.08159777479707142, ,0.010824534194584255,0.021723666801930917,-0.08225292641089671, ,0.0024058110473762703, ,0.009898203852955915,0.029442310830383327,-0.04460344258986551,-0.03953601209327561,-0.02808731540180741,-0.02824651626240779, ,0.054353391774709034, ,0.04849553586895924, ,0.0013910814025225944, ,0.14045334278352115,-0.23238475491828972,0.09174103588000002,-4.534335337909355,0.14538123575042863,-1.37190891698992, ,0.03843537527682089,-0.21325155406397928,0.05105388307692308,0.06128010469736117,-0.040577829830281,0.2558672842014731, ,0.0641789436340332
0.01030732663053756,0.019836318007989844,-0.08216870229941964, ,0.010881552879158374,0.021968181889564963,-0.08238821894764234, ,0.002218730932992236, ,0.009898203852955915,0.029442310830383327,-0.04460344258986551,-0.03953601209327561,-0.02808731540180741,-0.02824651626240779, ,0.054353391774709034, ,0.04849553586895924, ,0.0014501992261275688, ,0.14045334278352115,-0.23238475491828972,0.09174103588000002,-4.534335337909355,0.14538123575042863,-1.37190891698992, ,0.03843537527682089,-0.21325155406397928,0.05105388307692308,0.06128010469736117,-0.040577829830281,0.2558672842014731, ,0.06944394111633301
0.01040792286872511,0.02014882461749482,-0.08258039171655271, ,0.010938658995374365,0.0222119401569149,-0.08252312951455185, ,0.002131057372504377, ,0.010168526904037233,0.0327291180174914,-0.03753125190061934,0.06658778258387206,-0.00036653722132693866,-0.09332773584828805, ,0.050825082142862806, ,0.06658823223161914, ,0.001495589769219356, ,0.14092442948884884,-0.23478652484217355,0.09222325576000001,-4.532867508304963,0.14510796275089774,-1.369807470159294, ,0.05641910913107657,-0.26507525574991836,0.04512411195467422,0.14332735489553455,-0.007553575771433575,0.21662927265734488, ,0.07474589347839355
0.01040792286872511,0.02014882461749482,-0.08258039171655271, ,0.010995854820076497,0.022454940210715393,-0.08265767152178187, ,0.002381135291622714, ,0.010168526904037233,0.0327291180174914,-0.03753125190061934,0.06658778258387206,-0.00036653722132693866,-0.09332773584828805, ,0.050825082142862806, ,0.06658823223161914, ,0.001550936364369566, ,0.14092442948884884,-0.23478652484217355,0.09222325576000001,-4.532867508304963,0.14510796275089774,-1.369807470159294, ,0.05641910913107657,-0.26507525574991836,0.04512411195467422,0.14332735489553455,-0.007553575771433575,0.21662927265734488, ,0.08001399040222168
0.010512435656972623,0.02048067222094705,-0.08289682011933985, ,0.011053142616448625,0.02269718066164131,-0.08279185826438255, ,0.002283920023707212, ,0.01050166004927032,0.03473185725047628,-0.026976104977587338,0.013436444425996522,-0.1397872690576782,-0.008353399791300339, ,0.04521390285763566, ,0.14043149341900232, ,0.0015940530502129568, ,0.14154224811878682,-0.23765938147138507,0.09261862421000001,-4.53223843847451,0.14428814375230511,-1.367587066674445, ,0.06517647085059805,-0.31738107544639055,0.03539735893333334,0.03399814278727336,-0.12838989307062618,0.28990818528408313, ,0.08535194396972656
0.010512435656972623,0.02048067222094705,-0.08289682011933985, ,0.011110524634036955,0.022938660124385432,-0.08292570292266375, ,0.0025298713750432286, ,0.01050166004927032,0.03473185725047628,-0.026976104977587338,0.013436444425996522,-0.1397872690576782,-0.008353399791300339, ,0.04521390285763566, ,0.14043149341900232, ,0.001646042957147972, ,0.14154224811878682,-0.23765938147138507,0.09261862421000001,-4.53223843847451,0.14428814375230511,-1.367587066674445, ,0.06517647085059805,-0.31738107544639055,0.03539735893333334,0.03399814278727336,-0.12838989307062618,0.28990818528408313, ,0.09062790870666504
0.010619196235739805,0.02085720599837581,-0.08313686153831598, ,0.011168003108773012,0.02317937721773674,-0.08305921856256168, ,0.002387403733682407, ,0.010451897965354619,0.039578256780917434,-0.02256246565568864,-0.14686078219514112,-0.09916086350402042,0.02964402946750706, ,0.046741260545245786, ,0.1772031612326251, ,0.0016850619453866265, ,0.1422681850089639,-0.2412272840592768,0.09295177074000001,-4.531819058587541,0.14305841525441615,-1.3629904409749924, ,0.07402257531861994,-0.3811122150942602,0.032441571323828924,0.018963712519376338,-0.10602073649955326,0.5168423208575103, ,0.09590792655944824
0.010619196235739805,0.02085720599837581,-0.08313686153831598, ,0.011225580262996235,0.02341933056465806,-0.08319241813600664, ,0.0026334901589346585, ,0.010451897965354619,0.039578256780917434,-0.02256246565568864,-0.14686078219514112,-0.09916086350402042,0.02964402946750706, ,0.046741260545245786, ,0.1772031612326251, ,0.0017324833560640282, ,0.1422681850089639,-0.2412272840592768,0.09295177074000001,-4.531819058587541,0.14305841525441615,-1.3629904409749924, ,0.07402257531861994,-0.3811122150942602,0.032441571323828924,0.018963712519376338,-0.10602073649955326,0.5168423208575103, ,0.10120797157287598
0.010714536480354924,0.02126114220123334,-0.08333550594628132, ,0.01128325830547684,0.02365851879236408,-0.08332531448128869, ,0.0024639324057348553, ,0.009486054290507952,0.04189953059833707,-0.01893661204282173,-0.05595479312815595,0.02554345660494205,-0.06697649339151603, ,0.046948388321898654, ,0.06150938639161926, ,0.0017673142631912104, ,0.14300956736488948,-0.24516587782513127,0.09325251002000001,-4.530560918926633,0.1426485057551198,-1.3571837116744856, ,0.07921280597535124,-0.4108092708158908,0.029662591284916204,0.15147127532104496,0.0,0.4886761027593692, ,0.10654807090759277
0.010714536480354924,0.02126114220123334,-0.08333550594628132, ,0.011341039431438656,0.023896940532399477,-0.08345792032342499, ,0.002711996325592329, ,0.009486054290507952,0.04189953059833707,-0.01893661204282173,-0.05595479312815595,0.02554345660494205,-0.06697649339151603, ,0.046948388321898654, ,0.06150938639161926, ,0.0018102543569367162, ,0.14300956736488948,-0.24516587782513127,0.09325251002000001,-4.530560918926633,0.1426485057551198,-1.3571837116744856, ,0.07921280597535124,-0.4108092708158908,0.029662591284916204,0.15147127532104496,0.0,0.4886761027593692, ,0.11183309555053711
0.010790003038436653,0.02163125082379444,-0.08347844313441373, ,0.01139892582258178,0.024134594420716637,-0.08359024827452624, ,0.002578762592922814, ,0.009242861090953925,0.04613128827275719,-0.016642438924455473,0.2761362677736843,-0.0142289433810871,0.017962998955844963, ,0.04990487964322853, ,0.2765026219279553, ,0.001843667758501329, ,0.14368144512494702,-0.2488573441390106,0.09349102738000001,-4.529722159152695,0.14292177875465073,-1.354466112836818, ,0.08295187199167026,-0.4629119100413209,0.028648941582733817,0.06608779043523413,0.0262488142779231,0.19707177155349234, ,0.11721611022949219
0.010790003038436653,0.02163125082379444,-0.08347844313441373, ,0.011456919647105449,0.024371479097753685,-0.08372231083416393, ,0.002830741989533028, ,0.009242861090953925,0.04613128827275719,-0.016642438924455473,0.2761362677736843,-0.0142289433810871,0.017962998955844963, ,0.04990487964322853, ,0.2765026219279553, ,0.0018847958514609832, ,0.14368144512494702,-0.2488573441390106,0.09349102738000001,-4.529722159152695,0.14292177875465073,-1.354466112836818, ,0.08295187199167026,-0.4629119100413209,0.028648941582733817,0.06608779043523413,0.0262488142779231,0.19707177155349234, ,0.12253904342651367
0.010902464045365335,0.02217446337291902,-0.08367260162620052, ,0.011515023059730648,0.024607593208512343,-0.08385412038973644, ,0.0025156109405967777, ,0.010523566898414646,0.04893671357197999,-0.01844840172808404,0.26793453417360796,-0.08377359108824095,0.0649988024398193, ,0.05334689233509477, ,0.2807257149420074, ,0.0019100284550264148, ,0.14466995493284773,-0.2543018708153389,0.09382806278000001,-4.529302779265726,0.14292177875465073,-1.35185239315232, ,0.08902152116179247,-0.48665098235113213,0.03141777420118344,0.00677438551379987,-0.02727454070472507,0.2128708266972184, ,0.12787890434265137
0.010902464045365335,0.02217446337291902,-0.08367260162620052, ,0.011573238201722976,0.024842935402635945,-0.08398568921683577, ,0.0027692426368284627, ,0.010523566898414646,0.04893671357197999,-0.01844840172808404,0.26793453417360796,-0.08377359108824095,0.0649988024398193, ,0.05334689233509477, ,0.2807257149420074, ,0.0019430751543264937, ,0.14466995493284773,-0.2543018708153389,0.09382806278000001,-4.529302779265726,0.14292177875465073,-1.35185239315232, ,0.08902152116179247,-0.48665098235113213,0.03141777420118344,0.00677438551379987,-0.02727454070472507,0.2128708266972184, ,0.13312697410583496
0.011014117396567675,0.02269414527443192,-0.08387773693942771, ,0.011631567200915367,0.025077504334487338,-0.08411702947961505, ,0.0024736421709347037, ,0.012272136054921383,0.055613867034857024,-0.023445151495886468,0.2175902768832851,-0.05043442168455513,-0.06211825443602672, ,0.06158881926605125, ,0.2233587974560611, ,0.001962725784571242, ,0.14558123741200624,-0.2594143199780755,0.09417157963000002,-4.528464019491787,0.1425118692553544,-1.3489044197567328, ,0.09763059831118392,-0.5391871679458567,0.03792574171428572,0.11176605876716582,-0.03845171051603913,0.32528375381677477, ,0.13843202590942383
0.011014117396567675,0.02269414527443192,-0.08387773693942771, ,0.011690012171730739,0.02531129866322679,-0.08424815323115402, ,0.002728284046200003, ,0.012272136054921383,0.055613867034857024,-0.023445151495886468,0.2175902768832851,-0.05043442168455513,-0.06211825443602672, ,0.06158881926605125, ,0.2233587974560611, ,0.0019900671510579837, ,0.14558123741200624,-0.2594143199780755,0.09417157963000002,-4.528464019491787,0.1425118692553544,-1.3489044197567328, ,0.09763059831118392,-0.5391871679458567,0.03792574171428572,0.11176605876716582,-0.03845171051603913,0.32528375381677477, ,0.14386796951293945
0.011119330410306308,0.02313997327932957,-0.08407756142266608, ,0.011748575215204879,0.0255443170528898,-0.08437907241382672, ,0.0025035428663676518, ,0.013498967046010297,0.05677148208967322,-0.025842961462273162,0.12148749807560372,-0.09969591600982354,-0.04429384150306255, ,0.06382070155606169, ,0.1571574889428992, ,0.002007773210206593, ,0.1463921243637998,-0.2636927139903959,0.09449176326000001,-4.5272058798308805,0.14182868675652718,-1.3455702530734714, ,0.10314884952007694,-0.5422682374769758,0.04126635108808291,0.12012301027229928,-0.0913959582093617,0.4231231178359032, ,0.14919710159301758
0.01128712760947089,0.023851998906802636,-0.08440115131813838, ,0.011807258419008948,0.025776558172465273,-0.08450979885966806, ,0.0019965642274565243, ,0.013498967046010297,0.05677148208967322,-0.025842961462273162,0.12148749807560372,-0.09969591600982354,-0.04429384150306255, ,0.06382070155606169, ,0.1571574889428992, ,0.002007399577448257, ,0.1477436026167891,-0.27045782798821655,0.09501157555,-4.526786499943912,0.14141877725723084,-1.3404986324342296, ,0.11530612583046268,-0.5682451590327592,0.042819385806451615,-0.03399072395214148,-0.025666826223780765,0.4205587602555356, ,0.1546928882598877
0.01128712760947089,0.023851998906802636,-0.08440115131813838, ,0.011866063857472435,0.026008020695973248,-0.08464034429073927, ,0.0022451749180788126, ,0.014035888739763067,0.059748916497852994,-0.026127366909674987,0.1373574795791031,-0.09049205843313565,0.1252492200985048, ,0.06670516094737496, ,0.16448670967750076, ,0.0020150697497266622, ,0.1477436026167891,-0.27045782798821655,0.09501157555,-4.526786499943912,0.14141877725723084,-1.3404986324342296, ,0.11530612583046268,-0.5682451590327592,0.042819385806451615,-0.03399072395214148,-0.025666826223780765,0.4205587602555356, ,0.16022992134094238
0.011430169516668353,0.024463707629181226,-0.08465838325560593, ,0.011924993591605669,0.026238703302542778,-0.08477072031949687, ,0.0018460986218275114, ,0.013600440088184913,0.05874428542154217,-0.023636845427448615,0.12446213565086667,-0.05654980708073774,0.0534639778047806, ,0.06476544990997142, ,0.13670660742441007, ,0.0020097894019798137, ,0.14895607167804234,-0.27626532310963337,0.09544194383000001,-4.526576810000427,0.14141877725723084,-1.3361696592067798, ,0.11474841784579294,-0.5582173032851222,0.040428455634517774,0.04426952938166129,-0.014673018992485212,0.4362781615861264, ,0.1656780242919922
0.011430169516668353,0.024463707629181226,-0.08465838325560593, ,0.011990034282725813,0.0264606148918703,-0.08490038865311074, ,0.0020879783965535676, ,0.013600440088184913,0.05874428542154217,-0.023636845427448615,0.12446213565086667,-0.05654980708073774,0.0534639778047806, ,0.06476544990997142, ,0.13670660742441007, ,0.002012158765451746, ,0.14895607167804234,-0.27626532310963337,0.09544194383000001,-4.526576810000427,0.14141877725723084,-1.3361696592067798, ,0.11474841784579294,-0.5582173032851222,0.040428455634517774,0.04426952938166129,-0.014673018992485212,0.4362781615861264, ,0.17110204696655273
0.01156565133078743,0.025058702025842743,-0.08488306330609938, ,0.012049100215095143,0.026689696009822707,-0.0850305138898575, ,0.0017075145311732543, ,0.013176176443673443,0.05909860806264913,-0.02072907332162855,0.17589372311526297,-0.028801734715492924,-0.007286040787077751, ,0.06399962172849841, ,0.17823618579460604, ,0.002003198640914143, ,0.150114481609176,-0.2819338090393142,0.09583860857000001,-4.525738050226489,0.14128214075746542,-1.331892625555915, ,0.11558701773260752,-0.5648627473718498,0.03801625661097852,0.11307539786503383,0.0,0.4029814392306693, ,0.17653298377990723
0.01156565133078743,0.025058702025842743,-0.08488306330609938, ,0.012108298697191756,0.026917993704773855,-0.08516050273789208, ,0.00195663086705732, ,0.013176176443673443,0.05909860806264913,-0.02072907332162855,0.17589372311526297,-0.028801734715492924,-0.007286040787077751, ,0.06399962172849841, ,0.17823618579460604, ,0.002001868133089662, ,0.150114481609176,-0.2819338090393142,0.09583860857000001,-4.525738050226489,0.14128214075746542,-1.331892625555915, ,0.11558701773260752,-0.5648627473718498,0.03801625661097852,0.11307539786503383,0.0,0.4029814392306693, ,0.18192791938781738
0.011698944345140856,0.025650674815760468,-0.0850838238522784, ,0.012167631673828417,0.02714550666258509,-0.08529036640969542, ,0.0015801423639589432, ,0.012777996671567328,0.05755126835791323,-0.018178899257572094,0.18909206175960447,-0.032333108352909506,-0.005543207319212741, ,0.061691961119420456, ,0.19183648175179102, ,0.0019901535283915867, ,0.15129605973893237,-0.28758684950324653,0.09621453267,-4.524479910565582,0.14128214075746542,-1.327972046029168, ,0.11488733844851184,-0.5517264044097138,0.03539735893333334,0.1089346358232111,0.0,0.3759269779984915, ,0.18727397918701172
0.011698944345140856,0.025650674815760468,-0.0850838238522784, ,0.012227101079320192,0.02737223357655021,-0.08542011600860591, ,0.0018318860546219294, ,0.012777996671567328,0.05755126835791323,-0.018178899257572094,0.18909206175960447,-0.032333108352909506,-0.005543207319212741, ,0.061691961119420456, ,0.19183648175179102, ,0.0019858760291005147, ,0.15129605973893237,-0.28758684950324653,0.09621453267,-4.524479910565582,0.14128214075746542,-1.327972046029168, ,0.11488733844851184,-0.5517264044097138,0.03539735893333334,0.1089346358232111,0.0,0.3759269779984915, ,0.1925950050354004
0.011820773996580113,0.02620453728725479,-0.08525492550872803, ,0.012286708837401156,0.027598173147360936,-0.08554976252923116, ,0.0014987478290639472, ,0.012426190124118252,0.05546225072384607,-0.016916181891130037,0.19464370354145144,-0.048609015552485924,0.03694450222790322, ,0.059301169180120676, ,0.20062155002919466, ,0.0019730568659416577, ,0.1524081332728207,-0.29289236698783877,0.09655286436,-4.523850840735128,0.14141877725723084,-1.32457127810682, ,0.11270420612644985,-0.5301505114998367,0.03381913273885351,0.05997796439616483,0.0,0.34155592491783454, ,0.19789791107177734
0.011820773996580113,0.02620453728725479,-0.08525492550872803, ,0.012346456861146224,0.02782332408309193,-0.0856793168578594, ,0.0017541154983901866, ,0.012426190124118252,0.05546225072384607,-0.016916181891130037,0.19464370354145144,-0.048609015552485924,0.03694450222790322, ,0.059301169180120676, ,0.20062155002919466, ,0.0019674429847223894, ,0.1524081332728207,-0.29289236698783877,0.09655286436,-4.523850840735128,0.14141877725723084,-1.32457127810682, ,0.11270420612644985,-0.5301505114998367,0.03381913273885351,0.05997796439616483,0.0,0.34155592491783454, ,0.20316410064697266
0.011939644306709794,0.02674672785109159,-0.08542595682580162, ,0.012406347052896383,0.028047685099187047,-0.08580878977286897, ,0.0014341765163432571, ,0.012438343769829656,0.055742558956452866,-0.019338235175373576,0.19372769918318003,-0.045825152948067355,0.03868077549566599, ,0.06029852912342174, ,0.19907376363810447, ,0.001954111323012911, ,0.15348159314233792,-0.2980357070820723,0.09688989976000001,-4.523221770904676,0.1415554137569963,-1.3214155464048938, ,0.10808307694586651,-0.5214117668047844,0.03645036961098399,0.057070120075675766,0.0,0.3332667063855089, ,0.20841598510742188
0.011939644306709794,0.02674672785109159,-0.08542595682580162, ,0.012466381304186145,0.02827125491844404,-0.08593819194513531, ,0.0016923414138640767, ,0.012438343769829656,0.055742558956452866,-0.019338235175373576,0.19372769918318003,-0.045825152948067355,0.03868077549566599, ,0.06029852912342174, ,0.19907376363810447, ,0.0019477266910824516, ,0.15348159314233792,-0.2980357070820723,0.09688989976000001,-4.523221770904676,0.1415554137569963,-1.3214155464048938, ,0.10808307694586651,-0.5214117668047844,0.03645036961098399,0.057070120075675766,0.0,0.3332667063855089, ,0.21369004249572754
0.012062671950746558,0.02729137014278161,-0.08563023332929584, ,0.012526561495675433,0.028494032271009523,-0.08606753393843841, ,0.001361183869770899, ,0.01209593542082325,0.05244634061318603,-0.020881264657842458,0.16098960600631287,-0.02818949547663976,-0.002651877728642155, ,0.057731772111463145, ,0.16343897003883415, ,0.0019337613858131288, ,0.1545241620803582,-0.3030554834503182,0.09726193499,-4.522383011130737,0.1415554137569963,-1.318066718059131, ,0.10031389171085707,-0.47927748261853925,0.036872248888888896,0.09400561786485585,-0.00012671895991113674,0.3305864303147142, ,0.2190260887145996
0.012062671950746558,0.02729137014278161,-0.08563023332929584, ,0.012586889497085064,0.02871601589438289,-0.08619682620986796, ,0.001620323130045289, ,0.01209593542082325,0.05244634061318603,-0.020881264657842458,0.16098960600631287,-0.02818949547663976,-0.002651877728642155, ,0.057731772111463145, ,0.16343897003883415, ,0.001926472124051086, ,0.1545241620803582,-0.3030554834503182,0.09726193499,-4.522383011130737,0.1415554137569963,-1.318066718059131, ,0.10031389171085707,-0.47927748261853925,0.036872248888888896,0.09400561786485585,-0.00012671895991113674,0.3305864303147142, ,0.2242889404296875
0.012186892947990417,0.02782731738437695,-0.08584032123055045, ,0.012647367167133685,0.028937204533412732,-0.08632607911022724, ,0.0012960890045666112, ,0.011692904460715383,0.05144425152063544,-0.020325175873853022,0.12667517595846542,-0.032548858906450026,0.030683502517128057, ,0.05653625211798954, ,0.13079000325514814, ,0.0019121452349718934, ,0.15555128555263006,-0.30792852789395386,0.09763915538000001,-4.521753941300283,0.14141877725723084,-1.314524793069531, ,0.096734904748696,-0.4651810860709353,0.03645036961098399,0.05787453308909709,-0.00029064740596417146,0.3448540754413485, ,0.229780912399292
0.012186892947990417,0.02782731738437695,-0.08584032123055045, ,0.012707996353478098,0.029157596940300283,-0.08645530288443545, ,0.001555440416966709, ,0.011692904460715383,0.05144425152063544,-0.020325175873853022,0.12667517595846542,-0.032548858906450026,0.030683502517128057, ,0.05653625211798954, ,0.13079000325514814, ,0.0019042184612384448, ,0.15651662716190815,-0.3124154356938783,0.09800600545000002,-4.520915181526345,0.14141877725723084,-1.3106858922829243, ,0.0902062182114741,-0.42364706052888745,0.03603803511312218,0.09156279692350149,-0.00029064740596417146,0.3836138450783235, ,0.23511791229248047
0.012304721639248607,0.02832977546275595,-0.0860487948173676, ,0.012768778892657545,0.029377191874612102,-0.08658450767193049, ,0.0012646811996748354, ,0.011256182869164381,0.04800733777630755,-0.020870860004545428,0.052240203121291476,-0.010176729644962133,-0.005476336259475272, ,0.05354436413369655, ,0.053222182296114265, ,0.0018903154772914098, ,0.15651662716190815,-0.3124154356938783,0.09800600545000002,-4.520915181526345,0.14141877725723084,-1.3106858922829243, ,0.0902062182114741,-0.42364706052888745,0.03603803511312218,0.09156279692350149,-0.00029064740596417146,0.3836138450783235, ,0.24072790145874023
0.012414510464458992,0.028794533331121672,-0.08625933304437691, ,0.012829716610038792,0.029595988103287375,-0.0867137035070679, ,0.001010533726562572, ,0.011015421923262748,0.0455246681327282,-0.021215959358196278,0.0048312516029544615,-0.006770231116071555,0.00014644393293421838, ,0.05141937242159974, ,0.008317014064631674, ,0.0018715967166376046, ,0.1573815732438213,-0.3164698704528462,0.09836378149000001,-4.519866731808922,0.14141877725723084,-1.3068469914963181, ,0.08642708702957265,-0.3937632429812066,0.03571482403587444,0.08178223131058393,-0.0003081148111462001,0.40022548087472587, ,0.24602389335632324
0.012414510464458992,0.028794533331121672,-0.08625933304437691, ,0.012890811319765636,0.029813984400655753,-0.08684290031952174, ,0.0012675542404804556, ,0.011015421923262748,0.0455246681327282,-0.021215959358196278,0.0048312516029544615,-0.006770231116071555,0.00014644393293421838, ,0.05141937242159974, ,0.008317014064631674, ,0.0018590124983843307, ,0.1573815732438213,-0.3164698704528462,0.09836378149000001,-4.519866731808922,0.14141877725723084,-1.3068469914963181, ,0.08642708702957265,-0.3937632429812066,0.03571482403587444,0.08178223131058393,-0.0003081148111462001,0.40022548087472587, ,0.25131893157958984
0.01252848143164946,0.02924486702669845,-0.08648231139670114, ,0.012952064824709756,0.030031179548453725,-0.08697210793468316, ,0.0010186318870744164, ,0.011120274420558815,0.043166889293372486,-0.022092424381631188,0.0030983820451701036,-0.011913610208174812,0.02003895123677069, ,0.04975053818314836, ,0.012309704167441232, ,0.0018418618736637203, ,0.15825424205860866,-0.32030806869133577,0.09873063156,-4.519237661978469,0.14128214075746542,-1.302733315325734, ,0.08634844545811718,-0.3635898144002712,0.03595668514672686,0.057095242144663216,0.0067005405241648995,0.3691318867275531, ,0.2566258907318115
0.01252848143164946,0.02924486702669845,-0.08648231139670114, ,0.013013478916424223,0.030247572335843038,-0.08710133607405686, ,0.0012742966877458118, ,0.011120274420558815,0.043166889293372486,-0.022092424381631188,0.0030983820451701036,-0.011913610208174812,0.02003895123677069, ,0.04975053818314836, ,0.012309704167441232, ,0.0018305105699453622, ,0.15825424205860866,-0.32030806869133577,0.09873063156,-4.519237661978469,0.14128214075746542,-1.302733315325734, ,0.08634844545811718,-0.3635898144002712,0.03595668514672686,0.057095242144663216,0.0067005405241648995,0.3691318867275531, ,0.2619020938873291
0.01264883140066137,0.029698082743365446,-0.0867402515542225, ,0.013075055375099256,0.030463161559433013,-0.08723059435565876, ,0.0010037173576766182, ,0.011652231647292125,0.04171388855208239,-0.02596947431474155,0.013359818711160137,-0.005408665202691999,-0.009193411590239342, ,0.05049986729370412, ,0.014412723666185356, ,0.0018142989383322494, ,0.15909601994189912,-0.3237832984847368,0.09910655566000001,-4.5186085921480155,0.14141877725723084,-1.2993325474033863, ,0.08488098529380213,-0.3353248818320522,0.039137129041769046,0.07305072504852898,0.00879477818879362,0.3340362501865943, ,0.2673220634460449
0.01264883140066137,0.029698082743365446,-0.0867402515542225, ,0.013136795969520948,0.030677946023306594,-0.08735989229441166, ,0.0012578537731952374, ,0.011652231647292125,0.04171388855208239,-0.02596947431474155,0.013359818711160137,-0.005408665202691999,-0.009193411590239342, ,0.05049986729370412, ,0.014412723666185356, ,0.0018035980697719222, ,0.15909601994189912,-0.3237832984847368,0.09910655566000001,-4.5186085921480155,0.14141877725723084,-1.2993325474033863, ,0.08488098529380213,-0.3353248818320522,0.039137129041769046,0.07305072504852898,0.00879477818879362,0.3340362501865943, ,0.272691011428833
0.012737013986097433,0.030007617509510472,-0.08694611449712004, ,0.013198702457030717,0.030891924539043967,-0.08748923930253974, ,0.0011358431762075467, ,0.01174456711140862,0.040781949933051745,-0.028839201899607834,0.013204615498446223,0.0015275304978026188,-0.0269001152623846, ,0.051310835728749, ,0.013291925034041202, ,0.0017909989208367452, ,0.15977562043483087,-0.32642447312772155,0.09943840590000001,-4.517769832374077,0.14141877725723084,-1.2966371489787476, ,0.08035304111640201,-0.31012072404729013,0.04180790425196851,0.09737713842525879,0.00879477818879362,0.3120111426249461, ,0.2782559394836426
0.012737013986097433,0.030007617509510472,-0.08694611449712004, ,0.01326077658348861,0.031105095925755402,-0.08761864468996347, ,0.0013896341219311822, ,0.01174456711140862,0.040781949933051745,-0.028839201899607834,0.013204615498446223,0.0015275304978026188,-0.0269001152623846, ,0.051310835728749, ,0.013291925034041202, ,0.0017835662393755312, ,0.15977562043483087,-0.32642447312772155,0.09943840590000001,-4.517769832374077,0.14141877725723084,-1.2966371489787476, ,0.08035304111640201,-0.31012072404729013,0.04180790425196851,0.09737713842525879,0.00879477818879362,0.3120111426249461, ,0.2835249900817871
0.012876329583953216,0.030475143595205652,-0.08729110756332555, ,0.013323020083237148,0.03131745901010906,-0.08774811766469318, ,0.001057301231005846, ,0.01152466131902986,0.03827687211900794,-0.029283565343047182,-0.007108230827240963,-0.013144746455243423,0.013119932525581428, ,0.049552638243929505, ,0.014942883627712324, ,0.0017703614210415372, ,0.16071007111261204,-0.329915148386871,0.09993229239000001,-4.51693107260014,0.14141877725723084,-1.2929616056724225, ,0.07646812373768798,-0.2807601821256532,0.04148128,0.048864885075400245,0.007761744546765133,0.29571117805179803, ,0.28885388374328613
0.012876329583953216,0.030475143595205652,-0.08729110756332555, ,0.013385434679067682,0.03152901262636243,-0.08787766733322033, ,0.0013091525107342765, ,0.01152466131902986,0.03827687211900794,-0.029283565343047182,-0.007108230827240963,-0.013144746455243423,0.013119932525581428, ,0.049552638243929505, ,0.014942883627712324, ,0.0017621255476431932, ,0.16071007111261204,-0.329915148386871,0.09993229239000001,-4.51693107260014,0.14141877725723084,-1.2929616056724225, ,0.07646812373768798,-0.2807601821256532,0.04148128,0.048864885075400245,0.007761744546765133,0.29571117805179803, ,0.29436588287353516
0.012990677880934016,0.030853995739276798,-0.08757680686117593, ,0.013448022082189245,0.03173975561639998,-0.08800730270091146, ,0.0010858457286247723, ,0.01038392767549079,0.035521195544479016,-0.026827236806912454,-0.009866085206262224,0.00013175370596549144,-0.011283875313193272, ,0.04570866352862549, ,0.009866260723249934, ,0.0017502609894147999, ,0.16146689893428604,-0.33269533222159187,0.10033932745000002,-4.516302002769685,0.14141877725723084,-1.2900211710273621, ,0.06754230715905395,-0.25928126108871796,0.038198588776978425,0.07063523918960747,0.006910664680568766,0.2802954059671424, ,0.29968690872192383
0.012990677880934016,0.030853995739276798,-0.08757680686117593, ,0.013510783992198126,0.03194968682976742,-0.08813703267239845, ,0.0013360023549061316, ,0.01038392767549079,0.035521195544479016,-0.026827236806912454,-0.009866085206262224,0.00013175370596549144,-0.011283875313193272, ,0.04570866352862549, ,0.009866260723249934, ,0.0017431185991646505, ,0.16146689893428604,-0.33269533222159187,0.10033932745000002,-4.516302002769685,0.14141877725723084,-1.2900211710273621, ,0.06754230715905395,-0.25928126108871796,0.038198588776978425,0.07063523918960747,0.006910664680568766,0.2802954059671424, ,0.3050119876861572
0.013093200076391727,0.031193303233100687,-0.08783704134436052, ,0.01357372209704998,0.032158805123708195,-0.08826686605196968, ,0.001160967093579945, ,0.010577130023137577,0.03363926973011164,-0.02553726176224345,-0.05166420698606665,-0.0029757391226679086,-0.03029267767555553, ,0.04353880896183203, ,0.05174972894402083, ,0.0017332516244937233, ,0.16214649942721782,-0.33514343854272105,0.10070877010000001,-4.5154632429957475,0.1415554137569963,-1.2871921542859983, ,0.07060784342148123,-0.2427031753413575,0.03645036961098399,0.08590996988103561,-0.0027365213402778367,0.3069890719000321, ,0.31034111976623535
0.013093200076391727,0.031193303233100687,-0.08783704134436052, ,0.013636838073033272,0.032367109363202036,-0.08839681154395976, ,0.0014095055086147453, ,0.010577130023137577,0.03363926973011164,-0.02553726176224345,-0.05166420698606665,-0.0029757391226679086,-0.03029267767555553, ,0.04353880896183203, ,0.05174972894402083, ,0.0017278558558957403, ,0.1628338226530238,-0.3374988720693595,0.10106654614,-4.514834173165294,0.1415554137569963,-1.283925004680376, ,0.06631512338118153,-0.2222410809331868,0.03367613429175476,0.06367235273263436,-0.0027365213402778367,0.3241964452658747, ,0.3161640167236328
0.013196461679842559,0.031521593942893805,-0.08808811815438765, ,0.013700133584744669,0.03257459842100712,-0.0885268777531395, ,0.0012470019263061717, ,0.009893581606630248,0.03101674418184943,-0.0235402170926124,-0.09227094596599676,-0.003467726511663773,-0.012070714687620377, ,0.04017540537961831, ,0.09233604587619505, ,0.0017199730045909932, ,0.1628338226530238,-0.3374988720693595,0.10106654614,-4.514834173165294,0.1415554137569963,-1.283925004680376, ,0.06631512338118153,-0.2222410809331868,0.03367613429175476,0.06367235273263436,-0.0027365213402778367,0.3241964452658747, ,0.32213902473449707
0.013294834940331708,0.031837745592796084,-0.08832004498843, ,0.013763610285065933,0.03278127117770031,-0.08865707318510464, ,0.001106154988486381, ,0.009928175510583065,0.03123573750229837,-0.02265160730730731,-0.10073355460695912,-0.005051356137507497,-0.005880597682866514, ,0.03984137648081311, ,0.10086009745764159, ,0.0017100727140086606, ,0.1634979776802071,-0.33978480100013,0.10140228525000002,-4.51420510333484,0.1415554137569963,-1.2806578550747534, ,0.06797775183271546,-0.22594509894873996,0.03297890583850932,0.058335451818027254,-0.0026141874289860355,0.33563884153425383, ,0.32763004302978516
0.013294834940331708,0.031837745592796084,-0.08832004498843, ,0.013827269815142283,0.032987126521719985,-0.0887874062466645, ,0.0013501814549856058, ,0.009928175510583065,0.03123573750229837,-0.02265160730730731,-0.10073355460695912,-0.005051356137507497,-0.005880597682866514, ,0.03984137648081311, ,0.10086009745764159, ,0.001704360154341628, ,0.1634979776802071,-0.33978480100013,0.10140228525000002,-4.51420510333484,0.1415554137569963,-1.2806578550747534, ,0.06797775183271546,-0.22594509894873996,0.03297890583850932,0.058335451818027254,-0.0026141874289860355,0.33563884153425383, ,0.3328709602355957
0.01339553144489388,0.032140198450485206,-0.08854783474171066, ,0.013891113804362164,0.03319216334940943,-0.08891788524622968, ,0.0012203152869154686, ,0.010329060616608068,0.03028698022136341,-0.023849201666904664,-0.10477761422418481,0.009689472979042074,-0.0372808281052236, ,0.03990958637093988, ,0.10522464831745514, ,0.0016967969532880943, ,0.16417757817313886,-0.3419317207391644,0.10173024662,-4.513366343560902,0.14141877725723084,-1.2771976088252939, ,0.06982850740137658,-0.21041450456423677,0.03381913273885351,0.09860936807542914,0.004277285372594892,0.33188582880640566, ,0.33831310272216797
0.01339553144489388,0.032140198450485206,-0.08854783474171066, ,0.013955143870339172,0.033396380565064346,-0.08904851839419942, ,0.0014635039089701011, ,0.010329060616608068,0.03028698022136341,-0.023849201666904664,-0.10477761422418481,0.009689472979042074,-0.0372808281052236, ,0.03990958637093988, ,0.10522464831745514, ,0.001693207829529356, ,0.16417757817313886,-0.3419317207391644,0.10173024662,-4.513366343560902,0.14141877725723084,-1.2771976088252939, ,0.06982850740137658,-0.21041450456423677,0.03381913273885351,0.09860936807542914,0.004277285372594892,0.33188582880640566, ,0.3437769412994385
0.013507928445869732,0.03246144958959967,-0.08880793804183448, ,0.014019361618894258,0.03359977708097546,-0.08917931380334879, ,0.0013020266219752035, ,0.01087821038276666,0.030733202538395673,-0.02483508241371825,-0.09177962424134589,-0.005106091703860829,-0.007903477320349362, ,0.04098349079683135, ,0.09192149993678751, ,0.0016872808415361112, ,0.1649498514605613,-0.34412497687544413,0.10209709669000001,-4.512527583786964,0.1415554137569963,-1.2739601983832274, ,0.07454590852982779,-0.20948552220412975,0.03508548792951543,0.06058250031458024,0.006651214244669963,0.311903824643287, ,0.34911203384399414
0.013507928445869732,0.03246144958959967,-0.08880793804183448, ,0.014083768644040522,0.03380235181747881,-0.08931027948921516, ,0.0015433592091010835, ,0.01087821038276666,0.030733202538395673,-0.02483508241371825,-0.09177962424134589,-0.005106091703860829,-0.007903477320349362, ,0.04098349079683135, ,0.09192149993678751, ,0.0016851327574699166, ,0.1649498514605613,-0.34412497687544413,0.10209709669000001,-4.512527583786964,0.1415554137569963,-1.2739601983832274, ,0.07454590852982779,-0.20948552220412975,0.03508548792951543,0.06058250031458024,0.006651214244669963,0.311903824643287, ,0.3543829917907715
0.013614366432752345,0.03276210231507236,-0.08906080419976285, ,0.014148366527968161,0.03400410370300172,-0.08944142337048368, ,0.0014044908338715387, ,0.01113958149845301,0.03180458233169719,-0.027605005137623245,-0.0712933031590312,-0.003082912211332965,-0.014344556352702246, ,0.04356211705028335, ,0.07135981637322343, ,0.0016810056703581758, ,0.16565262015211574,-0.3461328874227425,0.10244968757000002,-4.511898513956511,0.1415554137569963,-1.2709380849980265, ,0.0718916223927809,-0.20856470672191377,0.038107204593301434,0.06668475296373884,0.006625461738835519,0.29125575092935785, ,0.35961294174194336
0.013614366432752345,0.03276210231507236,-0.08906080419976285, ,0.014213156841031988,0.03420503167411321,-0.08957275326937315, ,0.0016439850784312452, ,0.01113958149845301,0.03180458233169719,-0.027605005137623245,-0.0712933031590312,-0.003082912211332965,-0.014344556352702246, ,0.04356211705028335, ,0.07135981637322343, ,0.0016804691400403942, ,0.16565262015211574,-0.3461328874227425,0.10244968757000002,-4.511898513956511,0.1415554137569963,-1.2709380849980265, ,0.0718916223927809,-0.20856470672191377,0.038107204593301434,0.06668475296373884,0.006625461738835519,0.29125575092935785, ,0.3656179904937744
0.013735349966285502,0.03309699398757626,-0.08935554879029091, ,0.014278141141738724,0.03440513467557191,-0.08970427691202099, ,0.0014585834301214997, ,0.012020234750971276,0.033314737754003565,-0.02991927986205206,-0.05544236425737266,-0.004134649641266511,-0.02860992136613324, ,0.04636292810587229, ,0.05559610694342954, ,0.0016772993441844099, ,0.1664326161724124,-0.3483029753603996,0.10285542634000001,-4.511059754182572,0.1415554137569963,-1.2679976503529664, ,0.07665342613769853,-0.21277341156607796,0.04094810159383034,0.08240017575225972,0.005993427788499779,0.2818426717858094, ,0.37103891372680664
0.013735349966285502,0.03309699398757626,-0.08935554879029091, ,0.014343320976737529,0.03460441166038193,-0.08983600192886883, ,0.001694925369509316, ,0.012020234750971276,0.033314737754003565,-0.02991927986205206,-0.05544236425737266,-0.004134649641266511,-0.02860992136613324, ,0.04636292810587229, ,0.05559610694342954, ,0.0016775475980622253, ,0.1664326161724124,-0.3483029753603996,0.10285542634000001,-4.511059754182572,0.1415554137569963,-1.2679976503529664, ,0.07665342613769853,-0.21277341156607796,0.04094810159383034,0.08240017575225972,0.005993427788499779,0.2818426717858094, ,0.37674403190612793
0.013859465624641083,0.03343775800194934,-0.08966087874837353, ,0.014408697880809238,0.03480286158983738,-0.0899679358550451, ,0.0015031460154083065, ,0.011814310008910313,0.03095361892539322,-0.028216173997942007,-0.05419437807699209,-0.01934582242190603,-0.010031746146050914, ,0.04351846643262189, ,0.05754366668246576, ,0.0016751253538586988, ,0.16723578039133175,-0.3504730632980567,0.10327412801000001,-4.510430684352119,0.14169205025676176,-1.2653319910918834, ,0.07671539333748648,-0.1944609458165385,0.038568550895883784,0.05692441479770303,0.0024334689513320043,0.257828618625209, ,0.382249116897583
0.013859465624641083,0.03343775800194934,-0.08966087874837353, ,0.014474273376858903,0.035000483433579935,-0.09010008613075038, ,0.001735800239539814, ,0.011814310008910313,0.03095361892539322,-0.028216173997942007,-0.05419437807699209,-0.01934582242190603,-0.010031746146050914, ,0.04351846643262189, ,0.05754366668246576, ,0.0016759565166762484, ,0.16723578039133175,-0.3504730632980567,0.10327412801000001,-4.510430684352119,0.14169205025676176,-1.2653319910918834, ,0.07671539333748648,-0.1944609458165385,0.038568550895883784,0.05692441479770303,0.0024334689513320043,0.257828618625209, ,0.38748908042907715
0.01401451687803315,0.03386491038424849,-0.09000516497250502, ,0.014540048975908305,0.03519727616964973,-0.0902324601016398, ,0.0014501881421847705, ,0.012347489548761512,0.03437802331478274,-0.02646277416162827,0.007185805413075716,-0.016129551403223804,-0.009931369625349452, ,0.04510640089297595, ,0.017657441797375432, ,0.0016729055926966337, ,0.16830924026084895,-0.3532995835300229,0.10376412563000001,-4.509591924578181,0.14196532325629263,-1.262287677293654, ,0.08626994687133707,-0.2308928018454277,0.03829041230769231,0.06793384188272852,0.015321008785071661,0.2357110288859088, ,0.39279794692993164
0.01401451687803315,0.03386491038424849,-0.09000516497250502, ,0.014606026177090338,0.03539323878454282,-0.09036506501920745, ,0.0016778554745965923, ,0.012347489548761512,0.03437802331478274,-0.02646277416162827,0.007185805413075716,-0.016129551403223804,-0.009931369625349452, ,0.04510640089297595, ,0.017657441797375432, ,0.0016729715911219668, ,0.16830924026084895,-0.3532995835300229,0.10376412563000001,-4.509591924578181,0.14196532325629263,-1.262287677293654, ,0.08626994687133707,-0.2308928018454277,0.03829041230769231,0.06793384188272852,0.015321008785071661,0.2357110288859088, ,0.39818310737609863
0.014132671373583398,0.03418271955375316,-0.09025581669464774, ,0.014672206467643204,0.03558837027326072,-0.0904979080411679, ,0.0015249787811750647, ,0.013008874050316538,0.03414430839893115,-0.027548615988506327,-0.03194861644246052,-0.025329390922794855,-0.05531265713868193, ,0.0457601447001701, ,0.04077102242962835, ,0.0016710243173068758, ,0.169135572678391,-0.3554001668718119,0.10412449425,-4.508753164804243,0.14210195975605808,-1.2599487329931336, ,0.08811229485466182,-0.22276277361143376,0.039330398814814815,0.10605604603819047,-0.012405917798176713,0.2692795152138389, ,0.40384411811828613
0.014132671373583398,0.03418271955375316,-0.09025581669464774, ,0.014738591322906962,0.035782669639367055,-0.0906309962318388, ,0.0017514962022713819, ,0.013008874050316538,0.03414430839893115,-0.027548615988506327,-0.03194861644246052,-0.025329390922794855,-0.05531265713868193, ,0.0457601447001701, ,0.04077102242962835, ,0.0016720694067219992, ,0.17007774608904638,-0.35788688685731224,0.10452115899000002,-4.508124094973789,0.14210195975605808,-1.2570899770882138, ,0.08877169462906527,-0.24146804467804267,0.036533971376146786,0.0499717044213773,-0.012405917798176713,0.2892687960196094, ,0.40952491760253906
0.01426626721967251,0.03454946269425434,-0.09052427508460828, ,0.014805182206320771,0.035976135895048666,-0.09076433656252363, ,0.001543844324366201, ,0.012536786748685358,0.034967659848420034,-0.02421677538325183,-0.04214658493720293,-0.04258987185653523,0.0005311724875217898, ,0.044343663213808705, ,0.0599184735940557, ,0.0016704254954097452, ,0.17007774608904638,-0.35788688685731224,0.10452115899000002,-4.508124094973789,0.14210195975605808,-1.2570899770882138, ,0.08877169462906527,-0.24146804467804267,0.036533971376146786,0.0499717044213773,-0.012405917798176713,0.2892687960196094, ,0.4153439998626709
0.014376806987045328,0.034851274408111046,-0.0907323432371571, ,0.014871980569420228,0.03616876806116457,-0.09089793591189256, ,0.0014171828874370285, ,0.01171337417049011,0.03257461751798287,-0.022466194239859,-0.02486903429812734,-0.01889444713304623,0.009050640688750892, ,0.04126788975128066, ,0.031232407465183652, ,0.0016672198927771792, ,0.1708654648422173,-0.35996430200047863,0.10483615746000001,-4.507495025143336,0.14196532325629263,-1.2544465182401598, ,0.08541578898152184,-0.22328692131404887,0.03403592205128206,0.04753126964790333,0.015386032941385958,0.25730164014534657, ,0.42072105407714844
0.014376806987045328,0.034851274408111046,-0.0907323432371571, ,0.01493898785183721,0.036360565167310115,-0.09103180106636431, ,0.0016381944060505575, ,0.01171337417049011,0.03257461751798287,-0.022466194239859,-0.02486903429812734,-0.01889444713304623,0.009050640688750892, ,0.04126788975128066, ,0.031232407465183652, ,0.0016668570741930964, ,0.1708654648422173,-0.35996430200047863,0.10483615746000001,-4.507495025143336,0.14196532325629263,-1.2544465182401598, ,0.08541578898152184,-0.22328692131404887,0.03403592205128206,0.04753126964790333,0.015386032941385958,0.25730164014534657, ,0.42638206481933594
0.014500832535807586,0.035222795514258436,-0.09097067158575907, ,0.015006205481298964,0.03655152625186943,-0.09116593872048645, ,0.0014349412674432103, ,0.011761627342590938,0.03564706393522757,-0.022094254648542335,0.01002287721475148,-0.015237574510780106,-0.011404830379923526, ,0.04355691831871051, ,0.018238324474933326, ,0.0016639939160850731, ,0.17177674732137577,-0.3625668629790923,0.10520689640000001,-4.506865955312882,0.1422385962558235,-1.2517289194024925, ,0.08556983007977528,-0.2517160253540339,0.034855167439824954,0.07301775509863632,0.010126854149549976,0.2537042896359468, ,0.4318380355834961
0.014500832535807586,0.035222795514258436,-0.09097067158575907, ,0.015073634873629376,0.03674165036207787,-0.09130035547731663, ,0.0016564160212070031, ,0.011761627342590938,0.03564706393522757,-0.022094254648542335,0.01002287721475148,-0.015237574510780106,-0.011404830379923526, ,0.04355691831871051, ,0.018238324474933326, ,0.0016639015027329015, ,0.17177674732137577,-0.3625668629790923,0.10520689640000001,-4.506865955312882,0.1422385962558235,-1.2517289194024925, ,0.08556983007977528,-0.2517160253540339,0.034855167439824954,0.07301775509863632,0.010126854149549976,0.2537042896359468, ,0.43721890449523926
0.014622857851711071,0.03559096084113868,-0.09120279484606286, ,0.015141277432750816,0.036930936554079904,-0.09143505784880315, ,0.0014554174231881762, ,0.011869826043259223,0.0355601175946501,-0.022678498421231538,0.022569639306648424,0.0018664302896980937,-0.0028206451445135896, ,0.043814712418140785, ,0.02264654899892011, ,0.0016613896463528444, ,0.1726725843347858,-0.365138533026209,0.10557115389,-4.506027195538945,0.1425118692553544,-1.2492563567852466, ,0.08738208246636352,-0.24648556248953452,0.035476194922048995,0.07202895640040208,0.03322084209449159,0.2389849636414391, ,0.4426429271697998
0.014622857851711071,0.03559096084113868,-0.09120279484606286, ,0.015209134550686274,0.037119383892987884,-0.09157005225616394, ,0.001677699436269635, ,0.011869826043259223,0.0355601175946501,-0.022678498421231538,0.022569639306648424,0.0018664302896980937,-0.0028206451445135896, ,0.043814712418140785, ,0.02264654899892011, ,0.0016615838105185205, ,0.1726725843347858,-0.365138533026209,0.10557115389,-4.506027195538945,0.1425118692553544,-1.2492563567852466, ,0.08738208246636352,-0.24648556248953452,0.035476194922048995,0.07202895640040208,0.03322084209449159,0.2389849636414391, ,0.4479179382324219
0.014740518267075073,0.035939317093758076,-0.09142431497350116, ,0.015277207607563119,0.03730699145294477,-0.09170534503026702, ,0.0014958430712397766, ,0.012608688570321432,0.037052106337605785,-0.02324316426934109,0.02128277800570574,-0.009963562153880617,-0.0009731065005139914, ,0.045520130676088524, ,0.023499413324252615, ,0.0016596339194681826, ,0.17353753041669895,-0.36754802568296707,0.10591855961,-4.50539812570849,0.14278514225488526,-1.2468654729081416, ,0.09303621721418705,-0.25647822042829943,0.03670233069124424,0.06957434462228645,0.025803339987170135,0.2487740107353733, ,0.4531669616699219
0.014740518267075073,0.035939317093758076,-0.09142431497350116, ,0.015345497971617088,0.037493758317181956,-0.09184094241200912, ,0.0017192633255278184, ,0.012608688570321432,0.037052106337605785,-0.02324316426934109,0.02128277800570574,-0.009963562153880617,-0.0009731065005139914, ,0.045520130676088524, ,0.023499413324252615, ,0.0016603272846549225, ,0.17353753041669895,-0.36754802568296707,0.10591855961,-4.50539812570849,0.14278514225488526,-1.2468654729081416, ,0.09303621721418705,-0.25647822042829943,0.03670233069124424,0.06957434462228645,0.025803339987170135,0.2487740107353733, ,0.4584310054779053
0.014871388497016491,0.036309748478579665,-0.09166703103400038, ,0.015414006999197484,0.037679683578083684,-0.09197685055269599, ,0.001505704203994598, ,0.013438675175553118,0.03800129788041757,-0.02584253675776695,0.015442737471574933,-0.018157994946487784,-0.007978679475855815, ,0.04788040661008209, ,0.02383651390555411, ,0.0016585500078657234, ,0.17447198109448012,-0.3700656365999643,0.10629578,-4.504559365934552,0.14278514225488526,-1.2441700744835031, ,0.0956622394742649,-0.25373513785687374,0.03962390925373134,0.07363438797398292,0.01747038621179725,0.2514306899310316, ,0.46484899520874023
0.015010444633979696,0.036711252270751296,-0.09193705564903655, ,0.015482736034772645,0.037864766337247224,-0.09211307551441947, ,0.0012588236023670508, ,0.013248104758141128,0.03848653188259205,-0.025378877007842943,0.05612108246384863,-0.020399319602954685,-0.00298277759629522, ,0.04796678865852576, ,0.05971346254226587, ,0.001654007662348693, ,0.1754759363681293,-0.3727454249073202,0.10671188909000001,-4.503930296104099,0.1431950517541816,-1.2418906085100945, ,0.09423728059431061,-0.2578721238001923,0.03942775128712872,0.06931710780400396,0.020702537440742106,0.21420001722659324, ,0.4704129695892334
0.015010444633979696,0.036711252270751296,-0.09193705564903655, ,0.01555168641093699,0.03804900570554617,-0.09224962327043684, ,0.0014765586447470346, ,0.013248104758141128,0.03848653188259205,-0.025378877007842943,0.05612108246384863,-0.020399319602954685,-0.00298277759629522, ,0.04796678865852576, ,0.05971346254226587, ,0.0016520138531621572, ,0.1754759363681293,-0.3727454249073202,0.10671188909000001,-4.503930296104099,0.1431950517541816,-1.2418906085100945, ,0.09423728059431061,-0.2578721238001923,0.03942775128712872,0.06931710780400396,0.020702537440742106,0.21420001722659324, ,0.4757239818572998
0.015140614288141344,0.037097298183828516,-0.09218544029254103, ,0.015620859448417622,0.03823240080319252,-0.09238649970554841, ,0.001248806733652042, ,0.012378191925909136,0.037257211334826484,-0.023382117368635692,0.09426631728202872,0.0027299254334816093,0.02620052232505829, ,0.04569510744536247, ,0.09430580086994568, ,0.0016475337740564893, ,0.17643355524453314,-0.37534026315305963,0.10710207238000001,-4.503301226273645,0.14374159775324336,-1.240130954141085, ,0.09177653922482666,-0.2517160253540339,0.03713009678321679,0.0506331657495753,0.057297771370859216,0.1716784459446895, ,0.4811439514160156
0.015140614288141344,0.037097298183828516,-0.09218544029254103, ,0.015690256456083074,0.03841495075980331,-0.09252371061647585, ,0.001467222422064105, ,0.012378191925909136,0.037257211334826484,-0.023382117368635692,0.09426631728202872,0.0027299254334816093,0.02620052232505829, ,0.04569510744536247, ,0.09430580086994568, ,0.0016455523306280015, ,0.17643355524453314,-0.37534026315305963,0.10710207238000001,-4.503301226273645,0.14374159775324336,-1.240130954141085, ,0.09177653922482666,-0.2517160253540339,0.03713009678321679,0.0506331657495753,0.057297771370859216,0.1716784459446895, ,0.4867830276489258
0.015269732928741564,0.037469866596506606,-0.09242236845061241, ,0.015759878730951353,0.03859665471446113,-0.09266126171223904, ,0.0012517844705211777, ,0.012704914376081188,0.036857700103180485,-0.023446893304164614,0.05280756865561349,-0.0059879186305443035,-0.008823180361094378, ,0.04549353483536342, ,0.05314590661969282, ,0.0016412722451920579, ,0.1773062240593205,-0.37775747854269187,0.10746373729000001,-4.502672156443191,0.14374159775324336,-1.2379256281572897, ,0.09204359026039842,-0.24584699885614195,0.037043747720930234,0.07835415200221246,0.03168148990283304,0.2083704736704421, ,0.49207210540771484
0.015269732928741564,0.037469866596506606,-0.09242236845061241, ,0.015829727558199672,0.03877751181578165,-0.09279915861453328, ,0.0014715640768047848, ,0.012704914376081188,0.036857700103180485,-0.023446893304164614,0.05280756865561349,-0.0059879186305443035,-0.008823180361094378, ,0.04549353483536342, ,0.05314590661969282, ,0.0016394474261771411, ,0.1773062240593205,-0.37775747854269187,0.10746373729000001,-4.502672156443191,0.14374159775324336,-1.2379256281572897, ,0.09204359026039842,-0.24584699885614195,0.037043747720930234,0.07835415200221246,0.03168148990283304,0.2083704736704421, ,0.49735307693481445
0.015370586245553885,0.037756850975314546,-0.09260607935563209, ,0.01589980421117404,0.038957521221976446,-0.09293740685810638, ,0.0013533139363245082, ,0.0129291708987301,0.03749502918034094,-0.023776661217972703,0.027280165973405417,-0.009777713934984195,-0.013593730083907202, ,0.046242516065169235, ,0.028979364147054685, ,0.0016364034528808364, ,0.1780553291481203,-0.3797499436242418,0.10776706915,-4.502043086612738,0.14374159775324336,-1.2358836596537757, ,0.09249214576849003,-0.24907333742380783,0.03774599886255925,0.08148816555668657,0.021623738187001855,0.2367532483368929, ,0.5027620792388916
0.015370586245553885,0.037756850975314546,-0.09260607935563209, ,0.01597010995140046,0.03913668210092107,-0.09307601189113493, ,0.0015761342572854344, ,0.0129291708987301,0.03749502918034094,-0.023776661217972703,0.027280165973405417,-0.009777713934984195,-0.013593730083907202, ,0.046242516065169235, ,0.028979364147054685, ,0.0016357690402956217, ,0.1780553291481203,-0.3797499436242418,0.10776706915,-4.502043086612738,0.14374159775324336,-1.2358836596537757, ,0.09249214576849003,-0.24907333742380783,0.03774599886255925,0.08148816555668657,0.021623738187001855,0.2367532483368929, ,0.5080070495605469
0.015530385302803668,0.03821144762314517,-0.0928962227304233, ,0.016040646028595992,0.03931499363022157,-0.0932149790756006, ,0.0012568951450344448, ,0.013134747015874075,0.03707205017085288,-0.024246345394063513,0.059537707552139614,-0.05244523331242781,0.017915694289426822, ,0.04620328719917525, ,0.07934250272081067, ,0.0016318224372199842, ,0.1791905708806313,-0.38275408671231514,0.1082272521,-4.5014140167822845,0.14387823425300877,-1.2334630366131147, ,0.09124705919083728,-0.24208403458793568,0.038107204593301434,0.03469679067396184,0.0,0.18632006089969827, ,0.5133540630340576
0.015530385302803668,0.03821144762314517,-0.0928962227304233, ,0.016111413680680222,0.0394924549972773,-0.09335431368766568, ,0.0014793313332671582, ,0.013134747015874075,0.03707205017085288,-0.024246345394063513,0.059537707552139614,-0.05244523331242781,0.017915694289426822, ,0.04620328719917525, ,0.07934250272081067, ,0.0016302503639833573, ,0.1791905708806313,-0.38275408671231514,0.1082272521,-4.5014140167822845,0.14387823425300877,-1.2334630366131147, ,0.09124705919083728,-0.24208403458793568,0.038107204593301434,0.03469679067396184,0.0,0.18632006089969827, ,0.5186319351196289
0.015657083116361353,0.03857419232499732,-0.09313623187174916, ,0.016182414133788237,0.039669065399353144,-0.09349402091804909, ,0.0012659908089999517, ,0.012839974579710416,0.03547570225369099,-0.023516395511774525,0.077167006672435,-0.035336526489176054,0.0006855655924322714, ,0.04445684711567336, ,0.08487290398611308, ,0.0016265334297488325, ,0.18009413062691557,-0.3850940747732052,0.10860317620000001,-4.500784946951831,0.14428814375230511,-1.2320003580411116, ,0.0902062182114741,-0.22811764797709322,0.036872248888888896,0.055800907810460876,0.012947718424139902,0.15998918796415929, ,0.523914098739624
0.015657083116361353,0.03857419232499732,-0.09313623187174916, ,0.016253648602283902,0.03984482404364731,-0.09363410587240227, ,0.0014893870766055962, ,0.012839974579710416,0.03547570225369099,-0.023516395511774525,0.077167006672435,-0.035336526489176054,0.0006855655924322714, ,0.04445684711567336, ,0.08487290398611308, ,0.0016251481130504161, ,0.18009413062691557,-0.3850940747732052,0.10860317620000001,-4.500784946951831,0.14428814375230511,-1.2320003580411116, ,0.0902062182114741,-0.22811764797709322,0.036872248888888896,0.055800907810460876,0.012947718424139902,0.15998918796415929, ,0.5292160511016846
0.01578321856391083,0.03892971177569357,-0.09336906725897035, ,0.016325118288772544,0.04001973014735404,-0.09377457357168245, ,0.0012830552334221297, ,0.012439378300312795,0.035402809104625246,-0.02286983862992335,0.0687135019993636,0.0020514454561078987,-0.013843055246177046, ,0.04394458492187136, ,0.06874407268416435, ,0.0016217271842541331, ,0.18097452217457716,-0.38738000370397563,0.10897002627,-4.499946187177892,0.14442478025207056,-1.2302331649215752, ,0.0891051094445735,-0.22757060325772369,0.03628430870159454,0.083880013428321,0.038652164233930524,0.1763809206870826, ,0.5345070362091064
0.01578321856391083,0.03892971177569357,-0.09336906725897035, ,0.016396824384115754,0.0401937829377385,-0.09391542895252855, ,0.0015076137122919694, ,0.012439378300312795,0.035402809104625246,-0.02286983862992335,0.0687135019993636,0.0020514454561078987,-0.013843055246177046, ,0.04394458492187136, ,0.06874407268416435, ,0.001620597347898072, ,0.18097452217457716,-0.38738000370397563,0.10897002627,-4.499946187177892,0.14442478025207056,-1.2302331649215752, ,0.0891051094445735,-0.22757060325772369,0.03628430870159454,0.083880013428321,0.038652164233930524,0.1763809206870826, ,0.539762020111084
0.015915677329924854,0.039297462759004885,-0.09361939903392665, ,0.016468768067446186,0.04036698165220447,-0.0940566768676357, ,0.0012810120728143188, ,0.012470317623876211,0.035246201378280335,-0.024980300923579352,0.00945052646983909,-0.003191865343788264,-0.004666361937234701, ,0.044964641302597176, ,0.00997450388336076, ,0.00161726808049529, ,0.1818703591879872,-0.38969682356624297,0.10935891327000001,-4.499317117347439,0.14442478025207056,-1.2277828027173583, ,0.08383122045801306,-0.21715547267384616,0.038198588776978425,0.06834903508770744,0.026434132230820452,0.22155945401415444, ,0.5450088977813721
0.016043854974757524,0.03964354206804849,-0.09387448042521648, ,0.01654095050618239,0.04053932553836431,-0.09419832208612917, ,0.0015061014600872683, ,0.01347857611211396,0.03498330770806501,-0.02657003608246119,-0.03241520424899145,-0.02606288884213472,-0.01882937573285373, ,0.045950741556916135, ,0.04159334561061032, ,0.001616188792918513, ,0.1827198598041519,-0.3917819614422836,0.1097439114,-4.498478357573501,0.144561416751836,-1.2254438584168377, ,0.08827622470555421,-0.20719856235473968,0.03972272199501248,0.07154880983908415,0.0,0.25076697066598114, ,0.55088210105896
0.016043854974757524,0.03964354206804849,-0.09387448042521648, ,0.016613372856044348,0.04071081385410727,-0.09434036929393722, ,0.0012963302512941748, ,0.01347857611211396,0.03498330770806501,-0.02657003608246119,-0.03241520424899145,-0.02606288884213472,-0.01882937573285373, ,0.045950741556916135, ,0.04159334561061032, ,0.001613113230018279, ,0.1827198598041519,-0.3917819614422836,0.1097439114,-4.498478357573501,0.144561416751836,-1.2254438584168377, ,0.08827622470555421,-0.20719856235473968,0.03972272199501248,0.07154880983908415,0.0,0.25076697066598114, ,0.5565500259399414
0.016043854974757524,0.03964354206804849,-0.09387448042521648, ,0.01668603626107012,0.04088144586767272,-0.09448282309416559, ,0.0015214740958946142, ,0.01347857611211396,0.03498330770806501,-0.02657003608246119,-0.03241520424899145,-0.02606288884213472,-0.01882937573285373, ,0.045950741556916135, ,0.04159334561061032, ,0.0016122404763599582, ,0.18352302402307125,-0.39361997186634906,0.11010687260000002,-4.497849287743048,0.14524459925066321,-1.2237139432113842, ,0.08587958512078804,-0.19287996251721704,0.039822028800000006,0.06876370306561515,0.08873627367556287,0.16776868049323013, ,0.5619430541992188
0.016161056549444133,0.03995932187162046,-0.09411879124129577, ,0.01675894185363233,0.041051220857723024,-0.09462568800747131, ,0.0013441185083076725, ,0.012601566403909577,0.03388486687248021,-0.027128529688513505,0.04769730798035476,0.04389129705491968,0.014678791087005112, ,0.04519890266210462, ,0.06481870449208438, ,0.0016097110238311632, ,0.18352302402307125,-0.39361997186634906,0.11010687260000002,-4.497849287743048,0.14524459925066321,-1.2237139432113842, ,0.08587958512078804,-0.19287996251721704,0.039822028800000006,0.06876370306561515,0.08873627367556287,0.16776868049323013, ,0.5673129558563232
0.01631508330062928,0.040349693473528916,-0.09443718050906655, ,0.016832090754454947,0.04122013811341179,-0.0947689684724337, ,0.0010653890514959535, ,0.013032479977683684,0.03206327697317831,-0.02686463548777071,0.0008506427614473822,-0.00015449278872555882,0.018653606391706917, ,0.04381333021488166, ,0.0008564276531276312, ,0.0016046239025943854, ,0.18455787022821732,-0.3958132280026288,0.11057224071,-4.497220217912593,0.1459277817494904,-1.2214939555650872, ,0.08650587197672815,-0.17671683716661224,0.03894574943765281,0.044000331210495444,0.047863949251193076,0.18899752291152166, ,0.5725929737091064
0.01631508330062928,0.040349693473528916,-0.09443718050906655, ,0.01690548407263098,0.041388196934457805,-0.09491266884592858, ,0.0012857494578778971, ,0.013032479977683684,0.03206327697317831,-0.02686463548777071,0.0008506427614473822,-0.00015449278872555882,0.018653606391706917, ,0.04381333021488166, ,0.0008564276531276312, ,0.0016016713614396033, ,0.18455787022821732,-0.3958132280026288,0.11057224071,-4.497220217912593,0.1459277817494904,-1.2214939555650872, ,0.08650587197672815,-0.17671683716661224,0.03894574943765281,0.044000331210495444,0.047863949251193076,0.18899752291152166, ,0.5779500007629395
0.016456658816303975,0.040684960226295065,-0.09471415909924588, ,0.016979122905640628,0.041555396631219016,-0.09505679340349996, ,0.0010714599974404008, ,0.013676388743314163,0.032020040318591896,-0.026563486170014017,-0.018079138019231063,-0.026842367584231176,-0.008993236433853706, ,0.043794353386789796, ,0.03236285993452595, ,0.0015968070369992437, ,0.18543826177587894,-0.3975431201664551,0.11094946110000001,-4.496800838025624,0.14620105474902126,-1.2195114653886847, ,0.09055051675426601,-0.17770962838664942,0.039137129041769046,0.04950008600310474,0.013105306482659172,0.20722816487873164, ,0.5833950042724609
0.016456658816303975,0.040684960226295065,-0.09471415909924588, ,0.01705300833936966,0.04172173652476754,-0.09520134633973262, ,0.00129146786798125, ,0.013676388743314163,0.032020040318591896,-0.026563486170014017,-0.018079138019231063,-0.026842367584231176,-0.008993236433853706, ,0.043794353386789796, ,0.03236285993452595, ,0.0015940312263718075, ,0.18543826177587894,-0.3975431201664551,0.11094946110000001,-4.496800838025624,0.14620105474902126,-1.2195114653886847, ,0.09055051675426601,-0.17770962838664942,0.039137129041769046,0.04950008600310474,0.013105306482659172,0.20722816487873164, ,0.5886518955230713
0.016585539444356697,0.040982784611090645,-0.09496899930860736, ,0.017127141448127443,0.041887215946956914,-0.09534633176862306, ,0.0011196912776148754, ,0.013517541302610316,0.03045153277548471,-0.025909885302758024,0.005515945690934639,-0.01743955594668473,-0.034146179139163874, ,0.042205946591046525, ,0.01829076519957019, ,0.0015897578935001235, ,0.1863495442550374,-0.39926528959740715,0.11134482955000001,-4.4959620782516865,0.14647432774855218,-1.2176923326925637, ,0.08927275781605906,-0.16277348466290012,0.03756795169811321,0.09084630444936521,0.016183710179605654,0.17528851501727954, ,0.5940499305725098
0.016585539444356697,0.040982784611090645,-0.09496899930860736, ,0.01720152329466718,0.04205183424050437,-0.0954917537239516, ,0.001339990818160652, ,0.013517541302610316,0.03045153277548471,-0.025909885302758024,0.005515945690934639,-0.01743955594668473,-0.034146179139163874, ,0.042205946591046525, ,0.01829076519957019, ,0.0015875278303274496, ,0.1863495442550374,-0.39926528959740715,0.11134482955000001,-4.4959620782516865,0.14647432774855218,-1.2176923326925637, ,0.08927275781605906,-0.16277348466290012,0.03756795169811321,0.09084630444936521,0.016183710179605654,0.17528851501727954, ,0.5995500087738037
0.016721667216553392,0.04129408002222081,-0.09523763974437469, ,0.017276154930204627,0.04221559075906107,-0.09563761615965331, ,0.0011474405411528677, ,0.013709440078552324,0.030750233165074983,-0.027399795578739287,0.03595322703229384,-0.004690289237953164,-0.0009602440479063964, ,0.043408229458601455, ,0.03625765993546177, ,0.0015836332525471437, ,0.1872531040013217,-0.400910231699617,0.11173242026,-4.495123318477749,0.1468842372478485,-1.2162296541205606, ,0.090723653497582,-0.15869053772319527,0.039137129041769046,0.06088582245300434,0.047807569442845727,0.13856451095197037, ,0.6048400402069092
0.016721667216553392,0.04129408002222081,-0.09523763974437469, ,0.017351037394438516,0.04237848486728989,-0.09578392295018957, ,0.001367649819864656, ,0.013709440078552324,0.030750233165074983,-0.027399795578739287,0.03595322703229384,-0.004690289237953164,-0.0009602440479063964, ,0.043408229458601455, ,0.03625765993546177, ,0.001581738661032385, ,0.1872531040013217,-0.400910231699617,0.11173242026,-4.495123318477749,0.1468842372478485,-1.2162296541205606, ,0.090723653497582,-0.15869053772319527,0.039137129041769046,0.06088582245300434,0.047807569442845727,0.13856451095197037, ,0.6100759506225586
0.016857782824111725,0.04158734860881468,-0.09551124027787557, ,0.017426171715570118,0.042540515940938065,-0.09593067789091715, ,0.001186390241950147, ,0.014070406477827353,0.030551770884359196,-0.029176587658292036,0.0028028001709245105,-0.016501634082735705,-0.0006328322842052124, ,0.04452707389896245, ,0.01673733768890498, ,0.0015783008486925394, ,0.18811805008323484,-0.40237755094571964,0.11211741839000001,-4.49470393859078,0.1470208737476139,-1.2145441397411645, ,0.0891051094445735,-0.14944400245428469,0.04073864838874681,0.052836032634413964,0.033083674128622786,0.15939469036199108, ,0.6182410717010498
0.01700195140441314,0.04189525306325403,-0.09580391702878867, ,0.017501558910324743,0.042701683366918756,-0.09607788469846099, ,0.0009874187453444865, ,0.013633243909667716,0.02865916032924595,-0.027072755604470547,-0.02650360232004699,-0.033074922418855145,-0.018066542340530154, ,0.04171506809652009, ,0.04238368655124544, ,0.0015732070374567804, ,0.1890216098295191,-0.4038834838561934,0.11252704603000001,-4.494074868760325,0.14715751024737936,-1.2126952678814875, ,0.08564705916829492,-0.14100585669906504,0.03783565681710214,0.06082895561122822,0.005462707392980497,0.1769217430337932, ,0.6235599517822266
0.01700195140441314,0.04189525306325403,-0.09580391702878867, ,0.017577199983971545,0.04286198654338122,-0.09622554701108164, ,0.0012013560637259757, ,0.013633243909667716,0.02865916032924595,-0.027072755604470547,-0.02650360232004699,-0.033074922418855145,-0.018066542340530154, ,0.04171506809652009, ,0.04238368655124544, ,0.0015700288240060897, ,0.1890216098295191,-0.4038834838561934,0.11252704603000001,-4.494074868760325,0.14715751024737936,-1.2126952678814875, ,0.08564705916829492,-0.14100585669906504,0.03783565681710214,0.06082895561122822,0.005462707392980497,0.1769217430337932, ,0.6288139820098877
0.01713003709749659,0.04217124307055076,-0.09606093265785963, ,0.01765309593034587,0.043021424879795225,-0.09637366838904753, ,0.0010460417242889866, ,0.012827446164748006,0.027248243021190364,-0.02545777536704306,0.006248840982416277,0.0029813957733717473,0.016637687671641373, ,0.0394348633760811, ,0.0069228636643322876, ,0.0015655882553644194, ,0.18986338771280958,-0.4052349621091827,0.11289000723,-4.493445798929873,0.14770405624644115,-1.2114256859533215, ,0.0849569754328297,-0.1327229951866724,0.03595668514672686,0.041470203290953855,0.05790820401633456,0.14088458074991841, ,0.6340808868408203
0.01713003709749659,0.04217124307055076,-0.09606093265785963, ,0.01772924773186997,0.043179997797023674,-0.0965222523150032, ,0.0012607360185997168, ,0.012827446164748006,0.027248243021190364,-0.02545777536704306,0.006248840982416277,0.0029813957733717473,0.016637687671641373, ,0.0394348633760811, ,0.0069228636643322876, ,0.001563026471862195, ,0.18986338771280958,-0.4052349621091827,0.11289000723,-4.493445798929873,0.14770405624644115,-1.2114256859533215, ,0.0849569754328297,-0.1327229951866724,0.03595668514672686,0.041470203290953855,0.05790820401633456,0.14088458074991841, ,0.6393179893493652
0.017269041598789368,0.042457988588131,-0.09632818860896411, ,0.01780565635957478,0.043337704727401706,-0.09667130219433837, ,0.0010860860093263893, ,0.013214018881112401,0.02648035173708812,-0.02465902499899243,0.02040985730795391,-0.0036180599455581455,-0.006010028387076401, ,0.03852125175810405, ,0.020727843967049072, ,0.0015590519680077298, ,0.19075922472621962,-0.40657871762929776,0.11325556101,-4.4928167290994185,0.14825060224550288,-1.2099110678047333, ,0.08877169462906527,-0.12823911021414972,0.03500837696703297,0.061040375999372974,0.04908170515091987,0.12381014145075439, ,0.6445810794830322
0.017269041598789368,0.042457988588131,-0.09632818860896411, ,0.017882322773122687,0.04349454511481725,-0.09682082135555832, ,0.001301249497530921, ,0.013214018881112401,0.02648035173708812,-0.02465902499899243,0.02040985730795391,-0.0036180599455581455,-0.006010028387076401, ,0.03852125175810405, ,0.020727843967049072, ,0.0015569213690781695, ,0.19075922472621962,-0.40657871762929776,0.11325556101,-4.4928167290994185,0.14825060224550288,-1.2099110678047333, ,0.08877169462906527,-0.12823911021414972,0.03500837696703297,0.061040375999372974,0.04908170515091987,0.12381014145075439, ,0.6498250961303711
0.01740262713167927,0.042715569448223106,-0.09657365622168942, ,0.0179592479208292,0.04365051841478866,-0.09697081305065129, ,0.0011583133512944308, ,0.013935408830594815,0.02687640491185428,-0.02587064134212984,-0.007513815424111548,-0.020656847686008863,-0.030514263527566535, ,0.039822441458490246, ,0.021980700394143144, ,0.0015536540902438766, ,0.19166278447250387,-0.40784524582067055,0.11361463334,-4.492187659268965,0.14838723874526832,-1.2084705896457593, ,0.0908974536000678,-0.12569131332247785,0.0363671495890411,0.07603917305870644,0.021546654862808795,0.1487744447790504, ,0.6550800800323486
0.01740262713167927,0.042715569448223106,-0.09657365622168942, ,0.01803643273968579,0.043805624094544464,-0.09712128045545819, ,0.0013747075987707797, ,0.013935408830594815,0.02687640491185428,-0.02587064134212984,-0.007513815424111548,-0.020656847686008863,-0.030514263527566535, ,0.039822441458490246, ,0.021980700394143144, ,0.001552199240719705, ,0.19166278447250387,-0.40784524582067055,0.11361463334,-4.492187659268965,0.14838723874526832,-1.2084705896457593, ,0.0908974536000678,-0.12569131332247785,0.0363671495890411,0.07603917305870644,0.021546654862808795,0.1487744447790504, ,0.6604459285736084
0.017515904983683155,0.042933780979332745,-0.09678826878388709, ,0.018113878155382634,0.043959861633102525,-0.09727222667004015, ,0.0012824307613601184, ,0.014158086617906632,0.026739381869852828,-0.026361817984414858,-0.04087064419564194,-0.0414076956528569,-0.021777667135562367, ,0.04012968236736219, ,0.05818070199669423, ,0.001550023688466805, ,0.19238872136268098,-0.40884920109431977,0.11391407633000002,-4.491768279381996,0.14852387524503374,-1.2071117902269255, ,0.09003504891695518,-0.12244766652705909,0.036787093579676675,0.057401474840962224,0.0017912059879008073,0.1731780757857485, ,0.6657769680023193
0.017515904983683155,0.042933780979332745,-0.09678826878388709, ,0.01819158508233228,0.044113230521353804,-0.09742365471904732, ,0.0015004532996676758, ,0.014158086617906632,0.026739381869852828,-0.026361817984414858,-0.04087064419564194,-0.0414076956528569,-0.021777667135562367, ,0.04012968236736219, ,0.05818070199669423, ,0.001549627125356412, ,0.19238872136268098,-0.40884920109431977,0.11391407633000002,-4.491768279381996,0.14852387524503374,-1.2071117902269255, ,0.09003504891695518,-0.12244766652705909,0.036787093579676675,0.057401474840962224,0.0017912059879008073,0.1731780757857485, ,0.6711099147796631
0.017685863820453767,0.04326213792448826,-0.09711933290566582, ,0.018269554423691745,0.044265730262137475,-0.09757556755208571, ,0.0012474142668297513, ,0.013807932977548287,0.026967609229946655,-0.027256831643033906,0.05578942062022363,0.00290052301228135,0.020483745601807234, ,0.040753476316852576, ,0.0558646349886598, ,0.0015472286106062005, ,0.19344673576644975,-0.4102238475459317,0.11434703719000001,-4.491139209551543,0.14920705774386098,-1.2059536262024557, ,0.09046419595659749,-0.11891847313091576,0.03739157633802818,0.040557877756516814,0.07929156093627505,0.07432311543950879, ,0.6763920783996582
0.017685863820453767,0.04326213792448826,-0.09711933290566582, ,0.01834778707138719,0.044417360370327175,-0.09772796804408591, ,0.0014639392136342104, ,0.013807932977548287,0.026967609229946655,-0.027256831643033906,0.05578942062022363,0.00290052301228135,0.020483745601807234, ,0.040753476316852576, ,0.0558646349886598, ,0.001546572788582799, ,0.19344673576644975,-0.4102238475459317,0.11434703719000001,-4.491139209551543,0.14920705774386098,-1.2059536262024557, ,0.09046419595659749,-0.11891847313091576,0.03739157633802818,0.040557877756516814,0.07929156093627505,0.07432311543950879, ,0.6816840171813965
0.017824245045003843,0.04352463767600683,-0.09739962400158275, ,0.0184262839061373,0.04456812037291167,-0.09788085899566981, ,0.0012972640627831459, ,0.014716733027735332,0.027917646778299096,-0.03134386691552382,-0.010922443478475348,-0.01400684727472156,-0.03497718503478084, ,0.044479379782833964, ,0.01776122995476809, ,0.0015446250641624891, ,0.19435801824560822,-0.4114131484085623,0.11475407225,-4.490510139721089,0.1496169672431573,-1.2047359838508744, ,0.08658480069203538,-0.11138138680571688,0.04191792505263159,0.07927249591450457,0.023970161043921304,0.13905270219730342, ,0.6869809627532959
0.017824245045003843,0.04352463767600683,-0.09739962400158275, ,0.01850504579747688,0.04471800980907433,-0.09803424313351823, ,0.001513396232045154, ,0.014716733027735332,0.027917646778299096,-0.03134386691552382,-0.010922443478475348,-0.01400684727472156,-0.03497718503478084, ,0.044479379782833964, ,0.01776122995476809, ,0.0015443829801925874, ,0.19435801824560822,-0.4114131484085623,0.11475407225,-4.490510139721089,0.1496169672431573,-1.2047359838508744, ,0.08658480069203538,-0.11138138680571688,0.04191792505263159,0.07927249591450457,0.023970161043921304,0.13905270219730342, ,0.6924939155578613
0.017978688213135988,0.043813680499812276,-0.09772571177560685, ,0.018584073603781087,0.04486702823027752,-0.0981881231107372, ,0.0012999450585851077, ,0.01535077413148478,0.029198566858862827,-0.03309408659277386,-0.032944113899973294,-0.01868885495523271,-0.041402198110481014, ,0.04672709214639147, ,0.03787543060761791, ,0.0015425026884879143, ,0.19524613252614406,-0.41255611287394756,0.11518962569,-4.489461690003666,0.1496169672431573,-1.2030207303079226, ,0.08794897271406003,-0.11460983280008549,0.044124131634349036,0.08356062531304971,0.014236698253357407,0.1639512933561385, ,0.6986050605773926
0.018133930011536518,0.04410671460377847,-0.09805625032760966, ,0.018663368172289925,0.04501517520034545,-0.09834250150722537, ,0.0010897454562457127, ,0.015218146522199912,0.02763258873226645,-0.031458442073390484,-0.0426383094725368,-0.04334588515079454,0.02198191205160374, ,0.044550931766940506, ,0.060801812346195735, ,0.0015390465264097297, ,0.19616513773817676,-0.413706800072207,0.11563166058000002,-4.489042310116697,0.15002687674245363,-1.201476372995779, ,0.09003504891695518,-0.10722818255194438,0.04202852643799473,0.014590716666571576,0.02133414620223673,0.1550386487029065, ,0.7038259506225586
0.018133930011536518,0.04410671460377847,-0.09805625032760966, ,0.01874293033913239,0.045162450295546296,-0.09849738083004024, ,0.00129616949896957, ,0.015218146522199912,0.02763258873226645,-0.031458442073390484,-0.0426383094725368,-0.04334588515079454,0.02198191205160374, ,0.044550931766940506, ,0.060801812346195735, ,0.0015372065489291224, ,0.19616513773817676,-0.413706800072207,0.11563166058000002,-4.489042310116697,0.15002687674245363,-1.201476372995779, ,0.09003504891695518,-0.10722818255194438,0.04202852643799473,0.014590716666571576,0.02133414620223673,0.1550386487029065, ,0.7090499401092529
0.01824767412888128,0.044321337582738596,-0.0982967460413598, ,0.01882276092935164,0.04530885310467823,-0.09865276351376473, ,0.0011969378324727395, ,0.014139009157819986,0.027846275679118918,-0.03106554545983801,0.03108581161697722,0.022860714931581597,0.05551814530030785, ,0.04404991218923903, ,0.038586410016644444, ,0.0015346481375271947, ,0.19686018369685698,-0.41454857795549743,0.11595443679000002,-4.489042310116697,0.15057342274151536,-1.200533506028175, ,0.08682245339292843,-0.10907694432008136,0.0416984594764398,0.01395864774629634,0.10189351662253314,0.09366111781736833, ,0.715522050857544
0.01824767412888128,0.044321337582738596,-0.0982967460413598, ,0.018902860756928958,0.04545438322915003,-0.09880865192087315, ,0.0014053859199183488, ,0.014139009157819986,0.027846275679118918,-0.03106554545983801,0.03108581161697722,0.022860714931581597,0.05551814530030785, ,0.04404991218923903, ,0.038586410016644444, ,0.0015336834941122033, ,0.19686018369685698,-0.41454857795549743,0.11595443679000002,-4.489042310116697,0.15057342274151536,-1.200533506028175, ,0.08682245339292843,-0.10907694432008136,0.0416984594764398,0.01395864774629634,0.10189351662253314,0.09366111781736833, ,0.7210180759429932
0.018450816476042145,0.04469734443544141,-0.09870389608605615, ,0.018983230624808948,0.045599040283066605,-0.09896504834209686, ,0.0010792222793598876, ,0.014071213335780092,0.02494955029424354,-0.025710340412397652,-0.04476880360001601,0.0077790187511245215,-0.0672320820894814, ,0.0384902677146755, ,0.0454394946537172, ,0.0015303171147436677, ,0.19811898915535558,-0.41604678813309703,0.11650795262000001,-4.48778417045579,0.15139324174010801,-1.1985882937658556, ,0.0891051094445735,-0.10326108983511509,0.03563492510067114,0.1174698823098157,0.028172219652138262,0.17293386746358624, ,0.7263479232788086
0.018450816476042145,0.04469734443544141,-0.09870389608605615, ,0.019063871324924642,0.045742823893313994,-0.09912195499679068, ,0.0012820439919973222, ,0.014071213335780092,0.02494955029424354,-0.025710340412397652,-0.04476880360001601,0.0077790187511245215,-0.0672320820894814, ,0.0384902677146755, ,0.0454394946537172, ,0.0015284915770764152, ,0.19811898915535558,-0.41604678813309703,0.11650795262000001,-4.48778417045579,0.15139324174010801,-1.1985882937658556, ,0.0891051094445735,-0.10326108983511509,0.03563492510067114,0.1174698823098157,0.028172219652138262,0.17293386746358624, ,0.7317209243774414
0.018583240635817073,0.04493279001988383,-0.09893846378768176, ,0.019144783638222498,0.04588573369964374,-0.09927937403329795, ,0.001157433365646136, ,0.013849638327455095,0.02434337315475523,-0.02381429085079694,-0.028381947182669575,-0.016781909526396483,-0.008517455310952753, ,0.0367631982705439, ,0.0329721056947587, ,0.001525783122978384, ,0.1989839352372687,-0.4170507434067462,0.11683721028,-4.487155100625337,0.15180315123940433,-1.1971256151938525, ,0.09098460360351944,-0.10520725228211839,0.03367613429175476,0.054928661481198016,0.034961481153989345,0.14791497602970388, ,0.7371180057525635
0.018583240635817073,0.04493279001988383,-0.09893846378768176, ,0.01922596833468798,0.04602776935475928,-0.09943730752931608, ,0.0013641567788446845, ,0.013849638327455095,0.02434337315475523,-0.02381429085079694,-0.028381947182669575,-0.016781909526396483,-0.008517455310952753, ,0.0367631982705439, ,0.0329721056947587, ,0.0015246119175861108, ,0.1989839352372687,-0.4170507434067462,0.11683721028,-4.487155100625337,0.15180315123940433,-1.1971256151938525, ,0.09098460360351944,-0.10520725228211839,0.03367613429175476,0.054928661481198016,0.034961481153989345,0.14791497602970388, ,0.7423551082611084
0.01873138686298559,0.04519020676787335,-0.09920012508317601, ,0.019307426173370223,0.04616893052439908,-0.09959575749226221, ,0.001202599884340417, ,0.014146977513063331,0.024707577361042374,-0.025895688790526495,0.003990511186389389,-0.019002053753500052,0.040135222574889134, ,0.03848620596710999, ,0.01941624529710735, ,0.0015222952842534078, ,0.199956999579421,-0.41812420327626343,0.11720276406,-4.4869454106818525,0.15234969723846611,-1.195937712005827, ,0.09159936443867836,-0.09989151742996924,0.03579508206741574,0.01024035043653365,0.06024531488039766,0.10533004738606873, ,0.7476661205291748
0.01873138686298559,0.04519020676787335,-0.09920012508317601, ,0.019389157902408187,0.046309216887424856,-0.09975472585963761, ,0.0014115340623639138, ,0.014146977513063331,0.024707577361042374,-0.025895688790526495,0.003990511186389389,-0.019002053753500052,0.040135222574889134, ,0.03848620596710999, ,0.01941624529710735, ,0.0015215041326684829, ,0.199956999579421,-0.41812420327626343,0.11720276406,-4.4869454106818525,0.15234969723846611,-1.195937712005827, ,0.09159936443867836,-0.09989151742996924,0.03579508206741574,0.01024035043653365,0.06024531488039766,0.10533004738606873, ,0.7529890537261963
0.01885362893255157,0.04540878928502519,-0.09943088944768494, ,0.01947116425905537,0.046448628135904994,-0.09991421449939275, ,0.0013023892739452156, ,0.014760538175030397,0.026634794174324992,-0.028536300628672604,-0.00371471695592838,-0.021118586531884986,-0.0018938148942132468, ,0.04173255565496998, ,0.02144236218886462, ,0.001519950126578247, ,0.20072155013396922,-0.4189968720910508,0.11752035511000002,-4.486316340851398,0.15275960673776243,-1.194965105874667, ,0.08969465175658865,-0.10520725228211839,0.03904120470588236,0.04745271582197517,0.03612480858878767,0.12180407387087815, ,0.7584290504455566
0.01885362893255157,0.04540878928502519,-0.09943088944768494, ,0.019553445969706568,0.046587163975204966,-0.10007422521029279, ,0.0015139985797215608, ,0.014760538175030397,0.026634794174324992,-0.028536300628672604,-0.00371471695592838,-0.021118586531884986,-0.0018938148942132468, ,0.04173255565496998, ,0.02144236218886462, ,0.0015199082142764392, ,0.20072155013396922,-0.4189968720910508,0.11752035511000002,-4.486316340851398,0.15275960673776243,-1.194965105874667, ,0.08969465175658865,-0.10520725228211839,0.03904120470588236,0.04745271582197517,0.03612480858878767,0.12180407387087815, ,0.7637269496917725
0.01903550389941391,0.04573174969545321,-0.09978878209318892, ,0.01963600374992202,0.046724824124068226,-0.10023475972228127, ,0.0012432589983105418, ,0.015377034175158155,0.027385011438498103,-0.031118781279238256,0.03066906773844304,-0.006168157408472442,-0.01901789237458172, ,0.04421278751465149, ,0.03128272206674998, ,0.0015179736043745798, ,0.20181817820210912,-0.42021706388517827,0.11800516757000001,-4.48547758107746,0.15330615273682416,-1.1937772026866416, ,0.0908974536000678,-0.10020796363090896,0.04180790425196851,0.07066477200897534,0.0488829633511018,0.08824109972290858, ,0.769150972366333
0.01903550389941391,0.04573174969545321,-0.09978878209318892, ,0.019718838304455158,0.046861608314710076,-0.1003958196968452, ,0.0014532794159675105, ,0.015377034175158155,0.027385011438498103,-0.031118781279238256,0.03066906773844304,-0.006168157408472442,-0.01901789237458172, ,0.04421278751465149, ,0.03128272206674998, ,0.0015175243391773085, ,0.2027294606812676,-0.42119012822733054,0.11842775811000002,-4.485058201190491,0.1537160622361205,-1.1927229178153413, ,0.09177653922482666,-0.09331066033281296,0.04270458852546917,0.032351732573260225,0.03860210067724144,0.10816464517289645, ,0.7748498916625977
0.01919150373683672,0.04600439046688321,-0.10010514349659547, ,0.019801950327276073,0.046997516292897674,-0.10055740672737899, ,0.001250394328199986, ,0.015828672543922926,0.02705940915833788,-0.0321770561982124,-0.004262490143111331,-0.029013464275044837,0.01016497051359943, ,0.04492350658713096, ,0.02932431479870625, ,0.001515682063239534, ,0.2027294606812676,-0.42119012822733054,0.11842775811000002,-4.485058201190491,0.1537160622361205,-1.1927229178153413, ,0.09177653922482666,-0.09331066033281296,0.04270458852546917,0.032351732573260225,0.03860210067724144,0.10816464517289645, ,0.780224084854126
0.019348258427226393,0.04627353249798507,-0.10042566221611617, ,0.019885340501599007,0.04713254781804157,-0.10071952233954906, ,0.0010548546093410965, ,0.01593126025434823,0.02714699913624966,-0.03209305959152688,-0.00661639134667375,-0.01791553728138574,-0.006396268700169467, ,0.04495252038919076, ,0.01909735754901155, ,0.001512525710815572, ,0.20363302042755188,-0.42210913343936324,0.11885294123000001,-4.484429131360038,0.1541259717354168,-1.1916686329440411, ,0.09249214576849003,-0.09321899956627777,0.04270458852546917,0.05264816007933148,0.04148145296902526,0.11465676903441249, ,0.7855510711669922
0.019348258427226393,0.04627353249798507,-0.10042566221611617, ,0.019969009499908145,0.04726670266328377,-0.1008821679916578, ,0.0012570268074221281, ,0.01593126025434823,0.02714699913624966,-0.03209305959152688,-0.00661639134667375,-0.01791553728138574,-0.006396268700169467, ,0.04495252038919076, ,0.01909735754901155, ,0.0015107876230373853, ,0.20363302042755188,-0.42210913343936324,0.11885294123000001,-4.484429131360038,0.1541259717354168,-1.1916686329440411, ,0.09249214576849003,-0.09321899956627777,0.04270458852546917,0.05264816007933148,0.04148145296902526,0.11465676903441249, ,0.7908470630645752
0.01949759823918528,0.0465281280696647,-0.1007249506961095, ,0.02005295798398246,0.04739998061558168,-0.10104534507500754, ,0.001082221726815982, ,0.015573959211258542,0.026262562684693694,-0.030553298849876873,0.014785782421345478,0.007776220520758218,-0.014706712103494838, ,0.0431946116418622, ,0.0167051591534532, ,0.001507891907522376, ,0.20451341197521347,-0.4229818022541506,0.11925219855000001,-4.4838000615295845,0.1546725177344786,-1.1907257659764372, ,0.09349452370292687,-0.09046419595659749,0.04094810159383034,0.07244243194666893,0.06508980272217109,0.09738866559974468, ,0.7961239814758301
0.01949759823918528,0.0465281280696647,-0.1007249506961095, ,0.020137186604922978,0.047532381475800294,-0.10120905491426463, ,0.0012852840446210916, ,0.015573959211258542,0.026262562684693694,-0.030553298849876873,0.014785782421345478,0.007776220520758218,-0.014706712103494838, ,0.0431946116418622, ,0.0167051591534532, ,0.0015063978950196825, ,0.20451341197521347,-0.4229818022541506,0.11925219855000001,-4.4838000615295845,0.1546725177344786,-1.1907257659764372, ,0.09349452370292687,-0.09046419595659749,0.04094810159383034,0.07244243194666893,0.06508980272217109,0.09738866559974468, ,0.8013839721679688
0.01965783852413366,0.04679184548595661,-0.1010351207221208, ,0.02022169600317775,0.04766390505879707,-0.10137329876782276, ,0.001092148133657449, ,0.015639740727682136,0.025590766884964488,-0.02992183839864528,-0.012199575370789577,-0.009838601174811834,0.005702091083500982, ,0.04236514195590943, ,0.015671749334833947, ,0.0015036362299439346, ,0.2054710308516173,-0.42387763926756067,0.11966701135000002,-4.483380681642616,0.15521906373354036,-1.1895378627884114, ,0.09405048717390563,-0.0870614142738264,0.04012295093198993,0.04503390464530357,0.055777048989445195,0.11484600616629331, ,0.8067131042480469
0.01965783852413366,0.04679184548595661,-0.1010351207221208, ,0.02030648680856884,0.047794551193513383,-0.10153807782816711, ,0.0012958121713389306, ,0.015639740727682136,0.025590766884964488,-0.02992183839864528,-0.012199575370789577,-0.009838601174811834,0.005702091083500982, ,0.04236514195590943, ,0.015671749334833947, ,0.001502259911675027, ,0.2054710308516173,-0.42387763926756067,0.11966701135000002,-4.483380681642616,0.15521906373354036,-1.1895378627884114, ,0.09405048717390563,-0.0870614142738264,0.04012295093198993,0.04503390464530357,0.055777048989445195,0.11484600616629331, ,0.8120009899139404
0.01965783852413366,0.04679184548595661,-0.1010351207221208, ,0.020391559640317244,0.0479243197230592,-0.1017033932222379, ,0.0015057996906785267, ,0.015639740727682136,0.025590766884964488,-0.02992183839864528,-0.012199575370789577,-0.009838601174811834,0.005702091083500982, ,0.04236514195590943, ,0.015671749334833947, ,0.0015022831996947868, ,0.2054710308516173,-0.42387763926756067,0.11966701135000002,-4.483380681642616,0.15521906373354036,-1.1895378627884114, ,0.09405048717390563,-0.0870614142738264,0.04012295093198993,0.04503390464530357,0.055777048989445195,0.11484600616629331, ,0.8175430297851562
0.019773064192431848,0.046979968977298905,-0.10125545595538894, ,0.020476915107069775,0.048053210504804995,-0.10186924601179365, ,0.0014226706293944287, ,0.015702372504281033,0.02540478483940116,-0.029857773672280197,-0.003975912328211943,-0.006963011743733312,0.011917156295116126, ,0.042230963091842655, ,0.008016712665788019, ,0.0015017628560980527, ,0.20617379954317175,-0.4245109033632471,0.11996256547000002,-4.482961301755646,0.15576560973260212,-1.1888400320412296, ,0.09499193349196275,-0.08518576441514432,0.040022139497487445,0.041182977657107135,0.06341530706186176,0.10505085394652139, ,0.8228518962860107
0.019773064192431848,0.046979968977298905,-0.10125545595538894, ,0.020562553806924844,0.04818122341046902,-0.10203563719377509, ,0.0016355393084034704, ,0.015702372504281033,0.02540478483940116,-0.029857773672280197,-0.003975912328211943,-0.006963011743733312,0.011917156295116126, ,0.042230963091842655, ,0.008016712665788019, ,0.001502631534359776, ,0.20617379954317175,-0.4245109033632471,0.11996256547000002,-4.482961301755646,0.15576560973260212,-1.1888400320412296, ,0.09499193349196275,-0.08518576441514432,0.040022139497487445,0.041182977657107135,0.06341530706186176,0.10505085394652139, ,0.8281819820404053
0.02004682313013247,0.047423511448664656,-0.10177214178336917, ,0.020648476327458094,0.04830835832620568,-0.10220256770066766, ,0.0011533460178231407, ,0.01497711234976433,0.02365118224248347,-0.02727257760364486,0.03557180660243412,-0.009161141437327044,-0.01851696875138654, ,0.039083062891122795, ,0.036732340647194626, ,0.0015003780794143784, ,0.20782646437825578,-0.4260013908079724,0.12065737691000002,-4.481912852038223,0.15685870173072564,-1.1873626918067246, ,0.09115940591591815,-0.07967837242524835,0.036872248888888896,0.06688255976005607,0.051329605984077466,0.06283091042789735, ,0.8334019184112549
0.02004682313013247,0.047423511448664656,-0.10177214178336917, ,0.020734683245748852,0.048434615152695,-0.10237003840086571, ,0.001361235690162977, ,0.01497711234976433,0.02365118224248347,-0.02727257760364486,0.03557180660243412,-0.009161141437327044,-0.01851696875138654, ,0.039083062891122795, ,0.036732340647194626, ,0.0014994861410217411, ,0.20782646437825578,-0.4260013908079724,0.12065737691000002,-4.481912852038223,0.15685870173072564,-1.1873626918067246, ,0.09115940591591815,-0.07967837242524835,0.036872248888888896,0.06688255976005607,0.051329605984077466,0.06283091042789735, ,0.8387279510498047
0.020200820535558835,0.04765981839665025,-0.10205392184835922, ,0.020821175128406495,0.04855999380523351,-0.10253805009903574, ,0.0011956319459550814, ,0.015814298825355653,0.024139199520197375,-0.029976699943302293,0.014134173190025778,-0.03714018602659141,-0.004691596591803926, ,0.04161004133985356, ,0.039738445667567596, ,0.0014975507639831001, ,0.20873774685741428,-0.4267659413625206,0.12103459730000002,-4.4814934721512545,0.15713197473025653,-1.18652370399229, ,0.09151103332542987,-0.073506538774958,0.03962390925373134,0.04038618944666782,0.031271011406254434,0.07052513632041346, ,0.843966007232666
0.020200820535558835,0.04765981839665025,-0.10205392184835922, ,0.0209079525315954,0.048684494213820186,-0.10270660353647844, ,0.001405698963547206, ,0.015814298825355653,0.024139199520197375,-0.029976699943302293,0.014134173190025778,-0.03714018602659141,-0.004691596591803926, ,0.04161004133985356, ,0.039738445667567596, ,0.001496969423474012, ,0.20873774685741428,-0.4267659413625206,0.12103459730000002,-4.4814934721512545,0.15713197473025653,-1.18652370399229, ,0.09151103332542987,-0.073506538774958,0.03962390925373134,0.04038618944666782,0.031271011406254434,0.07052513632041346, ,0.8504459857940674
0.020403288860761343,0.04796900019753379,-0.10244406633156569, ,0.020995016001062038,0.048808116323248545,-0.10287569939149382, ,0.0011138060780162301, ,0.01644953035092199,0.02478983027693241,-0.0311175871274013,0.014134006116315018,-0.031097679347929983,-0.006157449638619361, ,0.0430514455338776, ,0.034158551103142795, ,0.0014945595911126425, ,0.20983437492555415,-0.4276308874444338,0.12151940976000002,-4.480864402320801,0.15767852072931826,-1.1857441945049674, ,0.09433095582352961,-0.07356352058796184,0.04137353641558442,0.046088099938966516,0.03911500522798191,0.0734210110919212, ,0.8557488918304443
0.020403288860761343,0.04796900019753379,-0.10244406633156569, ,0.02108236607215978,0.04893086009319352,-0.10304533827974188, ,0.0013220621292446186, ,0.01644953035092199,0.02478983027693241,-0.0311175871274013,0.014134006116315018,-0.031097679347929983,-0.006157449638619361, ,0.0430514455338776, ,0.034158551103142795, ,0.0014934814819759672, ,0.20983437492555415,-0.4276308874444338,0.12151940976000002,-4.480864402320801,0.15767852072931826,-1.1857441945049674, ,0.09433095582352961,-0.07356352058796184,0.04137353641558442,0.046088099938966516,0.03911500522798191,0.0734210110919212, ,0.8609929084777832
0.020556424250783835,0.04820030796915253,-0.10274213823304483, ,0.02117000326987559,0.049052725498302516,-0.10321552075460763, ,0.0011520355326086645, ,0.0159584939105731,0.024038160531378683,-0.031763718132722794,0.017128856980057013,0.002645557011104677,-0.026404504334736446, ,0.0429120085668475, ,0.017331023615130902, ,0.0014913606996817604, ,0.21078427106908376,-0.428325933403114,0.12193811143000001,-4.480235332490348,0.15822506672838005,-1.185046363757785, ,0.09012055228724672,-0.06420632040491935,0.04126635108808291,0.07615426784986648,0.05804694444723994,0.06902716586210239, ,0.8663918972015381
0.020556424250783835,0.04820030796915253,-0.10274213823304483, ,0.021257928108855993,0.04917371252828489,-0.1033862473075635, ,0.001361800498790881, ,0.0159584939105731,0.024038160531378683,-0.031763718132722794,0.017128856980057013,0.002645557011104677,-0.026404504334736446, ,0.0429120085668475, ,0.017331023615130902, ,0.0014905609453552736, ,0.21078427106908376,-0.428325933403114,0.12193811143000001,-4.480235332490348,0.15822506672838005,-1.185046363757785, ,0.09012055228724672,-0.06420632040491935,0.04126635108808291,0.07615426784986648,0.05804694444723994,0.06902716586210239, ,0.8717820644378662
0.020730077911491954,0.048454176619211003,-0.1030792030485778, ,0.021346141093432396,0.04929382118800076,-0.10355751836853204, ,0.0011460027885409555, ,0.01618943774339033,0.02388602478432065,-0.03188729695053825,0.016654802073380673,-0.013391607247139812,0.011017781706630026, ,0.04300511343149902, ,0.021370180370650735, ,0.0014884470916324865, ,0.2117727808769845,-0.42899781116317154,0.12237625745000001,-4.479815952603378,0.1587716127274418,-1.184348533010603, ,0.09186538389009755,-0.06230921967069651,0.04137353641558442,0.03558569092312216,0.06230974665846836,0.060438776234870886, ,0.8772311210632324
0.020881406945892536,0.048670689840691256,-0.10337120621887874, ,0.021434642717647123,0.049413051497550334,-0.10372933430624937, ,0.0009926864437913865, ,0.016012196513368278,0.022400138493100078,-0.030319793244646648,-0.010153296966646035,-0.01710508579899924,0.013636582427911891, ,0.04095664175797263, ,0.019890896822747615, ,0.0014854241608529676, ,0.21263772695889765,-0.42954612519724145,0.12275477413000001,-4.47939657271641,0.15931815872650357,-1.1835690235232803, ,0.09249214576849003,-0.05601944602034875,0.039330398814814815,0.029970338923808043,0.05839460428240313,0.07968379407796539, ,0.8827219009399414
