NicholasDascanio/dvrk_moveit_final/test/execution/noob_justexecution/no_ramp/noob__noramp_300vel5.csv
Current Position (x),Current Position (y),Current Position (z), ,Planned Position (x),Planned Position (y),Planned Position (z), ,Position Error,,Cartesian linear Velocity(x),Cartesian linear Velocity(y),Cartesian linear Velocity(z),Cartesian Angular Velocity(x),Cartesian Angular Velocity(y),Cartesian Angular Velocity(z), ,Total Linear Velocity, ,Total Angular Velocity, ,MSE, ,Joint 1 Position,Joint 2 Position,Joint 3 Position,Joint 4 Position,Joint 5 Position,Joint 6 Position, ,Joint 1 Velocity,Joint 2 Velocity,Joint 3 Velocity,Joint 4 Velocity,Joint 5 Velocity,Joint 6 Velocity, ,Time Stamp
0.00990932385916301,0.018855141242975222,-0.08068006707417737, ,0.010201299269839821,0.01895265347946865,-0.0808478256999669, ,0.0003505727217463393, ,2.31660281243586e-07,1.1551758952179396e-05,-3.417190807398842e-06,0.00012459903454878915,3.016461711905748e-06,1.747353697375531e-05, ,1.2048817136521484e-05, ,0.00012463554248989228, ,0.00017528636087316965, ,0.1393258237838844,-0.22501726775627953,0.09004289598000001,-4.537900066948591,0.15590224623236756,-1.3824483853379177, ,-3.016461711905733e-06,-0.00012581829717836572,5.947536354399122e-06,0.0,0.0,0.0, ,0.003635883331298828
0.00990932385916301,0.018855141242975222,-0.08068006707417737, ,0.01023587906447059,0.01914131641968487,-0.08092731601126732, ,0.0004996664595211341, ,2.31660281243586e-07,1.1551758952179396e-05,-3.417190807398842e-06,0.00012459903454878915,3.016461711905748e-06,1.747353697375531e-05, ,1.2048817136521484e-05, ,0.00012463554248989228, ,0.0002834130604224911, ,0.1393258237838844,-0.22501726775627953,0.09004289598000001,-4.537900066948591,0.15590224623236756,-1.3824483853379177, ,-3.016461711905733e-06,-0.00012581829717836572,5.947536354399122e-06,0.0,0.0,0.0, ,0.007547855377197266
0.00990932385916301,0.018855141242975222,-0.08068006707417737, ,0.010270538761979552,0.019329331516592056,-0.08100677318105357, ,0.000679756943237635, ,2.244850192612615e-07,1.153993285025302e-05,-3.3660259678488955e-06,0.00012459903454878915,3.016461711905748e-06,1.747353697375531e-05, ,1.2022918719198537e-05, ,0.00012463554248989228, ,0.00038249903112627713, ,0.1393258237838844,-0.22501726775627953,0.09004289598000001,-4.537900066948591,0.15590224623236756,-1.3824483853379177, ,-3.016461711905733e-06,-0.00012581829717836572,5.889582043269027e-06,0.0,0.0,0.0, ,0.011818885803222656
0.009910875271497036,0.018864249605050235,-0.08068730921051176, ,0.010305278640656243,0.01951670087817091,-0.08108619996574039, ,0.0008604420468618367, ,0.0002497730349519684,0.002609817616127895,-0.0015948523506974076,0.12063288558164192,-0.012982785525484299,-0.001390033597724638, ,0.00306872751787539, ,0.12132949272021176, ,0.00047808763427338905, ,0.13931810105101017,-0.22510994055077024,0.09005197001000001,-4.538109756892076,0.15576560973260212,-1.382745361134924, ,0.0003183160778660827,-0.026171246982479534,0.002161890814332248,0.0,0.0,-0.09569016874858183, ,0.015433788299560547
0.009910875271497036,0.018864249605050235,-0.08068730921051176, ,0.010340098978010527,0.019703426602012516,-0.08116559910510901, ,0.0010569826137348049, ,0.0002497730349519684,0.002609817616127895,-0.0015948523506974076,0.12063288558164192,-0.012982785525484299,-0.001390033597724638, ,0.00306872751787539, ,0.12132949272021176, ,0.0005745701308502917, ,0.13931810105101017,-0.22510994055077024,0.09005197001000001,-4.538109756892076,0.15576560973260212,-1.382745361134924, ,0.0003183160778660827,-0.026171246982479534,0.002161890814332248,0.0,0.0,-0.09569016874858183, ,0.01903986930847168
0.009910875271497036,0.018864249605050235,-0.08068730921051176, ,0.010375000050773001,0.019889510775349704,-0.08124497332234307, ,0.0012560101670314615, ,0.0002497730349519684,0.002609817616127895,-0.0015948523506974076,0.12063288558164192,-0.012982785525484299,-0.001390033597724638, ,0.00306872751787539, ,0.12132949272021176, ,0.0006719187074476017, ,0.13931810105101017,-0.22510994055077024,0.09005197001000001,-4.538109756892076,0.15576560973260212,-1.382745361134924, ,0.0003183160778660827,-0.026171246982479534,0.002161890814332248,0.0,0.0,-0.09569016874858183, ,0.022713899612426758
0.009924862862001171,0.018906259969415157,-0.08072088792009197, ,0.010409982134893095,0.020074955475088325,-0.08132432532406247, ,0.001401901064420209, ,0.0029663782709318898,0.008617164398876416,-0.007037344213052649,0.042179889045375576,-0.1571308099934409,-0.025948180066828183, ,0.011514301363804304, ,0.16269368294993783, ,0.0007631665020691776, ,0.13935671471538127,-0.22551924539310414,0.09009474758000001,-4.538109756892076,0.1550824272337749,-1.3828417015375667, ,0.006768454319006581,-0.08383122045801306,0.008908731275167786,0.0,-0.15920241168809246,0.018559789794044157, ,0.026311874389648438
0.009924862862001171,0.018906259969415157,-0.08072088792009197, ,0.010445045505538595,0.020259762767838627,-0.08140365780035927, ,0.001602727212403275, ,0.0029663782709318898,0.008617164398876416,-0.007037344213052649,0.042179889045375576,-0.1571308099934409,-0.025948180066828183, ,0.011514301363804304, ,0.16269368294993783, ,0.0008564510254396329, ,0.13935671471538127,-0.22551924539310414,0.09009474758000001,-4.538109756892076,0.1550824272337749,-1.3828417015375667, ,0.006768454319006581,-0.08383122045801306,0.008908731275167786,0.0,-0.15920241168809246,0.018559789794044157, ,0.029982805252075195
0.009924862862001171,0.018906259969415157,-0.08072088792009197, ,0.010480190437094571,0.020443934709946664,-0.08148297342483286, ,0.0018037756622883959, ,0.0029663782709318898,0.008617164398876416,-0.007037344213052649,0.042179889045375576,-0.1571308099934409,-0.025948180066828183, ,0.011514301363804304, ,0.16269368294993783, ,0.0009511834891245092, ,0.13935671471538127,-0.22551924539310414,0.09009474758000001,-4.538109756892076,0.1550824272337749,-1.3828417015375667, ,0.006768454319006581,-0.08383122045801306,0.008908731275167786,0.0,-0.15920241168809246,0.018559789794044157, ,0.033659934997558594
0.010006913740103473,0.019049813305995162,-0.08094816321521103, ,0.010515417203164111,0.020627473347525443,-0.08156227485462485, ,0.001767687779063235, ,0.008093071251534044,0.014614814929206323,-0.02818451249845254,-0.15136712857266882,-0.29591191358794383,-0.14785121844462587, ,0.032763659174042, ,0.3323790764032298, ,0.0010254111518462115, ,0.1394880011742431,-0.22662359619411823,0.090351413,-4.537061307174653,0.1507100592412808,-1.3803381522411082, ,0.012313084411375474,-0.09723047290826925,0.031110960000000003,0.09040142742733441,-0.34654062107693134,0.21287660781878337, ,0.03802990913391113
0.010006913740103473,0.019049813305995162,-0.08094816321521103, ,0.010550726076565091,0.020810380716486235,-0.08164156473045428, ,0.001968790269559639, ,0.008093071251534044,0.014614814929206323,-0.02818451249845254,-0.15136712857266882,-0.29591191358794383,-0.14785121844462587, ,0.032763659174042, ,0.3323790764032298, ,0.0011040260783223305, ,0.1394880011742431,-0.22662359619411823,0.090351413,-4.537061307174653,0.1507100592412808,-1.3803381522411082, ,0.012313084411375474,-0.09723047290826925,0.031110960000000003,0.09040142742733441,-0.34654062107693134,0.21287660781878337, ,0.041783809661865234
0.010097522276706898,0.019236989001500684,-0.08126975619677464, ,0.010586117329331061,0.02099265884257015,-0.08172084567665243, ,0.0018773873961295542, ,0.01005839204452314,0.02183616332286236,-0.038070904736002366,-0.2169928837649382,-0.28570342219223527,-0.07889354500256483, ,0.04502647073224608, ,0.35876493290149847, ,0.0011635154104613478, ,0.1396810694960987,-0.22795962898135907,0.09071178162000001,-4.5364322373442,0.14743078324691022,-1.3775824438122537, ,0.02098561290545572,-0.15355492161564852,0.04259040513368984,0.0353392148987012,-0.33096576170268727,0.33010567665291024, ,0.04546189308166504
0.010097522276706898,0.019236989001500684,-0.08126975619677464, ,0.010621591232709872,0.021174309741378995,-0.08180012030119846, ,0.002075848261089903, ,0.01005839204452314,0.02183616332286236,-0.038070904736002366,-0.2169928837649382,-0.28570342219223527,-0.07889354500256483, ,0.04502647073224608, ,0.35876493290149847, ,0.0012286820426491017, ,0.1396810694960987,-0.22795962898135907,0.09071178162000001,-4.5364322373442,0.14743078324691022,-1.3775824438122537, ,0.02098561290545572,-0.15355492161564852,0.04259040513368984,0.0353392148987012,-0.33096576170268727,0.33010567665291024, ,0.049223899841308594
0.010097522276706898,0.019236989001500684,-0.08126975619677464, ,0.010657148057163151,0.021355335418407218,-0.08187939119575448, ,0.002274253149531329, ,0.01005839204452314,0.02183616332286236,-0.038070904736002366,-0.2169928837649382,-0.28570342219223527,-0.07889354500256483, ,0.04502647073224608, ,0.35876493290149847, ,0.001298386783107917, ,0.1396810694960987,-0.22795962898135907,0.09071178162000001,-4.5364322373442,0.14743078324691022,-1.3775824438122537, ,0.02098561290545572,-0.15355492161564852,0.04259040513368984,0.0353392148987012,-0.33096576170268727,0.33010567665291024, ,0.053270816802978516
0.010097522276706898,0.019236989001500684,-0.08126975619677464, ,0.010692788072365044,0.021535737869072532,-0.08195866093569991, ,0.0024724840672807327, ,0.01005839204452314,0.02183616332286236,-0.038070904736002366,-0.2169928837649382,-0.28570342219223527,-0.07889354500256483, ,0.04502647073224608, ,0.35876493290149847, ,0.001371767863368718, ,0.1396810694960987,-0.22795962898135907,0.09071178162000001,-4.5364322373442,0.14743078324691022,-1.3775824438122537, ,0.02098561290545572,-0.15355492161564852,0.04259040513368984,0.0353392148987012,-0.33096576170268727,0.33010567665291024, ,0.057367801666259766
0.010195356563678756,0.01946990290373572,-0.08167628088602533, ,0.01072851154720157,0.021715519078747643,-0.08203793208016769, ,0.002336201581232876, ,0.009230352201437676,0.02511525284699643,-0.04087556196043625,-0.29979333228407795,-0.12477017310766256,0.0025454038490774003, ,0.0488547530227368, ,0.3247206862376148, ,0.001428499258537198, ,0.1399050287494512,-0.229573680152072,0.09116677941000001,-4.536222547400715,0.1449713262511323,-1.3741883829633286, ,0.023402451679031017,-0.18007009783391037,0.04617046817391306,0.0,-0.17077271526222093,0.458480826287194, ,0.06128501892089844
0.01028847371776885,0.01976496599634074,-0.08210917408949125, ,0.01076431874976928,0.021894681022791386,-0.0821172071720781, ,0.0021822417645130446, ,0.008692477292382714,0.030730258776135982,-0.04022326570144727,-0.03637394978303103,0.028998051565966156,-0.14309355975166727, ,0.05135970277967052, ,0.04651715734606861, ,0.0014703738422025226, ,0.14019849259867176,-0.23176693628835177,0.09166325848000001,-4.534964407739808,0.1441515072525397,-1.3702527259355275, ,0.033053619490933744,-0.23843452652882108,0.04698764460176992,0.1900199427375579,-0.023410289622227635,0.2980373845666815, ,0.0648798942565918
0.01028847371776885,0.01976496599634074,-0.08210917408949125, ,0.010800209947375971,0.02207322566658028,-0.08219648873817523, ,0.002365916423253716, ,0.008692477292382714,0.030730258776135982,-0.04022326570144727,-0.03637394978303103,0.028998051565966156,-0.14309355975166727, ,0.05135970277967052, ,0.04651715734606861, ,0.0015175076622578488, ,0.14019849259867176,-0.23176693628835177,0.09166325848000001,-4.534964407739808,0.1441515072525397,-1.3702527259355275, ,0.033053619490933744,-0.23843452652882108,0.04698764460176992,0.1900199427375579,-0.023410289622227635,0.2980373845666815, ,0.06846189498901367
0.01028847371776885,0.01976496599634074,-0.08210917408949125, ,0.010836185406538124,0.02225115496553932,-0.08227577928906087, ,0.0025512508651841384, ,0.008692477292382714,0.030730258776135982,-0.04022326570144727,-0.03637394978303103,0.028998051565966156,-0.14309355975166727, ,0.05135970277967052, ,0.04651715734606861, ,0.0015691948224041633, ,0.14019849259867176,-0.23176693628835177,0.09166325848000001,-4.534964407739808,0.1441515072525397,-1.3702527259355275, ,0.033053619490933744,-0.23843452652882108,0.04698764460176992,0.1900199427375579,-0.023410289622227635,0.2980373845666815, ,0.07209086418151855
0.010373034084909218,0.02008137763457908,-0.08247201704619035, ,0.010872245392981351,0.022428470865173848,-0.08235508131923039, ,0.002402443033133257, ,0.008722118573740544,0.03405701078583023,-0.03384161263756397,0.07030149844460797,0.004973155649766213,-0.031097252405799386, ,0.048797644225838155, ,0.07047686552145672, ,0.0016088733086293582, ,0.1405923519752572,-0.23435405180121696,0.09209751563000002,-4.533706268078901,0.1441515072525397,-1.3678840424714513, ,0.04658661833994638,-0.29199058941067935,0.0416984594764398,0.08494286411334911,-0.00023506058476118112,0.2327807470684673, ,0.07576584815979004
0.010373034084909218,0.02008137763457908,-0.08247201704619035, ,0.01090839017163728,0.022605175301100445,-0.08243439730710744, ,0.0025802279058067972, ,0.008722118573740544,0.03405701078583023,-0.03384161263756397,0.07030149844460797,0.004973155649766213,-0.031097252405799386, ,0.048797644225838155, ,0.07047686552145672, ,0.0016530257903192417, ,0.1405923519752572,-0.23435405180121696,0.09209751563000002,-4.533706268078901,0.1441515072525397,-1.3678840424714513, ,0.04658661833994638,-0.29199058941067935,0.0416984594764398,0.08494286411334911,-0.00023506058476118112,0.2327807470684673, ,0.07941699028015137
0.010373034084909218,0.02008137763457908,-0.08247201704619035, ,0.010944620006646857,0.0227812701990784,-0.0825137297150792, ,0.0027600489619775226, ,0.008722118573740544,0.03405701078583023,-0.03384161263756397,0.07030149844460797,0.004973155649766213,-0.031097252405799386, ,0.048797644225838155, ,0.07047686552145672, ,0.0017011572325652537, ,0.1405923519752572,-0.23435405180121696,0.09209751563000002,-4.533706268078901,0.1441515072525397,-1.3678840424714513, ,0.04658661833994638,-0.29199058941067935,0.0416984594764398,0.08494286411334911,-0.00023506058476118112,0.2327807470684673, ,0.08299994468688965
0.010462272146106176,0.020415406660030236,-0.08273750982898115, ,0.010980935161355605,0.022956757475040918,-0.08259308098953114, ,0.0025977557579587736, ,0.009508373432382804,0.03691541977271155,-0.0239800915536797,0.025929860647090013,-0.1273022038209722,0.020007613438133492, ,0.045035565648140874, ,0.1299161300270326, ,0.0017385155044566504, ,0.14111749781070446,-0.23740453128653566,0.09244232877000001,-4.533286888191932,0.14333168825394704,-1.365255245285899, ,0.05983413717431954,-0.3514701539202621,0.03291076760330579,0.012702747188492692,-0.11832486868737352,0.30999118879778975, ,0.08662295341491699
0.010462272146106176,0.020415406660030236,-0.08273750982898115, ,0.011017335898313933,0.023131639035126647,-0.08267245356088271, ,0.0027731293519336134, ,0.009508373432382804,0.03691541977271155,-0.0239800915536797,0.025929860647090013,-0.1273022038209722,0.020007613438133492, ,0.045035565648140874, ,0.1299161300270326, ,0.001779900058355729, ,0.14111749781070446,-0.23740453128653566,0.09244232877000001,-4.533286888191932,0.14333168825394704,-1.365255245285899, ,0.05983413717431954,-0.3514701539202621,0.03291076760330579,0.012702747188492692,-0.11832486868737352,0.30999118879778975, ,0.09031391143798828
0.010462272146106176,0.020415406660030236,-0.08273750982898115, ,0.011053822479276804,0.023305916775710613,-0.08275184984362176, ,0.002950455246490745, ,0.009508373432382804,0.03691541977271155,-0.0239800915536797,0.025929860647090013,-0.1273022038209722,0.020007613438133492, ,0.045035565648140874, ,0.1299161300270326, ,0.0018249214117455372, ,0.14111749781070446,-0.23740453128653566,0.09244232877000001,-4.533286888191932,0.14333168825394704,-1.365255245285899, ,0.05983413717431954,-0.3514701539202621,0.03291076760330579,0.012702747188492692,-0.11832486868737352,0.30999118879778975, ,0.09393882751464844
0.0105630027172759,0.020842747041004268,-0.08295506852355156, ,0.01109039516520343,0.023479592583435738,-0.08283127223633965, ,0.0026919180391496243, ,0.009654769141800842,0.042262662148418575,-0.019018567596358265,-0.13937174664238372,-0.10443828982176755,-0.0334644177729077, ,0.04733976227728748, ,0.17416037911885385, ,0.0018570323979456886, ,0.1417970983036362,-0.241613420702988,0.09276510498000001,-4.532448128417994,0.14196532325629263,-1.3603838442024694, ,0.06711240562833859,-0.4217641847043146,0.02955252601113173,0.08247391925120832,-0.13984179872820882,0.5538630084957726, ,0.09763383865356445
0.0105630027172759,0.020842747041004268,-0.08295506852355156, ,0.01112705421625502,0.02365266833524407,-0.0829107231217675, ,0.0028663178972302195, ,0.009654769141800842,0.042262662148418575,-0.019018567596358265,-0.13937174664238372,-0.10443828982176755,-0.0334644177729077, ,0.04733976227728748, ,0.17416037911885385, ,0.0018930783086344217, ,0.1417970983036362,-0.241613420702988,0.09276510498000001,-4.532448128417994,0.14196532325629263,-1.3603838442024694, ,0.06711240562833859,-0.4217641847043146,0.02955252601113173,0.08247391925120832,-0.13984179872820882,0.5538630084957726, ,0.10129284858703613
0.010649229322415606,0.02127299175325331,-0.08312006303926602, ,0.011163799891793827,0.023825145898408194,-0.08299020486680908, ,0.002606748318586845, ,0.008063137749958605,0.045705337581607185,-0.01534148345446729,-0.06451474728221322,0.036522848592733484,-0.02789369454874019, ,0.04888101050926807, ,0.07413548567572976, ,0.0019176876193224364, ,0.14246125333081952,-0.24595359657830218,0.09303862217000002,-4.530980298813603,0.14128214075746542,-1.3541092428741477, ,0.06866638318268507,-0.4629119100413209,0.02699798562711865,0.12065392462760835,0.0,0.5566931455261179, ,0.10493183135986328
0.010649229322415606,0.02127299175325331,-0.08312006303926602, ,0.011200632450384322,0.023997027130562315,-0.08306971982257802, ,0.0027797389420287652, ,0.008063137749958605,0.045705337581607185,-0.01534148345446729,-0.06451474728221322,0.036522848592733484,-0.02789369454874019, ,0.04888101050926807, ,0.07413548567572976, ,0.0019464226634126473, ,0.14246125333081952,-0.24595359657830218,0.09303862217000002,-4.530980298813603,0.14128214075746542,-1.3541092428741477, ,0.06866638318268507,-0.4629119100413209,0.02699798562711865,0.12065392462760835,0.0,0.5566931455261179, ,0.108489990234375
0.010649229322415606,0.02127299175325331,-0.08312006303926602, ,0.011237552149789876,0.024168313879733585,-0.08314927032443166, ,0.0029546348388257175, ,0.008063137749958605,0.045705337581607185,-0.01534148345446729,-0.06451474728221322,0.036522848592733484,-0.02789369454874019, ,0.04888101050926807, ,0.07413548567572976, ,0.0019789456368130686, ,0.14246125333081952,-0.24595359657830218,0.09303862217000002,-4.530980298813603,0.14128214075746542,-1.3541092428741477, ,0.06866638318268507,-0.4629119100413209,0.02699798562711865,0.12065392462760835,0.0,0.5566931455261179, ,0.11214780807495117
0.010704619227846204,0.021607693525532795,-0.08321652614223776, ,0.011274559246973122,0.02433900798437369,-0.08322885869200633, ,0.0027901724660421108, ,0.008135309047051526,0.04909687635068105,-0.01313077161921753,0.2761131058130974,0.00530662515240421,0.018802951839173517, ,0.05146944417808639, ,0.2761640944835434, ,0.0020042964752264763, ,0.14297867643339257,-0.2493979354402063,0.09322139906000002,-4.5303512289831485,0.1415554137569963,-1.3513916440364802, ,0.07677746080782426,-0.5074702757137475,0.025900506536585367,0.07471688235220703,0.03128849526077464,0.24358042129502638, ,0.11589694023132324
0.010704619227846204,0.021607693525532795,-0.08321652614223776, ,0.011311653998096461,0.0245091112733896,-0.08330848722925266, ,0.002965665692790776, ,0.008135309047051526,0.04909687635068105,-0.01313077161921753,0.2761131058130974,0.00530662515240421,0.018802951839173517, ,0.05146944417808639, ,0.2761640944835434, ,0.0020334288757587276, ,0.14297867643339257,-0.2493979354402063,0.09322139906000002,-4.5303512289831485,0.1415554137569963,-1.3513916440364802, ,0.07677746080782426,-0.5074702757137475,0.025900506536585367,0.07471688235220703,0.03128849526077464,0.24358042129502638, ,0.11955595016479492
0.010704619227846204,0.021607693525532795,-0.08321652614223776, ,0.011348836658517804,0.02467862556617537,-0.08338815822447043, ,0.003142466748889765, ,0.008135309047051526,0.04909687635068105,-0.01313077161921753,0.2761131058130974,0.00530662515240421,0.018802951839173517, ,0.05146944417808639, ,0.2761640944835434, ,0.00206604763673317, ,0.14297867643339257,-0.2493979354402063,0.09322139906000002,-4.5303512289831485,0.1415554137569963,-1.3513916440364802, ,0.07677746080782426,-0.5074702757137475,0.025900506536585367,0.07471688235220703,0.03128849526077464,0.24358042129502638, ,0.12319779396057129
0.01080839953783802,0.02221675049708117,-0.0833940922182937, ,0.011386107482792087,0.024847552672643256,-0.08346787395034354, ,0.0026944962981213273, ,0.009315084106860475,0.05357169960318652,-0.016388097889846485,0.28421216756443396,-0.06807014089938164,0.04295917657257798, ,0.056791438991622055, ,0.2922500626033582, ,0.0020840033127728316, ,0.1438976816454253,-0.2556379036025797,0.09355843446,-4.529722159152695,0.1415554137569963,-1.3485328881315606, ,0.07765707165177642,-0.5453847216004069,0.030514964597701155,0.03712278447631502,-0.03729912557593774,0.25800413291322577, ,0.12689685821533203
0.01080839953783802,0.02221675049708117,-0.0833940922182937, ,0.011423466724671235,0.025015894393254776,-0.08354763666397537, ,0.0028700331169874294, ,0.009315084106860475,0.05357169960318652,-0.016388097889846485,0.28421216756443396,-0.06807014089938164,0.04295917657257798, ,0.056791438991622055, ,0.2922500626033582, ,0.002105837474001015, ,0.1438976816454253,-0.2556379036025797,0.09355843446,-4.529722159152695,0.1415554137569963,-1.3485328881315606, ,0.07765707165177642,-0.5453847216004069,0.030514964597701155,0.03712278447631502,-0.03729912557593774,0.25800413291322577, ,0.13054180145263672
0.01080839953783802,0.02221675049708117,-0.0833940922182937, ,0.01146091463710081,0.025183652519052302,-0.08362744860692363, ,0.0030467587313170587, ,0.009315084106860475,0.05357169960318652,-0.016388097889846485,0.28421216756443396,-0.06807014089938164,0.04295917657257798, ,0.056791438991622055, ,0.2922500626033582, ,0.0021312677782528, ,0.1438976816454253,-0.2556379036025797,0.09355843446,-4.529722159152695,0.1415554137569963,-1.3485328881315606, ,0.07765707165177642,-0.5453847216004069,0.030514964597701155,0.03712278447631502,-0.03729912557593774,0.25800413291322577, ,0.13415288925170898
0.010929041350520705,0.02287266994166333,-0.083614824791096, ,0.011498451472219699,0.02535082883169024,-0.08370731200523551, ,0.0025444160932701168, ,0.010997221800191232,0.05879759406922249,-0.02012972035794614,0.22060563507532063,-0.06388582470992432,-0.05510718827647212, ,0.06311340267598302, ,0.22966985331279652, ,0.002142140102332203, ,0.14486302325470335,-0.262217672011419,0.09395380291000001,-4.528464019491787,0.1408722312581691,-1.3446269702673155, ,0.08698161462737927,-0.5857835898671035,0.03595668514672686,0.1417517915580339,-0.0687482751467238,0.3727887856904831, ,0.13779497146606445
0.010929041350520705,0.02287266994166333,-0.083614824791096, ,0.011536077481361769,0.025517425103466225,-0.08378722906948262, ,0.002718997235238676, ,0.010997221800191232,0.05879759406922249,-0.02012972035794614,0.22060563507532063,-0.06388582470992432,-0.05510718827647212, ,0.06311340267598302, ,0.22966985331279652, ,0.0021569313108682664, ,0.14486302325470335,-0.262217672011419,0.09395380291000001,-4.528464019491787,0.1408722312581691,-1.3446269702673155, ,0.08698161462737927,-0.5857835898671035,0.03595668514672686,0.1417517915580339,-0.0687482751467238,0.3727887856904831, ,0.1415538787841797
0.011041965362061193,0.023448541147822726,-0.08381715766670243, ,0.011573792915052582,0.025683443097352543,-0.08386720199479583, ,0.0022978537170384246, ,0.010997221800191232,0.05879759406922249,-0.02012972035794614,0.22060563507532063,-0.06388582470992432,-0.05510718827647212, ,0.06311340267598302, ,0.22966985331279652, ,0.0021604543710225205, ,0.14575113753523916,-0.2679247716054709,0.09431287524000001,-4.52762525971785,0.14005241225957646,-1.3405279557592333, ,0.09864546939549977,-0.6006135541675365,0.038107204593301434,0.032569313741916864,-0.07818685969932165,0.4245826694793883, ,0.14541983604431152
0.011041965362061193,0.023448541147822726,-0.08381715766670243, ,0.011611598023007413,0.025848884567027445,-0.08394723296090147, ,0.0024704350792313966, ,0.012269940531763567,0.060800127486989694,-0.021350845103978607,0.16739139633644853,-0.10534507945864512,0.05069671147297305, ,0.0655977555236557, ,0.19778134617996232, ,0.002168014876100786, ,0.14575113753523916,-0.2679247716054709,0.09431287524000001,-4.52762525971785,0.14005241225957646,-1.3405279557592333, ,0.09864546939549977,-0.6006135541675365,0.038107204593301434,0.032569313741916864,-0.07818685969932165,0.4245826694793883, ,0.1496598720550537
0.011041965362061193,0.023448541147822726,-0.08381715766670243, ,0.01164949305413431,0.02601375125690616,-0.08402732413215427, ,0.0026445345041386883, ,0.012269940531763567,0.060800127486989694,-0.021350845103978607,0.16739139633644853,-0.10534507945864512,0.05069671147297305, ,0.0655977555236557, ,0.19778134617996232, ,0.0021793605815302597, ,0.14575113753523916,-0.2679247716054709,0.09431287524000001,-4.52762525971785,0.14005241225957646,-1.3405279557592333, ,0.09864546939549977,-0.6006135541675365,0.038107204593301434,0.032569313741916864,-0.07818685969932165,0.4245826694793883, ,0.1533489227294922
0.011041965362061193,0.023448541147822726,-0.08381715766670243, ,0.011687478256530028,0.026178044902172425,-0.0841074776575747, ,0.0028197807253463355, ,0.012269940531763567,0.060800127486989694,-0.021350845103978607,0.16739139633644853,-0.10534507945864512,0.05069671147297305, ,0.0655977555236557, ,0.19778134617996232, ,0.0021942540732469125, ,0.14575113753523916,-0.2679247716054709,0.09431287524000001,-4.52762525971785,0.14005241225957646,-1.3405279557592333, ,0.09864546939549977,-0.6006135541675365,0.038107204593301434,0.032569313741916864,-0.07818685969932165,0.4245826694793883, ,0.15711379051208496
0.011164250713062429,0.024063982776836485,-0.08402513316039852, ,0.011725553877479785,0.026341767228809893,-0.08418769567088252, ,0.0023515505144163073, ,0.01256085666535695,0.06308061028099265,-0.021037661982167884,0.18747896285105245,-0.06746809138287271,0.06913988582842581, ,0.06767216366620821, ,0.19924934314998047, ,0.0021978289923643987, ,0.14677826100751104,-0.27399483964461135,0.09469268821000001,-4.5272058798308805,0.13964250276028015,-1.3363548012615376, ,0.10710715751520403,-0.6202414480945803,0.03885075980487805,0.031219999151958198,-0.029786387834724336,0.43066548943366484, ,0.1607818603515625
0.011164250713062429,0.024063982776836485,-0.08402513316039852, ,0.01176372016345623,0.026504919953632994,-0.08426798029053224, ,0.0025251757664837794, ,0.01256085666535695,0.06308061028099265,-0.021037661982167884,0.18747896285105245,-0.06746809138287271,0.06913988582842581, ,0.06767216366620821, ,0.19924934314998047, ,0.0022051033651226074, ,0.14677826100751104,-0.27399483964461135,0.09469268821000001,-4.5272058798308805,0.13964250276028015,-1.3363548012615376, ,0.10710715751520403,-0.6202414480945803,0.03885075980487805,0.031219999151958198,-0.029786387834724336,0.43066548943366484, ,0.16443085670471191
0.011326166914262276,0.02487961474714005,-0.08427937766139477, ,0.011801977360121297,0.026667504784318556,-0.08434833361974867, ,0.0018514052202646585, ,0.012233042251062677,0.06220403122763332,-0.016729557553077326,0.19394523545805942,-0.041400959557968325,0.019895282038518505, ,0.06556574501678748, ,0.19831488219179907, ,0.0021974142750169996, ,0.148222412054991,-0.2820110363680564,0.09518138954000001,-4.526367120056943,0.13964250276028015,-1.3308006469319795, ,0.11151226975143451,-0.6162139062238362,0.034931604210526324,0.08802372391427764,-0.014220939817486239,0.43036858007186957, ,0.16808295249938965
0.011326166914262276,0.02487961474714005,-0.08427937766139477, ,0.011840325712320842,0.026829523419436997,-0.08442875774656074, ,0.0020220824685862997, ,0.012233042251062677,0.06220403122763332,-0.016729557553077326,0.19394523545805942,-0.041400959557968325,0.019895282038518505, ,0.06556574501678748, ,0.19831488219179907, ,0.0021936838110503893, ,0.148222412054991,-0.2820110363680564,0.09518138954000001,-4.526367120056943,0.13964250276028015,-1.3308006469319795, ,0.11151226975143451,-0.6162139062238362,0.034931604210526324,0.08802372391427764,-0.014220939817486239,0.43036858007186957, ,0.17173290252685547
0.011326166914262276,0.02487961474714005,-0.08427937766139477, ,0.011878765464086437,0.026990977548483643,-0.08450925474383797, ,0.0021945526900026416, ,0.012233042251062677,0.06220403122763332,-0.016729557553077326,0.19394523545805942,-0.041400959557968325,0.019895282038518505, ,0.06556574501678748, ,0.19831488219179907, ,0.0021937019126952277, ,0.148222412054991,-0.2820110363680564,0.09518138954000001,-4.526367120056943,0.13964250276028015,-1.3308006469319795, ,0.11151226975143451,-0.6162139062238362,0.034931604210526324,0.08802372391427764,-0.014220939817486239,0.43036858007186957, ,0.17556095123291016
0.011384921406030743,0.02518549367385181,-0.08435651991500956, ,0.011917296858181395,0.027151868851930282,-0.08458982666929626, ,0.002050484577998954, ,0.011791516370039189,0.061907358307156275,-0.01507662977193765,0.2019924986661762,-0.04324725881554161,0.03732913421743224, ,0.064798654585999, ,0.20657031280775204, ,0.002190779109946324, ,0.14877072608906095,-0.2850537931205009,0.09534861095000001,-4.526157430113458,0.13964250276028015,-1.3288403571686058, ,0.10932827368487416,-0.6162139062238362,0.033393734842767295,0.07034706141127436,-0.011838882315744766,0.42000740032560024, ,0.17921185493469238
0.011384921406030743,0.02518549367385181,-0.08435651991500956, ,0.01195592013792137,0.027312199001175194,-0.08467047556564468, ,0.0022242938770882063, ,0.011791516370039189,0.061907358307156275,-0.01507662977193765,0.2019924986661762,-0.04324725881554161,0.03732913421743224, ,0.064798654585999, ,0.20657031280775204, ,0.002191449405289162, ,0.14877072608906095,-0.2850537931205009,0.09534861095000001,-4.526157430113458,0.13964250276028015,-1.3288403571686058, ,0.10932827368487416,-0.6162139062238362,0.033393734842767295,0.07034706141127436,-0.011838882315744766,0.42000740032560024, ,0.18287992477416992
0.011384921406030743,0.02518549367385181,-0.08435651991500956, ,0.011994635544426502,0.027471969658696187,-0.08475120346045627, ,0.0023990620794127285, ,0.011791516370039189,0.061907358307156275,-0.01507662977193765,0.2019924986661762,-0.04324725881554161,0.03732913421743224, ,0.064798654585999, ,0.20657031280775204, ,0.002195520242036683, ,0.14877072608906095,-0.2850537931205009,0.09534861095000001,-4.526157430113458,0.13964250276028015,-1.3288403571686058, ,0.10932827368487416,-0.6162139062238362,0.033393734842767295,0.07034706141127436,-0.011838882315744766,0.42000740032560024, ,0.18652701377868652
0.011537783086092743,0.025996852578766542,-0.08454486616048108, ,0.012033443318461172,0.027631182478000938,-0.08483201236631091, ,0.0017318101018892055, ,0.011377502797535972,0.06008566455403146,-0.014477298598696469,0.1986430361063967,-0.045025551463554185,0.07913597516721207, ,0.0628436697649282, ,0.20368199587148805, ,0.002186602739341539, ,0.1501994316707925,-0.29312404897406547,0.09578027552000001,-4.525528360283005,0.1395058662605147,-1.3233381424156323, ,0.10638670578303898,-0.5931058847404423,0.03270803186858317,0.02627645092558724,0.0,0.3955181053011866, ,0.1902449131011963
0.011537783086092743,0.025996852578766542,-0.08454486616048108, ,0.012072343699970596,0.027789839103678306,-0.08491290428080325, ,0.0019068318715699357, ,0.011377502797535972,0.06008566455403146,-0.014477298598696469,0.1986430361063967,-0.045025551463554185,0.07913597516721207, ,0.0628436697649282, ,0.20368199587148805, ,0.002181324043723207, ,0.1501994316707925,-0.29312404897406547,0.09578027552000001,-4.525528360283005,0.1395058662605147,-1.3233381424156323, ,0.10638670578303898,-0.5931058847404423,0.03270803186858317,0.02627645092558724,0.0,0.3955181053011866, ,0.1938638687133789
0.011537783086092743,0.025996852578766542,-0.08454486616048108, ,0.012111336928080143,0.027947941171429656,-0.08499388118657787, ,0.0020826245940493773, ,0.011377502797535972,0.06008566455403146,-0.014477298598696469,0.1986430361063967,-0.045025551463554185,0.07913597516721207, ,0.0628436697649282, ,0.20368199587148805, ,0.0021794962761366547, ,0.1501994316707925,-0.29312404897406547,0.09578027552000001,-4.525528360283005,0.1395058662605147,-1.3233381424156323, ,0.10638670578303898,-0.5931058847404423,0.03270803186858317,0.02627645092558724,0.0,0.3955181053011866, ,0.19749689102172852
0.011674647288799727,0.026699112681576057,-0.08472779544458163, ,0.012150423241094301,0.028105490308100434,-0.08507494505136562, ,0.0015247208382718554, ,0.011572727357193446,0.05898006737062916,-0.016355328426871603,0.23638658597497547,-0.013650892315108104,-0.03919032100878243, ,0.062290233050444774, ,0.2367804124491835, ,0.0021675912681754766, ,0.15145823712929107,-0.2999663903006284,0.09617823655,-4.524270220622098,0.1395058662605147,-1.3189274904480421, ,0.10451205017452729,-0.5682451590327592,0.034552736485900216,0.1466010491258074,0.0,0.34999272566171125, ,0.2011258602142334
0.011674647288799727,0.026699112681576057,-0.08472779544458163, ,0.012189602876495903,0.028262488131711047,-0.08515609782801675, ,0.0017008130370621294, ,0.011572727357193446,0.05898006737062916,-0.016355328426871603,0.23638658597497547,-0.013650892315108104,-0.03919032100878243, ,0.062290233050444774, ,0.2367804124491835, ,0.002159255942619881, ,0.15145823712929107,-0.2999663903006284,0.09617823655,-4.524270220622098,0.1395058662605147,-1.3189274904480421, ,0.10451205017452729,-0.5682451590327592,0.034552736485900216,0.1466010491258074,0.0,0.34999272566171125, ,0.20493197441101074
0.011788985247061873,0.02727666380283944,-0.08489984113096334, ,0.012228876070945159,0.028418936251488374,-0.08523734145453724, ,0.001269723100637155, ,0.011450543826780284,0.057839552460860214,-0.018530540529861715,0.22149180217264547,-0.02578758348216087,0.008711010049864729, ,0.06180541816969176, ,0.22298792726645783, ,0.002143650103286851, ,0.15248536060156295,-0.3054726988399505,0.09652953114000001,-4.523221770904676,0.13964250276028015,-1.3156900800059752, ,0.09895405793375472,-0.5453847216004069,0.036533971376146786,0.09240964706227835,0.0,0.33429932538987306, ,0.20863080024719238
0.011788985247061873,0.02727666380283944,-0.08489984113096334, ,0.012268243060278853,0.028574836267897013,-0.08531867785412343, ,0.0014458091164571694, ,0.011450543826780284,0.057839552460860214,-0.018530540529861715,0.22149180217264547,-0.02578758348216087,0.008711010049864729, ,0.06180541816969176, ,0.22298792726645783, ,0.002131618362134615, ,0.15248536060156295,-0.3054726988399505,0.09652953114000001,-4.523221770904676,0.13964250276028015,-1.3156900800059752, ,0.09895405793375472,-0.5453847216004069,0.036533971376146786,0.09240964706227835,0.0,0.33429932538987306, ,0.21222400665283203
0.011788985247061873,0.02727666380283944,-0.08489984113096334, ,0.012307704079509516,0.0287301897726705,-0.0854001089351973, ,0.0016223670509666525, ,0.011450543826780284,0.057839552460860214,-0.018530540529861715,0.22149180217264547,-0.02578758348216087,0.008711010049864729, ,0.06180541816969176, ,0.22298792726645783, ,0.0021229869839792257, ,0.15248536060156295,-0.3054726988399505,0.09652953114000001,-4.523221770904676,0.13964250276028015,-1.3156900800059752, ,0.09895405793375472,-0.5453847216004069,0.036533971376146786,0.09240964706227835,0.0,0.33429932538987306, ,0.21578001976013184
0.01190413964250492,0.027847742620048885,-0.08509309662689864, ,0.012347259362824351,0.028884998348842682,-0.08548163659144113, ,0.0011929869393661463, ,0.011461774761230455,0.055335337517109555,-0.019972692523182265,0.1456177205225459,-0.028502308823166043,0.03875324916268752, ,0.0599356346878482, ,0.14838092518993073, ,0.0021074869832356743, ,0.15346614767658945,-0.3108013845231654,0.09690156637000001,-4.522383011130737,0.13964250276028015,-1.3120962154397908, ,0.09614685061648508,-0.5101986105294127,0.03739157633802818,0.05699764717604788,0.0,0.37057972525028104, ,0.2193448543548584
0.01190413964250492,0.027847742620048885,-0.08509309662689864, ,0.012386909143584576,0.0290392635707789,-0.08556326270183258, ,0.0013688844747530905, ,0.011461774761230455,0.055335337517109555,-0.019972692523182265,0.1456177205225459,-0.028502308823166043,0.03875324916268752, ,0.0599356346878482, ,0.14838092518993073, ,0.0020953787453916978, ,0.15346614767658945,-0.3108013845231654,0.09690156637000001,-4.522383011130737,0.13964250276028015,-1.3120962154397908, ,0.09614685061648508,-0.5101986105294127,0.03739157633802818,0.05699764717604788,0.0,0.37057972525028104, ,0.22298002243041992
0.01190413964250492,0.027847742620048885,-0.08509309662689864, ,0.012426653654324465,0.02919298700420746,-0.0856449891306801, ,0.0015450853314261024, ,0.011461774761230455,0.055335337517109555,-0.019972692523182265,0.1456177205225459,-0.028502308823166043,0.03875324916268752, ,0.0599356346878482, ,0.14838092518993073, ,0.002086503045166446, ,0.15346614767658945,-0.3108013845231654,0.09690156637000001,-4.522383011130737,0.13964250276028015,-1.3120962154397908, ,0.09614685061648508,-0.5101986105294127,0.03739157633802818,0.05699764717604788,0.0,0.37057972525028104, ,0.22658896446228027
0.012020416903008058,0.028388148413133692,-0.08530067109474045, ,0.012466493126750439,0.029346170206250608,-0.08572681772765788, ,0.0011394694845506285, ,0.01152296492583983,0.05226407376791367,-0.021115952952619945,0.08096382909803385,-0.020610001441196523,0.022969487765092618, ,0.057534299305695175, ,0.08354585317964908, ,0.0020714707664265127, ,0.15441604382011906,-0.3157207653640464,0.09728008305000001,-4.521753941300283,0.1395058662605147,-1.3081458967494877, ,0.09414379122864167,-0.4697868393983702,0.03774599886255925,0.06829288164277322,-0.0014324154567328079,0.39695987669574057, ,0.2302708625793457
0.012020416903008058,0.028388148413133692,-0.08530067109474045, ,0.012506427791740157,0.029498814725456086,-0.0858087503278406, ,0.0013145077970105898, ,0.01152296492583983,0.05226407376791367,-0.021115952952619945,0.08096382909803385,-0.020610001441196523,0.022969487765092618, ,0.057534299305695175, ,0.08354585317964908, ,0.0020596432200293887, ,0.15441604382011906,-0.3157207653640464,0.09728008305000001,-4.521753941300283,0.1395058662605147,-1.3081458967494877, ,0.09414379122864167,-0.4697868393983702,0.03774599886255925,0.06829288164277322,-0.0014324154567328079,0.39695987669574057, ,0.2339639663696289
0.012020416903008058,0.028388148413133692,-0.08530067109474045, ,0.012546457879341832,0.02965092210182832,-0.08589078875173894, ,0.0014898172192396703, ,0.01152296492583983,0.05226407376791367,-0.021115952952619945,0.08096382909803385,-0.020610001441196523,0.022969487765092618, ,0.057534299305695175, ,0.08354585317964908, ,0.002050876666171085, ,0.15441604382011906,-0.3157207653640464,0.09728008305000001,-4.521753941300283,0.1395058662605147,-1.3081458967494877, ,0.09414379122864167,-0.4697868393983702,0.03774599886255925,0.06829288164277322,-0.0014324154567328079,0.39695987669574057, ,0.2376689910888672
0.012119422652627082,0.02882525606073599,-0.085472786634634, ,0.012586583618773092,0.029802493866859587,-0.08597293480533379, ,0.0011930554432473307, ,0.01100535982357994,0.049423901789525305,-0.018645137374021663,0.06712389284418138,-0.01923791933297695,0.010790613398199953, ,0.05395814267229043, ,0.06982630075747237, ,0.0020378793749146647, ,0.15522693077191266,-0.3196516363970267,0.09759248894000001,-4.52112487146983,0.13936922976074928,-1.3046856505000284, ,0.09195440073495231,-0.4455255472228675,0.03462785113043479,0.07641867846146799,-0.003909071409201817,0.38755355056460666, ,0.24130797386169434
0.012119422652627082,0.02882525606073599,-0.085472786634634, ,0.012626805238420283,0.029953531543561583,-0.08605519028011223, ,0.001367346576321402, ,0.01100535982357994,0.049423901789525305,-0.018645137374021663,0.06712389284418138,-0.01923791933297695,0.010790613398199953, ,0.05395814267229043, ,0.06982630075747237, ,0.0020278714226968546, ,0.15522693077191266,-0.3196516363970267,0.09759248894000001,-4.52112487146983,0.13936922976074928,-1.3046856505000284, ,0.09195440073495231,-0.4455255472228675,0.03462785113043479,0.07641867846146799,-0.003909071409201817,0.38755355056460666, ,0.24493980407714844
0.012243055949106027,0.02937529245023812,-0.08568274765663889, ,0.012667122965837595,0.03010403664649635,-0.08613755695310224, ,0.0009579939636600845, ,0.01041625944396528,0.045255113295265076,-0.018530847568393766,0.041747108916998475,0.0016907127130677112,-0.008207067712609359, ,0.049999160510695764, ,0.0417813047579919, ,0.002012137930652196, ,0.1562463315113103,-0.3245787399707819,0.09798137594,-4.520076421752408,0.1392325932609838,-1.3001635806287415, ,0.08619159087962833,-0.39872664520365875,0.033323873472803356,0.09332296688629159,0.008615942042481319,0.37076886252681485, ,0.24853086471557617
0.012243055949106027,0.02937529245023812,-0.08568274765663889, ,0.012707537027746,0.030254010681807997,-0.08622003658690791, ,0.0011298529981805065, ,0.01041625944396528,0.045255113295265076,-0.018530847568393766,0.041747108916998475,0.0016907127130677112,-0.008207067712609359, ,0.049999160510695764, ,0.0417813047579919, ,0.0019993511925004326, ,0.1562463315113103,-0.3245787399707819,0.09798137594,-4.520076421752408,0.1392325932609838,-1.3001635806287415, ,0.08619159087962833,-0.39872664520365875,0.033323873472803356,0.09332296688629159,0.008615942042481319,0.37076886252681485, ,0.25219202041625977
0.012243055949106027,0.02937529245023812,-0.08568274765663889, ,0.012748047650032599,0.03040345514725345,-0.08630263092974334, ,0.0013024555354457382, ,0.01041625944396528,0.045255113295265076,-0.018530847568393766,0.041747108916998475,0.0016907127130677112,-0.008207067712609359, ,0.049999160510695764, ,0.0417813047579919, ,0.0019893955402567943, ,0.1562463315113103,-0.3245787399707819,0.09798137594,-4.520076421752408,0.1392325932609838,-1.3001635806287415, ,0.08619159087962833,-0.39872664520365875,0.033323873472803356,0.09332296688629159,0.008615942042481319,0.37076886252681485, ,0.25587987899780273
0.012329162752039696,0.029739209941651294,-0.08584106059458887, ,0.012788655057749605,0.030552371532234123,-0.08638534171546958, ,0.0010810212254867887, ,0.010503250149682654,0.04343316273257661,-0.02009447881597769,0.03725880815359664,-0.001160404973250179,-0.006630680245231818, ,0.048995366796739735, ,0.03727682991387451, ,0.001976601535823414, ,0.15694137746999048,-0.327745060449214,0.098258782,-4.519447351921953,0.1392325932609838,-1.2971414672435406, ,0.08405397835116987,-0.3721448688567482,0.034329335172413794,0.08666463376370447,0.008615942042481319,0.3477888788308626, ,0.2595839500427246
0.012329162752039696,0.029739209941651294,-0.08584106059458887, ,0.01282935947511354,0.030700761317827056,-0.08646817066362816, ,0.0012522159755768076, ,0.010503250149682654,0.04343316273257661,-0.02009447881597769,0.03725880815359664,-0.001160404973250179,-0.006630680245231818, ,0.048995366796739735, ,0.03727682991387451, ,0.0019665406252644332, ,0.15694137746999048,-0.327745060449214,0.098258782,-4.519447351921953,0.1392325932609838,-1.2971414672435406, ,0.08405397835116987,-0.3721448688567482,0.034329335172413794,0.08666463376370447,0.008615942042481319,0.3477888788308626, ,0.26313090324401855
0.012329162752039696,0.029739209941651294,-0.08584106059458887, ,0.01287016112550428,0.03084862597681621,-0.08655111947947693, ,0.0014239616564995098, ,0.010503250149682654,0.04343316273257661,-0.02009447881597769,0.03725880815359664,-0.001160404973250179,-0.006630680245231818, ,0.048995366796739735, ,0.03727682991387451, ,0.0019591080366512153, ,0.15694137746999048,-0.327745060449214,0.098258782,-4.519447351921953,0.1392325932609838,-1.2971414672435406, ,0.08405397835116987,-0.3721448688567482,0.034329335172413794,0.08666463376370447,0.008615942042481319,0.3477888788308626, ,0.266711950302124
0.012456041514278723,0.03023925503215222,-0.0860999882423275, ,0.012911060231464266,0.030995966973723945,-0.08663418985402463, ,0.001032001142172935, ,0.010880891464898634,0.04131106778831112,-0.023807169404254192,0.019303556157456173,-0.0075004278702741935,0.005517497895061478, ,0.04890582210661832, ,0.020709322797255753, ,0.0019465795651042116, ,0.1579144418121428,-0.3319153362012952,0.09868137254,-4.5186085921480155,0.1392325932609838,-1.2931392089766531, ,0.08117787986182273,-0.33414416041715067,0.03730400824355972,0.06683621949761798,0.008615942042481319,0.325042480433103, ,0.27025580406188965
0.012456041514278723,0.03023925503215222,-0.0860999882423275, ,0.012952057014697515,0.031142785764841745,-0.08671738346406614, ,0.0012014890850090508, ,0.010880891464898634,0.04131106778831112,-0.023807169404254192,0.019303556157456173,-0.0075004278702741935,0.005517497895061478, ,0.04890582210661832, ,0.020709322797255753, ,0.0019366450253696095, ,0.1579144418121428,-0.3319153362012952,0.09868137254,-4.5186085921480155,0.1392325932609838,-1.2931392089766531, ,0.08117787986182273,-0.33414416041715067,0.03730400824355972,0.06683621949761798,0.008615942042481319,0.325042480433103, ,0.2738218307495117
0.012456041514278723,0.03023925503215222,-0.0860999882423275, ,0.01299315169606887,0.03128908379826232,-0.08680070197221802, ,0.0013717242859962759, ,0.010880891464898634,0.04131106778831112,-0.023807169404254192,0.019303556157456173,-0.0075004278702741935,0.005517497895061478, ,0.04890582210661832, ,0.020709322797255753, ,0.0019292118577462763, ,0.1579144418121428,-0.3319153362012952,0.09868137254,-4.5186085921480155,0.1392325932609838,-1.2931392089766531, ,0.08117787986182273,-0.33414416041715067,0.03730400824355972,0.06683621949761798,0.008615942042481319,0.325042480433103, ,0.2774968147277832
0.012568338764685055,0.030644500398474106,-0.08635822910640734, ,0.013034344495603062,0.03143486251391014,-0.08688414702695235, ,0.001057555329009002, ,0.011303861557956388,0.03963255814572543,-0.027141477442807076,-0.009037049813883768,-0.0027293844717904137,-0.007835212828287768, ,0.049347510059517256, ,0.009439442787128797, ,0.0019178916430873506, ,0.15871760603106214,-0.3350893794126015,0.09907155583,-4.517769832374077,0.1392325932609838,-1.2897903806308901, ,0.07941166657612617,-0.30221955910341014,0.040022139497487445,0.07603070402539966,0.008602325448667672,0.32321551512800084, ,0.28117895126342773
0.012568338764685055,0.030644500398474106,-0.08635822910640734, ,0.013075635632483753,0.03158012334357311,-0.08696772026263294, ,0.0012264664190230923, ,0.011303861557956388,0.03963255814572543,-0.027141477442807076,-0.009037049813883768,-0.0027293844717904137,-0.007835212828287768, ,0.049347510059517256, ,0.009439442787128797, ,0.0019090272171378088, ,0.15871760603106214,-0.3350893794126015,0.09907155583,-4.517769832374077,0.1392325932609838,-1.2897903806308901, ,0.07941166657612617,-0.30221955910341014,0.040022139497487445,0.07603070402539966,0.008602325448667672,0.32321551512800084, ,0.2849159240722656
0.012686560116362152,0.03104629893117842,-0.08665053190162267, ,0.013117025325052755,0.03172486771093377,-0.08705142329954964, ,0.0008980366349339797, ,0.011095318850402998,0.037429184307375234,-0.028413119101856937,-0.022317610347402147,0.0024590027330977124,-0.020537154405386816, ,0.04828410996802033, ,0.022452258417348967, ,0.0018962298679959884, ,0.15952077024998146,-0.33807807703492637,0.09949414637000001,-4.51693107260014,0.1392325932609838,-1.2865232310252677, ,0.07408036031106227,-0.2726923608002034,0.040531327022900764,0.08394847570924578,0.007513908801624505,0.3082435214653595, ,0.28948497772216797
0.012686560116362152,0.03104629893117842,-0.08665053190162267, ,0.013158513790809186,0.03186909703160055,-0.08713525774395392, ,0.0010652211634707889, ,0.011095318850402998,0.037429184307375234,-0.028413119101856937,-0.022317610347402147,0.0024590027330977124,-0.020537154405386816, ,0.04828410996802033, ,0.022452258417348967, ,0.0018858422591894234, ,0.15952077024998146,-0.33807807703492637,0.09949414637000001,-4.51693107260014,0.1392325932609838,-1.2865232310252677, ,0.07408036031106227,-0.2726923608002034,0.040531327022900764,0.08394847570924578,0.007513908801624505,0.3082435214653595, ,0.2930757999420166
0.012686560116362152,0.03104629893117842,-0.08665053190162267, ,0.013200101246408451,0.03201281271313913,-0.08721922518809333, ,0.0012334040039849207, ,0.011095318850402998,0.037429184307375234,-0.028413119101856937,-0.022317610347402147,0.0024590027330977124,-0.020537154405386816, ,0.04828410996802033, ,0.022452258417348967, ,0.0018777874659152937, ,0.15952077024998146,-0.33807807703492637,0.09949414637000001,-4.51693107260014,0.1392325932609838,-1.2865232310252677, ,0.07408036031106227,-0.2726923608002034,0.040531327022900764,0.08394847570924578,0.007513908801624505,0.3082435214653595, ,0.29666781425476074
0.012792594182768664,0.03139828095121705,-0.08691994795423756, ,0.013241787907661525,0.03215601615510354,-0.08730332721024703, ,0.0009606858464817681, ,0.010574158239424099,0.03510790292024764,-0.026849896128111773,-0.043565623329315024,-0.0006957055901207591,-0.006959102325469061, ,0.04544551234192772, ,0.04357101775124627, ,0.001866603299824641, ,0.16020037074291324,-0.340541628821804,0.09986488531000001,-4.516302002769685,0.1392325932609838,-1.2835011176400668, ,0.07081861310333641,-0.25441539291815224,0.03829041230769231,0.06590826368412069,0.006734459551908847,0.30726974918682337, ,0.3002188205718994
0.012792594182768664,0.03139828095121705,-0.08691994795423756, ,0.013283573989533864,0.03229870874906773,-0.08738756537476058, ,0.0011271634494473364, ,0.010574158239424099,0.03510790292024764,-0.026849896128111773,-0.043565623329315024,-0.0006957055901207591,-0.006959102325469061, ,0.04544551234192772, ,0.04357101775124627, ,0.0018576943859646732, ,0.16020037074291324,-0.340541628821804,0.09986488531000001,-4.516302002769685,0.1392325932609838,-1.2835011176400668, ,0.07081861310333641,-0.25441539291815224,0.03829041230769231,0.06590826368412069,0.006734459551908847,0.30726974918682337, ,0.3039848804473877
0.012792594182768664,0.03139828095121705,-0.08691994795423756, ,0.013325459706144797,0.03244089187865658,-0.08747194123208132, ,0.0012944805100131606, ,0.010574158239424099,0.03510790292024764,-0.026849896128111773,-0.043565623329315024,-0.0006957055901207591,-0.006959102325469061, ,0.04544551234192772, ,0.04357101775124627, ,0.0018509894588700124, ,0.16020037074291324,-0.340541628821804,0.09986488531000001,-4.516302002769685,0.1392325932609838,-1.2835011176400668, ,0.07081861310333641,-0.25441539291815224,0.03829041230769231,0.06590826368412069,0.006734459551908847,0.30726974918682337, ,0.30761098861694336
0.012898404635848293,0.031740298049229315,-0.08717701213682932, ,0.013367445270766418,0.03258256691957721,-0.08755645631879265, ,0.0010360472259445224, ,0.010031958903434918,0.03141573893447346,-0.023403954475990776,-0.07237970196794381,-0.001358202935587501,-0.008883772129503614, ,0.040439262324546026, ,0.07239239566707746, ,0.001841401903188536, ,0.1609417530988388,-0.3430978534031723,0.10024729086,-4.515672932939232,0.1392325932609838,-1.2802339680344443, ,0.07024199967318341,-0.22648434739491832,0.03381913273885351,0.06345176045740478,0.006043222175631797,0.3094379104096143, ,0.31122899055480957
0.012898404635848293,0.031740298049229315,-0.08717701213682932, ,0.013409530895822797,0.03272373523965058,-0.0876411121576502, ,0.0012015771263073963, ,0.010031958903434918,0.03141573893447346,-0.023403954475990776,-0.07237970196794381,-0.001358202935587501,-0.008883772129503614, ,0.040439262324546026, ,0.07239239566707746, ,0.001833962080201546, ,0.1609417530988388,-0.3430978534031723,0.10024729086,-4.515672932939232,0.1392325932609838,-1.2802339680344443, ,0.07024199967318341,-0.22648434739491832,0.03381913273885351,0.06345176045740478,0.006043222175631797,0.3094379104096143, ,0.3148198127746582
0.012898404635848293,0.031740298049229315,-0.08717701213682932, ,0.013451716792889146,0.032864398198842286,-0.08772591025761549, ,0.001367861336719365, ,0.010031958903434918,0.03141573893447346,-0.023403954475990776,-0.07237970196794381,-0.001358202935587501,-0.008883772129503614, ,0.040439262324546026, ,0.07239239566707746, ,0.001828604600391406, ,0.16162907632464477,-0.34526021860795514,0.10057006707,-4.515043863108779,0.1392325932609838,-1.277130175909103, ,0.07244041340341281,-0.2254084122528997,0.0325077786122449,0.0737035216817872,0.005516071294630704,0.32036162586667793, ,0.31905198097229004
0.012996231909097216,0.03204074067137308,-0.08739966721811433, ,0.013494003172690772,0.033004557149294324,-0.08781085211389236, ,0.0011600825196890201, ,0.010055080281796497,0.031010072682901343,-0.02208578859913613,-0.08276506015264086,0.0010803357564019393,-0.018191140148795734, ,0.03937653241866186, ,0.08277207894281519, ,0.0018210077585652427, ,0.16162907632464477,-0.34526021860795514,0.10057006707,-4.515043863108779,0.1392325932609838,-1.277130175909103, ,0.07244041340341281,-0.2254084122528997,0.0325077786122449,0.0737035216817872,0.005516071294630704,0.32036162586667793, ,0.32271480560302734
0.012996231909097216,0.03204074067137308,-0.08739966721811433, ,0.013536390245102437,0.03314421343535591,-0.08789593920796095, ,0.0013250317191351127, ,0.010055080281796497,0.031010072682901343,-0.02208578859913613,-0.08276506015264086,0.0010803357564019393,-0.018191140148795734, ,0.03937653241866186, ,0.08277207894281519, ,0.0018154349940772637, ,0.16162907632464477,-0.34526021860795514,0.10057006707,-4.515043863108779,0.1392325932609838,-1.277130175909103, ,0.07244041340341281,-0.2254084122528997,0.0325077786122449,0.0737035216817872,0.005516071294630704,0.32036162586667793, ,0.3264470100402832
0.013042030957670986,0.032181191526639424,-0.0875016109886295, ,0.013578878219147305,0.0332833683936151,-0.0879811730076133, ,0.001316426434823742, ,0.010026416733800864,0.030841668969724068,-0.02270728469955724,-0.0945496524251886,0.007038110897429398,-0.02730909087335322, ,0.03958987693570957, ,0.09481121105471163, ,0.0018098904545300024, ,0.1619534311053622,-0.34627189661447855,0.10071914042,-4.51462448322181,0.1392325932609838,-1.2756599585865729, ,0.07076580280273734,-0.22069056176388552,0.03304732680497926,0.08307320970550583,0.005303976023044677,0.32898245931588344, ,0.33014893531799316
0.013042030957670986,0.032181191526639424,-0.0875016109886295, ,0.013621467302996083,0.033422023352929986,-0.08806655496698847, ,0.0014814087208138498, ,0.010026416733800864,0.030841668969724068,-0.02270728469955724,-0.0945496524251886,0.007038110897429398,-0.02730909087335322, ,0.03958987693570957, ,0.09481121105471163, ,0.0018062807651485061, ,0.1619534311053622,-0.34627189661447855,0.10071914042,-4.51462448322181,0.1392325932609838,-1.2756599585865729, ,0.07076580280273734,-0.22069056176388552,0.03304732680497926,0.08307320970550583,0.005303976023044677,0.32898245931588344, ,0.33373284339904785
0.013042030957670986,0.032181191526639424,-0.0875016109886295, ,0.013664157703966198,0.03356017963445983,-0.08815208652660683, ,0.001646744763305126, ,0.010026416733800864,0.030841668969724068,-0.02270728469955724,-0.0945496524251886,0.007038110897429398,-0.02730909087335322, ,0.03958987693570957, ,0.09481121105471163, ,0.0018045466781719476, ,0.1619534311053622,-0.34627189661447855,0.10071914042,-4.51462448322181,0.1392325932609838,-1.2756599585865729, ,0.07076580280273734,-0.22069056176388552,0.03304732680497926,0.08307320970550583,0.005303976023044677,0.32898245931588344, ,0.3374919891357422
0.013194312868459582,0.03262490842340325,-0.0878309581176789, ,0.013706949628520895,0.033697838551696786,-0.08823776911340628, ,0.0012567699448231752, ,0.00972499306550794,0.028657210746583943,-0.019550126236750016,-0.0776565416125505,-0.009485468013715992,-0.011945347039361084, ,0.03602802594885217, ,0.07823368649583906, ,0.001798656605770348, ,0.1630577819063763,-0.3494150488942879,0.10119876772000001,-4.513366343560902,0.13936922976074928,-1.2707889733416948, ,0.07227489836898002,-0.20856470672191377,0.029388951143911442,0.06185182913444446,0.0013368461467314031,0.2960523986175819, ,0.3412590026855469
0.013194312868459582,0.03262490842340325,-0.0878309581176789, ,0.013749843282268314,0.03383500141049628,-0.08832360414077607, ,0.0014197320811166073, ,0.00972499306550794,0.028657210746583943,-0.019550126236750016,-0.0776565416125505,-0.009485468013715992,-0.011945347039361084, ,0.03602802594885217, ,0.07823368649583906, ,0.0017946254938059464, ,0.1630577819063763,-0.3494150488942879,0.10119876772000001,-4.513366343560902,0.13936922976074928,-1.2707889733416948, ,0.07227489836898002,-0.20856470672191377,0.029388951143911442,0.06185182913444446,0.0013368461467314031,0.2960523986175819, ,0.3448209762573242
0.013298204343171123,0.03291572849059991,-0.08805058897545716, ,0.013792838869960715,0.03397166950910947,-0.08840959300859275, ,0.0012200650169031926, ,0.00972499306550794,0.028657210746583943,-0.019550126236750016,-0.0776565416125505,-0.009485468013715992,-0.011945347039361084, ,0.03602802594885217, ,0.07823368649583906, ,0.0017885774887859175, ,0.16380688699517607,-0.351446127640209,0.10151765506,-4.5127372737304485,0.13936922976074928,-1.2680935749170565, ,0.0736205908133986,-0.1932727933981075,0.03346388974789917,0.06257221400498988,0.0013809946795292562,0.2684784980947758, ,0.3486168384552002
0.013298204343171123,0.03291572849059991,-0.08805058897545716, ,0.013835936595493429,0.034107844138213626,-0.08849573710325473, ,0.0013814675342384147, ,0.01056723758332044,0.028803871289694655,-0.02371286933752116,-0.06531599742117908,-0.014140715950302758,-0.01597813010878405, ,0.03877666416330816, ,0.0668291244080035, ,0.0017843367600927143, ,0.16380688699517607,-0.351446127640209,0.10151765506,-4.5127372737304485,0.13936922976074928,-1.2680935749170565, ,0.0736205908133986,-0.1932727933981075,0.03346388974789917,0.06257221400498988,0.0013809946795292562,0.2684784980947758, ,0.3527979850769043
0.013298204343171123,0.03291572849059991,-0.08805058897545716, ,0.013879136661904169,0.03424352658094378,-0.0885820377977173, ,0.0015436864896574915, ,0.01056723758332044,0.028803871289694655,-0.02371286933752116,-0.06531599742117908,-0.014140715950302758,-0.01597813010878405, ,0.03877666416330816, ,0.0668291244080035, ,0.0017818558294696708, ,0.16380688699517607,-0.351446127640209,0.10151765506,-4.5127372737304485,0.13936922976074928,-1.2680935749170565, ,0.0736205908133986,-0.1932727933981075,0.03346388974789917,0.06257221400498988,0.0013809946795292562,0.2684784980947758, ,0.356719970703125
0.01341085207747559,0.03321688690404304,-0.0883162806151351, ,0.013922439271371979,0.03437871811292391,-0.0886684964515283, ,0.0013174328105427287, ,0.011651719215756695,0.030517027896286516,-0.027870088162745114,-0.06948770657123973,-0.00897082693531036,-0.036438543699727655, ,0.04293941506942949, ,0.07006425826078333, ,0.001777116819072457, ,0.1645637148168501,-0.35339225632451354,0.10188450513000001,-4.511898513956511,0.13936922976074928,-1.2652348190121367, ,0.0774668910681394,-0.19287996251721704,0.038107204593301434,0.08506571287003713,0.0013931427662175573,0.27582153518251906, ,0.36033201217651367
0.01341085207747559,0.03321688690404304,-0.0883162806151351, ,0.013965844625216495,0.034513420002298414,-0.08875511441086233, ,0.0014770206170504098, ,0.011651719215756695,0.030517027896286516,-0.027870088162745114,-0.06948770657123973,-0.00897082693531036,-0.036438543699727655, ,0.04293941506942949, ,0.07006425826078333, ,0.0017740855443045575, ,0.1645637148168501,-0.35339225632451354,0.10188450513000001,-4.511898513956511,0.13936922976074928,-1.2652348190121367, ,0.0774668910681394,-0.19287996251721704,0.038107204593301434,0.08506571287003713,0.0013931427662175573,0.27582153518251906, ,0.36392784118652344
0.01341085207747559,0.03321688690404304,-0.0883162806151351, ,0.014009352923896984,0.03464763350976293,-0.08884189300855623, ,0.0016375309160635678, ,0.011651719215756695,0.030517027896286516,-0.027870088162745114,-0.06948770657123973,-0.00897082693531036,-0.036438543699727655, ,0.04293941506942949, ,0.07006425826078333, ,0.0017727199980221474, ,0.1645637148168501,-0.35339225632451354,0.10188450513000001,-4.511898513956511,0.13936922976074928,-1.2652348190121367, ,0.0774668910681394,-0.19287996251721704,0.038107204593301434,0.08506571287003713,0.0013931427662175573,0.27582153518251906, ,0.36747097969055176
0.013530166716188738,0.03353409070834218,-0.08860909788567994, ,0.014052964367011507,0.034781359888596375,-0.08892883356414398, ,0.0013896865458802705, ,0.012031082385625894,0.03146365298215048,-0.028841917093522317,-0.10870070856483866,-0.019556438026400863,-0.011493032504440006, ,0.044345964686547515, ,0.1104458163653694, ,0.0017689275876049012, ,0.16536687903576944,-0.3553769986731893,0.10228376245000001,-4.511269444126056,0.13964250276028015,-1.26259889891461, ,0.07881805777281627,-0.19729093879099954,0.03942775128712872,0.058293542617097564,-0.004534033359147051,0.3148438505064955, ,0.37104082107543945
0.013530166716188738,0.03353409070834218,-0.08860909788567994, ,0.014096679153295927,0.03491460038469115,-0.08901593738389185, ,0.0015466937916716376, ,0.012031082385625894,0.03146365298215048,-0.028841917093522317,-0.10870070856483866,-0.019556438026400863,-0.011493032504440006, ,0.044345964686547515, ,0.1104458163653694, ,0.001766748824899673, ,0.16536687903576944,-0.3553769986731893,0.10228376245000001,-4.511269444126056,0.13964250276028015,-1.26259889891461, ,0.07881805777281627,-0.19729093879099954,0.03942775128712872,0.058293542617097564,-0.004534033359147051,0.3148438505064955, ,0.3745768070220947
0.013530166716188738,0.03353409070834218,-0.08860909788567994, ,0.014140497480623218,0.03504735623658571,-0.08910320576083346, ,0.0017048808736313725, ,0.012031082385625894,0.03146365298215048,-0.028841917093522317,-0.10870070856483866,-0.019556438026400863,-0.011493032504440006, ,0.044345964686547515, ,0.1104458163653694, ,0.0017661481651786216, ,0.16536687903576944,-0.3553769986731893,0.10228376245000001,-4.511269444126056,0.13964250276028015,-1.26259889891461, ,0.07881805777281627,-0.19729093879099954,0.03942775128712872,0.058293542617097564,-0.004534033359147051,0.3148438505064955, ,0.37833380699157715
0.013644375374825192,0.03383575407532124,-0.08889167402486668, ,0.014184419546002405,0.035179628675494845,-0.08919063997480459, ,0.0014788601309916123, ,0.01266184479332785,0.03274656585651751,-0.030785664351816684,-0.09097528976450173,-0.016727590436394456,-0.029775127060450733, ,0.046694935684164704, ,0.09250020527824546, ,0.0017633857802345156, ,0.16610053865882077,-0.35723817729587737,0.10266746429000001,-4.510640374295604,0.13964250276028015,-1.2597401430096902, ,0.08159668233746413,-0.20062778342171414,0.04180790425196851,0.07833384604372635,-0.004534033359147051,0.30341277763864677, ,0.38213586807250977
0.013644375374825192,0.03383575407532124,-0.08889167402486668, ,0.014228445545577832,0.03531141892534127,-0.0892782412924785, ,0.0016334500195404, ,0.01266184479332785,0.03274656585651751,-0.030785664351816684,-0.09097528976450173,-0.016727590436394456,-0.029775127060450733, ,0.046694935684164704, ,0.09250020527824546, ,0.0017621482967993336, ,0.16610053865882077,-0.35723817729587737,0.10266746429000001,-4.510640374295604,0.13964250276028015,-1.2597401430096902, ,0.08159668233746413,-0.20062778342171414,0.04180790425196851,0.07833384604372635,-0.004534033359147051,0.30341277763864677, ,0.3860609531402588
0.01377775203150231,0.034176691915348806,-0.08921069981747867, ,0.014272575674628142,0.03544272820278702,-0.089366010967401, ,0.0013681446824794742, ,0.012030396985650435,0.030931774988856735,-0.027811375940879735,-0.05096136181200123,-0.013883040050940978,-0.029286738209008532, ,0.04330101369851004, ,0.05281839225457743, ,0.001758431281569901, ,0.16695776200785967,-0.359323315171918,0.10310172144000002,-4.509801614521665,0.1395058662605147,-1.256606611720793, ,0.08042113691395829,-0.19209907198071008,0.038382678361445786,0.07806472867775478,0.0042427601608697515,0.25573608354075716, ,0.3897068500518799
0.01377775203150231,0.034176691915348806,-0.08921069981747867, ,0.014316810127565496,0.03557355771726459,-0.08945395024002482, ,0.0015169009419081939, ,0.012030396985650435,0.030931774988856735,-0.027811375940879735,-0.05096136181200123,-0.013883040050940978,-0.029286738209008532, ,0.04330101369851004, ,0.05281839225457743, ,0.0017561739886758666, ,0.16695776200785967,-0.359323315171918,0.10310172144000002,-4.509801614521665,0.1395058662605147,-1.256606611720793, ,0.08042113691395829,-0.19209907198071008,0.038382678361445786,0.07806472867775478,0.0042427601608697515,0.25573608354075716, ,0.3933107852935791
0.01377775203150231,0.034176691915348806,-0.08921069981747867, ,0.014361149097934699,0.035703908671008394,-0.08954206033774596, ,0.0016680956058575075, ,0.012030396985650435,0.030931774988856735,-0.027811375940879735,-0.05096136181200123,-0.013883040050940978,-0.029286738209008532, ,0.04330101369851004, ,0.05281839225457743, ,0.001755358448094215, ,0.16695776200785967,-0.359323315171918,0.10310172144000002,-4.509801614521665,0.1395058662605147,-1.256606611720793, ,0.08042113691395829,-0.19209907198071008,0.038382678361445786,0.07806472867775478,0.0042427601608697515,0.25573608354075716, ,0.39690589904785156
0.01389480369613059,0.03448357429367897,-0.08946591855571218, ,0.014405592778412205,0.035833782259085824,-0.08963034247493724, ,0.0014529288563586082, ,0.01212456845235711,0.032611215523703836,-0.024467101866143218,-0.012450686528312164,-0.030545884668213237,0.013540702070184898, ,0.04253393482641342, ,0.032985783254996334, ,0.0017525838646837968, ,0.16777637169252746,-0.36130033478771945,0.10346338635,-4.509382234634696,0.13964250276028015,-1.2542676674202726, ,0.08794897271406003,-0.2191615278486623,0.03595668514672686,0.03908438353829718,0.011731192354046079,0.23871940264090788, ,0.40050196647644043
0.01389480369613059,0.03448357429367897,-0.08946591855571218, ,0.014450141360805364,0.03596317966942872,-0.08971879785298426, ,0.001600493651578412, ,0.01212456845235711,0.032611215523703836,-0.024467101866143218,-0.012450686528312164,-0.030545884668213237,0.013540702070184898, ,0.04253393482641342, ,0.032985783254996334, ,0.0017512012263828387, ,0.16777637169252746,-0.36130033478771945,0.10346338635,-4.509382234634696,0.13964250276028015,-1.2542676674202726, ,0.08794897271406003,-0.2191615278486623,0.03595668514672686,0.03908438353829718,0.011731192354046079,0.23871940264090788, ,0.4041709899902344
0.01389480369613059,0.03448357429367897,-0.08946591855571218, ,0.014494795036051528,0.03609210208286441,-0.08980742766032024, ,0.0017504227275410116, ,0.01212456845235711,0.032611215523703836,-0.024467101866143218,-0.012450686528312164,-0.030545884668213237,0.013540702070184898, ,0.04253393482641342, ,0.032985783254996334, ,0.0017511942128797591, ,0.16777637169252746,-0.36130033478771945,0.10346338635,-4.509382234634696,0.13964250276028015,-1.2542676674202726, ,0.08794897271406003,-0.2191615278486623,0.03595668514672686,0.03908438353829718,0.011731192354046079,0.23871940264090788, ,0.4077730178833008
0.014018476789263233,0.03481511594745025,-0.08971164023854417, ,0.01453955399421699,0.036220550673147285,-0.08989623307246115, ,0.0015102459190645154, ,0.01206872397545869,0.03251568547279717,-0.023933267881653793,-0.028986101466061714,-0.001861849751128253,-0.04919886339344416, ,0.04213935466587837, ,0.029045700373020445, ,0.0017490428888278372, ,0.1686644859730633,-0.36352448185549613,0.10382634755000002,-4.508333784917274,0.13964250276028015,-1.2516539477357744, ,0.08762413809646424,-0.21765353568456597,0.035476194922048995,0.10814616817120072,0.011731192354046079,0.26488493590499695, ,0.41135501861572266
0.014018476789263233,0.03481511594745025,-0.08971164023854417, ,0.014584418424496402,0.03634852660698995,-0.08998521525204056, ,0.0016572511799030113, ,0.01206872397545869,0.03251568547279717,-0.023933267881653793,-0.028986101466061714,-0.001861849751128253,-0.04919886339344416, ,0.04213935466587837, ,0.029045700373020445, ,0.001748230572819653, ,0.1686644859730633,-0.36352448185549613,0.10382634755000002,-4.508333784917274,0.13964250276028015,-1.2516539477357744, ,0.08762413809646424,-0.21765353568456597,0.035476194922048995,0.10814616817120072,0.011731192354046079,0.26488493590499695, ,0.41544079780578613
0.014018476789263233,0.03481511594745025,-0.08971164023854417, ,0.014629388515211669,0.03647603104409444,-0.0900743753488447, ,0.0018064962926634038, ,0.012319465652031486,0.03395886914910384,-0.022594462149095877,-0.03452851118609855,-0.015317207758665258,-0.015994063388755173, ,0.042608493843885945, ,0.03777339076225473, ,0.0017487416756253, ,0.16959121391797025,-0.3658490244506377,0.10418801246,-4.507495025143336,0.13964250276028015,-1.2486318343505738, ,0.0924020852565441,-0.2348934196991851,0.034855167439824954,0.07619224362025802,0.011731192354046079,0.2826179629740804, ,0.41925883293151855
0.01414506101388735,0.03515642663944826,-0.08995108159488444, ,0.014674464453811153,0.03660306513718357,-0.09016371449984759, ,0.0015550703191836962, ,0.012319465652031486,0.03395886914910384,-0.022594462149095877,-0.03452851118609855,-0.015317207758665258,-0.015994063388755173, ,0.042608493843885945, ,0.03777339076225473, ,0.0017470575768736337, ,0.16959121391797025,-0.3658490244506377,0.10418801246,-4.507495025143336,0.13964250276028015,-1.2486318343505738, ,0.0924020852565441,-0.2348934196991851,0.034855167439824954,0.07619224362025802,0.011731192354046079,0.2826179629740804, ,0.42290496826171875
0.01414506101388735,0.03515642663944826,-0.08995108159488444, ,0.014719646426868774,0.036729630032032286,-0.09025323382924602, ,0.0017018852146894667, ,0.012319465652031486,0.03395886914910384,-0.022594462149095877,-0.03452851118609855,-0.015317207758665258,-0.015994063388755173, ,0.042608493843885945, ,0.03777339076225473, ,0.001746668159958253, ,0.16959121391797025,-0.3658490244506377,0.10418801246,-4.507495025143336,0.13964250276028015,-1.2486318343505738, ,0.0924020852565441,-0.2348934196991851,0.034855167439824954,0.07619224362025802,0.011731192354046079,0.2826179629740804, ,0.4266359806060791
0.014258798280108747,0.035481909621973465,-0.09016118101944483, ,0.014764934620083117,0.03685572686749872,-0.09034293444849506, ,0.0014753244143973084, ,0.011877741150646574,0.03391006574639878,-0.021574114141686893,-0.03660307823939197,-0.02622373461327409,0.01668573111584745, ,0.0419096133931749, ,0.04502737966974234, ,0.0017443489826457666, ,0.17045615999988337,-0.3681195079156597,0.10451597383000001,-4.507075645256367,0.139915775759811,-1.2461592717333279, ,0.08902152116179247,-0.23724235389617693,0.03389108834042554,0.0406724872830281,0.010196151369294032,0.2811579941224396, ,0.4323568344116211
0.014258798280108747,0.035481909621973465,-0.09016118101944483, ,0.01481032921827662,0.03698135677555574,-0.09043281745634169, ,0.0016205907861000365, ,0.011877741150646574,0.03391006574639878,-0.021574114141686893,-0.03660307823939197,-0.02622373461327409,0.01668573111584745, ,0.0419096133931749, ,0.04502737966974234, ,0.0017433001843699552, ,0.17045615999988337,-0.3681195079156597,0.10451597383000001,-4.507075645256367,0.139915775759811,-1.2461592717333279, ,0.08902152116179247,-0.23724235389617693,0.03389108834042554,0.0406724872830281,0.010196151369294032,0.2811579941224396, ,0.4362318515777588
0.014378141254184284,0.035836238227787115,-0.09038618423722689, ,0.01485583040539458,0.037106520881322186,-0.09052288393886171, ,0.0013639984433580427, ,0.010901914555096957,0.03341399221671332,-0.020560761480573828,0.06836750669702939,0.0262291439106619,0.028641686755392835, ,0.04071967005620578, ,0.0732262267754787, ,0.0017401127747816198, ,0.1713751652119161,-0.3705830597025373,0.10486986100000001,-4.506446575425913,0.14046232175887277,-1.2438278661833346, ,0.08619159087962833,-0.2337363092573172,0.03277533234567902,0.050829397609105674,0.07542415292498648,0.1825257833368354, ,0.4398620128631592
0.014378141254184284,0.035836238227787115,-0.09038618423722689, ,0.014901438364504357,0.03723122030309377,-0.09061313496949354, ,0.001507090405706494, ,0.010901914555096957,0.03341399221671332,-0.020560761480573828,0.06836750669702939,0.0262291439106619,0.028641686755392835, ,0.04071967005620578, ,0.0732262267754787, ,0.0017381709217059937, ,0.1713751652119161,-0.3705830597025373,0.10486986100000001,-4.506446575425913,0.14046232175887277,-1.2438278661833346, ,0.08619159087962833,-0.2337363092573172,0.03277533234567902,0.050829397609105674,0.07542415292498648,0.1825257833368354, ,0.4434778690338135
0.014378141254184284,0.035836238227787115,-0.09038618423722689, ,0.014947153277794483,0.03735545615237506,-0.09070357160907362, ,0.001653037364735006, ,0.010901914555096957,0.03341399221671332,-0.020560761480573828,0.06836750669702939,0.0262291439106619,0.028641686755392835, ,0.04071967005620578, ,0.0732262267754787, ,0.001737467338590531, ,0.1713751652119161,-0.3705830597025373,0.10486986100000001,-4.506446575425913,0.14046232175887277,-1.2438278661833346, ,0.08619159087962833,-0.2337363092573172,0.03277533234567902,0.050829397609105674,0.07542415292498648,0.1825257833368354, ,0.44737696647644043
0.014490537283490893,0.03617975475408276,-0.09058643020133599, ,0.014992975326573755,0.03747922953391009,-0.09079419490587139, ,0.0014086322667733065, ,0.011505317344171272,0.03543098489744372,-0.02023799729678122,0.057568928711816354,0.0008580745828686313,-0.007133321932349458, ,0.04239461702359743, ,0.05757529374681869, ,0.0017347719691494063, ,0.17224783402670346,-0.3730234432907923,0.10519652608,-4.505817505595459,0.1408722312581691,-1.2417934364303476, ,0.08893808955807946,-0.25238548286827334,0.033323873472803356,0.07803835836744982,0.03543320771639064,0.21068033244126197, ,0.45100998878479004
0.014490537283490893,0.03617975475408276,-0.09058643020133599, ,0.015038904691270371,0.03760254154571407,-0.09088500589562439, ,0.001553762051787559, ,0.011505317344171272,0.03543098489744372,-0.02023799729678122,0.057568928711816354,0.0008580745828686313,-0.007133321932349458, ,0.04239461702359743, ,0.05757529374681869, ,0.001733300343805001, ,0.17224783402670346,-0.3730234432907923,0.10519652608,-4.505817505595459,0.1408722312581691,-1.2417934364303476, ,0.08893808955807946,-0.25238548286827334,0.033323873472803356,0.07803835836744982,0.03543320771639064,0.21068033244126197, ,0.45470499992370605
0.014490537283490893,0.03617975475408276,-0.09058643020133599, ,0.015084941551431063,0.0377253932791044,-0.09097600560157335, ,0.0017012007160375454, ,0.011505317344171272,0.03543098489744372,-0.02023799729678122,0.057568928711816354,0.0008580745828686313,-0.007133321932349458, ,0.04239461702359743, ,0.05757529374681869, ,0.0017330414758391346, ,0.17224783402670346,-0.3730234432907923,0.10519652608,-4.505817505595459,0.1408722312581691,-1.2417934364303476, ,0.08893808955807946,-0.25238548286827334,0.033323873472803356,0.07803835836744982,0.03543320771639064,0.21068033244126197, ,0.4582958221435547
0.014612908618770846,0.036538250726201676,-0.09079580484105985, ,0.01513108608572014,0.037847785818732174,-0.09106719503449699, ,0.0014342394092049947, ,0.011867483951788913,0.035014932777269525,-0.02090928407555613,0.054600412024506245,-0.022638175091064663,0.002011369382161076, ,0.042474472960767576, ,0.05910742735098803, ,0.0017306510593060615, ,0.1731668392387362,-0.3755564996735379,0.10553874664000001,-4.505188435765006,0.1408722312581691,-1.2394247529662712, ,0.08960995425729064,-0.24457974628471849,0.03389108834042554,0.05964157492546255,0.01912608849668612,0.20061991740871676, ,0.4618840217590332
0.014612908618770846,0.036538250726201676,-0.09079580484105985, ,0.015177338471918704,0.03796972024261332,-0.0911585751927475, ,0.0015809137748795375, ,0.011867483951788913,0.035014932777269525,-0.02090928407555613,0.054600412024506245,-0.022638175091064663,0.002011369382161076, ,0.042474472960767576, ,0.05910742735098803, ,0.0017294626681598193, ,0.1731668392387362,-0.3755564996735379,0.10553874664000001,-4.505188435765006,0.1408722312581691,-1.2394247529662712, ,0.08960995425729064,-0.24457974628471849,0.03389108834042554,0.05964157492546255,0.01912608849668612,0.20061991740871676, ,0.46551990509033203
0.014612908618770846,0.036538250726201676,-0.09079580484105985, ,0.015223698886923815,0.03809119762215978,-0.09125014706228528, ,0.001729490002088576, ,0.013049232480705253,0.03705231305163912,-0.022986001241099587,0.05334818175611154,-0.03487468357488181,0.003435995471427515, ,0.0455138728726527, ,0.06373590537798572, ,0.0017294628833876048, ,0.17408584445076888,-0.3780200514604155,0.10588355978000001,-4.504559365934552,0.1408722312581691,-1.2373011057226166, ,0.09733019647022642,-0.25373513785687374,0.036787093579676675,0.05796376453034628,0.013291026998780863,0.20989161028861286, ,0.4698679447174072
0.014736326033188429,0.03689267340166088,-0.09100871848658992, ,0.01527016750674737,0.03821221902221129,-0.0913419116167136, ,0.0014619182691132059, ,0.013049232480705253,0.03705231305163912,-0.022986001241099587,0.05334818175611154,-0.03487468357488181,0.003435995471427515, ,0.0455138728726527, ,0.06373590537798572, ,0.0017273726910885861, ,0.17408584445076888,-0.3780200514604155,0.10588355978000001,-4.504559365934552,0.1408722312581691,-1.2373011057226166, ,0.09733019647022642,-0.25373513785687374,0.036787093579676675,0.05796376453034628,0.013291026998780863,0.20989161028861286, ,0.4736919403076172
0.014736326033188429,0.03689267340166088,-0.09100871848658992, ,0.015316744506515455,0.038332785501065884,-0.09143386981731451, ,0.0016098329469385493, ,0.013049232480705253,0.03705231305163912,-0.022986001241099587,0.05334818175611154,-0.03487468357488181,0.003435995471427515, ,0.0455138728726527, ,0.06373590537798572, ,0.0017264615302812216, ,0.17408584445076888,-0.3780200514604155,0.10588355978000001,-4.504559365934552,0.1408722312581691,-1.2373011057226166, ,0.09733019647022642,-0.25373513785687374,0.036787093579676675,0.05796376453034628,0.013291026998780863,0.20989161028861286, ,0.477463960647583
0.014865778382393405,0.03726280398406789,-0.09124730569530272, ,0.015363430060467453,0.03845289811051199,-0.09152602261308329, ,0.0013197213125291892, ,0.013175792407573446,0.03757777447898333,-0.024636056096735616,0.053049331263861015,-0.03021188464551343,-0.03351749549539982, ,0.04682548345038527, ,0.06104900037005185, ,0.0017233327593754368, ,0.1750280178614243,-0.3805067714459158,0.10625948388,-4.503510916217129,0.14100886775793453,-1.2352888763826586, ,0.09367911308832258,-0.2503877085975482,0.038568550895883784,0.09239182340455172,0.0,0.21060817870776172, ,0.4811890125274658
0.014865778382393405,0.03726280398406789,-0.09124730569530272, ,0.01541022434195497,0.038572557895858874,-0.09161837094076343, ,0.0014661398735194141, ,0.013175792407573446,0.03757777447898333,-0.024636056096735616,0.053049331263861015,-0.03021188464551343,-0.03351749549539982, ,0.04682548345038527, ,0.06104900037005185, ,0.0017213694549032532, ,0.1750280178614243,-0.3805067714459158,0.10625948388,-4.503510916217129,0.14100886775793453,-1.2352888763826586, ,0.09367911308832258,-0.2503877085975482,0.038568550895883784,0.09239182340455172,0.0,0.21060817870776172, ,0.484921932220459
0.014865778382393405,0.03726280398406789,-0.09124730569530272, ,0.015457127523441196,0.03869176589596879,-0.09171091572488226, ,0.0016144845034276973, ,0.013175792407573446,0.03757777447898333,-0.024636056096735616,0.053049331263861015,-0.03021188464551343,-0.03351749549539982, ,0.04682548345038527, ,0.06104900037005185, ,0.0017205597204223778, ,0.1750280178614243,-0.3805067714459158,0.10625948388,-4.503510916217129,0.14100886775793453,-1.2352888763826586, ,0.09367911308832258,-0.2503877085975482,0.038568550895883784,0.09239182340455172,0.0,0.21060817870776172, ,0.48865795135498047
0.014998149967990471,0.03764924409813531,-0.09149478171756809, ,0.015504139776499854,0.03881052314328759,-0.09180365787778513, ,0.001303840170180217, ,0.012657264788644061,0.036748514943537404,-0.023587590046392017,0.05579407303681305,-0.03552969210487886,0.006926327887383671, ,0.045464646778369366, ,0.06614627960443263, ,0.0017174264907213088, ,0.17599335947070235,-0.38309388695878105,0.10665096346000001,-4.502881846386677,0.14128214075746542,-1.2332247074661158, ,0.0906370024436206,-0.2452117352932061,0.03730400824355972,0.051116190989356686,0.009594836270125381,0.1972993166514726, ,0.4922959804534912
0.014998149967990471,0.03764924409813531,-0.09149478171756809, ,0.015551261271814377,0.0389288306638763,-0.09189659829967113, ,0.0014507689200198527, ,0.012657264788644061,0.036748514943537404,-0.023587590046392017,0.05579407303681305,-0.03552969210487886,0.006926327887383671, ,0.045464646778369366, ,0.06614627960443263, ,0.0017154365088504024, ,0.17599335947070235,-0.38309388695878105,0.10665096346000001,-4.502881846386677,0.14128214075746542,-1.2332247074661158, ,0.0906370024436206,-0.2452117352932061,0.03730400824355972,0.051116190989356686,0.009594836270125381,0.1972993166514726, ,0.4958658218383789
0.014998149967990471,0.03764924409813531,-0.09149478171756809, ,0.015598492179177057,0.03904668947744231,-0.09198973787862803, ,0.001599451768591377, ,0.012657264788644061,0.036748514943537404,-0.023587590046392017,0.05579407303681305,-0.03552969210487886,0.006926327887383671, ,0.045464646778369366, ,0.06614627960443263, ,0.0017145773626262616, ,0.17690464194986083,-0.38551882508128754,0.10703077643000002,-4.502462466499707,0.14182868675652718,-1.2317917680576684, ,0.08893808955807946,-0.2343134359468414,0.03730400824355972,0.03638461845988034,0.04694313012770813,0.13959937776779255, ,0.49953293800354004
0.015122494785452953,0.03801794303761462,-0.09173699183857656, ,0.015645832667488067,0.03916410059737087,-0.09208307749066708, ,0.001306650285708582, ,0.012258100514154031,0.03591260495909809,-0.023878865970214904,0.10500305074893196,-0.013448471082935162,0.031637644226446056, ,0.044834991504257335, ,0.10586073057255886, ,0.0017115778988253964, ,0.17690464194986083,-0.38551882508128754,0.10703077643000002,-4.502462466499707,0.14182868675652718,-1.2317917680576684, ,0.08893808955807946,-0.2343134359468414,0.03730400824355972,0.03638461845988034,0.04694313012770813,0.13959937776779255, ,0.5033359527587891
0.015122494785452953,0.03801794303761462,-0.09173699183857656, ,0.01569328290475476,0.03928106503075598,-0.09217661799975813, ,0.0014541483446638916, ,0.012258100514154031,0.03591260495909809,-0.023878865970214904,0.10500305074893196,-0.013448471082935162,0.031637644226446056, ,0.044834991504257335, ,0.10586073057255886, ,0.0017096988509848015, ,0.17690464194986083,-0.38551882508128754,0.10703077643000002,-4.502462466499707,0.14182868675652718,-1.2317917680576684, ,0.08893808955807946,-0.2343134359468414,0.03730400824355972,0.03638461845988034,0.04694313012770813,0.13959937776779255, ,0.5070018768310547
0.015240088250269988,0.03836008087776277,-0.09196705263536956, ,0.015740843058090568,0.03939758377843215,-0.09227036025786478, ,0.0011912863469025882, ,0.012751696820499252,0.03578572058888922,-0.024249644331270706,0.03045553276651504,-0.04423631680291948,-0.028317079915508005, ,0.04506959973264806, ,0.05370645040328975, ,0.0017059422386363795, ,0.17772325163452865,-0.38773524941619,0.10738855247000001,-4.501833396669253,0.14196532325629263,-1.2301062536782725, ,0.08634844545811718,-0.23033238242347276,0.038107204593301434,0.07639890920899339,-0.017224345972695922,0.20846663062128007, ,0.5107519626617432
0.015240088250269988,0.03836008087776277,-0.09196705263536956, ,0.015788513293714314,0.039513657835005066,-0.09236430510497935, ,0.0013376544206813606, ,0.012751696820499252,0.03578572058888922,-0.024249644331270706,0.03045553276651504,-0.04423631680291948,-0.028317079915508005, ,0.04506959973264806, ,0.05370645040328975, ,0.0017032926859892213, ,0.17772325163452865,-0.38773524941619,0.10738855247000001,-4.501833396669253,0.14196532325629263,-1.2301062536782725, ,0.08634844545811718,-0.23033238242347276,0.038107204593301434,0.07639890920899339,-0.017224345972695922,0.20846663062128007, ,0.5143008232116699
0.015240088250269988,0.03836008087776277,-0.09196705263536956, ,0.015836293776949166,0.039629288188883616,-0.09245845336915785, ,0.001485874459640881, ,0.012751696820499252,0.03578572058888922,-0.024249644331270706,0.03045553276651504,-0.04423631680291948,-0.028317079915508005, ,0.04506959973264806, ,0.05370645040328975, ,0.0017017396986581616, ,0.17772325163452865,-0.38773524941619,0.10738855247000001,-4.501833396669253,0.14196532325629263,-1.2301062536782725, ,0.08634844545811718,-0.23033238242347276,0.038107204593301434,0.07639890920899339,-0.017224345972695922,0.20846663062128007, ,0.5179328918457031
0.015373274674440019,0.03873177226495318,-0.0922172324948296, ,0.015884184672221906,0.039744475822310575,-0.0925528058665553, ,0.0011828808091811954, ,0.0132398951860111,0.036342702511365156,-0.02465955945452334,0.018996467047588932,-0.04822939481060069,-0.010742205368673232, ,0.04587134969517813, ,0.0518356167660853, ,0.001698059848378183, ,0.17864997957943557,-0.39012157387432533,0.10777873576000001,-4.5009946368953155,0.14196532325629263,-1.227982606434618, ,0.09124705919083728,-0.23202186200115102,0.038382678361445786,0.06037037870109492,-0.011447995118462976,0.21989238617438875, ,0.5215368270874023
0.015373274674440019,0.03873177226495318,-0.0922172324948296, ,0.015932186143061914,0.03985922171139397,-0.09264736340146017, ,0.0013298634820445132, ,0.0132398951860111,0.036342702511365156,-0.02465955945452334,0.018996467047588932,-0.04822939481060069,-0.010742205368673232, ,0.04587134969517813, ,0.0518356167660853, ,0.0016954669162209037, ,0.17864997957943557,-0.39012157387432533,0.10777873576000001,-4.5009946368953155,0.14196532325629263,-1.227982606434618, ,0.09124705919083728,-0.23202186200115102,0.038382678361445786,0.06037037870109492,-0.011447995118462976,0.21989238617438875, ,0.525134801864624
0.015373274674440019,0.03873177226495318,-0.0922172324948296, ,0.015980298352100412,0.03997352682613887,-0.09274212676633031, ,0.0014784945491005585, ,0.0132398951860111,0.036342702511365156,-0.02465955945452334,0.018996467047588932,-0.04822939481060069,-0.010742205368673232, ,0.04587134969517813, ,0.0518356167660853, ,0.0016939496269403418, ,0.17864997957943557,-0.39012157387432533,0.10777873576000001,-4.5009946368953155,0.14196532325629263,-1.227982606434618, ,0.09124705919083728,-0.23202186200115102,0.038382678361445786,0.06037037870109492,-0.011447995118462976,0.21989238617438875, ,0.5287628173828125
0.015494223878223025,0.03905514383408214,-0.09244378281090682, ,0.016028521461069534,0.04008739213047789,-0.09283709674182705, ,0.0012270722475484024, ,0.013403238938910563,0.03537146878245929,-0.02579643161547138,0.004327630146437577,-0.040863832832212135,-0.0015548997236060577, ,0.04578475185008336, ,0.041092210854977836, ,0.0016907074229167867, ,0.1794763119969776,-0.3921526526202464,0.10812743777000001,-4.500575257008347,0.14182868675652718,-1.225910898767548, ,0.0914228724070046,-0.21715547267384616,0.039137129041769046,0.052584137712966945,0.0,0.22025952074293909, ,0.5328218936920166
0.015494223878223025,0.03905514383408214,-0.09244378281090682, ,0.016076855630801332,0.040200818582303094,-0.09293227409685083, ,0.0013750105906017076, ,0.013403238938910563,0.03537146878245929,-0.02579643161547138,0.004327630146437577,-0.040863832832212135,-0.0015548997236060577, ,0.04578475185008336, ,0.041092210854977836, ,0.0016885302033835792, ,0.1794763119969776,-0.3921526526202464,0.10812743777000001,-4.500575257008347,0.14182868675652718,-1.225910898767548, ,0.0914228724070046,-0.21715547267384616,0.039137129041769046,0.052584137712966945,0.0,0.22025952074293909, ,0.5366668701171875
0.015632935632376062,0.03943268073429909,-0.09272289730633848, ,0.016125301021227154,0.040313807133496964,-0.09302765958857623, ,0.0010543659024155965, ,0.01245128244223439,0.03307657863125096,-0.023979456806229336,0.014963733553196513,-0.003985138587675746,-0.032005027696046774, ,0.042709587180484905, ,0.015485048363193579, ,0.0016841866122810588, ,0.18043393087338144,-0.39443858155101685,0.10854873202000001,-4.499736497234409,0.1422385962558235,-1.2237947902744204, ,0.08619159087962833,-0.2010528422848957,0.036533971376146786,0.09192118508083343,0.02081031690164038,0.20304569036859058, ,0.5407609939575195
0.015632935632376062,0.03943268073429909,-0.09272289730633848, ,0.016173857791376447,0.040426358729963946,-0.09312325396248694, ,0.0012001159082724202, ,0.01245128244223439,0.03307657863125096,-0.023979456806229336,0.014963733553196513,-0.003985138587675746,-0.032005027696046774, ,0.042709587180484905, ,0.015485048363193579, ,0.0016808936142946056, ,0.18043393087338144,-0.39443858155101685,0.10854873202000001,-4.499736497234409,0.1422385962558235,-1.2237947902744204, ,0.08619159087962833,-0.2010528422848957,0.036533971376146786,0.09192118508083343,0.02081031690164038,0.20304569036859058, ,0.5443649291992188
0.015632935632376062,0.03943268073429909,-0.09272289730633848, ,0.016222526099376182,0.040538474311661354,-0.09321905795241024, ,0.0013478025601783808, ,0.01245128244223439,0.03307657863125096,-0.023979456806229336,0.014963733553196513,-0.003985138587675746,-0.032005027696046774, ,0.042709587180484905, ,0.015485048363193579, ,0.0016786429990640905, ,0.18043393087338144,-0.39443858155101685,0.10854873202000001,-4.499736497234409,0.1422385962558235,-1.2237947902744204, ,0.08619159087962833,-0.2010528422848957,0.036533971376146786,0.09192118508083343,0.02081031690164038,0.20304569036859058, ,0.5480399131774902
0.015750601547128817,0.039757178171856894,-0.09295019280956777, ,0.01627130610244973,0.04065015481263083,-0.09331507228055323, ,0.0010962105378286057, ,0.01149033946767927,0.031538898135710584,-0.021321411363732952,0.03634912420567517,0.012156773824573853,0.015774545476227593, ,0.039765972630362724, ,0.038328078141015305, ,0.001674734056371235, ,0.18129115422242037,-0.39643104663256673,0.10890002661,-4.499107427403954,0.14292177875465073,-1.2222282325492477, ,0.08427792323132396,-0.19606806107122063,0.03346388974789917,0.05393077517325445,0.0569906374103931,0.17525074026247695, ,0.5518088340759277
0.015750601547128817,0.039757178171856894,-0.09295019280956777, ,0.016320197956916103,0.040761401161029824,-0.09341129765753657, ,0.0012431900751077075, ,0.01149033946767927,0.031538898135710584,-0.021321411363732952,0.03634912420567517,0.012156773824573853,0.015774545476227593, ,0.039765972630362724, ,0.038328078141015305, ,0.0016718570964961447, ,0.18129115422242037,-0.39643104663256673,0.10890002661,-4.499107427403954,0.14292177875465073,-1.2222282325492477, ,0.08427792323132396,-0.19606806107122063,0.03346388974789917,0.05393077517325445,0.0569906374103931,0.17525074026247695, ,0.5554637908935547
0.015750601547128817,0.039757178171856894,-0.09295019280956777, ,0.01636920181818907,0.04087221427916258,-0.09350773478243056, ,0.0013916985548081012, ,0.01149033946767927,0.031538898135710584,-0.021321411363732952,0.03634912420567517,0.012156773824573853,0.015774545476227593, ,0.039765972630362724, ,0.038328078141015305, ,0.001670001741915429, ,0.18129115422242037,-0.39643104663256673,0.10890002661,-4.499107427403954,0.14292177875465073,-1.2222282325492477, ,0.08427792323132396,-0.19606806107122063,0.03346388974789917,0.05393077517325445,0.0569906374103931,0.17525074026247695, ,0.559088945388794
0.015874922781528602,0.04007532414772024,-0.09318070920628231, ,0.01641831784077627,0.04098259508351156,-0.09360438434278928, ,0.0011392626398862714, ,0.012436533925275071,0.030830310497489608,-0.023946106908335693,-0.02756740899892778,-0.017903923901264523,-0.001495345351146862, ,0.04097061700184143, ,0.03287103065548743, ,0.0016665100372968162, ,0.18215610030433352,-0.39834628438537445,0.10925261749000001,-4.498478357573501,0.14305841525441615,-1.219970966988868, ,0.08503310175490213,-0.17871363758657396,0.03571482403587444,0.05373465705821537,0.01804782669019652,0.21704031710924868, ,0.562628984451294
0.015874922781528602,0.04007532414772024,-0.09318070920628231, ,0.016467546178278284,0.04109254448476879,-0.09370124701468666, ,0.0012872060108850842, ,0.012436533925275071,0.030830310497489608,-0.023946106908335693,-0.02756740899892778,-0.017903923901264523,-0.001495345351146862, ,0.04097061700184143, ,0.03287103065548743, ,0.0016640309260130797, ,0.18215610030433352,-0.39834628438537445,0.10925261749000001,-4.498478357573501,0.14305841525441615,-1.219970966988868, ,0.08503310175490213,-0.17871363758657396,0.03571482403587444,0.05373465705821537,0.01804782669019652,0.21704031710924868, ,0.5662069320678711
0.015998818262252686,0.0403796666026877,-0.09342088751076626, ,0.01651688698338781,0.04120206338786689,-0.09379832346275054, ,0.0010426838302869791, ,0.012941797877774582,0.031018413087010383,-0.02482667662604396,-0.007326041980169293,-0.009154114888599492,-0.03859770473733459, ,0.04178511642965405, ,0.011724302909965324, ,0.001659996204612261, ,0.1830056009204982,-0.40008389928207494,0.10960909724000001,-4.497639597799563,0.14333168825394704,-1.2179884768124656, ,0.08786753848006552,-0.17508660804145898,0.03670233069124424,0.09287150534218223,0.01655268726477752,0.1994206967814213, ,0.570328950881958
0.015998818262252686,0.0403796666026877,-0.09342088751076626, ,0.016566340407888708,0.0413111526920107,-0.0938956143401982, ,0.0011895853407688263, ,0.012941797877774582,0.031018413087010383,-0.02482667662604396,-0.007326041980169293,-0.009154114888599492,-0.03859770473733459, ,0.04178511642965405, ,0.011724302909965324, ,0.0016569612958132712, ,0.1830056009204982,-0.40008389928207494,0.10960909724000001,-4.497639597799563,0.14333168825394704,-1.2179884768124656, ,0.08786753848006552,-0.17508660804145898,0.03670233069124424,0.09287150534218223,0.01655268726477752,0.1994206967814213, ,0.5744829177856445
0.015998818262252686,0.0403796666026877,-0.09342088751076626, ,0.016615906602655283,0.04141981329070818,-0.09399312028887175, ,0.0013379661822329925, ,0.012941797877774582,0.031018413087010383,-0.02482667662604396,-0.007326041980169293,-0.009154114888599492,-0.03859770473733459, ,0.04178511642965405, ,0.011724302909965324, ,0.0016549164553416025, ,0.1830056009204982,-0.40008389928207494,0.10960909724000001,-4.497639597799563,0.14333168825394704,-1.2179884768124656, ,0.08786753848006552,-0.17508660804145898,0.03670233069124424,0.09287150534218223,0.01655268726477752,0.1994206967814213, ,0.5783438682556152
0.016129997085896824,0.040698146312697844,-0.09368830472491967, ,0.016665585717651192,0.04152804607180213,-0.0940908419392718, ,0.0010665950504124056, ,0.012998506355450745,0.030654295060080612,-0.027535247729799484,0.05585202771006551,0.02056723710911349,0.02084649711572519, ,0.04320690732561871, ,0.05951843758819302, ,0.0016511691852465122, ,0.18392460613253092,-0.4018215141787755,0.10999798424000001,-4.497010527969109,0.1441515072525397,-1.2165333369909894, ,0.08877169462906527,-0.15975916087284645,0.039137129041769046,0.05087474027739574,0.08063928793687192,0.12233651019988416, ,0.5821869373321533
0.016129997085896824,0.040698146312697844,-0.09368830472491967, ,0.016715377901928657,0.04163585191750106,-0.09418877991059453, ,0.0012134405269866974, ,0.012998506355450745,0.030654295060080612,-0.027535247729799484,0.05585202771006551,0.02056723710911349,0.02084649711572519, ,0.04320690732561871, ,0.05951843758819302, ,0.001648398750700564, ,0.18392460613253092,-0.4018215141787755,0.10999798424000001,-4.497010527969109,0.1441515072525397,-1.2165333369909894, ,0.08877169462906527,-0.15975916087284645,0.039137129041769046,0.05087474027739574,0.08063928793687192,0.12233651019988416, ,0.585777997970581
0.016129997085896824,0.040698146312697844,-0.09368830472491967, ,0.016765283303627698,0.04174323170441074,-0.09428693481076496, ,0.0013616717791338816, ,0.012998506355450745,0.030654295060080612,-0.027535247729799484,0.05585202771006551,0.02056723710911349,0.02084649711572519, ,0.04320690732561871, ,0.05951843758819302, ,0.001646595436413981, ,0.18392460613253092,-0.4018215141787755,0.10999798424000001,-4.497010527969109,0.1441515072525397,-1.2165333369909894, ,0.08877169462906527,-0.15975916087284645,0.039137129041769046,0.05087474027739574,0.08063928793687192,0.12233651019988416, ,0.5894420146942139
0.016266678149023862,0.04099941777916156,-0.09397098501241612, ,0.016815302069975085,0.04185018630356537,-0.0943853072364729, ,0.0010938273145718635, ,0.01389501938792171,0.029792733270743346,-0.028655791690377262,-0.016301826971777095,-0.029179290145814715,0.017498839274498888, ,0.04361000936636763, ,0.03342396166805182, ,0.0016431406356524677, ,0.1848281658788152,-0.40334289255499767,0.11039464898000001,-4.496591148082141,0.144561416751836,-1.2149889796788458, ,0.09055051675426601,-0.14735549931439562,0.03992183338345865,0.03029344898460958,0.02858511036113915,0.1720272396800519, ,0.5930328369140625
0.016266678149023862,0.04099941777916156,-0.09397098501241612, ,0.016865434347283496,0.04195671658045885,-0.09448389777320768, ,0.0012401651019531173, ,0.01389501938792171,0.029792733270743346,-0.028655791690377262,-0.016301826971777095,-0.029179290145814715,0.017498839274498888, ,0.04361000936636763, ,0.03342396166805182, ,0.001640637682027006, ,0.1848281658788152,-0.40334289255499767,0.11039464898000001,-4.496591148082141,0.144561416751836,-1.2149889796788458, ,0.09055051675426601,-0.14735549931439562,0.03992183338345865,0.03029344898460958,0.02858511036113915,0.1720272396800519, ,0.5966849327087402
0.016266678149023862,0.04099941777916156,-0.09397098501241612, ,0.016915680280950595,0.04206282339507604,-0.09458270699529356, ,0.0013878901453427117, ,0.01389501938792171,0.029792733270743346,-0.028655791690377262,-0.016301826971777095,-0.029179290145814715,0.017498839274498888, ,0.04361000936636763, ,0.03342396166805182, ,0.001639077512047473, ,0.18570083469360257,-0.4047947663353519,0.11079001743000001,-4.4959620782516865,0.144561416751836,-1.2130286899154723, ,0.08564705916829492,-0.14017273494604252,0.03885075980487805,0.07006273154713362,0.015735613846263805,0.16936932127062404, ,0.6004829406738281
0.016404884006313163,0.04129427476949152,-0.09425497518978092, ,0.016966040015458428,0.04216850760192432,-0.09468173546592416, ,0.0011230776665917515, ,0.013468667931919146,0.02881242626989975,-0.027959851725011114,-0.015779360784131502,-0.020453999839203884,-0.025091473835570605, ,0.04234754103727067, ,0.02583287147886383, ,0.0016359118688238183, ,0.18570083469360257,-0.4047947663353519,0.11079001743000001,-4.4959620782516865,0.144561416751836,-1.2130286899154723, ,0.08564705916829492,-0.14017273494604252,0.03885075980487805,0.07006273154713362,0.015735613846263805,0.16936932127062404, ,0.604172945022583
0.016404884006313163,0.04129427476949152,-0.09425497518978092, ,0.017016513694372168,0.042273770050064365,-0.09478098373719762, ,0.0012689313897666277, ,0.013468667931919146,0.02881242626989975,-0.027959851725011114,-0.015779360784131502,-0.020453999839203884,-0.025091473835570605, ,0.04234754103727067, ,0.02583287147886383, ,0.0016336741829759088, ,0.18570083469360257,-0.4047947663353519,0.11079001743000001,-4.4959620782516865,0.144561416751836,-1.2130286899154723, ,0.08564705916829492,-0.14017273494604252,0.03885075980487805,0.07006273154713362,0.015735613846263805,0.16936932127062404, ,0.6078429222106934
