NicholasDascanio/dvrk_moveit_final/test/execution/noob_justexecution/no_ramp/noob__noramp_600vel4.csv
Current Position (x),Current Position (y),Current Position (z), ,Planned Position (x),Planned Position (y),Planned Position (z), ,Position Error,,Cartesian linear Velocity(x),Cartesian linear Velocity(y),Cartesian linear Velocity(z),Cartesian Angular Velocity(x),Cartesian Angular Velocity(y),Cartesian Angular Velocity(z), ,Total Linear Velocity, ,Total Angular Velocity, ,MSE, ,Joint 1 Position,Joint 2 Position,Joint 3 Position,Joint 4 Position,Joint 5 Position,Joint 6 Position, ,Joint 1 Velocity,Joint 2 Velocity,Joint 3 Velocity,Joint 4 Velocity,Joint 5 Velocity,Joint 6 Velocity, ,Time Stamp
0.00997371797280943,0.018807222215125964,-0.08071799010344, ,0.01024717371641723,0.018792806160870604,-0.08082789100381813, ,0.0002950662200867991, ,2.1654394273708208e-05,9.793586971961505e-06,4.957568781259503e-06,0.00011925343810436132,-0.00027218965668710524,1.681310176502119e-05, ,2.4277656916586905e-05, ,0.0002971676155087478, ,0.00014753311004339956, ,0.14006720613980994,-0.22433766726334778,0.09007659952000001,-4.537690377005107,0.15603888273213298,-1.3827231607218953, ,-0.00019840323992153727,6.325843341281362e-05,0.0,0.0,0.0,0.0, ,0.0020110607147216797
0.009974321057773213,0.018807850226591264,-0.08071776925361525, ,0.010260692296589323,0.018868407443199207,-0.080859804411129, ,0.0003253454300806001, ,-1.5848561297517683e-05,-5.144161610899931e-06,-3.1570404157695775e-06,-6.263888683163323e-05,0.0001984032399215373,-8.831718651384828e-06, ,1.6958956278823132e-05, ,0.0002080564244498815, ,0.0002068038833891331, ,0.14006720613980994,-0.22433766726334778,0.09007659952000001,-4.537690377005107,0.15603888273213298,-1.3827231607218953, ,-0.00019840323992153727,6.325843341281362e-05,0.0,0.0,0.0,0.0, ,0.003979921340942383
0.009974321057773213,0.018807850226591264,-0.08071776925361525, ,0.010274223570922407,0.018943905599124435,-0.08089171164683502, ,0.00037243595147000045, ,-1.5848561297517683e-05,-5.144161610899931e-06,-3.1570404157695775e-06,-6.263888683163323e-05,0.0001984032399215373,-8.831718651384828e-06, ,1.6958956278823132e-05, ,0.0002080564244498815, ,0.0002482119004093499, ,0.14006720613980994,-0.22433766726334778,0.09007659952000001,-4.537690377005107,0.15603888273213298,-1.3827231607218953, ,-0.00019840323992153727,6.325843341281362e-05,0.0,0.0,0.0,0.0, ,0.006054878234863281
0.009974321057773213,0.018807850226591264,-0.08071776925361525, ,0.010287767559071308,0.01901930076078226,-0.08092361288975423, ,0.0004305016145435385, ,-1.5848561297517683e-05,-5.144161610899931e-06,-3.1570404157695775e-06,-6.263888683163323e-05,0.0001984032399215373,-8.831718651384828e-06, ,1.6958956278823132e-05, ,0.0002080564244498815, ,0.0002846698432361876, ,0.14006720613980994,-0.22433766726334778,0.09007659952000001,-4.537690377005107,0.15603888273213298,-1.3827231607218953, ,-0.00019840323992153727,6.325843341281362e-05,0.0,0.0,0.0,0.0, ,0.008033037185668945
0.009974321057773213,0.018807850226591264,-0.08071776925361525, ,0.010301324280665675,0.019094593060049608,-0.08095550831827583, ,0.0004956535313981591, ,-1.5848561297517683e-05,-5.144161610899931e-06,-3.1570404157695775e-06,-6.263888683163323e-05,0.0001984032399215373,-8.831718651384828e-06, ,1.6958956278823132e-05, ,0.0002080564244498815, ,0.00031983379126318285, ,0.14006720613980994,-0.22433766726334778,0.09007659952000001,-4.537690377005107,0.15603888273213298,-1.3827231607218953, ,-0.00019840323992153727,6.325843341281362e-05,0.0,0.0,0.0,0.0, ,0.00996088981628418
0.00997492542686967,0.01881214397505479,-0.08072205573611453, ,0.010314893755311565,0.019169782628545153,-0.08098739811036051, ,0.0005602592671116394, ,-6.285746849226721e-06,0.0012595738194045027,0.0002927648951239594,0.08796575098530866,-0.010172205598749132,-0.0016559140546405786, ,0.0012931654963536734, ,0.08855194584622382, ,0.0003541802878129623, ,0.14006720613980994,-0.2243762809277189,0.09008178468000001,-4.537690377005107,0.15603888273213298,-1.3831315544225982, ,0.0004260691033877839,-0.015488320802753515,0.0,0.0,0.0,-0.07337953228786509, ,0.012418985366821289
0.00997492542686967,0.01881214397505479,-0.08072205573611453, ,0.010328476002591172,0.01924486959762927,-0.08101928244353977, ,0.0006329243158801264, ,-6.285746849226721e-06,0.0012595738194045027,0.0002927648951239594,0.08796575098530866,-0.010172205598749132,-0.0016559140546405786, ,0.0012931654963536734, ,0.08855194584622382, ,0.00038902329132135783, ,0.14006720613980994,-0.2243762809277189,0.09008178468000001,-4.537690377005107,0.15603888273213298,-1.3831315544225982, ,0.0004260691033877839,-0.015488320802753515,0.0,0.0,0.0,-0.07337953228786509, ,0.015251874923706055
0.00997492542686967,0.01881214397505479,-0.08072205573611453, ,0.010342071042061097,0.019319854098404247,-0.0810511614949182, ,0.0007077259869353044, ,-6.285746849226721e-06,0.0012595738194045027,0.0002927648951239594,0.08796575098530866,-0.010172205598749132,-0.0016559140546405786, ,0.0012931654963536734, ,0.08855194584622382, ,0.0004244347019451297, ,0.14006720613980994,-0.2243762809277189,0.09008178468000001,-4.537690377005107,0.15603888273213298,-1.3831315544225982, ,0.0004260691033877839,-0.015488320802753515,0.0,0.0,0.0,-0.07337953228786509, ,0.017346858978271484
0.00997492542686967,0.01881214397505479,-0.08072205573611453, ,0.010355678893253917,0.01939473626171494,-0.08108303544117237, ,0.0007840238020004045, ,-6.285746849226721e-06,0.0012595738194045027,0.0002927648951239594,0.08796575098530866,-0.010172205598749132,-0.0016559140546405786, ,0.0012931654963536734, ,0.08855194584622382, ,0.00046039361195065716, ,0.14006720613980994,-0.2243762809277189,0.09008178468000001,-4.537690377005107,0.15603888273213298,-1.3831315544225982, ,0.0004260691033877839,-0.015488320802753515,0.0,0.0,0.0,-0.07337953228786509, ,0.019292831420898438
0.00997492542686967,0.01881214397505479,-0.08072205573611453, ,0.01036929957567814,0.01946951621814877,-0.08111490445855206, ,0.0008613938436973021, ,-6.285746849226721e-06,0.0012595738194045027,0.0002927648951239594,0.08796575098530866,-0.010172205598749132,-0.0016559140546405786, ,0.0012931654963536734, ,0.08855194584622382, ,0.0004968481784730795, ,0.14006720613980994,-0.2243762809277189,0.09008178468000001,-4.537690377005107,0.15603888273213298,-1.3831315544225982, ,0.0004260691033877839,-0.015488320802753515,0.0,0.0,0.0,-0.07337953228786509, ,0.02127695083618164
0.009988239403926288,0.018858191448704396,-0.08075479416548532, ,0.01038293310881767,0.019544194098036316,-0.08114676872287956, ,0.0008831912642319909, ,0.0015935473681767866,0.004939450235281016,-0.003942415225424556,0.11574486313307927,-0.08601989430564753,-0.016592439308575947, ,0.00651768361084674, ,0.14420920760165643, ,0.0005290434356196553, ,0.14009809707130683,-0.22483192216729814,0.09012456225000001,-4.537480687061622,0.15535570023330578,-1.383717967266084, ,0.0045522624172811285,-0.04802476799517752,0.005024861678233439,0.0013354075697253405,-0.07417709834988562,-0.07932822172782172, ,0.023187875747680664
0.009988239403926288,0.018858191448704396,-0.08075479416548532, ,0.010396579512132072,0.019618770031451425,-0.08117862840955116, ,0.000961694801351161, ,0.0015935473681767866,0.004939450235281016,-0.003942415225424556,0.11574486313307927,-0.08601989430564753,-0.016592439308575947, ,0.00651768361084674, ,0.14420920760165643, ,0.0005623243099066943, ,0.14009809707130683,-0.22483192216729814,0.09012456225000001,-4.537480687061622,0.15535570023330578,-1.383717967266084, ,0.0045522624172811285,-0.04802476799517752,0.005024861678233439,0.0013354075697253405,-0.07417709834988562,-0.07932822172782172, ,0.025203943252563477
0.009988239403926288,0.018858191448704396,-0.08075479416548532, ,0.010410238805056976,0.019693244148211622,-0.08121048369353671, ,0.0010406966183689958, ,0.0015935473681767866,0.004939450235281016,-0.003942415225424556,0.11574486313307927,-0.08601989430564753,-0.016592439308575947, ,0.00651768361084674, ,0.14420920760165643, ,0.0005964937605111444, ,0.14009809707130683,-0.22483192216729814,0.09012456225000001,-4.537480687061622,0.15535570023330578,-1.383717967266084, ,0.0045522624172811285,-0.04802476799517752,0.005024861678233439,0.0013354075697253405,-0.07417709834988562,-0.07932822172782172, ,0.027391910552978516
0.009988239403926288,0.018858191448704396,-0.08075479416548532, ,0.010423911007002011,0.01976761657787823,-0.08124233474938095, ,0.0011200712621278598, ,0.0015935473681767866,0.004939450235281016,-0.003942415225424556,0.11574486313307927,-0.08601989430564753,-0.016592439308575947, ,0.00651768361084674, ,0.14420920760165643, ,0.0006313989272855921, ,0.14009809707130683,-0.22483192216729814,0.09012456225000001,-4.537480687061622,0.15535570023330578,-1.383717967266084, ,0.0045522624172811285,-0.04802476799517752,0.005024861678233439,0.0013354075697253405,-0.07417709834988562,-0.07932822172782172, ,0.029501914978027344
0.009988239403926288,0.018858191448704396,-0.08075479416548532, ,0.010437596137354552,0.019841887449757165,-0.08127418175120234, ,0.001199726118979442, ,0.0015935473681767866,0.004939450235281016,-0.003942415225424556,0.11574486313307927,-0.08601989430564753,-0.016592439308575947, ,0.00651768361084674, ,0.14420920760165643, ,0.0006669193767664577, ,0.14014443346855218,-0.22534162253699697,0.09023474690000001,-4.537061307174653,0.15316951623705874,-1.3831604619090496, ,0.006427465331573735,-0.06626881393747959,0.018985472610250298,0.004928229805413662,-0.2680806816410238,0.051435204915602384, ,0.03205990791320801
0.010025413451045462,0.018922184847190996,-0.08085201078554093, ,0.010451294215475188,0.019916056892898448,-0.08130602487269538, ,0.001172725398413735, ,0.0053450450353005885,0.009320225120212383,-0.01713692018731796,-0.022681947940827035,-0.2557339336697575,-0.05789192113715634, ,0.020226471175846153, ,0.25673783148307977, ,0.0006966726721574741, ,0.14014443346855218,-0.22534162253699697,0.09023474690000001,-4.537061307174653,0.15316951623705874,-1.3831604619090496, ,0.006427465331573735,-0.06626881393747959,0.018985472610250298,0.004928229805413662,-0.2680806816410238,0.051435204915602384, ,0.034214019775390625
0.010025413451045462,0.018922184847190996,-0.08085201078554093, ,0.010465005260703,0.019990125036097543,-0.08133786428712855, ,0.0012529129383978355, ,0.0053450450353005885,0.009320225120212383,-0.01713692018731796,-0.022681947940827035,-0.2557339336697575,-0.05789192113715634, ,0.020226471175846153, ,0.25673783148307977, ,0.0007275749091708275, ,0.14014443346855218,-0.22534162253699697,0.09023474690000001,-4.537061307174653,0.15316951623705874,-1.3831604619090496, ,0.006427465331573735,-0.06626881393747959,0.018985472610250298,0.004928229805413662,-0.2680806816410238,0.051435204915602384, ,0.036218881607055664
0.010025413451045462,0.018922184847190996,-0.08085201078554093, ,0.010478729292349541,0.020064092007894628,-0.08136970016734738, ,0.0013332102278630327, ,0.0053450450353005885,0.009320225120212383,-0.01713692018731796,-0.022681947940827035,-0.2557339336697575,-0.05789192113715634, ,0.020226471175846153, ,0.25673783148307977, ,0.0007594504522598908, ,0.14014443346855218,-0.22534162253699697,0.09023474690000001,-4.537061307174653,0.15316951623705874,-1.3831604619090496, ,0.006427465331573735,-0.06626881393747959,0.018985472610250298,0.004928229805413662,-0.2680806816410238,0.051435204915602384, ,0.03828287124633789
0.010025413451045462,0.018922184847190996,-0.08085201078554093, ,0.010492466329704101,0.020137957936575673,-0.0814015326857726, ,0.001413583006112311, ,0.0053450450353005885,0.009320225120212383,-0.01713692018731796,-0.022681947940827035,-0.2557339336697575,-0.05789192113715634, ,0.020226471175846153, ,0.25673783148307977, ,0.0007921570799525119, ,0.14014443346855218,-0.22534162253699697,0.09023474690000001,-4.537061307174653,0.15316951623705874,-1.3831604619090496, ,0.006427465331573735,-0.06626881393747959,0.018985472610250298,0.004928229805413662,-0.2680806816410238,0.051435204915602384, ,0.04022097587585449
0.010085200757842128,0.019033292513339375,-0.08104728918479961, ,0.010506216392030856,0.020211722950172453,-0.0814333620144017, ,0.0013095818754254712, ,0.006921750849634421,0.013273443881396712,-0.024554145978181365,-0.11056503270917795,-0.24371099982598637,-0.13263695818305782, ,0.028757625632427355, ,0.26761851387532193, ,0.0008167963559274148, ,0.14023710626304287,-0.2261370640230421,0.09045252362,-4.5364322373442,0.15043678624174994,-1.3822389636773704, ,0.010438546015126986,-0.090723653497582,0.02722873764102564,0.08654884099345088,-0.2876952208906327,0.17297652431248522, ,0.04309988021850586
0.010085200757842128,0.019033292513339375,-0.08104728918479961, ,0.010519979498569084,0.020285387176462787,-0.08146518832480874, ,0.0013897529600726234, ,0.006921750849634421,0.013273443881396712,-0.024554145978181365,-0.11056503270917795,-0.24371099982598637,-0.13263695818305782, ,0.028757625632427355, ,0.26761851387532193, ,0.0008428398379340152, ,0.14023710626304287,-0.2261370640230421,0.09045252362,-4.5364322373442,0.15043678624174994,-1.3822389636773704, ,0.010438546015126986,-0.090723653497582,0.02722873764102564,0.08654884099345088,-0.2876952208906327,0.17297652431248522, ,0.045027971267700195
0.010085200757842128,0.019033292513339375,-0.08104728918479961, ,0.010533755668534456,0.020358950742971036,-0.08149701178814521, ,0.0014699733567845002, ,0.006921750849634421,0.013273443881396712,-0.024554145978181365,-0.11056503270917795,-0.24371099982598637,-0.13263695818305782, ,0.028757625632427355, ,0.26761851387532193, ,0.000870106512666645, ,0.14023710626304287,-0.2261370640230421,0.09045252362,-4.5364322373442,0.15043678624174994,-1.3822389636773704, ,0.010438546015126986,-0.090723653497582,0.02722873764102564,0.08654884099345088,-0.2876952208906327,0.17297652431248522, ,0.04695391654968262
0.010085200757842128,0.019033292513339375,-0.08104728918479961, ,0.010547544921117362,0.020432413776968257,-0.08152883257514013, ,0.001550221426904489, ,0.006921750849634421,0.013273443881396712,-0.024554145978181365,-0.11056503270917795,-0.24371099982598637,-0.13263695818305782, ,0.028757625632427355, ,0.26761851387532193, ,0.0008984446340932218, ,0.14023710626304287,-0.2261370640230421,0.09045252362,-4.5364322373442,0.15043678624174994,-1.3822389636773704, ,0.010438546015126986,-0.090723653497582,0.02722873764102564,0.08654884099345088,-0.2876952208906327,0.17297652431248522, ,0.04908299446105957
0.010085200757842128,0.019033292513339375,-0.08104728918479961, ,0.010561347275484355,0.020505776405472666,-0.08156065085609977, ,0.0016304798448355366, ,0.006921750849634421,0.013273443881396712,-0.024554145978181365,-0.11056503270917795,-0.24371099982598637,-0.13263695818305782, ,0.028757625632427355, ,0.26761851387532193, ,0.0009277260425229144, ,0.14023710626304287,-0.2261370640230421,0.09045252362,-4.5364322373442,0.15043678624174994,-1.3822389636773704, ,0.010438546015126986,-0.090723653497582,0.02722873764102564,0.08654884099345088,-0.2876952208906327,0.17297652431248522, ,0.05107402801513672
0.010134181591799423,0.019136353738789903,-0.08123645287261669, ,0.010575162750778133,0.02057903875524985,-0.0815924668009091, ,0.0015500162439247027, ,0.006798111325326954,0.015289837560749957,-0.026260769292522242,-0.08668232983409961,-0.20513787706970377,-0.09404589525709628, ,0.031138745222965197, ,0.22270016260626693, ,0.0009516602810383677, ,0.1403143335917851,-0.22684755544747076,0.0906625226,-4.5364322373442,0.14866051174479922,-1.3811172458898788, ,0.011170917193463305,-0.1087021094598749,0.029388951143911442,0.06048869375566214,-0.24037069565035538,0.17008165012374865, ,0.05300498008728027
0.010134181591799423,0.019136353738789903,-0.08123645287261669, ,0.010588991366114492,0.020652200952812984,-0.08162428057903195, ,0.001629433962128379, ,0.006798111325326954,0.015289837560749957,-0.026260769292522242,-0.08668232983409961,-0.20513787706970377,-0.09404589525709628, ,0.031138745222965197, ,0.22270016260626693, ,0.0009767630099676275, ,0.1403143335917851,-0.22684755544747076,0.0906625226,-4.5364322373442,0.14866051174479922,-1.3811172458898788, ,0.011170917193463305,-0.1087021094598749,0.029388951143911442,0.06048869375566214,-0.24037069565035538,0.17008165012374865, ,0.054882049560546875
0.010134181591799423,0.019136353738789903,-0.08123645287261669, ,0.010602833140587421,0.020725263124423417,-0.08165609235951077, ,0.001708907431342139, ,0.006798111325326954,0.015289837560749957,-0.026260769292522242,-0.08668232983409961,-0.20513787706970377,-0.09404589525709628, ,0.031138745222965197, ,0.22270016260626693, ,0.001002911025016717, ,0.1403143335917851,-0.22684755544747076,0.0906625226,-4.5364322373442,0.14866051174479922,-1.3811172458898788, ,0.011170917193463305,-0.1087021094598749,0.029388951143911442,0.06048869375566214,-0.24037069565035538,0.17008165012374865, ,0.056932926177978516
0.010134181591799423,0.019136353738789903,-0.08123645287261669, ,0.010616688093265195,0.020798225396090754,-0.08168790231096713, ,0.0017884173239721066, ,0.006798111325326954,0.015289837560749957,-0.026260769292522242,-0.08668232983409961,-0.20513787706970377,-0.09404589525709628, ,0.031138745222965197, ,0.22270016260626693, ,0.001029997449118627, ,0.1403143335917851,-0.22684755544747076,0.0906625226,-4.5364322373442,0.14866051174479922,-1.3811172458898788, ,0.011170917193463305,-0.1087021094598749,0.029388951143911442,0.06048869375566214,-0.24037069565035538,0.17008165012374865, ,0.05899786949157715
0.010134181591799423,0.019136353738789903,-0.08123645287261669, ,0.010630556243192266,0.020871087893573188,-0.08171971060160241, ,0.0018679476478053341, ,0.006798111325326954,0.015289837560749957,-0.026260769292522242,-0.08668232983409961,-0.20513787706970377,-0.09404589525709628, ,0.031138745222965197, ,0.22270016260626693, ,0.0010579291224081838, ,0.1403143335917851,-0.22684755544747076,0.0906625226,-4.5364322373442,0.14866051174479922,-1.3811172458898788, ,0.011170917193463305,-0.1087021094598749,0.029388951143911442,0.06048869375566214,-0.24037069565035538,0.17008165012374865, ,0.06089591979980469
0.010223043034076366,0.01937548368121659,-0.08161274788771283, ,0.010644437609387337,0.020943850742377968,-0.08175151739919852, ,0.0016299096919631683, ,0.006798111325326954,0.015289837560749957,-0.026260769292522242,-0.08668232983409961,-0.20513787706970377,-0.09404589525709628, ,0.031138745222965197, ,0.22270016260626693, ,0.0010763801085228607, ,0.14052284737938917,-0.22861606127566816,0.09108900201,-4.536222547400715,0.1466109642483176,-1.3782207962323243, ,0.018746926424036105,-0.15949065808146348,0.032441571323828924,0.0,-0.07219930577969588,0.2203202433014615, ,0.06278395652770996
0.010223043034076366,0.01937548368121659,-0.08161274788771283, ,0.010658332210846288,0.02101651406776157,-0.08178332287111674, ,0.0017063274076039015, ,0.006173146278957507,0.020379680127936,-0.028063066376747714,-0.07042514710979206,-0.058068988429183954,0.014170649904430848, ,0.03522747211430512, ,0.09127809900277743, ,0.0010960659616191433, ,0.14052284737938917,-0.22861606127566816,0.09108900201,-4.536222547400715,0.1466109642483176,-1.3782207962323243, ,0.018746926424036105,-0.15949065808146348,0.032441571323828924,0.0,-0.07219930577969588,0.2203202433014615, ,0.06727290153503418
0.010223043034076366,0.01937548368121659,-0.08161274788771283, ,0.010672240066539277,0.02108907799472995,-0.08181512718430002, ,0.0017830145330215157, ,0.006173146278957507,0.020379680127936,-0.028063066376747714,-0.07042514710979206,-0.058068988429183954,0.014170649904430848, ,0.03522747211430512, ,0.09127809900277743, ,0.0011168825849949726, ,0.14052284737938917,-0.22861606127566816,0.09108900201,-4.536222547400715,0.1466109642483176,-1.3782207962323243, ,0.018746926424036105,-0.15949065808146348,0.032441571323828924,0.0,-0.07219930577969588,0.2203202433014615, ,0.0692739486694336
0.010223043034076366,0.01937548368121659,-0.08161274788771283, ,0.010686161195411936,0.02116154264803905,-0.08184693050527223, ,0.001859926493895049, ,0.006173146278957507,0.020379680127936,-0.028063066376747714,-0.07042514710979206,-0.058068988429183954,0.014170649904430848, ,0.03522747211430512, ,0.09127809900277743, ,0.001138736817609681, ,0.14052284737938917,-0.22861606127566816,0.09108900201,-4.536222547400715,0.1466109642483176,-1.3782207962323243, ,0.018746926424036105,-0.15949065808146348,0.032441571323828924,0.0,-0.07219930577969588,0.2203202433014615, ,0.07123899459838867
0.010279178410292925,0.019583412192777448,-0.08186387961884825, ,0.010700095616386724,0.021233908152195065,-0.08187873300013811, ,0.0017033874572085564, ,0.005926230681062149,0.022304033444334497,-0.024165400880011352,0.06255174303505531,-0.024196700195237945,-0.009678738492727242, ,0.033414917591740485, ,0.06706856652896019, ,0.0011548696930267915, ,0.14073908389986747,-0.23031506250799755,0.09138585242000001,-4.535593477570262,0.14633769124878673,-1.3769361368031041, ,0.02737938302321719,-0.18941505301091974,0.029173647472527476,0.0372645463403964,-0.023734950222318578,0.1280072444943947, ,0.07333493232727051
0.010279178410292925,0.019583412192777448,-0.08186387961884825, ,0.010714043348360281,0.021306174631454625,-0.0819105348345852, ,0.001777412344852123, ,0.005926230681062149,0.022304033444334497,-0.024165400880011352,0.06255174303505531,-0.024196700195237945,-0.009678738492727242, ,0.033414917591740485, ,0.06706856652896019, ,0.0011721625444663841, ,0.14073908389986747,-0.23031506250799755,0.09138585242000001,-4.535593477570262,0.14633769124878673,-1.3769361368031041, ,0.02737938302321719,-0.18941505301091974,0.029173647472527476,0.0372645463403964,-0.023734950222318578,0.1280072444943947, ,0.07554888725280762
0.010279178410292925,0.019583412192777448,-0.08186387961884825, ,0.010728004410205199,0.021378342209825058,-0.08194233617388251, ,0.0018518568992564276, ,0.005926230681062149,0.022304033444334497,-0.024165400880011352,0.06255174303505531,-0.024196700195237945,-0.009678738492727242, ,0.033414917591740485, ,0.06706856652896019, ,0.0011905326621634122, ,0.14073908389986747,-0.23031506250799755,0.09138585242000001,-4.535593477570262,0.14633769124878673,-1.3769361368031041, ,0.02737938302321719,-0.18941505301091974,0.029173647472527476,0.0372645463403964,-0.023734950222318578,0.1280072444943947, ,0.07757186889648438
0.010279178410292925,0.019583412192777448,-0.08186387961884825, ,0.010741978820769308,0.021450411011065193,-0.0819741371828818, ,0.001926661760105171, ,0.005926230681062149,0.022304033444334497,-0.024165400880011352,0.06255174303505531,-0.024196700195237945,-0.009678738492727242, ,0.033414917591740485, ,0.06706856652896019, ,0.0012099044805303006, ,0.14073908389986747,-0.23031506250799755,0.09138585242000001,-4.535593477570262,0.14633769124878673,-1.3769361368031041, ,0.02737938302321719,-0.18941505301091974,0.029173647472527476,0.0372645463403964,-0.023734950222318578,0.1280072444943947, ,0.07957196235656738
0.010279178410292925,0.019583412192777448,-0.08186387961884825, ,0.010755966598876846,0.021522381158684878,-0.08200593802601791, ,0.002001776265863107, ,0.005926230681062149,0.022304033444334497,-0.024165400880011352,0.06255174303505531,-0.024196700195237945,-0.009678738492727242, ,0.033414917591740485, ,0.06706856652896019, ,0.0012302088852824238, ,0.14073908389986747,-0.23031506250799755,0.09138585242000001,-4.535593477570262,0.14633769124878673,-1.3769361368031041, ,0.02737938302321719,-0.18941505301091974,0.029173647472527476,0.0372645463403964,-0.023734950222318578,0.1280072444943947, ,0.08163595199584961
0.010279178410292925,0.019583412192777448,-0.08186387961884825, ,0.010769967763325925,0.021594252775945996,-0.08203773886730877, ,0.002077156970053884, ,0.005926230681062149,0.022304033444334497,-0.024165400880011352,0.06255174303505531,-0.024196700195237945,-0.009678738492727242, ,0.033414917591740485, ,0.06706856652896019, ,0.0012513825874017103, ,0.14073908389986747,-0.23031506250799755,0.09138585242000001,-4.535593477570262,0.14633769124878673,-1.3769361368031041, ,0.02737938302321719,-0.18941505301091974,0.029173647472527476,0.0372645463403964,-0.023734950222318578,0.1280072444943947, ,0.0838170051574707
0.010344646504187323,0.01982830421125361,-0.08207963878504974, ,0.010783982332891778,0.021666025985862394,-0.08206953987035595, ,0.0018895341434683524, ,0.006230221853616482,0.02531668178073883,-0.017798503893472723,0.19435427725298224,-0.07348777876760486,-0.11706946171250154, ,0.031567970818195415, ,0.20778363007844802, ,0.0012669472595008967, ,0.14107888414633335,-0.23250831864427732,0.09165807332,-4.533915958022385,0.14565450874995953,-1.3760523323240597, ,0.03533020906867862,-0.23903511727574503,0.023738914336810735,0.13786754031266654,-0.0802186929298331,0.050151814493267166, ,0.08655095100402832
0.010344646504187323,0.01982830421125361,-0.08207963878504974, ,0.01079801032632414,0.021737700911200326,-0.08210134119834525, ,0.0019626017190792332, ,0.006230221853616482,0.02531668178073883,-0.017798503893472723,0.19435427725298224,-0.07348777876760486,-0.11706946171250154, ,0.031567970818195415, ,0.20778363007844802, ,0.0012835104609194286, ,0.14107888414633335,-0.23250831864427732,0.09165807332,-4.533915958022385,0.14565450874995953,-1.3760523323240597, ,0.03533020906867862,-0.23903511727574503,0.023738914336810735,0.13786754031266654,-0.0802186929298331,0.050151814493267166, ,0.08856391906738281
0.010344646504187323,0.01982830421125361,-0.08207963878504974, ,0.010812051762349032,0.02180927767447888,-0.08213314301404645, ,0.0020360712757367975, ,0.006230221853616482,0.02531668178073883,-0.017798503893472723,0.19435427725298224,-0.07348777876760486,-0.11706946171250154, ,0.031567970818195415, ,0.20778363007844802, ,0.001301011875217507, ,0.14107888414633335,-0.23250831864427732,0.09165807332,-4.533915958022385,0.14565450874995953,-1.3760523323240597, ,0.03533020906867862,-0.23903511727574503,0.023738914336810735,0.13786754031266654,-0.0802186929298331,0.050151814493267166, ,0.09072589874267578
0.010344646504187323,0.01982830421125361,-0.08207963878504974, ,0.010826106659666549,0.021880756397969894,-0.08216494547981451, ,0.002109891251283399, ,0.006230221853616482,0.02531668178073883,-0.017798503893472723,0.19435427725298224,-0.07348777876760486,-0.11706946171250154, ,0.031567970818195415, ,0.20778363007844802, ,0.0013193954974008227, ,0.14107888414633335,-0.23250831864427732,0.09165807332,-4.533915958022385,0.14565450874995953,-1.3760523323240597, ,0.03533020906867862,-0.23903511727574503,0.023738914336810735,0.13786754031266654,-0.0802186929298331,0.050151814493267166, ,0.09290003776550293
0.01043123603790019,0.020161363773026277,-0.08226834804330156, ,0.010840175036953654,0.02195213720369875,-0.08219674875758891, ,0.0018382674023829796, ,0.007004270322756203,0.028379706027049856,-0.013542795608379505,-0.16400609437612218,-0.13519036623608888,-0.0210637764200445, ,0.03221606477871493, ,0.21254278077601574, ,0.001330925984178204, ,0.1415731390502837,-0.23580592558157118,0.09192640535,-4.533706268078901,0.1436049612534779,-1.3729925251862238, ,0.04245948168164241,-0.28669770863586336,0.020421553230769232,0.03812827279570425,-0.16854454846184308,0.4333684966106961, ,0.0948338508605957
0.01043123603790019,0.020161363773026277,-0.08226834804330156, ,0.010854256912861373,0.02202342021344423,-0.08222855300889531, ,0.0019099174046848981, ,0.007004270322756203,0.028379706027049856,-0.013542795608379505,-0.16400609437612218,-0.13519036623608888,-0.0210637764200445, ,0.03221606477871493, ,0.21254278077601574, ,0.001343512754189219, ,0.1415731390502837,-0.23580592558157118,0.09192640535,-4.533706268078901,0.1436049612534779,-1.3729925251862238, ,0.04245948168164241,-0.28669770863586336,0.020421553230769232,0.03812827279570425,-0.16854454846184308,0.4333684966106961, ,0.09673595428466797
0.01043123603790019,0.020161363773026277,-0.08226834804330156, ,0.01086835230601785,0.02209460554873933,-0.08226035839484452, ,0.0019820590883466976, ,0.007004270322756203,0.028379706027049856,-0.013542795608379505,-0.16400609437612218,-0.13519036623608888,-0.0210637764200445, ,0.03221606477871493, ,0.21254278077601574, ,0.0013570988464053355, ,0.1415731390502837,-0.23580592558157118,0.09192640535,-4.533706268078901,0.1436049612534779,-1.3729925251862238, ,0.04245948168164241,-0.28669770863586336,0.020421553230769232,0.03812827279570425,-0.16854454846184308,0.4333684966106961, ,0.09877705574035645
0.01043123603790019,0.020161363773026277,-0.08226834804330156, ,0.010882461235025233,0.022165693330871206,-0.08229216507613393, ,0.002054630965897361, ,0.007004270322756203,0.028379706027049856,-0.013542795608379505,-0.16400609437612218,-0.13519036623608888,-0.0210637764200445, ,0.03221606477871493, ,0.21254278077601574, ,0.0013716307655614194, ,0.1415731390502837,-0.23580592558157118,0.09192640535,-4.533706268078901,0.1436049612534779,-1.3729925251862238, ,0.04245948168164241,-0.28669770863586336,0.020421553230769232,0.03812827279570425,-0.16854454846184308,0.4333684966106961, ,0.10089993476867676
0.01043123603790019,0.020161363773026277,-0.08226834804330156, ,0.010896583718462841,0.02223668368088148,-0.08232397321304703, ,0.0021275796913992153, ,0.007004270322756203,0.028379706027049856,-0.013542795608379505,-0.16400609437612218,-0.13519036623608888,-0.0210637764200445, ,0.03221606477871493, ,0.21254278077601574, ,0.00138705829466015, ,0.1415731390502837,-0.23580592558157118,0.09192640535,-4.533706268078901,0.1436049612534779,-1.3729925251862238, ,0.04245948168164241,-0.28669770863586336,0.020421553230769232,0.03812827279570425,-0.16854454846184308,0.4333684966106961, ,0.10285496711730957
0.010488763919382006,0.020451575978481313,-0.08238413921667581, ,0.010910719774883188,0.022307576719566753,-0.08235578296545444, ,0.0019035728438609237, ,0.005606139499591995,0.032140287909182295,-0.011130733715579277,-0.0996520476957725,-0.014082457547514615,0.03196188307050389, ,0.034472019668437597, ,0.10064216834749985, ,0.0013973885856441654, ,0.14197472115974338,-0.23878690047102183,0.09211307111000001,-4.533706268078901,0.14278514225488526,-1.3684851169774388, ,0.04387283474732814,-0.33297172476656417,0.019053602296650717,0.02404092907464526,-0.036778619067547834,0.43175941817083235, ,0.10471200942993164
0.010488763919382006,0.020451575978481313,-0.08238413921667581, ,0.010924869422815403,0.022378372567478804,-0.08238759449281441, ,0.001975536647200061, ,0.005606139499591995,0.032140287909182295,-0.011130733715579277,-0.0996520476957725,-0.014082457547514615,0.03196188307050389, ,0.034472019668437597, ,0.10064216834749985, ,0.0014087248221452612, ,0.14197472115974338,-0.23878690047102183,0.09211307111000001,-4.533706268078901,0.14278514225488526,-1.3684851169774388, ,0.04387283474732814,-0.33297172476656417,0.019053602296650717,0.02404092907464526,-0.036778619067547834,0.43175941817083235, ,0.10691595077514648
0.010488763919382006,0.020451575978481313,-0.08238413921667581, ,0.010939032680764727,0.02244907134492494,-0.08241940795417214, ,0.002047919329535584, ,0.005606139499591995,0.032140287909182295,-0.011130733715579277,-0.0996520476957725,-0.014082457547514615,0.03196188307050389, ,0.034472019668437597, ,0.10064216834749985, ,0.00142101702421046, ,0.14197472115974338,-0.23878690047102183,0.09211307111000001,-4.533706268078901,0.14278514225488526,-1.3684851169774388, ,0.04387283474732814,-0.33297172476656417,0.019053602296650717,0.02404092907464526,-0.036778619067547834,0.43175941817083235, ,0.10882306098937988
0.010488763919382006,0.020451575978481313,-0.08238413921667581, ,0.010953209567210328,0.022519673171968263,-0.08245122350816128, ,0.0021206687774519093, ,0.005606139499591995,0.032140287909182295,-0.011130733715579277,-0.0996520476957725,-0.014082457547514615,0.03196188307050389, ,0.034472019668437597, ,0.10064216834749985, ,0.0014342180006867138, ,0.14197472115974338,-0.23878690047102183,0.09211307111000001,-4.533706268078901,0.14278514225488526,-1.3684851169774388, ,0.04387283474732814,-0.33297172476656417,0.019053602296650717,0.02404092907464526,-0.036778619067547834,0.43175941817083235, ,0.11069798469543457
0.010488763919382006,0.020451575978481313,-0.08238413921667581, ,0.010967400100607542,0.022590178168427878,-0.08248304131300356, ,0.002193739625725996, ,0.005606139499591995,0.032140287909182295,-0.011130733715579277,-0.0996520476957725,-0.014082457547514615,0.03196188307050389, ,0.034472019668437597, ,0.10064216834749985, ,0.001448283215965219, ,0.14197472115974338,-0.23878690047102183,0.09211307111000001,-4.533706268078901,0.14278514225488526,-1.3684851169774388, ,0.04387283474732814,-0.33297172476656417,0.019053602296650717,0.02404092907464526,-0.036778619067547834,0.43175941817083235, ,0.11257195472717285
0.010488763919382006,0.020451575978481313,-0.08238413921667581, ,0.010981604299387925,0.022660586453879628,-0.08251486152650923, ,0.0022670922440147985, ,0.005606139499591995,0.032140287909182295,-0.011130733715579277,-0.0996520476957725,-0.014082457547514615,0.03196188307050389, ,0.034472019668437597, ,0.10064216834749985, ,0.0014631706528388476, ,0.14244580786507108,-0.24224668479867442,0.09230232945000001,-4.5330771982484475,0.14305841525441615,-1.3631537984552735, ,0.047212408735557605,-0.3608248728458964,0.01867387048065651,0.018044982702408428,0.0428519703883582,0.48870503618098665, ,0.11452603340148926
0.010541196077336687,0.020785271469168247,-0.08249021521165395, ,0.01099582218195659,0.022730898147655824,-0.08254668430607817, ,0.001998833866450527, ,0.005020915510691304,0.03455851303239888,-0.01000151333220836,-0.11789072516258216,0.06508860040217439,0.064851303790089, ,0.03632534493312246, ,0.13466532174839121, ,0.0014727360673676276, ,0.14244580786507108,-0.24224668479867442,0.09230232945000001,-4.5330771982484475,0.14305841525441615,-1.3631537984552735, ,0.047212408735557605,-0.3608248728458964,0.01867387048065651,0.018044982702408428,0.0428519703883582,0.48870503618098665, ,0.11669683456420898
0.010541196077336687,0.020785271469168247,-0.08249021521165395, ,0.011010053766696198,0.022801113368846052,-0.08257850980869914, ,0.0020715313256708277, ,0.005020915510691304,0.03455851303239888,-0.01000151333220836,-0.11789072516258216,0.06508860040217439,0.064851303790089, ,0.03632534493312246, ,0.13466532174839121, ,0.0014832412473378591, ,0.14244580786507108,-0.24224668479867442,0.09230232945000001,-4.5330771982484475,0.14305841525441615,-1.3631537984552735, ,0.047212408735557605,-0.3608248728458964,0.01867387048065651,0.018044982702408428,0.0428519703883582,0.48870503618098665, ,0.11862897872924805
0.010541196077336687,0.020785271469168247,-0.08249021521165395, ,0.01102429907196324,0.02287123223629708,-0.08261033819095072, ,0.002144539660526937, ,0.005020915510691304,0.03455851303239888,-0.01000151333220836,-0.11789072516258216,0.06508860040217439,0.064851303790089, ,0.03632534493312246, ,0.13466532174839121, ,0.0014946429441169812, ,0.14244580786507108,-0.24224668479867442,0.09230232945000001,-4.5330771982484475,0.14305841525441615,-1.3631537984552735, ,0.047212408735557605,-0.3608248728458964,0.01867387048065651,0.018044982702408428,0.0428519703883582,0.48870503618098665, ,0.1209869384765625
0.010541196077336687,0.020785271469168247,-0.08249021521165395, ,0.01103855811608978,0.022941254868613512,-0.08264216960900211, ,0.0022178195497266316, ,0.005020915510691304,0.03455851303239888,-0.01000151333220836,-0.11789072516258216,0.06508860040217439,0.064851303790089, ,0.03632534493312246, ,0.13466532174839121, ,0.0015069001747205347, ,0.14244580786507108,-0.24224668479867442,0.09230232945000001,-4.5330771982484475,0.14305841525441615,-1.3631537984552735, ,0.047212408735557605,-0.3608248728458964,0.01867387048065651,0.018044982702408428,0.0428519703883582,0.48870503618098665, ,0.12301301956176758
0.010541196077336687,0.020785271469168247,-0.08249021521165395, ,0.011052830917384193,0.02301118138415792,-0.08267400421861251, ,0.002291336631374487, ,0.0057933308089317005,0.03760512851382957,-0.011493789933884528,0.06659321387235817,0.0664184177803216,-0.05373497027199822, ,0.03974689395975012, ,0.09405350686549516, ,0.0015199741156647672, ,0.1429555082347699,-0.2460231011741702,0.09250066182000001,-4.531609368644055,0.14346832475371246,-1.3588323639783508, ,0.0530446850522475,-0.38733445534069705,0.02106985650793651,0.13925840522355462,0.03979507396086621,0.34534933532850426, ,0.12509703636169434
0.010595959542687374,0.021149771604113028,-0.08259629560131689, ,0.011067117494129405,0.02308101190105127,-0.08270584217513205, ,0.0019908991314378038, ,0.0057933308089317005,0.03760512851382957,-0.011493789933884528,0.06659321387235817,0.0664184177803216,-0.05373497027199822, ,0.03974689395975012, ,0.09405350686549516, ,0.0015276941978905549, ,0.1429555082347699,-0.2460231011741702,0.09250066182000001,-4.531609368644055,0.14346832475371246,-1.3588323639783508, ,0.0530446850522475,-0.38733445534069705,0.02106985650793651,0.13925840522355462,0.03979507396086621,0.34534933532850426, ,0.12711000442504883
0.010595959542687374,0.021149771604113028,-0.08259629560131689, ,0.01108141786458391,0.0231507465371729,-0.08273768363350223, ,0.002063870403072296, ,0.0057933308089317005,0.03760512851382957,-0.011493789933884528,0.06659321387235817,0.0664184177803216,-0.05373497027199822, ,0.03974689395975012, ,0.09405350686549516, ,0.0015363422011999376, ,0.1429555082347699,-0.2460231011741702,0.09250066182000001,-4.531609368644055,0.14346832475371246,-1.3588323639783508, ,0.0530446850522475,-0.38733445534069705,0.02106985650793651,0.13925840522355462,0.03979507396086621,0.34534933532850426, ,0.12911295890808105
0.010595959542687374,0.021149771604113028,-0.08259629560131689, ,0.011095732046981388,0.023220385410161314,-0.08276952874825601, ,0.002137106411259044, ,0.0057933308089317005,0.03760512851382957,-0.011493789933884528,0.06659321387235817,0.0664184177803216,-0.05373497027199822, ,0.03974689395975012, ,0.09405350686549516, ,0.0015458781410421457, ,0.1429555082347699,-0.2460231011741702,0.09250066182000001,-4.531609368644055,0.14346832475371246,-1.3588323639783508, ,0.0530446850522475,-0.38733445534069705,0.02106985650793651,0.13925840522355462,0.03979507396086621,0.34534933532850426, ,0.13116192817687988
0.010595959542687374,0.021149771604113028,-0.08259629560131689, ,0.01111006005953237,0.02328992863741426,-0.08280137767351824, ,0.002210572352343942, ,0.0057933308089317005,0.03760512851382957,-0.011493789933884528,0.06659321387235817,0.0664184177803216,-0.05373497027199822, ,0.03974689395975012, ,0.09405350686549516, ,0.0015562639880937362, ,0.1429555082347699,-0.2460231011741702,0.09250066182000001,-4.531609368644055,0.14346832475371246,-1.3588323639783508, ,0.0530446850522475,-0.38733445534069705,0.02106985650793651,0.13925840522355462,0.03979507396086621,0.34534933532850426, ,0.13310790061950684
0.010657606109944045,0.021556263908239077,-0.08272839109211497, ,0.011124401920420086,0.02335937633608894,-0.08283323056300637, ,0.001865503704311894, ,0.0057933308089317005,0.03760512851382957,-0.011493789933884528,0.06659321387235817,0.0664184177803216,-0.05373497027199822, ,0.03974689395975012, ,0.09405350686549516, ,0.0015610215221894001, ,0.14350382226883984,-0.25019337692625143,0.0927365866,-4.531189988757087,0.14387823425300877,-1.3561445043042393, ,0.05595338535287192,-0.41439712470947937,0.024281724878048784,0.05034256739341769,0.05280289423828188,0.1919516614774495, ,0.13505005836486816
0.010657606109944045,0.021556263908239077,-0.08272839109211497, ,0.01113875764780515,0.02342872862310247,-0.08286508757003024, ,0.0019381219873550242, ,0.006249831686811435,0.04070222365941123,-0.013808798152097602,0.2347283246129832,0.03318627883874655,0.03313602214439766, ,0.04343287134578581, ,0.23706268153527152, ,0.0015667351656010004, ,0.14350382226883984,-0.25019337692625143,0.0927365866,-4.531189988757087,0.14387823425300877,-1.3561445043042393, ,0.05595338535287192,-0.41439712470947937,0.024281724878048784,0.05034256739341769,0.05280289423828188,0.1919516614774495, ,0.13716888427734375
0.010657606109944045,0.021556263908239077,-0.08272839109211497, ,0.011153127259822994,0.02349798561513222,-0.08289694884749271, ,0.002011028620854351, ,0.006249831686811435,0.04070222365941123,-0.013808798152097602,0.2347283246129832,0.03318627883874655,0.03313602214439766, ,0.04343287134578581, ,0.23706268153527152, ,0.0015733664112017967, ,0.14350382226883984,-0.25019337692625143,0.0927365866,-4.531189988757087,0.14387823425300877,-1.3561445043042393, ,0.05595338535287192,-0.41439712470947937,0.024281724878048784,0.05034256739341769,0.05280289423828188,0.1919516614774495, ,0.13905692100524902
0.010657606109944045,0.021556263908239077,-0.08272839109211497, ,0.011167510774584756,0.023567147428615966,-0.08292881454788993, ,0.0020841844594878074, ,0.006249831686811435,0.04070222365941123,-0.013808798152097602,0.2347283246129832,0.03318627883874655,0.03313602214439766, ,0.04343287134578581, ,0.23706268153527152, ,0.00158087844132365, ,0.14350382226883984,-0.25019337692625143,0.0927365866,-4.531189988757087,0.14387823425300877,-1.3561445043042393, ,0.05595338535287192,-0.41439712470947937,0.024281724878048784,0.05034256739341769,0.05280289423828188,0.1919516614774495, ,0.14093899726867676
0.010657606109944045,0.021556263908239077,-0.08272839109211497, ,0.011181908209763865,0.023636214179739556,-0.08296068482340835, ,0.002157555607948168, ,0.006249831686811435,0.04070222365941123,-0.013808798152097602,0.2347283246129832,0.03318627883874655,0.03313602214439766, ,0.04343287134578581, ,0.23706268153527152, ,0.0015892360814196574, ,0.14350382226883984,-0.25019337692625143,0.0927365866,-4.531189988757087,0.14387823425300877,-1.3561445043042393, ,0.05595338535287192,-0.41439712470947937,0.024281724878048784,0.05034256739341769,0.05280289423828188,0.1919516614774495, ,0.14281702041625977
0.010657606109944045,0.021556263908239077,-0.08272839109211497, ,0.011196319584248148,0.023705185984488748,-0.082992559825538, ,0.0022311125961968674, ,0.007955622756454523,0.0435981209416529,-0.016066769528606008,0.18024217920743327,-0.05312982333440505,0.06696142201192642, ,0.0471405257307484, ,0.18790960651960073, ,0.0015984057459164746, ,0.14411391816590358,-0.2545489982673141,0.09300362234000001,-4.530980298813603,0.14387823425300877,-1.3536941421000224, ,0.06394672611756791,-0.43933769240032766,0.02746346813793104,0.0,-0.02504873282378667,0.25356571507201464, ,0.14485692977905273
0.010731632973106184,0.02198682999159072,-0.08288385083956784, ,0.011210744915660582,0.02377406295857156,-0.08302443970565548, ,0.0018556710810456692, ,0.007955622756454523,0.0435981209416529,-0.016066769528606008,0.18024217920743327,-0.05312982333440505,0.06696142201192642, ,0.0471405257307484, ,0.18790960651960073, ,0.0016020292013408295, ,0.14411391816590358,-0.2545489982673141,0.09300362234000001,-4.530980298813603,0.14387823425300877,-1.3536941421000224, ,0.06394672611756791,-0.43933769240032766,0.02746346813793104,0.0,-0.02504873282378667,0.25356571507201464, ,0.14684486389160156
0.010731632973106184,0.02198682999159072,-0.08288385083956784, ,0.011225184222013275,0.023842845217470855,-0.08305632461463378, ,0.0019282459794025602, ,0.007955622756454523,0.0435981209416529,-0.016066769528606008,0.18024217920743327,-0.05312982333440505,0.06696142201192642, ,0.0471405257307484, ,0.18790960651960073, ,0.00160655998992502, ,0.14411391816590358,-0.2545489982673141,0.09300362234000001,-4.530980298813603,0.14387823425300877,-1.3536941421000224, ,0.06394672611756791,-0.43933769240032766,0.02746346813793104,0.0,-0.02504873282378667,0.25356571507201464, ,0.14886903762817383
0.010731632973106184,0.02198682999159072,-0.08288385083956784, ,0.011239637521293838,0.023911532876431656,-0.0830882147029418, ,0.0020010783104485183, ,0.007955622756454523,0.0435981209416529,-0.016066769528606008,0.18024217920743327,-0.05312982333440505,0.06696142201192642, ,0.0471405257307484, ,0.18790960651960073, ,0.0016119643504801365, ,0.14411391816590358,-0.2545489982673141,0.09300362234000001,-4.530980298813603,0.14387823425300877,-1.3536941421000224, ,0.06394672611756791,-0.43933769240032766,0.02746346813793104,0.0,-0.02504873282378667,0.25356571507201464, ,0.15082192420959473
0.010731632973106184,0.02198682999159072,-0.08288385083956784, ,0.011254104831465083,0.02398012605046127,-0.08312011012064371, ,0.002074132220708306, ,0.007955622756454523,0.0435981209416529,-0.016066769528606008,0.18024217920743327,-0.05312982333440505,0.06696142201192642, ,0.0471405257307484, ,0.18790960651960073, ,0.0016182098622399767, ,0.14411391816590358,-0.2545489982673141,0.09300362234000001,-4.530980298813603,0.14387823425300877,-1.3536941421000224, ,0.06394672611756791,-0.43933769240032766,0.02746346813793104,0.0,-0.02504873282378667,0.25356571507201464, ,0.1528329849243164
0.010815962531710917,0.02243897410060168,-0.08304952148135782, ,0.011268586170465176,0.02404862485432979,-0.08315201101739933, ,0.0016752157509809349, ,0.008615763762077828,0.04525550060189312,-0.016775527488110446,0.39940095317858615,-0.022500903468865664,-0.08876838562763271, ,0.04902764569542608, ,0.400034261943048, ,0.0016189699407565229, ,0.14480896412458377,-0.2590745197316096,0.09328880614000001,-4.5299318490961795,0.14374159775324336,-1.3525209005744985, ,0.07227489836898002,-0.4497485381918046,0.028856542608695655,0.163241400406285,-0.0015547173300024266,0.06889831111751069, ,0.15503191947937012
0.010815962531710917,0.02243897410060168,-0.08304952148135782, ,0.011283081556207707,0.02411702940257025,-0.08318391754246518, ,0.001747035225962211, ,0.008615763762077828,0.04525550060189312,-0.016775527488110446,0.39940095317858615,-0.022500903468865664,-0.08876838562763271, ,0.04902764569542608, ,0.400034261943048, ,0.001620655010298703, ,0.14480896412458377,-0.2590745197316096,0.09328880614000001,-4.5299318490961795,0.14374159775324336,-1.3525209005744985, ,0.07227489836898002,-0.4497485381918046,0.028856542608695655,0.163241400406285,-0.0015547173300024266,0.06889831111751069, ,0.15699505805969238
0.010815962531710917,0.02243897410060168,-0.08304952148135782, ,0.011297591006581405,0.024185339809478984,-0.08321582984469417, ,0.0018191804882045695, ,0.008615763762077828,0.04525550060189312,-0.016775527488110446,0.39940095317858615,-0.022500903468865664,-0.08876838562763271, ,0.04902764569542608, ,0.400034261943048, ,0.0016232332632585193, ,0.14480896412458377,-0.2590745197316096,0.09328880614000001,-4.5299318490961795,0.14374159775324336,-1.3525209005744985, ,0.07227489836898002,-0.4497485381918046,0.028856542608695655,0.163241400406285,-0.0015547173300024266,0.06889831111751069, ,0.15888190269470215
0.010815962531710917,0.02243897410060168,-0.08304952148135782, ,0.011312114539450436,0.024253556189115878,-0.08324774807253604, ,0.001891604808671897, ,0.008615763762077828,0.04525550060189312,-0.016775527488110446,0.39940095317858615,-0.022500903468865664,-0.08876838562763271, ,0.04902764569542608, ,0.400034261943048, ,0.0016266739240971522, ,0.14480896412458377,-0.2590745197316096,0.09328880614000001,-4.5299318490961795,0.14374159775324336,-1.3525209005744985, ,0.07227489836898002,-0.4497485381918046,0.028856542608695655,0.163241400406285,-0.0015547173300024266,0.06889831111751069, ,0.16224193572998047
0.010815962531710917,0.02243897410060168,-0.08304952148135782, ,0.011326652172654262,0.024321678655304945,-0.08327967237403829, ,0.001964268256391901, ,0.008615763762077828,0.04525550060189312,-0.016775527488110446,0.39940095317858615,-0.022500903468865664,-0.08876838562763271, ,0.04902764569542608, ,0.400034261943048, ,0.0016309472700755667, ,0.14480896412458377,-0.2590745197316096,0.09328880614000001,-4.5299318490961795,0.14374159775324336,-1.3525209005744985, ,0.07227489836898002,-0.4497485381918046,0.028856542608695655,0.163241400406285,-0.0015547173300024266,0.06889831111751069, ,0.16573405265808105
0.010815962531710917,0.02243897410060168,-0.08304952148135782, ,0.01134120392400765,0.02438970732163426,-0.08331160289684565, ,0.0020371365413653707, ,0.008615763762077828,0.04525550060189312,-0.016775527488110446,0.39940095317858615,-0.022500903468865664,-0.08876838562763271, ,0.04902764569542608, ,0.400034261943048, ,0.0016360246359666893, ,0.14480896412458377,-0.2590745197316096,0.09328880614000001,-4.5299318490961795,0.14374159775324336,-1.3525209005744985, ,0.07227489836898002,-0.4497485381918046,0.028856542608695655,0.163241400406285,-0.0015547173300024266,0.06889831111751069, ,0.16774392127990723
0.010815962531710917,0.02243897410060168,-0.08304952148135782, ,0.011355769811300617,0.02445764230145655,-0.0833435397882014, ,0.0021101800797561883, ,0.008615763762077828,0.04525550060189312,-0.016775527488110446,0.39940095317858615,-0.022500903468865664,-0.08876838562763271, ,0.04902764569542608, ,0.400034261943048, ,0.0016418784068776707, ,0.14480896412458377,-0.2590745197316096,0.09328880614000001,-4.5299318490961795,0.14374159775324336,-1.3525209005744985, ,0.07227489836898002,-0.4497485381918046,0.028856542608695655,0.163241400406285,-0.0015547173300024266,0.06889831111751069, ,0.1697070598602295
0.010815962531710917,0.02243897410060168,-0.08304952148135782, ,0.011370349852298539,0.02452548370788932,-0.08337548319494689, ,0.0021833732345290565, ,0.008615763762077828,0.04525550060189312,-0.016775527488110446,0.39940095317858615,-0.022500903468865664,-0.08876838562763271, ,0.04902764569542608, ,0.400034261943048, ,0.0016484820023368338, ,0.14480896412458377,-0.2590745197316096,0.09328880614000001,-4.5299318490961795,0.14374159775324336,-1.3525209005744985, ,0.07227489836898002,-0.4497485381918046,0.028856542608695655,0.163241400406285,-0.0015547173300024266,0.06889831111751069, ,0.17169690132141113
0.01090043176581615,0.022842079562264844,-0.08319507166651338, ,0.011384944064742088,0.02459323165381534,-0.08340743326352233, ,0.001829312237819548, ,0.008615763762077828,0.04525550060189312,-0.016775527488110446,0.39940095317858615,-0.022500903468865664,-0.05997385702267568, ,0.04902764569542608, ,0.400034261943048, ,0.00165066067987277, ,0.14546539641889286,-0.2630980635590806,0.09354287898000001,-4.528883399378757,0.14292177875465073,-1.351117284491055, ,0.07531503298291331,-0.45405235195440563,0.02814277653710248,0.10108520081999509,-0.13630301732662767,0.21393263801224693, ,0.17388296127319336
0.01090043176581615,0.022842079562264844,-0.08319507166651338, ,0.011399552466347152,0.02466088625188282,-0.08343939013996708, ,0.0019018072363855404, ,0.009947841045380523,0.0453666799940188,-0.01581923134991909,0.2321292724028172,-0.14904247539918325,-0.05997385702267568, ,0.0490646846076292, ,0.2758580388328611, ,0.0016536505198312553, ,0.14546539641889286,-0.2630980635590806,0.09354287898000001,-4.528883399378757,0.14292177875465073,-1.351117284491055, ,0.07531503298291331,-0.45405235195440563,0.02814277653710248,0.10108520081999509,-0.13630301732662767,0.21393263801224693, ,0.1758730411529541
0.01090043176581615,0.022842079562264844,-0.08319507166651338, ,0.01141417507480498,0.02472844761450587,-0.08347135396992036, ,0.0019744995637432454, ,0.009947841045380523,0.0453666799940188,-0.01581923134991909,0.2321292724028172,-0.14904247539918325,-0.05997385702267568, ,0.0490646846076292, ,0.2758580388328611, ,0.0016574252144655138, ,0.14546539641889286,-0.2630980635590806,0.09354287898000001,-4.528883399378757,0.14292177875465073,-1.351117284491055, ,0.07531503298291331,-0.45405235195440563,0.02814277653710248,0.10108520081999509,-0.13630301732662767,0.21393263801224693, ,0.17788004875183105
0.010924891503564144,0.02288821866837882,-0.08321232687352635, ,0.011428811907782013,0.024795915853864526,-0.08350332489862061, ,0.001994473408172179, ,0.010008400255567724,0.04532001080095065,-0.01564941493671783,0.21172313679411875,-0.15486132498985666,-0.04042126475047898, ,0.048979338935264315, ,0.262314154579835, ,0.0016613443795086148, ,0.14555034648050932,-0.2635768729972825,0.09357269365000001,-4.528673709435273,0.14128214075746542,-1.3484734098044489, ,0.07610019371168467,-0.45405235195440563,0.027994396344463976,0.08030415491628069,-0.13862165628933856,0.23126398774081064, ,0.18012094497680664
0.010924891503564144,0.02288821866837882,-0.08321232687352635, ,0.011443462982920038,0.02486329108190533,-0.08353530307090716, ,0.0020673995844899843, ,0.010008400255567724,0.04532001080095065,-0.01564941493671783,0.21172313679411875,-0.15486132498985666,-0.04042126475047898, ,0.048979338935264315, ,0.262314154579835, ,0.001666011680715297, ,0.14555034648050932,-0.2635768729972825,0.09357269365000001,-4.528673709435273,0.14128214075746542,-1.3484734098044489, ,0.07610019371168467,-0.45405235195440563,0.027994396344463976,0.08030415491628069,-0.13862165628933856,0.23126398774081064, ,0.18211603164672852
0.010924891503564144,0.02288821866837882,-0.08321232687352635, ,0.01145812831783612,0.024930573410341748,-0.08356728863121912, ,0.0021404560825996235, ,0.010008400255567724,0.04532001080095065,-0.01564941493671783,0.21172313679411875,-0.15486132498985666,-0.04042126475047898, ,0.048979338935264315, ,0.262314154579835, ,0.0016714030943730737, ,0.14555034648050932,-0.2635768729972825,0.09357269365000001,-4.528673709435273,0.14128214075746542,-1.3484734098044489, ,0.07610019371168467,-0.45405235195440563,0.027994396344463976,0.08030415491628069,-0.13862165628933856,0.23126398774081064, ,0.1840519905090332
0.010924891503564144,0.02288821866837882,-0.08321232687352635, ,0.011472807930122498,0.02499776295065403,-0.08359928172359764, ,0.0022136222679956497, ,0.010008400255567724,0.04532001080095065,-0.01564941493671783,0.21172313679411875,-0.15486132498985666,-0.04042126475047898, ,0.048979338935264315, ,0.262314154579835, ,0.001677495444638496, ,0.14555034648050932,-0.2635768729972825,0.09357269365000001,-4.528673709435273,0.14128214075746542,-1.3484734098044489, ,0.07610019371168467,-0.45405235195440563,0.027994396344463976,0.08030415491628069,-0.13862165628933856,0.23126398774081064, ,0.18601393699645996
0.011119111295770197,0.02391107648847543,-0.08348844258453, ,0.01148750183734678,0.025064859814089905,-0.08363128249168413, ,0.001219561721547902, ,0.010008400255567724,0.04532001080095065,-0.01564941493671783,0.21172313679411875,-0.15486132498985666,-0.04042126475047898, ,0.048979338935264315, ,0.262314154579835, ,0.0016724072921597117, ,0.14718756584984494,-0.2736782075967682,0.09411843174000001,-4.528673709435273,0.1401890487593419,-1.3460301705122069, ,0.0718916223927809,-0.43134973435668533,0.02138095506040269,0.0,-0.03717098057209803,0.17906874197698508, ,0.18812203407287598
0.011119111295770197,0.02391107648847543,-0.08348844258453, ,0.011502210057051748,0.02513186411166478,-0.08366329107872221, ,0.0012913787506959524, ,0.007868566059104184,0.0421047566892506,-0.009508946743383533,0.23122367064226418,-0.08095157532422564,0.05999036055959992, ,0.04387647360324191, ,0.24498478184371555, ,0.0016682201653304396, ,0.14718756584984494,-0.2736782075967682,0.09411843174000001,-4.528673709435273,0.1401890487593419,-1.3460301705122069, ,0.0718916223927809,-0.43134973435668533,0.02138095506040269,0.0,-0.03717098057209803,0.17906874197698508, ,0.1905839443206787
0.011119111295770197,0.02391107648847543,-0.08348844258453, ,0.011516932606755495,0.02519877595416209,-0.08369530762755782, ,0.001363533958297581, ,0.007868566059104184,0.0421047566892506,-0.009508946743383533,0.23122367064226418,-0.08095157532422564,0.05999036055959992, ,0.04387647360324191, ,0.24498478184371555, ,0.0016649083587322565, ,0.14718756584984494,-0.2736782075967682,0.09411843174000001,-4.528673709435273,0.1401890487593419,-1.3460301705122069, ,0.0718916223927809,-0.43134973435668533,0.02138095506040269,0.0,-0.03717098057209803,0.17906874197698508, ,0.19254398345947266
0.011119111295770197,0.02391107648847543,-0.08348844258453, ,0.011531669503951292,0.025265595452133423,-0.08372733228063833, ,0.0014359645486408945, ,0.007868566059104184,0.0421047566892506,-0.009508946743383533,0.23122367064226418,-0.08095157532422564,0.05999036055959992, ,0.04387647360324191, ,0.24498478184371555, ,0.0016624465973334246, ,0.14718756584984494,-0.2736782075967682,0.09411843174000001,-4.528673709435273,0.1401890487593419,-1.3460301705122069, ,0.0718916223927809,-0.43134973435668533,0.02138095506040269,0.0,-0.03717098057209803,0.17906874197698508, ,0.194504976272583
0.011119111295770197,0.02391107648847543,-0.08348844258453, ,0.011546420766107703,0.025332322715899133,-0.08375936518001499, ,0.00150861965887713, ,0.007868566059104184,0.0421047566892506,-0.009508946743383533,0.23122367064226418,-0.08095157532422564,0.05999036055959992, ,0.04387647360324191, ,0.24498478184371555, ,0.0016608101405413364, ,0.14718756584984494,-0.2736782075967682,0.09411843174000001,-4.528673709435273,0.1401890487593419,-1.3460301705122069, ,0.0718916223927809,-0.43134973435668533,0.02138095506040269,0.0,-0.03717098057209803,0.17906874197698508, ,0.19655489921569824
0.011181780978547771,0.02423646456832882,-0.08356477686891044, ,0.0115611864106685,0.02539895785554842,-0.08379140646734136, ,0.0012436639818046947, ,0.008003908096574992,0.04226576820123654,-0.01022284615198956,0.15860855683480757,-0.0323497161261978,-0.042302931311731254, ,0.04421497811722091, ,0.1618739581372367, ,0.0016564191283441087, ,0.1478131072126571,-0.27729244658190527,0.09430380121000001,-4.527834949661335,0.139915775759811,-1.3439287236815811, ,0.072551178561522,-0.42746370071383233,0.022403391729957808,0.11257643258470504,-0.030334860783378527,0.2786572469403271, ,0.1985628604888916
0.011181780978547771,0.02423646456832882,-0.08356477686891044, ,0.011575966455052737,0.025465500980939724,-0.08382345628387476, ,0.0013163691477458784, ,0.008003908096574992,0.04226576820123654,-0.01022284615198956,0.15860855683480757,-0.0323497161261978,-0.042302931311731254, ,0.04421497811722091, ,0.1618739581372367, ,0.0016528769410462105, ,0.1478131072126571,-0.27729244658190527,0.09430380121000001,-4.527834949661335,0.139915775759811,-1.3439287236815811, ,0.072551178561522,-0.42746370071383233,0.022403391729957808,0.11257643258470504,-0.030334860783378527,0.2786572469403271, ,0.20054197311401367
0.011181780978547771,0.02423646456832882,-0.08356477686891044, ,0.011590760916654607,0.025531952201701045,-0.08385551477047644, ,0.0013892736682890234, ,0.008003908096574992,0.04226576820123654,-0.01022284615198956,0.15860855683480757,-0.0323497161261978,-0.042302931311731254, ,0.04421497811722091, ,0.1618739581372367, ,0.0016501593815332499, ,0.1478131072126571,-0.27729244658190527,0.09430380121000001,-4.527834949661335,0.139915775759811,-1.3439287236815811, ,0.072551178561522,-0.42746370071383233,0.022403391729957808,0.11257643258470504,-0.030334860783378527,0.2786572469403271, ,0.20241189002990723
0.011181780978547771,0.02423646456832882,-0.08356477686891044, ,0.01160556981284364,0.025598311627230235,-0.0838875820676115, ,0.0014623363444231006, ,0.008003908096574992,0.04226576820123654,-0.01022284615198956,0.15860855683480757,-0.0323497161261978,-0.042302931311731254, ,0.04421497811722091, ,0.1618739581372367, ,0.001648242819930085, ,0.1478131072126571,-0.27729244658190527,0.09430380121000001,-4.527834949661335,0.139915775759811,-1.3439287236815811, ,0.072551178561522,-0.42746370071383233,0.022403391729957808,0.11257643258470504,-0.030334860783378527,0.2786572469403271, ,0.2042708396911621
0.011181780978547771,0.02423646456832882,-0.08356477686891044, ,0.011620393160964453,0.02566457936669536,-0.08391965831535027, ,0.0015355238079903081, ,0.008003908096574992,0.04226576820123654,-0.01022284615198956,0.15860855683480757,-0.0323497161261978,-0.042302931311731254, ,0.04421497811722091, ,0.1618739581372367, ,0.0016471042440519056, ,0.1478131072126571,-0.27729244658190527,0.09430380121000001,-4.527834949661335,0.139915775759811,-1.3439287236815811, ,0.072551178561522,-0.42746370071383233,0.022403391729957808,0.11257643258470504,-0.030334860783378527,0.2786572469403271, ,0.20616602897644043
0.011275799988379558,0.024743421563508273,-0.0836995290080232, ,0.011635230978337005,0.025730755529034827,-0.08395174365336704, ,0.0016088087735430885, ,0.008003908096574992,0.04226576820123654,-0.01022284615198956,0.15860855683480757,-0.0323497161261978,-0.042302931311731254, ,0.04421497811722091, ,0.1618739581372367, ,0.0016467212893468172, ,0.14864716236307338,-0.28236628208027076,0.09458509614,-4.526576810000427,0.13964250276028015,-1.3397853083474414, ,0.06783198109969318,-0.41804820069810916,0.02454362329738059,0.0747410327739988,-0.02533194492276737,0.38894254623608315, ,0.2084789276123047
0.011275799988379558,0.024743421563508273,-0.0836995290080232, ,0.011650083282256364,0.025796840222958032,-0.08398383822094216, ,0.0011535209511330064, ,0.007878213993383416,0.04219913350809432,-0.01229760282161697,0.03547916337565964,-0.017662703588416085,-0.0016641056717777746, ,0.044654945523623174, ,0.03963258571721836, ,0.001641838117681334, ,0.14864716236307338,-0.28236628208027076,0.09458509614,-4.526576810000427,0.13964250276028015,-1.3397853083474414, ,0.06783198109969318,-0.41804820069810916,0.02454362329738059,0.0747410327739988,-0.02533194492276737,0.38894254623608315, ,0.21044683456420898
0.011275799988379558,0.024743421563508273,-0.0836995290080232, ,0.011664950089992842,0.02586283355694535,-0.08401594215696156, ,0.001226636985198754, ,0.007878213993383416,0.04219913350809432,-0.01229760282161697,0.03547916337565964,-0.017662703588416085,-0.0016641056717777746, ,0.044654945523623174, ,0.03963258571721836, ,0.0016377675183432694, ,0.14864716236307338,-0.28236628208027076,0.09458509614,-4.526576810000427,0.13964250276028015,-1.3397853083474414, ,0.06783198109969318,-0.41804820069810916,0.02454362329738059,0.0747410327739988,-0.02533194492276737,0.38894254623608315, ,0.2123119831085205
0.011275799988379558,0.024743421563508273,-0.0836995290080232, ,0.011679831418791963,0.02592873563924858,-0.08404805559991652, ,0.001299877548142885, ,0.007878213993383416,0.04219913350809432,-0.01229760282161697,0.03547916337565964,-0.017662703588416085,-0.0016641056717777746, ,0.044654945523623174, ,0.03963258571721836, ,0.001634487033195693, ,0.14864716236307338,-0.28236628208027076,0.09458509614,-4.526576810000427,0.13964250276028015,-1.3397853083474414, ,0.06783198109969318,-0.41804820069810916,0.02454362329738059,0.0747410327739988,-0.02533194492276737,0.38894254623608315, ,0.2142469882965088
0.011275799988379558,0.024743421563508273,-0.0836995290080232, ,0.01169472728587445,0.025994546577891343,-0.0840801786879054, ,0.0013732108581699437, ,0.007878213993383416,0.04219913350809432,-0.01229760282161697,0.03547916337565964,-0.017662703588416085,-0.0016641056717777746, ,0.044654945523623174, ,0.03963258571721836, ,0.0016319747622819839, ,0.14864716236307338,-0.28236628208027076,0.09458509614,-4.526576810000427,0.13964250276028015,-1.3397853083474414, ,0.06783198109969318,-0.41804820069810916,0.02454362329738059,0.0747410327739988,-0.02533194492276737,0.38894254623608315, ,0.21619606018066406
0.011275799988379558,0.024743421563508273,-0.0836995290080232, ,0.01170963770843617,0.02606026648066914,-0.084112311558633, ,0.0014466116055404273, ,0.007878213993383416,0.04219913350809432,-0.01229760282161697,0.03547916337565964,-0.017662703588416085,-0.0016641056717777746, ,0.044654945523623174, ,0.03963258571721836, ,0.0016302093988844453, ,0.14864716236307338,-0.28236628208027076,0.09458509614,-4.526576810000427,0.13964250276028015,-1.3397853083474414, ,0.06783198109969318,-0.41804820069810916,0.02454362329738059,0.0747410327739988,-0.02533194492276737,0.38894254623608315, ,0.21829605102539062
0.01135433307335202,0.0251660327539293,-0.08383577080365967, ,0.01172456270364822,0.02612589545515001,-0.08414445434941117, ,0.00107410051473859, ,0.007743477136113689,0.040532020997426865,-0.013633180292354516,-0.02027861658796645,-0.013668842738767357,0.03787142884246068, ,0.04345882843769734, ,0.024455246504111867, ,0.001624963088656654, ,0.14932676285600513,-0.2865056669008551,0.09484435414,-4.526576810000427,0.13964250276028015,-1.3357830500805536, ,0.06477606932318823,-0.3937632429812066,0.025486098432000007,0.0335796362449964,-0.01599010794634099,0.4163781622985721, ,0.22393298149108887
0.01135433307335202,0.0251660327539293,-0.08383577080365967, ,0.011739502288656856,0.026191433608674486,-0.0841766071971592, ,0.0011471580904411011, ,0.007743477136113689,0.040532020997426865,-0.013633180292354516,-0.02027861658796645,-0.013668842738767357,0.03787142884246068, ,0.04345882843769734, ,0.024455246504111867, ,0.0016204976213836115, ,0.14932676285600513,-0.2865056669008551,0.09484435414,-4.526576810000427,0.13964250276028015,-1.3357830500805536, ,0.06477606932318823,-0.3937632429812066,0.025486098432000007,0.0335796362449964,-0.01599010794634099,0.4163781622985721, ,0.22603702545166016
0.01135433307335202,0.0251660327539293,-0.08383577080365967, ,0.011754456480583542,0.026256881048356228,-0.08420877023840423, ,0.001220318532510452, ,0.007743477136113689,0.040532020997426865,-0.013633180292354516,-0.02027861658796645,-0.013668842738767357,0.03787142884246068, ,0.04345882843769734, ,0.024455246504111867, ,0.0016167922594496008, ,0.14999091788318844,-0.29039792426946426,0.09510101956000001,-4.526367120056943,0.13964250276028015,-1.3316991130735256, ,0.06407626033657716,-0.3635898144002712,0.02388127664167916,0.0,0.009529765014372726,0.3815865178142368, ,0.22837400436401367
0.011432063128767557,0.02556883806070907,-0.08397380122910386, ,0.011769425296524838,0.026322237881082056,-0.08424094360928143, ,0.0008676344696119886, ,0.0073248823422616995,0.037660187007925616,-0.012696397992572724,-0.016928763031181192,-0.003349244993621318,0.07185770153192401, ,0.04041215298379574, ,0.017256886447958864, ,0.0016099192522033843, ,0.14999091788318844,-0.29039792426946426,0.09510101956000001,-4.526367120056943,0.13964250276028015,-1.3316991130735256, ,0.06407626033657716,-0.3635898144002712,0.02388127664167916,0.0,0.009529765014372726,0.3815865178142368, ,0.23082590103149414
0.011432063128767557,0.02556883806070907,-0.08397380122910386, ,0.011784408753552574,0.02638750421351256,-0.08427312744553483, ,0.0009401903492878956, ,0.0073248823422616995,0.037660187007925616,-0.012696397992572724,-0.016928763031181192,-0.003349244993621318,0.07185770153192401, ,0.04041215298379574, ,0.017256886447958864, ,0.0016038308076314252, ,0.14999091788318844,-0.29039792426946426,0.09510101956000001,-4.526367120056943,0.13964250276028015,-1.3316991130735256, ,0.06407626033657716,-0.3635898144002712,0.02388127664167916,0.0,0.009529765014372726,0.3815865178142368, ,0.23276591300964355
0.011432063128767557,0.02556883806070907,-0.08397380122910386, ,0.011799406868713672,0.026452680152082027,-0.08430532188251681, ,0.0010129285312397275, ,0.0073248823422616995,0.037660187007925616,-0.012696397992572724,-0.016928763031181192,-0.003349244993621318,0.07185770153192401, ,0.04041215298379574, ,0.017256886447958864, ,0.0015985073636999682, ,0.14999091788318844,-0.29039792426946426,0.09510101956000001,-4.526367120056943,0.13964250276028015,-1.3316991130735256, ,0.06407626033657716,-0.3635898144002712,0.02388127664167916,0.0,0.009529765014372726,0.3815865178142368, ,0.23468399047851562
0.011432063128767557,0.02556883806070907,-0.08397380122910386, ,0.011814419659030219,0.02651776580299913,-0.08433752705518974, ,0.0010857977955789318, ,0.0073248823422616995,0.037660187007925616,-0.012696397992572724,-0.016928763031181192,-0.003349244993621318,0.07185770153192401, ,0.04041215298379574, ,0.017256886447958864, ,0.0015939295996988876, ,0.14999091788318844,-0.29039792426946426,0.09510101956000001,-4.526367120056943,0.13964250276028015,-1.3316991130735256, ,0.06407626033657716,-0.3635898144002712,0.02388127664167916,0.0,0.009529765014372726,0.3815865178142368, ,0.23660993576049805
0.011502343464887863,0.025929549203389766,-0.0840900313560504, ,0.011829447141499465,0.026582761272247093,-0.08436974309812476, ,0.0007822541024551873, ,0.006594985386287141,0.033705951514279776,-0.009442608207073927,0.0625037055841987,0.01948238374202837,-0.03894909263094518, ,0.03561948693455059, ,0.06546966024777415, ,0.0015867466306967312, ,0.15061645924600062,-0.2938731540628653,0.09532527773,-4.52531867033952,0.1397791392600456,-1.328461702631459, ,0.06102697206332526,-0.32836311957948366,0.019665199407407408,0.10846566530611013,0.011420832768963057,0.28216211119790624, ,0.23970985412597656
0.011502343464887863,0.025929549203389766,-0.0840900313560504, ,0.011844489333093832,0.026647666665583825,-0.08440197014550334, ,0.0008544368279772471, ,0.006594985386287141,0.033705951514279776,-0.009442608207073927,0.0625037055841987,0.01948238374202837,-0.03894909263094518, ,0.03561948693455059, ,0.06546966024777415, ,0.0015803228604974375, ,0.15061645924600062,-0.2938731540628653,0.09532527773,-4.52531867033952,0.1397791392600456,-1.328461702631459, ,0.06102697206332526,-0.32836311957948366,0.019665199407407408,0.10846566530611013,0.011420832768963057,0.28216211119790624, ,0.24162793159484863
0.011502343464887863,0.025929549203389766,-0.0840900313560504, ,0.011859546250760824,0.026712482088542492,-0.08443420833111756, ,0.0009268416925534593, ,0.006594985386287141,0.033705951514279776,-0.009442608207073927,0.0625037055841987,0.01948238374202837,-0.03894909263094518, ,0.03561948693455059, ,0.06546966024777415, ,0.0015746404155587942, ,0.15061645924600062,-0.2938731540628653,0.09532527773,-4.52531867033952,0.1397791392600456,-1.328461702631459, ,0.06102697206332526,-0.32836311957948366,0.019665199407407408,0.10846566530611013,0.011420832768963057,0.28216211119790624, ,0.24353694915771484
0.011502343464887863,0.025929549203389766,-0.0840900313560504, ,0.011874617911423179,0.026777207646431843,-0.08446645778836978, ,0.000999404802145955, ,0.006594985386287141,0.033705951514279776,-0.009442608207073927,0.0625037055841987,0.01948238374202837,-0.03894909263094518, ,0.03561948693455059, ,0.06546966024777415, ,0.0015696814878569593, ,0.15061645924600062,-0.2938731540628653,0.09532527773,-4.52531867033952,0.1397791392600456,-1.328461702631459, ,0.06102697206332526,-0.32836311957948366,0.019665199407407408,0.10846566530611013,0.011420832768963057,0.28216211119790624, ,0.24561095237731934
0.011502343464887863,0.025929549203389766,-0.0840900313560504, ,0.011889704331978704,0.026841843444336252,-0.08449871865027353, ,0.0010720795343056046, ,0.006594985386287141,0.033705951514279776,-0.009442608207073927,0.0625037055841987,0.01948238374202837,-0.03894909263094518, ,0.03561948693455059, ,0.06546966024777415, ,0.0015654284797069478, ,0.15061645924600062,-0.2938731540628653,0.09532527773,-4.52531867033952,0.1397791392600456,-1.328461702631459, ,0.06102697206332526,-0.32836311957948366,0.019665199407407408,0.10846566530611013,0.011420832768963057,0.28216211119790624, ,0.24753904342651367
0.011565360625207424,0.02626043393690313,-0.08418132821183612, ,0.011904805529300304,0.02690638958711627,-0.08453099104945395, ,0.0008091635464897459, ,0.006310015845037102,0.03287504658842775,-0.009926945021245241,0.11876805196046637,-0.005046836573706829,0.009501559966013947, ,0.03491603106899093, ,0.11887523135407775, ,0.0015590194548491748, ,0.15118794147869322,-0.29710897913716533,0.09551712865,-4.525108980396035,0.1397791392600456,-1.3260930191673825, ,0.05662108684872958,-0.31738107544639055,0.019935934317897377,0.05189288024298781,0.009043682752204279,0.20579094309887236, ,0.24950599670410156
0.011565360625207424,0.02626043393690313,-0.08418132821183612, ,0.011919921520236087,0.02697084617940886,-0.08456327511814736, ,0.0008810689086707534, ,0.006310015845037102,0.03287504658842775,-0.009926945021245241,0.11876805196046637,-0.005046836573706829,0.009501559966013947, ,0.03491603106899093, ,0.11887523135407775, ,0.0015533223914359108, ,0.15118794147869322,-0.29710897913716533,0.09551712865,-4.525108980396035,0.1397791392600456,-1.3260930191673825, ,0.05662108684872958,-0.31738107544639055,0.019935934317897377,0.05189288024298781,0.009043682752204279,0.20579094309887236, ,0.2513999938964844
0.011565360625207424,0.02626043393690313,-0.08418132821183612, ,0.011935052321609236,0.02703521332562757,-0.08459557098820292, ,0.0009531800088927257, ,0.006310015845037102,0.03287504658842775,-0.009926945021245241,0.11876805196046637,-0.005046836573706829,0.009501559966013947, ,0.03491603106899093, ,0.11887523135407775, ,0.0015483212049147176, ,0.15118794147869322,-0.29710897913716533,0.09551712865,-4.525108980396035,0.1397791392600456,-1.3260930191673825, ,0.05662108684872958,-0.31738107544639055,0.019935934317897377,0.05189288024298781,0.009043682752204279,0.20579094309887236, ,0.25333404541015625
0.011565360625207424,0.02626043393690313,-0.08418132821183612, ,0.011950197950218061,0.0270994911299632,-0.08462787879108172, ,0.0010254385207177292, ,0.006310015845037102,0.03287504658842775,-0.009926945021245241,0.11876805196046637,-0.005046836573706829,0.009501559966013947, ,0.03491603106899093, ,0.11887523135407775, ,0.0015439998604172217, ,0.15118794147869322,-0.29710897913716533,0.09551712865,-4.525108980396035,0.1397791392600456,-1.3260930191673825, ,0.05662108684872958,-0.31738107544639055,0.019935934317897377,0.05189288024298781,0.009043682752204279,0.20579094309887236, ,0.25529003143310547
0.011565360625207424,0.02626043393690313,-0.08418132821183612, ,0.01196535842283596,0.02716367969638375,-0.0846601986578582, ,0.0010978014593726812, ,0.006310015845037102,0.03287504658842775,-0.009926945021245241,0.11876805196046637,-0.005046836573706829,0.009501559966013947, ,0.03491603106899093, ,0.11887523135407775, ,0.0015403424964742338, ,0.15118794147869322,-0.29710897913716533,0.09551712865,-4.525108980396035,0.1397791392600456,-1.3260930191673825, ,0.05662108684872958,-0.31738107544639055,0.019935934317897377,0.05189288024298781,0.009043682752204279,0.20579094309887236, ,0.25730395317077637
0.01163187886002098,0.02658415427088142,-0.08429943940274534, ,0.011980533756211498,0.0272277791286349,-0.08469253071921945, ,0.0008308633926483668, ,0.006723203685102121,0.03091145349625788,-0.013241968456853605,0.09734169080630688,-0.013478571769183937,0.023723487288146237, ,0.034293864664907484, ,0.09827042413060963, ,0.0015345743736789018, ,0.15175170097851162,-0.30016718135535825,0.09573360908,-4.525108980396035,0.1397791392600456,-1.323969371923728, ,0.05526903992922002,-0.2841225795163796,0.02262615272727273,0.03060354935590673,0.0074447626029347565,0.19086569592070574, ,0.25925397872924805
0.01163187886002098,0.02658415427088142,-0.08429943940274534, ,0.011995723967068269,0.027291789530240355,-0.08472487510546678, ,0.0009022895651398862, ,0.006723203685102121,0.03091145349625788,-0.013241968456853605,0.09734169080630688,-0.013478571769183937,0.023723487288146237, ,0.034293864664907484, ,0.09827042413060963, ,0.0015294753026422966, ,0.15175170097851162,-0.30016718135535825,0.09573360908,-4.525108980396035,0.1397791392600456,-1.323969371923728, ,0.05526903992922002,-0.2841225795163796,0.02262615272727273,0.03060354935590673,0.0074447626029347565,0.19086569592070574, ,0.2611508369445801
0.01163187886002098,0.02658415427088142,-0.08429943940274534, ,0.012010929072105044,0.027355711004502042,-0.08475723194651477, ,0.0009739367893283344, ,0.006723203685102121,0.03091145349625788,-0.013241968456853605,0.09734169080630688,-0.013478571769183937,0.023723487288146237, ,0.034293864664907484, ,0.09827042413060963, ,0.001525030994535785, ,0.15175170097851162,-0.30016718135535825,0.09573360908,-4.525108980396035,0.1397791392600456,-1.323969371923728, ,0.05526903992922002,-0.2841225795163796,0.02262615272727273,0.03060354935590673,0.0074447626029347565,0.19086569592070574, ,0.2630479335784912
0.01163187886002098,0.02658415427088142,-0.08429943940274534, ,0.012026149087995592,0.027419543654500524,-0.08478960137189265, ,0.0010457452801371013, ,0.006723203685102121,0.03091145349625788,-0.013241968456853605,0.09734169080630688,-0.013478571769183937,0.023723487288146237, ,0.034293864664907484, ,0.09827042413060963, ,0.0015212271396596048, ,0.15175170097851162,-0.30016718135535825,0.09573360908,-4.525108980396035,0.1397791392600456,-1.323969371923728, ,0.05526903992922002,-0.2841225795163796,0.02262615272727273,0.03060354935590673,0.0074447626029347565,0.19086569592070574, ,0.2650449275970459
0.01163187886002098,0.02658415427088142,-0.08429943940274534, ,0.012041384031388842,0.02748328758309523,-0.0848219835107443, ,0.0011176705880151022, ,0.006723203685102121,0.03091145349625788,-0.013241968456853605,0.09734169080630688,-0.013478571769183937,0.023723487288146237, ,0.034293864664907484, ,0.09827042413060963, ,0.0015180495290167348, ,0.15175170097851162,-0.30016718135535825,0.09573360908,-4.525108980396035,0.1397791392600456,-1.323969371923728, ,0.05526903992922002,-0.2841225795163796,0.02262615272727273,0.03060354935590673,0.0074447626029347565,0.19086569592070574, ,0.26697397232055664
0.011700274439712634,0.026882688253540524,-0.084440875504119, ,0.01205663391890878,0.027546942892924794,-0.08485437849182825, ,0.0008597738221189093, ,0.006723203685102121,0.03091145349625788,-0.013241968456853605,0.09734169080630688,-0.013478571769183937,0.023723487288146237, ,0.034293864664907484, ,0.09827042413060963, ,0.0015129067500565955, ,0.15229229227970734,-0.3028546923955884,0.09596564499000002,-4.524479910565582,0.1397791392600456,-1.321927403420214, ,0.05595338535287192,-0.2711341187384879,0.025816550275526744,0.026831493986437836,-0.015753228378583718,0.25050130671991655, ,0.2689478397369385
0.011700274439712634,0.026882688253540524,-0.084440875504119, ,0.012071898767154456,0.027610509686407495,-0.08488678644351913, ,0.0009309485725666204, ,0.007504009738664758,0.03082339453566209,-0.016491936034493178,0.02165130131842954,-0.02890180849959704,0.020427210268006254, ,0.03575438108854457, ,0.03611221626172182, ,0.0015083954463551228, ,0.15229229227970734,-0.3028546923955884,0.09596564499000002,-4.524479910565582,0.1397791392600456,-1.321927403420214, ,0.05595338535287192,-0.2711341187384879,0.025816550275526744,0.026831493986437836,-0.015753228378583718,0.25050130671991655, ,0.2710459232330322
0.011700274439712634,0.026882688253540524,-0.084440875504119, ,0.01208717859270003,0.02767398806574121,-0.0849192074938066, ,0.0010023231558465779, ,0.007504009738664758,0.03082339453566209,-0.016491936034493178,0.02165130131842954,-0.02890180849959704,0.020427210268006254, ,0.03575438108854457, ,0.03611221626172182, ,0.0015045025825819803, ,0.15229229227970734,-0.3028546923955884,0.09596564499000002,-4.524479910565582,0.1397791392600456,-1.321927403420214, ,0.05595338535287192,-0.2711341187384879,0.025816550275526744,0.026831493986437836,-0.015753228378583718,0.25050130671991655, ,0.27320003509521484
0.011700274439712634,0.026882688253540524,-0.084440875504119, ,0.012102473412094718,0.027737378132904254,-0.0849516417702965, ,0.0010738440212325544, ,0.007504009738664758,0.03082339453566209,-0.016491936034493178,0.02165130131842954,-0.02890180849959704,0.020427210268006254, ,0.03575438108854457, ,0.03611221626172182, ,0.0015012151126480152, ,0.15229229227970734,-0.3028546923955884,0.09596564499000002,-4.524479910565582,0.1397791392600456,-1.321927403420214, ,0.05595338535287192,-0.2711341187384879,0.025816550275526744,0.026831493986437836,-0.015753228378583718,0.25050130671991655, ,0.2751309871673584
0.011700274439712634,0.026882688253540524,-0.084440875504119, ,0.01211778324186279,0.02780067998965524,-0.08498408940021158, ,0.0011454709792726582, ,0.007504009738664758,0.03082339453566209,-0.016491936034493178,0.02165130131842954,-0.02890180849959704,0.020427210268006254, ,0.03575438108854457, ,0.03611221626172182, ,0.0014985200813345653, ,0.15229229227970734,-0.3028546923955884,0.09596564499000002,-4.524479910565582,0.1397791392600456,-1.321927403420214, ,0.05595338535287192,-0.2711341187384879,0.025816550275526744,0.026831493986437836,-0.015753228378583718,0.25050130671991655, ,0.27704882621765137
0.011769035921398174,0.027156763016571425,-0.08460863281383105, ,0.01213310809850355,0.02786389373753362,-0.0850165505103912, ,0.0008938563944156258, ,0.007760755689606623,0.029259964209287007,-0.02017044616455112,0.004243775147872474,0.013015172467589934,-0.09771056560730872, ,0.036376114867857634, ,0.013689448607078233, ,0.0014939737378238968, ,0.1527865471836577,-0.3051715122578557,0.09621582896000001,-4.523221770904676,0.1397791392600456,-1.3198037561765594, ,0.051912987723452285,-0.23903511727574503,0.02890891382940109,0.1476060190936874,-0.014821827077327892,0.2538857946206317, ,0.2791109085083008
0.011769035921398174,0.027156763016571425,-0.08460863281383105, ,0.01214844799849144,0.027927019477859777,-0.08504902522729141, ,0.0009649839471380456, ,0.007760755689606623,0.029259964209287007,-0.02017044616455112,0.004243775147872474,0.013015172467589934,-0.09771056560730872, ,0.036376114867857634, ,0.013689448607078233, ,0.0014900260528187784, ,0.1527865471836577,-0.3051715122578557,0.09621582896000001,-4.523221770904676,0.1397791392600456,-1.3198037561765594, ,0.051912987723452285,-0.23903511727574503,0.02890891382940109,0.1476060190936874,-0.014821827077327892,0.2538857946206317, ,0.2812328338623047
0.011769035921398174,0.027156763016571425,-0.08460863281383105, ,0.012163802958275884,0.027990057311735764,-0.08508151367698638, ,0.001036260925875898, ,0.007760755689606623,0.029259964209287007,-0.02017044616455112,0.004243775147872474,0.013015172467589934,-0.09771056560730872, ,0.036376114867857634, ,0.013689448607078233, ,0.0014866648296562384, ,0.1527865471836577,-0.3051715122578557,0.09621582896000001,-4.523221770904676,0.1397791392600456,-1.3198037561765594, ,0.051912987723452285,-0.23903511727574503,0.02890891382940109,0.1476060190936874,-0.014821827077327892,0.2538857946206317, ,0.2832949161529541
0.011769035921398174,0.027156763016571425,-0.08460863281383105, ,0.012179172994281307,0.028053007340045167,-0.08511401598516793, ,0.0011076454558127248, ,0.007760755689606623,0.029259964209287007,-0.02017044616455112,0.004243775147872474,0.013015172467589934,-0.09771056560730872, ,0.036376114867857634, ,0.013689448607078233, ,0.0014838779224956244, ,0.1527865471836577,-0.3051715122578557,0.09621582896000001,-4.523221770904676,0.1397791392600456,-1.3198037561765594, ,0.051912987723452285,-0.23903511727574503,0.02890891382940109,0.1476060190936874,-0.014821827077327892,0.2538857946206317, ,0.28529882431030273
0.011769035921398174,0.027156763016571425,-0.08460863281383105, ,0.012194558122907323,0.028115869663453655,-0.08514653227714643, ,0.0011791058208260362, ,0.007760755689606623,0.029259964209287007,-0.02017044616455112,0.004243775147872474,0.013015172467589934,-0.09771056560730872, ,0.036376114867857634, ,0.013689448607078233, ,0.0014816533086148243, ,0.1527865471836577,-0.3051715122578557,0.09621582896000001,-4.523221770904676,0.1397791392600456,-1.3198037561765594, ,0.051912987723452285,-0.23903511727574503,0.02890891382940109,0.1476060190936874,-0.014821827077327892,0.2538857946206317, ,0.2873399257659912
0.011850383982833768,0.02746877240678317,-0.08483603265968079, ,0.012209958360528413,0.028178644382409194,-0.08517906267785025, ,0.000866534216427157, ,0.007623423250293939,0.028433065810910953,-0.02056209384034409,-0.0382264098962802,-0.009110393768848934,-0.005809688905208222, ,0.035907596919869646, ,0.039296997499942254, ,0.0014771959238888267, ,0.1533194157519792,-0.30768140044197867,0.09653601259000001,-4.522592701074221,0.1397791392600456,-1.3169450002716396, ,0.049893239515494625,-0.2286673290565561,0.029067174306569344,0.05022805826577742,-0.012236334775172598,0.27252811431022145, ,0.2911200523376465
0.011850383982833768,0.02746877240678317,-0.08483603265968079, ,0.012225373723494247,0.028241331597142375,-0.08521160731182714, ,0.0009372946855412873, ,0.007623423250293939,0.028433065810910953,-0.02056209384034409,-0.0382264098962802,-0.009110393768848934,-0.005809688905208222, ,0.035907596919869646, ,0.039296997499942254, ,0.001473311742317981, ,0.1533194157519792,-0.30768140044197867,0.09653601259000001,-4.522592701074221,0.1397791392600456,-1.3169450002716396, ,0.049893239515494625,-0.2286673290565561,0.029067174306569344,0.05022805826577742,-0.012236334775172598,0.27252811431022145, ,0.29306697845458984
0.011850383982833768,0.02746877240678317,-0.08483603265968079, ,0.0122408042281294,0.028303931407666898,-0.08524416630324431, ,0.00100821207873257, ,0.007623423250293939,0.028433065810910953,-0.02056209384034409,-0.0382264098962802,-0.009110393768848934,-0.005809688905208222, ,0.035907596919869646, ,0.039296997499942254, ,0.0014699896018637996, ,0.1533194157519792,-0.30768140044197867,0.09653601259000001,-4.522592701074221,0.1397791392600456,-1.3169450002716396, ,0.049893239515494625,-0.2286673290565561,0.029067174306569344,0.05022805826577742,-0.012236334775172598,0.27252811431022145, ,0.2949869632720947
0.011850383982833768,0.02746877240678317,-0.08483603265968079, ,0.012256249890733517,0.028366443913779495,-0.08527673977588837, ,0.0010792423416195024, ,0.007623423250293939,0.028433065810910953,-0.02056209384034409,-0.0382264098962802,-0.009110393768848934,-0.005809688905208222, ,0.035907596919869646, ,0.039296997499942254, ,0.0014672183446989464, ,0.1533194157519792,-0.30768140044197867,0.09653601259000001,-4.522592701074221,0.1397791392600456,-1.3169450002716396, ,0.049893239515494625,-0.2286673290565561,0.029067174306569344,0.05022805826577742,-0.012236334775172598,0.27252811431022145, ,0.2969050407409668
0.011850383982833768,0.02746877240678317,-0.08483603265968079, ,0.012271710727581249,0.02842886921506074,-0.0853093278531662, ,0.0011503523144153166, ,0.006777265531742188,0.025255450889352445,-0.019029818602876444,-0.08822055015868578,0.0012546030217344788,0.015539911808064123, ,0.03234042553477948, ,0.08822945655195495, ,0.0014649868937814561, ,0.15379050245730688,-0.3098978247768811,0.09682119639,-4.522592701074221,0.13964250276028015,-1.3139748264630238, ,0.04367093490955857,-0.19936332260182937,0.026592339766277135,0.02679590983458133,-0.0029460531281426095,0.2916308355958503, ,0.29906296730041504
0.01192382590757635,0.027745345572353513,-0.08503850969383919, ,0.012287186754922325,0.02849120741087494,-0.08534193065810503, ,0.0008834054952865952, ,0.006777265531742188,0.025255450889352445,-0.019029818602876444,-0.08822055015868578,0.0012546030217344788,0.015539911808064123, ,0.03234042553477948, ,0.08822945655195495, ,0.0014609198909947786, ,0.15379050245730688,-0.3098978247768811,0.09682119639,-4.522592701074221,0.13964250276028015,-1.3139748264630238, ,0.04367093490955857,-0.19936332260182937,0.026592339766277135,0.02679590983458133,-0.0029460531281426095,0.2916308355958503, ,0.3010408878326416
0.01192382590757635,0.027745345572353513,-0.08503850969383919, ,0.012302677988981367,0.02855345860037065,-0.0853745483133526, ,0.0009536757936743581, ,0.006777265531742188,0.025255450889352445,-0.019029818602876444,-0.08822055015868578,0.0012546030217344788,0.015539911808064123, ,0.03234042553477948, ,0.08822945655195495, ,0.0014573973625411647, ,0.15379050245730688,-0.3098978247768811,0.09682119639,-4.522592701074221,0.13964250276028015,-1.3139748264630238, ,0.04367093490955857,-0.19936332260182937,0.026592339766277135,0.02679590983458133,-0.0029460531281426095,0.2916308355958503, ,0.30290794372558594
0.01192382590757635,0.027745345572353513,-0.08503850969383919, ,0.012318184445958082,0.028615622882480894,-0.08540718094117819, ,0.0010241190076996027, ,0.006777265531742188,0.025255450889352445,-0.019029818602876444,-0.08822055015868578,0.0012546030217344788,0.015539911808064123, ,0.03234042553477948, ,0.08822945655195495, ,0.0014544092359560505, ,0.15379050245730688,-0.3098978247768811,0.09682119639,-4.522592701074221,0.13964250276028015,-1.3139748264630238, ,0.04367093490955857,-0.19936332260182937,0.026592339766277135,0.02679590983458133,-0.0029460531281426095,0.2916308355958503, ,0.30629396438598633
0.01192382590757635,0.027745345572353513,-0.08503850969383919, ,0.012333706142027157,0.028677700355923666,-0.08543982866347223, ,0.0010946890720322914, ,0.006777265531742188,0.025255450889352445,-0.019029818602876444,-0.08822055015868578,0.0012546030217344788,0.015539911808064123, ,0.03234042553477948, ,0.08822945655195495, ,0.0014519453992168465, ,0.15379050245730688,-0.3098978247768811,0.09682119639,-4.522592701074221,0.13964250276028015,-1.3139748264630238, ,0.04367093490955857,-0.19936332260182937,0.026592339766277135,0.02679590983458133,-0.0029460531281426095,0.2916308355958503, ,0.30826783180236816
0.01199063530784736,0.027998525182311013,-0.08522555554530559, ,0.01234924309333824,0.028739691119201962,-0.08547249160174741, ,0.0008595951987960096, ,0.006688080419741238,0.02468822584625909,-0.01814434045584666,-0.11565182500829102,0.0038058603609965377,0.017675833036458127, ,0.031360102131761235, ,0.11571442102988513, ,0.0014479158060167047, ,0.15422297549826347,-0.3118980125913053,0.09708434326000001,-4.521963631243768,0.13964250276028015,-1.3107893555975418, ,0.04405614742733091,-0.19526119662236785,0.025609021736334413,0.025000555080131742,-0.0027292789177723194,0.31501348105122695, ,0.31119203567504883
0.01199063530784736,0.027998525182311013,-0.08522555554530559, ,0.012364795316016038,0.02880159527060426,-0.08550516987713833, ,0.0009290325360235658, ,0.006688080419741238,0.02468822584625909,-0.01814434045584666,-0.11565182500829102,0.0038058603609965377,0.017675833036458127, ,0.031360102131761235, ,0.11571442102988513, ,0.0014444098379762106, ,0.15422297549826347,-0.3118980125913053,0.09708434326000001,-4.521963631243768,0.13964250276028015,-1.3107893555975418, ,0.04405614742733091,-0.19526119662236785,0.025609021736334413,0.025000555080131742,-0.0027292789177723194,0.31501348105122695, ,0.313262939453125
0.01199063530784736,0.027998525182311013,-0.08522555554530559, ,0.012380362826160207,0.028863412908204943,-0.0855378636104023, ,0.0009987265113416783, ,0.006688080419741238,0.02468822584625909,-0.01814434045584666,-0.11565182500829102,0.0038058603609965377,0.017675833036458127, ,0.031360102131761235, ,0.11571442102988513, ,0.0014414186747102068, ,0.15422297549826347,-0.3118980125913053,0.09708434326000001,-4.521963631243768,0.13964250276028015,-1.3107893555975418, ,0.04405614742733091,-0.19526119662236785,0.025609021736334413,0.025000555080131742,-0.0027292789177723194,0.31501348105122695, ,0.3151888847351074
0.01199063530784736,0.027998525182311013,-0.08522555554530559, ,0.01239594563984531,0.028925144129864286,-0.08557057292191945, ,0.0010686141162059104, ,0.006688080419741238,0.02468822584625909,-0.01814434045584666,-0.11565182500829102,0.0038058603609965377,0.017675833036458127, ,0.031360102131761235, ,0.11571442102988513, ,0.0014389333109868449, ,0.15422297549826347,-0.3118980125913053,0.09708434326000001,-4.521963631243768,0.13964250276028015,-1.3107893555975418, ,0.04405614742733091,-0.19526119662236785,0.025609021736334413,0.025000555080131742,-0.0027292789177723194,0.31501348105122695, ,0.31717491149902344
0.012055087290670622,0.028230720596849737,-0.08539605577727605, ,0.012411543773121035,0.028986789033228988,-0.0856032979316932, ,0.0008611910443898908, ,0.006688080419741238,0.02468822584625909,-0.01814434045584666,-0.11565182500829102,0.0038058603609965377,0.017675833036458127, ,0.031360102131761235, ,0.11571442102988513, ,0.0014351072032610373, ,0.15465544853922003,-0.31372057754962224,0.09732545320000001,-4.52112487146983,0.13964250276028015,-1.307930599692622, ,0.04432365322674954,-0.18075607915899194,0.024811232897196264,0.10853274983749006,-0.0025278974601229353,0.3012156111041742, ,0.3192780017852783
0.012055087290670622,0.028230720596849737,-0.08539605577727605, ,0.012427157242011906,0.029048347715732604,-0.08563603875935075, ,0.0009298074993832156, ,0.006676634276590645,0.02336934851265675,-0.017697942610511913,-0.10404317395401197,0.027807195083227154,-0.06340774882864628, ,0.030065280105369553, ,0.10769503427997429, ,0.001431782863103946, ,0.15465544853922003,-0.31372057754962224,0.09732545320000001,-4.52112487146983,0.13964250276028015,-1.307930599692622, ,0.04432365322674954,-0.18075607915899194,0.024811232897196264,0.10853274983749006,-0.0025278974601229353,0.3012156111041742, ,0.3228929042816162
0.012055087290670622,0.028230720596849737,-0.08539605577727605, ,0.012442786062517482,0.029109820274595574,-0.08566879552414333, ,0.0009987560015467377, ,0.006676634276590645,0.02336934851265675,-0.017697942610511913,-0.10404317395401197,0.027807195083227154,-0.06340774882864628, ,0.030065280105369553, ,0.10769503427997429, ,0.0014289526221787357, ,0.15465544853922003,-0.31372057754962224,0.09732545320000001,-4.52112487146983,0.13964250276028015,-1.307930599692622, ,0.04432365322674954,-0.18075607915899194,0.024811232897196264,0.10853274983749006,-0.0025278974601229353,0.3012156111041742, ,0.32509398460388184
0.012055087290670622,0.028230720596849737,-0.08539605577727605, ,0.012458430250612279,0.02917120680682566,-0.08570156834494631, ,0.001067959635704389, ,0.006676634276590645,0.02336934851265675,-0.017697942610511913,-0.10404317395401197,0.027807195083227154,-0.06340774882864628, ,0.030065280105369553, ,0.10769503427997429, ,0.001426608511876954, ,0.15465544853922003,-0.31372057754962224,0.09732545320000001,-4.52112487146983,0.13964250276028015,-1.307930599692622, ,0.04432365322674954,-0.18075607915899194,0.024811232897196264,0.10853274983749006,-0.0025278974601229353,0.3012156111041742, ,0.3271820545196533
0.012118376560240621,0.02845483769606147,-0.08555958649072169, ,0.012474089822245724,0.02923250740921826,-0.08573435734026022, ,0.0008728384486123974, ,0.005927876901471878,0.021690485181388934,-0.015020184532025365,-0.06979200976618778,0.005886767593534137,-0.0026552047799400283, ,0.027041131916751393, ,0.07003983077796487, ,0.0014230358017913761, ,0.15507247611442815,-0.3154813606449454,0.09755748911,-4.52070549158286,0.1395058662605147,-1.3050421046241465, ,0.04081588884235302,-0.17253989374267414,0.02170137809264305,0.04133702498616855,-1.6720800625469888e-05,0.24883172853749097, ,0.32944297790527344
0.012118376560240621,0.02845483769606147,-0.08555958649072169, ,0.012489764793342292,0.02929372217835688,-0.08576716262821031, ,0.0009406084451976352, ,0.005927876901471878,0.021690485181388934,-0.015020184532025365,-0.06979200976618778,0.005886767593534137,-0.0026552047799400283, ,0.027041131916751393, ,0.07003983077796487, ,0.0014199433187362881, ,0.15507247611442815,-0.3154813606449454,0.09755748911,-4.52070549158286,0.1395058662605147,-1.3050421046241465, ,0.04081588884235302,-0.17253989374267414,0.02170137809264305,0.04133702498616855,-1.6720800625469888e-05,0.24883172853749097, ,0.33132195472717285
0.012118376560240621,0.02845483769606147,-0.08555958649072169, ,0.012505455179801277,0.02935485121061305,-0.08579998432654744, ,0.0010087840718241796, ,0.005927876901471878,0.021690485181388934,-0.015020184532025365,-0.06979200976618778,0.005886767593534137,-0.0026552047799400283, ,0.027041131916751393, ,0.07003983077796487, ,0.0014173244700298416, ,0.15507247611442815,-0.3154813606449454,0.09755748911,-4.52070549158286,0.1395058662605147,-1.3050421046241465, ,0.04081588884235302,-0.17253989374267414,0.02170137809264305,0.04133702498616855,-1.6720800625469888e-05,0.24883172853749097, ,0.33326101303100586
0.012118376560240621,0.02845483769606147,-0.08555958649072169, ,0.012521160997496967,0.029415894602146966,-0.0858328225526482, ,0.0010772760208821327, ,0.005927876901471878,0.021690485181388934,-0.015020184532025365,-0.06979200976618778,0.005886767593534137,-0.0026552047799400283, ,0.027041131916751393, ,0.07003983077796487, ,0.001415172264655489, ,0.15507247611442815,-0.3154813606449454,0.09755748911,-4.52070549158286,0.1395058662605147,-1.3050421046241465, ,0.04081588884235302,-0.17253989374267414,0.02170137809264305,0.04133702498616855,-1.6720800625469888e-05,0.24883172853749097, ,0.3351588249206543
0.012118376560240621,0.02845483769606147,-0.08555958649072169, ,0.012536882262278653,0.029476852448907853,-0.08586567742351572, ,0.0011460160717951216, ,0.005927876901471878,0.021690485181388934,-0.015020184532025365,-0.06979200976618778,0.005886767593534137,-0.0026552047799400283, ,0.027041131916751393, ,0.07003983077796487, ,0.0014134794584110843, ,0.15507247611442815,-0.3154813606449454,0.09755748911,-4.52070549158286,0.1395058662605147,-1.3050421046241465, ,0.04081588884235302,-0.17253989374267414,0.02170137809264305,0.04133702498616855,-1.6720800625469888e-05,0.24883172853749097, ,0.33707094192504883
0.012118376560240621,0.02845483769606147,-0.08555958649072169, ,0.012552618989970477,0.029537724846633903,-0.08589854905577908, ,0.0012149513114371531, ,0.005927876901471878,0.021690485181388934,-0.015020184532025365,-0.06979200976618778,0.005886767593534137,-0.0026552047799400283, ,0.027041131916751393, ,0.07003983077796487, ,0.0014122386574924972, ,0.15507247611442815,-0.3154813606449454,0.09755748911,-4.52070549158286,0.1395058662605147,-1.3050421046241465, ,0.04081588884235302,-0.17253989374267414,0.02170137809264305,0.04133702498616855,-1.6720800625469888e-05,0.24883172853749097, ,0.3390688896179199
0.012118376560240621,0.02845483769606147,-0.08555958649072169, ,0.012568371196371591,0.029598511890852986,-0.08593143756569453, ,0.0012840401311240725, ,0.005927876901471878,0.021690485181388934,-0.015020184532025365,-0.06979200976618778,0.005886767593534137,-0.0026552047799400283, ,0.027041131916751393, ,0.07003983077796487, ,0.0014114423933535628, ,0.15507247611442815,-0.3154813606449454,0.09755748911,-4.52070549158286,0.1395058662605147,-1.3050421046241465, ,0.04081588884235302,-0.17253989374267414,0.02170137809264305,0.04133702498616855,-1.6720800625469888e-05,0.24883172853749097, ,0.3413350582122803
0.01219648392116329,0.028734387223655178,-0.08573766250315945, ,0.012584138897255927,0.029659213676882772,-0.0859643430691459, ,0.0010280877531003128, ,0.005843632734404235,0.02097406067546188,-0.01245176264093609,-0.025078914289555297,-0.009416326704954675,0.03761043911483646, ,0.025081978742092278, ,0.026788408896845677, ,0.0014090760066853328, ,0.15565940381286922,-0.31775184410996743,0.09782322856,-4.520495801639376,0.13964250276028015,-1.3022130878827827, ,0.04534015363519865,-0.17316960138407075,0.019099294388489212,0.0,0.009447626055694625,0.19948378006046388, ,0.34326982498168945
0.01219648392116329,0.028734387223655178,-0.08573766250315945, ,0.012599922108372507,0.02971983029983101,-0.08599726568164436, ,0.0010960174440039767, ,0.005843632734404235,0.02097406067546188,-0.01245176264093609,-0.025078914289555297,-0.009416326704954675,0.03761043911483646, ,0.025081978742092278, ,0.026788408896845677, ,0.001407155402006306, ,0.15565940381286922,-0.31775184410996743,0.09782322856,-4.520495801639376,0.13964250276028015,-1.3022130878827827, ,0.04534015363519865,-0.17316960138407075,0.019099294388489212,0.0,0.009447626055694625,0.19948378006046388, ,0.3453218936920166
0.01219648392116329,0.028734387223655178,-0.08573766250315945, ,0.01261572084544512,0.029780361854595892,-0.08603020551832884, ,0.0011642181681185224, ,0.005843632734404235,0.02097406067546188,-0.01245176264093609,-0.025078914289555297,-0.009416326704954675,0.03761043911483646, ,0.025081978742092278, ,0.026788408896845677, ,0.0014056740774094293, ,0.15565940381286922,-0.31775184410996743,0.09782322856,-4.520495801639376,0.13964250276028015,-1.3022130878827827, ,0.04534015363519865,-0.17316960138407075,0.019099294388489212,0.0,0.009447626055694625,0.19948378006046388, ,0.34728384017944336
