NicholasDascanio/dvrk_moveit_final/test/execution/noob_justexecution/no_ramp/noob__noramp_600vel5.csv
Current Position (x),Current Position (y),Current Position (z), ,Planned Position (x),Planned Position (y),Planned Position (z), ,Position Error,,Cartesian linear Velocity(x),Cartesian linear Velocity(y),Cartesian linear Velocity(z),Cartesian Angular Velocity(x),Cartesian Angular Velocity(y),Cartesian Angular Velocity(z), ,Total Linear Velocity, ,Total Angular Velocity, ,MSE, ,Joint 1 Position,Joint 2 Position,Joint 3 Position,Joint 4 Position,Joint 5 Position,Joint 6 Position, ,Joint 1 Velocity,Joint 2 Velocity,Joint 3 Velocity,Joint 4 Velocity,Joint 5 Velocity,Joint 6 Velocity, ,Time Stamp
0.009894775465595943,0.018805093923682775,-0.080620775793005, ,0.010126599271608559,0.01872008016653918,-0.08078216274482698, ,0.00029498366760930277, ,3.4226182439261114e-05,-1.8953570653525242e-06,-4.5266291667221194e-06,-0.00016569266946958665,-0.0006392497937612772,0.000978106336578602, ,3.4576210237441967e-05, ,0.0006603744086045379, ,0.00014749183380465138, ,0.13905552813328653,-0.22462340837969408,0.08997030374000001,-4.537690377005107,0.1541259717354168,-1.3861457132187196, ,0.00041267892076212327,2.851646510174587e-05,8.012702024925636e-06,-0.0010171859407605234,0.0,0.0, ,0.0019299983978271484
0.009895398078016432,0.018805093923682775,-0.08062069937589308, ,0.010143932719228758,0.018814595043090993,-0.0808219686298526, ,0.00031995163969257404, ,3.4226182439261114e-05,-1.8953570653525242e-06,-4.5266291667221194e-06,-0.00016569266946958665,-0.0006392497937612772,0.000978106336578602, ,3.4576210237441967e-05, ,0.0006603744086045379, ,0.00020497843576729226, ,0.13906325086616075,-0.22462340837969408,0.08997030374000001,-4.537690377005107,0.1541259717354168,-1.3861457132187196, ,-0.0005011325279293637,2.851646510174587e-05,7.844250014115327e-06,-0.0010171859407605234,0.0,0.0, ,0.004220008850097656
0.009895398078016432,0.018805093923682775,-0.08062069937589308, ,0.010161284701889876,0.018908949529909444,-0.08086176416812212, ,0.0003736226943748914, ,-3.9468664729164896e-05,-1.9328785426147994e-06,-1.3406258286685734e-05,-0.00016570022311860545,0.00027456165493020945,0.000978105056949209, ,4.1728159271804164e-05, ,0.00032068780191889284, ,0.00024713950041919204, ,0.13906325086616075,-0.22462340837969408,0.08997030374000001,-4.537690377005107,0.1541259717354168,-1.3861457132187196, ,-0.0005011325279293637,2.851646510174587e-05,7.844250014115327e-06,-0.0010171859407605234,0.0,0.0, ,0.006420135498046875
0.009895398078016432,0.018805093923682775,-0.08062069937589308, ,0.010178655260810084,0.019003143882961447,-0.08090154971221146, ,0.0004453485482008723, ,-3.9468664729164896e-05,-1.9328785426147994e-06,-1.3406258286685734e-05,-0.00016570022311860545,0.00027456165493020945,0.000978105056949209, ,4.1728159271804164e-05, ,0.00032068780191889284, ,0.00028678130997552805, ,0.13906325086616075,-0.22462340837969408,0.08997030374000001,-4.537690377005107,0.1541259717354168,-1.3861457132187196, ,-0.0005011325279293637,2.851646510174587e-05,7.844250014115327e-06,-0.0010171859407605234,0.0,0.0, ,0.008368968963623047
0.009895398078016432,0.018805093923682775,-0.08062069937589308, ,0.010196044437142594,0.019097178357583046,-0.0809413256136445, ,0.0005277335825180067, ,-3.9468664729164896e-05,-1.9328785426147994e-06,-1.3406258286685734e-05,-0.00016570022311860545,0.00027456165493020945,0.000978105056949209, ,4.1728159271804164e-05, ,0.00032068780191889284, ,0.0003269400220659412, ,0.13906325086616075,-0.22462340837969408,0.08997030374000001,-4.537690377005107,0.1541259717354168,-1.3861457132187196, ,-0.0005011325279293637,2.851646510174587e-05,7.844250014115327e-06,-0.0010171859407605234,0.0,0.0, ,0.010246992111206055
0.009895398078016432,0.018805093923682775,-0.08062069937589308, ,0.010213452271975173,0.019191053208480316,-0.08098109222289447, ,0.0006164463025973466, ,-3.9468664729164896e-05,-1.9328785426147994e-06,-1.3406258286685734e-05,-0.00016570022311860545,0.00027456165493020945,0.000978105056949209, ,4.1728159271804164e-05, ,0.00032068780191889284, ,0.00036829806214185625, ,0.13906325086616075,-0.22462340837969408,0.08997030374000001,-4.537690377005107,0.1541259717354168,-1.3861457132187196, ,-0.0005011325279293637,2.851646510174587e-05,7.844250014115327e-06,-0.0010171859407605234,0.0,0.0, ,0.012147188186645508
0.009897353119714932,0.018818884532763747,-0.08063466691119639, ,0.010230878806330251,0.019284768689730322,-0.08102084988938478, ,0.0006909592780961344, ,-3.9468664729164896e-05,-1.9328785426147994e-06,-1.3406258286685734e-05,-0.00016570022311860545,0.00027456165493020945,0.000978105056949209, ,4.1728159271804164e-05, ,0.00032068780191889284, ,0.000408630714136141, ,0.13906325086616075,-0.22462340837969408,0.08997030374000001,-4.537690377005107,0.1541259717354168,-1.3861457132187196, ,-0.0005011325279293637,2.851646510174587e-05,7.844250014115327e-06,-0.0010171859407605234,0.0,0.0, ,0.01414799690246582
0.009897353119714932,0.018818884532763747,-0.08063466691119639, ,0.010248324081165577,0.01937832505478216,-0.08106059896149012, ,0.0007858577638003241, ,0.0005084635655408609,0.0036781204141863467,-0.0030935510426684356,0.11808350266170835,-0.012443622268340618,0.0014421337622988295, ,0.0048329248941331405, ,0.11873734600255936, ,0.00045054483076549463, ,0.13906325086616075,-0.22474697210568167,0.08998715551000001,-4.537690377005107,0.1541259717354168,-1.3867991431398443, ,0.0009230350094882235,-0.03464656500856911,0.0038822353204971977,-0.0010171859407605234,0.0,-0.08477682412242071, ,0.01622319221496582
0.009897353119714932,0.018818884532763747,-0.08063466691119639, ,0.010265788137373395,0.019471722556457963,-0.08110033978653867, ,0.0008824925349528536, ,0.0005084635655408609,0.0036781204141863467,-0.0030935510426684356,0.11808350266170835,-0.012443622268340618,0.0014421337622988295, ,0.0048329248941331405, ,0.11873734600255936, ,0.0004937396011842305, ,0.13906325086616075,-0.22474697210568167,0.08998715551000001,-4.537690377005107,0.1541259717354168,-1.3867991431398443, ,0.0009230350094882235,-0.03464656500856911,0.0038822353204971977,-0.0010171859407605234,0.0,-0.08477682412242071, ,0.018198013305664062
0.009897353119714932,0.018818884532763747,-0.08063466691119639, ,0.010283271015781295,0.01956496144695378,-0.08114007271081096, ,0.0009803052619850865, ,0.0005084635655408609,0.0036781204141863467,-0.0030935510426684356,0.11808350266170835,-0.012443622268340618,0.0014421337622988295, ,0.0048329248941331405, ,0.11873734600255936, ,0.0005379728430752174, ,0.13906325086616075,-0.22474697210568167,0.08998715551000001,-4.537690377005107,0.1541259717354168,-1.3867991431398443, ,0.0009230350094882235,-0.03464656500856911,0.0038822353204971977,-0.0010171859407605234,0.0,-0.08477682412242071, ,0.020133018493652344
0.009897353119714932,0.018818884532763747,-0.08063466691119639, ,0.010300772757150621,0.019658041977840247,-0.0811797980795436, ,0.0010789349434510232, ,0.0005084635655408609,0.0036781204141863467,-0.0030935510426684356,0.11808350266170835,-0.012443622268340618,0.0014421337622988295, ,0.0048329248941331405, ,0.11873734600255936, ,0.0005830530181065345, ,0.13906325086616075,-0.22474697210568167,0.08998715551000001,-4.537690377005107,0.1541259717354168,-1.3867991431398443, ,0.0009230350094882235,-0.03464656500856911,0.0038822353204971977,-0.0010171859407605234,0.0,-0.08477682412242071, ,0.022173166275024414
0.009923596056289542,0.018873072634820187,-0.08069059068014134, ,0.010318293402178593,0.01975096440006405,-0.08121951623692811, ,0.001098290576740528, ,0.0005084635655408609,0.0036781204141863467,-0.0030935510426684356,0.11808350266170835,-0.012443622268340618,0.0014421337622988295, ,0.0048329248941331405, ,0.11873734600255936, ,0.0006226866764629957, ,0.13910958726340608,-0.2252566724753805,0.09005456259000001,-4.537900066948591,0.15248633373823153,-1.385707164515909, ,0.0052413742435021,-0.05733954172717268,0.010037058298676748,0.0010701710190054795,-0.24123409613760521,0.2654491452788945, ,0.024572134017944336
0.009923596056289542,0.018873072634820187,-0.08069059068014134, ,0.010335832991496558,0.01984372896394868,-0.08125922752611345, ,0.001198107199971347, ,0.0038026096781250997,0.006611577768015276,-0.008673773792585087,-0.2399358956234887,-0.20117940024673453,-0.038272671541252815, ,0.011550201416062857, ,0.3131172065587998, ,0.0006637881424278779, ,0.13910958726340608,-0.2252566724753805,0.09005456259000001,-4.537900066948591,0.15248633373823153,-1.385707164515909, ,0.0052413742435021,-0.05733954172717268,0.010037058298676748,0.0010701710190054795,-0.24123409613760521,0.2654491452788945, ,0.02674698829650879
0.009923596056289542,0.018873072634820187,-0.08069059068014134, ,0.010353391565671385,0.01993633591919532,-0.08129893228920657, ,0.0012982035684379633, ,0.0038026096781250997,0.006611577768015276,-0.008673773792585087,-0.2399358956234887,-0.20117940024673453,-0.038272671541252815, ,0.011550201416062857, ,0.3131172065587998, ,0.0007060825041618836, ,0.13910958726340608,-0.2252566724753805,0.09005456259000001,-4.537900066948591,0.15248633373823153,-1.385707164515909, ,0.0052413742435021,-0.05733954172717268,0.010037058298676748,0.0010701710190054795,-0.24123409613760521,0.2654491452788945, ,0.028702974319458008
0.009923596056289542,0.018873072634820187,-0.08069059068014134, ,0.010370969165204297,0.020028785514883688,-0.08133863086727355, ,0.0013984888429526643, ,0.0038026096781250997,0.006611577768015276,-0.008673773792585087,-0.2399358956234887,-0.20117940024673453,-0.038272671541252815, ,0.011550201416062857, ,0.3131172065587998, ,0.0007493579003363073, ,0.13910958726340608,-0.2252566724753805,0.09005456259000001,-4.537900066948591,0.15248633373823153,-1.385707164515909, ,0.0052413742435021,-0.05733954172717268,0.010037058298676748,0.0010701710190054795,-0.24123409613760521,0.2654491452788945, ,0.032137155532836914
0.009923596056289542,0.018873072634820187,-0.08069059068014134, ,0.01038856583053078,0.020121077999473193,-0.08137832360034067, ,0.0014988965443573905, ,0.0038026096781250997,0.006611577768015276,-0.008673773792585087,-0.2399358956234887,-0.20117940024673453,-0.038272671541252815, ,0.011550201416062857, ,0.3131172065587998, ,0.0007934484088081358, ,0.13921770552364524,-0.22605211396142563,0.09025548754000001,-4.537061307174653,0.14948033074339184,-1.3822758257529009, ,0.013013842780920293,-0.0956622394742649,0.027654186666666667,0.08616430444866767,-0.2808613765670345,0.3465727853484535, ,0.03408002853393555
0.00998894714880821,0.018990052443783108,-0.08088702466367605, ,0.010406181602022257,0.020213213620804138,-0.08141801082739623, ,0.0013971951044798926, ,0.007070538751685614,0.01399894992109087,-0.025288861350800513,-0.27480229799314804,-0.20532303733294271,-0.11875429646716475, ,0.029757177714835624, ,0.3430362113523053, ,0.0008269898919010111, ,0.13921770552364524,-0.22605211396142563,0.09025548754000001,-4.537061307174653,0.14948033074339184,-1.3822758257529009, ,0.013013842780920293,-0.0956622394742649,0.027654186666666667,0.08616430444866767,-0.2808613765670345,0.3465727853484535, ,0.03630208969116211
0.00998894714880821,0.018990052443783108,-0.08088702466367605, ,0.010423816519983984,0.020305192626097843,-0.08145769288638993, ,0.00149812125328395, ,0.007070538751685614,0.01399894992109087,-0.025288861350800513,-0.27480229799314804,-0.20532303733294271,-0.11875429646716475, ,0.029757177714835624, ,0.3430362113523053, ,0.000862312595131692, ,0.13921770552364524,-0.22605211396142563,0.09025548754000001,-4.537061307174653,0.14948033074339184,-1.3822758257529009, ,0.013013842780920293,-0.0956622394742649,0.027654186666666667,0.08616430444866767,-0.2808613765670345,0.3465727853484535, ,0.03822612762451172
0.00998894714880821,0.018990052443783108,-0.08088702466367605, ,0.01044147062465639,0.02039701526195853,-0.08149737011423612, ,0.0015990132697827183, ,0.007070538751685614,0.01399894992109087,-0.025288861350800513,-0.27480229799314804,-0.20532303733294271,-0.11875429646716475, ,0.029757177714835624, ,0.3430362113523053, ,0.0008991476288642433, ,0.13921770552364524,-0.22605211396142563,0.09025548754000001,-4.537061307174653,0.14948033074339184,-1.3822758257529009, ,0.013013842780920293,-0.0956622394742649,0.027654186666666667,0.08616430444866767,-0.2808613765670345,0.3465727853484535, ,0.04010415077209473
0.00998894714880821,0.018990052443783108,-0.08088702466367605, ,0.010459143956214494,0.020488681774373737,-0.08153704284681329, ,0.0016998525073107437, ,0.007070538751685614,0.01399894992109087,-0.025288861350800513,-0.27480229799314804,-0.20532303733294271,-0.11875429646716475, ,0.029757177714835624, ,0.3430362113523053, ,0.000937276432599791, ,0.13921770552364524,-0.22605211396142563,0.09025548754000001,-4.537061307174653,0.14948033074339184,-1.3822758257529009, ,0.013013842780920293,-0.0956622394742649,0.027654186666666667,0.08616430444866767,-0.2808613765670345,0.3465727853484535, ,0.041993141174316406
0.010055266065283579,0.019133109726652574,-0.08115482819993627, ,0.010476836554768894,0.0205801924087155,-0.08157671141896564, ,0.0015651694530720611, ,0.007487761635584863,0.01744530401741129,-0.033602196928948794,-0.21304295708695722,-0.12195491733870967,-0.11061126593163186, ,0.03859420740244705, ,0.24547965412339448, ,0.0009658170244394395, ,0.13934899198250705,-0.22707151470082326,0.09057178230000001,-4.536012857457231,0.1472941467471448,-1.3790229219712282, ,0.013705508601743323,-0.11230407285026127,0.03713009678321679,0.09977403063238549,-0.18097325367548495,0.31514019872285237, ,0.04683709144592285
0.010055266065283579,0.019133109726652574,-0.08115482819993627, ,0.01049454846036332,0.02067154740974105,-0.0816163761645049, ,0.001665168475251399, ,0.007487761635584863,0.01744530401741129,-0.033602196928948794,-0.21304295708695722,-0.12195491733870967,-0.11061126593163186, ,0.03859420740244705, ,0.24547965412339448, ,0.0009962236092573508, ,0.13934899198250705,-0.22707151470082326,0.09057178230000001,-4.536012857457231,0.1472941467471448,-1.3790229219712282, ,0.013705508601743323,-0.11230407285026127,0.03713009678321679,0.09977403063238549,-0.18097325367548495,0.31514019872285237, ,0.048911094665527344
0.010055266065283579,0.019133109726652574,-0.08115482819993627, ,0.0105122797129779,0.02076274702159414,-0.08165603741621016, ,0.001765160011364756, ,0.007487761635584863,0.01744530401741129,-0.033602196928948794,-0.21304295708695722,-0.12195491733870967,-0.11061126593163186, ,0.03859420740244705, ,0.24547965412339448, ,0.001028262626011826, ,0.13934899198250705,-0.22707151470082326,0.09057178230000001,-4.536012857457231,0.1472941467471448,-1.3790229219712282, ,0.013705508601743323,-0.11230407285026127,0.03713009678321679,0.09977403063238549,-0.18097325367548495,0.31514019872285237, ,0.05090212821960449
0.010055266065283579,0.019133109726652574,-0.08115482819993627, ,0.010530030352526702,0.020853791487805733,-0.08169569550582993, ,0.0018651231311072394, ,0.007487761635584863,0.01744530401741129,-0.033602196928948794,-0.21304295708695722,-0.12195491733870967,-0.11061126593163186, ,0.03859420740244705, ,0.24547965412339448, ,0.0010617370462156425, ,0.13934899198250705,-0.22707151470082326,0.09057178230000001,-4.536012857457231,0.1472941467471448,-1.3790229219712282, ,0.013705508601743323,-0.11230407285026127,0.03713009678321679,0.09977403063238549,-0.18097325367548495,0.31514019872285237, ,0.05291008949279785
0.010122609054968314,0.019317159996067434,-0.081473224105143, ,0.010547800418858347,0.020944681051294906,-0.08173535076408282, ,0.0017024461420151776, ,0.006669031626135106,0.02040531572494258,-0.03431145025093407,-0.20368908658963997,-0.008130043554021946,-0.0029952522142419856, ,0.0404738003032493, ,0.20385115660452116, ,0.0010863797037463938, ,0.13950344663999154,-0.2283457656250703,0.09092826205000001,-4.535593477570262,0.14620105474902126,-1.376007931498002, ,0.017263405777418733,-0.1424879002379441,0.038568550895883784,0.027699797101690564,-0.04620103095086377,0.34550282084840456, ,0.0549321174621582
0.010122609054968314,0.019317159996067434,-0.081473224105143, ,0.010565589951756774,0.02103541595437008,-0.08177500352065882, ,0.0017999184505946726, ,0.006669031626135106,0.02040531572494258,-0.03431145025093407,-0.20368908658963997,-0.008130043554021946,-0.0029952522142419856, ,0.0404738003032493, ,0.20385115660452116, ,0.0011128070647407745, ,0.13950344663999154,-0.2283457656250703,0.09092826205000001,-4.535593477570262,0.14620105474902126,-1.376007931498002, ,0.017263405777418733,-0.1424879002379441,0.038568550895883784,0.027699797101690564,-0.04620103095086377,0.34550282084840456, ,0.056948184967041016
0.010122609054968314,0.019317159996067434,-0.081473224105143, ,0.010583398990940272,0.021125996438729762,-0.08181465410422036, ,0.0018975750540271938, ,0.006669031626135106,0.02040531572494258,-0.03431145025093407,-0.20368908658963997,-0.008130043554021946,-0.0029952522142419856, ,0.0404738003032493, ,0.20385115660452116, ,0.0011408344929295753, ,0.13950344663999154,-0.2283457656250703,0.09092826205000001,-4.535593477570262,0.14620105474902126,-1.376007931498002, ,0.017263405777418733,-0.1424879002379441,0.038568550895883784,0.027699797101690564,-0.04620103095086377,0.34550282084840456, ,0.058984994888305664
0.010122609054968314,0.019317159996067434,-0.081473224105143, ,0.010601227576062112,0.021216422745463568,-0.0818543028424034, ,0.0019953685584296844, ,0.006669031626135106,0.02040531572494258,-0.03431145025093407,-0.20368908658963997,-0.008130043554021946,-0.0029952522142419856, ,0.0404738003032493, ,0.20385115660452116, ,0.001170301184843372, ,0.13950344663999154,-0.2283457656250703,0.09092826205000001,-4.535593477570262,0.14620105474902126,-1.376007931498002, ,0.017263405777418733,-0.1424879002379441,0.038568550895883784,0.027699797101690564,-0.04620103095086377,0.34550282084840456, ,0.061309099197387695
0.010122609054968314,0.019317159996067434,-0.081473224105143, ,0.010619075746709963,0.02130669511505315,-0.08189395006181854, ,0.002093260494135157, ,0.006669031626135106,0.02040531572494258,-0.03431145025093407,-0.20368908658963997,-0.008130043554021946,-0.0029952522142419856, ,0.0404738003032493, ,0.20385115660452116, ,0.0012010664951530982, ,0.13950344663999154,-0.2283457656250703,0.09092826205000001,-4.535593477570262,0.14620105474902126,-1.376007931498002, ,0.017263405777418733,-0.1424879002379441,0.038568550895883784,0.027699797101690564,-0.04620103095086377,0.34550282084840456, ,0.06332898139953613
0.010122609054968314,0.019317159996067434,-0.081473224105143, ,0.010636943542406524,0.021396813787373178,-0.08193359608805166, ,0.002191219345320758, ,0.006723937729366313,0.024948956519295136,-0.03275691717896738,-0.015502266334596171,0.003596854274675868,0.03678449487421971, ,0.041721426066947946, ,0.015912884939414864, ,0.0012330069096746356, ,0.13973512862621829,-0.2301065487203935,0.09135214888000001,-4.5353837876267775,0.14606441824925584,-1.3727927214689641, ,0.02541428536648923,-0.1968816214906033,0.038198588776978425,0.0,0.0,0.21266102183914803, ,0.06546401977539062
0.010195484318740197,0.019558450384427477,-0.08184574586199016, ,0.010654831002608892,0.021486779001692276,-0.08197324124566618, ,0.001986380050494425, ,0.006723937729366313,0.024948956519295136,-0.03275691717896738,-0.015502266334596171,0.003596854274675868,0.03678449487421971, ,0.041721426066947946, ,0.015912884939414864, ,0.001256549820325254, ,0.13973512862621829,-0.2301065487203935,0.09135214888000001,-4.5353837876267775,0.14606441824925584,-1.3727927214689641, ,0.02541428536648923,-0.1968816214906033,0.038198588776978425,0.0,0.0,0.21266102183914803, ,0.06755208969116211
0.010195484318740197,0.019558450384427477,-0.08184574586199016, ,0.010672738166709222,0.021576590996674007,-0.08201288585820307, ,0.0020805284291578645, ,0.006723937729366313,0.024948956519295136,-0.03275691717896738,-0.015502266334596171,0.003596854274675868,0.03678449487421971, ,0.041721426066947946, ,0.015912884939414864, ,0.0012815188690777574, ,0.13973512862621829,-0.2301065487203935,0.09135214888000001,-4.5353837876267775,0.14606441824925584,-1.3727927214689641, ,0.02541428536648923,-0.1968816214906033,0.038198588776978425,0.0,0.0,0.21266102183914803, ,0.06984114646911621
0.010195484318740197,0.019558450384427477,-0.08184574586199016, ,0.010690665074033769,0.021666250010377714,-0.08205253024818246, ,0.0021750363274993818, ,0.006723937729366313,0.024948956519295136,-0.03275691717896738,-0.015502266334596171,0.003596854274675868,0.03678449487421971, ,0.041721426066947946, ,0.015912884939414864, ,0.0013077987943254522, ,0.13973512862621829,-0.2301065487203935,0.09135214888000001,-4.5353837876267775,0.14606441824925584,-1.3727927214689641, ,0.02541428536648923,-0.1968816214906033,0.038198588776978425,0.0,0.0,0.21266102183914803, ,0.07182908058166504
0.010195484318740197,0.019558450384427477,-0.08184574586199016, ,0.010708611763844425,0.021755756280259733,-0.08209217473710437, ,0.0022698414405566835, ,0.006723937729366313,0.024948956519295136,-0.03275691717896738,-0.015502266334596171,0.003596854274675868,0.03678449487421971, ,0.041721426066947946, ,0.015912884939414864, ,0.001335285727074916, ,0.13973512862621829,-0.2301065487203935,0.09135214888000001,-4.5353837876267775,0.14606441824925584,-1.3727927214689641, ,0.02541428536648923,-0.1968816214906033,0.038198588776978425,0.0,0.0,0.21266102183914803, ,0.07379817962646484
0.010269233084229378,0.019837528392560456,-0.08215236303993996, ,0.01072657827533648,0.021845110043174007,-0.08213181964545013, ,0.002059118922929461, ,0.007200740130324327,0.028047150793633836,-0.026110376905576098,0.15186493755768957,-0.006519026989156772,-0.13619171390528445, ,0.03899032069907274, ,0.15200475267754596, ,0.0013553922047375422, ,0.14008265160555838,-0.2324388140484093,0.09172159153000001,-4.533915958022385,0.1459277817494904,-1.371374443723019, ,0.0389560515428862,-0.24584699885614195,0.03257425668711657,0.1757814486034768,-0.024639748507306748,0.1130909638164792, ,0.07594013214111328
0.010269233084229378,0.019837528392560456,-0.08215236303993996, ,0.010744564647641324,0.021934311535373414,-0.08217146529268363, ,0.0021500708219079926, ,0.007200740130324327,0.028047150793633836,-0.026110376905576098,0.15186493755768957,-0.006519026989156772,-0.13619171390528445, ,0.03899032069907274, ,0.15200475267754596, ,0.0013768700052016083, ,0.14008265160555838,-0.2324388140484093,0.09172159153000001,-4.533915958022385,0.1459277817494904,-1.371374443723019, ,0.0389560515428862,-0.24584699885614195,0.03257425668711657,0.1757814486034768,-0.024639748507306748,0.1130909638164792, ,0.0779120922088623
0.010269233084229378,0.019837528392560456,-0.08215236303993996, ,0.010762570919823968,0.02202336099251031,-0.08221111199725203, ,0.0022415837738121547, ,0.007200740130324327,0.028047150793633836,-0.026110376905576098,0.15186493755768957,-0.006519026989156772,-0.13619171390528445, ,0.03899032069907274, ,0.15200475267754596, ,0.0013996256306913594, ,0.14008265160555838,-0.2324388140484093,0.09172159153000001,-4.533915958022385,0.1459277817494904,-1.371374443723019, ,0.0389560515428862,-0.24584699885614195,0.03257425668711657,0.1757814486034768,-0.024639748507306748,0.1130909638164792, ,0.0798501968383789
0.010269233084229378,0.019837528392560456,-0.08215236303993996, ,0.010780597130884395,0.02211225864963785,-0.08225076007658716, ,0.0023335751343155266, ,0.007200740130324327,0.028047150793633836,-0.026110376905576098,0.15186493755768957,-0.006519026989156772,-0.13619171390528445, ,0.03899032069907274, ,0.15200475267754596, ,0.00142357305386121, ,0.14008265160555838,-0.2324388140484093,0.09172159153000001,-4.533915958022385,0.1459277817494904,-1.371374443723019, ,0.0389560515428862,-0.24584699885614195,0.03257425668711657,0.1757814486034768,-0.024639748507306748,0.1130909638164792, ,0.08183407783508301
0.010269233084229378,0.019837528392560456,-0.08215236303993996, ,0.010798643319757658,0.022201004741210662,-0.08229040984710591, ,0.002425974560682723, ,0.007200740130324327,0.028047150793633836,-0.026110376905576098,0.15186493755768957,-0.006519026989156772,-0.13619171390528445, ,0.03899032069907274, ,0.15200475267754596, ,0.0014486330915317476, ,0.14008265160555838,-0.2324388140484093,0.09172159153000001,-4.533915958022385,0.1459277817494904,-1.371374443723019, ,0.0389560515428862,-0.24584699885614195,0.03257425668711657,0.1757814486034768,-0.024639748507306748,0.1130909638164792, ,0.08380413055419922
0.010347848139399908,0.020123847890679863,-0.082369065441688, ,0.01081670952531233,0.0222895995010861,-0.08233006162421289, ,0.0022162654026435004, ,0.00874731165893838,0.03128105227984231,-0.02039023533421831,0.01432330550924163,-0.18663930237252138,-0.10065063776295582, ,0.038350767788632764, ,0.1871880945632001, ,0.0014673558308271563, ,0.14049195644789228,-0.23510315689001676,0.09200547904,-4.5326578183614785,0.14442478025207056,-1.3694137381210931, ,0.04718893165513216,-0.30030677708376824,0.027847572587412592,0.10520044716082692,-0.21039918579914704,0.26971435486948936, ,0.08576798439025879
0.010347848139399908,0.020123847890679863,-0.082369065441688, ,0.01083479578635308,0.022378043162524886,-0.08236971572229966, ,0.002306190529281256, ,0.00874731165893838,0.03128105227984231,-0.02039023533421831,0.01432330550924163,-0.18663930237252138,-0.10065063776295582, ,0.038350767788632764, ,0.1871880945632001, ,0.0014873280855522539, ,0.14049195644789228,-0.23510315689001676,0.09200547904,-4.5326578183614785,0.14442478025207056,-1.3694137381210931, ,0.04718893165513216,-0.30030677708376824,0.027847572587412592,0.10520044716082692,-0.21039918579914704,0.26971435486948936, ,0.08784604072570801
0.010347848139399908,0.020123847890679863,-0.082369065441688, ,0.010852902141618121,0.022466335958192262,-0.08240937245474725, ,0.002396654866036486, ,0.00874731165893838,0.03128105227984231,-0.02039023533421831,0.01432330550924163,-0.18663930237252138,-0.10065063776295582, ,0.038350767788632764, ,0.1871880945632001, ,0.0015084752199821198, ,0.14049195644789228,-0.23510315689001676,0.09200547904,-4.5326578183614785,0.14442478025207056,-1.3694137381210931, ,0.04718893165513216,-0.30030677708376824,0.027847572587412592,0.10520044716082692,-0.21039918579914704,0.26971435486948936, ,0.08987712860107422
0.010347848139399908,0.020123847890679863,-0.082369065441688, ,0.010871028629780503,0.022554478120158802,-0.08244903213392663, ,0.00248758433220651, ,0.00874731165893838,0.03128105227984231,-0.02039023533421831,0.01432330550924163,-0.18663930237252138,-0.10065063776295582, ,0.038350767788632764, ,0.1871880945632001, ,0.0015307276998054015, ,0.14049195644789228,-0.23510315689001676,0.09200547904,-4.5326578183614785,0.14442478025207056,-1.3694137381210931, ,0.04718893165513216,-0.30030677708376824,0.027847572587412592,0.10520044716082692,-0.21039918579914704,0.26971435486948936, ,0.09177899360656738
0.010347848139399908,0.020123847890679863,-0.082369065441688, ,0.010889175289448574,0.022642469879901574,-0.08248869507119953, ,0.002578915092869093, ,0.00874731165893838,0.03128105227984231,-0.02039023533421831,0.01432330550924163,-0.18663930237252138,-0.10065063776295582, ,0.038350767788632764, ,0.1871880945632001, ,0.0015540207529845945, ,0.14049195644789228,-0.23510315689001676,0.09200547904,-4.5326578183614785,0.14442478025207056,-1.3694137381210931, ,0.04718893165513216,-0.30030677708376824,0.027847572587412592,0.10520044716082692,-0.21039918579914704,0.26971435486948936, ,0.09364700317382812
0.010438131786360121,0.020471805941089306,-0.08256499068707869, ,0.010907342159164446,0.022730311468305016,-0.08252836157692066, ,0.0023070213007516972, ,0.008280021726397113,0.03562047476944761,-0.01764370539721281,-0.16739965919443994,-0.13169892943049774,0.004589554909655014, ,0.040603907727386264, ,0.21299589714766665, ,0.0015703903301099663, ,0.14101710228333955,-0.2385243275532982,0.09228547768,-4.53223843847451,0.14237523275558894,-1.365047071141008, ,0.05121259663166258,-0.35541925677329883,0.02632861408264463,0.025270623451793223,-0.1636805422665601,0.5043669335108212, ,0.09561514854431152
0.010438131786360121,0.020471805941089306,-0.08256499068707869, ,0.010925529277404693,0.022818003115661543,-0.08256803196043752, ,0.0023962902047938456, ,0.008280021726397113,0.03562047476944761,-0.01764370539721281,-0.16739965919443994,-0.13169892943049774,0.004589554909655014, ,0.040603907727386264, ,0.21299589714766665, ,0.0015879626678691977, ,0.14101710228333955,-0.2385243275532982,0.09228547768,-4.53223843847451,0.14237523275558894,-1.365047071141008, ,0.05121259663166258,-0.35541925677329883,0.02632861408264463,0.025270623451793223,-0.1636805422665601,0.5043669335108212, ,0.09765410423278809
0.010438131786360121,0.020471805941089306,-0.08256499068707869, ,0.010943736682582018,0.022905545051673287,-0.08260770653009195, ,0.00248607059688859, ,0.008280021726397113,0.03562047476944761,-0.01764370539721281,-0.16739965919443994,-0.13169892943049774,0.004589554909655014, ,0.040603907727386264, ,0.21299589714766665, ,0.0016066732497237682, ,0.14101710228333955,-0.2385243275532982,0.09228547768,-4.53223843847451,0.14237523275558894,-1.365047071141008, ,0.05121259663166258,-0.35541925677329883,0.02632861408264463,0.025270623451793223,-0.1636805422665601,0.5043669335108212, ,0.09976005554199219
0.010438131786360121,0.020471805941089306,-0.08256499068707869, ,0.010961964413042037,0.022992937505452136,-0.08264738559322196, ,0.0025762946077965165, ,0.008280021726397113,0.03562047476944761,-0.01764370539721281,-0.16739965919443994,-0.13169892943049774,0.004589554909655014, ,0.040603907727386264, ,0.21299589714766665, ,0.0016264614407048448, ,0.14101710228333955,-0.2385243275532982,0.09228547768,-4.53223843847451,0.14237523275558894,-1.365047071141008, ,0.05121259663166258,-0.35541925677329883,0.02632861408264463,0.025270623451793223,-0.1636805422665601,0.5043669335108212, ,0.10181498527526855
0.010438131786360121,0.020471805941089306,-0.08256499068707869, ,0.010980212507065348,0.023080180705521237,-0.08268706945616155, ,0.0026669033813294433, ,0.008280021726397113,0.03562047476944761,-0.01764370539721281,-0.16739965919443994,-0.13169892943049774,0.004589554909655014, ,0.040603907727386264, ,0.21299589714766665, ,0.0016472702795173365, ,0.14101710228333955,-0.2385243275532982,0.09228547768,-4.53223843847451,0.14237523275558894,-1.365047071141008, ,0.05121259663166258,-0.35541925677329883,0.02632861408264463,0.025270623451793223,-0.1636805422665601,0.5043669335108212, ,0.1037590503692627
0.010510165252282112,0.020829535317868717,-0.08272169604978537, ,0.010998481002867991,0.0231672748798161,-0.08272675842424279, ,0.0023882010299385056, ,0.00725580891256403,0.039315828133508396,-0.015663557007881714,-0.1871870959432146,-0.009583549637115236,0.0509700366796727, ,0.04293865534618398, ,0.18743226074619856, ,0.0016617983334471635, ,0.1415345253859126,-0.24212312107268683,0.09253047649000001,-4.531819058587541,0.14169205025676176,-1.3600793296549356, ,0.05514058196308587,-0.39872664520365875,0.025445385814696485,0.018851070474998035,-0.04195751514873465,0.58458393745579, ,0.1057271957397461
0.010510165252282112,0.020829535317868717,-0.08272169604978537, ,0.011016769938599288,0.023254220255684882,-0.08276645280179673, ,0.002477447985876133, ,0.00725580891256403,0.039315828133508396,-0.015663557007881714,-0.1871870959432146,-0.009583549637115236,0.0509700366796727, ,0.04293865534618398, ,0.18743226074619856, ,0.001677483903686182, ,0.1415345253859126,-0.24212312107268683,0.09253047649000001,-4.531819058587541,0.14169205025676176,-1.3600793296549356, ,0.05514058196308587,-0.39872664520365875,0.025445385814696485,0.018851070474998035,-0.04195751514873465,0.58458393745579, ,0.10788512229919434
0.010510165252282112,0.020829535317868717,-0.08272169604978537, ,0.011035079352343989,0.023341017059890036,-0.08280615289215415, ,0.0025671401035341082, ,0.00725580891256403,0.039315828133508396,-0.015663557007881714,-0.1871870959432146,-0.009583549637115236,0.0509700366796727, ,0.04293865534618398, ,0.18743226074619856, ,0.0016942698697210486, ,0.1415345253859126,-0.24212312107268683,0.09253047649000001,-4.531819058587541,0.14169205025676176,-1.3600793296549356, ,0.05514058196308587,-0.39872664520365875,0.025445385814696485,0.018851070474998035,-0.04195751514873465,0.58458393745579, ,0.10989809036254883
0.010510165252282112,0.020829535317868717,-0.08272169604978537, ,0.011053409282121616,0.02342766551860889,-0.08284585899764663, ,0.0026572186687542345, ,0.00725580891256403,0.039315828133508396,-0.015663557007881714,-0.1871870959432146,-0.009583549637115236,0.0509700366796727, ,0.04293865534618398, ,0.18743226074619856, ,0.00171210225488833, ,0.1415345253859126,-0.24212312107268683,0.09253047649000001,-4.531819058587541,0.14169205025676176,-1.3600793296549356, ,0.05514058196308587,-0.39872664520365875,0.025445385814696485,0.018851070474998035,-0.04195751514873465,0.58458393745579, ,0.11183500289916992
0.010510165252282112,0.020829535317868717,-0.08272169604978537, ,0.011071759765885368,0.02351416585743475,-0.08288557141960849, ,0.002747632557041524, ,0.00725580891256403,0.039315828133508396,-0.015663557007881714,-0.1871870959432146,-0.009583549637115236,0.0509700366796727, ,0.04293865534618398, ,0.18743226074619856, ,0.0017309300785638426, ,0.1415345253859126,-0.24212312107268683,0.09253047649000001,-4.531819058587541,0.14169205025676176,-1.3600793296549356, ,0.05514058196308587,-0.39872664520365875,0.025445385814696485,0.018851070474998035,-0.04195751514873465,0.58458393745579, ,0.11382198333740234
0.010582141856137005,0.021250320496176745,-0.08288572356759813, ,0.011090130841522959,0.023600518301377587,-0.08292529045837728, ,0.0024047968878244657, ,0.007142778096354269,0.043087314718149486,-0.016534678182754736,0.22613383402147147,0.025660858416510814,-0.06093596054592288, ,0.04670044487113463, ,0.22758512541033016, ,0.0017429634144434966, ,0.14212145308435364,-0.24636290142063608,0.09280010481,-4.530560918926633,0.14182868675652718,-1.3561884892917446, ,0.05814763575886691,-0.43331936784689856,0.027416198829604135,0.14214786365732157,0.01834814263029681,0.2274093694691835, ,0.11574816703796387
0.010582141856137005,0.021250320496176745,-0.08288572356759813, ,0.011108522546858034,0.023686723074865454,-0.08296501641329412, ,0.0024938768037702876, ,0.007142778096354269,0.043087314718149486,-0.016534678182754736,0.22613383402147147,0.025660858416510814,-0.06093596054592288, ,0.04670044487113463, ,0.22758512541033016, ,0.001756137333554493, ,0.14212145308435364,-0.24636290142063608,0.09280010481,-4.530560918926633,0.14182868675652718,-1.3561884892917446, ,0.05814763575886691,-0.43331936784689856,0.027416198829604135,0.14214786365732157,0.01834814263029681,0.2274093694691835, ,0.11771512031555176
0.010582141856137005,0.021250320496176745,-0.08288572356759813, ,0.011126934919647363,0.023772780401745068,-0.08300474958270641, ,0.002583364211550766, ,0.007142778096354269,0.043087314718149486,-0.016534678182754736,0.22613383402147147,0.025660858416510814,-0.06093596054592288, ,0.04670044487113463, ,0.22758512541033016, ,0.001770399865933739, ,0.14212145308435364,-0.24636290142063608,0.09280010481,-4.530560918926633,0.14182868675652718,-1.3561884892917446, ,0.05814763575886691,-0.43331936784689856,0.027416198829604135,0.14214786365732157,0.01834814263029681,0.2274093694691835, ,0.11986207962036133
0.010582141856137005,0.021250320496176745,-0.08288572356759813, ,0.011145367997582712,0.023858690505282876,-0.08304449026396772, ,0.0026732049406448907, ,0.007142778096354269,0.043087314718149486,-0.016534678182754736,0.22613383402147147,0.025660858416510814,-0.06093596054592288, ,0.04670044487113463, ,0.22758512541033016, ,0.0017857016468610467, ,0.14212145308435364,-0.24636290142063608,0.09280010481,-4.530560918926633,0.14182868675652718,-1.3561884892917446, ,0.05814763575886691,-0.43331936784689856,0.027416198829604135,0.14214786365732157,0.01834814263029681,0.2274093694691835, ,0.12193918228149414
0.010582141856137005,0.021250320496176745,-0.08288572356759813, ,0.011163821818290858,0.023944453608166074,-0.08308423875343933, ,0.002763351784065536, ,0.007142778096354269,0.043087314718149486,-0.016534678182754736,0.22613383402147147,0.025660858416510814,-0.06093596054592288, ,0.04670044487113463, ,0.22758512541033016, ,0.0018019958158144549, ,0.14212145308435364,-0.24636290142063608,0.09280010481,-4.530560918926633,0.14182868675652718,-1.3561884892917446, ,0.05814763575886691,-0.43331936784689856,0.027416198829604135,0.14214786365732157,0.01834814263029681,0.2274093694691835, ,0.12403702735900879
0.010639384320750055,0.02158444657624014,-0.08301064859203763, ,0.011182296419331574,0.024030069932503322,-0.08312399534649155, ,0.00250772299790695, ,0.008409240336804867,0.04621567111748343,-0.017618336545994394,0.1536426439892625,-0.05358036444086063,0.005130743097044769, ,0.05016980528693987, ,0.1627172879815453, ,0.001813565113881545, ,0.14258481705680712,-0.24973001295379796,0.09301010379,-4.529722159152695,0.14182868675652718,-1.3542281995283711, ,0.06398984595985892,-0.4651810860709353,0.029443274528650653,0.06282102918929927,-0.05089583435498026,0.3113780097549097, ,0.12599396705627441
0.010639384320750055,0.02158444657624014,-0.08301064859203763, ,0.01120079183820094,0.02411553969982621,-0.08316376033750401, ,0.0025971241802260473, ,0.008409240336804867,0.04621567111748343,-0.017618336545994394,0.1536426439892625,-0.05358036444086063,0.005130743097044769, ,0.05016980528693987, ,0.1627172879815453, ,0.0018262031633387145, ,0.14258481705680712,-0.24973001295379796,0.09301010379,-4.529722159152695,0.14182868675652718,-1.3542281995283711, ,0.06398984595985892,-0.4651810860709353,0.029443274528650653,0.06282102918929927,-0.05089583435498026,0.3113780097549097, ,0.12791109085083008
0.010639384320750055,0.02158444657624014,-0.08301064859203763, ,0.011219308112328416,0.02420086313108955,-0.08320353401986771, ,0.0026868479638412495, ,0.008409240336804867,0.04621567111748343,-0.017618336545994394,0.1536426439892625,-0.05358036444086063,0.005130743097044769, ,0.05016980528693987, ,0.1627172879815453, ,0.0018398641919181197, ,0.14258481705680712,-0.24973001295379796,0.09301010379,-4.529722159152695,0.14182868675652718,-1.3542281995283711, ,0.06398984595985892,-0.4651810860709353,0.029443274528650653,0.06282102918929927,-0.05089583435498026,0.3113780097549097, ,0.12983012199401855
0.010639384320750055,0.02158444657624014,-0.08301064859203763, ,0.011237845279078566,0.02428604044667278,-0.08324331668598552, ,0.0027768506264010742, ,0.008409240336804867,0.04621567111748343,-0.017618336545994394,0.1536426439892625,-0.05358036444086063,0.005130743097044769, ,0.05016980528693987, ,0.1627172879815453, ,0.001854504604956916, ,0.14258481705680712,-0.24973001295379796,0.09301010379,-4.529722159152695,0.14182868675652718,-1.3542281995283711, ,0.06398984595985892,-0.4651810860709353,0.029443274528650653,0.06282102918929927,-0.05089583435498026,0.3113780097549097, ,0.1318800449371338
0.010639384320750055,0.02158444657624014,-0.08301064859203763, ,0.011256403375749825,0.024371071866380864,-0.08328310862727366, ,0.002867093910684738, ,0.008409240336804867,0.04621567111748343,-0.017618336545994394,0.1536426439892625,-0.05358036444086063,0.005130743097044769, ,0.05016980528693987, ,0.1627172879815453, ,0.0018700829019681134, ,0.14258481705680712,-0.24973001295379796,0.09301010379,-4.529722159152695,0.14182868675652718,-1.3542281995283711, ,0.06398984595985892,-0.4651810860709353,0.029443274528650653,0.06282102918929927,-0.05089583435498026,0.3113780097549097, ,0.1337740421295166
0.010751046461039686,0.022221477563800548,-0.08325560043963277, ,0.011274982439575438,0.024455957609445154,-0.08332291013416251, ,0.0022960706824847153, ,0.008935387567618556,0.05141688488900496,-0.019607583890455714,0.22653550032874004,-0.04446608114740493,0.0732492050519996, ,0.055749390567915606, ,0.23085831668721224, ,0.0018765372622789708, ,0.1434574858715945,-0.2561089903079074,0.09341973143000001,-4.529512469209211,0.1415554137569963,-1.350493177894934, ,0.07024199967318341,-0.5129564408565989,0.03304732680497926,0.0076327247524797335,-0.016096478335857103,0.2828467805931313, ,0.13567209243774414
0.010751046461039686,0.022221477563800548,-0.08325560043963277, ,0.011293582507722817,0.024540697894524302,-0.08336272149609776, ,0.002384240597156909, ,0.008935387567618556,0.05141688488900496,-0.019607583890455714,0.22653550032874004,-0.04446608114740493,0.0732492050519996, ,0.055749390567915606, ,0.23085831668721224, ,0.001884114923993567, ,0.1434574858715945,-0.2561089903079074,0.09341973143000001,-4.529512469209211,0.1415554137569963,-1.350493177894934, ,0.07024199967318341,-0.5129564408565989,0.03304732680497926,0.0076327247524797335,-0.016096478335857103,0.2828467805931313, ,0.14083409309387207
0.010751046461039686,0.022221477563800548,-0.08325560043963277, ,0.011312203617295128,0.02462529293970542,-0.08340254300154165, ,0.002472815769917712, ,0.008935387567618556,0.05141688488900496,-0.019607583890455714,0.22653550032874004,-0.04446608114740493,0.0732492050519996, ,0.055749390567915606, ,0.23085831668721224, ,0.0018927722893748045, ,0.1434574858715945,-0.2561089903079074,0.09341973143000001,-4.529512469209211,0.1415554137569963,-1.350493177894934, ,0.07024199967318341,-0.5129564408565989,0.03304732680497926,0.0076327247524797335,-0.016096478335857103,0.2828467805931313, ,0.14278006553649902
0.010850301965157348,0.022743286006680987,-0.0834532266615819, ,0.01133084580532788,0.02470974296250467,-0.08344237493797367, ,0.0020243500441718214, ,0.010749388427478013,0.053093877338178,-0.01935846910095367,0.12549316629701507,-0.08640882171635986,-0.08095466906597887, ,0.057526163511039625, ,0.15236474834750655, ,0.0018946792133573698, ,0.1441834227617716,-0.2611055984775307,0.09374380393000001,-4.528464019491787,0.1408722312581691,-1.3469956537313919, ,0.08166690323448432,-0.5272052308803933,0.03367613429175476,0.1506856771403919,-0.1050656320163573,0.4158920802371444, ,0.1452929973602295
0.010850301965157348,0.022743286006680987,-0.0834532266615819, ,0.011349509108792141,0.024794048179868664,-0.08348221759189266, ,0.002110846687297241, ,0.010749388427478013,0.053093877338178,-0.01935846910095367,0.12549316629701507,-0.08640882171635986,-0.08095466906597887, ,0.057526163511039625, ,0.15236474834750655, ,0.0018977673201279394, ,0.1441834227617716,-0.2611055984775307,0.09374380393000001,-4.528464019491787,0.1408722312581691,-1.3469956537313919, ,0.08166690323448432,-0.5272052308803933,0.03367613429175476,0.1506856771403919,-0.1050656320163573,0.4158920802371444, ,0.1473100185394287
0.010850301965157348,0.022743286006680987,-0.0834532266615819, ,0.011368193564593804,0.024878208808175147,-0.08352207124881643, ,0.002197918709665582, ,0.010749388427478013,0.053093877338178,-0.01935846910095367,0.12549316629701507,-0.08640882171635986,-0.08095466906597887, ,0.057526163511039625, ,0.15236474834750655, ,0.0019019948044876245, ,0.1441834227617716,-0.2611055984775307,0.09374380393000001,-4.528464019491787,0.1408722312581691,-1.3469956537313919, ,0.08166690323448432,-0.5272052308803933,0.03367613429175476,0.1506856771403919,-0.1050656320163573,0.4158920802371444, ,0.1493229866027832
0.010850301965157348,0.022743286006680987,-0.0834532266615819, ,0.011386899209572844,0.024962225063233943,-0.08356193619328421, ,0.002285485703672933, ,0.010749388427478013,0.053093877338178,-0.01935846910095367,0.12549316629701507,-0.08640882171635986,-0.08095466906597887, ,0.057526163511039625, ,0.15236474834750655, ,0.001907321066976309, ,0.1441834227617716,-0.2611055984775307,0.09374380393000001,-4.528464019491787,0.1408722312581691,-1.3469956537313919, ,0.08166690323448432,-0.5272052308803933,0.03367613429175476,0.1506856771403919,-0.1050656320163573,0.4158920802371444, ,0.15153098106384277
0.010850301965157348,0.022743286006680987,-0.0834532266615819, ,0.011405626080502933,0.025046097160288005,-0.08360181270885704, ,0.00237347885933414, ,0.010749388427478013,0.053093877338178,-0.01935846910095367,0.12549316629701507,-0.08640882171635986,-0.08095466906597887, ,0.057526163511039625, ,0.15236474834750655, ,0.0019137067901592933, ,0.1441834227617716,-0.2611055984775307,0.09374380393000001,-4.528464019491787,0.1408722312581691,-1.3469956537313919, ,0.08166690323448432,-0.5272052308803933,0.03367613429175476,0.1506856771403919,-0.1050656320163573,0.4158920802371444, ,0.15558815002441406
0.010953951574204087,0.023261842524778087,-0.08362818949545905, ,0.01142437421409337,0.025129825314014385,-0.08364170107811883, ,0.0019263539975480613, ,0.010421870194781085,0.05306705781217079,-0.015966128248052172,0.18586760466537228,-0.060065320254661665,0.007378256165703768, ,0.05638834324956172, ,0.1953320458189449, ,0.0019138776983672495, ,0.1450715370423074,-0.26645745235936824,0.09407176530000001,-4.5272058798308805,0.14032568525910732,-1.3432828325109836, ,0.09046419595659749,-0.5331288851599482,0.030632329846153848,0.07584732316324116,-0.04034339068463919,0.35008662715917377, ,0.1577281951904297
0.010953951574204087,0.023261842524778087,-0.08362818949545905, ,0.01144314364698699,0.02521340973852507,-0.08368160158267791, ,0.0020126540499814842, ,0.010421870194781085,0.05306705781217079,-0.015966128248052172,0.18586760466537228,-0.060065320254661665,0.007378256165703768, ,0.05638834324956172, ,0.1953320458189449, ,0.0019151947163887728, ,0.1450715370423074,-0.26645745235936824,0.09407176530000001,-4.5272058798308805,0.14032568525910732,-1.3432828325109836, ,0.09046419595659749,-0.5331288851599482,0.030632329846153848,0.07584732316324116,-0.04034339068463919,0.35008662715917377, ,0.1596691608428955
0.010953951574204087,0.023261842524778087,-0.08362818949545905, ,0.01146193441576159,0.025296850647367947,-0.08372151450316767, ,0.002099527133282005, ,0.010421870194781085,0.05306705781217079,-0.015966128248052172,0.18586760466537228,-0.060065320254661665,0.007378256165703768, ,0.05638834324956172, ,0.1953320458189449, ,0.0019176201429268417, ,0.1450715370423074,-0.26645745235936824,0.09407176530000001,-4.5272058798308805,0.14032568525910732,-1.3432828325109836, ,0.09046419595659749,-0.5331288851599482,0.030632329846153848,0.07584732316324116,-0.04034339068463919,0.35008662715917377, ,0.16170501708984375
0.010953951574204087,0.023261842524778087,-0.08362818949545905, ,0.011480746556928776,0.0253801482535281,-0.08376144011924803, ,0.002186889993351101, ,0.010421870194781085,0.05306705781217079,-0.015966128248052172,0.18586760466537228,-0.060065320254661665,0.007378256165703768, ,0.05638834324956172, ,0.1953320458189449, ,0.0019211171539713127, ,0.1450715370423074,-0.26645745235936824,0.09407176530000001,-4.5272058798308805,0.14032568525910732,-1.3432828325109836, ,0.09046419595659749,-0.5331288851599482,0.030632329846153848,0.07584732316324116,-0.04034339068463919,0.35008662715917377, ,0.16359901428222656
0.011054003539382948,0.023804106103636192,-0.08376657212121168, ,0.011499580106934474,0.025463302769428056,-0.08380137870960655, ,0.0017183374383169124, ,0.009818301781176817,0.05284139104570073,-0.01224344053323826,0.22167429198686306,-0.06775453943710436,0.08517655011048325, ,0.055122713046455385, ,0.231797689952023, ,0.0019185174140270256, ,0.14600598772008858,-0.27196376089869034,0.09436213426000001,-4.526996189887396,0.14032568525910732,-1.3401790403856424, ,0.09177653922482666,-0.5391871679458567,0.02722873764102564,0.0,-0.020201760005320483,0.31211903848258005, ,0.16546297073364258
0.011054003539382948,0.023804106103636192,-0.08376657212121168, ,0.011518435102160014,0.025546314406929546,-0.0838413305519588, ,0.0018045983684841424, ,0.009818301781176817,0.05284139104570073,-0.01224344053323826,0.22167429198686306,-0.06775453943710436,0.08517655011048325, ,0.055122713046455385, ,0.231797689952023, ,0.0019170754007923057, ,0.14600598772008858,-0.27196376089869034,0.09436213426000001,-4.526996189887396,0.14032568525910732,-1.3401790403856424, ,0.09177653922482666,-0.5391871679458567,0.02722873764102564,0.0,-0.020201760005320483,0.31211903848258005, ,0.16736102104187012
0.011054003539382948,0.023804106103636192,-0.08376657212121168, ,0.011537311578920057,0.025629183377333782,-0.08388129592305041, ,0.0018914690763417112, ,0.009818301781176817,0.05284139104570073,-0.01224344053323826,0.22167429198686306,-0.06775453943710436,0.08517655011048325, ,0.055122713046455385, ,0.231797689952023, ,0.0019167553217366733, ,0.14600598772008858,-0.27196376089869034,0.09436213426000001,-4.526996189887396,0.14032568525910732,-1.3401790403856424, ,0.09177653922482666,-0.5391871679458567,0.02722873764102564,0.0,-0.020201760005320483,0.31211903848258005, ,0.16925311088562012
0.011054003539382948,0.023804106103636192,-0.08376657212121168, ,0.011556209573464005,0.025711909891382966,-0.08392127509865806, ,0.0019788530022311246, ,0.009818301781176817,0.05284139104570073,-0.01224344053323826,0.22167429198686306,-0.06775453943710436,0.08517655011048325, ,0.055122713046455385, ,0.231797689952023, ,0.001917521959767469, ,0.14600598772008858,-0.27196376089869034,0.09436213426000001,-4.526996189887396,0.14032568525910732,-1.3401790403856424, ,0.09177653922482666,-0.5391871679458567,0.02722873764102564,0.0,-0.020201760005320483,0.31211903848258005, ,0.17191004753112793
0.011054003539382948,0.023804106103636192,-0.08376657212121168, ,0.011575129121976217,0.02579449415926086,-0.0839612683535893, ,0.0020666695690672375, ,0.009818301781176817,0.05284139104570073,-0.01224344053323826,0.22167429198686306,-0.06775453943710436,0.08517655011048325, ,0.055122713046455385, ,0.231797689952023, ,0.0019193408330516126, ,0.14600598772008858,-0.27196376089869034,0.09436213426000001,-4.526996189887396,0.14032568525910732,-1.3401790403856424, ,0.09177653922482666,-0.5391871679458567,0.02722873764102564,0.0,-0.020201760005320483,0.31211903848258005, ,0.17401719093322754
0.01114754281595678,0.024337992896580073,-0.08387275014321613, ,0.011594070260573183,0.0258769363905937,-0.08400127596168597, ,0.0016075611100595413, ,0.009344571598355184,0.05294009739196927,-0.010465104756313853,0.21607651614500353,-0.05327022218584884,0.07207053700568142, ,0.05476763047447461, ,0.22254612392843476, ,0.0019155844508468888, ,0.14691727019924708,-0.27744690123938975,0.09462139226,-4.526996189887396,0.14032568525910732,-1.3370752482603008, ,0.08969465175658865,-0.5422682374769758,0.0257747759223301,0.01717016718330128,-0.013503463667874211,0.32416644115361665, ,0.17601919174194336
0.01114754281595678,0.024337992896580073,-0.08387275014321613, ,0.011613033025308915,0.02595923679445165,-0.08404129819582279, ,0.001695146411796343, ,0.009344571598355184,0.05294009739196927,-0.010465104756313853,0.21607651614500353,-0.05327022218584884,0.07207053700568142, ,0.05476763047447461, ,0.22254612392843476, ,0.0019129601884772397, ,0.14691727019924708,-0.27744690123938975,0.09462139226,-4.526996189887396,0.14032568525910732,-1.3370752482603008, ,0.08969465175658865,-0.5422682374769758,0.0257747759223301,0.01717016718330128,-0.013503463667874211,0.32416644115361665, ,0.17793917655944824
0.01114754281595678,0.024337992896580073,-0.08387275014321613, ,0.011632017452170138,0.02604139557934912,-0.08408133532791026, ,0.0017832005361351634, ,0.009344571598355184,0.05294009739196927,-0.010465104756313853,0.21607651614500353,-0.05327022218584884,0.07207053700568142, ,0.05476763047447461, ,0.22254612392843476, ,0.001911433604332039, ,0.14691727019924708,-0.27744690123938975,0.09462139226,-4.526996189887396,0.14032568525910732,-1.3370752482603008, ,0.08969465175658865,-0.5422682374769758,0.0257747759223301,0.01717016718330128,-0.013503463667874211,0.32416644115361665, ,0.17982196807861328
0.01114754281595678,0.024337992896580073,-0.08387275014321613, ,0.011651023577076631,0.0261234129532463,-0.08412138762889527, ,0.0018716405250070603, ,0.009344571598355184,0.05294009739196927,-0.010465104756313853,0.21607651614500353,-0.05327022218584884,0.07207053700568142, ,0.05476763047447461, ,0.22254612392843476, ,0.00191097089410733, ,0.14691727019924708,-0.27744690123938975,0.09462139226,-4.526996189887396,0.14032568525910732,-1.3370752482603008, ,0.08969465175658865,-0.5422682374769758,0.0257747759223301,0.01717016718330128,-0.013503463667874211,0.32416644115361665, ,0.1817951202392578
0.01114754281595678,0.024337992896580073,-0.08387275014321613, ,0.01167005143588444,0.026205289123549518,-0.08416145536876188, ,0.0019603982157741454, ,0.009344571598355184,0.05294009739196927,-0.010465104756313853,0.21607651614500353,-0.05327022218584884,0.07207053700568142, ,0.05476763047447461, ,0.22254612392843476, ,0.0019115390242414314, ,0.14691727019924708,-0.27744690123938975,0.09462139226,-4.526996189887396,0.14032568525910732,-1.3370752482603008, ,0.08969465175658865,-0.5422682374769758,0.0257747759223301,0.01717016718330128,-0.013503463667874211,0.32416644115361665, ,0.18389010429382324
0.011242254187981216,0.02486262214930826,-0.08397611873361999, ,0.011689101064383884,0.02628702429711277,-0.08420153881653226, ,0.001509770785053513, ,0.009248290600675661,0.05220299665037981,-0.010448648079430294,0.19271822811737113,-0.022180786756586027,0.023277729840394765, ,0.05403571027572315, ,0.1939904704497173, ,0.0019069734760688414, ,0.14782855267840556,-0.2827987551212273,0.09487805768,-4.526367120056943,0.1401890487593419,-1.333696680750982, ,0.08960995425729064,-0.5301505114998367,0.025816550275526744,0.07222622007873258,0.0,0.3453942861699194, ,0.185837984085083
0.011242254187981216,0.02486262214930826,-0.08397611873361999, ,0.011708172498297966,0.02636861868023824,-0.08424163824026878, ,0.0015986262951273415, ,0.009248290600675661,0.05220299665037981,-0.010448648079430294,0.19271822811737113,-0.022180786756586027,0.023277729840394765, ,0.05403571027572315, ,0.1939904704497173, ,0.001903508901002083, ,0.14782855267840556,-0.2827987551212273,0.09487805768,-4.526367120056943,0.1401890487593419,-1.333696680750982, ,0.08960995425729064,-0.5301505114998367,0.025816550275526744,0.07222622007873258,0.0,0.3453942861699194, ,0.18779301643371582
0.011242254187981216,0.02486262214930826,-0.08397611873361999, ,0.011727265773285265,0.02645007247867757,-0.08428175390707414, ,0.001687793721207135, ,0.009248290600675661,0.05220299665037981,-0.010448648079430294,0.19271822811737113,-0.022180786756586027,0.023277729840394765, ,0.05403571027572315, ,0.1939904704497173, ,0.001901112065671028, ,0.14782855267840556,-0.2827987551212273,0.09487805768,-4.526367120056943,0.1401890487593419,-1.333696680750982, ,0.08960995425729064,-0.5301505114998367,0.025816550275526744,0.07222622007873258,0.0,0.3453942861699194, ,0.18976998329162598
0.011242254187981216,0.02486262214930826,-0.08397611873361999, ,0.011746380924938345,0.026531385897632584,-0.08432188608309284, ,0.0017772088438329264, ,0.009248290600675661,0.05220299665037981,-0.010448648079430294,0.19271822811737113,-0.022180786756586027,0.023277729840394765, ,0.05403571027572315, ,0.1939904704497173, ,0.0018997504918046753, ,0.14782855267840556,-0.2827987551212273,0.09487805768,-4.526367120056943,0.1401890487593419,-1.333696680750982, ,0.08960995425729064,-0.5301505114998367,0.025816550275526744,0.07222622007873258,0.0,0.3453942861699194, ,0.1918489933013916
0.011242254187981216,0.02486262214930826,-0.08397611873361999, ,0.01176551798878479,0.026612559141756323,-0.08436203503351213, ,0.001866819721690343, ,0.009248290600675661,0.05220299665037981,-0.010448648079430294,0.19271822811737113,-0.022180786756586027,0.023277729840394765, ,0.05403571027572315, ,0.1939904704497173, ,0.0018993925486512585, ,0.14782855267840556,-0.2827987551212273,0.09487805768,-4.526367120056943,0.1401890487593419,-1.333696680750982, ,0.08960995425729064,-0.5301505114998367,0.025816550275526744,0.07222622007873258,0.0,0.3453942861699194, ,0.19378113746643066
0.011339471155596498,0.0253925661699318,-0.08409546370842122, ,0.011784677000283838,0.026693592415154125,-0.08440220102256354, ,0.0014088879709857405, ,0.009466447438130193,0.05187351165934782,-0.012864926787115757,0.14075202718388868,-0.021480940211364034,0.024058970382203393, ,0.054276893612376385, ,0.14238175303155165, ,0.0018941183058806615, ,0.14872438969181562,-0.28812744080444225,0.09515416745000001,-4.525738050226489,0.139915775759811,-1.3297166228971233, ,0.08698161462737927,-0.5157442476003846,0.028292738046181175,0.06907556381579039,-0.006683984560250169,0.38204471351511027, ,0.19566607475280762
0.011339471155596498,0.0253925661699318,-0.08409546370842122, ,0.011803857994833088,0.02677448592138434,-0.08444238431352342, ,0.0014985697321630664, ,0.009466447438130193,0.05187351165934782,-0.012864926787115757,0.14075202718388868,-0.021480940211364034,0.024058970382203393, ,0.054276893612376385, ,0.14238175303155165, ,0.0018899103423304742, ,0.14872438969181562,-0.28812744080444225,0.09515416745000001,-4.525738050226489,0.139915775759811,-1.3297166228971233, ,0.08698161462737927,-0.5157442476003846,0.028292738046181175,0.06907556381579039,-0.006683984560250169,0.38204471351511027, ,0.19760417938232422
0.011339471155596498,0.0253925661699318,-0.08409546370842122, ,0.011823061007296848,0.026855239863452632,-0.08448258516880111, ,0.0015884383851670482, ,0.009466447438130193,0.05187351165934782,-0.012864926787115757,0.14075202718388868,-0.021480940211364034,0.024058970382203393, ,0.054276893612376385, ,0.14238175303155165, ,0.0018867369533077012, ,0.14872438969181562,-0.28812744080444225,0.09515416745000001,-4.525738050226489,0.139915775759811,-1.3297166228971233, ,0.08698161462737927,-0.5157442476003846,0.028292738046181175,0.06907556381579039,-0.006683984560250169,0.38204471351511027, ,0.19969415664672852
0.011339471155596498,0.0253925661699318,-0.08409546370842122, ,0.011842286073870032,0.026935854443840553,-0.08452280384959121, ,0.0016784460475921972, ,0.009466447438130193,0.05187351165934782,-0.012864926787115757,0.14075202718388868,-0.021480940211364034,0.024058970382203393, ,0.054276893612376385, ,0.14238175303155165, ,0.0018845672563731649, ,0.14872438969181562,-0.28812744080444225,0.09515416745000001,-4.525738050226489,0.139915775759811,-1.3297166228971233, ,0.08698161462737927,-0.5157442476003846,0.028292738046181175,0.06907556381579039,-0.006683984560250169,0.38204471351511027, ,0.20168304443359375
0.011339471155596498,0.0253925661699318,-0.08409546370842122, ,0.011861533229283986,0.027016329864464398,-0.08456304061640041, ,0.0017685546384945004, ,0.009466447438130193,0.05187351165934782,-0.012864926787115757,0.14075202718388868,-0.021480940211364034,0.024058970382203393, ,0.054276893612376385, ,0.14238175303155165, ,0.0018833712500032818, ,0.14872438969181562,-0.28812744080444225,0.09515416745000001,-4.525738050226489,0.139915775759811,-1.3297166228971233, ,0.08698161462737927,-0.5157442476003846,0.028292738046181175,0.06907556381579039,-0.006683984560250169,0.38204471351511027, ,0.2037341594696045
0.01143781897171523,0.025902596300893272,-0.08425089151812887, ,0.011880802508670973,0.02709666632670469,-0.08460329572869665, ,0.0013214485870365915, ,0.010524162479128947,0.052052188515984095,-0.018821656693413135,0.08207664764410678,-0.021302691043051686,-0.045372826056194644, ,0.05634219631746135, ,0.08479609880247882, ,0.0018776373452791318, ,0.14872438969181562,-0.28812744080444225,0.09515416745000001,-4.525738050226489,0.139915775759811,-1.3297166228971233, ,0.08698161462737927,-0.5157442476003846,0.028292738046181175,0.06907556381579039,-0.006683984560250169,0.38204471351511027, ,0.20574498176574707
0.01143781897171523,0.025902596300893272,-0.08425089151812887, ,0.011900093947097602,0.02717686403139971,-0.0846435694449979, ,0.0014112591385443591, ,0.010524162479128947,0.052052188515984095,-0.018821656693413135,0.08207664764410678,-0.021302691043051686,-0.045372826056194644, ,0.05634219631746135, ,0.08479609880247882, ,0.0018729264543020131, ,0.14956616757510607,-0.2930854353096944,0.09546138818000001,-4.524689600509067,0.13964250276028015,-1.3257365650432646, ,0.08549274014276646,-0.49425490395036864,0.034329335172413794,0.1323619297135411,-0.03417749751349759,0.4250072517100505, ,0.20783710479736328
0.01143781897171523,0.025902596300893272,-0.08425089151812887, ,0.011919407579564634,0.02725692317884669,-0.0846838620228747, ,0.0015011969682680686, ,0.010524162479128947,0.052052188515984095,-0.018821656693413135,0.08207664764410678,-0.021302691043051686,-0.045372826056194644, ,0.05634219631746135, ,0.08479609880247882, ,0.0018692091594416736, ,0.14956616757510607,-0.2930854353096944,0.09546138818000001,-4.524689600509067,0.13964250276028015,-1.3257365650432646, ,0.08549274014276646,-0.49425490395036864,0.034329335172413794,0.1323619297135411,-0.03417749751349759,0.4250072517100505, ,0.20989012718200684
0.01143781897171523,0.025902596300893272,-0.08425089151812887, ,0.011938743441007014,0.027336843968802815,-0.08472417371894926, ,0.0015912220896067948, ,0.010524162479128947,0.052052188515984095,-0.018821656693413135,0.08207664764410678,-0.021302691043051686,-0.045372826056194644, ,0.05634219631746135, ,0.08479609880247882, ,0.0018664568122155856, ,0.14956616757510607,-0.2930854353096944,0.09546138818000001,-4.524689600509067,0.13964250276028015,-1.3257365650432646, ,0.08549274014276646,-0.49425490395036864,0.034329335172413794,0.1323619297135411,-0.03417749751349759,0.4250072517100505, ,0.21197915077209473
0.01143781897171523,0.025902596300893272,-0.08425089151812887, ,0.011958101566293962,0.027416626600485768,-0.08476450478889834, ,0.0016813031607108328, ,0.010524162479128947,0.052052188515984095,-0.018821656693413135,0.08207664764410678,-0.021302691043051686,-0.045372826056194644, ,0.05634219631746135, ,0.08479609880247882, ,0.001864641580338088, ,0.14956616757510607,-0.2930854353096944,0.09546138818000001,-4.524689600509067,0.13964250276028015,-1.3257365650432646, ,0.08549274014276646,-0.49425490395036864,0.034329335172413794,0.1323619297135411,-0.03417749751349759,0.4250072517100505, ,0.2139291763305664
0.011545484763525557,0.02642946099212733,-0.08446009037540478, ,0.01197748199022882,0.027496271272575114,-0.08480485548745348, ,0.0012014860635206487, ,0.011097604732880635,0.050995377546177126,-0.021791247099224798,0.05863748688182707,-0.03600666833770175,0.00947869070286429, ,0.056555670025417205, ,0.06881010186649524, ,0.0018582031772621903, ,0.15044655912276766,-0.2980048161505754,0.09582823825,-4.523641150791644,0.13964250276028015,-1.3216526280362364, ,0.08722145363830036,-0.4697868393983702,0.03713009678321679,0.07243349451647099,-0.028745302900038256,0.41637325786286156, ,0.21594500541687012
0.011545484763525557,0.02642946099212733,-0.08446009037540478, ,0.011996884747549123,0.027575778183213013,-0.08484522606840242, ,0.0012907883444530392, ,0.011097604732880635,0.050995377546177126,-0.021791247099224798,0.05863748688182707,-0.03600666833770175,0.00947869070286429, ,0.056555670025417205, ,0.06881010186649524, ,0.0018527472654082562, ,0.15044655912276766,-0.2980048161505754,0.09582823825,-4.523641150791644,0.13964250276028015,-1.3216526280362364, ,0.08722145363830036,-0.4697868393983702,0.03713009678321679,0.07243349451647099,-0.028745302900038256,0.41637325786286156, ,0.2178511619567871
0.011545484763525557,0.02642946099212733,-0.08446009037540478, ,0.012016309872926666,0.027655147530005367,-0.08488561678458999, ,0.001380237840986862, ,0.011097604732880635,0.050995377546177126,-0.021791247099224798,0.05863748688182707,-0.03600666833770175,0.00947869070286429, ,0.056555670025417205, ,0.06881010186649524, ,0.001848247175651862, ,0.15044655912276766,-0.2980048161505754,0.09582823825,-4.523641150791644,0.13964250276028015,-1.3216526280362364, ,0.08722145363830036,-0.4697868393983702,0.03713009678321679,0.07243349451647099,-0.028745302900038256,0.41637325786286156, ,0.21976304054260254
0.011545484763525557,0.02642946099212733,-0.08446009037540478, ,0.01203575740096725,0.027734379510022604,-0.08492602788791905, ,0.0014697882034286486, ,0.011097604732880635,0.050995377546177126,-0.021791247099224798,0.05863748688182707,-0.03600666833770175,0.00947869070286429, ,0.056555670025417205, ,0.06881010186649524, ,0.0018446768079893787, ,0.15044655912276766,-0.2980048161505754,0.09582823825,-4.523641150791644,0.13964250276028015,-1.3216526280362364, ,0.08722145363830036,-0.4697868393983702,0.03713009678321679,0.07243349451647099,-0.028745302900038256,0.41637325786286156, ,0.22170519828796387
0.011545484763525557,0.02642946099212733,-0.08446009037540478, ,0.01205522736621104,0.027813474319800652,-0.08496645962935226, ,0.0015594038070728448, ,0.011097604732880635,0.050995377546177126,-0.021791247099224798,0.05863748688182707,-0.03600666833770175,0.00947869070286429, ,0.056555670025417205, ,0.06881010186649524, ,0.0018420107051770748, ,0.15044655912276766,-0.2980048161505754,0.09582823825,-4.523641150791644,0.13964250276028015,-1.3216526280362364, ,0.08722145363830036,-0.4697868393983702,0.03713009678321679,0.07243349451647099,-0.028745302900038256,0.41637325786286156, ,0.22371315956115723
0.01163043160298445,0.026826605408784395,-0.08462914810543459, ,0.012074719803132175,0.027892432155342015,-0.0850069122589127, ,0.0012149421443513832, ,0.010124932033371562,0.04840395252717163,-0.02053139156212664,0.10853019673773578,-0.013984950593979067,0.05092467701502108, ,0.05354432657537532, ,0.10942750476336392, ,0.001836204514799059, ,0.1511184368828252,-0.3016576688000836,0.09611731092,-4.523431460848159,0.1395058662605147,-1.3186824542276203, ,0.08216185416317816,-0.44344365214238685,0.03524073345132744,0.035072293445657016,0.012162214266406101,0.34006610688828487, ,0.22585511207580566
0.01163043160298445,0.026826605408784395,-0.08462914810543459, ,0.01209423474613908,0.027971253212116527,-0.08504738602568435, ,0.0013039382298284025, ,0.010124932033371562,0.04840395252717163,-0.02053139156212664,0.10853019673773578,-0.013984950593979067,0.05092467701502108, ,0.05354432657537532, ,0.10942750476336392, ,0.0018313213378727228, ,0.1511184368828252,-0.3016576688000836,0.09611731092,-4.523431460848159,0.1395058662605147,-1.3186824542276203, ,0.08216185416317816,-0.44344365214238685,0.03524073345132744,0.035072293445657016,0.012162214266406101,0.34006610688828487, ,0.2279059886932373
0.01163043160298445,0.026826605408784395,-0.08462914810543459, ,0.012113772229574205,0.028049937685062518,-0.08508788117781514, ,0.0013930527811937662, ,0.010124932033371562,0.04840395252717163,-0.02053139156212664,0.10853019673773578,-0.013984950593979067,0.05092467701502108, ,0.05354432657537532, ,0.10942750476336392, ,0.0018273370782665504, ,0.1511184368828252,-0.3016576688000836,0.09611731092,-4.523431460848159,0.1395058662605147,-1.3186824542276203, ,0.08216185416317816,-0.44344365214238685,0.03524073345132744,0.035072293445657016,0.012162214266406101,0.34006610688828487, ,0.2298130989074707
0.01163043160298445,0.026826605408784395,-0.08462914810543459, ,0.012133332287714196,0.028128485768587716,-0.08512839796251549, ,0.0014822455902240256, ,0.010124932033371562,0.04840395252717163,-0.02053139156212664,0.10853019673773578,-0.013984950593979067,0.05092467701502108, ,0.05354432657537532, ,0.10942750476336392, ,0.001824228145941843, ,0.1511184368828252,-0.3016576688000836,0.09611731092,-4.523431460848159,0.1395058662605147,-1.3186824542276203, ,0.08216185416317816,-0.44344365214238685,0.03524073345132744,0.035072293445657016,0.012162214266406101,0.34006610688828487, ,0.2317180633544922
0.01163043160298445,0.026826605408784395,-0.08462914810543459, ,0.01215291495476981,0.028206897656569946,-0.08516893662606144, ,0.0015714856630559097, ,0.010124932033371562,0.04840395252717163,-0.02053139156212664,0.10853019673773578,-0.013984950593979067,0.05092467701502108, ,0.05354432657537532, ,0.10942750476336392, ,0.0018219715166303615, ,0.1511184368828252,-0.3016576688000836,0.09611731092,-4.523431460848159,0.1395058662605147,-1.3186824542276203, ,0.08216185416317816,-0.44344365214238685,0.03524073345132744,0.035072293445657016,0.012162214266406101,0.34006610688828487, ,0.2336270809173584
0.011747101697886725,0.027370094462509462,-0.08485788156610519, ,0.012172520264885904,0.028285173542358596,-0.08520949741379474, ,0.0010686366940507038, ,0.009935233304348175,0.0456042740044854,-0.01907085353322937,0.1147455379961597,-0.010728490916111801,0.014114865819879113, ,0.050419798916436574, ,0.11524598251024668, ,0.0018153048367845238, ,0.15206061029348059,-0.3066156633053357,0.09651267937,-4.522592701074221,0.1395058662605147,-1.314843553441014, ,0.08166690323448432,-0.41439712470947937,0.033185024,0.06765311371399181,0.009020427342031685,0.3090371282914559, ,0.23581600189208984
0.011747101697886725,0.027370094462509462,-0.08485788156610519, ,0.012192148252141473,0.02836331361877493,-0.08525008057012423, ,0.0011568797632339521, ,0.009935233304348175,0.0456042740044854,-0.01907085353322937,0.1147455379961597,-0.010728490916111801,0.014114865819879113, ,0.050419798916436574, ,0.11524598251024668, ,0.0018095291782446064, ,0.15206061029348059,-0.3066156633053357,0.09651267937,-4.522592701074221,0.1395058662605147,-1.314843553441014, ,0.08166690323448432,-0.41439712470947937,0.033185024,0.06765311371399181,0.009020427342031685,0.3090371282914559, ,0.23769712448120117
0.011747101697886725,0.027370094462509462,-0.08485788156610519, ,0.01221179895054958,0.02844131807811373,-0.08529068633852707, ,0.0012453045981975037, ,0.009935233304348175,0.0456042740044854,-0.01907085353322937,0.1147455379961597,-0.010728490916111801,0.014114865819879113, ,0.050419798916436574, ,0.11524598251024668, ,0.0018046228775485445, ,0.15206061029348059,-0.3066156633053357,0.09651267937,-4.522592701074221,0.1395058662605147,-1.314843553441014, ,0.08166690323448432,-0.41439712470947937,0.033185024,0.06765311371399181,0.009020427342031685,0.3090371282914559, ,0.23961997032165527
0.011747101697886725,0.027370094462509462,-0.08485788156610519, ,0.012231472394057405,0.02851918711214367,-0.08533131496154944, ,0.0013338545905285598, ,0.009935233304348175,0.0456042740044854,-0.01907085353322937,0.1147455379961597,-0.010728490916111801,0.014114865819879113, ,0.050419798916436574, ,0.11524598251024668, ,0.0018005645302466482, ,0.15206061029348059,-0.3066156633053357,0.09651267937,-4.522592701074221,0.1395058662605147,-1.314843553441014, ,0.08166690323448432,-0.41439712470947937,0.033185024,0.06765311371399181,0.009020427342031685,0.3090371282914559, ,0.24156808853149414
0.011747101697886725,0.027370094462509462,-0.08485788156610519, ,0.012251168616546163,0.028596920912108605,-0.08537196668080821, ,0.00142248729382096, ,0.009935233304348175,0.0456042740044854,-0.01907085353322937,0.1147455379961597,-0.010728490916111801,0.014114865819879113, ,0.050419798916436574, ,0.11524598251024668, ,0.0017973331008754887, ,0.15206061029348059,-0.3066156633053357,0.09651267937,-4.522592701074221,0.1395058662605147,-1.314843553441014, ,0.08166690323448432,-0.41439712470947937,0.033185024,0.06765311371399181,0.009020427342031685,0.3090371282914559, ,0.2436060905456543
0.011747101697886725,0.027370094462509462,-0.08485788156610519, ,0.012270887651831222,0.02867451966872831,-0.08541264173699156, ,0.0015111703052172888, ,0.009935233304348175,0.0456042740044854,-0.01907085353322937,0.1147455379961597,-0.010728490916111801,0.014114865819879113, ,0.050419798916436574, ,0.11524598251024668, ,0.0017949079924377074, ,0.1526320925261732,-0.30944218353730185,0.09674082641000001,-4.521963631243768,0.13964250276028015,-1.312749645360915, ,0.08014944388384355,-0.3937632429812066,0.031667617335984104,0.09639928800882051,-0.00017743971800958193,0.3123756577615596, ,0.2462019920349121
0.011747101697886725,0.027370094462509462,-0.08485788156610519, ,0.012290629533662,0.028751983572199716,-0.08545334036985996, ,0.0015998784974841525, ,0.009935233304348175,0.0456042740044854,-0.01907085353322937,0.1147455379961597,-0.010728490916111801,0.014114865819879113, ,0.050419798916436574, ,0.11524598251024668, ,0.00179326908911877, ,0.1526320925261732,-0.30944218353730185,0.09674082641000001,-4.521963631243768,0.13964250276028015,-1.312749645360915, ,0.08014944388384355,-0.3937632429812066,0.031667617335984104,0.09639928800882051,-0.00017743971800958193,0.3123756577615596, ,0.24847412109375
0.011815702484658316,0.027682490817507188,-0.08498883047018577, ,0.012310394295721923,0.02882931281219756,-0.0854940628182482, ,0.0013472863099459125, ,0.009759536375644121,0.043541540569908076,-0.018052620652152237,0.09390119688195614,-0.008430369807701118,-0.018569120307756697, ,0.04813534478820096, ,0.09427886292064094, ,0.001789552565958996, ,0.1526320925261732,-0.30944218353730185,0.09674082641000001,-4.521963631243768,0.13964250276028015,-1.312749645360915, ,0.08014944388384355,-0.3937632429812066,0.031667617335984104,0.09639928800882051,-0.00017743971800958193,0.3123756577615596, ,0.2507290840148926
0.011815702484658316,0.027682490817507188,-0.08498883047018577, ,0.012330181971628482,0.02890650757787554,-0.08553480932006509, ,0.0014356180121088166, ,0.009759536375644121,0.043541540569908076,-0.018052620652152237,0.09390119688195614,-0.008430369807701118,-0.018569120307756697, ,0.04813534478820096, ,0.09427886292064094, ,0.0017866274870015565, ,0.1526320925261732,-0.30944218353730185,0.09674082641000001,-4.521963631243768,0.13964250276028015,-1.312749645360915, ,0.08014944388384355,-0.3937632429812066,0.031667617335984104,0.09639928800882051,-0.00017743971800958193,0.3123756577615596, ,0.252730131149292
0.011815702484658316,0.027682490817507188,-0.08498883047018577, ,0.012349992594933273,0.028983568057867188,-0.08557558011229616, ,0.0015239891895407565, ,0.009759536375644121,0.043541540569908076,-0.018052620652152237,0.09390119688195614,-0.008430369807701118,-0.018569120307756697, ,0.04813534478820096, ,0.09427886292064094, ,0.00178447471407155, ,0.1526320925261732,-0.30944218353730185,0.09674082641000001,-4.521963631243768,0.13964250276028015,-1.312749645360915, ,0.08014944388384355,-0.3937632429812066,0.031667617335984104,0.09639928800882051,-0.00017743971800958193,0.3123756577615596, ,0.2547900676727295
0.011944356469968742,0.028248639598396096,-0.08522938603250084, ,0.012369826199121896,0.02906049444028685,-0.08561637543100321, ,0.000994933952220122, ,0.009355965137170609,0.03988807342676408,-0.01765054909628448,0.030124238366325058,-0.019076846122426234,0.02691270568035797, ,0.044610922079096546, ,0.035656613439820864, ,0.0017780556834873919, ,0.15368238419706776,-0.3145237417685416,0.09715952808000002,-4.52112487146983,0.13964250276028015,-1.3083389933933247, ,0.07579627920005652,-0.354093065516682,0.030282911634980987,0.042449578983041934,-0.0012403324468672693,0.32911483572969175, ,0.25681614875793457
0.011944356469968742,0.028248639598396096,-0.08522938603250084, ,0.012389682817613976,0.02913728691273062,-0.08565719551132632, ,0.0010821416521666343, ,0.009355965137170609,0.03988807342676408,-0.01765054909628448,0.030124238366325058,-0.019076846122426234,0.02691270568035797, ,0.044610922079096546, ,0.035656613439820864, ,0.0017724434735573859, ,0.15368238419706776,-0.3145237417685416,0.09715952808000002,-4.52112487146983,0.13964250276028015,-1.3083389933933247, ,0.07579627920005652,-0.354093065516682,0.030282911634980987,0.042449578983041934,-0.0012403324468672693,0.32911483572969175, ,0.2587411403656006
0.011944356469968742,0.028248639598396096,-0.08522938603250084, ,0.012409562483763115,0.029213945662277287,-0.08569804058748473, ,0.0011695595427952342, ,0.009355965137170609,0.03988807342676408,-0.01765054909628448,0.030124238366325058,-0.019076846122426234,0.02691270568035797, ,0.044610922079096546, ,0.035656613439820864, ,0.0017676204021112886, ,0.15368238419706776,-0.3145237417685416,0.09715952808000002,-4.52112487146983,0.13964250276028015,-1.3083389933933247, ,0.07579627920005652,-0.354093065516682,0.030282911634980987,0.042449578983041934,-0.0012403324468672693,0.32911483572969175, ,0.2607381343841553
0.011944356469968742,0.028248639598396096,-0.08522938603250084, ,0.012429465230857039,0.029290470875489315,-0.08573891089277824, ,0.001257123105770065, ,0.009355965137170609,0.03988807342676408,-0.01765054909628448,0.030124238366325058,-0.019076846122426234,0.02691270568035797, ,0.044610922079096546, ,0.035656613439820864, ,0.0017635688362673107, ,0.15368238419706776,-0.3145237417685416,0.09715952808000002,-4.52112487146983,0.13964250276028015,-1.3083389933933247, ,0.07579627920005652,-0.354093065516682,0.030282911634980987,0.042449578983041934,-0.0012403324468672693,0.32911483572969175, ,0.26271510124206543
0.011944356469968742,0.028248639598396096,-0.08522938603250084, ,0.012449391092117366,0.02936686273841386,-0.0857798066595878, ,0.001344784676876857, ,0.009355965137170609,0.03988807342676408,-0.01765054909628448,0.030124238366325058,-0.019076846122426234,0.02691270568035797, ,0.044610922079096546, ,0.035656613439820864, ,0.001760271323201244, ,0.15368238419706776,-0.3145237417685416,0.09715952808000002,-4.52112487146983,0.13964250276028015,-1.3083389933933247, ,0.07579627920005652,-0.354093065516682,0.030282911634980987,0.042449578983041934,-0.0012403324468672693,0.32911483572969175, ,0.2647581100463867
0.011944356469968742,0.028248639598396096,-0.08522938603250084, ,0.012469340100699812,0.029443121436583612,-0.0858207281193764, ,0.0014325083378485947, ,0.009576859157174454,0.03816571586371475,-0.018761641148961932,-0.000918986992726946,-0.010639428727390553,0.0020198652563747825, ,0.04359285809979182, ,0.010678935157893268, ,0.0017577106748781763, ,0.15446238021736441,-0.3179989715619426,0.09746934139,-4.520495801639376,0.13964250276028015,-1.3049084863074212, ,0.07591755324677663,-0.3295032693002457,0.03092973110679612,0.0656056822985816,-0.0014329436563667332,0.3392970725226493, ,0.26720309257507324
0.012041035688291561,0.028645135686421942,-0.08541303970782113, ,0.012489312289694018,0.029519247155017678,-0.08586167550269166, ,0.0010799522430805196, ,0.009576859157174454,0.03816571586371475,-0.018761641148961932,-0.000918986992726946,-0.010639428727390553,0.0020198652563747825, ,0.04359285809979182, ,0.010678935157893268, ,0.0017524567335464117, ,0.15446238021736441,-0.3179989715619426,0.09746934139,-4.520495801639376,0.13964250276028015,-1.3049084863074212, ,0.07591755324677663,-0.3295032693002457,0.03092973110679612,0.0656056822985816,-0.0014329436563667332,0.3392970725226493, ,0.2693490982055664
0.012041035688291561,0.028645135686421942,-0.08541303970782113, ,0.012509307692123628,0.0295952400782228,-0.08590264903916482, ,0.0011669165875207175, ,0.009576859157174454,0.03816571586371475,-0.018761641148961932,-0.000918986992726946,-0.010639428727390553,0.0020198652563747825, ,0.04359285809979182, ,0.010678935157893268, ,0.001747952578576983, ,0.15446238021736441,-0.3179989715619426,0.09746934139,-4.520495801639376,0.13964250276028015,-1.3049084863074212, ,0.07591755324677663,-0.3295032693002457,0.03092973110679612,0.0656056822985816,-0.0014329436563667332,0.3392970725226493, ,0.27135205268859863
0.012041035688291561,0.028645135686421942,-0.08541303970782113, ,0.012529326340946268,0.029671100390194084,-0.08594364895751333, ,0.0012540245255636497, ,0.009576859157174454,0.03816571586371475,-0.018761641148961932,-0.000918986992726946,-0.010639428727390553,0.0020198652563747825, ,0.04359285809979182, ,0.010678935157893268, ,0.0017441821354242095, ,0.15446238021736441,-0.3179989715619426,0.09746934139,-4.520495801639376,0.13964250276028015,-1.3049084863074212, ,0.07591755324677663,-0.3295032693002457,0.03092973110679612,0.0656056822985816,-0.0014329436563667332,0.3392970725226493, ,0.27330517768859863
0.012041035688291561,0.028645135686421942,-0.08541303970782113, ,0.012549368269053535,0.029746828274416017,-0.08598467548554192, ,0.0013412292993652, ,0.009576859157174454,0.03816571586371475,-0.018761641148961932,-0.000918986992726946,-0.010639428727390553,0.0020198652563747825, ,0.04359285809979182, ,0.010678935157893268, ,0.0017411294624237626, ,0.15446238021736441,-0.3179989715619426,0.09746934139,-4.520495801639376,0.13964250276028015,-1.3049084863074212, ,0.07591755324677663,-0.3295032693002457,0.03092973110679612,0.0656056822985816,-0.0014329436563667332,0.3392970725226493, ,0.27515411376953125
0.012137491360906699,0.029014503285811438,-0.08561022965452722, ,0.012569433509270932,0.029822423913863524,-0.0860257288501424, ,0.0010059569286616826, ,0.009684002314335204,0.03606340433691289,-0.020964612023772485,-0.03488526777273511,0.0012077632402703424,-0.02518888702695342, ,0.042823638221186004, ,0.03490611049393277, ,0.0017356018493879573, ,0.1552114853061642,-0.3211189556431293,0.09778433986000001,-4.519657041865438,0.13964250276028015,-1.3015596579616582, ,0.07277372818901133,-0.29748257541840367,0.032441571323828924,0.08990166207904476,-0.0014664010112502175,0.34525243498820135, ,0.2770681381225586
0.012137491360906699,0.029014503285811438,-0.08561022965452722, ,0.01258952209435801,0.029897887491002736,-0.08606680927729646, ,0.0010923206442680154, ,0.009684002314335204,0.03606340433691289,-0.020964612023772485,-0.03488526777273511,0.0012077632402703424,-0.02518888702695342, ,0.042823638221186004, ,0.03490611049393277, ,0.0017308012433795996, ,0.1552114853061642,-0.3211189556431293,0.09778433986000001,-4.519657041865438,0.13964250276028015,-1.3015596579616582, ,0.07277372818901133,-0.29748257541840367,0.032441571323828924,0.08990166207904476,-0.0014664010112502175,0.34525243498820135, ,0.2791111469268799
0.012137491360906699,0.029014503285811438,-0.08561022965452722, ,0.012609634057008183,0.02997321918779205,-0.08610791699207535, ,0.0011788755626223754, ,0.009684002314335204,0.03606340433691289,-0.020964612023772485,-0.03488526777273511,0.0012077632402703424,-0.02518888702695342, ,0.042823638221186004, ,0.03490611049393277, ,0.0017267129050036203, ,0.1552114853061642,-0.3211189556431293,0.09778433986000001,-4.519657041865438,0.13964250276028015,-1.3015596579616582, ,0.07277372818901133,-0.29748257541840367,0.032441571323828924,0.08990166207904476,-0.0014664010112502175,0.34525243498820135, ,0.28118014335632324
0.012137491360906699,0.029014503285811438,-0.08561022965452722, ,0.01262976942984887,0.030048419185683184,-0.0861490522186422, ,0.0012655629343373187, ,0.009684002314335204,0.03606340433691289,-0.020964612023772485,-0.03488526777273511,0.0012077632402703424,-0.02518888702695342, ,0.042823638221186004, ,0.03490611049393277, ,0.0017233220963957798, ,0.1552114853061642,-0.3211189556431293,0.09778433986000001,-4.519657041865438,0.13964250276028015,-1.3015596579616582, ,0.07277372818901133,-0.29748257541840367,0.032441571323828924,0.08990166207904476,-0.0014664010112502175,0.34525243498820135, ,0.28339505195617676
0.012137491360906699,0.029014503285811438,-0.08561022965452722, ,0.012649928245441358,0.03012348766562175,-0.08619021518025204, ,0.0013523391310411531, ,0.009684002314335204,0.03606340433691289,-0.020964612023772485,-0.03488526777273511,0.0012077632402703424,-0.02518888702695342, ,0.042823638221186004, ,0.03490611049393277, ,0.0017206141915391767, ,0.1552114853061642,-0.3211189556431293,0.09778433986000001,-4.519657041865438,0.13964250276028015,-1.3015596579616582, ,0.07277372818901133,-0.29748257541840367,0.032441571323828924,0.08990166207904476,-0.0014664010112502175,0.34525243498820135, ,0.2853560447692871
0.012235966185371252,0.029374406002187103,-0.08583149545570694, ,0.012670110536280862,0.030198424808048758,-0.08623140609925367, ,0.0010136157223831698, ,0.009735876613118942,0.03534268856368077,-0.022660146476101456,-0.0517160420255341,-0.0059834092566415234,0.0016367674972086264, ,0.043097275629134395, ,0.05206096632270867, ,0.001715491014226452, ,0.1559374221963413,-0.3240381486695862,0.09812007897000001,-4.519027972034984,0.13964250276028015,-1.2980474721356139, ,0.0700346432165836,-0.2824313736859249,0.03389108834042554,0.05893881232718598,-0.0014385874510649073,0.34264791611457857, ,0.2882561683654785
0.012235966185371252,0.029374406002187103,-0.08583149545570694, ,0.012690316334796536,0.030273230792901232,-0.08627262519709006, ,0.0010995069401408132, ,0.009735876613118942,0.03534268856368077,-0.022660146476101456,-0.0517160420255341,-0.0059834092566415234,0.0016367674972086264, ,0.043097275629134395, ,0.05206096632270867, ,0.0017110594741251166, ,0.1559374221963413,-0.3240381486695862,0.09812007897000001,-4.519027972034984,0.13964250276028015,-1.2980474721356139, ,0.0700346432165836,-0.2824313736859249,0.03389108834042554,0.05893881232718598,-0.0014385874510649073,0.34264791611457857, ,0.2901310920715332
0.012235966185371252,0.029374406002187103,-0.08583149545570694, ,0.012710545673351455,0.030347905799613047,-0.08631387269430044, ,0.0011855864988742886, ,0.009735876613118942,0.03534268856368077,-0.022660146476101456,-0.0517160420255341,-0.0059834092566415234,0.0016367674972086264, ,0.043097275629134395, ,0.05206096632270867, ,0.0017073060957304678, ,0.1559374221963413,-0.3240381486695862,0.09812007897000001,-4.519027972034984,0.13964250276028015,-1.2980474721356139, ,0.0700346432165836,-0.2824313736859249,0.03389108834042554,0.05893881232718598,-0.0014385874510649073,0.34264791611457857, ,0.29215502738952637
0.012235966185371252,0.029374406002187103,-0.08583149545570694, ,0.012730798584242572,0.03042245000711622,-0.0863551488105203, ,0.0012717972225350605, ,0.009735876613118942,0.03534268856368077,-0.022660146476101456,-0.0517160420255341,-0.0059834092566415234,0.0016367674972086264, ,0.043097275629134395, ,0.05206096632270867, ,0.0017042173803177346, ,0.1559374221963413,-0.3240381486695862,0.09812007897000001,-4.519027972034984,0.13964250276028015,-1.2980474721356139, ,0.0700346432165836,-0.2824313736859249,0.03389108834042554,0.05893881232718598,-0.0014385874510649073,0.34264791611457857, ,0.2940330505371094
0.012235966185371252,0.029374406002187103,-0.08583149545570694, ,0.012751075099700694,0.03049686359384175,-0.08639645376448334, ,0.001358096509582545, ,0.009735876613118942,0.03534268856368077,-0.022660146476101456,-0.0517160420255341,-0.0059834092566415234,0.0016367674972086264, ,0.043097275629134395, ,0.05206096632270867, ,0.0017017799093970642, ,0.1559374221963413,-0.3240381486695862,0.09812007897000001,-4.519027972034984,0.13964250276028015,-1.2980474721356139, ,0.0700346432165836,-0.2824313736859249,0.03389108834042554,0.05893881232718598,-0.0014385874510649073,0.34264791611457857, ,0.2959749698638916
0.012235966185371252,0.029374406002187103,-0.08583149545570694, ,0.012771375251890526,0.03057114673772024,-0.08643778777402207, ,0.0014444520178404576, ,0.009735876613118942,0.03534268856368077,-0.022660146476101456,-0.0517160420255341,-0.0059834092566415234,0.0016367674972086264, ,0.043097275629134395, ,0.05206096632270867, ,0.001699980413651913, ,0.1559374221963413,-0.3240381486695862,0.09812007897000001,-4.519027972034984,0.13964250276028015,-1.2980474721356139, ,0.0700346432165836,-0.2824313736859249,0.03389108834042554,0.05893881232718598,-0.0014385874510649073,0.34264791611457857, ,0.29807305335998535
0.012331834220658382,0.02971619200447831,-0.08605989955937347, ,0.012791699072910742,0.03064529961618357,-0.08647915105606899, ,0.001118252410660119, ,0.009735876613118942,0.03534268856368077,-0.022660146476101456,-0.0517160420255341,-0.0059834092566415234,0.0016367674972086264, ,0.043097275629134395, ,0.05206096632270867, ,0.001695940635853359, ,0.15661702268927305,-0.3267256597098163,0.09845711437000002,-4.518398902204531,0.13964250276028015,-1.2940452138687264, ,0.06403302399357003,-0.25717328335628936,0.03304732680497926,0.06162571519846333,-0.0013711272251453117,0.31149002779499413, ,0.30019402503967285
0.012331834220658382,0.02971619200447831,-0.08605989955937347, ,0.012812046594793722,0.030719322406165008,-0.08652054382665823, ,0.0012037722658556026, ,0.009224073485614798,0.03303337368218701,-0.02255147498037749,-0.045413528610856936,-0.003125852246500134,-0.005806232897547214, ,0.041047001501761604, ,0.04552091497748356, ,0.0016925463712326849, ,0.15661702268927305,-0.3267256597098163,0.09845711437000002,-4.518398902204531,0.13964250276028015,-1.2940452138687264, ,0.06403302399357003,-0.25717328335628936,0.03304732680497926,0.06162571519846333,-0.0013711272251453117,0.31149002779499413, ,0.30216097831726074
0.012331834220658382,0.02971619200447831,-0.08605989955937347, ,0.01283241784950582,0.030793215284100717,-0.08656196630092555, ,0.0012894317071064294, ,0.009224073485614798,0.03303337368218701,-0.02255147498037749,-0.045413528610856936,-0.003125852246500134,-0.005806232897547214, ,0.041047001501761604, ,0.04552091497748356, ,0.0016897853118893545, ,0.15661702268927305,-0.3267256597098163,0.09845711437000002,-4.518398902204531,0.13964250276028015,-1.2940452138687264, ,0.06403302399357003,-0.25717328335628936,0.03304732680497926,0.06162571519846333,-0.0013711272251453117,0.31149002779499413, ,0.30416297912597656
0.012331834220658382,0.02971619200447831,-0.08605989955937347, ,0.012852812868947223,0.03086697842593071,-0.08660341869311046, ,0.001375187692102535, ,0.009224073485614798,0.03303337368218701,-0.02255147498037749,-0.045413528610856936,-0.003125852246500134,-0.005806232897547214, ,0.041047001501761604, ,0.04552091497748356, ,0.0016876451920268592, ,0.15661702268927305,-0.3267256597098163,0.09845711437000002,-4.518398902204531,0.13964250276028015,-1.2940452138687264, ,0.06403302399357003,-0.25717328335628936,0.03304732680497926,0.06162571519846333,-0.0013711272251453117,0.31149002779499413, ,0.30615997314453125
0.012331834220658382,0.02971619200447831,-0.08605989955937347, ,0.012873231684951912,0.03094061200709944,-0.08664490121655698, ,0.0014610073566103752, ,0.009224073485614798,0.03303337368218701,-0.02255147498037749,-0.045413528610856936,-0.003125852246500134,-0.005806232897547214, ,0.041047001501761604, ,0.04552091497748356, ,0.001686113855301072, ,0.15739701870956974,-0.329776139195135,0.09885637169000001,-4.517560142430592,0.13964250276028015,-1.2910231004835255, ,0.06386066053732892,-0.24024542166701462,0.033323873472803356,0.07341624928425225,-0.0013092894431370962,0.3057687379751146, ,0.3083040714263916
0.012444045711080128,0.030111511267173777,-0.08633303486584709, ,0.012893674329287768,0.03101411620255705,-0.08668641408371458, ,0.0010685216119995845, ,0.009335505081114843,0.03163733501324961,-0.023083308657008982,-0.05479190938574026,0.0006282441343058252,-0.02088828653930552, ,0.040260548436588106, ,0.05479545118959307, ,0.0016819689409164984, ,0.15739701870956974,-0.329776139195135,0.09885637169000001,-4.517560142430592,0.13964250276028015,-1.2910231004835255, ,0.06386066053732892,-0.24024542166701462,0.033323873472803356,0.07341624928425225,-0.0013092894431370962,0.3057687379751146, ,0.3103311061859131
0.012444045711080128,0.030111511267173777,-0.08633303486584709, ,0.01291414083365647,0.031087491186760352,-0.08672795750613925, ,0.0011530351770529872, ,0.009335505081114843,0.03163733501324961,-0.023083308657008982,-0.05479190938574026,0.0006282441343058252,-0.02088828653930552, ,0.040260548436588106, ,0.05479545118959307, ,0.0016784427158240752, ,0.15739701870956974,-0.329776139195135,0.09885637169000001,-4.517560142430592,0.13964250276028015,-1.2910231004835255, ,0.06386066053732892,-0.24024542166701462,0.033323873472803356,0.07341624928425225,-0.0013092894431370962,0.3057687379751146, ,0.31233906745910645
0.012444045711080128,0.030111511267173777,-0.08633303486584709, ,0.012934631229693485,0.03116073713367354,-0.08676953169449528, ,0.001237771607133253, ,0.009335505081114843,0.03163733501324961,-0.023083308657008982,-0.05479190938574026,0.0006282441343058252,-0.02088828653930552, ,0.040260548436588106, ,0.05479545118959307, ,0.0016755243641108908, ,0.15739701870956974,-0.329776139195135,0.09885637169000001,-4.517560142430592,0.13964250276028015,-1.2910231004835255, ,0.06386066053732892,-0.24024542166701462,0.033323873472803356,0.07341624928425225,-0.0013092894431370962,0.3057687379751146, ,0.314237117767334
0.012444045711080128,0.030111511267173777,-0.08633303486584709, ,0.012955145548968134,0.031233854216769302,-0.08681113685855514, ,0.0013226708797835305, ,0.009335505081114843,0.03163733501324961,-0.023083308657008982,-0.05479190938574026,0.0006282441343058252,-0.02088828653930552, ,0.040260548436588106, ,0.05479545118959307, ,0.0016732029596087372, ,0.15739701870956974,-0.329776139195135,0.09885637169000001,-4.517560142430592,0.13964250276028015,-1.2910231004835255, ,0.06386066053732892,-0.24024542166701462,0.033323873472803356,0.07341624928425225,-0.0013092894431370962,0.3057687379751146, ,0.3162660598754883
0.012529173037821244,0.030400804006600255,-0.08654102366568767, ,0.012975683822983525,0.03130684260902986,-0.08685277320720192, ,0.0010571024581341104, ,0.008918939666319351,0.030112822460644336,-0.02108797421014201,-0.029020788295572628,-0.004955657860469328,-0.0175312154895243, ,0.03782898647340879, ,0.029440796995991027, ,0.0016691761589455044, ,0.1579839464080108,-0.33196167259854054,0.09915711097,-4.51693107260014,0.13964250276028015,-1.288164344578606, ,0.06247329924849953,-0.2286673290565561,0.03081008030947776,0.06802693296090213,-0.001245769817631417,0.26749036148323246, ,0.3190760612487793
0.012529173037821244,0.030400804006600255,-0.08654102366568767, ,0.012996246083176571,0.031379702482947615,-0.08689444094842938, ,0.0011407467871676073, ,0.008918939666319351,0.030112822460644336,-0.02108797421014201,-0.029020788295572628,-0.004955657860469328,-0.0175312154895243, ,0.03782898647340879, ,0.029440796995991027, ,0.0016657447993885053, ,0.1579839464080108,-0.33196167259854054,0.09915711097,-4.51693107260014,0.13964250276028015,-1.288164344578606, ,0.06247329924849953,-0.2286673290565561,0.03081008030947776,0.06802693296090213,-0.001245769817631417,0.26749036148323246, ,0.32101011276245117
0.012529173037821244,0.030400804006600255,-0.08654102366568767, ,0.013016832360917965,0.03145243401052656,-0.08693614028934353, ,0.0012246854399601565, ,0.008918939666319351,0.030112822460644336,-0.02108797421014201,-0.029020788295572628,-0.004955657860469328,-0.0175312154895243, ,0.03782898647340879, ,0.029440796995991027, ,0.001662899255134129, ,0.1579839464080108,-0.33196167259854054,0.09915711097,-4.51693107260014,0.13964250276028015,-1.288164344578606, ,0.06247329924849953,-0.2286673290565561,0.03081008030947776,0.06802693296090213,-0.001245769817631417,0.26749036148323246, ,0.32294797897338867
0.012529173037821244,0.030400804006600255,-0.08654102366568767, ,0.013037442687512207,0.03152503736328274,-0.08697787143616371, ,0.0013088447775211705, ,0.008918939666319351,0.030112822460644336,-0.02108797421014201,-0.029020788295572628,-0.004955657860469328,-0.0175312154895243, ,0.03782898647340879, ,0.029440796995991027, ,0.0016606296751494308, ,0.1579839464080108,-0.33196167259854054,0.09915711097,-4.51693107260014,0.13964250276028015,-1.288164344578606, ,0.06247329924849953,-0.2286673290565561,0.03081008030947776,0.06802693296090213,-0.001245769817631417,0.26749036148323246, ,0.32486701011657715
0.012529173037821244,0.030400804006600255,-0.08654102366568767, ,0.013058077094197507,0.03159751271224565,-0.08701963459422345, ,0.0013931689229711628, ,0.008918939666319351,0.030112822460644336,-0.02108797421014201,-0.029020788295572628,-0.004955657860469328,-0.0175312154895243, ,0.03782898647340879, ,0.029440796995991027, ,0.0016589261034795054, ,0.1579839464080108,-0.33196167259854054,0.09915711097,-4.51693107260014,0.13964250276028015,-1.288164344578606, ,0.06247329924849953,-0.2286673290565561,0.03081008030947776,0.06802693296090213,-0.001245769817631417,0.26749036148323246, ,0.32672619819641113
0.012624763314864637,0.03071221324993007,-0.08676136436466873, ,0.013078735612145908,0.03166986022795883,-0.08706142996797242, ,0.001101461732205194, ,0.009164427549580287,0.028813989825360684,-0.019933134520215456,-0.03564081754731917,-0.019397443977305938,0.006301709416361205, ,0.03621550211951369, ,0.04057740210301683, ,0.001655397847965111, ,0.15866354690094256,-0.3343093833923048,0.09947859089000001,-4.516302002769685,0.13964250276028015,-1.2857139823743893, ,0.06706497636641044,-0.21815388864016272,0.029388951143911442,0.04057184508837997,-0.0011857918319825185,0.2595728055478753, ,0.32877206802368164
0.012624763314864637,0.03071221324993007,-0.08676136436466873, ,0.013099418272463168,0.03174208008048106,-0.08710325776097594, ,0.0011844045389479392, ,0.009164427549580287,0.028813989825360684,-0.019933134520215456,-0.03564081754731917,-0.019397443977305938,0.006301709416361205, ,0.03621550211951369, ,0.04057740210301683, ,0.0016524356258958205, ,0.15866354690094256,-0.3343093833923048,0.09947859089000001,-4.516302002769685,0.13964250276028015,-1.2857139823743893, ,0.06706497636641044,-0.21815388864016272,0.029388951143911442,0.04057184508837997,-0.0011857918319825185,0.2595728055478753, ,0.3307321071624756
0.012624763314864637,0.03071221324993007,-0.08676136436466873, ,0.013120125106188802,0.03181417243938713,-0.08714511817591752, ,0.001267660974859102, ,0.009164427549580287,0.028813989825360684,-0.019933134520215456,-0.03564081754731917,-0.019397443977305938,0.006301709416361205, ,0.03621550211951369, ,0.04057740210301683, ,0.001650030784326841, ,0.15866354690094256,-0.3343093833923048,0.09947859089000001,-4.516302002769685,0.13964250276028015,-1.2857139823743893, ,0.06706497636641044,-0.21815388864016272,0.029388951143911442,0.04057184508837997,-0.0011857918319825185,0.2595728055478753, ,0.3326890468597412
0.012624763314864637,0.03071221324993007,-0.08676136436466873, ,0.013140856144296123,0.031886137473769095,-0.0871870114145995, ,0.0013511570238212232, ,0.009164427549580287,0.028813989825360684,-0.019933134520215456,-0.03564081754731917,-0.019397443977305938,0.006301709416361205, ,0.03621550211951369, ,0.04057740210301683, ,0.0016481744255659363, ,0.15866354690094256,-0.3343093833923048,0.09947859089000001,-4.516302002769685,0.13964250276028015,-1.2857139823743893, ,0.06706497636641044,-0.21815388864016272,0.029388951143911442,0.04057184508837997,-0.0011857918319825185,0.2595728055478753, ,0.33466100692749023
0.012624763314864637,0.03071221324993007,-0.08676136436466873, ,0.013161611417692044,0.03195797535223681,-0.08722893767794385, ,0.0014348358457817267, ,0.009164427549580287,0.028813989825360684,-0.019933134520215456,-0.03564081754731917,-0.019397443977305938,0.006301709416361205, ,0.03621550211951369, ,0.04057740210301683, ,0.0016468575207524538, ,0.15866354690094256,-0.3343093833923048,0.09947859089000001,-4.516302002769685,0.13964250276028015,-1.2857139823743893, ,0.06706497636641044,-0.21815388864016272,0.029388951143911442,0.04057184508837997,-0.0011857918319825185,0.2595728055478753, ,0.33655810356140137
0.012722126693029983,0.03100973124710707,-0.08697330744702546, ,0.013182390957217318,0.03202968624291911,-0.08727089716599352, ,0.0011578907665256433, ,0.009164427549580287,0.028813989825360684,-0.019933134520215456,-0.03564081754731917,-0.019397443977305938,0.006301709416361205, ,0.03621550211951369, ,0.04057740210301683, ,0.0016438577247142522, ,0.1593740383253712,-0.33652580772720725,0.09978840420000001,-4.5154632429957475,0.13964250276028015,-1.2827735477293287, ,0.06886570504968853,-0.2108820923521573,0.030514964597701155,0.08897740726486905,-0.0011262568023568498,0.2899262465418003, ,0.33850812911987305
0.012722126693029983,0.03100973124710707,-0.08697330744702546, ,0.013203194793646423,0.03210127031346497,-0.0873128900779139, ,0.0012402420787964356, ,0.009548963235098969,0.028713805838141662,-0.021066452141086805,-0.0655970493691818,-0.0008294725366542032,-0.03861174167498979, ,0.03687086587522011, ,0.06560226186270023, ,0.001641396653702558, ,0.1593740383253712,-0.33652580772720725,0.09978840420000001,-4.5154632429957475,0.13964250276028015,-1.2827735477293287, ,0.06886570504968853,-0.2108820923521573,0.030514964597701155,0.08897740726486905,-0.0011262568023568498,0.2899262465418003, ,0.34038615226745605
