NicholasDascanio/dvrk_moveit_final/test/execution/third_experiment_notsharpbends/thirdexp_300vel3.0/thirdexp_300vel3.0_28.csv
Current Position (x),Current Position (y),Current Position (z), ,Planned Position (x),Planned Position (y),Planned Position (z), ,Position Error,,Cartesian linear Velocity(x),Cartesian linear Velocity(y),Cartesian linear Velocity(z),Cartesian Angular Velocity(x),Cartesian Angular Velocity(y),Cartesian Angular Velocity(z), ,Total Linear Velocity, ,Total Angular Velocity, ,MSE, ,Joint 1 Position,Joint 2 Position,Joint 3 Position,Joint 4 Position,Joint 5 Position,Joint 6 Position, ,Joint 1 Velocity,Joint 2 Velocity,Joint 3 Velocity,Joint 4 Velocity,Joint 5 Velocity,Joint 6 Velocity, ,Time Stamp
0.010420567471965497,0.019846399912129574,-0.0793416400012537, ,0.010525572782649097,0.019793639734940534,-0.079456909573509, ,0.00016461113527552792, ,-0.000286384785863893,-0.0002257874676570261,0.0010995777696524616,0.1865740504556491,0.0020186398264809544,-0.12312338012505945, ,0.0011584763690465, ,0.18658497048309589, ,1.3717594606293994e-05, ,0.20867596499442048,-0.2270869601665717,0.09132233421000001,1.7876067682055703,0.7788280486630106,-1.2632732414906662, ,-0.0006097504256307728,-0.0006281087523335771,-0.0011521730409798654,-0.0027116074444537975,0.0,-0.2249981109007262, ,0.03579306602478027
0.010455564247017112,0.019853212579880767,-0.07938343316504667, ,0.010521434915817217,0.01985778920715825,-0.07957231936574864, ,0.00020009469593428576, ,0.0011191955513361206,0.0005429264924249512,-0.002103584687408971,0.054685490698973875,-0.10829373556285504,-0.07908531942612275, ,0.0024438568688466434, ,0.12131791316662162, ,1.6577537782264257e-05, ,0.20862962859717513,-0.22714101929669128,0.09136640807000002,1.7876067682055703,0.7739091346714547,-1.2699621119160085, ,-0.0022157547959529233,-0.0024649362134227396,0.0018001231646075512,0.0020947796860601286,-0.028035511443386396,-0.24679293964920612, ,0.07132411003112793
0.010480000670357686,0.01987435851823657,-0.07944790269651453, ,0.010517987740647862,0.0199209422276026,-0.07968749207906366, ,0.0002470144362538408, ,0.001091190674403076,0.0005468194070943702,-0.002099854975385242,-0.03151172275923967,-0.13539756179365134,-0.032945630614577205, ,0.002428806181960478, ,0.13901614442531482, ,1.9116258358239202e-05, ,0.2085601240013071,-0.22720280115968508,0.09139751903000001,1.7878164581490545,0.7717229506752076,-1.2726717561645968, ,-0.0038170660139408346,-0.002504590349877729,0.0014400031086496251,0.0022117029233258314,-0.1467562053311658,0.01222366178689871, ,0.10714411735534668
0.010488911014939971,0.019912549830085714,-0.07955413247559162, ,0.010515226946427697,0.019983105733805035,-0.0798024287046748, ,0.0002594642194535557, ,-5.963180781823376e-05,0.001141154967137089,-0.0025460034495065347,-0.03727717468454699,0.017588389952648706,0.03423417341924322, ,0.0027906852521243763, ,0.04121819032274084, ,2.07424877837431e-05, ,0.2083361647479546,-0.22735725581716956,0.09150640739,1.7880261480925392,0.7710397681763805,-1.2686024808200707, ,-0.006361144473044741,-0.006355735291725172,0.002795509217269217,0.0005400871163207491,0.012046508388631466,0.054748586377220854, ,0.1431419849395752
0.01048805264651929,0.019968506178889227,-0.07969036247839412, ,0.010513148235877047,0.02004428664148711,-0.07991713022972954, ,0.00024040815327789665, ,-0.00018201288264094886,0.0014570117230368281,-0.003217126579584454,0.00704736138490777,0.00861251227991852,-0.008377083117589768, ,0.0035363703538490963, ,0.011128372294123532, ,2.1376781542213592e-05, ,0.2079886417686145,-0.22761210600201898,0.09165288816000002,1.7884455279795082,0.7713130411759113,-1.268498601666901, ,-0.011091420815550215,-0.007809288979386383,0.003404319623851251,0.01038879396785219,-0.0050554469587500775,0.0022168831094518636, ,0.17916417121887207
0.010488754761262847,0.020008646198830284,-0.0797884975309496, ,0.010511747325132631,0.020104491844589175,-0.08003159763730788, ,0.00026232176332826777, ,2.075321150996626e-05,0.0013695729254396276,-0.0028954265642025328,-0.03263882171248223,0.00862970267980599,0.021665697868208027, ,0.0032030697280226233, ,0.0337603976711998, ,2.215990973424798e-05, ,0.2077337915837651,-0.22782061978962304,0.09175659136000001,1.7884455279795082,0.7711764046761459,-1.2678971113223612, ,-0.007342359828463985,-0.007664638458317746,0.0031269751707891638,0.008010218811024048,-0.00020226093257443063,0.050115370201225, ,0.21431207656860352
0.010479956221743449,0.02006094813068261,-0.07988533849258142, ,0.01051101994373017,0.020163728215297494,-0.08014583190643017, ,0.00028175435981664246, ,-0.0003723731979918776,0.0012979777023962606,-0.0019236124514874756,0.003464321007478043,0.011053467129183675,-0.0016129635410955872, ,0.0023502537688552335, ,0.011583637407673781, ,2.2995399490833567e-05, ,0.20737082313867652,-0.22814497457034047,0.09186159085000001,1.7888649078664773,0.7711764046761459,-1.2676520751019396, ,-0.009663942911109513,-0.00952293647698575,0.002120166580593638,0.008856946935864645,-0.0005832342142785921,0.009053929048181053, ,0.25086212158203125
0.010481013966465808,0.020130884268572454,-0.08003586316699633, ,0.010510961834587124,0.020222002604072947,-0.08025983401206468, ,0.00024364393140405565, ,0.00023650088322011494,0.002035100187835307,-0.004699231792180174,0.005554406943490619,0.008432261342997245,-0.003206905150004666, ,0.005126435884601317, ,0.010097250395970486, ,2.3162349935903323e-05, ,0.20697696376209107,-0.2285620021455486,0.09202233081000001,1.7888649078664773,0.7709031316766151,-1.2674292392945468, ,-0.009528834074172344,-0.010433724003935916,0.00503916846567542,0.008856946935864645,-0.0032133802539827064,0.007085155628722219, ,0.28650808334350586
0.010483215467787469,0.02019051001424552,-0.08015440379594789, ,0.010511568753985321,0.02027932183967932,-0.08037360492513414, ,0.00023820282158619935, ,-0.00016461100852165455,0.0015828773133143264,-0.0025650211878236523,0.007857001410378614,0.007673931511788591,-0.0018274485192459496, ,0.0030185975331461392, ,0.010982790897548753, ,2.3489181498134855e-05, ,0.20668349991287055,-0.22890952512488869,0.09215066352000001,1.7892842877534463,0.7707664951768496,-1.2670727851704287, ,-0.008852899813977478,-0.011215512241637245,0.0028227558958001065,0.006338722101597722,-0.0027198168029910733,0.004728141607465147, ,0.3196871280670166
0.01047949301967376,0.020240058527532887,-0.0802421401631903, ,0.010512836471553603,0.02033569272921026,-0.08048714561252236, ,0.0002651138557603856, ,-4.382271534618996e-05,0.0017249015929185867,-0.003328990934172745,-0.0005896138616940234,0.0018940908072503431,-0.0002553197309702635, ,0.0037495848537455073, ,0.0019837399232668783, ,2.4026293720906575e-05, ,0.20639003606365003,-0.22924160263848034,0.09224529269000001,1.7894939776969307,0.7704932221773186,-1.2665232344024737, ,-0.009913616848047806,-0.01076862131727094,0.0035666841737572778,0.007452176644812976,-0.01012523366087733,0.013135731288823706, ,0.35170507431030273
0.01048051056804429,0.02029058458983248,-0.08035236040413969, ,0.010514760770250464,0.020391122058118313,-0.08060045703708231, ,0.00026987552345100367, ,5.949562121696434e-05,0.0016472727148860874,-0.0035900532821914292,-0.007123302955341723,0.004787762448521992,0.005067825057784784, ,0.0039503834870966165, ,0.00858278006596365, ,2.451839353707946e-05, ,0.20611201768017795,-0.2295350664877009,0.09236325508000001,1.7894939776969307,0.7703565856775533,-1.2661667802783556, ,-0.008939572600979752,-0.009090436539495695,0.0038382678361445787,0.006494619321753145,-0.0057810018502822275,0.019657610301014886, ,0.3843691349029541
0.010485061212723683,0.02034883399991454,-0.08047576963900506, ,0.010517337446346697,0.020445616590242785,-0.08071354015764215, ,0.0002587343127234634, ,-4.6343963423663865e-05,0.0015365283339752282,-0.0031302458758062897,0.017596321198344613,0.009624853966713703,-0.01367976399815908, ,0.0034873351325986424, ,0.020056628163660595, ,2.4841010239534957e-05, ,0.20582627656383162,-0.22985169853554407,0.09249547666,1.7899133575839,0.7700833126780223,-1.2654538720301192, ,-0.008784212338608035,-0.008682604005197235,0.0033783269395546134,0.010648981948984355,-0.0017297496520888936,-0.008737680313374758, ,0.41686296463012695
0.010487173597182885,0.020393759996733506,-0.08057412041052893, ,0.010520562309408156,0.02049918306783722,-0.08082639592901338, ,0.00027544830232113733, ,4.7211715056020775e-05,0.0014996571913196313,-0.003258297375135649,-0.005477405667733268,-0.0004980880725933406,-0.0007228819578487296, ,0.003587157986809485, ,0.005500005837245377, ,2.5249507957372143e-05, ,0.20557142637898224,-0.2301142714532677,0.09259917986,1.7899133575839,0.7696734031787261,-1.26511961831903, ,-0.00869950795320037,-0.008160459399030403,0.003447048586885956,0.008565891561253806,-0.01162108153331529,0.015898041072906134, ,0.4486980438232422
0.010490271499400513,0.020440218969791365,-0.0806770149919223, ,0.01052443118227815,0.02055182821159799,-0.08093902530199688, ,0.0002868325458805716, ,0.00025484646221604043,0.0015108739569114288,-0.0037133822633673916,-0.008603854744251675,-0.004818537522296105,-0.002465250188955964, ,0.004017075387252368, ,0.009861268661175735, ,2.5687647474020837e-05, ,0.20533202165988126,-0.23034595343949446,0.09270936451,1.790332737470869,0.7695367666789606,-1.2650082004153336, ,-0.0076447170105038,-0.006903126046072027,0.003892671436950147,0.010170839452693127,-0.015436882165542712,0.017784799903436378, ,0.48155999183654785
0.010497223066383385,0.02049458021812652,-0.08080407268906172, ,0.010528939901060458,0.02060355872069198,-0.0810514292233905, ,0.0002721534984130973, ,9.173474521113312e-05,0.001457572763030334,-0.0030539627308573927,-0.001713706194525894,-0.0002715312750836534,-0.00399146016403913, ,0.0033852063429682952, ,0.0017350844039554867, ,2.5970162447447797e-05, ,0.20505400327640919,-0.23063941728871498,0.09284288238,1.790332737470869,0.7689902206798989,-1.2644808500604074, ,-0.007541521795101504,-0.00805186539361234,0.0032521052511229076,0.009861227608940298,-0.010513547419642161,0.011766738065728585, ,0.5145070552825928
0.01049791744037977,0.02054576718863951,-0.08091278848442568, ,0.010534084315101585,0.02065438127278509,-0.081163608635996, ,0.0002757096489709546, ,0.0001198305029467004,0.0016129231740753846,-0.0034844612262240797,0.002766188183744081,0.001046145057844567,0.0001291634135827764, ,0.0038415297150959137, ,0.0029574002157765375, ,2.6242748076953804e-05, ,0.2047759848929371,-0.23092515840506128,0.09295825219000001,1.7905424274143533,0.7688535841801334,-1.2642060746764296, ,-0.007956471782585317,-0.009092500419261915,0.0037182099719887964,0.003406097942499958,-0.008048421096435466,0.006562947734831434, ,0.5464870929718018
0.010505086221192079,0.020594211908065995,-0.08102083661080646, ,0.010539860286973622,0.02070430252406945,-0.08127556447862598, ,0.0002796702809146481, ,0.0003060502504749705,0.00173376420386717,-0.004012847316658393,8.702640084570768e-05,0.0009651234334385838,0.002410920618299744, ,0.004382071274778563, ,0.000969038593486296, ,2.6673169659046506e-05, ,0.20456747110533305,-0.2311800085899107,0.09307491829,1.7907521173578382,0.7685803111806025,-1.2636565239084747, ,-0.0069282560778391195,-0.008971063741172552,0.00429232323362975,0.0031643985733730857,-0.00697264264355059,0.009798939435653648, ,0.5753471851348877
0.010513770809618852,0.020645650931292087,-0.08114405318012043, ,0.010546263692456887,0.02075332910929225,-0.08138729768611117, ,0.00026798930416574424, ,0.0002558423748731782,0.001745502960380053,-0.003973025355523152,-0.003196117392662926,0.00012874146327237956,0.004261340039702912, ,0.004347087114506236, ,0.0031987090774424866, ,2.699436934665458e-05, ,0.20442073918072276,-0.23134990871314365,0.09316176972000001,1.7907521173578382,0.7684436746808371,-1.2634634272646377, ,-0.007266500946333572,-0.008282720852012279,0.004389311523835768,0.0031643985733730857,-0.0038762969176423336,0.0072459732484171915, ,0.6044101715087891
0.010518261889770179,0.020680411405492816,-0.08122334992139234, ,0.010553290420522447,0.02080146764178333,-0.08149880918930763, ,0.00030291817144555085, ,0.00033060372806656413,0.001705702895768317,-0.00396824049771437,-0.0024206678119334272,0.0008905624798562997,0.0009352828861461764, ,0.004331934191714404, ,0.002579289282393522, ,2.748292674369005e-05, ,0.20420450266024448,-0.23161248163086728,0.09329010243000001,1.7909618073013225,0.7683070381810716,-1.2632703306208009, ,-0.00679606359509457,-0.008491020318054165,0.0042330086420409255,0.006304733241486853,-0.007447921715895665,0.012926973929996607, ,0.6328740119934082
0.01053241599255596,0.020745403217545005,-0.08137900506080681, ,0.010560936373314863,0.020848724713483084,-0.08161009991510265, ,0.0002547421742145033, ,0.00032653051231064156,0.001561195071620944,-0.0038124444433569583,-0.00876656048052756,-0.004979973933607681,0.006641892710862031, ,0.004132636550775633, ,0.010082297467975662, ,2.7670446960168456e-05, ,0.20393420700964662,-0.23192911367871047,0.09345602755000001,1.791171497244807,0.7677604921820099,-1.2627429802658745, ,-0.006512861945507803,-0.00765331359239962,0.004028530986342944,0.0013705489148354416,-0.012313011354911148,0.01737926308099364, ,0.6664559841156006
0.010536841812925161,0.020774367752989256,-0.08145037118727988, ,0.010569197466134736,0.02089510689497092,-0.08172117078642331, ,0.0002982570227125086, ,0.00032640309916226327,0.0014439908565920538,-0.0036584329393956855,-0.008071213580787693,-0.0053586362462840036,0.00536733906298708, ,0.003946616291092857, ,0.00968810974500842, ,2.8066804934555884e-05, ,0.20381064328365903,-0.2320681228704465,0.09353250866000001,1.791171497244807,0.7677604921820099,-1.262661301525734, ,-0.006122328910555103,-0.006706562139147228,0.00385126003868472,0.0013705489148354416,-0.012313011354911148,0.015429735917829191, ,0.6951220035552979
0.010544634310822906,0.02081958336367249,-0.08156131284620716, ,0.01057806962742138,0.020940620735492892,-0.08183202272224255, ,0.0002984154867903593, ,0.00028539709219503877,0.00142349835960334,-0.0037203660953207874,-0.0034010207927039223,-0.000491245955890236,-0.0003311021291797895, ,0.003993610266818637, ,0.003436315513576632, ,2.8432552693535647e-05, ,0.20359440676318075,-0.23227663665805057,0.09364917476000001,1.7913811871882916,0.7673505826827136,-1.2622453690745044, ,-0.006527870642147546,-0.00594644976981523,0.003922386486087171,0.005401081133836435,-0.008627983375670117,0.010616836704242825, ,0.7249681949615479
0.010558636244535444,0.020880516491299055,-0.08172577150703883, ,0.010587548798735432,0.02098527276298998,-0.08194265663758658, ,0.00024258807081484025, ,0.00042461856655565827,0.001482459123442819,-0.003905873290330812,-0.0062615946086013305,-0.00659186336974371,0.0011745486476347855, ,0.004199265666740112, ,0.009091767089998396, ,2.850458911861448e-05, ,0.2033318338454571,-0.23251604137715154,0.09382287762000001,1.7915908771317761,0.7670773096831827,-1.2619408545269706, ,-0.005672640442297743,-0.006244097968972837,0.004103248717156105,0.003840393811047264,-0.013760406477296377,0.01299122879785064, ,0.7569019794464111
0.010560513532636089,0.020903184919983213,-0.08177890116258565, ,0.01059763093474156,0.021029069484125796,-0.08205307344354161, ,0.0003039655649461285, ,0.00012320416276287636,0.001088430167637238,-0.002423343166436947,-0.0023532072838845725,-0.003293529597061281,-0.00040315321867910803, ,0.0026594081292388304, ,0.004047829250854265, ,2.885288660484023e-05, ,0.20322371558521798,-0.23263188237026491,0.09387991438000001,1.7915908771317761,0.7670773096831827,-1.26185917578683, ,-0.005318388283213852,-0.005767164332884987,0.002561725879704085,0.003840393811047264,-0.009944096945150463,0.008506455474804182, ,0.7854361534118652
0.010568339191463216,0.020943670928690233,-0.08187490336613056, ,0.010608312003190902,0.021072017384314686,-0.08216327404726133, ,0.00031816393272117216, ,0.0004128591865370173,0.0015351719714845461,-0.0042417638611119465,-2.4721796877735652e-05,0.0004463712662916272,-0.0005814325522737974, ,0.0045298748706090195, ,0.00044705380147801367, ,2.9369303167005964e-05, ,0.2030460927291108,-0.23282495069212053,0.09398102500000001,1.7918005670752608,0.7666674001838863,-1.2614432433356002, ,-0.0060659830400247566,-0.005821085036178982,0.004479418312710912,0.003674143663026019,-0.006769115875812428,0.006373445679097476, ,0.8105001449584961
0.01057827771441865,0.020977850599035317,-0.08196790310505239, ,0.010619587984903915,0.021114122927750164,-0.08227325935197319, ,0.0003369259912124429, ,0.0005567604919076693,0.0018014627612492104,-0.004899525113180309,0.0012256782033512692,0.0008468922977599499,-0.0032854760868194018, ,0.005249818726413458, ,0.0014898022683536166, ,2.9935427602537865e-05, ,0.20292252900312321,-0.2329485144181081,0.09407954304,1.792010257018745,0.7665307636841209,-1.2612501466917634, ,-0.0060276692648081635,-0.00680432555968615,0.0051953070841487285,0.0068282014363239794,-0.007073263885647354,0.00670768435752845, ,0.8355910778045654
0.010597803864457711,0.02103064686777317,-0.08211541572747812, ,0.01063145487375281,0.02115539255743233,-0.08238303025698616, ,0.0002971723639892051, ,0.0006347841846002217,0.0016316274660188,-0.004223000710337668,0.0006721142873438154,-0.0026878445548457392,-0.0034539217983800856, ,0.004571530832051552, ,0.0027706036568180487, ,3.0302056768945565e-05, ,0.20278351981138718,-0.23314930547283794,0.09423639413000001,1.792010257018745,0.7663941271843555,-1.2610570500479263, ,-0.003516198482758156,-0.006654408909375907,0.004504754389140273,0.0068282014363239794,-0.008150468103939948,0.006976262158819388, ,0.8612551689147949
0.01060720749706634,0.021060334943255397,-0.08219484015526131, ,0.010643908676644286,0.02119583269519611,-0.08249258765769746, ,0.00032918109388354054, ,0.00042113406222836876,0.001426322106783237,-0.0036812166873420086,0.0025699366859756826,0.0013502207105680246,-0.004127074410243441, ,0.0039702776917783485, ,0.002903044929234578, ,3.077793764903061e-05, ,0.2026908470168965,-0.23327286919882553,0.09432065298,1.792010257018745,0.76625749068459,-1.2609456321442298, ,-0.004465939739293459,-0.005791842780037675,0.003924319172209904,0.006708259448342052,-0.004886646503161579,0.00431483449181908, ,0.8860161304473877
0.01062122306992554,0.021107836727438156,-0.0823210361727951, ,0.010656945413502072,0.021235449741739337,-0.08260193244559957, ,0.00031058635405484215, ,0.0004216418904591007,0.0016400539862823382,-0.004184621418143927,-0.0006440407308025382,-0.0009651960457128109,-0.001587328484647496, ,0.0045142679777456065, ,0.0011603407199750216, ,3.115398820441254e-05, ,0.20252866962653776,-0.23347366025355537,0.09445417085,1.792010257018745,0.7659842176850592,-1.2606411175966965, ,-0.0059414398898381725,-0.0069796924569814085,0.004440705748536382,0.005742862799155528,-0.008617163598135644,0.00858879812409579, ,0.9111721515655518
0.01063398495797175,0.021142148454429136,-0.08241094495041716, ,0.010670561117249632,0.021274250076650795,-0.08271106550828693, ,0.00032994090876575755, ,0.0007681957038519428,0.0017661054803153533,-0.004906225105711398,-0.0036795668167763215,-0.005160673226629387,-0.0016330718283413487, ,0.005270701850316457, ,0.0063381193794712805, ,3.158423047877742e-05, ,0.2024437195649213,-0.23358950124666875,0.09455009631000001,1.7924296369057142,0.7658475811852937,-1.2604480209528597, ,-0.0037763015457644416,-0.00631823764387689,0.005197002127243068,0.006504518461947412,-0.01092917454093302,0.011161689257481589, ,0.9359550476074219
0.010652236568014131,0.02119508397524319,-0.08256044736686442, ,0.010684751833792654,0.021312240058437872,-0.08281998772946338, ,0.0002866077287097539, ,0.0005088913684036165,0.0015543871366740084,-0.0042821519307303605,-0.0021016222636443802,-0.0012848393733637061,-0.0022747833131004803, ,0.004583875538597343, ,0.0024632553490379788, ,3.1829616678621284e-05, ,0.20229698764031104,-0.23378256956852436,0.09470953998000001,1.7924296369057142,0.7658475811852937,-1.2604480209528597, ,-0.005104260016897359,-0.0056174448317242495,0.004526516487638534,0.006504518461947412,-0.008259322723042868,0.008984604121079116, ,0.9613070487976074
0.010661349722531379,0.021224558413155466,-0.0826394421494371, ,0.010699513622001852,0.021349426024555234,-0.08292869998894953, ,0.000317361783015656, ,0.00036174527760927553,0.0014400341436054396,-0.0037831350284439165,-0.003673443543592283,-0.004057291094478764,0.01005177085700156, ,0.004064070450184324, ,0.005473188989827808, ,3.2174705971560366e-05, ,0.20218886938007188,-0.2338906878287635,0.09479250254,1.7926393268491987,0.7655743081857628,-1.2602251851454667, ,-0.005421298453222932,-0.006621316194844674,0.003998195662650603,-0.006235166258878639,-0.008405993062056501,0.009031190108820458, ,0.9861609935760498
0.01067922748053038,0.021271380170855156,-0.08277876218729927, ,0.010714842553695335,0.02138581429143199,-0.08303720316268817, ,0.00028487776176582826, ,0.0005122534590323264,0.0014247136697958349,-0.004511631768634609,-0.005600569072930019,-0.004234635850309335,0.008501268251029918, ,0.004758889982227657, ,0.007021289970947764, ,3.238700070453156e-05, ,0.20204213745546162,-0.234045142486248,0.09493898331000002,1.7926393268491987,0.7653010351862319,-1.2599206705979333, ,-0.00543837565352377,-0.0043628332225203745,0.004712666130177515,-0.005332421375092076,-0.00883206992824714,0.008813313130363938, ,1.0158460140228271
0.010693894051256522,0.021311142477802678,-0.08289848155261625, ,0.01073073471362146,0.021421411154500317,-0.08314549812275338, ,0.0002730084273176248, ,0.0005740836601437879,0.0012208000794848876,-0.0038146455811857052,-0.003635644473497652,-0.006457546847587156,0.006154930634279093, ,0.004046164330940356, ,0.0074106559236492685, ,3.266116942610102e-05, ,0.20192629646234825,-0.2341687062122356,0.09506601973,1.7926393268491987,0.7653010351862319,-1.2597573131176523, ,-0.003032511268279502,-0.0038408157815797293,0.003998195662650603,-0.004616330750774511,-0.00883206992824714,0.0060054501347169996, ,1.0383141040802002
0.010705288444534417,0.021338247654359713,-0.08299093668718172, ,0.01074718619944125,0.021456222888223513,-0.08325358573735604, ,0.00029096065237232206, ,0.0007745742702161092,0.0015338656911669131,-0.005164316143686405,-0.0018384980685393088,-0.0029544754882718967,0.0011224515608282406, ,0.005442689637537657, ,0.003479798397243304, ,3.2985379787246814e-05, ,0.20184134640073179,-0.23423821080810361,0.09516324148000001,1.7924296369057142,0.7653010351862319,-1.2597573131176523, ,-0.003870671822373609,-0.0033095454722465614,0.005410601739130436,0.0002361575761821447,-0.007217908401262865,0.004689209643539757, ,1.059420108795166
0.010721178203503151,0.021371251167474542,-0.08309236399083889, ,0.010764193121711133,0.021490255746123333,-0.0833614668708512, ,0.0002973696907197181, ,0.0007231901114347361,0.0013683816518990654,-0.004750729399180081,0.0005996234249704222,0.0006028528893327014,-0.0045739841930366515, ,0.004996488977948909, ,0.0008502807995171259, ,3.331801327218406e-05, ,0.20175639633911532,-0.23430771540397163,0.09526953726000001,1.7928490167926832,0.765027762186701,-1.2595344773102592, ,-0.0033228909814426726,-0.0021448568194527683,0.0049824246230841425,0.005375696468746646,-0.004167690164983956,0.0022115053367424125, ,1.0805790424346924
0.010737887316045353,0.021401449427107606,-0.0831887199412732, ,0.01078175160386545,0.021523515960808717,-0.08346914238374506, ,0.0003089677339750039, ,0.0008671914050302875,0.0014212993814415981,-0.004930868409868352,-0.0011966339132405339,-0.003956067339264573,0.010309591916778724, ,0.0052043804761068655, ,0.004133085844772342, ,3.367558590937062e-05, ,0.2017177826747442,-0.23436949726696543,0.09537194417000001,1.7930587067361679,0.765027762186701,-1.2594527985701187, ,-0.0017670332141011724,-0.00328105045809495,0.005190228582600197,-0.009820496637053247,-0.0036137736417762006,0.0022614744511186137, ,1.1026639938354492
0.01075691260125463,0.021432220508897995,-0.08329352756823695, ,0.010799857782199168,0.0215560097440034,-0.08357661313270276, ,0.00031193829534583735, ,0.0008626203876345178,0.0014682780481264286,-0.005195506292236294,0.00037263283418542713,-0.0014800563449701514,0.009854140951027329, ,0.005467471078335907, ,0.001526243174516732, ,3.402891317589671e-05, ,0.20167916901037308,-0.2344312791299592,0.09548212882000001,1.7930587067361679,0.7648911256869357,-1.2593413806664224, ,-0.002292528458595115,-0.003064426550355367,0.0054681810916580855,-0.009820496637053247,-0.0015684515099601481,0.0005394765953089827, ,1.1236929893493652
0.01076683334805065,0.021449865854543497,-0.08335497481911687, ,0.010818507805850391,0.021587743286574194,-0.08368387997055363, ,0.00036035959053966137, ,0.0008312736861096696,0.001378375861604522,-0.005012005295456269,-0.002532489288736274,-0.001491214690832026,0.011388826504260355, ,0.0052641364950724865, ,0.0029389147808366396, ,3.452161384303955e-05, ,0.20164827807887617,-0.23446217006145612,0.09554694332000001,1.7930587067361679,0.7648911256869357,-1.2591780231861414, ,-0.0022095523984730107,-0.0025488458343960563,0.0052657228165289265,-0.009820496637053247,-0.0014734870772618097,0.00344481536951286, ,1.145531177520752
0.010788892855760988,0.021487978785729608,-0.08348440984544898, ,0.010837697836782982,0.02161872275855849,-0.08379094374629992, ,0.0003368069847472385, ,0.0008377719638219174,0.0013121227535588507,-0.004681824115393139,-0.002118725269353768,-0.002195702319669691,0.01128943992351925, ,0.004933863094092664, ,0.003051246170690851, ,3.4923091557246984e-05, ,0.20158649621588237,-0.23453939739019836,0.09568305377000001,1.7930587067361679,0.7647544891871703,-1.2590666052824449, ,-0.0013246738856257222,-0.0026718912924419674,0.0049330478538247135,-0.009820496637053247,-0.001284594737104061,0.0031316635140867027, ,1.1667931079864502
0.01081174574024845,0.021529767362108678,-0.08362542554084917, ,0.010857424049769223,0.021648954309192954,-0.08389780530512256, ,0.00030080354436337614, ,0.0007379553022471252,0.0013174135868337451,-0.004560563702725606,-0.0009947717836880962,-0.0009198864079393772,0.009451037402677647, ,0.004804050153100724, ,0.0013549021855064377, ,3.520049275791536e-05, ,0.20151699162001435,-0.23462434745181482,0.09583212712000001,1.7930587067361679,0.7647544891871703,-1.2590666052824449, ,-0.0022196249246607823,-0.0029636328244606594,0.00480507134841629,-0.008194901680950833,-0.001284594737104061,0.0025055033765065404, ,1.1932621002197266
0.010831300090851877,0.021559038718285406,-0.083726516143437, ,0.010877682632372342,0.021678444066940843,-0.08400446548838941, ,0.0003060470810265962, ,0.0010298337988156807,0.0015215437584488812,-0.005360153647143235,-0.002582531395904978,-0.0042812619583792715,0.008855730030430683, ,0.005666295102008084, ,0.00499986679246321, ,3.558984789934356e-05, ,0.2014938234213917,-0.2346784065819344,0.09593842290000001,1.7930587067361679,0.7646178526874048,-1.2589551873787483, ,-0.0009167440668727267,-0.002984362886534231,0.005648514723404256,-0.007265540095283096,-0.00367090459535115,0.004166918049144819, ,1.2109580039978027
0.010853708683924454,0.02159374042015692,-0.08384923274912708, ,0.01089846978492917,0.02170719813952069,-0.08411092513366042, ,0.0003581664279100949, ,0.0011871276768770987,0.001760030171417238,-0.006402165539110539,0.0009671716759041728,-0.003240903160473479,0.005756216998306098, ,0.0067449760500450364, ,0.0033821389076502868, ,3.612146202445676e-05, ,0.201470655222769,-0.23473246571205397,0.09606286674000002,1.7930587067361679,0.7646178526874048,-1.2588735086386078, ,-0.0013542884305317252,-0.0027617263660148134,0.006673151034771681,-0.00653436298439962,-0.0034758344800132164,-0.00012978128328273086, ,1.2291591167449951
0.010864959968893364,0.021610118802532594,-0.08391083558978511, ,0.01091978172053268,0.02173522261393361,-0.08421718507469654, ,0.00033541972957081906, ,0.0011049775708168684,0.0016521272377188192,-0.006235744800421491,-0.0006725795635854659,-0.0024318098786387777,0.006022702614917498, ,0.00654484629747746, ,0.0025231038676040173, ,3.657149812750483e-05, ,0.20144748702414633,-0.23474791117780242,0.0961328664,1.7930587067361679,0.7646178526874048,-1.2587918298984673, ,-0.0021010100283292157,-0.001998600899853908,0.006536237800574478,-0.006200583002618622,-0.003250904163308156,0.0010454202786934035, ,1.2474191188812256
0.010887278559924943,0.021644137201802457,-0.08403643173482732, ,0.010941614665014674,0.021762523556491862,-0.08432324614146547, ,0.00031500832552198017, ,0.0011984709294646546,0.0018216202466941602,-0.00666744658817803,-0.0008869321152256259,-0.0020719267938912227,0.0064245119991561475, ,0.007014946678211091, ,0.00225377817005888, ,3.695015381485284e-05, ,0.20140887335977523,-0.23478652484217355,0.09626508798000001,1.7930587067361679,0.7646178526874048,-1.2587101511583267, ,-0.002015431856790234,-0.002662425638307962,0.007007836128464585,-0.005665892216485375,-0.002903951357515624,0.0022816437879927785, ,1.265226125717163
0.010911968094803461,0.021677210214045756,-0.08416061902698452, ,0.010963964856928233,0.021789107012846427,-0.08442910916014863, ,0.0002954852085296017, ,0.0010150374881709161,0.0012911462146933275,-0.00503406622322553,-0.0021133606370704926,-0.0034473068804174,0.005641248163992211, ,0.005295203715621278, ,0.004043539869616058, ,3.7262962965856614e-05, ,0.20140115062690098,-0.23481741577367043,0.09639601327000001,1.7930587067361679,0.7646178526874048,-1.2587101511583267, ,-0.00026065739972431693,-0.0011020778647370746,0.005281436180371354,-0.005206531173594104,-0.002617790590997105,0.002084327496999461, ,1.2837131023406982
0.010933477450937503,0.021704406110806637,-0.08426923958130075, ,0.010986828547530548,0.021814979008015434,-0.08453477495314914, ,0.000292543567366446, ,0.0011581816867993187,0.0014265716365874717,-0.005629932330023909,-0.0020004493430482834,-0.0033915715335267804,0.005202618741369171, ,0.005922214914590791, ,0.003937581667095579, ,3.755886478350888e-05, ,0.20139342789402676,-0.23482513850654466,0.09651008679,1.7930587067361679,0.7646178526874048,-1.2587101511583267, ,0.0,-0.0009495573434611502,0.00590831287833828,-0.00481424773935814,-0.0023816085624034393,0.0019091632237379906, ,1.3014590740203857
0.010943855539177701,0.02171898712988752,-0.08432334558700366, ,0.011010202000765244,0.021840145546411966,-0.08464024433909763, ,0.000345696447680059, ,0.0011260268969071328,0.0013965805666144094,-0.005512055605838197,-0.0019119636669800814,-0.0031671787939133423,0.005018091603189992, ,0.005796648243032832, ,0.0036995434161828733, ,3.7992661826812495e-05, ,0.20138570516115253,-0.23484058397229313,0.09656712355000001,1.7930587067361679,0.7646178526874048,-1.2587101511583267, ,-8.812522172975569e-05,-0.0009235975321755721,0.0057838821786492375,-0.004642072023200629,-0.0022806153462387535,0.001833241759927879, ,1.3191320896148682
0.010966770359609005,0.021747091814551502,-0.08443558680387124, ,0.011034081493245137,0.021864612611871698,-0.08474551813286008, ,0.0003382297373131782, ,0.001148399523473352,0.0014961777150169172,-0.005625271998926392,-0.000917190880462738,-0.0029247193293236557,0.004826815037848475, ,0.00593304763863669, ,0.0030651617630738995, ,3.8394467865238283e-05, ,0.20138570516115253,-0.23484830670516735,0.09668508594000001,1.7930587067361679,0.7646178526874048,-1.2587101511583265, ,-8.815701343330585e-05,-0.001695911159514252,0.005921491271375466,-0.004332570499248754,-0.002102127801505458,0.0016560172334989264, ,1.3372540473937988
0.010991892216721009,0.021775709672988846,-0.0845590011609877, ,0.011058463314234759,0.02188838616768146,-0.08485059714554402, ,0.00031961840011139565, ,0.0013086453327495937,0.0016526117326282474,-0.006405072607624588,0.001008461758183791,-1.1800550166683975e-05,0.00016374617276746276, ,0.006743043322913674, ,0.0010085254536527652, ,3.8839616735614806e-05, ,0.2013779824282783,-0.23484830670516735,0.09680952978000001,1.7928490167926832,0.7644812161876393,-1.2585987332546305, ,1.1272246371283748e-05,-0.0010015009173942237,0.006718182842682413,0.0,0.0,-5.812703503674367e-05, ,1.3514201641082764
0.011005658598453656,0.021791395235207758,-0.08462314801924348, ,0.011083343765633101,0.021911472156607197,-0.0849554821845061, ,0.00036180028973630235, ,0.0013079971649850271,0.0016162134007672785,-0.006297943840770269,0.00035141903266201497,-0.000259682837675049,0.0004984598948454, ,0.006632277057084147, ,0.0004369446240879641, ,3.938720777750829e-05, ,0.20138570516115253,-0.23484830670516735,0.09688082573000001,1.7928490167926832,0.7644812161876393,-1.2585170545144897, ,0.00025586960157058424,-0.0008585099159929651,0.006706868008421054,0.0,0.0,0.0005887387425464713, ,1.366206169128418
0.011035000968175522,0.021827392521725122,-0.08476212623358595, ,0.011108719161955953,0.021933876500921465,-0.08506017405335894, ,0.00032497032601634917, ,0.0015627678772404117,0.0017575386974277491,-0.007457979417162961,-0.0008542710356801962,0.0002070965964201293,-0.002425736409826715, ,0.007820015517754228, ,0.0008790022352379812, ,3.9826634273325384e-05, ,0.20139342789402676,-0.23485602943804157,0.09702730650000001,1.7930587067361679,0.7644812161876393,-1.2585170545144897, ,0.00041701374997321226,0.0009077787372709009,0.007815903591756624,0.0026980001522528664,0.0,0.0005887387425464713, ,1.3806650638580322
0.011044986908556527,0.021838553762769733,-0.08480774414143391, ,0.011134585830318663,0.021955605102431962,-0.0851646735519779, ,0.0003861704118765997, ,0.0015052684535790087,0.0017937903338761715,-0.0075691581030178185,-0.0007325957830734566,0.0011208765545195184,-0.0023678087968936144, ,0.007923109949238874, ,0.0013390429369189278, ,4.0415891090944344e-05, ,0.20140115062690098,-0.23485602943804157,0.09707526923000001,1.7930587067361679,0.7644812161876393,-1.2585170545144897, ,-0.0005045250142422335,0.0007769918157682703,0.007924781850746269,0.0026646585622469173,0.0,0.0005887387425464713, ,1.3955390453338623
0.011067306731570112,0.021864805616813927,-0.0849159837426768, ,0.011160940110418722,0.0219766638425093,-0.085268981476508, ,0.0003819514005476157, ,0.0016643460856274957,0.0018779359167208493,-0.007824728714034761,0.0005131388971156047,0.0009815781198632503,-0.0024553061244733114, ,0.00821724227757061, ,0.0011076000184205039, ,4.098218372894907e-05, ,0.20139342789402676,-0.23485602943804157,0.09718804646000001,1.7930587067361679,0.7643445796878738,-1.2584056366107932, ,0.0008203283258307906,0.0005839842832897528,0.008219200990712074,0.002548805715742822,0.0012712765321261576,-0.00044790202672899176, ,1.4098381996154785
0.011098989962178313,0.021902199434963222,-0.08506640886536994, ,0.01118777835451822,0.02199705858211479,-0.08537309861937119, ,0.0003330769304859986, ,0.0014817566175379785,0.0017311480621124723,-0.007106230741003411,0.0025230524886356758,0.0005039019623346753,-0.0002997144052949025, ,0.007462639722709066, ,0.00257287639160066, ,4.141258626220658e-05, ,0.20140115062690098,-0.23484830670516735,0.09734619384000001,1.793268396679652,0.7643445796878738,-1.2583239578706527, ,0.0004662556245793166,0.0,0.007467797243319269,-0.0010930852924851513,0.0012712765321261576,-0.003027630307328574, ,1.4257111549377441
0.011129441406159488,0.02193713163302271,-0.08521224511066157, ,0.011215096927426624,0.022016795161828986,-0.08547702576927306, ,0.00028946838051875065, ,0.0014090983353174096,0.0016352174938845988,-0.006760496782311221,0.00224845773961229,0.0004954300633927186,-0.00028819165707999174, ,0.0070967465161537865, ,0.002302389852444263, ,4.172447048253384e-05, ,0.20140887335977523,-0.23484058397229313,0.09749915606000001,1.793268396679652,0.7643445796878738,-1.2583239578706527, ,0.0004364569368679775,0.00012796044858379206,0.007101565546143559,-0.0010412170010710342,0.001219385347603482,-0.002846769278380301, ,1.4407000541687012
0.01114356510999354,0.0219540232317292,-0.08528141756320858, ,0.011242892206483265,0.022035879401879323,-0.08558076371120993, ,0.00032584416676069704, ,0.0014981160174804822,0.0017460388459402455,-0.00721138736230232,0.0021801313786290917,0.0005040033245451687,-0.00027114797827118575, ,0.007569485513727966, ,0.002237626572188379, ,4.2120845257672405e-05, ,0.20140887335977523,-0.23484058397229313,0.09757174830000001,1.793268396679652,0.7643445796878738,-1.2583239578706527, ,0.000398130066841612,0.00012017879774449684,0.007574327874465051,-0.001015611307052748,0.001182318331080156,-0.002757089964635727, ,1.4549121856689453
0.01115863411725881,0.021970553402277007,-0.08535190531080183, ,0.011271160581539864,0.02205431710216808,-0.08568431322647581, ,0.00036079576630796675, ,0.0015471018527962762,0.0018211458438200656,-0.007517078037883878,0.0021198755824181643,0.0006342345275781999,-0.00025510977733049245, ,0.00788774736886425, ,0.0022127137001933177, ,4.259569065341876e-05, ,0.20141659609264945,-0.23483286123941888,0.09764563683000001,1.793268396679652,0.7643445796878738,-1.2583239578706527, ,0.0002409557040528394,0.00011091168090574481,0.007893365470763133,-0.0009921749118862626,0.0011487015763714037,-0.0026751577352760753, ,1.469189167022705
0.011174019476401975,0.021988952585536306,-0.08542725389559047, ,0.011299898454943232,0.022072114042300448,-0.08578767509266902, ,0.00039072341167795094, ,0.001426607490114082,0.0016794773202588012,-0.006936229843022171,0.0020507512298941813,0.0006317547396353836,-0.00024063113978548705, ,0.007277852529101194, ,0.0021458514866371683, ,4.324014246645233e-05, ,0.20141659609264945,-0.23483286123941888,0.09772471052000001,1.793268396679652,0.7643445796878738,-1.2583239578706527, ,0.0002162452822500072,0.00010949977064599434,0.0072834071879286704,-0.0009680183165457895,0.001114651605837738,-0.0025917411480797566, ,1.47983717918396
0.011202623334344523,0.022021397549950632,-0.08556506903816453, ,0.011329102241517716,0.022089275981612703,-0.08589085008369982, ,0.0003560023666700667, ,0.0017373726017737413,0.0019652436707930216,-0.008264542812554343,0.00130581076375389,-6.652981025665294e-05,-0.0002594389385646643, ,0.008670831225639773, ,0.0013074897361712763, ,4.3790706795578146e-05, ,0.2014320415583979,-0.23482513850654466,0.09780248792000001,1.793268396679652,0.7644812161876393,-1.2584353757743492, ,0.000641767142081469,0.0001930228032498118,0.007835126178061978,-0.0009443918237119886,0.0008191481150374458,-0.002296531065848899, ,1.491314172744751
0.011225039397948396,0.022045827675055994,-0.08566486209018903, ,0.011358768368547979,0.022105808659199977,-0.0859938389697967, ,0.00036014850180572216, ,0.001921167888192275,0.00207535533794587,-0.008703074290951535,0.001265582174452417,-0.0011292474053013297,-0.00025224147895815417, ,0.00915103753391839, ,0.0016961273573804735, ,4.434330675069647e-05, ,0.20145520975702055,-0.23481741577367043,0.09797489449,1.793268396679652,0.7644812161876393,-1.2584353757743492, ,0.0017097144330101754,0.000542158098020858,0.009143979058553388,-0.0009032375615812114,0.0008191481150374458,-0.002203166067856834, ,1.5023629665374756
0.011245633476290314,0.02206657551011649,-0.08575238215762274, ,0.011388893275761385,0.022121717793944312,-0.08609664251751344, ,0.0003769339955513612, ,0.0019928801505855204,0.002090986171073604,-0.008716938872442641,0.0013404300274359906,-0.001901912540862895,-0.00022438719628628057, ,0.009183072349062725, ,0.002326794714268206, ,4.4928208609927334e-05, ,0.20148610068851747,-0.2348096930407962,0.09806693108000002,1.793268396679652,0.7644812161876393,-1.2584353757743492, ,0.002486717285482489,0.000431970871834982,0.009170300241796202,-0.0008833995874755591,0.0008191481150374458,-0.0021587107985184765, ,1.5129420757293701
0.011265759378640708,0.02208594149215478,-0.0858457023816149, ,0.011419473415310686,0.02213700908454274,-0.08619926148973679, ,0.0003888958048084712, ,0.002090004406151526,0.0021769205985905965,-0.009414006938925287,0.0005377118963696334,-0.001157142703128468,-0.0012624193012672872, ,0.009885880251977276, ,0.0012759464644221978, ,4.553323522654326e-05, ,0.2015015461542659,-0.23478652484217355,0.09816415283,1.7930587067361679,0.7644812161876393,-1.2584353757743492, ,0.001954118167760339,0.0013961256486062132,0.009875270626162431,2.832738329237902e-05,0.0008191481150374458,-0.002116111076885349, ,1.5235919952392578
0.011288921141409381,0.02210903295811453,-0.08594574069431336, ,0.011450505251756553,0.022151688209535073,-0.08630169664569232, ,0.0003932347066479918, ,0.0023721094162621093,0.0022981600888460447,-0.010140238961262147,-0.00013523132319818082,-0.0026669546962851164,-0.001371130687369116, ,0.010664562300825246, ,0.0026703609590120908, ,4.613993735649211e-05, ,0.2015324370857628,-0.2347710793764251,0.09826915232000001,1.7930587067361679,0.7644812161876393,-1.2584353757743492, ,0.0034636600952405523,0.00204929843665553,0.01064048865731463,2.832738329237902e-05,0.0008191481150374458,-0.0020764045303548755, ,1.5348000526428223
0.011310709730750854,0.022130907329959534,-0.0860400602183375, ,0.01148198526205021,0.02216576082733233,-0.08640394874095196, ,0.0004036891511937437, ,0.002348084619974774,0.002269062839805295,-0.009780745908090806,0.0002761649466347364,-0.002343417143237872,-0.0007431466216874902, ,0.010311408151759991, ,0.002359614688328788, ,4.6762635335657054e-05, ,0.20157105075013393,-0.23475563391067664,0.09836896665000001,1.7930587067361679,0.7646178526874048,-1.258628472418186, ,0.004088918580474254,0.0014386262873956684,0.010289929922480621,2.832738329237902e-05,0.0018220946831459521,-0.0016461984378396911, ,1.5452830791473389
0.011335628376766806,0.02215385994288135,-0.08614528566650421, ,0.011513909935516039,0.02217923257624438,-0.0865060185274411, ,0.00040318269019581833, ,0.002458819826940908,0.0022085994052336412,-0.010433384143811276,-0.002051717785520461,-0.0020777416704870215,-0.001219530234894447, ,0.010944368915862104, ,0.0029200055976137604, ,4.7375443690409614e-05, ,0.20160966441450506,-0.23472474297917975,0.09847526243000002,1.7930587067361679,0.7646178526874048,-1.258628472418186, ,0.003823223564845457,0.0038153047549087317,0.010910144876712331,2.832738329237902e-05,0.0018220946831459521,-0.001646921497073293, ,1.555981159210205
0.01135559680792364,0.022171681251993834,-0.0862295999972455, ,0.011546275773833941,0.02219210907450795,-0.08660790675344532, ,0.0004241364942559411, ,0.0024092047110726243,0.0021776790469665627,-0.010137937937805286,-0.001609522483460779,-0.0021918868492916085,-0.0011294533494650536, ,0.010645390504920119, ,0.002719342474763878, ,4.813967943721964e-05, ,0.20164055534600195,-0.23469385204768284,0.09856729902000001,1.7930587067361679,0.7646178526874048,-1.258628472418186, ,0.003937346181704985,0.0033642385794499367,0.010619207680000001,2.832738329237902e-05,0.0018220946831459521,-0.0016472033819334994, ,1.5635170936584473
0.011382656222998545,0.02219485461629953,-0.08633852274859005, ,0.011579079291022216,0.022204395920314573,-0.08670961416361701, ,0.0004199784475908872, ,0.0022256342319394917,0.0019606256625949036,-0.009276552116630784,-0.0016714391986948848,-0.00209639825915205,-0.0011422641998436306, ,0.009739195033254733, ,0.0026811426593288884, ,4.8887252390375406e-05, ,0.20169461447612153,-0.23465523838331173,0.09868137254,1.7930587067361679,0.7646178526874048,-1.258628472418186, ,0.00384182715326783,0.0034274913778472573,0.009636304609800365,2.832738329237902e-05,0.0018220946831459521,-0.0016471850290944372, ,1.5713961124420166
0.011382656222998545,0.02219485461629953,-0.08633852274859005, ,0.011612317013419943,0.022216098691839103,-0.086811141498983, ,0.0005258934042422535, ,0.0022256342319394917,0.0019606256625949036,-0.009276552116630784,-0.0016714391986948848,-0.00209639825915205,-0.0011422641998436306, ,0.009739195033254733, ,0.0026811426593288884, ,4.987143376844783e-05, ,0.20169461447612153,-0.23465523838331173,0.09868137254,1.7930587067361679,0.7646178526874048,-1.258628472418186, ,0.00384182715326783,0.0034274913778472573,0.009636304609800365,2.832738329237902e-05,0.0018220946831459521,-0.0016471850290944372, ,1.5786120891571045
0.011408038650693198,0.022215092491871823,-0.0864435534440406, ,0.011645985479669574,0.02222722294726696,-0.08691248949695093, ,0.000525991314649898, ,0.0029580593130023036,0.0022160335601079037,-0.011655689223401175,-0.0040087396679674295,-0.0036050133838328186,-0.002131324620488928, ,0.012227673977959767, ,0.005391280005591228, ,5.084683067259657e-05, ,0.2017486736062411,-0.23459345652031793,0.09879155719,1.7930587067361679,0.7647544891871703,-1.2587398903218825, ,0.006704618813787481,0.007043042383651587,0.012168687181054242,2.832738329237902e-05,0.0032418869300239097,-0.0028045987306934105, ,1.5857641696929932
0.011441493077774376,0.022242022476878575,-0.08657354523401863, ,0.011680081240699624,0.022237774224822704,-0.08701365889131643, ,0.0005006419783374391, ,0.0036001882982926252,0.003073763558029227,-0.014114953161667831,-0.0012713851774851807,-0.005146371634739777,-0.0015996729344842319, ,0.014887621735855205, ,0.0053010377288406395, ,5.1755596770528795e-05, ,0.20182590093498334,-0.23453939739019836,0.09892766764000001,1.7930587067361679,0.7647544891871703,-1.258821569062023, ,0.008246146520877776,0.004281894669826705,0.014831295642458102,2.832738329237902e-05,0.0032418869300239097,-0.0028431310727596764, ,1.5930261611938477
0.011476619453625353,0.02227106134056283,-0.08671405703456757, ,0.011714600859707092,0.022247758042797664,-0.08711465041227041, ,0.0006061481429481741, ,0.0036001882982926252,0.003073763558029227,-0.014114953161667831,-0.0012713851774851807,-0.005146371634739777,-0.0015996729344842319, ,0.014887621735855205, ,0.0053010377288406395, ,5.2895363095715e-05, ,0.20182590093498334,-0.23453939739019836,0.09892766764000001,1.7930587067361679,0.7647544891871703,-1.258821569062023, ,0.008246146520877776,0.004281894669826705,0.014831295642458102,2.832738329237902e-05,0.0032418869300239097,-0.0028431310727596764, ,1.600973129272461
0.011476619453625353,0.02227106134056283,-0.08671405703456757, ,0.01174954091214012,0.02225717989957828,-0.08721546478640499, ,0.0005710416364191773, ,0.003845601894578937,0.0031408183505620764,-0.015069126548745454,-0.001785133184288365,-0.006150468067072616,0.0013361126854053798, ,0.015866063430634635, ,0.006404231483562349, ,5.3945590884039485e-05, ,0.2019108509965998,-0.234493060992953,0.09907544470000001,1.7928490167926832,0.7648911256869357,-1.2590146657058603, ,0.008901485702642873,0.005783273985318465,0.015802392380952386,-0.004362679644265653,0.0039353649662293,-0.004881960641721653, ,1.6089661121368408
0.011515086815731181,0.022301593909791886,-0.08687175495891986, ,0.011784897985680616,0.022266045273673853,-0.08731610273672163, ,0.0005210630677727163, ,0.0039346839364184216,0.003022846987902262,-0.015673992810061783,0.0016335014941076032,-0.0002787901589708022,-0.0004943207063057403, ,0.016440601941584965, ,0.0016568358604790528, ,5.487406703236451e-05, ,0.2020035237910905,-0.23441583366421076,0.09924136982000001,1.7926393268491987,0.7651643986864665,-1.2594008589935342, ,0.008953089697190261,0.008662291272123758,0.016404543274974256,-0.004973427360495897,0.010282530561256104,-0.011229403649860876, ,1.6160321235656738
0.011555607333359919,0.022330814696192566,-0.08702578751226264, ,0.01182066868022672,0.022274359623744546,-0.08741656498263715, ,0.0004755541232712178, ,0.003923522605794706,0.002699541686880487,-0.014612599758666925,0.000920017188606652,-0.0025521508046708135,-0.0006464045590918533, ,0.015369112748118554, ,0.0027127917551428527, ,5.569242495005241e-05, ,0.20210391931845542,-0.23432316086972008,0.09940210978000001,1.7926393268491987,0.7651643986864665,-1.2594008589935342, ,0.011226421573224982,0.009396927115102148,0.015301451988472626,-0.004973427360495897,0.010282530561256104,-0.011236600996337286, ,1.6231400966644287
0.011555607333359919,0.022330814696192566,-0.08702578751226264, ,0.01185684960787533,0.02228212838862943,-0.0875168522399914, ,0.0005781538128549049, ,0.003923522605794706,0.002699541686880487,-0.014612599758666925,0.000920017188606652,-0.0025521508046708135,-0.0006464045590918533, ,0.015369112748118554, ,0.0027127917551428527, ,5.6731999477791386e-05, ,0.20210391931845542,-0.23432316086972008,0.09940210978000001,1.7926393268491987,0.7651643986864665,-1.2594008589935342, ,0.011226421573224982,0.009396927115102148,0.015301451988472626,-0.004973427360495897,0.010282530561256104,-0.011236600996337286, ,1.630479097366333
0.011590446310704078,0.022354357457491803,-0.08715293110161595, ,0.01189343739290495,0.022289356987374692,-0.08761696522105371, ,0.0005579931191431235, ,0.0037717102845739566,0.002443777491795198,-0.01354612164886751,0.005485111404600317,0.0012538725898032905,-0.0017733537057102423, ,0.014272184788114355, ,0.005626560892482112, ,5.771765162898327e-05, ,0.20221203757869458,-0.23423821080810361,0.09953562765000001,1.7926393268491987,0.7653010351862319,-1.259593955637371, ,0.012311486969184066,0.009424916382450101,0.014222153142857146,-0.004973427360495897,0.015406436486810783,-0.015710321033862332, ,1.6377301216125488
0.011633226643297231,0.022379289949667588,-0.08729936348578837, ,0.011930428671757925,0.022296050819261323,-0.08771690463452972, ,0.0005192286677796065, ,0.004160671358266479,0.0021539893019434505,-0.013544320407489516,0.001974786488069643,-0.0034282410314145115,-0.002335412311184829, ,0.014331764419118913, ,0.0039562813892061776, ,5.860902770960499e-05, ,0.20237421496905328,-0.23411464708211602,0.09968988616,1.7926393268491987,0.7655743081857628,-1.2598167914447638, ,0.01657299014293936,0.012620952461560152,0.014196801711229948,-0.004973427360495897,0.014964580417422605,-0.01534638971557456, ,1.6453361511230469
0.011633226643297231,0.022379289949667588,-0.08729936348578837, ,0.011967820093023168,0.022302215263833056,-0.087816671185569, ,0.0006208868979518909, ,0.004160671358266479,0.0021539893019434505,-0.013544320407489516,0.001974786488069643,-0.0034282410314145115,-0.002335412311184829, ,0.014331764419118913, ,0.0039562813892061776, ,5.9847525221151874e-05, ,0.20237421496905328,-0.23411464708211602,0.09968988616,1.7926393268491987,0.7655743081857628,-1.2598167914447638, ,0.01657299014293936,0.012620952461560152,0.014196801711229948,-0.004973427360495897,0.014964580417422605,-0.01534638971557456, ,1.6490020751953125
0.011674716443915222,0.022400311648727137,-0.08743298601255602, ,0.012005608317418814,0.02230785568092477,-0.08791626557577138, ,0.0005929558787588036, ,0.004044392144974518,0.0020913477648908376,-0.012976606088903074,0.003774107912248536,-0.002174442741516586,-0.00373137826258314, ,0.013752205237073864, ,0.004355654233889167, ,6.101919193222364e-05, ,0.2025441150922862,-0.23399880608900264,0.09982988548,1.7924296369057142,0.7657109446855282,-1.2599282093484603, ,0.01657009630844609,0.01188756613301682,0.013626014987168523,-0.0035370780868484632,0.01592310262899006,-0.016115861876034206, ,1.652557134628296
0.011674716443915222,0.022400311648727137,-0.08743298601255602, ,0.012043790017774673,0.022312977410690403,-0.08801568850319386, ,0.0006952587753134704, ,0.004044392144974518,0.0020913477648908376,-0.012976606088903074,0.003774107912248536,-0.002174442741516586,-0.00373137826258314, ,0.013752205237073864, ,0.004355654233889167, ,6.241006821156848e-05, ,0.2025441150922862,-0.23399880608900264,0.09982988548,1.7924296369057142,0.7657109446855282,-1.2599282093484603, ,0.01657009630844609,0.01188756613301682,0.013626014987168523,-0.0035370780868484632,0.01592310262899006,-0.016115861876034206, ,1.6561551094055176
0.011674716443915222,0.022400311648727137,-0.08743298601255602, ,0.012082361879014741,0.0223175857736303,-0.08811494066235803, ,0.0007987994213534485, ,0.004044392144974518,0.0020913477648908376,-0.012976606088903074,0.003774107912248536,-0.002174442741516586,-0.00373137826258314, ,0.013752205237073864, ,0.004355654233889167, ,6.402142347008463e-05, ,0.2025441150922862,-0.23399880608900264,0.09982988548,1.7924296369057142,0.7657109446855282,-1.2599282093484603, ,0.01657009630844609,0.01188756613301682,0.013626014987168523,-0.0035370780868484632,0.01592310262899006,-0.016115861876034206, ,1.65972900390625
0.01172025004161328,0.022420513211878115,-0.08758024598428099, ,0.012121320598139898,0.02232168607062013,-0.08821402274425663, ,0.0007565033883909691, ,0.004984047922079173,0.0023084647598142303,-0.016464930079712694,0.004891757092084239,0.003046223376259713,-0.0018229202652850092, ,0.017356948630641095, ,0.005762599610140238, ,0.00035731302278832906, ,0.20272173794839338,-0.23385207416439238,0.09997247738000001,1.7922199469622295,0.7659842176850592,-1.260151045155853, ,0.01966368453345851,0.017717875571036365,0.016784838271865124,-0.008919240956657236,0.026087321313148008,-0.024393210234159142, ,1.663323163986206
0.01172025004161328,0.022420513211878115,-0.08758024598428099, ,0.012160662884210447,0.022325283582938497,-0.08831293543636057, ,0.0008601546299016036, ,0.004984047922079173,0.0023084647598142303,-0.016464930079712694,0.004891757092084239,0.003046223376259713,-0.0018229202652850092, ,0.017356948630641095, ,0.005762599610140238, ,0.00036322880640142643, ,0.20272173794839338,-0.23385207416439238,0.09997247738000001,1.7922199469622295,0.7659842176850592,-1.260151045155853, ,0.01966368453345851,0.017717875571036365,0.016784838271865124,-0.008919240956657236,0.026087321313148008,-0.024393210234159142, ,1.6669421195983887
0.01172025004161328,0.022420513211878115,-0.08758024598428099, ,0.012200385458328652,0.022328383572294632,-0.08841167942262602, ,0.000964520321855621, ,0.004984047922079173,0.0023084647598142303,-0.016464930079712694,0.004891757092084239,0.003046223376259713,-0.0018229202652850092, ,0.017356948630641095, ,0.005762599610140238, ,0.00037022056820903336, ,0.20272173794839338,-0.23385207416439238,0.09997247738000001,1.7922199469622295,0.7659842176850592,-1.260151045155853, ,0.01966368453345851,0.017717875571036365,0.016784838271865124,-0.008919240956657236,0.026087321313148008,-0.024393210234159142, ,1.6705200672149658
0.011775010802247006,0.022448196281108355,-0.08777973061797759, ,0.012240485053621297,0.02233099128085686,-0.08851025538350098, ,0.0008741108189579943, ,0.006234610863859566,0.003564821656536114,-0.022660084898838143,0.03858557252277947,0.04082843514766745,-0.005102679771075011, ,0.023770943895630586, ,0.05617652133172784, ,0.00037601241017166514, ,0.20294569720174588,-0.23362811491103988,0.10019414297000001,1.7918005670752608,0.7666674001838863,-1.2608714921546165, ,0.022735251930635067,0.02125827543872553,0.02391713441441442,-0.014953734024704438,0.07016639081017394,-0.06068250056695519, ,1.67411208152771
0.011775010802247006,0.022448196281108355,-0.08777973061797759, ,0.0122809584152223,0.022333111931280483,-0.08860866399593267, ,0.0009779355498900405, ,0.006234610863859566,0.003564821656536114,-0.022660084898838143,0.03858557252277947,0.04082843514766745,-0.005102679771075011, ,0.023770943895630586, ,0.05617652133172784, ,0.00038285244585028306, ,0.20294569720174588,-0.23362811491103988,0.10019414297000001,1.7918005670752608,0.7666674001838863,-1.2608714921546165, ,0.022735251930635067,0.02125827543872553,0.02391713441441442,-0.014953734024704438,0.07016639081017394,-0.06068250056695519, ,1.6776680946350098
0.011847468195180903,0.022487811718724,-0.08803517211430446, ,0.012321802300255182,0.022334750726735245,-0.08870690593337388, ,0.0010823608000945276, ,0.007951968695866962,0.004332277366812792,-0.027939792245176103,0.021347546807010658,0.017257214327210325,0.013325656339292844, ,0.023770943895630586, ,0.027450176226866525, ,0.0003907120902799937, ,0.20320827011946951,-0.2333887101919389,0.10046247500000001,1.7915908771317761,0.7672139461829481,-1.2613988425095426, ,0.028861600230678464,0.025332872813259688,0.02933482784530387,-0.033974270165451195,0.05646822381297362,-0.05205722203306083, ,1.6821200847625732
0.011847468195180903,0.022487811718724,-0.08803517211430446, ,0.012363013477815727,0.022335912850934326,-0.0888049818657908, ,0.0009388648773738791, ,0.007951968695866962,0.004332277366812792,-0.027939792245176103,0.021347546807010658,0.017257214327210325,0.013325656339292844, ,0.029370638808623985, ,0.027450176226866525, ,0.0003968026768032591, ,0.20320827011946951,-0.2333887101919389,0.10046247500000001,1.7915908771317761,0.7672139461829481,-1.2613988425095426, ,0.028861600230678464,0.025332872813259688,0.02933482784530387,-0.033974270165451195,0.05646822381297362,-0.05205722203306083, ,1.685718059539795
0.011847468195180903,0.022487811718724,-0.08803517211430446, ,0.012404588728954669,0.022336603468161787,-0.08890289245966917, ,0.0010422023901096682, ,0.007951968695866962,0.004332277366812792,-0.027939792245176103,0.021347546807010658,0.017257214327210325,0.013325656339292844, ,0.029370638808623985, ,0.027450176226866525, ,0.00040389498134508773, ,0.20320827011946951,-0.2333887101919389,0.10046247500000001,1.7915908771317761,0.7672139461829481,-1.2613988425095426, ,0.028861600230678464,0.025332872813259688,0.02933482784530387,-0.033974270165451195,0.05646822381297362,-0.05205722203306083, ,1.689291000366211
0.011932007744293314,0.022533934714400225,-0.08832716540853948, ,0.012446524846659871,0.022336827723300152,-0.0890006383780213, ,0.0008701407099951514, ,0.009226397542006324,0.004856306183066948,-0.03120696462899799,-0.001306295047451551,-0.00875650804811763,0.013466063372080892, ,0.032902655860923544, ,0.0088517366809896, ,0.0004089628696999797, ,0.20350945670156428,-0.23312613727421527,0.10076839944,1.7913811871882916,0.7676238556822444,-1.261896453700913, ,0.033520643432875585,0.028176051531612463,0.03264100721311476,-0.029514253027124793,0.03302338420150116,-0.031892711582954925, ,1.6929051876068115
0.011932007744293314,0.022533934714400225,-0.08832716540853948, ,0.012488818635839243,0.02233659074185908,-0.0890982202803934, ,0.0009713437228150238, ,0.009226397542006324,0.004856306183066948,-0.03120696462899799,-0.001306295047451551,-0.00875650804811763,0.013466063372080892, ,0.032902655860923544, ,0.0088517366809896, ,0.0004150099756474533, ,0.20350945670156428,-0.23312613727421527,0.10076839944,1.7913811871882916,0.7676238556822444,-1.261896453700913, ,0.033520643432875585,0.028176051531612463,0.03264100721311476,-0.029514253027124793,0.03302338420150116,-0.031892711582954925, ,1.6978600025177002
0.012014596217430503,0.022574333750000185,-0.08860200765116834, ,0.012531466913303152,0.02233589763000306,-0.08919563882287206, ,0.0008224384886357693, ,0.009798439277318745,0.004331620779248413,-0.0313379952026932,0.014458993180767023,-0.0034969683759496716,-0.005687266199047327, ,0.03311860948425434, ,0.014874846128211239, ,0.00041934432153030774, ,0.20350945670156428,-0.23312613727421527,0.10076839944,1.7913811871882916,0.7676238556822444,-1.261896453700913, ,0.033520643432875585,0.028176051531612463,0.03264100721311476,-0.029514253027124793,0.03302338420150116,-0.031892711582954925, ,1.701733112335205
0.012014596217430503,0.022574333750000185,-0.08860200765116834, ,0.012574466507747104,0.02233475347457963,-0.08929289465809181, ,0.0009209659639125998, ,0.009798439277318745,0.004331620779248413,-0.0313379952026932,0.014458993180767023,-0.0034969683759496716,-0.005687266199047327, ,0.03311860948425434, ,0.014874846128211239, ,0.0004246245493448582, ,0.2038260887494075,-0.2328481188907432,0.10105617582000001,1.791171497244807,0.7680337651815408,-1.2625574223725644, ,0.03987266452036587,0.0347607844536523,0.03277533234567902,-0.021302547465315354,0.04306702072561298,-0.05464564088156405, ,1.7058320045471191
0.012014596217430503,0.022574333750000185,-0.08860200765116834, ,0.012617814259734097,0.02233316334314692,-0.08938998843524114, ,0.0010212486904619927, ,0.009798439277318745,0.004331620779248413,-0.0313379952026932,0.014458993180767023,-0.0034969683759496716,-0.005687266199047327, ,0.03311860948425434, ,0.014874846128211239, ,0.0004308393841481617, ,0.2038260887494075,-0.2328481188907432,0.10105617582000001,1.791171497244807,0.7680337651815408,-1.2625574223725644, ,0.03987266452036587,0.0347607844536523,0.03277533234567902,-0.021302547465315354,0.04306702072561298,-0.05464564088156405, ,1.7096490859985352
0.012121524862546685,0.0226152940592008,-0.08893444383498837, ,0.012661507021677452,0.022331132284002245,-0.0894869208000705, ,0.000823139990287115, ,0.00945139599605431,0.0031693473213773625,-0.028374466854611497,0.04086528069768681,-0.007300646569842956,-0.015115841025165173, ,0.030074640779254532, ,0.04151207311653173, ,0.0004348837202939241, ,0.20428945272186094,-0.2324388140484093,0.10140358154000001,1.7907521173578382,0.7685803111806025,-1.2635748451683342, ,0.04280421360327955,0.03843537527682089,0.02960745635687733,-0.03431778443089368,0.04497298568148707,-0.09346287986095772, ,1.7132391929626465
0.012121524862546685,0.0226152940592008,-0.08893444383498837, ,0.01270554165782308,0.022328665326209363,-0.08958369239489823, ,0.0009191057285678371, ,0.00945139599605431,0.0031693473213773625,-0.028374466854611497,0.04086528069768681,-0.007300646569842956,-0.015115841025165173, ,0.030074640779254532, ,0.04151207311653173, ,0.0004398247611946783, ,0.20428945272186094,-0.2324388140484093,0.10140358154000001,1.7907521173578382,0.7685803111806025,-1.2635748451683342, ,0.04280421360327955,0.03843537527682089,0.02960745635687733,-0.03431778443089368,0.04497298568148707,-0.09346287986095772, ,1.7168211936950684
0.012121524862546685,0.0226152940592008,-0.08893444383498837, ,0.012749915044232334,0.02232576747962743,-0.08968030385861803, ,0.0010173529552555528, ,0.00945139599605431,0.0031693473213773625,-0.028374466854611497,0.04086528069768681,-0.007300646569842956,-0.015115841025165173, ,0.030074640779254532, ,0.04151207311653173, ,0.0004456583793165053, ,0.20428945272186094,-0.2324388140484093,0.10140358154000001,1.7907521173578382,0.7685803111806025,-1.2635748451683342, ,0.04280421360327955,0.03843537527682089,0.02960745635687733,-0.03431778443089368,0.04497298568148707,-0.09346287986095772, ,1.720440149307251
0.012223648324383411,0.022638414574917397,-0.08921310355582626, ,0.012794624068764401,0.022322443734938104,-0.08977675582670606, ,0.000862296210624055, ,0.010205967769071957,0.0015748296254962436,-0.025935350372850413,-0.007374692036804407,-0.04782720055865356,0.0097366039780154, ,0.02791566344214639, ,0.04839230787556262, ,0.00044982475762958085, ,0.20479915309155977,-0.23198317280883005,0.10169265421000001,1.790332737470869,0.7688535841801334,-1.2642060746764296, ,0.05453847216004068,0.047903554547436035,0.026816181010101015,-0.04756724549313375,0.018141502891656225,-0.055188200951316754, ,1.724006175994873
0.012223648324383411,0.022638414574917397,-0.08921310355582626, ,0.012839665631058818,0.022318699063673772,-0.0898730489312273, ,0.0009577177187285477, ,0.010205967769071957,0.0015748296254962436,-0.025935350372850413,-0.007374692036804407,-0.04782720055865356,0.0097366039780154, ,0.02791566344214639, ,0.04839230787556262, ,0.00045485340080877855, ,0.20479915309155977,-0.23198317280883005,0.10169265421000001,1.790332737470869,0.7688535841801334,-1.2642060746764296, ,0.05453847216004068,0.047903554547436035,0.026816181010101015,-0.04756724549313375,0.018141502891656225,-0.055188200951316754, ,1.727550983428955
0.012223648324383411,0.022638414574917397,-0.08921310355582626, ,0.012885036642518237,0.022314538418246148,-0.08996918380084323, ,0.0010554561142606914, ,0.010205967769071957,0.0015748296254962436,-0.025935350372850413,-0.007374692036804407,-0.04782720055865356,0.0097366039780154, ,0.02791566344214639, ,0.04839230787556262, ,0.0004607416627053659, ,0.20479915309155977,-0.23198317280883005,0.10169265421000001,1.790332737470869,0.7688535841801334,-1.2642060746764296, ,0.05453847216004068,0.047903554547436035,0.026816181010101015,-0.04756724549313375,0.018141502891656225,-0.055188200951316754, ,1.7311201095581055
0.012305001750153843,0.02264866197277925,-0.0894130199626994, ,0.012930734026290814,0.02230996673197337,-0.09006516106081783, ,0.0009651649389608039, ,0.010054840107749626,0.0009874545067111136,-0.02387413547245822,-0.0009175462395327252,-0.029153540326277098,-0.012830916189075775, ,0.025923912138265753, ,0.029167842715037508, ,0.0004656389760670692, ,0.20525479433113902,-0.23158159069937037,0.10190006061000001,1.7901230475273844,0.7691268571796643,-1.2646739467042443, ,0.05807646362207514,0.05077417953904269,0.024772646220839814,-0.020637851836586896,0.03498686432183764,-0.0565350936772289, ,1.7359321117401123
0.012305001750153843,0.02264866197277925,-0.0894130199626994, ,0.012976754717252818,0.022304988919108697,-0.09016098133302525, ,0.0010624544357878294, ,0.010054840107749626,0.0009874545067111136,-0.02387413547245822,-0.0009175462395327252,-0.029153540326277098,-0.012830916189075775, ,0.025923912138265753, ,0.029167842715037508, ,0.0004713775862566919, ,0.20525479433113902,-0.23158159069937037,0.10190006061000001,1.7901230475273844,0.7691268571796643,-1.2646739467042443, ,0.05807646362207514,0.05077417953904269,0.024772646220839814,-0.020637851836586896,0.03498686432183764,-0.0565350936772289, ,1.7398161888122559
0.012372000802309113,0.02265495016069247,-0.0895716421122715, ,0.013023095661991143,0.0222996098748679,-0.09025664523595667, ,0.0010096635650020658, ,0.009705673989708079,0.00040223157162666264,-0.02222625222466382,0.04830642204663457,0.02477188671844565,-0.02669579245956348, ,0.024256301980847834, ,0.05428767225066219, ,0.0004765041193876002, ,0.20567182190634714,-0.23122634498715605,0.10206728202000001,1.7901230475273844,0.7698100396784915,-1.2654760724431482, ,0.06202414480945802,0.053523373693440936,0.02335602862170088,-0.019207527252001443,0.09515731417270641,-0.1065229762061115, ,1.743610143661499
0.012372000802309113,0.02265495016069247,-0.0895716421122715, ,0.013069753818786028,0.02229383447545789,-0.09035215338472694, ,0.0011074572933323754, ,0.009705673989708079,0.00040223157162666264,-0.02222625222466382,0.04830642204663457,0.02477188671844565,-0.02669579245956348, ,0.024256301980847834, ,0.05428767225066219, ,0.00048245650782104154, ,0.20567182190634714,-0.23122634498715605,0.10206728202000001,1.7901230475273844,0.7698100396784915,-1.2654760724431482, ,0.06202414480945802,0.053523373693440936,0.02335602862170088,-0.019207527252001443,0.09515731417270641,-0.1065229762061115, ,1.7472290992736816
0.012372000802309113,0.02265495016069247,-0.0895716421122715, ,0.013116726157593435,0.022287667578104374,-0.09044750639108161, ,0.001206917803817429, ,0.009705673989708079,0.00040223157162666264,-0.02222625222466382,0.04830642204663457,0.02477188671844565,-0.02669579245956348, ,0.024256301980847834, ,0.05428767225066219, ,0.0004892271741387648, ,0.20567182190634714,-0.23122634498715605,0.10206728202000001,1.7901230475273844,0.7698100396784915,-1.2654760724431482, ,0.06202414480945802,0.053523373693440936,0.02335602862170088,-0.019207527252001443,0.09515731417270641,-0.1065229762061115, ,1.7508180141448975
0.012520135274448223,0.0226480300752895,-0.08988327842887991, ,0.013164009660027726,0.022281114021079625,-0.090542704863404, ,0.0009919903415817504, ,0.010453346100411891,-0.0014440772495973426,-0.02104305614386043,-0.03343957911209538,-0.06552921523069434,0.01817893431358117, ,0.023540773472243075, ,0.07356819539586182, ,0.0004938823886521257, ,0.20662171804987675,-0.2303922898367398,0.10238876194000002,1.7892842877534463,0.7703565856775533,-1.2664118164987772, ,0.06725509678134002,0.06613027286304585,0.021409692903225808,-0.05724374201206674,0.015184649257375348,-0.04830153733745254, ,1.754399061203003
0.012520135274448223,0.0226480300752895,-0.08988327842887991, ,0.013211601319344086,0.022274178623730954,-0.09063774940672192, ,0.0010895488311600523, ,0.010453346100411891,-0.0014440772495973426,-0.02104305614386043,-0.03343957911209538,-0.06552921523069434,0.01817893431358117, ,0.023540773472243075, ,0.07356819539586182, ,0.0004993472183999049, ,0.20662171804987675,-0.2303922898367398,0.10238876194000002,1.7892842877534463,0.7703565856775533,-1.2664118164987772, ,0.06725509678134002,0.06613027286304585,0.021409692903225808,-0.05724374201206674,0.015184649257375348,-0.04830153733745254, ,1.7580101490020752
0.012520135274448223,0.0226480300752895,-0.08988327842887991, ,0.013259498140421265,0.022266866186508454,-0.09073264062271498, ,0.0011888479692571607, ,0.010453346100411891,-0.0014440772495973426,-0.02104305614386043,-0.03343957911209538,-0.06552921523069434,0.01817893431358117, ,0.023540773472243075, ,0.07356819539586182, ,0.0005056154070440617, ,0.20662171804987675,-0.2303922898367398,0.10238876194000002,1.7892842877534463,0.7703565856775533,-1.2664118164987772, ,0.06725509678134002,0.06613027286304585,0.021409692903225808,-0.05724374201206674,0.015184649257375348,-0.04830153733745254, ,1.7616000175476074
0.0126323288633267,0.022632659360714485,-0.09011844105859942, ,0.013307697139744154,0.022259181490993103,-0.09082737910972091, ,0.0010479509474639727, ,0.011615960026216995,-0.000948941735237147,-0.024583048819878082,-0.008550055397988853,-0.03533523962418539,0.005204110233624228, ,0.027205832224507582, ,0.03635482950895977, ,0.0005105013128136105, ,0.20734765494005386,-0.22965863021368846,0.10262987188000001,1.7886552179229929,0.7709031316766151,-1.2671842030741252, ,0.07384975996768155,0.07060784342148123,0.025324024674085854,-0.04975208163762138,0.05182422981608357,-0.07440930947645716, ,1.7660400867462158
0.0126323288633267,0.022632659360714485,-0.09011844105859942, ,0.013356195345385971,0.0222511292999244,-0.09092196546274309, ,0.0011468214068414402, ,0.011615960026216995,-0.000948941735237147,-0.024583048819878082,-0.008550055397988853,-0.03533523962418539,0.005204110233624228, ,0.027205832224507582, ,0.03635482950895977, ,0.0005161827422245733, ,0.20734765494005386,-0.22965863021368846,0.10262987188000001,1.7886552179229929,0.7709031316766151,-1.2671842030741252, ,0.07384975996768155,0.07060784342148123,0.025324024674085854,-0.04975208163762138,0.05182422981608357,-0.07440930947645716, ,1.7696211338043213
0.012741420422811945,0.022628192940961283,-0.0903532125250803, ,0.013404989796991361,0.02224271435722904,-0.09101640027345731, ,0.001014266258170133, ,0.012023730052887559,-0.0009269671540379717,-0.02560962557478964,0.02974977321811962,0.011700750856810464,-0.019758180794786907, ,0.02830692979767139, ,0.03196788327900529, ,0.0005205905609497552, ,0.20806586909735675,-0.22899447518650518,0.10287616698000002,1.7886552179229929,0.7719962236747385,-1.2684839400043992, ,0.07816881512229883,0.07316649310599135,0.026816181010101015,-0.03291572192353154,0.10261675539013836,-0.1217315067529728, ,1.77333402633667
0.012741420422811945,0.022628192940961283,-0.0903532125250803, ,0.01345407754575847,0.022233941388047976,-0.0911106841302182, ,0.0011122399446392625, ,0.012023730052887559,-0.0009269671540379717,-0.02560962557478964,0.02974977321811962,0.011700750856810464,-0.019758180794786907, ,0.02830692979767139, ,0.03196788327900529, ,0.0005257804678242246, ,0.20806586909735675,-0.22899447518650518,0.10287616698000002,1.7886552179229929,0.7719962236747385,-1.2684839400043992, ,0.07816881512229883,0.07316649310599135,0.026816181010101015,-0.03291572192353154,0.10261675539013836,-0.1217315067529728, ,1.777076005935669
0.012741420422811945,0.022628192940961283,-0.0903532125250803, ,0.013503455654421879,0.022224815098765543,-0.09120481761806731, ,0.0012118756587169803, ,0.012023730052887559,-0.0009269671540379717,-0.02560962557478964,0.02974977321811962,0.011700750856810464,-0.019758180794786907, ,0.02830692979767139, ,0.03196788327900529, ,0.0005317465129624225, ,0.20806586909735675,-0.22899447518650518,0.10287616698000002,1.7886552179229929,0.7719962236747385,-1.2684839400043992, ,0.07816881512229883,0.07316649310599135,0.026816181010101015,-0.03291572192353154,0.10261675539013836,-0.1217315067529728, ,1.7806980609893799
0.012871512306070521,0.022619461152547777,-0.09061891095845817, ,0.013553121197234907,0.02221534017703637,-0.09129880131873878, ,0.0010441050451775137, ,0.013490318128440214,-0.000304317004396034,-0.02750948328727041,-0.03727554700743874,-0.04874891439193602,-0.024743379518835328, ,0.030640707608968455, ,0.0613669887180602, ,0.0005361633968608284, ,0.20889992424777298,-0.22822992463195693,0.10315098046000001,1.7884455279795082,0.7725427696738003,-1.2692563265797472, ,0.0846538283304824,0.07390727535706447,0.028495190554561723,0.0,0.03748606820552984,-0.034631793873457654, ,1.7843611240386963
0.012871512306070521,0.022619461152547777,-0.09061891095845817, ,0.013603071259952255,0.022205521291814072,-0.09139263581066695, ,0.001142442496686058, ,0.013490318128440214,-0.000304317004396034,-0.02750948328727041,-0.03727554700743874,-0.04874891439193602,-0.024743379518835328, ,0.030640707608968455, ,0.0613669887180602, ,0.0005413452695089073, ,0.20889992424777298,-0.22822992463195693,0.10315098046000001,1.7884455279795082,0.7725427696738003,-1.2692563265797472, ,0.0846538283304824,0.07390727535706447,0.028495190554561723,0.0,0.03748606820552984,-0.034631793873457654, ,1.7879841327667236
0.012871512306070521,0.022619461152547777,-0.09061891095845817, ,0.013653302939812699,0.022195363093379123,-0.09148632166899334, ,0.0012423594888552772, ,0.013490318128440214,-0.000304317004396034,-0.02750948328727041,-0.03727554700743874,-0.04874891439193602,-0.024743379518835328, ,0.030640707608968455, ,0.0613669887180602, ,0.0005472860679779443, ,0.20889992424777298,-0.22822992463195693,0.10315098046000001,1.7884455279795082,0.7725427696738003,-1.2692563265797472, ,0.0846538283304824,0.07390727535706447,0.028495190554561723,0.0,0.03748606820552984,-0.034631793873457654, ,1.7916951179504395
0.013017341365965367,0.022604008790734945,-0.0909107839359599, ,0.013703813345521445,0.02218487021336656,-0.09157985946557322, ,0.0010462232028020475, ,0.014623164449683255,-0.002074738002340588,-0.029324333979403375,-0.030908195661331253,-0.07814876469702134,0.0704113942265198, ,0.032833794170586315, ,0.08403882613792446, ,0.0005514788170100797, ,0.2098498203913026,-0.22738814674866648,0.10345171974000002,1.7873970782620854,0.773089315672862,-1.270110391895236, ,0.09470752650545987,0.08786753848006552,0.03005436135849057,-0.13158936567082846,0.04787469944870662,-0.08871734083689777, ,1.7953341007232666
0.013017341365965367,0.022604008790734945,-0.0909107839359599, ,0.013754599597232726,0.022174047264794293,-0.09167324976898263, ,0.0011444521658364427, ,0.014623164449683255,-0.002074738002340588,-0.029324333979403375,-0.030908195661331253,-0.07814876469702134,0.0704113942265198, ,0.032833794170586315, ,0.08403882613792446, ,0.0005564202615836328, ,0.2098498203913026,-0.22738814674866648,0.10345171974000002,1.7873970782620854,0.773089315672862,-1.270110391895236, ,0.09470752650545987,0.08786753848006552,0.03005436135849057,-0.13158936567082846,0.04787469944870662,-0.08871734083689777, ,1.7989320755004883
0.01316825679549865,0.02258591706495002,-0.09120876639596012, ,0.01380565882653239,0.02216289884209079,-0.09176649314452609, ,0.0009467232394437595, ,0.01419337277110109,-0.001887604344419546,-0.027503642484790505,0.004507761102242762,-0.02427459015314715,0.006050367255941538, ,0.0310075028132173, ,0.02468926688265048, ,0.0005596459060287577, ,0.2098498203913026,-0.22738814674866648,0.10345171974000002,1.7873970782620854,0.773089315672862,-1.270110391895236, ,0.09470752650545987,0.08786753848006552,0.03005436135849057,-0.13158936567082846,0.04787469944870662,-0.08871734083689777, ,1.8026161193847656
0.01316825679549865,0.02258591706495002,-0.09120876639596012, ,0.013856988176420629,0.022151429521123565,-0.09185959015424185, ,0.0010424499533075878, ,0.01419337277110109,-0.001887604344419546,-0.027503642484790505,0.004507761102242762,-0.02427459015314715,0.006050367255941538, ,0.0310075028132173, ,0.02468926688265048, ,0.0005636033162523546, ,0.21077654833620954,-0.22653092339962755,0.10374079241,1.786768008431632,0.7739091346714547,-1.271187293018117, ,0.09470752650545987,0.08634844545811718,0.02859750721723519,-0.06573243504911967,0.0884344891434241,-0.1160767331062798, ,1.8064191341400146
0.01316825679549865,0.02258591706495002,-0.09120876639596012, ,0.013908584801294206,0.02213964385922664,-0.09195254135691078, ,0.0011403712215103464, ,0.01419337277110109,-0.001887604344419546,-0.027503642484790505,0.004507761102242762,-0.02427459015314715,0.006050367255941538, ,0.0310075028132173, ,0.02468926688265048, ,0.0005682924862138017, ,0.21077654833620954,-0.22653092339962755,0.10374079241,1.786768008431632,0.7739091346714547,-1.271187293018117, ,0.09470752650545987,0.08634844545811718,0.02859750721723519,-0.06573243504911967,0.0884344891434241,-0.1160767331062798, ,1.8103950023651123
0.013302811803348582,0.02256931085745525,-0.09145741602068731, ,0.013960445866929197,0.02212754639522866,-0.09204534730806178, ,0.0009865604899557377, ,0.014478691027910886,-0.002463894850276558,-0.02563229815021868,-0.01087993016174382,-0.03527195069587848,-0.013148511122944816, ,0.02954180055745808, ,0.03691168272465565, ,0.0005716656152762367, ,0.21176505814411029,-0.2256659773177144,0.10401949476000001,1.786768008431632,0.7747289536700473,-1.271937479180436, ,0.10084690920135046,0.08893808955807946,0.026592339766277135,-0.034340475479308366,0.07630520379896943,-0.08479166679879191, ,1.814035177230835
0.013302811803348582,0.02256931085745525,-0.09145741602068731, ,0.014012568550463744,0.02211514164948152,-0.09213800855997975, ,0.0010831576589248272, ,0.014478691027910886,-0.002463894850276558,-0.02563229815021868,-0.01087993016174382,-0.03527195069587848,-0.013148511122944816, ,0.02954180055745808, ,0.03691168272465565, ,0.0005757575516254256, ,0.21176505814411029,-0.2256659773177144,0.10401949476000001,1.786768008431632,0.7747289536700473,-1.271937479180436, ,0.10084690920135046,0.08893808955807946,0.026592339766277135,-0.034340475479308366,0.07630520379896943,-0.08479166679879191, ,1.8175761699676514
0.013302811803348582,0.02256931085745525,-0.09145741602068731, ,0.014064950040380112,0.022102434123886978,-0.09223052566171146, ,0.001181747474605887, ,0.014478691027910886,-0.002463894850276558,-0.02563229815021868,-0.01087993016174382,-0.03527195069587848,-0.013148511122944816, ,0.02954180055745808, ,0.03691168272465565, ,0.0005805669954586038, ,0.21176505814411029,-0.2256659773177144,0.10401949476000001,1.786768008431632,0.7747289536700473,-1.271937479180436, ,0.10084690920135046,0.08893808955807946,0.026592339766277135,-0.034340475479308366,0.07630520379896943,-0.08479166679879191, ,1.8211750984191895
0.013455996989441783,0.022540485937984783,-0.0917236519539545, ,0.014117587536487739,0.0220894283019264,-0.09232289915907384, ,0.0010001261199621173, ,0.014742933156733954,-0.0028093445406194534,-0.025429691598238276,-0.0020431899746231426,-0.016965884906815734,-0.04631760254472902, ,0.029528218869301008, ,0.0170881608644111, ,0.0005838706106121748, ,0.2128385180136275,-0.22470063570843635,0.10429560453000002,1.7865583184881475,0.77554877266864,-1.2726876653427555, ,0.1039396950257073,0.09405048717390563,0.026459819800664457,0.0,0.09067488101807657,-0.09011909406534296, ,1.8247380256652832
0.013455996989441783,0.022540485937984783,-0.0917236519539545, ,0.014170478249905546,0.02207612864868718,-0.0924151295946595, ,0.0010973843862898066, ,0.014742933156733954,-0.0028093445406194534,-0.025429691598238276,-0.0020431899746231426,-0.016965884906815734,-0.04631760254472902, ,0.029528218869301008, ,0.0170881608644111, ,0.0005878824369846563, ,0.2128385180136275,-0.22470063570843635,0.10429560453000002,1.7865583184881475,0.77554877266864,-1.2726876653427555, ,0.1039396950257073,0.09405048717390563,0.026459819800664457,0.0,0.09067488101807657,-0.09011909406534296, ,1.828402042388916
0.013455996989441783,0.022540485937984783,-0.0917236519539545, ,0.014223619403044549,0.022062539610891715,-0.09250721750784488, ,0.001196516543425382, ,0.014742933156733954,-0.0028093445406194534,-0.025429691598238276,-0.0020431899746231426,-0.016965884906815734,-0.04631760254472902, ,0.029528218869301008, ,0.0170881608644111, ,0.0005926005308330341, ,0.2128385180136275,-0.22470063570843635,0.10429560453000002,1.7865583184881475,0.77554877266864,-1.2726876653427555, ,0.1039396950257073,0.09405048717390563,0.026459819800664457,0.0,0.09067488101807657,-0.09011909406534296, ,1.8319690227508545
0.013597907436453154,0.022506722788907123,-0.09197150102936796, ,0.014277008229590354,0.022048665616924833,-0.09259916343479649, ,0.0010319662568283475, ,0.014851163427395076,-0.003729480823495106,-0.025679214678264655,-0.007415631288649216,-0.03656280596494617,0.0659473380006227, ,0.029897962285955506, ,0.03730709317482354, ,0.0005959802671868441, ,0.2138501960201509,-0.22378935322927784,0.10455226995000001,1.785509868770725,0.7765052281669981,-1.273712626889052, ,0.10662577703198964,0.09527805377356505,0.026592339766277135,-0.12938389870214168,0.10280087877548892,-0.11495688102022418, ,1.835582971572876
0.013597907436453154,0.022506722788907123,-0.09197150102936796, ,0.014330641974485837,0.022034511076862398,-0.0926909679084776, ,0.001130272707957658, ,0.014851163427395076,-0.003729480823495106,-0.025679214678264655,-0.007415631288649216,-0.03656280596494617,0.0659473380006227, ,0.029897962285955506, ,0.03730709317482354, ,0.000600058835437003, ,0.2138501960201509,-0.22378935322927784,0.10455226995000001,1.785509868770725,0.7765052281669981,-1.273712626889052, ,0.10662577703198964,0.09527805377356505,0.026592339766277135,-0.12938389870214168,0.10280087877548892,-0.11495688102022418, ,1.8393120765686035
0.013597907436453154,0.022506722788907123,-0.09197150102936796, ,0.014384517893913708,0.022020080382498766,-0.09278263145865637, ,0.001230247705471873, ,0.014851163427395076,-0.003729480823495106,-0.025679214678264655,-0.007415631288649216,-0.03656280596494617,0.0659473380006227, ,0.029897962285955506, ,0.03730709317482354, ,0.0006048329935433278, ,0.2138501960201509,-0.22378935322927784,0.10455226995000001,1.785509868770725,0.7765052281669981,-1.273712626889052, ,0.10662577703198964,0.09527805377356505,0.026592339766277135,-0.12938389870214168,0.10280087877548892,-0.11495688102022418, ,1.843080997467041
0.013597907436453154,0.022506722788907123,-0.09197150102936796, ,0.014438633255278862,0.022005377907374855,-0.09287415461191119, ,0.0013315217169678005, ,0.014851163427395076,-0.003729480823495106,-0.025679214678264655,-0.007415631288649216,-0.03656280596494617,0.0659473380006227, ,0.029897962285955506, ,0.03730709317482354, ,0.0006102968185314818, ,0.2138501960201509,-0.22378935322927784,0.10455226995000001,1.785509868770725,0.7765052281669981,-1.273712626889052, ,0.10662577703198964,0.09527805377356505,0.026592339766277135,-0.12938389870214168,0.10280087877548892,-0.11495688102022418, ,1.8471651077270508
0.01375049287079912,0.02247286122909748,-0.09223201492779089, ,0.014492985337191075,0.021990408006806243,-0.09296553789163893, ,0.0011498313410411225, ,0.014860146933935524,-0.0033313527822371163,-0.025203636309387593,0.023900291173981306,0.0004358243289075804,0.011449500162812345, ,0.029447328596559536, ,0.02390405177291628, ,0.0006143231955651358, ,0.214954546821165,-0.222831734352874,0.10482449085000001,1.7846711089967866,0.777734956664887,-1.2749604242427415, ,0.10820631876678537,0.09358672737521774,0.02641593950248757,-0.07438400549462632,0.13019456719107309,-0.13176675249025868, ,1.8509230613708496
0.013889051777973449,0.022439328232702477,-0.09246067767392065, ,0.01454757142944776,0.021975175017911415,-0.0930567818180613, ,0.0010022108006005487, ,0.014037636741790845,-0.003985300766775994,-0.02311907169661209,0.008511803308242461,-0.00045212666766885126,-0.018318768958251415, ,0.02733915403975097, ,0.008523415360001646, ,0.0006171964370839166, ,0.2159662248276884,-0.22190500640796706,0.10506430450000001,1.7846711089967866,0.7789646851627761,-1.2762899003365713, ,0.10214956034281031,0.09703163758534844,0.02406164882175227,-0.03634780171437056,0.11422892891862274,-0.11097488517844245, ,1.8544931411743164
0.013889051777973449,0.022439328232702477,-0.09246067767392065, ,0.014602388833016067,0.021959683259639057,-0.09314788690823159, ,0.0011005296842903018, ,0.014037636741790845,-0.003985300766775994,-0.02311907169661209,0.008511803308242461,-0.00045212666766885126,-0.018318768958251415, ,0.02733915403975097, ,0.008523415360001646, ,0.0006207503580192577, ,0.2159662248276884,-0.22190500640796706,0.10506430450000001,1.7846711089967866,0.7789646851627761,-1.2762899003365713, ,0.10214956034281031,0.09703163758534844,0.02406164882175227,-0.03634780171437056,0.11422892891862274,-0.11097488517844245, ,1.8580660820007324
0.013889051777973449,0.022439328232702477,-0.09246067767392065, ,0.014657434860015838,0.02194393703279694,-0.09323885367604232, ,0.0012005760667241684, ,0.014037636741790845,-0.003985300766775994,-0.02311907169661209,0.008511803308242461,-0.00045212666766885126,-0.018318768958251415, ,0.02733915403975097, ,0.008523415360001646, ,0.0006249826624623592, ,0.2159662248276884,-0.22190500640796706,0.10506430450000001,1.7846711089967866,0.7789646851627761,-1.2762899003365713, ,0.10214956034281031,0.09703163758534844,0.02406164882175227,-0.03634780171437056,0.11422892891862274,-0.11097488517844245, ,1.8616011142730713
0.014042109978881665,0.022393359764767817,-0.09270238964048419, ,0.014712706833702075,0.021927940620079064,-0.09332968263223115, ,0.0010294715243428017, ,0.014915383268655241,-0.004510411211206357,-0.022987992275771085,-0.014344055340523772,-0.029259132675336558,-0.05034343580649516, ,0.027771572807746555, ,0.03258592255814909, ,0.0006279137411716378, ,0.21707829836157674,-0.22083926927132408,0.10531448847000001,1.7844614190533024,0.779921140661134,-1.2769881469223057, ,0.10832984196172464,0.10382597544690457,0.023774345552238813,0.0,0.08227940185706119,-0.08855554899027661, ,1.8652210235595703
0.014042109978881665,0.022393359764767817,-0.09270238964048419, ,0.014768202088447351,0.021911698286094305,-0.09342037428438904, ,0.0011290303275353932, ,0.014915383268655241,-0.004510411211206357,-0.022987992275771085,-0.014344055340523772,-0.029259132675336558,-0.05034343580649516, ,0.027771572807746555, ,0.03258592255814909, ,0.0006315188964692187, ,0.21707829836157674,-0.22083926927132408,0.10531448847000001,1.7844614190533024,0.779921140661134,-1.2769881469223057, ,0.10832984196172464,0.10382597544690457,0.023774345552238813,0.0,0.08227940185706119,-0.08855554899027661, ,1.8687560558319092
0.01418722074370765,0.022345589808899606,-0.09293018817900049, ,0.014823917969724485,0.021895214277393972,-0.09351092913696595, ,0.0009723587492562343, ,0.014915383268655241,-0.004510411211206357,-0.022987992275771085,-0.014344055340523772,-0.029259132675336558,-0.05034343580649516, ,0.027771572807746555, ,0.03258592255814909, ,0.0006339534668462688, ,0.2181363127653455,-0.21985075946342333,0.10554911696000001,1.7834129693358796,0.7807409596597268,-1.2778200118247653, ,0.11138138680571688,0.09999677719543813,0.024355980917431196,-0.14518523668518205,0.09409396089851661,-0.09875367060925844, ,1.872908115386963
0.01418722074370765,0.022345589808899606,-0.09293018817900049, ,0.014879851834089106,0.021878492822500064,-0.0936013476912788, ,0.0010716214410827153, ,0.015115870760932147,-0.0049609794829697405,-0.023570895907275107,-0.0309194269981937,-0.052572919258605605,0.08603801495667761, ,0.028437440112697356, ,0.06099111024955658, ,0.0006370574950323429, ,0.2181363127653455,-0.21985075946342333,0.10554911696000001,1.7834129693358796,0.7807409596597268,-1.2778200118247653, ,0.11138138680571688,0.09999677719543813,0.024355980917431196,-0.14518523668518205,0.09409396089851661,-0.09875367060925844, ,1.87660813331604
0.01418722074370765,0.022345589808899606,-0.09293018817900049, ,0.01493600104916218,0.02186153813193312,-0.09369163044551779, ,0.001172506843071563, ,0.015115870760932147,-0.0049609794829697405,-0.023570895907275107,-0.0309194269981937,-0.052572919258605605,0.08603801495667761, ,0.028437440112697356, ,0.06099111024955658, ,0.0006408282650889572, ,0.2181363127653455,-0.21985075946342333,0.10554911696000001,1.7834129693358796,0.7807409596597268,-1.2778200118247653, ,0.11138138680571688,0.09999677719543813,0.024355980917431196,-0.14518523668518205,0.09409396089851661,-0.09875367060925844, ,1.8804919719696045
0.014337758444095468,0.02229811018732656,-0.0931650490372414, ,0.014992362993612608,0.021844354398240312,-0.0937817778947535, ,0.0010073509398744814, ,0.014932790346263367,-0.004698124131586517,-0.023262961955817944,0.0268913788874471,0.006800347954328236,0.005756654511606522, ,0.028039721768218118, ,0.027737775288897787, ,0.0006433913607168279, ,0.21925610903210804,-0.21884680418977415,0.10579411577000002,1.782364519618457,0.7819706881576157,-1.2791494879185956, ,0.11164346065702443,0.10127741895247683,0.024393279509954065,-0.0750021916988636,0.14003414301199146,-0.14324587684335705, ,1.8841371536254883
0.014337758444095468,0.02229811018732656,-0.0931650490372414, ,0.015048935057139652,0.021826945796023237,-0.09387179053094379, ,0.001107813882154354, ,0.014932790346263367,-0.004698124131586517,-0.023262961955817944,0.0268913788874471,0.006800347954328236,0.005756654511606522, ,0.028039721768218118, ,0.027737775288897787, ,0.0006466165171156997, ,0.21925610903210804,-0.21884680418977415,0.10579411577000002,1.782364519618457,0.7819706881576157,-1.2791494879185956, ,0.11164346065702443,0.10127741895247683,0.024393279509954065,-0.0750021916988636,0.14003414301199146,-0.14324587684335705, ,1.8877801895141602
0.014337758444095468,0.02229811018732656,-0.0931650490372414, ,0.015105714640455743,0.021809316481966275,-0.09396166884294116, ,0.001209660746143767, ,0.014932790346263367,-0.004698124131586517,-0.023262961955817944,0.0268913788874471,0.006800347954328236,0.005756654511606522, ,0.028039721768218118, ,0.027737775288897787, ,0.0006504995807641691, ,0.21925610903210804,-0.21884680418977415,0.10579411577000002,1.782364519618457,0.7819706881576157,-1.2791494879185956, ,0.11164346065702443,0.10127741895247683,0.024393279509954065,-0.0750021916988636,0.14003414301199146,-0.14324587684335705, ,1.8915011882781982
0.014488083081739885,0.0222579940270902,-0.09339707341605855, ,0.0151626991552687,0.02179147059486405,-0.09405141331649884, ,0.0010492433772903791, ,0.01551536961596757,-0.004120686382294161,-0.024477631578225866,0.0140271200317291,-0.010246927478728265,-0.026559816500251278, ,0.0292721915520631, ,0.01737097671435102, ,0.0006532307026581843, ,0.22036818256599638,-0.21785829438187343,0.10603911458000001,1.782364519618457,0.7833370531552701,-1.2804270244358409, ,0.11190677070574384,0.10010225902792276,0.02565026009661836,-0.0354226463087366,0.11359470921255178,-0.12144100976956322, ,1.895146131515503
0.014488083081739885,0.0222579940270902,-0.09339707341605855, ,0.0152198860242647,0.021773412255650115,-0.0941410244342786, ,0.0011505729691812902, ,0.01551536961596757,-0.004120686382294161,-0.024477631578225866,0.0140271200317291,-0.010246927478728265,-0.026559816500251278, ,0.0292721915520631, ,0.01737097671435102, ,0.0006566139833828312, ,0.22036818256599638,-0.21785829438187343,0.10603911458000001,1.782364519618457,0.7833370531552701,-1.2804270244358409, ,0.11190677070574384,0.10010225902792276,0.02565026009661836,-0.0354226463087366,0.11359470921255178,-0.12144100976956322, ,1.8987760543823242
0.014488083081739885,0.0222579940270902,-0.09339707341605855, ,0.015277272681090397,0.021755145567424163,-0.09423050267585711, ,0.0012531085859573063, ,0.01551536961596757,-0.004120686382294161,-0.024477631578225866,0.0140271200317291,-0.010246927478728265,-0.026559816500251278, ,0.0292721915520631, ,0.01737097671435102, ,0.0006606443523191454, ,0.22036818256599638,-0.21785829438187343,0.10603911458000001,1.782364519618457,0.7833370531552701,-1.2804270244358409, ,0.11190677070574384,0.10010225902792276,0.02565026009661836,-0.0354226463087366,0.11359470921255178,-0.12144100976956322, ,1.9023430347442627
0.014651836394154473,0.02221387275802563,-0.09366350995887689, ,0.015334856570335802,0.021736674615480664,-0.0943198485177329, ,0.001060667210844346, ,0.016026310440230528,-0.00401130871774523,-0.0270827148446592,0.048722889504598695,0.022415791962573026,-0.07531807812068275, ,0.03172391317780366, ,0.05363182936408748, ,0.0006633290694904554, ,0.22152659249713005,-0.21676938904660775,0.10631781693000002,1.7821548296749725,0.7845667816531591,-1.2816748217895304, ,0.11164346065702443,0.10698640536467957,0.02844430628571429,0.0,0.13924967379164865,-0.15717436493805934, ,1.905987024307251
0.014651836394154473,0.02221387275802563,-0.09366350995887689, ,0.01539263514751674,0.021718003467336485,-0.09440906243333401, ,0.0011621177386998208, ,0.016026310440230528,-0.00401130871774523,-0.0270827148446592,0.048722889504598695,0.022415791962573026,-0.07531807812068275, ,0.03172391317780366, ,0.05363182936408748, ,0.0006666543272851846, ,0.22152659249713005,-0.21676938904660775,0.10631781693000002,1.7821548296749725,0.7845667816531591,-1.2816748217895304, ,0.11164346065702443,0.10698640536467957,0.02844430628571429,0.0,0.13924967379164865,-0.15717436493805934, ,1.9096131324768066
0.014795553546509804,0.022178519121092248,-0.09391057494817087, ,0.015450605879057352,0.021699136172758978,-0.09449814489302377, ,0.0010020678667750616, ,0.016026310440230528,-0.00401130871774523,-0.0270827148446592,0.048722889504598695,0.022415791962573026,-0.07531807812068275, ,0.03172391317780366, ,0.05363182936408748, ,0.0006688756090036605, ,0.22252282503790502,-0.21585038383457505,0.10657707493000002,1.7815257598445187,0.785796510151048,-1.28292261914322, ,0.11047373871766097,0.09968166130091469,0.028856542608695655,-0.0326856585529158,0.13680208857036558,-0.10883187544375278, ,1.9134881496429443
0.014795553546509804,0.022178519121092248,-0.09391057494817087, ,0.01550876624227284,0.021680076763794284,-0.0945870963641089, ,0.0011021789143188724, ,0.01601226837426659,-0.0034850920011929984,-0.027378813738853838,0.008042009933882167,0.013968694058339351,-0.01670344993186789, ,0.03190827551738215, ,0.0161177837600347, ,0.0006717262886438922, ,0.22252282503790502,-0.21585038383457505,0.10657707493000002,1.7815257598445187,0.785796510151048,-1.28292261914322, ,0.11047373871766097,0.09968166130091469,0.028856542608695655,-0.0326856585529158,0.13680208857036558,-0.10883187544375278, ,1.917267084121704
0.014795553546509804,0.022178519121092248,-0.09391057494817087, ,0.015567113725351692,0.021660829254794543,-0.09467591731084563, ,0.0012037677680293807, ,0.01601226837426659,-0.0034850920011929984,-0.027378813738853838,0.008042009933882167,0.013968694058339351,-0.01670344993186789, ,0.03190827551738215, ,0.0161177837600347, ,0.0006752036839339934, ,0.22252282503790502,-0.21585038383457505,0.10657707493000002,1.7815257598445187,0.785796510151048,-1.28292261914322, ,0.11047373871766097,0.09968166130091469,0.028856542608695655,-0.0326856585529158,0.13680208857036558,-0.10883187544375278, ,1.9208509922027588
0.014970035099814705,0.02212889529715099,-0.09420258420625596, ,0.0156256458273385,0.02164139764244665,-0.09476460819444654, ,0.0009916402334960784, ,0.015674896025223303,-0.004842420326826622,-0.02552516732655903,-0.009208396576415095,-0.009308302862231622,0.04003206192131726, ,0.030342800910134544, ,0.013093060541082729, ,0.0006772584667233576, ,0.2237121259005356,-0.21476147849930938,0.10687262905000001,1.7802676201836118,0.7871628751487024,-1.2842001556604652, ,0.11073155374383986,0.10382597544690457,0.02677111179831933,-0.10295544204585207,0.12624933290857282,-0.11153913288917987, ,1.924455165863037
0.014970035099814705,0.02212889529715099,-0.09420258420625596, ,0.01568436005811651,0.021621785905799887,-0.09485316947308865, ,0.0010911834265003864, ,0.015674896025223303,-0.004842420326826622,-0.02552516732655903,-0.009208396576415095,-0.009308302862231622,0.04003206192131726, ,0.030342800910134544, ,0.013093060541082729, ,0.0006799289503348223, ,0.2237121259005356,-0.21476147849930938,0.10687262905000001,1.7802676201836118,0.7871628751487024,-1.2842001556604652, ,0.11073155374383986,0.10382597544690457,0.02677111179831933,-0.10295544204585207,0.12624933290857282,-0.11153913288917987, ,1.9279961585998535
0.014970035099814705,0.02212889529715099,-0.09420258420625596, ,0.01574325393839015,0.021601998006294146,-0.09494160160191886, ,0.001192323294468667, ,0.015674896025223303,-0.004842420326826622,-0.02552516732655903,-0.009208396576415095,-0.009308302862231622,0.04003206192131726, ,0.030342800910134544, ,0.013093060541082729, ,0.0006832135294638854, ,0.2237121259005356,-0.21476147849930938,0.10687262905000001,1.7802676201836118,0.7871628751487024,-1.2842001556604652, ,0.11073155374383986,0.10382597544690457,0.02677111179831933,-0.10295544204585207,0.12624933290857282,-0.11153913288917987, ,1.9314961433410645
0.015124157174998248,0.022085011424033643,-0.09445083176002105, ,0.015802324999667515,0.021582037887787626,-0.09502990503306256, ,0.0010238260751375143, ,0.01565677965286013,-0.004630864188667258,-0.02524829863970576,0.006402161802866107,0.008556438963140883,-0.023361205887849953, ,0.030067527940152706, ,0.010685975068632808, ,0.000685383036124227, ,0.22483192216729814,-0.21369574136266642,0.10714355366000002,1.7800579302401274,0.7885292401463568,-1.2853143346974292, ,0.10996169357876104,0.10520725228211839,0.026503846123128123,-0.032650652591091914,0.1303451346434103,-0.11480890380305571, ,1.9351329803466797
0.015124157174998248,0.022085011424033643,-0.09445083176002105, ,0.01586157078424288,0.02156190947658481,-0.0951180802156283, ,0.0011236703164337063, ,0.01565677965286013,-0.004630864188667258,-0.02524829863970576,0.006402161802866107,0.008556438963140883,-0.023361205887849953, ,0.030067527940152706, ,0.010685975068632808, ,0.000688157006252768, ,0.22483192216729814,-0.21369574136266642,0.10714355366000002,1.7800579302401274,0.7885292401463568,-1.2853143346974292, ,0.10996169357876104,0.10520725228211839,0.026503846123128123,-0.032650652591091914,0.1303451346434103,-0.11480890380305571, ,1.9387781620025635
0.015124157174998248,0.022085011424033643,-0.09445083176002105, ,0.015920988845179635,0.021541616681465144,-0.09520612759571731, ,0.0012250266757402731, ,0.01565677965286013,-0.004630864188667258,-0.02524829863970576,0.006402161802866107,0.008556438963140883,-0.023361205887849953, ,0.030067527940152706, ,0.010685975068632808, ,0.0006915335450545762, ,0.22483192216729814,-0.21369574136266642,0.10714355366000002,1.7800579302401274,0.7885292401463568,-1.2853143346974292, ,0.10996169357876104,0.10520725228211839,0.026503846123128123,-0.032650652591091914,0.1303451346434103,-0.11480890380305571, ,1.942399024963379
0.015284463427051715,0.022039275466409436,-0.0947027756969786, ,0.015980576746292226,0.021521163393709835,-0.09529404761642837, ,0.0010500554060767144, ,0.015365935047098989,-0.004776839686740359,-0.02368922367671653,0.021999546525085394,0.025590818891429213,-0.03700160537885529, ,0.028637553590870675, ,0.03374703836754036, ,0.0006937743066859645, ,0.22596716389980914,-0.21263000422602343,0.10740929311000001,1.7800579302401274,0.7898956051440112,-1.2864285137343936, ,0.11086091303559671,0.10371250443548719,0.025045301132075475,-0.02033748132246939,0.14628404865797895,-0.12558531643398183, ,1.9460229873657227
0.015284463427051715,0.022039275466409436,-0.0947027756969786, ,0.016040332062129226,0.02150055348713082,-0.09538184071786572, ,0.0011500817653733281, ,0.015365935047098989,-0.004776839686740359,-0.02368922367671653,0.021999546525085394,0.025590818891429213,-0.03700160537885529, ,0.028637553590870675, ,0.03374703836754036, ,0.0006966085145038985, ,0.22596716389980914,-0.21263000422602343,0.10740929311000001,1.7800579302401274,0.7898956051440112,-1.2864285137343936, ,0.11086091303559671,0.10371250443548719,0.025045301132075475,-0.02033748132246939,0.14628404865797895,-0.12558531643398183, ,1.9502651691436768
