NicholasDascanio/dvrk_moveit_final/test/execution/third_experiment_notsharpbends/thirdexp_300vel3.0/thirdexp_300vel3.0_9.csv
Current Position (x),Current Position (y),Current Position (z), ,Planned Position (x),Planned Position (y),Planned Position (z), ,Position Error,,Cartesian linear Velocity(x),Cartesian linear Velocity(y),Cartesian linear Velocity(z),Cartesian Angular Velocity(x),Cartesian Angular Velocity(y),Cartesian Angular Velocity(z), ,Total Linear Velocity, ,Total Angular Velocity, ,MSE, ,Joint 1 Position,Joint 2 Position,Joint 3 Position,Joint 4 Position,Joint 5 Position,Joint 6 Position, ,Joint 1 Velocity,Joint 2 Velocity,Joint 3 Velocity,Joint 4 Velocity,Joint 5 Velocity,Joint 6 Velocity, ,Time Stamp
0.009746587830372723,0.020162637245416185,-0.07996400313023189, ,0.009934039765022593,0.020130234086867663,-0.08000184189497406, ,0.00019395866725958126, ,-1.243852613036747e-05,8.052168972485274e-05,2.757491506844374e-05,0.2810163013157669,0.003723353687149081,-0.013788338166157467, ,8.601648324288302e-05, ,0.2810409667074775, ,1.6163222271631772e-05, ,0.14258481705680712,-0.24459439559243867,0.08968641623000001,1.605176517374034,0.18978809817419678,-1.2691841987121604, ,-0.00010420081118751409,-0.0010258353602015482,-8.463967212752386e-06,-2.8157527345517766e-05,0.0,-0.28037604499495794, ,0.03635978698730469
0.009800154567398163,0.02017107212433504,-0.07999287614653179, ,0.009976233530062306,0.02016460722244741,-0.08008801198678267, ,0.00020024091527342248, ,0.001079625399990614,0.0005636488481625629,-0.0021531866060493805,0.26828218290345096,-0.05190449522947321,-0.02445257490822208, ,0.0024737630421708397, ,0.2732570333741125, ,1.7918162842409262e-05, ,0.14263115345405247,-0.2446021183253129,0.08971493461,1.6053862073175185,0.18473254768287548,-1.2760066874542282, ,0.003598798071148467,-0.00014746944306161144,0.0022590854517089776,-0.0005290671253253562,-0.0528696052370993,-0.26848860306279176, ,0.07171297073364258
0.009837086308604607,0.020179788120990565,-0.0800208885592255, ,0.010018524528864065,0.020198372539611053,-0.08017429909571164, ,0.00023832750804585298, ,0.001191394448504203,0.0003580505297423061,-0.0013524207796854733,-0.12357059919300925,-0.08347701030466272,-0.014092757172214187, ,0.0018375698297208854, ,0.14912445887351805, ,1.9766471580589273e-05, ,0.1427624399129143,-0.24461756379106134,0.08974474928000001,1.6053862073175185,0.18227309068709754,-1.2795553195172509, ,0.0032294212501112157,-0.00011350098031651855,0.0014108351286719787,-0.0005290671253253562,-0.08123599589481667,0.12374532944190121, ,0.10778093338012695
0.009859058901441233,0.02020224517350956,-0.080101959911794, ,0.010060912113050526,0.020231534621465458,-0.08026070224997475, ,0.00025846028849639335, ,0.0005131414603124817,0.0007733145183662455,-0.002844186912088613,-0.005561273626133162,0.040302152455309305,0.01272514274532916, ,0.0029917768455390856, ,0.040684041793922085, ,2.1213985216077383e-05, ,0.14303273556351215,-0.24463300925680978,0.08983030442,1.6053862073175185,0.18363945568475198,-1.2756054166655002, ,0.006520930535512122,-0.000471797160325068,0.002875236736462094,-0.0005290671253253562,0.053510667587978365,0.0037996089716043624, ,0.14383387565612793
0.009888885986128092,0.020222934696711596,-0.08017787246384642, ,0.010103395637147383,0.02026409803618387,-0.0803472204785794, ,0.0002763829969280464, ,0.0009702062353424547,0.0007141509123662919,-0.002529270831415881,0.0808820390822544,0.0029216701087692778,-0.003860679534639746, ,0.0028015214800858066, ,0.08093479104948809, ,2.24494303077557e-05, ,0.14335709034422958,-0.24465617745543247,0.08993919278000001,1.605176517374034,0.18363945568475198,-1.2760954891063436, ,0.009822224046974755,-0.0008429548205670291,0.0024300246407322657,0.003084512288013814,0.008130664386267611,-0.04310964587671519, ,0.17971277236938477
0.009931059836384282,0.02024839101349131,-0.0802643021265264, ,0.010145974458578138,0.020296067337024937,-0.08043385281132966, ,0.00027786464578219596, ,0.0009479724833924263,0.0005915514278619227,-0.0019004091356013765,-0.0332736215989433,-0.006923757679025866,-0.0050905060140241515, ,0.0022045724764116633, ,0.033986354830766244, ,2.3310242286862782e-05, ,0.1436505541934501,-0.24467162292118091,0.09000919244000001,1.6055958972610032,0.1837760921845174,-1.2761252282698994, ,0.008233293558777614,-0.0009249109766811516,0.0020865616347917216,0.007015753446107992,0.0,0.03519819951652644, ,0.2160658836364746
0.00997562704409465,0.02027508761760036,-0.08035860849456365, ,0.010188647937658998,0.02032744706235414,-0.08052059827883092, ,0.0002726904889372412, ,0.0011252726464459663,0.000783988112450675,-0.0026957446305087263,-0.004287192136556968,-0.00760680194924983,-0.005301154174792733, ,0.0030245520333133814, ,0.008731749662496345, ,2.3860076537815743e-05, ,0.14401352263853864,-0.24469479111980358,0.09011159935000002,1.6055958972610032,0.18363945568475198,-1.2759321316260626, ,0.008972371163243401,-0.0008266056740037231,0.0029205741694169423,0.00590734464816655,0.0,0.005933532106842236, ,0.25200700759887695
0.010008547568070899,0.020296457238482654,-0.0804285579405857, ,0.010231415437593629,0.020358241735663578,-0.08060745591249145, ,0.00029238997197149173, ,0.0011072969285420159,0.0005951360275837718,-0.0019820633074009325,0.0019417382753875731,-0.010006373464204955,0.000119982337290472, ,0.002347097853484575, ,0.010193029844195473, ,2.481870966289167e-05, ,0.14429154102201075,-0.2447256820513005,0.09018808046000001,1.6058055872044876,0.18363945568475198,-1.2758504528859218, ,0.010005712089341277,-0.0008103086096040948,0.0021856217782656425,-5.418849175276691e-05,0.0,-0.0011485055840480686, ,0.2851378917694092
0.010042515535759695,0.020317481909984125,-0.08050093869609762, ,0.010274276324468087,0.020388455865592105,-0.08069442474452698, ,0.00031014063986228803, ,0.0013273929020482529,0.0008421995032156689,-0.002902588019559546,0.0009307379764805547,-0.011051522942503823,0.00018865518593276536, ,0.00330095276108511, ,0.011090646163480426, ,2.5782845806183482e-05, ,0.14458500487123127,-0.24474885024992316,0.09026456157000001,1.6058055872044876,0.1837760921845174,-1.2760435495297588, ,0.011133375697708413,-0.0009536068108876656,0.0030810080309477757,-5.418849175276691e-05,0.0,0.0, ,0.3172478675842285
0.010082808357102664,0.020346072549596975,-0.08059888677065193, ,0.010317229967245404,0.020418093945945695,-0.08078150380796392, ,0.0003057606173962657, ,0.0014516262211210864,0.0009142771950450856,-0.003140460169290582,0.0018114924098079673,-0.010545919050027419,-0.006015038190217477, ,0.0035784929160369208, ,0.010700369762538796, ,2.652744181770484e-05, ,0.14492480511769715,-0.24477974118142007,0.09037344993,1.6060152771479719,0.18391272868428285,-1.275991609953174, ,0.012098029265485822,-0.0009237993642614926,0.0034204018724500753,0.006404516378001309,0.0,0.0, ,0.34938788414001465
0.01013835966696284,0.020374330939935164,-0.08069230009851408, ,0.010360275737760594,0.020447160455717643,-0.08086869213664206, ,0.0002926858930019832, ,0.001413033181717088,0.0007238772330780264,-0.0023459205769010057,-0.0008635200936764794,-0.008708916408560629,-0.00392891412597283, ,0.0028326673603389727, ,0.008751622243471733, ,2.702687623106261e-05, ,0.14544995095314442,-0.24481835484579118,0.09047715313000002,1.6060152771479719,0.1840493651840483,-1.2757763128963084, ,0.013399737582387853,-0.0010207694864548806,0.0026104247000983288,0.005265700225196494,0.003550695032516272,0.0026154242627703605, ,0.381699800491333
0.010165652157457176,0.02039035299197101,-0.08074365021335912, ,0.010403413010715292,0.020475659859109138,-0.08095598876521831, ,0.00032999264465834264, ,0.0015737846017037658,0.0009436264447903892,-0.0031583901289298213,-0.006284931133989162,-0.007199569710926587,0.001372890019216106, ,0.0036527601955766223, ,0.009556890868226395, ,2.7768335706094914e-05, ,0.14572024660374228,-0.24484152304441387,0.09053418989,1.6062249670914566,0.18432263818357916,-1.2757541124832796, ,0.014287404630904965,-0.0012465484398784027,0.0034710855349749407,0.0009176423856171141,0.007164921351685209,0.007653665306856564, ,0.4150059223175049
0.010223751967005538,0.02042458003120879,-0.08086596178333472, ,0.01044664116367258,0.020503596605549117,-0.08104339272916972, ,0.0002956432876817306, ,0.001416354683830289,0.0007454722646971386,-0.002674815348661876,-0.0010248484378003672,-0.0022998056034271284,0.002096566947656717, ,0.0031171183226303477, ,0.0025178204854786604, ,2.8131258454720915e-05, ,0.14623766970631533,-0.24486469124303653,0.09066770776000001,1.6062249670914566,0.18459591118311003,-1.2751601608892669, ,0.013675881475496584,-0.0003818407293586578,0.002945416331360947,0.0008806850068916509,0.011529884433901419,0.0015254967481515124, ,0.4473898410797119
0.010264990984734986,0.020447210041230204,-0.08094214014529558, ,0.010489959577051781,0.020530975129714323,-0.08113090306479721, ,0.0003053831975674727, ,0.0012751134954673967,0.0007444328851341492,-0.0026222067379198083,0.015302443997065813,-0.0029693445051433135,0.0014514620976077788, ,0.003009329314512501, ,0.015587873458223387, ,2.851793898416524e-05, ,0.14663152908290075,-0.2448878594416592,0.09075196661000001,1.606434657034941,0.18486918418264095,-1.2750562817360973, ,0.011734504953440186,-0.0005913070816942361,0.0028736805917373267,0.00019839303543570073,0.008830286888096367,-0.014704080057861621, ,0.47940897941589355
0.010302220822336039,0.020470798548169383,-0.08102552022589526, ,0.010533367634123133,0.020557799851549863,-0.08121851880922851, ,0.0003134430228253281, ,0.0012935690656406796,0.0008321904033894449,-0.0029541381690919985,0.010430138185983156,-0.004521914569088742,-0.0029042880363542947, ,0.003330584650952774, ,0.011368178997704769, ,2.9114439060752696e-05, ,0.14694816113074397,-0.24490330490740767,0.09084270691000002,1.6066443469784255,0.18500582068240637,-1.275086020899653, ,0.010974695899668596,-0.000577903276342553,0.0032121015366001213,0.004126287324687967,0.0055238301725201765,-0.009280816950697128, ,0.5085229873657227
0.010344924100916014,0.02049687858479066,-0.08111968654399088, ,0.010576864721002641,0.020584075176289816,-0.08130623900042143, ,0.00031016369196847234, ,0.0014213129587767625,0.0008549232985889736,-0.0030391912588982307,0.008998915989397479,-0.005763736748405681,-0.0028093196298962664, ,0.0034623269460610476, ,0.010686493813681973, ,2.96260164083186e-05, ,0.14731112957583253,-0.2449187503731561,0.09094511382,1.6066443469784255,0.18514245718217182,-1.275115760063209, ,0.012357981710961164,-0.0005474447960182678,0.003315739283930059,0.004126287324687967,0.005684489111316048,-0.007877504365780866, ,0.5371739864349365
0.01038506404191703,0.020522323312653412,-0.0812087287036655, ,0.010620450226646753,0.02060980549447655,-0.0813940626771672, ,0.0003121032999378294, ,0.0014135582345362707,0.0008882777844050587,-0.0030753469335259537,0.009068741344711867,-0.004576285608539761,-0.002473603313304834, ,0.003499277506320461, ,0.0101579751561582, ,3.009831306662854e-05, ,0.14766637528804685,-0.24494191857177877,0.09104233557000001,1.6066443469784255,0.18541573018170268,-1.2751752383903208, ,0.012298400235974487,-0.0008241553118124222,0.00335979994094073,0.004126287324687967,0.006849390422261926,-0.007672805698662294, ,0.5658957958221436
0.010432042178719198,0.02054938007072395,-0.08130477126461201, ,0.010664123542847166,0.020634995181981464,-0.08148198887909386, ,0.00030429884937963807, ,0.001572087892868144,0.0009345295706592814,-0.003228433993626557,0.01335101722762697,-0.0036707425527604124,-0.0014021325494629807, ,0.003710470578315201, ,0.013846444003798194, ,3.047862650882381e-05, ,0.14807568013038075,-0.24495736403752721,0.09114733506000001,1.6068540369219102,0.18555236668146813,-1.2747965838531736, ,0.014233829542293502,-0.0008587453497400881,0.0035428851245551604,0.0036047978041152577,0.009865200030170941,-0.011997248772597991, ,0.5948829650878906
0.01046117575756477,0.020566676876712257,-0.08136628093878778, ,0.01070788406422543,0.020659648600025053,-0.08157001664666921, ,0.00033319208960758525, ,0.001461231848202042,0.0007327006656347458,-0.002651895727811218,-0.00621007973294481,-0.0003738829215127542,-0.0007311126150561032, ,0.003115220655235347, ,0.006221324505069366, ,3.0989272666178065e-05, ,0.1483459757809786,-0.24496508677040144,0.09121474214000001,1.6070637268653947,0.185825639680999,-1.274937740920426, ,0.014287404630904965,-0.0001930382326647743,0.0029307840883164675,0.004488155217092126,0.01330285161982553,0.007051272304197545, ,0.6235229969024658
0.010525523153697015,0.020595900056092593,-0.08147007367765612, ,0.01075173118822783,0.02068377009519741,-0.08165814502120444, ,0.00030702125158146436, ,0.0016357994163835336,0.0008291759680538589,-0.0030037134882309312,0.001450393380113162,-0.01002767830127044,-0.003393640358213497, ,0.003519327668180272, ,0.010132027083774423, ,3.1312262121107244e-05, ,0.14896379441091656,-0.2449805322361499,0.09133011195000001,1.6070637268653947,0.1860989126805299,-1.2749972192475378, ,0.014662691835363223,-0.0002636742241757702,0.003300624019892251,0.004488155217092126,0.0036522232752818936,-0.0005443035007994547, ,0.6529707908630371
0.010576318667607295,0.02062517379777332,-0.08157735517790277, ,0.010795664315120019,0.020707363999477948,-0.08174637304485735, ,0.00028885079485592744, ,0.0017465868310705464,0.00101159194087661,-0.003741421369623044,0.001629585109346412,-0.010500915524478816,-0.0024781235524897263, ,0.004251131340994716, ,0.010626606878383626, ,3.151306158648457e-05, ,0.14938082198612468,-0.24498825496902413,0.09144677805000001,1.6072734168088794,0.1860989126805299,-1.274915540507397, ,0.014525783186663215,-0.00023637071868773285,0.004082217201435162,0.0034380189553646356,0.003360286932856626,-0.0009095119724737506, ,0.68229079246521
0.010607196643702693,0.02064369314535305,-0.08164482235369791, ,0.01083968284798169,0.020730434630255583,-0.08183469976063512, ,0.00031245375665584673, ,0.001662265428671869,0.0008100024173916771,-0.0031401513447807615,0.0030187799876801595,-0.008550807576730008,-0.002078960065758559, ,0.0036441433478482236, ,0.009068039618515305, ,3.197701272562828e-05, ,0.14967428583534523,-0.24499597770189835,0.09152066658,1.6072734168088794,0.1865088221798262,-1.2752497942184864, ,0.014890466273100702,0.0003417977561938348,0.003434413868046572,0.0034380189553646356,0.00564885818459555,-0.0028623115728679312, ,0.7071700096130371
0.01065689594190294,0.02066948431756178,-0.08174345440432604, ,0.01088378619270148,0.020752986290349832,-0.08192312421239809, ,0.000301219198092629, ,0.0016248461016435283,0.0009741764087309955,-0.0035711956227268086,0.0008720561538613131,-0.008040673688823828,-0.0030736886055969842, ,0.0040425960353635765, ,0.008087825092370354, ,3.235447667203429e-05, ,0.1501067588763018,-0.24498825496902413,0.09162825865,1.6074831067523636,0.18664545867959165,-1.2751161759017613, ,0.013500774158268712,-0.00030947062892412415,0.0038831817454900055,0.004413024058756005,0.004528659829462028,7.432770724646182e-05, ,0.73264479637146
0.010706337541725197,0.02069714017110906,-0.08184836983307503, ,0.010927973757971408,0.020775023268029894,-0.0820116454448627, ,0.0003010892001958895, ,0.0018375187012166553,0.0009917130946538392,-0.003639668597073535,0.0013658735919328576,-0.0030729103224415954,-0.0015843299280393385, ,0.0041960883374819544, ,0.003362794653289076, ,3.270640055642886e-05, ,0.1505237864515099,-0.24498825496902413,0.09174233217000001,1.6074831067523636,0.1867820951793571,-1.2749008788448952, ,0.016235575972364545,-0.0002565154705812677,0.004129844832771585,0.004413024058756005,0.01004758118584159,-0.0002976026896104448, ,0.7629759311676025
0.010740605581803587,0.020714437365733952,-0.08191184632475106, ,0.010972244955281775,0.020796549837035286,-0.08210026250360508, ,0.00030967711207406336, ,0.0016726654540800783,0.0007592063943593642,-0.0027331470730756363,-0.009968985799581095,-0.010548657597856287,-0.002286182818110026, ,0.003293068021400557, ,0.014513953797519985, ,3.307504123304558e-05, ,0.15084814123222734,-0.24498825496902413,0.09181233183000001,1.607692796695848,0.18705536817888796,-1.2748786784318664, ,0.015503502950248452,-0.00021688207287929738,0.003031172506184586,0.00394345693691826,0.004234669041580616,0.01076745102745315, ,0.7876729965209961
0.010773625743106243,0.020732029254196316,-0.08197540353537022, ,0.011016599198915742,0.020817570256596064,-0.08218897443506369, ,0.0003346130489318097, ,0.0017014450514263038,0.0010325393603552726,-0.003903773494689588,-0.00038061383312904456,0.0013283882002778794,0.00012155809648754537, ,0.004381837547370611, ,0.0013818397859344492, ,3.353118176534864e-05, ,0.1513115052046808,-0.24499597770189835,0.09192251648000001,1.607692796695848,0.18732864117841885,-1.2748564780188378, ,0.014925596344521987,2.7242973232902598e-05,0.004245418848614073,0.00394345693691826,0.01578870218821578,0.000930005045235386, ,0.813234806060791
0.01082895612236392,0.02076318721291867,-0.08209231158759721, ,0.011061035905944133,0.02083808877145293,-0.08227778028654324, ,0.00030638196374172216, ,0.001680065287791326,0.000976886942605976,-0.003691540918864703,0.0014147366227780518,-0.0028304542339272977,-0.0007560529104052963, ,0.0041718583180074395, ,0.0031643246035508938, ,3.38387512562683e-05, ,0.15160496905390136,-0.24499597770189835,0.09200936791000001,1.6079024866393328,0.18732864117841885,-1.2747747992786973, ,0.014528006974658721,3.271328589228238e-05,0.004018368193743693,0.0035983482504288455,0.011156333833314075,-0.0009198773003557831, ,0.8382308483123779
0.010880058130091783,0.020790807297777995,-0.08219631356041421, ,0.011105554496220006,0.02085810961187753,-0.0823666791062175, ,0.00029052131043529636, ,0.0018346784361224257,0.0009634265432265493,-0.0036211419272443304,0.004756402831752429,-0.0076972481992782634,-0.001732180698372443, ,0.004172158257474526, ,0.009048259341805379, ,3.406229313810754e-05, ,0.15208377849210328,-0.24499597770189835,0.09212344143000001,1.6079024866393328,0.1878751871774806,-1.2750571134132018, ,0.016086953985162026,3.506021104657321e-05,0.0039623909253731346,0.0035983482504288455,0.007709863007942528,-0.00426606408019182, ,0.8632609844207764
0.010917434721940495,0.02080811975890363,-0.08226245974990162, ,0.011150154392373404,0.020877636993692217,-0.08245566994313232, ,0.0003103566814284737, ,0.001864217602914581,0.0010176698988305691,-0.0038210084277645355,0.00517587653125035,-0.007559081298180583,-0.0021035199631693454, ,0.004371620374535055, ,0.009161299423376233, ,3.449311802672473e-05, ,0.1524081332728207,-0.24498825496902413,0.09219603367000001,1.6081121765828172,0.1878751871774806,-1.2750571134132018, ,0.0160706082232804,1.478471241075367e-06,0.004174216855345912,0.003979230628701418,0.007709863007942528,-0.004589003514326891, ,0.8847157955169678
0.01095406815941358,0.020828532301463185,-0.08233960942538805, ,0.011194835019806,0.020896675118291134,-0.08254475184720944, ,0.0003235668984602957, ,0.00186992991565664,0.001010382350230834,-0.0037881448753024445,0.004917205664052822,-0.006001466704148415,-0.0016215911170602867, ,0.0043436795438206305, ,0.007758641206005496, ,3.4955848940613404e-05, ,0.15273248805353812,-0.24498825496902413,0.09228029252000002,1.6081121765828172,0.18814846017701148,-1.2751165917403133, ,0.01634744901954708,1.6554948924118757e-06,0.0041427338153446035,0.003979230628701418,0.009632431838156052,-0.004335009599733087, ,0.906019926071167
0.01099453513321848,0.02084959240205489,-0.08242011896599132, ,0.011239595806685794,0.02091522817265911,-0.08263392386924925, ,0.00033177601589054077, ,0.002105489246366102,0.0010509891768110831,-0.003966489943375199,-0.0001256249295303486,-0.009271868192777023,-0.001941921563993579, ,0.004612017528938276, ,0.009272719149490615, ,3.54288757710276e-05, ,0.1530954564986267,-0.2449805322361499,0.09236844024000002,1.608321866526302,0.1884217331765424,-1.275176070067425, ,0.018680500306785586,0.00013373797015235982,0.004353323727794479,0.004241898587656926,0.008650008960611818,0.0006225322723533875, ,0.9280478954315186
0.011036027189046227,0.020871588592433533,-0.08250315665977181, ,0.011284436183941747,0.020933300329392925,-0.08272318506093443, ,0.0003375320200243588, ,0.0021874344103830824,0.001123363316229785,-0.004241305317710279,-0.022725695109058627,-0.0058745926771956655,8.037536687465066e-05, ,0.004902599844777897, ,0.02347270874740277, ,3.590220442783893e-05, ,0.153450702210841,-0.2449805322361499,0.09245918054,1.608321866526302,0.18855836967630782,-1.2748790942704187, ,0.01961491144242885,0.00013371737199385133,0.004653465241016653,0.004241898587656926,0.013344736921674753,0.023241289207991386, ,0.9493398666381836
0.011082410227354145,0.020896063435591014,-0.08259503232482793, ,0.011329355585258513,0.020950895746720908,-0.08281253447483222, ,0.0003336102177554708, ,0.002000520833549796,0.0010565794858012488,-0.003961332839215433,0.016743728778594494,0.018021308316598494,0.0047503427609357, ,0.004561863838205762, ,0.02459918709790187, ,3.633997106187018e-05, ,0.15389089798467182,-0.2449805322361499,0.09256029116,1.608321866526302,0.18910491567536958,-1.2750797296647827, ,0.020571632681220635,0.00012148625440163173,0.004383272294991745,0.004241898587656926,0.03858252940574237,-0.016248905104428474, ,0.9707889556884766
0.011129828939117717,0.020916832113252057,-0.08267373206856304, ,0.011374353447070952,0.020968018568523154,-0.08290197116439924, ,0.0003383864256454646, ,0.0021635984626239323,0.001055936724030483,-0.003946669041830966,0.006009058754689013,0.00031492411123368086,0.0006824654620900208, ,0.004623024680701134, ,0.006017305323449064, ,3.677600946503774e-05, ,0.15430792555987993,-0.24497280950327568,0.09264714259000001,1.6085315564697864,0.18910491567536958,-1.2749163721845016, ,0.02054046354079454,8.992654299627942e-05,0.0043628626458504524,0.0042727283979879255,0.02038925607048669,-0.005464500567747187, ,0.991832971572876
0.01117233478972603,0.020936570861628902,-0.08275268546589465, ,0.011419429208559055,0.02098467292435208,-0.08299149418398295, ,0.000346985682833794, ,0.002178265759204834,0.0010123646493035003,-0.003879502094514948,-0.0007290242435014799,-0.01047593179833929,-0.0020893374499577552, ,0.00456292235329832, ,0.010501267662158201, ,3.722398686235535e-05, ,0.1547095076693396,-0.24495736403752721,0.09273399402000002,1.6085315564697864,0.18951482517466592,-1.275250625895591, ,0.01949803607118775,0.00035872159987727285,0.004271604054706356,0.0042727283979879255,0.008247677120339213,0.001013564209333232, ,1.0142929553985596
0.011215641040150227,0.020957639514707704,-0.08283296612602374, ,0.011464582311642307,0.02100086292945186,-0.08308110258882612, ,0.0003541351781542093, ,0.0021579294960789412,0.0010434872311017658,-0.004018923786168884,-0.0015064760498426151,-0.012635948886127213,-0.003028624527085773, ,0.00467945228745352, ,0.01272543411020293, ,3.7809405830447444e-05, ,0.1550879215801766,-0.244949641304653,0.09282214174,1.6087412464132707,0.18965146167443137,-1.2753620437992872, ,0.018621848814456592,0.00038386250895747274,0.004406310240663901,0.004467856965700751,0.005074639913512684,0.0017983911432785452, ,1.032263994216919
0.011263769575500794,0.020980873167338886,-0.08292281872693227, ,0.011509812200974499,0.02101659268477912,-0.08317079543506942, ,0.0003511485515486152, ,0.002462964981110993,0.00129677922304189,-0.00512366823778226,0.004654863595687282,-0.009147533172997727,-0.0019275470459868284, ,0.005830935522053984, ,0.010263776825052723, ,3.836454803043504e-05, ,0.15550494915538474,-0.24494191857177877,0.09292065978000001,1.6087412464132707,0.18978809817419678,-1.275391782962843, ,0.020747035758301436,0.0007494583656672169,0.005579268483362522,0.004467856965700751,0.01080055127780298,-0.004728115922130529, ,1.0501658916473389
0.011309519577671654,0.021007574428274684,-0.08302514927158199, ,0.011555118323938351,0.021031866277023255,-0.08326057177975472, ,0.0003410756447443007, ,0.0024018993415063886,0.0013279063945552257,-0.005071676676551654,0.011774488016312583,-0.004253468671567302,-0.0017891096328598748, ,0.005766659357973862, ,0.012519207659863656, ,3.886708306273176e-05, ,0.1558988085319702,-0.24493419583890455,0.09303214072,1.6089509363567556,0.1901980076734931,-1.2755626791936514, ,0.020558262902614987,0.00026541868617332683,0.005536604629822733,0.005316607545869575,0.015378547514562009,-0.011243468281215802, ,1.0682408809661865
0.011360150427127541,0.021034224453301643,-0.08313399435756343, ,0.01160050013064011,0.021046687778625804,-0.08335043068082831, ,0.0003236788477567515, ,0.002281077156437127,0.0012591169811328607,-0.004970195740445454,0.013295151772022827,-0.0010273619502127486,-0.001385095106045824, ,0.0056571269875342, ,0.013334786469415294, ,3.929537257413273e-05, ,0.1563081133743041,-0.2449110276402819,0.09315010311000001,1.6089509363567556,0.19033464417325854,-1.2755924183572072, ,0.019506051707804888,0.0007171064404937263,0.005410601739130436,0.005316607545869575,0.01760129178861062,-0.013211144933979789, ,1.0862438678741455
0.01138408019413598,0.021046431631811333,-0.08318540236402328, ,0.011645957073904322,0.021061061247801386,-0.08344037119714465, ,0.0003657904204383889, ,0.002430537735742966,0.0011710023313224486,-0.004812182445353856,-0.004109050768312156,-0.01781885091171637,-0.004987654946596388, ,0.00551687049260765, ,0.018286490736333285, ,3.984688253363672e-05, ,0.15650890442903392,-0.24489558217453342,0.09320584358,1.6089509363567556,0.19047128067302396,-1.275622157520763, ,0.01973319641473711,0.0012645717254927457,0.005231136788177341,0.005316607545869575,0.000681160964536665,0.0036666123270780943, ,1.1044058799743652
0.011429347213616443,0.021069853489556773,-0.08328702570166009, ,0.0116914886092683,0.021074990728557605,-0.08353039238846824, ,0.0003577315289247369, ,0.0020837809079397797,0.0011280066626889948,-0.005071562585220115,0.029877430217498127,0.024816220390655917,0.004554672569365072, ,0.005597793222259075, ,0.0388394854178573, ,4.0354886111382085e-05, ,0.1569104865384936,-0.2448569685101623,0.09331602823000001,1.6089509363567556,0.19101782667208575,-1.2759044716552674, ,0.019774315807141236,0.0024741732264906067,0.005492693627586208,0.0049757281816031245,0.04443493226789315,-0.031598601129604234, ,1.1221458911895752
0.011480408430905214,0.021092705977316554,-0.08338864328478864, ,0.011737094194976885,0.02108848025071501,-0.08362049331547808, ,0.0003459188849615824, ,0.0026558235907204746,0.0011071179035696288,-0.005218696161507949,0.00023873769009611926,-0.004821266468731051,-0.004646133661158778, ,0.005959353876350153, ,0.004827173311193586, ,4.080960047858925e-05, ,0.15733523684657594,-0.24480290938004273,0.09342621288000001,1.6093703162437245,0.1911544631718512,-1.2756891745984018, ,0.023230585448830058,0.0033055141608759196,0.005662570750088874,0.00853097560505799,0.016835237786423148,-0.0022058441407430294, ,1.1404378414154053
0.011506970048881295,0.02110584591586233,-0.08344348053631148, ,0.011782773291976969,0.021101533829927202,-0.08371067303977027, ,0.00038402845843996716, ,0.002678215422137581,0.0013079847764451223,-0.005433564896970989,-0.014902087481678787,-0.01934652105888393,-0.007880165897879102, ,0.006197361496022572, ,0.02442048491855372, ,4.149741996932323e-05, ,0.15755919609992844,-0.2447874639142943,0.09348584222,1.6093703162437245,0.19129109967161662,-1.2757189137619576, ,0.021277341156607798,0.0016035777648193456,0.005895193012583273,0.00853097560505799,0.0,0.014627894232749069, ,1.1544628143310547
0.01155817921600764,0.02113141071925301,-0.0835556212525238, ,0.01182852536391228,0.021114155467701616,-0.08380093062386162, ,0.0003654606286033229, ,0.0025436684603528546,0.0012855214924622656,-0.005606664759033475,0.01577262093163295,0.01449069003965283,-0.00021913160252826005, ,0.006289475690704605, ,0.021418582197197635, ,4.21111767346341e-05, ,0.1580225600723819,-0.24474112751704893,0.09360769348,1.6093703162437245,0.19197428217044385,-1.2762760032804397, ,0.023083663721350227,0.002586184226458928,0.00605428031927024,0.00853097560505799,0.038013157519365494,-0.017937627924340924, ,1.1692969799041748
0.011589014391999523,0.02114547459658359,-0.08361658509402194, ,0.011874349877117827,0.021126349151418627,-0.08389126513119206, ,0.00039652395203851006, ,0.002815518653432787,0.0013881262897878655,-0.005907988081032174,0.007470222655995837,-0.00023171724500423613,-0.0030297333687714614, ,0.006690169134621817, ,0.007473815104350281, ,4.28044267197404e-05, ,0.1582696875243571,-0.24471795931842627,0.09367380427000001,1.6093703162437245,0.19197428217044385,-1.2761943245402994, ,0.024301393484883683,0.0021407536873344363,0.006425498797902381,0.008288507332102377,0.02267436369999525,-0.00832465636455161, ,1.184208869934082
0.011651079861655122,0.021173520142797355,-0.0837434131445986, ,0.011920246300614726,0.021138118854352635,-0.08398167562612857, ,0.0003612102340612192, ,0.003224208701805871,0.0014090027329874068,-0.006335390703586675,-0.003978179233251236,-0.016758676113219614,-0.005460488479915123, ,0.007246929406407872, ,0.017224375892130314, ,4.337497484941685e-05, ,0.15878711062693016,-0.24465617745543247,0.09381121101,1.6093703162437245,0.19224755516997472,-1.2763354816075516, ,0.026693935740779398,0.0031703575679631526,0.006874756806214934,0.007406517911809604,0.00841688993193315,0.0019837956096883666, ,1.1987528800964355
0.011677960261868413,0.02118566926776028,-0.08379798340689534, ,0.011966214106104683,0.02114946853569167,-0.08407216117396803, ,0.0003994674200435548, ,0.0027275558544076536,0.0010194920305603222,-0.005008280397140191,0.02467975713998765,0.016601802654872943,0.006251114740303016, ,0.005793254480485747, ,0.029744079423124792, ,4.4045501616912066e-05, ,0.15904196081177954,-0.24462528652393556,0.09387084035000001,1.609580006187209,0.19265746466927103,-1.2766697353186407, ,0.02710566739744952,0.0036959949050162943,0.005494588313211453,0.003051088075658035,0.04404864800047418,-0.027882774412235686, ,1.2129268646240234
0.011740591874553242,0.021206433232912027,-0.08390225479716407, ,0.012012252767964597,0.021160402140557963,-0.08416272084094076, ,0.00037915836062659287, ,0.003045945002222284,0.0011213213706117904,-0.005371728479635181,0.001589625205469243,-0.01072743923494749,-0.0040564032849718604, ,0.006276193865048889, ,0.010844577279020554, ,4.464074019215823e-05, ,0.15960572031159795,-0.2445403364623191,0.09398491387,1.6097896961306934,0.1929307376688019,-1.2767292136457526, ,0.02699002888466177,0.0036624229983600936,0.005866965569060774,0.007285083254446968,0.014915557771717894,-0.00408451435902488, ,1.2324450016021729
0.011772410590652212,0.02121728362960865,-0.08395576288755062, ,0.01205836176324127,0.02117092360002727,-0.08425335369421305, ,0.00041530424228249953, ,0.003134489158108632,0.0010896302175923646,-0.005179584242666881,0.0017747464324090138,-0.015650460274629997,-0.005043726084257808, ,0.0061514558618488025, ,0.015750765948966804, ,4.53269468052419e-05, ,0.1598760159621958,-0.244501722797948,0.09404324692,1.6097896961306934,0.1929307376688019,-1.276647534905612, ,0.02791086516425611,0.003503524058008232,0.0056807459058487875,0.007285083254446968,0.010787460872974624,-0.0041114919025465714, ,1.2465238571166992
0.011803947309130793,0.021227765183135402,-0.08401030003516981, ,0.012104540571645995,0.02118103683114998,-0.08434405880189054, ,0.00045159136695883695, ,0.0032537824109320117,0.0010298970115949426,-0.005487236092610453,-0.0029178576523201747,-0.017333041333278405,-0.00542504064585769, ,0.006462008029105934, ,0.01757692265914673, ,4.623387360565313e-05, ,0.16016947981141633,-0.24445538640070263,0.09410287626000001,1.6097896961306934,0.19320401066833282,-1.2767886919728642, ,0.02857480926180993,0.005049010419792028,0.0059770399699812385,0.007285083254446968,0.009767356233977497,-0.0009407053388220234, ,1.2572128772735596
0.011872286095334774,0.021248910284580577,-0.08413070555043244, ,0.012150788675549138,0.021190745736970804,-0.08443483523302239, ,0.0004164632824355299, ,0.0035080172020248712,0.0011589732194530011,-0.006328457049939093,0.014552227655225243,-0.0013715398435780106,-0.001434994663177657, ,0.007327944612647906, ,0.014616717864195213, ,4.7025217370948204e-05, ,0.1607950211742285,-0.24433182267471504,0.09423380155000001,1.6097896961306934,0.19375055666739455,-1.2770710061073687, ,0.03193033026866446,0.006075628689928256,0.006883669628349179,0.007285083254446968,0.0295108672922773,-0.019438132224270543, ,1.268399953842163
0.011911241135156387,0.021262472701401705,-0.08420272886920172, ,0.012197105559974896,0.021200054206548864,-0.08452568205760255, ,0.000435790431027091, ,0.003969643717921918,0.001668338624178057,-0.008289132672613858,0.005463438697086225,-0.011826529343865777,-0.003407918504749683, ,0.009340832161877005, ,0.013027506268850122, ,4.7857744994999745e-05, ,0.16111165322207172,-0.24427004081172124,0.09431157895000002,1.6097896961306934,0.19375055666739455,-1.2769893273672281, ,0.03247670826778603,0.005927460237177636,0.008938727003367005,0.007141811285516618,0.019417171863071177,-0.010215247207627582, ,1.279054880142212
0.011949143871428881,0.021280421915181785,-0.08429065222877366, ,0.012243490712595584,0.02120896611497749,-0.08461659834657484, ,0.00044495715074298206, ,0.004272727320233117,0.001894197392810647,-0.009818990233715495,0.00442278549141364,-0.012078162519748314,-0.0010664563205348525, ,0.010874592025717443, ,0.012862462831247838, ,4.8701957644181775e-05, ,0.16142828526991493,-0.24420825894872744,0.09440620812000002,1.6099993860741781,0.1941604661666909,-1.2773235810783174, ,0.03314598028587872,0.007665856145532202,0.010507131609498682,0.004629198392503248,0.020465743182515414,-0.011278018127726785, ,1.291813850402832
0.011990327068330659,0.021300135221256858,-0.08439362162078565, ,0.012289943623726632,0.02121748532340542,-0.0847075831718348, ,0.00044178381751643016, ,0.003796342046887062,0.0018368465741324996,-0.00939510597067003,0.029571968676852627,0.0187311328582565,0.004617181273523064, ,0.010298263663064012, ,0.03500509386330593, ,4.95232852680259e-05, ,0.1617680855163808,-0.24412330888711098,0.09451639277000001,1.6102090760176624,0.19470701216575265,-1.277769252693103, ,0.031443651941176536,0.007062680951695925,0.010068780986093553,0.005416435821140171,0.05005702043164408,-0.03572202457401127, ,1.3026399612426758
0.012031728335588654,0.021317001764355074,-0.08448714828406555, ,0.01233646378632089,0.02122561567905587,-0.08479863560623381, ,0.00044524090489402176, ,0.004257306144887968,0.0014661084962109918,-0.009484421709337556,-0.009332148395493274,-0.022883423195940566,-0.00506132562828659, ,0.010498970658808244, ,0.02471315386781457, ,5.0340560885353566e-05, ,0.16208471756422402,-0.24403835882549452,0.09461620710000002,1.6102090760176624,0.19484364866551807,-1.2777173131165185, ,0.03215755389985455,0.01141335416623342,0.010062420416929882,0.005416435821140171,0.008204610142964423,-0.0010848030418864883, ,1.313513994216919
0.012073453071284433,0.021331258023757568,-0.08457880369152977, ,0.012383050695963438,0.021233361015247077,-0.08488975472358135, ,0.0004495832045529766, ,0.004284559030437084,0.0014311787218329146,-0.00923744069212195,-0.013711717400039665,-0.024174599359240198,-0.004999692310529078, ,0.010282802592659148, ,0.027792487851541866, ,5.115630274845989e-05, ,0.16239362687919298,-0.24393024056525536,0.09471342885,1.6102090760176624,0.19484364866551807,-1.2776356343763777, ,0.03280226116780877,0.011113536788182304,0.00982047565967941,0.005416435821140171,0.007582932592950603,0.0035957031389202317, ,1.3241398334503174
0.012114847162749125,0.02134385981560841,-0.08466618847213911, ,0.01242970385086604,0.021240725151412305,-0.08498093959864891, ,0.00045698989556661597, ,0.004322401191011873,0.0011402317775542226,-0.00817569012445842,-0.0008289578933214827,-0.015206438884312118,-0.002373523346471361, ,0.009318003518660651, ,0.015229015667584613, ,5.212009973234494e-05, ,0.16274887259140733,-0.243814399572142,0.09480676173000001,1.6102090760176624,0.19525355816481438,-1.2778882093473265, ,0.03652692130811038,0.011475777034250859,0.008756905728422212,0.005416435821140171,0.020546036643325508,-0.009654410131341655, ,1.3321869373321533
0.012158389270366743,0.021355106250462476,-0.08475336799071828, ,0.012476422751861869,0.02124771189312044,-0.08507218930717284, ,0.00046295342656322766, ,0.004180963348956108,0.0010011791113309616,-0.008387900499901676,0.028013287889845452,0.019831231359245673,0.005352552328176742, ,0.009425480833067908, ,0.034322325010150895, ,5.308959494071936e-05, ,0.16314273196799275,-0.24368311311328017,0.09490009461000001,1.6102090760176624,0.19580010416387617,-1.2781705234818312, ,0.038342198609483145,0.01363461804001017,0.008968925405405406,0.005416435821140171,0.05824783777812434,-0.0406580107382052, ,1.3393018245697021
0.012158389270366743,0.021355106250462476,-0.08475336799071828, ,0.012523206902400035,0.02125432503209537,-0.08516350292585731, ,0.0005580854985030803, ,0.004180963348956108,0.0010011791113309616,-0.008387900499901676,0.028013287889845452,0.019831231359245673,0.005352552328176742, ,0.009425480833067908, ,0.034322325010150895, ,5.4304396845616244e-05, ,0.16314273196799275,-0.24368311311328017,0.09490009461000001,1.6102090760176624,0.19580010416387617,-1.2781705234818312, ,0.038342198609483145,0.01363461804001017,0.008968925405405406,0.005416435821140171,0.05824783777812434,-0.0406580107382052, ,1.3463709354400635
0.012205155889887458,0.021366326413176998,-0.08484457692449834, ,0.012570055808540176,0.021260568346236665,-0.08525487953237829, ,0.0005591823936684682, ,0.004824986178514785,0.001161284476139987,-0.00969524202340406,-0.00570388563926686,-0.016007237672381578,-0.004416398692361216, ,0.010891592681961739, ,0.0169931128291125, ,5.550913909154468e-05, ,0.16350570041308132,-0.24354410392154413,0.09498953862000001,1.6104187659611469,0.19607337716340703,-1.2782300018089428, ,0.039100511560968595,0.015513640928309754,0.010217326183450932,0.007325203769300327,0.023252228937743143,-0.009293423256990854, ,1.3534669876098633
0.012249157314965639,0.021379070085796203,-0.0849423057798822, ,0.012616968978947084,0.021266445599639455,-0.08534631820538545, ,0.0005578492045381914, ,0.005095006407418356,0.0015372706926808713,-0.011289804634781669,-0.003641354615775531,-0.010636695111926405,-0.0038088961713439885, ,0.012481265166870996, ,0.011242711546955927, ,5.6697519214829527e-05, ,0.16389955978966678,-0.24338964926405965,0.09510101956000001,1.6106284559046316,0.19648328666270337,-1.2784825767798917, ,0.040040903611169104,0.015831988915327125,0.01196755185574756,0.008066244181416585,0.028215715939901295,-0.010708709577883415, ,1.3608548641204834
0.012249157314965639,0.021379070085796203,-0.0849423057798822, ,0.012663945924885331,0.021271960542614765,-0.08543781802450663, ,0.0006550224650593238, ,0.005095006407418356,0.0015372706926808713,-0.011289804634781669,-0.003641354615775531,-0.010636695111926405,-0.0038088961713439885, ,0.012481265166870996, ,0.011242711546955927, ,5.813039600485509e-05, ,0.16389955978966678,-0.24338964926405965,0.09510101956000001,1.6106284559046316,0.19648328666270337,-1.2784825767798917, ,0.040040903611169104,0.015831988915327125,0.01196755185574756,0.008066244181416585,0.028215715939901295,-0.010708709577883415, ,1.368067979812622
0.012303637386123433,0.021397175254433964,-0.08507313728539667, ,0.012710986160213855,0.021277116911709453,-0.08552937807034999, ,0.0006232998341613357, ,0.005164829498753974,0.0018740110710541867,-0.013136701373400608,0.040852719722531024,0.040870871634682865,0.007845071812206741, ,0.014239392691387449, ,0.057787303671973315, ,5.946470927367515e-05, ,0.16434747829637178,-0.24321202640795248,0.09523972259,1.6106284559046316,0.19716646916153055,-1.2790396662983738, ,0.042978687300032056,0.01729171675628112,0.013923786293706296,0.008066244181416585,0.08391574409402519,-0.05667797358459902, ,1.3752169609069824
0.012357218142222919,0.021415137862031936,-0.08520928244863073, ,0.012758089201380376,0.021281918429725967,-0.08562099742450767, ,0.0005898764655207881, ,0.005519384971233297,0.0018285589605044634,-0.014220955974638011,0.035425902156361884,0.03527523665791096,0.00625436187207284, ,0.0153636853380076, ,0.049993362391797115, ,6.069755494638049e-05, ,0.1647876740702026,-0.24301895808609686,0.09538361078,1.6106284559046316,0.1979862881601232,-1.2794631375001304, ,0.044385847314532635,0.020769739890232168,0.014998880903954804,0.008066244181416585,0.07960457562250346,-0.05468246623878044, ,1.3825888633728027
0.012417575017800414,0.021433617592773766,-0.08535419571361294, ,0.012805254567416368,0.021286368805743732,-0.08571267516955922, ,0.0005481652659625404, ,0.006295822555964447,0.0018968687022495286,-0.014408074792859396,-0.005516657567710965,-0.006788510875624608,-0.0036796633344947185, ,0.015837553844151402, ,0.0087473864506068, ,6.180893556114554e-05, ,0.16525876077553028,-0.24280272156561858,0.09553657300000001,1.610838145848116,0.19853283415918496,-1.2796637728944944, ,0.04871506240167905,0.020665710269701827,0.015242881837320576,0.010106257567782053,0.040595397362206125,-0.013264764802645412, ,1.3897788524627686
0.012417575017800414,0.021433617592773766,-0.08535419571361294, ,0.012852481779931254,0.021290471735137602,-0.08580441038907387, ,0.0006421276215098618, ,0.006295822555964447,0.0018968687022495286,-0.014408074792859396,-0.005516657567710965,-0.006788510875624608,-0.0036796633344947185, ,0.015837553844151402, ,0.0087473864506068, ,6.315222506992162e-05, ,0.16525876077553028,-0.24280272156561858,0.09553657300000001,1.610838145848116,0.19853283415918496,-1.2796637728944944, ,0.04871506240167905,0.020665710269701827,0.015242881837320576,0.010106257567782053,0.040595397362206125,-0.013264764802645412, ,1.3972067832946777
0.01247677002809547,0.021449276903177338,-0.08548399767273748, ,0.012899770363107244,0.021294230899599406,-0.08589620216761477, ,0.0006106399039062248, ,0.006416509858881977,0.0015208117044877368,-0.013652373671448625,-0.02086143046878575,-0.011957515270486944,-0.0038577581896112726, ,0.015161522808560495, ,0.024045394119484392, ,6.456692191445987e-05, ,0.16572984748085798,-0.24260193051088874,0.09567397974000001,1.610838145848116,0.1989427436584813,-1.2798346691253026, ,0.051102284091799025,0.02271892304488168,0.014441352239347238,0.0097588869697008,0.03794109335686598,1.2166813128287879e-05, ,1.4008917808532715
0.01247677002809547,0.021449276903177338,-0.08548399767273748, ,0.012947119843693825,0.021297649967157148,-0.08598804959074093, ,0.000705895185422897, ,0.006416509858881977,0.0015208117044877368,-0.013652373671448625,-0.02086143046878575,-0.011957515270486944,-0.0038577581896112726, ,0.015161522808560495, ,0.024045394119484392, ,6.621982981010017e-05, ,0.16572984748085798,-0.24260193051088874,0.09567397974000001,1.610838145848116,0.1989427436584813,-1.2798346691253026, ,0.051102284091799025,0.02271892304488168,0.014441352239347238,0.0097588869697008,0.03794109335686598,1.2166813128287879e-05, ,1.4045639038085938
0.01247677002809547,0.021449276903177338,-0.08548399767273748, ,0.012994529751002352,0.02130073259219523,-0.08607995174501169, ,0.0008033067902426661, ,0.006416509858881977,0.0015208117044877368,-0.013652373671448625,-0.02086143046878575,-0.011957515270486944,-0.0038577581896112726, ,0.015161522808560495, ,0.024045394119484392, ,6.811465490118647e-05, ,0.16572984748085798,-0.24260193051088874,0.09567397974000001,1.610838145848116,0.1989427436584813,-1.2798346691253026, ,0.051102284091799025,0.02271892304488168,0.014441352239347238,0.0097588869697008,0.03794109335686598,1.2166813128287879e-05, ,1.4082307815551758
0.012492057410605589,0.02145239131099309,-0.0855147222469137, ,0.013041999616900706,0.02130348241547554,-0.08617190771798905, ,0.0008697718280224577, ,0.006268333026647248,0.001417832226726767,-0.013365981539168046,-0.01810012265409143,-0.010793759536084134,-0.0038310643502667482, ,0.014830769017872359, ,0.02107413719306756, ,0.0003854418673885069, ,0.16584568847397135,-0.24254787138076916,0.09570638699,1.610838145848116,0.1989427436584813,-1.279752990385162, ,0.04991948530166796,0.022999743470303143,0.014121286808510639,0.009559803772438067,0.03794109335686598,-0.003059432358120503, ,1.411888837814331
0.012492057410605589,0.02145239131099309,-0.0855147222469137, ,0.013089528975807799,0.021305903064156057,-0.08626391659824084, ,0.0009693932399945156, ,0.006268333026647248,0.001417832226726767,-0.013365981539168046,-0.01810012265409143,-0.010793759536084134,-0.0038310643502667482, ,0.014830769017872359, ,0.02107413719306756, ,0.00039355230311914597, ,0.16584568847397135,-0.24254787138076916,0.09570638699,1.610838145848116,0.1989427436584813,-1.279752990385162, ,0.04991948530166796,0.022999743470303143,0.014121286808510639,0.009559803772438067,0.03794109335686598,-0.003059432358120503, ,1.4156098365783691
0.012492057410605589,0.02145239131099309,-0.0855147222469137, ,0.013137117364688105,0.021307998151812137,-0.08635597747534449, ,0.001069888820458149, ,0.006268333026647248,0.001417832226726767,-0.013365981539168046,-0.01810012265409143,-0.010793759536084134,-0.0038310643502667482, ,0.014830769017872359, ,0.02107413719306756, ,0.0004028171869183104, ,0.16584568847397135,-0.24254787138076916,0.09570638699,1.610838145848116,0.1989427436584813,-1.279752990385162, ,0.04991948530166796,0.022999743470303143,0.014121286808510639,0.009559803772438067,0.03794109335686598,-0.003059432358120503, ,1.4195528030395508
0.012492057410605589,0.02145239131099309,-0.0855147222469137, ,0.013184764323046487,0.021309771278456124,-0.08644808943988916, ,0.0011710498098488962, ,0.006268333026647248,0.001417832226726767,-0.013365981539168046,-0.01810012265409143,-0.010793759536084134,-0.0038310643502667482, ,0.014830769017872359, ,0.02107413719306756, ,0.0004131987088498048, ,0.16584568847397135,-0.24254787138076916,0.09570638699,1.610838145848116,0.1989427436584813,-1.279752990385162, ,0.04991948530166796,0.022999743470303143,0.014121286808510639,0.009559803772438067,0.03794109335686598,-0.003059432358120503, ,1.4232008457183838
0.012492057410605589,0.02145239131099309,-0.0855147222469137, ,0.013232469392922438,0.021311226030557486,-0.08654025158348004, ,0.00127273247782754, ,0.006268333026647248,0.001417832226726767,-0.013365981539168046,-0.01810012265409143,-0.010793759536084134,-0.0038310643502667482, ,0.014830769017872359, ,0.02107413719306756, ,0.0004246591591028413, ,0.16584568847397135,-0.24254787138076916,0.09570638699,1.610838145848116,0.1989427436584813,-1.279752990385162, ,0.04991948530166796,0.022999743470303143,0.014121286808510639,0.009559803772438067,0.03794109335686598,-0.003059432358120503, ,1.4267849922180176
0.012672167883267155,0.02149750240109746,-0.0859504450898252, ,0.013280232118885012,0.021312365981063213,-0.08663246299874082, ,0.000932290746892972, ,0.009049392844873437,0.0022684697087583137,-0.021336055456665334,0.014070532246651338,0.018606708644024514,-0.0005108068940906789, ,0.023286578283000254, ,0.023327774492162858, ,0.0004313385221000799, ,0.16748290784330694,-0.24179104355909517,0.09616786623000001,1.6110478357916007,0.2030418386514445,-1.2826054550552115, ,0.0700346432165836,0.03503024789902945,0.02191033221458047,0.0014474065103833444,0.09391638609699217,-0.05204580166663757, ,1.4303948879241943
0.012672167883267155,0.02149750240109746,-0.0859504450898252, ,0.013328052048027065,0.02131319468941758,-0.08672472277931666, ,0.0010313386013389115, ,0.009049392844873437,0.0022684697087583137,-0.021336055456665334,0.014070532246651338,0.018606708644024514,-0.0005108068940906789, ,0.023286578283000254, ,0.023327774492162858, ,0.00043913073092136334, ,0.16748290784330694,-0.24179104355909517,0.09616786623000001,1.6110478357916007,0.2030418386514445,-1.2826054550552115, ,0.0700346432165836,0.03503024789902945,0.02191033221458047,0.0014474065103833444,0.09391638609699217,-0.05204580166663757, ,1.434222936630249
0.012672167883267155,0.02149750240109746,-0.0859504450898252, ,0.013375928729960131,0.021313715701582473,-0.08681703001987803, ,0.0011313824822982252, ,0.009049392844873437,0.0022684697087583137,-0.021336055456665334,0.014070532246651338,0.018606708644024514,-0.0005108068940906789, ,0.023286578283000254, ,0.023327774492162858, ,0.0004480057533749128, ,0.16748290784330694,-0.24179104355909517,0.09616786623000001,1.6110478357916007,0.2030418386514445,-1.2826054550552115, ,0.0700346432165836,0.03503024789902945,0.02191033221458047,0.0014474065103833444,0.09391638609699217,-0.05204580166663757, ,1.4379940032958984
0.012780646268768531,0.021529101607503518,-0.08621079489249865, ,0.013423861716808838,0.021313932550057604,-0.08690938381612348, ,0.0009736787561054999, ,0.010847459799433676,0.0037526601905347855,-0.02769243412349444,-0.0854138542750736,-0.05194594481025393,-0.02441515153701146, ,0.02997700369099676, ,0.09996945232761097, ,0.0004546598420170722, ,0.16823973566498093,-0.2413894614496355,0.09644138342000001,1.6116769056220543,0.20331511165097538,-1.2824198971619014, ,0.07092447052202598,0.037170756583811505,0.029067174306569344,0.02468831472681111,0.013990311956907413,0.052828521494664264, ,1.4416499137878418
0.012780646268768531,0.021529101607503518,-0.08621079489249865, ,0.013471850563205465,0.021313848753900175,-0.08700178326478282, ,0.0010722685170801202, ,0.010847459799433676,0.0037526601905347855,-0.02769243412349444,-0.0854138542750736,-0.05194594481025393,-0.02441515153701146, ,0.02997700369099676, ,0.09996945232761097, ,0.0004623799504553603, ,0.16823973566498093,-0.2413894614496355,0.09644138342000001,1.6116769056220543,0.20331511165097538,-1.2824198971619014, ,0.07092447052202598,0.037170756583811505,0.029067174306569344,0.02468831472681111,0.013990311956907413,0.052828521494664264, ,1.4452018737792969
0.012780646268768531,0.021529101607503518,-0.08621079489249865, ,0.013519894826284618,0.021313467818745595,-0.0870942274636199, ,0.0011719383381226232, ,0.010847459799433676,0.0037526601905347855,-0.02769243412349444,-0.0854138542750736,-0.05194594481025393,-0.02441515153701146, ,0.02997700369099676, ,0.09996945232761097, ,0.00047113993055001793, ,0.16898884075378073,-0.24102649300454695,0.09673823383,1.6118865955655386,0.20345174815074082,-1.282286278845176, ,0.08001428461928396,0.03970583328806308,0.030168203636363643,0.05480837505266895,0.0,0.034304744930314025, ,1.448826789855957
0.012893778428391832,0.02156869500933443,-0.08649291604679508, ,0.013567994065677796,0.02131279323682711,-0.08718671551143689, ,0.0010007048215485744, ,0.01199203867209728,0.0038275646938269233,-0.028666915938645253,-0.06446664254297407,-0.06724561469445449,-0.057830146722333615, ,0.03130896536827527, ,0.09315525393889706, ,0.0004775980389768296, ,0.16898884075378073,-0.24102649300454695,0.09673823383,1.6118865955655386,0.20345174815074082,-1.282286278845176, ,0.08001428461928396,0.03970583328806308,0.030168203636363643,0.05480837505266895,0.0,0.034304744930314025, ,1.45241379737854
0.012893778428391832,0.02156869500933443,-0.08649291604679508, ,0.013616147843507835,0.021311828486996174,-0.08727924650807586, ,0.0010982320230858457, ,0.01199203867209728,0.0038275646938269233,-0.028666915938645253,-0.06446664254297407,-0.06724561469445449,-0.057830146722333615, ,0.03130896536827527, ,0.09315525393889706, ,0.0004850755568576611, ,0.16898884075378073,-0.24102649300454695,0.09673823383,1.6118865955655386,0.20345174815074082,-1.282286278845176, ,0.08001428461928396,0.03970583328806308,0.030168203636363643,0.05480837505266895,0.0,0.034304744930314025, ,1.456070899963379
0.013011818194637106,0.02160589155704495,-0.08680485329733427, ,0.013664355724383669,0.021310577034742418,-0.08737181955442323, ,0.0009134914512396858, ,0.01103655951762438,0.003399174465755304,-0.03014599052757145,0.10250677383941352,0.09192442356594396,0.053396714844638045, ,0.032282205282835555, ,0.1376870125823473, ,0.0004901757460764948, ,0.16986923230144232,-0.24055540629921926,0.09706619520000001,1.6120962855090233,0.20495474964816068,-1.2835118757858368, ,0.0848051309727174,0.04658661833994638,0.031667617335984104,-0.023165872744039844,0.18636442295647881,-0.15226424308269174, ,1.459697961807251
0.013011818194637106,0.02160589155704495,-0.08680485329733427, ,0.013712617275394781,0.021309042332214007,-0.08746443375241238, ,0.0010071172675486094, ,0.01103655951762438,0.003399174465755304,-0.03014599052757145,0.10250677383941352,0.09192442356594396,0.053396714844638045, ,0.032282205282835555, ,0.1376870125823473, ,0.0004962574110349902, ,0.16986923230144232,-0.24055540629921926,0.09706619520000001,1.6120962855090233,0.20495474964816068,-1.2835118757858368, ,0.0848051309727174,0.04658661833994638,0.031667617335984104,-0.023165872744039844,0.18636442295647881,-0.15226424308269174, ,1.4632568359375
0.013011818194637106,0.02160589155704495,-0.08680485329733427, ,0.013760932066105848,0.02130722781823771,-0.0875570882050269, ,0.0011028277189373463, ,0.01103655951762438,0.003399174465755304,-0.03014599052757145,0.10250677383941352,0.09192442356594396,0.053396714844638045, ,0.032282205282835555, ,0.1376870125823473, ,0.000503310554150134, ,0.16986923230144232,-0.24055540629921926,0.09706619520000001,1.6120962855090233,0.20495474964816068,-1.2835118757858368, ,0.0848051309727174,0.04658661833994638,0.031667617335984104,-0.023165872744039844,0.18636442295647881,-0.15226424308269174, ,1.4668598175048828
0.01312084177775076,0.021636910199080425,-0.08709235435736228, ,0.013809299668551147,0.021305136918338175,-0.08764978201630332, ,0.0009459246123091843, ,0.012197605662393574,0.002860095545720184,-0.03037858329097703,0.08748935540215082,0.07197682624035522,0.04428571502921539, ,0.03286061553277317, ,0.11329176912673995, ,0.0005083980720600081, ,0.17070328745185856,-0.2400920423267658,0.09736823077000001,1.6120962855090233,0.20659438764534596,-1.2848488906301938, ,0.0956622394742649,0.05319335289151949,0.03192146597194389,-0.017390166125632697,0.17559596127473043,-0.14284080552121511, ,1.4715709686279297
0.01312084177775076,0.021636910199080425,-0.08709235435736228, ,0.013857719657229421,0.021302773044759752,-0.08774251429133503, ,0.0010379521120485013, ,0.012197605662393574,0.002860095545720184,-0.03037858329097703,0.08748935540215082,0.07197682624035522,0.04428571502921539, ,0.03286061553277317, ,0.11329176912673995, ,0.0005144157316053318, ,0.17070328745185856,-0.2400920423267658,0.09736823077000001,1.6120962855090233,0.20659438764534596,-1.2848488906301938, ,0.0956622394742649,0.05319335289151949,0.03192146597194389,-0.017390166125632697,0.17559596127473043,-0.14284080552121511, ,1.4755468368530273
0.013249895670997021,0.02166110249151773,-0.0873831927995533, ,0.013906191609098197,0.021300139596484812,-0.08783528413627523, ,0.0008748743605213664, ,0.01305395736921119,0.0017332779866790025,-0.0268038575078166,-0.0016293009742629164,-0.027576904153756764,0.02041563932537583, ,0.029863972155016915, ,0.027624743060097826, ,0.0005184658285594447, ,0.17070328745185856,-0.2400920423267658,0.09736823077000001,1.6120962855090233,0.20659438764534596,-1.2848488906301938, ,0.0956622394742649,0.05319335289151949,0.03192146597194389,-0.017390166125632697,0.17559596127473043,-0.14284080552121511, ,1.4794089794158936
0.013249895670997021,0.02166110249151773,-0.0873831927995533, ,0.013954715103568414,0.021297239959254977,-0.08792809065833927, ,0.000962330531275229, ,0.01305395736921119,0.0017332779866790025,-0.0268038575078166,-0.0016293009742629164,-0.027576904153756764,0.02041563932537583, ,0.029863972155016915, ,0.027624743060097826, ,0.00052339765858962, ,0.17170724272550775,-0.23954372829269585,0.09767415521000002,1.6120962855090233,0.20782411614323493,-1.28560661554304, ,0.10171162010554209,0.055723394925702156,0.02819258676106195,-0.013689729897964591,0.07916945701425532,-0.05557996735317576, ,1.4834330081939697
0.013249895670997021,0.02166110249151773,-0.0873831927995533, ,0.01400328972249909,0.0212940775055911,-0.08802093296580882, ,0.0010531013516223247, ,0.01305395736921119,0.0017332779866790025,-0.0268038575078166,-0.0016293009742629164,-0.027576904153756764,0.02041563932537583, ,0.029863972155016915, ,0.027624743060097826, ,0.000529218578293276, ,0.17170724272550775,-0.23954372829269585,0.09767415521000002,1.6120962855090233,0.20782411614323493,-1.28560661554304, ,0.10171162010554209,0.055723394925702156,0.02819258676106195,-0.013689729897964591,0.07916945701425532,-0.05557996735317576, ,1.4870219230651855
0.01338813618595396,0.021671574564343238,-0.08764091064468327, ,0.014051915050191793,0.021290655594812927,-0.08811381016803471, ,0.0008996308138024867, ,0.013824902826383517,0.00032982000492618835,-0.023773854216455264,-0.05965361548000672,-0.09412327103390156,-0.00721983363680899, ,0.02750332459358076, ,0.11143489756570404, ,0.0005332447982444631, ,0.17278842532789918,-0.23894135512850634,0.09794507982,1.6118865955655386,0.20823402564253127,-1.2858591905139887, ,0.10907694432008136,0.06292900633850848,0.024966789216300942,0.0,0.015380116138212812,-0.0023431437812559347, ,1.4905669689178467
0.01338813618595396,0.021671574564343238,-0.08764091064468327, ,0.014100590673385212,0.021286977573059404,-0.08820672137543946, ,0.0009877489688196893, ,0.013824902826383517,0.00032982000492618835,-0.023773854216455264,-0.05965361548000672,-0.09412327103390156,-0.00721983363680899, ,0.02750332459358076, ,0.11143489756570404, ,0.0005381319398635516, ,0.17278842532789918,-0.23894135512850634,0.09794507982,1.6118865955655386,0.20823402564253127,-1.2858591905139887, ,0.10907694432008136,0.06292900633850848,0.024966789216300942,0.0,0.015380116138212812,-0.0023431437812559347, ,1.4941718578338623
0.01338813618595396,0.021671574564343238,-0.08764091064468327, ,0.014149316181249878,0.021283046773309142,-0.08829966569952155, ,0.0010790306074989332, ,0.013824902826383517,0.00032982000492618835,-0.023773854216455264,-0.05965361548000672,-0.09412327103390156,-0.00721983363680899, ,0.02750332459358076, ,0.11143489756570404, ,0.0005438861810086089, ,0.17278842532789918,-0.23894135512850634,0.09794507982,1.6118865955655386,0.20823402564253127,-1.2858591905139887, ,0.10907694432008136,0.06292900633850848,0.024966789216300942,0.0,0.015380116138212812,-0.0023431437812559347, ,1.497748851776123
0.013517771781743891,0.021668254983314626,-0.08785707798802404, ,0.0141980911653824,0.021278866515399987,-0.08839264225285781, ,0.0009493613245051245, ,0.013131888560931679,-0.0008495725839816073,-0.02141488973544611,0.014112990120000845,-0.022103389804517513,0.007089900852623405, ,0.025134951226001945, ,0.026224641602441097, ,0.0005481543404138354, ,0.17386188519741638,-0.2383003682999457,0.09817193057000001,1.6118865955655386,0.208780571641593,-1.2861415046484932, ,0.11337746900653618,0.0691164905742686,0.02253014359264498,0.0,0.06734009132057765,-0.061372631174673356, ,1.501356840133667
0.013517771781743891,0.021668254983314626,-0.08785707798802404, ,0.014246915219800475,0.02127444010604975,-0.08848565014910649, ,0.0010401169513588272, ,0.013131888560931679,-0.0008495725839816073,-0.02141488973544611,0.014112990120000845,-0.022103389804517513,0.007089900852623405, ,0.025134951226001945, ,0.026224641602441097, ,0.0005532789509445124, ,0.17386188519741638,-0.2383003682999457,0.09817193057000001,1.6118865955655386,0.208780571641593,-1.2861415046484932, ,0.11337746900653618,0.0691164905742686,0.02253014359264498,0.0,0.06734009132057765,-0.061372631174673356, ,1.5051538944244385
0.013517771781743891,0.021668254983314626,-0.08785707798802404, ,0.014295787940937022,0.02126977083887549,-0.08857868850301068, ,0.0011334992248229795, ,0.013131888560931679,-0.0008495725839816073,-0.02141488973544611,0.014112990120000845,-0.022103389804517513,0.007089900852623405, ,0.025134951226001945, ,0.026224641602441097, ,0.0005592606032525379, ,0.17386188519741638,-0.2383003682999457,0.09817193057000001,1.6118865955655386,0.208780571641593,-1.2861415046484932, ,0.11337746900653618,0.0691164905742686,0.02253014359264498,0.0,0.06734009132057765,-0.061372631174673356, ,1.5091028213500977
0.013577642895170466,0.021663825996591224,-0.08795594511807411, ,0.01434470892763497,0.021264861994414276,-0.08867175643040173, ,0.0011224742349159158, ,0.012717974416738751,-0.0012948308103182312,-0.020687012229456826,0.04280434786037487,0.014743991126153832,0.014447084256192668, ,0.024318222284407776, ,0.045272438429931776, ,0.000565007681126654, ,0.17438703103286365,-0.23797601351922826,0.09827563377000001,1.6118865955655386,0.2093271176406548,-1.286587176263279, ,0.11351308798860141,0.0718372002713632,0.02167185240816327,0.0,0.13092465557439445,-0.11369645356916772, ,1.5127317905426025
0.013577642895170466,0.021663825996591224,-0.08795594511807411, ,0.014393677781141995,0.02125971684014328,-0.0887648530482017, ,0.0012180103385730876, ,0.012717974416738751,-0.0012948308103182312,-0.020687012229456826,0.04280434786037487,0.014743991126153832,0.014447084256192668, ,0.024318222284407776, ,0.045272438429931776, ,0.0005716036675655068, ,0.17438703103286365,-0.23797601351922826,0.09827563377000001,1.6118865955655386,0.2093271176406548,-1.286587176263279, ,0.11351308798860141,0.0718372002713632,0.02167185240816327,0.0,0.13092465557439445,-0.11369645356916772, ,1.5163497924804688
0.0137785628668153,0.021637655029232906,-0.08826603985274249, ,0.014442694105104674,0.02125433863049954,-0.08885797747442742, ,0.000968706308008626, ,0.013305258863605758,-0.0020722397575902263,-0.0195521208717899,-0.007707806761407126,-0.024440199808100634,-0.0004452650471580817, ,0.023740461697818335, ,0.02562675934140105, ,0.000575574693969938, ,0.17621731872405486,-0.2368176035880946,0.09860100256000001,1.6123059754525078,0.2115133016369018,-1.2884515414625621, ,0.11759224480603565,0.07696426728180923,0.02044776831835687,0.006909234333876424,0.09356373660319546,-0.06696376529323171, ,1.519946813583374
0.0137785628668153,0.021637655029232906,-0.08826603985274249, ,0.014491757505563295,0.021248730606900183,-0.08895112882819234, ,0.001062664435891522, ,0.013305258863605758,-0.0020722397575902263,-0.0195521208717899,-0.007707806761407126,-0.024440199808100634,-0.0004452650471580817, ,0.023740461697818335, ,0.02562675934140105, ,0.0005803973646820329, ,0.17621731872405486,-0.2368176035880946,0.09860100256000001,1.6123059754525078,0.2115133016369018,-1.2884515414625621, ,0.11759224480603565,0.07696426728180923,0.02044776831835687,0.006909234333876424,0.09356373660319546,-0.06696376529323171, ,1.5236599445343018
0.0137785628668153,0.021637655029232906,-0.08826603985274249, ,0.014540867590946534,0.021242895997762926,-0.08904430622971093, ,0.0011587241858524832, ,0.013305258863605758,-0.0020722397575902263,-0.0195521208717899,-0.007707806761407126,-0.024440199808100634,-0.0004452650471580817, ,0.023740461697818335, ,0.02562675934140105, ,0.0005860672354778216, ,0.17621731872405486,-0.2368176035880946,0.09860100256000001,1.6123059754525078,0.2115133016369018,-1.2884515414625621, ,0.11759224480603565,0.07696426728180923,0.02044776831835687,0.006909234333876424,0.09356373660319546,-0.06696376529323171, ,1.5272448062896729
0.013917540340749492,0.021614519188643568,-0.08848058234207823, ,0.014590023972065677,0.02123683801852548,-0.0891375088003014, ,0.0010131286552869819, ,0.014784263194481322,-0.0020599902344644707,-0.023912513535161894,-0.028426836890968286,-0.04688885749646444,-0.006185989372765642, ,0.028189116721513016, ,0.05483285688709635, ,0.0005902134628546096, ,0.17740661958668544,-0.23597582570480413,0.09882396444000001,1.6123059754525078,0.21233312063549445,-1.2890383701446, ,0.12292349942807097,0.08794897271406003,0.024849939968798754,0.006796426728728462,0.07605653266866431,-0.05704966143281319, ,1.5307729244232178
0.013917540340749492,0.021614519188643568,-0.08848058234207823, ,0.014639226262109511,0.021230559871666162,-0.08923073566238851, ,0.001109497782852925, ,0.014784263194481322,-0.0020599902344644707,-0.023912513535161894,-0.028426836890968286,-0.04688885749646444,-0.006185989372765642, ,0.028189116721513016, ,0.05483285688709635, ,0.0005952065813161318, ,0.17740661958668544,-0.23597582570480413,0.09882396444000001,1.6123059754525078,0.21233312063549445,-1.2890383701446, ,0.12292349942807097,0.08794897271406003,0.024849939968798754,0.006796426728728462,0.07605653266866431,-0.05704966143281319, ,1.5343317985534668
0.013917540340749492,0.021614519188643568,-0.08848058234207823, ,0.014688474076638806,0.021224064746724152,-0.08932398593950731, ,0.0012075276909881529, ,0.014784263194481322,-0.0020599902344644707,-0.023912513535161894,-0.028426836890968286,-0.04688885749646444,-0.006185989372765642, ,0.028189116721513016, ,0.05483285688709635, ,0.0006010382109320558, ,0.17740661958668544,-0.23597582570480413,0.09882396444000001,1.6123059754525078,0.21233312063549445,-1.2890383701446, ,0.12292349942807097,0.08794897271406003,0.024849939968798754,0.006796426728728462,0.07605653266866431,-0.05704966143281319, ,1.5379829406738281
0.014079417602504614,0.0215988519407378,-0.08875536220399316, ,0.014737767033580639,0.02121735582031876,-0.08941725875630539, ,0.001008499037806047, ,0.015509233167635885,-0.001153356869887087,-0.027228494656025944,-0.00032270202170472386,-0.014741113865351815,0.0024533399604292393, ,0.03135693650136515, ,0.01474413809478686, ,0.0006048821809969048, ,0.17873492964105206,-0.2350568204927714,0.09911044453000001,1.6123059754525078,0.21328957613385255,-1.2897366167303344, ,0.12720769645907612,0.08658480069203538,0.02844430628571429,0.006016137967262176,0.11345271096002847,-0.08396875393217693, ,1.541855812072754
0.014079417602504614,0.0215988519407378,-0.08875536220399316, ,0.014787104753223384,0.021210436256170844,-0.0895105532385474, ,0.0011054416972329046, ,0.015509233167635885,-0.001153356869887087,-0.027228494656025944,-0.00032270202170472386,-0.014741113865351815,0.0024533399604292393, ,0.03135693650136515, ,0.01474413809478686, ,0.0006095603073168675, ,0.17873492964105206,-0.2350568204927714,0.09911044453000001,1.6123059754525078,0.21328957613385255,-1.2897366167303344, ,0.12720769645907612,0.08658480069203538,0.02844430628571429,0.006016137967262176,0.11345271096002847,-0.08396875393217693, ,1.5454587936401367
0.014079417602504614,0.0215988519407378,-0.08875536220399316, ,0.014836486858210785,0.021203309205121337,-0.0896038685131163, ,0.0012039812582661858, ,0.015509233167635885,-0.001153356869887087,-0.027228494656025944,-0.00032270202170472386,-0.014741113865351815,0.0024533399604292393, ,0.03135693650136515, ,0.01474413809478686, ,0.0006150642050108426, ,0.17873492964105206,-0.2350568204927714,0.09911044453000001,1.6123059754525078,0.21328957613385255,-1.2897366167303344, ,0.12720769645907612,0.08658480069203538,0.02844430628571429,0.006016137967262176,0.11345271096002847,-0.08396875393217693, ,1.549081802368164
0.014234969465784671,0.02158640023760232,-0.08903073365924571, ,0.014885912973536981,0.021195977805152873,-0.08969720370801887, ,0.0010101185336168794, ,0.015456456249566694,-0.0013746381651943132,-0.027763807382765276,0.027715287097507448,0.008442148194325746,0.006566332087750692, ,0.03180598481838394, ,0.028972236855423914, ,0.00061868855664943, ,0.18002462603104755,-0.23417642894510982,0.09939822091000002,1.6123059754525078,0.21465594113150693,-1.2906874382870175, ,0.12703740503142005,0.08977950951605561,0.028961475490909095,0.005424463310269073,0.13692129021518065,-0.1152834280672375, ,1.552642822265625
0.014234969465784671,0.02158640023760232,-0.08903073365924571, ,0.01493538272654078,0.021188445181409,-0.08979055795238658, ,0.0011073752385889106, ,0.015456456249566694,-0.0013746381651943132,-0.027763807382765276,0.027715287097507448,0.008442148194325746,0.006566332087750692, ,0.03180598481838394, ,0.028972236855423914, ,0.0006231311628488799, ,0.18002462603104755,-0.23417642894510982,0.09939822091000002,1.6123059754525078,0.21465594113150693,-1.2906874382870175, ,0.12703740503142005,0.08977950951605561,0.028961475490909095,0.005424463310269073,0.13692129021518065,-0.1152834280672375, ,1.5562248229980469
0.014390580190350817,0.02157085901542672,-0.08931091425978342, ,0.014984895746900328,0.02118071444621455,-0.08988393037648017, ,0.0009131107466439774, ,0.015456456249566694,-0.0013746381651943132,-0.027763807382765276,0.027715287097507448,0.008442148194325746,0.006566332087750692, ,0.03180598481838394, ,0.028972236855423914, ,0.0006257435915317186, ,0.18002462603104755,-0.23417642894510982,0.09939822091000002,1.6123059754525078,0.21465594113150693,-1.2906874382870175, ,0.12703740503142005,0.08977950951605561,0.028961475490909095,0.005424463310269073,0.13692129021518065,-0.1152834280672375, ,1.5599298477172852
0.014390580190350817,0.02157085901542672,-0.08931091425978342, ,0.015034451666627495,0.02117278869909547,-0.08997732011169211, ,0.0010085272500854497, ,0.016008245673843784,-0.0014192304176465042,-0.028840932647084264,0.001594771148736081,-0.01403722145917215,0.00206280019760756, ,0.03301632233435702, ,0.01412681586738548, ,0.0006291613027688054, ,0.18128343148954615,-0.2332574237330771,0.09968988616,1.6123059754525078,0.2158856696293959,-1.2916085206801446, ,0.12789345223513582,0.09249214576849003,0.03005436135849057,0.00494428217887663,0.11499826754090975,-0.09187033873303627, ,1.5638368129730225
0.014390580190350817,0.02157085901542672,-0.08931091425978342, ,0.015084050120062729,0.021164671026799378,-0.0900707262905502, ,0.0011059853288437884, ,0.016008245673843784,-0.0014192304176465042,-0.028840932647084264,0.001594771148736081,-0.01403722145917215,0.00206280019760756, ,0.03301632233435702, ,0.01412681586738548, ,0.0006333809844154867, ,0.18128343148954615,-0.2332574237330771,0.09968988616,1.6123059754525078,0.2158856696293959,-1.2916085206801446, ,0.12789345223513582,0.09249214576849003,0.03005436135849057,0.00494428217887663,0.11499826754090975,-0.09187033873303627, ,1.5673539638519287
0.014550789499479173,0.0215545811766212,-0.0895972971105721, ,0.015133690743869471,0.021156364503315504,-0.09016414804672027, ,0.0009053564841665774, ,0.016037376195390602,-0.0019086212572231192,-0.028093423340793802,-0.020127182988646054,-0.027682045197748733,0.00344038988159849, ,0.03240494877855947, ,0.034225452838234374, ,0.0006357667344133032, ,0.1825576824137932,-0.2323152503224217,0.09998803286,1.6125156653959922,0.21697876162751942,-1.292499863909716, ,0.12754965263235318,0.09508711579005087,0.029227177100917434,0.00033176143339597435,0.10188530303391251,-0.07345434476559864, ,1.5711958408355713
0.014550789499479173,0.0215545811766212,-0.0895972971105721, ,0.015183373177028617,0.02114787218989467,-0.09025758451501002, ,0.001000776581183567, ,0.016037376195390602,-0.0019086212572231192,-0.028093423340793802,-0.020127182988646054,-0.027682045197748733,0.00344038988159849, ,0.03240494877855947, ,0.034225452838234374, ,0.0006389407330808708, ,0.1825576824137932,-0.2323152503224217,0.09998803286,1.6125156653959922,0.21697876162751942,-1.292499863909716, ,0.12754965263235318,0.09508711579005087,0.029227177100917434,0.00033176143339597435,0.10188530303391251,-0.07345434476559864, ,1.5749719142913818
0.014550789499479173,0.0215545811766212,-0.0895972971105721, ,0.01523309706083324,0.021139197135069437,-0.09035103483137091, ,0.0010982750393284018, ,0.016037376195390602,-0.0019086212572231192,-0.028093423340793802,-0.020127182988646054,-0.027682045197748733,0.00344038988159849, ,0.03240494877855947, ,0.034225452838234374, ,0.0006429005115830047, ,0.1825576824137932,-0.2323152503224217,0.09998803286,1.6125156653959922,0.21697876162751942,-1.292499863909716, ,0.12754965263235318,0.09508711579005087,0.029227177100917434,0.00033176143339597435,0.10188530303391251,-0.07345434476559864, ,1.5785479545593262
0.014710236430322477,0.021533786950419274,-0.08986871053964121, ,0.015282862038882985,0.021130342374674288,-0.0904444981329028, ,0.0009067518766626921, ,0.01564271284070529,-0.002254942399036333,-0.0269291245561587,-0.021240102998045088,-0.02271447402953516,0.003858222360194139, ,0.031224301106683675, ,0.031097831825441225, ,0.0006451556514554807, ,0.18383193333804024,-0.2313730769117663,0.10027062408000001,1.6125156653959922,0.21793521712587752,-1.2931981104954504, ,0.12502890850918416,0.09518248902554742,0.027994396344463976,0.00033176143339597435,0.1043882387437869,-0.07242648237050361, ,1.5821268558502197
0.014710236430322477,0.021533786950419274,-0.08986871053964121, ,0.015332667757078781,0.021121310931865617,-0.09053797355785573, ,0.001002731374775465, ,0.01564271284070529,-0.002254942399036333,-0.0269291245561587,-0.021240102998045088,-0.02271447402953516,0.003858222360194139, ,0.031224301106683675, ,0.031097831825441225, ,0.0006481859541954806, ,0.18383193333804024,-0.2313730769117663,0.10027062408000001,1.6125156653959922,0.21793521712587752,-1.2931981104954504, ,0.12502890850918416,0.09518248902554742,0.027994396344463976,0.00033176143339597435,0.1043882387437869,-0.07242648237050361, ,1.5857009887695312
0.014710236430322477,0.021533786950419274,-0.08986871053964121, ,0.015382513863617445,0.02111210581714228,-0.09063146024563451, ,0.0011007084261839299, ,0.01564271284070529,-0.002254942399036333,-0.0269291245561587,-0.021240102998045088,-0.02271447402953516,0.003858222360194139, ,0.031224301106683675, ,0.031097831825441225, ,0.000651988664044123, ,0.18383193333804024,-0.2313730769117663,0.10027062408000001,1.6125156653959922,0.21793521712587752,-1.2931981104954504, ,0.12502890850918416,0.09518248902554742,0.027994396344463976,0.00033176143339597435,0.1043882387437869,-0.07242648237050361, ,1.5892398357391357
0.014863392267294285,0.02150966674822327,-0.09013201718246454, ,0.015432400008985925,0.021102730028364807,-0.09072495733680018, ,0.0009170307141517991, ,0.01523680829762278,-0.0027076857959949024,-0.02593770294164137,-0.01727919931707995,-0.014283496283255585,0.004521473786040136, ,0.03020358130018972, ,0.02241823488586861, ,0.0006541973477950202, ,0.18505984786504193,-0.2304231807682367,0.10054414127000001,1.6125156653959922,0.21902830912400104,-1.2940077749848813, ,0.12244766652705909,0.09683361383517426,0.02690677621621622,0.00033176143339597435,0.1103183614687793,-0.07801031823634248, ,1.5928049087524414
0.014863392267294285,0.02150966674822327,-0.09013201718246454, ,0.015482325845956206,0.021093186550776487,-0.09081846397307454, ,0.0010137769606769198, ,0.01523680829762278,-0.0027076857959949024,-0.02593770294164137,-0.01727919931707995,-0.014283496283255585,0.004521473786040136, ,0.03020358130018972, ,0.02241823488586861, ,0.0006571690801328872, ,0.18505984786504193,-0.2304231807682367,0.10054414127000001,1.6125156653959922,0.21902830912400104,-1.2940077749848813, ,0.12244766652705909,0.09683361383517426,0.02690677621621622,0.00033176143339597435,0.1103183614687793,-0.07801031823634248, ,1.5963759422302246
0.015019360981760542,0.021478360580276773,-0.09039498648716433, ,0.015532291029579733,0.02108347835702284,-0.09091197929734277, ,0.0008284387545099266, ,0.014974559729962067,-0.0031177645191467584,-0.025306221520348282,-0.013694057679372647,-0.006527960245192475,0.005086630096081088, ,0.029569625333101375, ,0.015170072581978835, ,0.000658572929922863, ,0.1863109305906663,-0.22940378002883907,0.10081636217,1.6125156653959922,0.22012140112212455,-1.294899118214453, ,0.12073402233902134,0.09895405793375472,0.02619870315789474,0.0003631257472327712,0.11643441722368006,-0.08367300993054871, ,1.600721836090088
0.015019360981760542,0.021478360580276773,-0.09039498648716433, ,0.015582295217181796,0.021073608407171804,-0.09100550245365623, ,0.0009238230460342701, ,0.014974559729962067,-0.0031177645191467584,-0.025306221520348282,-0.013694057679372647,-0.006527960245192475,0.005086630096081088, ,0.029569625333101375, ,0.015170072581978835, ,0.0006607294349318986, ,0.1863109305906663,-0.22940378002883907,0.10081636217,1.6125156653959922,0.22012140112212455,-1.294899118214453, ,0.12073402233902134,0.09895405793375472,0.02619870315789474,0.0003631257472327712,0.11643441722368006,-0.08367300993054871, ,1.6044158935546875
0.015019360981760542,0.021478360580276773,-0.09039498648716433, ,0.0156323380683565,0.021063579648734194,-0.09109903258723626, ,0.0010215013660732338, ,0.014974559729962067,-0.0031177645191467584,-0.025306221520348282,-0.013694057679372647,-0.006527960245192475,0.005086630096081088, ,0.029569625333101375, ,0.015170072581978835, ,0.0006636388859894901, ,0.1863109305906663,-0.22940378002883907,0.10081636217,1.6125156653959922,0.22012140112212455,-1.294899118214453, ,0.12073402233902134,0.09895405793375472,0.02619870315789474,0.0003631257472327712,0.11643441722368006,-0.08367300993054871, ,1.6081619262695312
0.015162933782694305,0.021447171996562122,-0.0906381656080785, ,0.01568241924496088,0.021053395016683425,-0.09119256884447705, ,0.0008557385137516547, ,0.013977719860180829,-0.0033737402163644533,-0.023469387850019403,-0.03818891448491997,-0.02989883263635861,-0.007118008896153753, ,0.02752400664132762, ,0.04850078620064899, ,0.0006651756830115874, ,0.18746161778892576,-0.228438438419561,0.10106784243000001,1.612725355339477,0.2212144931202481,-1.295790461444024, ,0.10958076392433115,0.0963420726481937,0.024171185918057666,0.005737071860260543,0.07998168532353038,-0.055544187809180606, ,1.6118597984313965
0.015162933782694305,0.021447171996562122,-0.0906381656080785, ,0.015732538411109838,0.021043057433475943,-0.0912861103729485, ,0.0009526754070160349, ,0.013977719860180829,-0.0033737402163644533,-0.023469387850019403,-0.03818891448491997,-0.02989883263635861,-0.007118008896153753, ,0.02752400664132762, ,0.04850078620064899, ,0.0006674574268528925, ,0.18746161778892576,-0.228438438419561,0.10106784243000001,1.612725355339477,0.2212144931202481,-1.295790461444024, ,0.10958076392433115,0.0963420726481937,0.024171185918057666,0.005737071860260543,0.07998168532353038,-0.055544187809180606, ,1.6154589653015137
0.015162933782694305,0.021447171996562122,-0.0906381656080785, ,0.015782695233170257,0.021032569809070718,-0.09137965632139959, ,0.001051573919089922, ,0.013977719860180829,-0.0033737402163644533,-0.023469387850019403,-0.03818891448491997,-0.02989883263635861,-0.007118008896153753, ,0.02752400664132762, ,0.04850078620064899, ,0.0006704819661618455, ,0.18746161778892576,-0.228438438419561,0.10106784243000001,1.612725355339477,0.2212144931202481,-1.295790461444024, ,0.10958076392433115,0.0963420726481937,0.024171185918057666,0.005737071860260543,0.07998168532353038,-0.055544187809180606, ,1.6190128326416016
0.015299049412863221,0.02141171552492235,-0.09085878883313629, ,0.01583288937975606,0.021021935040950193,-0.09147320583976165, ,0.0009024534303598062, ,0.013857500021892595,-0.0038949632222699086,-0.022538996382088936,-0.0576510483490636,-0.04957425886951894,-0.012218496356796213, ,0.026743361854325767, ,0.07603449678638631, ,0.000672294243225892, ,0.18851963219269452,-0.2274962650089056,0.10129469318,1.612725355339477,0.22176103911930983,-1.2962361330588097, ,0.10747105499260563,0.09895405793375472,0.02311873950653121,0.005737071860260543,0.057763637136211195,-0.038591451318245554, ,1.6225829124450684
0.015299049412863221,0.02141171552492235,-0.09085878883313629, ,0.01588312052172237,0.02101115601413993,-0.09156675807915149, ,0.0010014027337617647, ,0.013857500021892595,-0.0038949632222699086,-0.022538996382088936,-0.0576510483490636,-0.04957425886951894,-0.012218496356796213, ,0.026743361854325767, ,0.07603449678638631, ,0.0006748454718346972, ,0.18851963219269452,-0.2274962650089056,0.10129469318,1.612725355339477,0.22176103911930983,-1.2962361330588097, ,0.10747105499260563,0.09895405793375472,0.02311873950653121,0.005737071860260543,0.057763637136211195,-0.038591451318245554, ,1.6261508464813232
0.015299049412863221,0.02141171552492235,-0.09085878883313629, ,0.01593338833216032,0.021000235601228514,-0.09166031219187402, ,0.0011018807951590369, ,0.013857500021892595,-0.0038949632222699086,-0.022538996382088936,-0.0576510483490636,-0.04957425886951894,-0.012218496356796213, ,0.026743361854325767, ,0.07603449678638631, ,0.0006781303589371921, ,0.18851963219269452,-0.2274962650089056,0.10129469318,1.612725355339477,0.22176103911930983,-1.2962361330588097, ,0.10747105499260563,0.09895405793375472,0.02311873950653121,0.005737071860260543,0.057763637136211195,-0.038591451318245554, ,1.6297149658203125
0.015436260246773826,0.02137226858592997,-0.09109403291557143, ,0.015983692486391466,0.020989176662388337,-0.09175386733142636, ,0.000939054277026751, ,0.013260995076718882,-0.0035420779356068093,-0.0232187215293388,-0.018388262679908444,-0.009691657827449187,0.008969276619702196, ,0.02697238098469722, ,0.020785804953722956, ,0.0006801221445714637, ,0.18959309206221173,-0.22647686426950797,0.10153580312,1.6129350452829614,0.22271749461766793,-1.296934379644544, ,0.10292509930419824,0.09604953599035504,0.023845526227544912,-0.008161469976537883,0.09688221570152948,-0.07758322682714089, ,1.633255958557129
0.015436260246773826,0.02137226858592997,-0.09109403291557143, ,0.016034032661962294,0.02097798204539466,-0.09184742265249977, ,0.0010394180256838531, ,0.013260995076718882,-0.0035420779356068093,-0.0232187215293388,-0.018388262679908444,-0.009691657827449187,0.008969276619702196, ,0.02697238098469722, ,0.020785804953722956, ,0.0006828440830647393, ,0.18959309206221173,-0.22647686426950797,0.10153580312,1.6129350452829614,0.22271749461766793,-1.296934379644544, ,0.10292509930419824,0.09604953599035504,0.023845526227544912,-0.008161469976537883,0.09688221570152948,-0.07758322682714089, ,1.6368517875671387
0.015569528535477516,0.02133850613811453,-0.09133245819062617, ,0.016084408538639055,0.020966654585646963,-0.09194097731098427, ,0.000879585421985587, ,0.01324914527730374,-0.003355656675926481,-0.02423636804592334,-0.014939747327195198,-0.0033575618603071235,0.009306509172720474, ,0.027824482355710483, ,0.015312116421844225, ,0.0006843233412521142, ,0.19061249280160936,-0.22551924539310414,0.10178080193000001,1.6129350452829614,0.223673950116026,-1.2977143049704192, ,0.10052642114244785,0.09604953599035504,0.024888768000000002,-0.007900112449726649,0.100800709305137,-0.08098470995192363, ,1.643711805343628
0.015569528535477516,0.02133850613811453,-0.09133245819062617, ,0.01613481979840194,0.020955197106188154,-0.09203453046396994, ,0.0009794822626740644, ,0.01324914527730374,-0.003355656675926481,-0.02423636804592334,-0.014939747327195198,-0.0033575618603071235,0.009306509172720474, ,0.027824482355710483, ,0.015312116421844225, ,0.0006865260197701884, ,0.19061249280160936,-0.22551924539310414,0.10178080193000001,1.6129350452829614,0.223673950116026,-1.2977143049704192, ,0.10052642114244785,0.09604953599035504,0.024888768000000002,-0.007900112449726649,0.100800709305137,-0.08098470995192363, ,1.6473798751831055
0.015710590352264298,0.021306594513588073,-0.09159320935603178, ,0.016185266125439968,0.02094361241772486,-0.09212808126975178, ,0.0008019732262636089, ,0.013269680397057252,-0.0026969574396144094,-0.024972795655600677,-0.02367593875165233,-0.017061127253872068,0.006087703595770812, ,0.028407719375682466, ,0.02918257059166966, ,0.0006873811842627322, ,0.19166278447250387,-0.2245307355852034,0.10204913396000001,1.6129350452829614,0.2246304056143841,-1.298494230296294, ,0.09693252457453604,0.09046419595659749,0.02573313654281099,-0.00727774407633267,0.0830107340035395,-0.06661577073900353, ,1.6509509086608887
0.015710590352264298,0.021306594513588073,-0.09159320935603178, ,0.016235747206145235,0.020931903318647697,-0.09222162888783186, ,0.0009006077507393573, ,0.013269680397057252,-0.0026969574396144094,-0.024972795655600677,-0.02367593875165233,-0.017061127253872068,0.006087703595770812, ,0.028407719375682466, ,0.02918257059166966, ,0.0006889490266632956, ,0.19166278447250387,-0.2245307355852034,0.10204913396000001,1.6129350452829614,0.2246304056143841,-1.298494230296294, ,0.09693252457453604,0.09046419595659749,0.02573313654281099,-0.00727774407633267,0.0830107340035395,-0.06661577073900353, ,1.6545159816741943
0.015710590352264298,0.021306594513588073,-0.09159320935603178, ,0.016286262729107843,0.020920072595051364,-0.09231517247892286, ,0.001001013800996087, ,0.013269680397057252,-0.0026969574396144094,-0.024972795655600677,-0.02367593875165233,-0.017061127253872068,0.006087703595770812, ,0.028407719375682466, ,0.02918257059166966, ,0.0006912268717314181, ,0.19166278447250387,-0.2245307355852034,0.10204913396000001,1.6129350452829614,0.2246304056143841,-1.298494230296294, ,0.09693252457453604,0.09046419595659749,0.02573313654281099,-0.00727774407633267,0.0830107340035395,-0.06661577073900353, ,1.6581239700317383
0.01584197935397764,0.02127993175739497,-0.09184124547172473, ,0.01633681238511004,0.020908123020754593,-0.09240871120495088, ,0.000839713536706229, ,0.013407753690655699,-0.0029268208941064583,-0.025616234969126607,-0.031671917149638726,-0.021733221435360276,0.0036672177105838842, ,0.02906072321138919, ,0.03841135535056171, ,0.0006923028620573226, ,0.19260495788315926,-0.22363489857179336,0.10230450309000001,1.6129350452829614,0.22531358811321128,-1.2991329985549167, ,0.0959524181582111,0.09386443279769613,0.02632861408264463,-0.006778539445437564,0.0771217852759717,-0.06184804202819966, ,1.66172194480896
0.01584197935397764,0.02127993175739497,-0.09184124547172473, ,0.01638739586712109,0.02089605735732035,-0.09250224422905923, ,0.0009390197468849931, ,0.013407753690655699,-0.0029268208941064583,-0.025616234969126607,-0.031671917149638726,-0.021733221435360276,0.0036672177105838842, ,0.02906072321138919, ,0.03841135535056171, ,0.0006940778036747878, ,0.19260495788315926,-0.22363489857179336,0.10230450309000001,1.6129350452829614,0.22531358811321128,-1.2991329985549167, ,0.0959524181582111,0.09386443279769613,0.02632861408264463,-0.006778539445437564,0.0771217852759717,-0.06184804202819966, ,1.665266990661621
0.01584197935397764,0.02127993175739497,-0.09184124547172473, ,0.01643801287029173,0.020883878354075968,-0.09259577071561043, ,0.0010399147054018754, ,0.013407753690655699,-0.0029268208941064583,-0.025616234969126607,-0.031671917149638726,-0.021733221435360276,0.0036672177105838842, ,0.02906072321138919, ,0.03841135535056171, ,0.0006965480672585529, ,0.19260495788315926,-0.22363489857179336,0.10230450309000001,1.6129350452829614,0.22531358811321128,-1.2991329985549167, ,0.0959524181582111,0.09386443279769613,0.02632861408264463,-0.006778539445437564,0.0771217852759717,-0.06184804202819966, ,1.6689529418945312
0.01596902475324106,0.02125177578072167,-0.09208833740652073, ,0.016488663091948453,0.02087158874813296,-0.0926892898301902, ,0.0008807440027144121, ,0.012945575195631812,-0.0027905714373814188,-0.025256683190112858,-0.014512850917414487,-0.001481805811438076,0.007029849715929689, ,0.028517981202368026, ,0.014587950947737082, ,0.000697854421410722, ,0.193523963095192,-0.22273133882550908,0.10255857593,1.6129350452829614,0.22627004361156938,-1.2999129238807918, ,0.09294509457244934,0.09107192088144989,0.025985010636215337,-0.006342678358329535,0.0945567392012296,-0.0762070529673992, ,1.6727190017700195
0.01596902475324106,0.02125177578072167,-0.09208833740652073, ,0.016539346231588797,0.020859191264408078,-0.09278280073961122, ,0.00098064698649467, ,0.012945575195631812,-0.0027905714373814188,-0.025256683190112858,-0.014512850917414487,-0.001481805811438076,0.007029849715929689, ,0.028517981202368026, ,0.014587950947737082, ,0.0006998459183479329, ,0.193523963095192,-0.22273133882550908,0.10255857593,1.6129350452829614,0.22627004361156938,-1.2999129238807918, ,0.09294509457244934,0.09107192088144989,0.025985010636215337,-0.006342678358329535,0.0945567392012296,-0.0762070529673992, ,1.6763789653778076
0.01596902475324106,0.02125177578072167,-0.09208833740652073, ,0.01659006199087499,0.02084668861564189,-0.09287630261191436, ,0.001081975982520584, ,0.012945575195631812,-0.0027905714373814188,-0.025256683190112858,-0.014512850917414487,-0.001481805811438076,0.007029849715929689, ,0.028517981202368026, ,0.014587950947737082, ,0.0007025181565589304, ,0.193523963095192,-0.22273133882550908,0.10255857593,1.6129350452829614,0.22627004361156938,-1.2999129238807918, ,0.09294509457244934,0.09107192088144989,0.025985010636215337,-0.006342678358329535,0.0945567392012296,-0.0762070529673992, ,1.68001389503479
0.016104717758978006,0.021222533095154462,-0.09235180693050997, ,0.016640810073629036,0.02083408350242009,-0.09296979461637382, ,0.0009056471916826973, ,0.01283123454965029,-0.0027645223508354798,-0.025313331153576177,-0.020345244157103606,-0.006802744133447738,0.005012993147895141, ,0.028513994774268626, ,0.021452176915732205, ,0.000703928774858401, ,0.19445069104009893,-0.22181233361347638,0.10281913022000001,1.6129350452829614,0.22708986261016204,-1.3005814313029704, ,0.09037803957949597,0.09055051675426601,0.025985010636215337,-0.005950810910155491,0.0864747752469842,-0.06971611154293064, ,1.6836819648742676
0.016104717758978006,0.021222533095154462,-0.09235180693050997, ,0.016691590185827332,0.020821378613193525,-0.09306327592349888, ,0.001005749616842091, ,0.01283123454965029,-0.0027645223508354798,-0.025313331153576177,-0.020345244157103606,-0.006802744133447738,0.005012993147895141, ,0.028513994774268626, ,0.021452176915732205, ,0.0007060102979065644, ,0.19445069104009893,-0.22181233361347638,0.10281913022000001,1.6129350452829614,0.22708986261016204,-1.3005814313029704, ,0.09037803957949597,0.09055051675426601,0.025985010636215337,-0.005950810910155491,0.0864747752469842,-0.06971611154293064, ,1.6872518062591553
0.01623543514844703,0.021196547121810284,-0.09261226000610201, ,0.016742402035594815,0.020808576624297245,-0.09315674570503751, ,0.0008390477983703409, ,0.012676759101560374,-0.002194805226118299,-0.026526042134472592,-0.009699834337697737,0.004658081824912753,0.0066368662534676765, ,0.029481321249554018, ,0.010759710940207496, ,0.0007069215136631656, ,0.19540058718362854,-0.2208778829356952,0.10309783257,1.6129350452829614,0.2280463181085201,-1.3014430353689856, ,0.08634844545811718,0.08682245339292843,0.02732214668953688,-0.005589575848881019,0.09386500783002287,-0.07669352352931975, ,1.6908268928527832
0.01623543514844703,0.021196547121810284,-0.09261226000610201, ,0.01679324533319994,0.02079568019997227,-0.09325020313398005, ,0.0009374528924936902, ,0.012676759101560374,-0.002194805226118299,-0.026526042134472592,-0.009699834337697737,0.004658081824912753,0.0066368662534676765, ,0.029481321249554018, ,0.010759710940207496, ,0.0007084897543354821, ,0.19540058718362854,-0.2208778829356952,0.10309783257,1.6129350452829614,0.2280463181085201,-1.3014430353689856, ,0.08634844545811718,0.08682245339292843,0.02732214668953688,-0.005589575848881019,0.09386500783002287,-0.07669352352931975, ,1.6945698261260986
0.01623543514844703,0.021196547121810284,-0.09261226000610201, ,0.016844119791048863,0.020782691992383917,-0.09334364738456129, ,0.001037641826287555, ,0.012676759101560374,-0.002194805226118299,-0.026526042134472592,-0.009699834337697737,0.004658081824912753,0.0066368662534676765, ,0.029481321249554018, ,0.010759710940207496, ,0.0007107137548216447, ,0.19540058718362854,-0.2208778829356952,0.10309783257,1.6129350452829614,0.2280463181085201,-1.3014430353689856, ,0.08634844545811718,0.08682245339292843,0.02732214668953688,-0.005589575848881019,0.09386500783002287,-0.07669352352931975, ,1.698136806488037
0.01635994063814868,0.021175723212512355,-0.09287489590788153, ,0.016895025123680366,0.02076961464164347,-0.0934370776322645, ,0.0008759496955990578, ,0.01257631588972793,-0.002078723873075371,-0.02685295589384969,0.010882598851323226,0.0274476909303398,0.010741415053544524, ,0.029724839016145293, ,0.029526136434570572, ,0.0007118227208671307, ,0.19625781053266747,-0.2200283823195305,0.10336875718,1.6129350452829614,0.22913941010664365,-1.3024160573386978, ,0.08626994687133707,0.08595737460006411,0.02770228090434783,-0.0052872422293861,0.11687099679515532,-0.09640542107768663, ,1.701725959777832
0.01635994063814868,0.021175723212512355,-0.09287489590788153, ,0.016945961047760173,0.02075645077582742,-0.09353049305382406, ,0.0009741749916790809, ,0.01257631588972793,-0.002078723873075371,-0.02685295589384969,0.010882598851323226,0.0274476909303398,0.010741415053544524, ,0.029724839016145293, ,0.029526136434570572, ,0.0007135717360058771, ,0.19625781053266747,-0.2200283823195305,0.10336875718,1.6129350452829614,0.22913941010664365,-1.3024160573386978, ,0.08626994687133707,0.08595737460006411,0.02770228090434783,-0.0052872422293861,0.11687099679515532,-0.09640542107768663, ,1.7054758071899414
0.01635994063814868,0.021175723212512355,-0.09287489590788153, ,0.01699692728207541,0.02074320301099736,-0.09362389282722892, ,0.0010741611119620248, ,0.01257631588972793,-0.002078723873075371,-0.02685295589384969,0.010882598851323226,0.0274476909303398,0.010741415053544524, ,0.029724839016145293, ,0.029526136434570572, ,0.0007159597451181695, ,0.19625781053266747,-0.2200283823195305,0.10336875718,1.6129350452829614,0.22913941010664365,-1.3024160573386978, ,0.08626994687133707,0.08595737460006411,0.02770228090434783,-0.0052872422293861,0.11687099679515532,-0.09640542107768663, ,1.7092738151550293
0.016476771239492077,0.02115433112884674,-0.09311783000139219, ,0.017047923547529396,0.02072987395122092,-0.09371727613172517, ,0.0009304378097356228, ,0.013011354180231737,-0.002428689432952606,-0.026992941539379228,-0.03189534002024754,-0.02204751399258907,-0.0002891332922320179, ,0.030063478889069278, ,0.03877358969839636, ,0.0007173707850169685, ,0.19704552928583838,-0.21922521810061116,0.10361894115,1.6129350452829614,0.22995922910523628,-1.3031662435010167, ,0.08518576441514432,0.08935681879328698,0.02775054271777004,-0.005037215387695981,0.06531180124049746,-0.0568154408245751, ,1.712857961654663
0.016476771239492077,0.02115433112884674,-0.09311783000139219, ,0.017098949567136094,0.020716466188591107,-0.0938106421478203, ,0.0010289899161475275, ,0.013011354180231737,-0.002428689432952606,-0.026992941539379228,-0.03189534002024754,-0.02204751399258907,-0.0002891332922320179, ,0.030063478889069278, ,0.03877358969839636, ,0.000719407511364227, ,0.19704552928583838,-0.21922521810061116,0.10361894115,1.6129350452829614,0.22995922910523628,-1.3031662435010167, ,0.08518576441514432,0.08935681879328698,0.02775054271777004,-0.005037215387695981,0.06531180124049746,-0.0568154408245751, ,1.7165729999542236
0.016476771239492077,0.02115433112884674,-0.09311783000139219, ,0.01715000506601476,0.020702982303247245,-0.09390399005728504, ,0.0011291621588708472, ,0.013011354180231737,-0.002428689432952606,-0.026992941539379228,-0.03189534002024754,-0.02204751399258907,-0.0002891332922320179, ,0.030063478889069278, ,0.03877358969839636, ,0.0007220682558285557, ,0.19704552928583838,-0.21922521810061116,0.10361894115,1.6129350452829614,0.22995922910523628,-1.3031662435010167, ,0.08518576441514432,0.08935681879328698,0.02775054271777004,-0.005037215387695981,0.06531180124049746,-0.0568154408245751, ,1.720167875289917
0.01661134189473144,0.021128033381417492,-0.09339014761263961, ,0.01720108977138419,0.020689424863393847,-0.09399731904315722, ,0.0009533295002967893, ,0.012596446529856798,-0.002325423555338429,-0.024868339448544174,-0.03460733982103312,-0.03330052912552387,-0.0019798106174442596, ,0.027973422508146596, ,0.04802690598361041, ,0.000723560263857383, ,0.19792592083349997,-0.21830621288857843,0.10389893979,1.6129350452829614,0.23050577510429804,-1.303530236375662, ,0.08353604010428767,0.08295187199167026,0.02565026009661836,-0.004775552997400625,0.05210078182768105,-0.04773998735700048, ,1.7237157821655273
0.01661134189473144,0.021128033381417492,-0.09339014761263961, ,0.017252203412557596,0.02067579642532189,-0.0940906282897448, ,0.0010516153900009236, ,0.012596446529856798,-0.002325423555338429,-0.024868339448544174,-0.03460733982103312,-0.03330052912552387,-0.0019798106174442596, ,0.027973422508146596, ,0.04802690598361041, ,0.0007256631813326622, ,0.19792592083349997,-0.21830621288857843,0.10389893979,1.6129350452829614,0.23050577510429804,-1.303530236375662, ,0.08353604010428767,0.08295187199167026,0.02565026009661836,-0.004775552997400625,0.05210078182768105,-0.04773998735700048, ,1.7272617816925049
0.016736121333426297,0.021098340828948764,-0.09363946376033533, ,0.017303345720937145,0.020662099533428485,-0.0941839169826294, ,0.0008991547614124424, ,0.011749436449199534,-0.0032471066467065018,-0.023822051597216586,0.009336947657987538,0.028703960082521497,0.008120296329468826, ,0.026759729085872923, ,0.030184238340778324, ,0.0007267682232439984, ,0.19879858964828734,-0.2174103758751684,0.10415560521000002,1.6129350452829614,0.23159886710242156,-1.3044215796052332, ,0.08223305161045995,0.08935681879328698,0.024430692515337426,-0.004541895140526107,0.11376479740718379,-0.09802285731609628, ,1.7310009002685547
0.016736121333426297,0.021098340828948764,-0.09363946376033533, ,0.01735451643000822,0.020648336720236755,-0.09427718430866804, ,0.0009957929961091434, ,0.011749436449199534,-0.0032471066467065018,-0.023822051597216586,0.009336947657987538,0.028703960082521497,0.008120296329468826, ,0.026759729085872923, ,0.030184238340778324, ,0.0007284709116798537, ,0.19879858964828734,-0.2174103758751684,0.10415560521000002,1.6129350452829614,0.23159886710242156,-1.3044215796052332, ,0.08223305161045995,0.08935681879328698,0.024430692515337426,-0.004541895140526107,0.11376479740718379,-0.09802285731609628, ,1.7348008155822754
0.016736121333426297,0.021098340828948764,-0.09363946376033533, ,0.01740571527533424,0.020634510506416185,-0.09437042945599818, ,0.001094442992291679, ,0.011749436449199534,-0.0032471066467065018,-0.023822051597216586,0.009336947657987538,0.028703960082521497,0.008120296329468826, ,0.026759729085872923, ,0.030184238340778324, ,0.0007307726228786703, ,0.19879858964828734,-0.2174103758751684,0.10415560521000002,1.6129350452829614,0.23159886710242156,-1.3044215796052332, ,0.08223305161045995,0.08935681879328698,0.024430692515337426,-0.004541895140526107,0.11376479740718379,-0.09802285731609628, ,1.738372802734375
0.01685817786075229,0.02106549826736886,-0.09388037846440667, ,0.017456941994551178,0.020620623400802826,-0.09446365161403938, ,0.0009469106092491257, ,0.012326316488390844,-0.0030442257278896507,-0.024058390308351406,0.011199787170576885,0.021582737195285973,0.007520424679604398, ,0.02720315299157982, ,0.02431546251972224, ,0.0007321234852934856, ,0.19965581299732624,-0.21650681612888412,0.10440319660000001,1.6129350452829614,0.2326919591005451,-1.3053946015749451, ,0.08698161462737927,0.08762413809646424,0.024811232897196264,-0.004336884424331687,0.11125741506189522,-0.09813566558119842, ,1.7420690059661865
0.01685817786075229,0.02106549826736886,-0.09388037846440667, ,0.017508196327362023,0.02060667790041917,-0.0945568499734975, ,0.0010443437358806493, ,0.012326316488390844,-0.0030442257278896507,-0.024058390308351406,0.011199787170576885,0.021582737195285973,0.007520424679604398, ,0.02720315299157982, ,0.02431546251972224, ,0.0007340627415083128, ,0.19965581299732624,-0.21650681612888412,0.10440319660000001,1.6129350452829614,0.2326919591005451,-1.3053946015749451, ,0.08698161462737927,0.08762413809646424,0.024811232897196264,-0.004336884424331687,0.11125741506189522,-0.09813566558119842, ,1.7457098960876465
0.01685817786075229,0.02106549826736886,-0.09388037846440667, ,0.017559478015531385,0.02059267649049431,-0.09465002372636674, ,0.0011435629274498137, ,0.012326316488390844,-0.0030442257278896507,-0.024058390308351406,0.011199787170576885,0.021582737195285973,0.007520424679604398, ,0.02720315299157982, ,0.02431546251972224, ,0.0007365905204338776, ,0.19965581299732624,-0.21650681612888412,0.10440319660000001,1.6129350452829614,0.2326919591005451,-1.3053946015749451, ,0.08698161462737927,0.08762413809646424,0.024811232897196264,-0.004336884424331687,0.11125741506189522,-0.09813566558119842, ,1.7492268085479736
