NicholasDascanio/dvrk_moveit_final/test/execution/third_experiment_notsharpbends/thirdexp_300vel3.0/thirdexp_300vel3.0_14.csv
Current Position (x),Current Position (y),Current Position (z), ,Planned Position (x),Planned Position (y),Planned Position (z), ,Position Error,,Cartesian linear Velocity(x),Cartesian linear Velocity(y),Cartesian linear Velocity(z),Cartesian Angular Velocity(x),Cartesian Angular Velocity(y),Cartesian Angular Velocity(z), ,Total Linear Velocity, ,Total Angular Velocity, ,MSE, ,Joint 1 Position,Joint 2 Position,Joint 3 Position,Joint 4 Position,Joint 5 Position,Joint 6 Position, ,Joint 1 Velocity,Joint 2 Velocity,Joint 3 Velocity,Joint 4 Velocity,Joint 5 Velocity,Joint 6 Velocity, ,Time Stamp
0.008179328959179806,0.021482312049097882,-0.07782905363712272, ,0.008396810738705126,0.021398755606181926,-0.07794172533678073, ,0.0002587951226010475, ,0.0003960909104152989,-0.00011203677224506615,-0.0006143178028426513,0.27238213495965097,-0.0006476413723894825,-0.01326384513303152, ,0.0007394772549160223, ,0.27238290490507044, ,2.156626021675396e-05, ,0.12447500846675065,-0.26731467570840717,0.08777049961000001,1.6043377576000957,0.17093226120656602,-1.244905545326733, ,0.00404888637720293,0.003441066896694748,0.0005995315342147212,-0.0007796958712965579,0.0,-0.27624765183561095, ,0.03562808036804199
0.008232050194765382,0.021477426256244863,-0.0778872323705629, ,0.008485624211220783,0.021371012566134114,-0.07811191139561038, ,0.00035511170011786166, ,0.0021569380003164263,0.00013984319302069216,-0.002904696414784912,0.05657083511281447,-0.11067118289327692,-0.032309517659124154, ,0.003620662773292698, ,0.12429147238709345, ,2.7904855578132236e-05, ,0.12470669045297739,-0.2670598255235578,0.08782624008,1.6043377576000957,0.1679262582117263,-1.254542804986215, ,0.010735334153664847,0.00814694932526138,0.0029003662636562276,0.0005202525081591899,-0.10462954364727285,-0.06471446612625975, ,0.0712740421295166
0.008297780086180739,0.021480759605350345,-0.07801040809930218, ,0.008574435761680448,0.021343241335927826,-0.07828165958055594, ,0.0004111289375530785, ,0.0032389124683074922,-0.00026500522837110454,-0.004486552940382945,-0.04300146496150354,-0.17196107957083315,-0.01693598829188627, ,0.005539850091408666, ,0.1772561391720579, ,3.203236750849961e-05, ,0.1251237180281855,-0.26667368887984655,0.08794938763000001,1.6049668274305493,0.16601334721501013,-1.260089004726694, ,0.01623002250016603,0.017731117630506495,0.004358087967168263,-0.026354698954896717,-0.15407480299681217,0.022100556221892886, ,0.10656595230102539
0.008392474690877366,0.02145996198535724,-0.07821855024040342, ,0.008663243232066135,0.021315443890795427,-0.07845097007638627, ,0.0003849935878837021, ,0.001887591327833441,-0.000948973089994041,-0.0037968848449585965,-0.005103754106878317,0.030045614010156665,0.02405973594787636, ,0.004345099017550822, ,0.030476010671373812, ,3.3572127337040234e-05, ,0.12605044597309245,-0.26573923820206535,0.08815160887000001,1.6049668274305493,0.1665598932140719,-1.2568591330351544, ,0.02414066180576718,0.024073298213716583,0.0035891869130238846,-0.012764213248065398,0.07585297222654357,-0.05521040978923976, ,0.1469430923461914
0.008468743507385341,0.021432056963407636,-0.07834613996791082, ,0.008752044475364897,0.021287622197446874,-0.07861984306983875, ,0.0004195643312786123, ,0.0025918576620920317,-0.0008756236356707451,-0.004828451470031357,0.036830611309805965,-0.019374962338692247,0.005315156080998157, ,0.0055496294011707125, ,0.041615899515152786, ,3.518449383527504e-05, ,0.12683816472626336,-0.2649592421817687,0.088277349,1.6049668274305493,0.16683316621360278,-1.2576537200235312, ,0.02586452481833491,0.026492725169869006,0.004683567044986769,-0.009575956656767607,0.008596182510122816,-0.06433642034184224, ,0.18270301818847656
0.008579695270910626,0.021400301305444173,-0.07854596560451765, ,0.008840837355550683,0.021259778214082755,-0.07878827874961657, ,0.0003829589897934915, ,0.0029008085244847793,-0.0007215140762335191,-0.00534573968917968,-0.026283551918508077,-0.024682297651202768,0.005144862429219272, ,0.006124720849344689, ,0.036056080131233466, ,3.568633337464183e-05, ,0.12797340645877436,-0.26390895051087415,0.08847308879000002,1.6049668274305493,0.16737971221266457,-1.258997857779863, ,0.028454855040021224,0.026338312949894745,0.005253565804749341,-0.007303040824313203,0.005876342672752927,-0.0007362885440736888, ,0.21825098991394043
0.008660849070867997,0.021374726797926014,-0.0786881615946094, ,0.008929619747565787,0.02123191389040624,-0.07895627730638624, ,0.00040560971155587913, ,0.002511650814387145,-0.0008977838847073951,-0.004238402071391407,-0.017566224498512216,-0.01896184679053564,0.004692773738062449, ,0.005007839637590932, ,0.025848092298506573, ,3.636336639977323e-05, ,0.12879201614344216,-0.2631289544905775,0.08861179182000001,1.6049668274305493,0.16765298521219543,-1.2593840510675371, ,0.025551142045899512,0.02472562312623001,0.004110661037419356,-0.0062486538708149035,0.008425248061224935,-0.0077326595625122185, ,0.25472211837768555
0.008758057127685416,0.021338842687910038,-0.07886154698157094, ,0.009018389537302515,0.021204031167636427,-0.07912383893277312, ,0.0003933753642018986, ,0.002671474552706451,-0.0008183914896937526,-0.0048987805516980416,-0.025787091990671987,-0.026760068925928887,0.0016813690561873701, ,0.005639555994035014, ,0.03716282281305613, ,3.71794783331552e-05, ,0.129819139615714,-0.26212499921692833,0.08878030952,1.6049668274305493,0.16847280421078806,-1.2600525584897158, ,0.02540068028866991,0.025815272458778772,0.004774823597122303,-0.005265625386668013,0.0,-0.0004697712902618301, ,0.2876739501953125
0.00883400240377574,0.021319455303510128,-0.07901629887893415, ,0.009107144621584781,0.02117613197852059,-0.07929096382336005, ,0.00041302430719291174, ,0.0025807590106829404,-0.0005854228600269104,-0.005348388960459401,-0.0002949563472663668,0.0009439974332700464,0.008052899291443625, ,0.00596726918017172, ,0.0009890025401555966, ,3.805068946864981e-05, ,0.13062230383463336,-0.26138361686100275,0.08893327174000001,1.6049668274305493,0.16942925970914616,-1.260914162555731, ,0.026776789378801007,0.024470588333798553,0.005300769224625625,-0.0047309105929287465,0.02969742668706591,-0.024578558772266577, ,0.3206291198730469
0.008915682945740265,0.021298341619842762,-0.07917039816221585, ,0.00919588290814983,0.021148218247347264,-0.079457652174683, ,0.00042844359439979406, ,0.0027381609262067523,-0.0007915436183675485,-0.004808302723321412,-0.014897288248696914,-0.016167228126289873,-0.0018430771919002442, ,0.005589619095849369, ,0.02198427756106869, ,3.8919248955336135e-05, ,0.1314177453206785,-0.26062678903932873,0.08908493767,1.6049668274305493,0.16970253270867705,-1.2612186771032645, ,0.027434790852405543,0.025225130664133646,0.004723846832740215,0.0010974200347537472,0.011261846825536423,-0.009979121122387613, ,0.35234594345092773
0.009033908228663018,0.02126645163268679,-0.07937229631618177, ,0.00928460231562966,0.021120291889958624,-0.07962390418522838, ,0.00038407904837491535, ,0.0030888724931430536,-0.000598301160133594,-0.005801976881348053,0.0006429741940991121,-0.016447271466189763,0.001025905691354608, ,0.006600154035233592, ,0.016459834383190385, ,3.923226569401104e-05, ,0.13264565984768018,-0.25957649736843424,0.08928456633000001,1.6053862073175185,0.17052235170726968,-1.2623772569662863, ,0.030367021298710647,0.025999162070813913,0.005775493662073967,-0.0018534125079288997,0.014610262242835327,-0.026669419423094243, ,0.387484073638916
0.009113846996650323,0.02124250529500344,-0.07952226992178969, ,0.00937330077353287,0.02109235481376363,-0.07978972005543002, ,0.00040173499143016187, ,0.0023191581158191355,-0.0008945413882506983,-0.004609125985037453,0.026135776286453295,0.02949384071467881,0.011505490486201244, ,0.005236672703865569, ,0.039407682501236205, ,3.964803150755004e-05, ,0.13347971499809644,-0.2588042240810118,0.08943234339,1.6053862073175185,0.17134217070586233,-1.263209121868746, ,0.02767481526931198,0.025571797779162162,0.004534247514944492,-0.0018534125079288997,0.059091723687403536,-0.051751015760711214, ,0.4194681644439697
0.009206782594606647,0.021213404013287276,-0.07969264784706051, ,0.009461976222226234,0.021064408917750025,-0.079955099987666, ,0.00039522708938053065, ,0.002562287814529695,-0.0009235710767992359,-0.004573338354096902,-0.011194005469256621,-0.012343822222909355,0.001361758631134487, ,0.005322943366168873, ,0.016663604157441708, ,3.9952752188602264e-05, ,0.13405119723078904,-0.2582559100469418,0.08953086143000001,1.6053862073175185,0.17147880720562775,-1.2633205397724425, ,0.02635294128255229,0.025620124610818248,0.005438310522362582,-0.0018534125079288997,0.018759133249766653,-0.01881779146636917, ,0.45200109481811523
0.009280949229672411,0.021191188358096188,-0.07984665542578545, ,0.00955062661291632,0.021036456092498126,-0.08012004418625564, ,0.0004140161583825151, ,0.0024650659741927644,-0.000516299646070152,-0.005445733718210912,0.0035855710278807616,-0.0019704338087950185,0.003354360400688399, ,0.005999927608839488, ,0.004091323038017218, ,4.035602173441778e-05, ,0.13515554803180316,-0.2571515592459277,0.08975123073,1.6053862073175185,0.1727085357035167,-1.2648133733465536, ,0.02380159055893423,0.023471912332048178,0.005406928553971487,-0.0018534125079288997,0.02277291474748269,-0.027108473028859655, ,0.4852011203765869
0.009360426388893076,0.021170669515800558,-0.08000164402686015, ,0.009639249907631164,0.021008498220192507,-0.08028455285745574, ,0.0004290448579690095, ,0.00257269724241121,-0.0008825297301871421,-0.00428317753044102,-0.013246156314786619,-0.018362019467973004,-0.007730807995211832, ,0.0050737796151438495, ,0.0226412105377877, ,4.0813248556357005e-05, ,0.13590465312060293,-0.2564178996228764,0.08990419295,1.605176517374034,0.1729818087030476,-1.2651178878940872, ,0.02503216606659741,0.02424551393931292,0.004187384731861199,0.005635399446258092,0.005307970185088459,-0.010047392668228402, ,0.5191531181335449
0.009437798514235754,0.0211465092072548,-0.08013421487093124, ,0.009727844079201981,0.020980537174635258,-0.08044862620945788, ,0.000458832905492351, ,0.0027427094728716983,-0.0006425575781007251,-0.004875174940989599,-0.0029713313777710265,-0.00799769590871108,-0.004455568992421601, ,0.005630512072539029, ,0.008531819691649753, ,4.1683820378998425e-05, ,0.13670781733952228,-0.25569968546557353,0.09003511824,1.6055958972610032,0.1736649912018748,-1.2657566561527096, ,0.027498389324390263,0.023276169133792195,0.004857826020128088,0.005461602759273812,0.018528134809701016,-0.019383805151528783, ,0.5478529930114746
0.009524700097500359,0.02112946031545193,-0.08030645550218427, ,0.009816407111244804,0.02095257482125876,-0.08061226445238524, ,0.0004581490739341164, ,0.0028987326921989676,-0.0005829495365818064,-0.005726203867908363,0.015178092549338206,0.011444060068500291,0.0007708629335265801, ,0.006444524196546454, ,0.019008971516923708, ,4.246306107213673e-05, ,0.13758820888718387,-0.25495058037677376,0.09020752481000001,1.6055958972610032,0.1746214467002329,-1.2668632964391469, ,0.030396201652296857,0.02517160253540339,0.005744252261089074,0.004966930457029758,0.041533555993459204,-0.03949100642224718, ,0.5767641067504883
0.009624885271647713,0.021108864552979563,-0.08049067231248232, ,0.009904936998142067,0.020924613017138178,-0.08077546779828916, ,0.00043987051129660166, ,0.0033697036504692387,-0.00047993145979968385,-0.006498817083407508,-0.0003992361878807425,-0.015717692309897724,-0.004881790324505082, ,0.0073362020406802075, ,0.015722761509670603, ,4.305928739784809e-05, ,0.13856127322933615,-0.2541242479592317,0.09039159799,1.6055958972610032,0.17516799269929464,-1.2676356830144948, ,0.031780623428824775,0.02625088286541377,0.006533556817063167,0.004299096329613156,0.015212806189664516,-0.02505015246438435, ,0.6057629585266113
0.009706148453940593,0.021081272964463767,-0.08062781266505178, ,0.009993431745024412,0.020896653611004422,-0.08093823646114587, ,0.0004614964010576448, ,0.003105885968866025,-0.0011988332705306316,-0.005165731829168918,-0.018661930077305797,-0.014434445348840995,-0.004358332272481797, ,0.006145609342694903, ,0.023592813377393666, ,4.372418570395525e-05, ,0.1393644374482555,-0.2533674201375577,0.09052641215000001,1.6055958972610032,0.17557790219859098,-1.2684600091664273, ,0.030780714096163075,0.030396201652296857,0.005045553221412734,0.003855934574445963,0.015776501585636267,-0.010935502456787372, ,0.6377630233764648
0.009808246153783465,0.021041790383418302,-0.0808064150795004, ,0.010081889367752372,0.02086869844325668,-0.08110057065685361, ,0.0004374573487645954, ,0.0027671852581228292,-0.0013698461352536352,-0.005152048897666943,0.019018132100572453,0.017903192613015033,0.005750755863863562, ,0.006006446581048798, ,0.026119219948221976, ,4.4200619742721304e-05, ,0.14040700638627582,-0.25234029666528585,0.0907014113,1.6058055872044876,0.17653435769694906,-1.269321613232443, ,0.030212334147873537,0.032124895585128904,0.005002767437185931,0.00014451809699482363,0.04913157722413389,-0.05086210688070247, ,0.667078971862793
0.009902487458687522,0.021007279973103657,-0.08097703266796616, ,0.010170307892897934,0.02084074934597544,-0.08126247060322903, ,0.00042536460788304795, ,0.003242393576654711,-0.0007541462094033263,-0.00643805193422533,-0.010419796454278894,-0.014813618811601172,-0.001029934435658427, ,0.007247783476268565, ,0.01811119679600406, ,4.457436791949879e-05, ,0.1413182888654343,-0.2514058459875047,0.09086863271000001,1.6058055872044876,0.17708090369601082,-1.269848963587369, ,0.02992650317201854,0.028765365734607695,0.0064048297225572995,0.00014451809699482363,0.015380875196832431,-0.01805930722276864, ,0.6959309577941895
0.00999191688127145,0.020981980116496626,-0.08116034284831235, ,0.010258685357726317,0.020812808142934888,-0.08142393652000396, ,0.00041141973752445253, ,0.002890357451665655,-0.001175368405333228,-0.005218375429539495,-0.012725340011759954,-0.007912794564635579,-0.004611502833824258, ,0.006080057500573187, ,0.0149848787905452, ,4.48484918903411e-05, ,0.14216006674872478,-0.25054089990559153,0.09105011331000001,1.6060152771479719,0.17776408619483802,-1.2705694105861325, ,0.028076018212565317,0.02989821725219621,0.005095589097888676,0.00480504121182172,0.019423405458093533,-0.0162295895136555, ,0.7244820594787598
0.010080711887661402,0.020950885403021372,-0.08132312302074526, ,0.010347019810177683,0.020784876649615997,-0.0815849686288224, ,0.00040870764400905405, ,0.0027917629140272815,-0.000906382665143191,-0.005283424590021578,0.010147305080015316,0.01011029608920886,0.0001623196331113033, ,0.006044009025659612, ,0.014324310918205033, ,4.508849049075613e-05, ,0.14304045829638637,-0.24969139928942685,0.09120566811000001,1.6060152771479719,0.1787205416931961,-1.2716760508725695, ,0.028887957856459902,0.0270053903125984,0.005263982656972903,0.004421562457284881,0.04068871395356943,-0.03640045163850077, ,0.753648042678833
0.01014136384257094,0.02092864480619608,-0.08141950340486451, ,0.010435309308848766,0.020756956673219164,-0.08174556715323664, ,0.0004713791681363001, ,0.003251299951039135,-0.0010354323963105254,-0.005174895219420624,-0.032149503034844124,-0.029239433123144334,-0.007734908950679268, ,0.006198597595500039, ,0.04345727776839154, ,4.581295437308639e-05, ,0.14363510872770166,-0.24911991705673422,0.09130548244000002,1.6060152771479719,0.17885717819296154,-1.271950826256547, ,0.030193108990922937,0.028059415008418326,0.005110302059672763,0.004074364324557556,0.0,0.004948169568093546, ,0.7786769866943359
0.010240324831476253,0.0209114225116586,-0.08161767298415729, ,0.01052355192297466,0.020729050012676907,-0.08190573231870467, ,0.0004432330018887983, ,0.0035623157884005206,-0.0004844059906210986,-0.007436550317244036,-0.018340774594603915,-0.010077620913459807,0.00016022985063820794, ,0.008259965106520705, ,0.020927074168692453, ,4.636494681127194e-05, ,0.14458500487123127,-0.24830903010494065,0.09150511110000001,1.6062249670914566,0.1798136336913196,-1.2728124303225625, ,0.03228885388175256,0.028285228482405594,0.007495911303529413,0.0010411435155577484,0.02256432610428589,-0.009519011335415018, ,0.8040111064910889
0.010306003422628095,0.02089868771049767,-0.08174910296339646, ,0.010611745732410405,0.02070115845866651,-0.08206546435258662, ,0.0004822662064568951, ,0.003192516127096536,-0.0007464065294208117,-0.006114141995468254,0.008399526332333733,0.018559686942641093,0.006834185655786239, ,0.006937723997802305, ,0.02037189273170483, ,4.705364366183086e-05, ,0.14521826896691767,-0.24776071607087072,0.09163733268,1.6062249670914566,0.18049681619014685,-1.2734511985811854, ,0.0333556912332059,0.027363593298290304,0.006162016061895551,0.0010021782458498809,0.05295654532445825,-0.03538456389436171, ,0.8290491104125977
0.010408835926364254,0.020872290094954313,-0.08193770075689581, ,0.010699888827612806,0.020673283793623376,-0.08222476348414076, ,0.00045466505107378456, ,0.003661976972399354,-0.0010669170577210021,-0.0059731592035652415,-0.03603739431768394,-0.027724724777534564,-0.0035636111358502086, ,0.007087102244611356, ,0.0454681662880158, ,4.758453156624174e-05, ,0.14625311517206377,-0.24688032452320913,0.09182659102000001,1.6062249670914566,0.1817265446880358,-1.2746173171947341, ,0.03401324070196086,0.03051348603166263,0.005941369459157032,0.0009443102797498848,0.006315215660415683,0.005984429332775586, ,0.854640007019043
0.010478784633054548,0.020850604561490085,-0.08205992493322445, ,0.010787979309622107,0.020645427791752703,-0.08238362994452138, ,0.0004924264302373805, ,0.0030970482756083394,-0.0011982646983114643,-0.00633075943645186,0.020966959722167233,0.03621797122685875,0.010678873005415783, ,0.007148850351692384, ,0.04184919150487298, ,4.8240229958314535e-05, ,0.14694816113074397,-0.24625478316039695,0.09194844228000001,1.606434657034941,0.182409727186863,-1.275092727973076, ,0.033556202814169295,0.032927460637914914,0.006283554840236687,1.700687102318395e-05,0.07141980927123444,-0.05361019727694738, ,0.8798501491546631
0.010592040810592123,0.02082006548820685,-0.08227150381456443, ,0.010876015290043678,0.020617592219043607,-0.08254206396677466, ,0.00044140653106796747, ,0.003950580693102922,-0.0012134146536593076,-0.006272966925172696,-0.03607506804606128,-0.035991910113662685,-0.00472721933068125, ,0.007511962258873728, ,0.05095908278653244, ,4.86551296437536e-05, ,0.14801389826738695,-0.2452662733524962,0.09215973755000001,1.606434657034941,0.18322954618545564,-1.2757612353952543, ,0.035959432193433415,0.03287043351523061,0.006229492186155652,1.700687102318395e-05,0.0,0.0035693017214890516, ,0.9044880867004395
0.010657276435911637,0.020792802558634874,-0.08239201487871282, ,0.010963994891029795,0.02058977883328074,-0.08270006578583532, ,0.00047978141392276833, ,0.0032106298067340537,-0.0014158246807182877,-0.006141928219339529,0.02135270960347088,0.03591752729778021,0.0063507004640152, ,0.007073611915700453, ,0.041785248184696686, ,4.9196746400238004e-05, ,0.14870894422606715,-0.24458667285956445,0.09227899623000001,1.6066443469784255,0.1844592746833446,-1.2768456752686625, ,0.03496571170172099,0.03474805622792778,0.006072745528021351,0.00401396944991464,0.07151957143393409,-0.05521426757053371, ,0.9292819499969482
0.010770443376335223,0.02075056008370036,-0.08257703966865391, ,0.011051916245261206,0.020561989384057754,-0.08285763563852333, ,0.0004399090622072744, ,0.003942408721813675,-0.0014028087743646642,-0.006652531804141592,-0.03873159855694692,-0.03632155846559465,0.0003162685890103036, ,0.007859175427001385, ,0.05309795027226937, ,4.955860942071379e-05, ,0.14978240409558435,-0.24354410392154413,0.09246177312000001,1.6068540369219102,0.18500582068240637,-1.2772913468834484, ,0.03490141285710584,0.03572927016508689,0.006557765137916839,-0.005783000316853217,0.0,0.0025668978550797803, ,0.9551761150360107
0.010835049017363247,0.020725678398389985,-0.08270760819110043, ,0.011139777495929152,0.02053422561278972,-0.08301477376354086, ,0.0004731430055024024, ,0.003347289558528232,-0.0013837937280485285,-0.006476475655931816,0.017004208639186492,0.028992222102957228,0.014581050782070304, ,0.007420510049335963, ,0.03361089172452477, ,5.020968849100313e-05, ,0.15044655912276766,-0.2428722261614866,0.09259140212000001,1.6068540369219102,0.18623554918029533,-1.2782941080167163, ,0.03523837413979605,0.034927103996492743,0.006422907870967743,-0.005783000316853217,0.06710117163178604,-0.052446043935033396, ,0.9764800071716309
0.010916047577263695,0.020698652158978776,-0.0828483249162875, ,0.01122757679671673,0.020506489252726058,-0.08317148040146863, ,0.0004882688856717733, ,0.003861257409383953,-0.001102910565955518,-0.006818537489028186,-0.024537994577215828,-0.023503765773647486,0.003449378387506673, ,0.007913164600038445, ,0.033978525110359904, ,5.088726368928485e-05, ,0.1512111096773159,-0.2421462892713095,0.09273140144000001,1.6068540369219102,0.1867820951793571,-1.2787397796315019, ,0.034786268899732686,0.03261063283796247,0.00680718441025641,-0.005783000316853217,0.012968995610036387,-0.00855905596217912, ,1.0001039505004883
0.010988244890137267,0.020675904937943836,-0.08298839808140682, ,0.011315312311780864,0.020478782028963333,-0.08332775579476229, ,0.0005108759117039869, ,0.003133576052754831,-0.0011816149133001925,-0.006871279436528728,0.040075251674240475,0.05336562042364554,0.019386251487948883, ,0.007643951450434162, ,0.06673765971800946, ,5.161617265938513e-05, ,0.15191387836887033,-0.24147441151125196,0.09287140076000001,1.6068540369219102,0.18773855067771517,-1.2795197049573768, ,0.03429596731422869,0.03353248818320522,0.006868827736093144,-0.005594256231150292,0.0909357344315579,-0.07415199393172196, ,1.021381139755249
0.011059146755621162,0.020657698082210768,-0.08313529511749848, ,0.01140298221573398,0.020451105658458084,-0.08348360018774975, ,0.0005312435177446821, ,0.004130803099218279,-0.0009021937742121098,-0.007524018763416049,-0.031209082097309743,-0.03236507743939645,-0.007271349349261335, ,0.008630663138077815, ,0.044961150106529235, ,5.238543127670586e-05, ,0.1526012015946763,-0.24084114741556556,0.09301917782,1.6066443469784255,0.1888316426758387,-1.2804927269270887, ,0.035290792695600884,0.03232184657986061,0.007559948514475558,0.0030147828695917395,0.0022704550946229043,-0.0002941612557147892, ,1.0434720516204834
0.011127719805837991,0.02064235011783523,-0.08325631451305637, ,0.011490584693625662,0.02042346185003941,-0.08363901382662685, ,0.0005710006700303659, ,0.004255231209432988,-0.0009657963992890091,-0.007391387360362543,-0.031226643909427226,-0.03501974411369917,-0.011523691033162649, ,0.008583260594991819, ,0.046919993026149326, ,5.325851999225053e-05, ,0.1532035747588658,-0.24030827884724407,0.09314102908,1.6068540369219102,0.18896827917560413,-1.2806858235709258, ,0.03663974577547135,0.03270053120553783,0.007432949846010267,0.006802989975856409,0.0,-8.256220089282126e-05, ,1.0662200450897217
0.011258442805220167,0.020609386616858988,-0.08348887225059186, ,0.0115781179409245,0.020395852304421775,-0.08379399695945454, ,0.00049080564680345, ,0.0043162741114171664,-0.0009009221216539863,-0.007765267408904668,-0.0055197286415955196,-0.026498852367119845,0.02175050123963615, ,0.008929796235411678, ,0.027067629242632875, ,5.382936841508369e-05, ,0.15443148928586753,-0.23924254171060108,0.09337565757,1.6074831067523636,0.19006137117372765,-1.2817405242807782, ,0.03837320726181592,0.03227787127839142,0.007850572459339577,-0.02457183522686035,0.01792546937747918,-0.03007345499075705, ,1.0875239372253418
0.011336529954738417,0.02059178187774793,-0.08363819499387012, ,0.011665580163499735,0.02036827871421805,-0.08394854983615563, ,0.0005045273353583447, ,0.0036710401767335696,-0.0007184488659130508,-0.007882484003080486,0.05448791084706239,0.0470249059662543,0.031769440786834774, ,0.00872503632146844, ,0.07197412159367789, ,5.442267274471717e-05, ,0.15520376257328997,-0.23860927761491468,0.09352732350000001,1.6074831067523636,0.19129109967161662,-1.2829883216344675, ,0.03823406186884399,0.030562622080022795,0.008040793296314994,-0.018818557524428126,0.09148733189950507,-0.08760681576059512, ,1.109079122543335
0.0114222048600512,0.020574847701351262,-0.08379967361097211, ,0.011752969577603032,0.020340742763952133,-0.08410267270851055, ,0.0005059830760024473, ,0.004311840556390126,-0.000949165863540594,-0.007437853654973711,-0.008856749623527888,-0.02461472118336156,0.012392990313190435, ,0.008649540555026449, ,0.026159634746399586, ,5.499782351245482e-05, ,0.15595286766208974,-0.2379528453206056,0.09369065604000001,1.6074831067523636,0.19170100917091293,-1.2833225753455568, ,0.03859168017831264,0.03190885728260618,0.007531352964539008,-0.014685509106547328,0.01770193435251004,-0.024907970409273467, ,1.1315381526947021
0.011503137563259944,0.0205496027610712,-0.08393616298417844, ,0.01184028440985022,0.020313246130071738,-0.084256365830155, ,0.0005215959314974279, ,0.003705229035163199,-0.001347058405151501,-0.006880490836692739,0.04066497714848316,0.043417804482240994,0.02405313289144593, ,0.007929971166638532, ,0.059487360818280655, ,5.577576298859095e-05, ,0.15673286368238643,-0.23727324482767384,0.09382806278000001,1.6074831067523636,0.19252082816950558,-1.284072761507876, ,0.039789074028708925,0.0348117907404515,0.006934615376578147,-0.012094188081954914,0.08779868772780297,-0.07698565252594003, ,1.1495139598846436
0.011578537468511466,0.020522401543502728,-0.08405967080056541, ,0.011927522897202985,0.020285790480961234,-0.08440962945657544, ,0.0005479477030450703, ,0.004352876444483757,-0.0014853121256801177,-0.00686226021156748,-0.013274434069258996,-0.017807309868951862,0.009463102393267595, ,0.008261010874154331, ,0.022210602635019464, ,5.661138065350435e-05, ,0.1575128597026831,-0.23660908980049053,0.09395250662000001,1.6074831067523636,0.19375055666739455,-1.2851572013812844, ,0.040710828639412604,0.036275589280761,0.00687772518134715,-0.010394744658264675,0.025831620039088052,-0.024170666294436247, ,1.1677830219268799
0.011629827379358117,0.020506725627330604,-0.08414368189734958, ,0.012014683286950727,0.02025837747695412,-0.0845624638451066, ,0.0006206200070667358, ,0.004820905730284372,-0.0012345936223724673,-0.008137838435148642,-0.03519120324419032,-0.04321292661766834,0.003311553113924036, ,0.009538855689718446, ,0.05572950544323896, ,5.7643683723226714e-05, ,0.15796850094226234,-0.2361920622252824,0.09403676547,1.6074831067523636,0.19388719316716,-1.285268619284981, ,0.04099219937730919,0.03691051791461329,0.008189620318766069,-0.009607880691007702,0.0,-0.0027314458437119474, ,1.1854331493377686
0.011719528911582776,0.020486586246308763,-0.08432524933569086, ,0.012101763836692106,0.020231008770346778,-0.08471486925492706, ,0.000602683221649702, ,0.0045263228498234115,-0.0009861370719366515,-0.009780239095690434,0.02609786571149318,0.03163290708067256,0.017783638182739477, ,0.01082188253652538, ,0.041009015052609954, ,5.859086686489409e-05, ,0.1588025560926786,-0.23545067986935686,0.09422083865000001,1.6074831067523636,0.19511692166504896,-1.2862713804182486, ,0.04247848771641485,0.03851336913898976,0.009918313524283935,-0.008478879902881653,0.07761055617380337,-0.06553523846792904, ,1.2046079635620117
0.011818015214818919,0.020463900361221105,-0.08450856901141157, ,0.012188762814317066,0.020203686005409945,-0.08486684594705714, ,0.0005775185331393547, ,0.004740428413199082,-0.001380156920195905,-0.008197474062024316,-0.02310748525361597,-0.026126508501470202,0.004628029999497331, ,0.009569486697968248, ,0.03487908089681487, ,5.9435271015680095e-05, ,0.15965977944171753,-0.2346784065819344,0.09440620812000002,1.6074831067523636,0.19566346766411072,-1.2867170520330342, ,0.041403552163381666,0.0384665348838552,0.008240461210553544,-0.0075885923788156775,0.01736486206506393,-0.016069040934229065, ,1.224276065826416
0.01190375942392005,0.020432532822938238,-0.08465460967101397, ,0.012275678497988282,0.020176410818402213,-0.08501839418435352, ,0.0005798805489141808, ,0.004116728520081092,-0.0017056473901002267,-0.007363212200367066,0.03654978132133652,0.045609485428667385,0.018932581966812672, ,0.008606600991973497, ,0.05844751195783606, ,6.026189146549231e-05, ,0.16047838912638532,-0.23391385602738618,0.09455268889000001,1.6074831067523636,0.19661992316246882,-1.2874969773589093, ,0.04343109453476923,0.039789074028708925,0.007401864089219333,-0.006910035062290256,0.09242732319300054,-0.07703956337625921, ,1.2424039840698242
0.01200225112904573,0.02040100985365033,-0.08482253846112195, ,0.01236250917612307,0.02014918483758349,-0.08516951423150804, ,0.0005599945396484348, ,0.004949643950435558,-0.0016154067116587345,-0.008187448861278845,-0.017749054896928233,-0.019264083021009328,0.0048846021475620754, ,0.009702722965034695, ,0.026194155981504586, ,6.1007381616273216e-05, ,0.16142828526991493,-0.23308752360984414,0.09472250288,1.6074831067523636,0.19784965166035778,-1.288499738492177, ,0.04451076058089624,0.04090385412003051,0.008231943937984496,-0.0062833181352875515,0.027205328219279134,-0.023649785936124115, ,1.2610549926757812
0.012098722285706295,0.020371537801946567,-0.08499104005573684, ,0.012449253147375165,0.020122009683226316,-0.08532020635504205, ,0.0005417440536015843, ,0.0046618721813899856,-0.0013533195947953254,-0.00865765839720645,0.00010369167890032866,0.003083080487309125,0.002867298026090132, ,0.009925702750132817, ,0.0030848158153330848, ,6.167984509786475e-05, ,0.16229323135182808,-0.23229208212379904,0.09489231687,1.6072734168088794,0.19853283415918496,-1.2890568280106591, ,0.04208290091284735,0.03916506048636846,0.00874248711306257,0.0,0.04601966905886066,-0.03884066021410734, ,1.2791860103607178
0.012144085206631652,0.020360294044413935,-0.08507649320137231, ,0.01253590872061635,0.02009488696762987,-0.08547047082330493, ,0.0006157799518513586, ,0.004820218574490862,-0.0011442130072735598,-0.009222658891582951,0.014349404023911595,0.016998173560970622,0.006293423715609772, ,0.01046905762436977, ,0.022245072117809312, ,6.271653209634762e-05, ,0.1627102589270362,-0.23192911367871047,0.09497916830000001,1.6072734168088794,0.19907938015824675,-1.2895024996254447, ,0.04446904477903973,0.03835769666874324,0.009386453459045376,0.0,0.06262659576700279,-0.05232060911711811, ,1.2933239936828613
0.012224528639092826,0.020340641209716463,-0.08522570722307751, ,0.012622474214918324,0.020067818295132177,-0.08562030790646878, ,0.0006232998663357861, ,0.005199699316036001,-0.0013826655702376882,-0.009405557719987537,-0.0018070995888271935,-0.0007025249544908923,-0.0005336565299817258, ,0.010835735004157453, ,0.001938833831973151, ,6.375107025732092e-05, ,0.1634361958172133,-0.23128812685014985,0.09513083423,1.607692796695848,0.19989919915683937,-1.2901710070476233, ,0.04658661833994638,0.04147593599583513,0.009538210491017966,0.0030591661437344353,0.046039583582189895,-0.038704296672185605, ,1.308786153793335
0.012299175525937218,0.02032485328330319,-0.08537048672884257, ,0.012708947959534301,0.020040805262123318,-0.08576971787652607, ,0.0006387348706254926, ,0.005066269634488992,-0.0011937348179153465,-0.009878823805472005,0.014351402459483612,0.017873508078141667,0.009126102862328544, ,0.01116616543869958, ,0.022922149757106318, ,6.480527517379403e-05, ,0.1640926281115224,-0.23073209008320567,0.09527472242000001,1.6079024866393328,0.20071901815543203,-1.290839514469802, ,0.04606647648469455,0.03987266452036587,0.010075149601518027,-0.0027846108508448697,0.0670070560725162,-0.055729627742991596, ,1.3229830265045166
0.012349972518797561,0.02031169836387489,-0.08546625211095257, ,0.012795328293880994,0.020013849457057867,-0.08591870100728599, ,0.0007012601097207725, ,0.005272145186592988,-0.0013360265268726737,-0.010060973899289444,0.008831180950986136,0.01220938720487786,0.007897224388066506, ,0.011436943540614622, ,0.015068470055768605, ,6.600646813310272e-05, ,0.1645714375497243,-0.2302996170422491,0.09537583304000001,1.6079024866393328,0.20140220065425923,-1.291396603988284, ,0.047495966745981374,0.042383627315082974,0.010223884159178435,-0.0027846108508448697,0.06147956472165572,-0.05117748942037288, ,1.3370821475982666
0.012459836596232374,0.020288743565223914,-0.08568124247023118, ,0.012881613567520125,0.019986952460467784,-0.08606725757437098, ,0.0006465147678457561, ,0.005508536541610188,-0.0012224187312414431,-0.010303318236851253,-0.0020070420490401007,-0.0022025897107216734,0.005134163572881293, ,0.011747197498747362, ,0.002979849510651342, ,6.703466408824613e-05, ,0.16552905642612814,-0.22945783915895862,0.09559490605000001,1.6079024866393328,0.20249529265238275,-1.2922879472178552, ,0.04802476799517752,0.04160321857013186,0.010500205352669746,-0.0027846108508448697,0.04731794279775842,-0.03954893368920295, ,1.352856159210205
0.012514753805240624,0.020273245796729136,-0.08577954709226274, ,0.012967802140140289,0.019960115844975666,-0.0862153878552126, ,0.0007023249469363933, ,0.005398418845943338,-0.0016043219658668196,-0.0097223104025334,2.987534783783038e-05,0.003075888777661391,0.005787482601491311, ,0.011235661732608728, ,0.0030760197404168057, ,6.818941486107433e-05, ,0.1665252889669031,-0.22855427941267437,0.09579194213000002,1.6079024866393328,0.20372502115027172,-1.2933723870912637, ,0.05126793169015169,0.04516751145096182,0.009850842003710576,-0.0027846108508448697,0.06785563332770797,-0.05467536794712209, ,1.3670949935913086
0.012626600801327633,0.020237833081761025,-0.08597005817817902, ,0.01305389238153876,0.019933341175306773,-0.08636309212904902, ,0.0006555677708307172, ,0.005688900088263603,-0.0017226142981235115,-0.009321631736333207,-0.01255062468031854,-0.012482719160280034,0.0031108265474664013, ,0.011055487436660566, ,0.017701310322090578, ,6.91968098910386e-05, ,0.16704271206947616,-0.22810636090596934,0.09588786759000001,1.6079024866393328,0.20413493064956803,-1.293706640802353, ,0.05080136057733982,0.04436509656777502,0.0094645344741533,-0.0027846108508448697,0.03967101563310537,-0.03171456458637843, ,1.3823890686035156
0.012683356708454989,0.020221401283898648,-0.08605948412099555, ,0.013139882671603136,0.019906630008302506,-0.08651037067692031, ,0.0007146996552975657, ,0.00629280893168863,-0.0016978550391826758,-0.010212495381890863,-0.03473439524435132,-0.039357135237434275,-0.0021261413011698293, ,0.012115164790871002, ,0.052492496568581085, ,7.033720680701102e-05, ,0.1675292442405523,-0.227681610597887,0.09597860789000001,1.6079024866393328,0.20427156714933348,-1.2938180587060495, ,0.05328295427202177,0.046381691866310255,0.01037707590879479,-0.0027846108508448697,0.014827659551790495,-0.01147531093565152, ,1.3965411186218262
0.012746258862147216,0.020204640235299654,-0.08617422981046283, ,0.013225771400293162,0.019879983892932978,-0.08665722378166656, ,0.0007540670998639477, ,0.006208603277193832,-0.0015299330339737323,-0.011752792458104802,-0.012986753925140829,-0.009711145062357407,0.003203765614141151, ,0.013379670410937303, ,0.016216099768387917, ,7.174045093993845e-05, ,0.16807755827462223,-0.22718735569393664,0.09609527399000001,1.6079024866393328,0.20481811314839524,-1.294263730320835, ,0.05219853771093002,0.048342812816337635,0.01194063832083958,-0.0027846108508448697,0.04390537310149478,-0.03520582227810557, ,1.4072020053863525
0.012871090655126798,0.020177524367381315,-0.08641163656788346, ,0.013311556967622462,0.019853404370309868,-0.08680365172792283, ,0.0006728597406932685, ,0.006598041595092585,-0.0010112796274521225,-0.01320657320763532,-0.0004666234062859859,0.00029092790292018416,0.0059594928375455054, ,0.01479764897759447, ,0.000549522249571273, ,7.291388270371654e-05, ,0.16914329541126522,-0.22625290501615547,0.09633768022000001,1.6079024866393328,0.20591120514651876,-1.2951550735504065, ,0.054790381962165575,0.04624607288424502,0.013544907755102044,-0.0027846108508448697,0.05671079968348216,-0.045681260960160196, ,1.4191720485687256
0.012942780804024917,0.02015983396895597,-0.08655045322851022, ,0.013397237783640353,0.019826892973698846,-0.08694965480211596, ,0.000690465603063095, ,0.006637585351044829,-0.002005332565018902,-0.01224950861928578,-0.0006541027659706095,0.006014227654295333,0.006180972380926002, ,0.014075843115163184, ,0.0060496701485889095, ,7.411419811071894e-05, ,0.16975339130832895,-0.22568914551633706,0.09647897583000001,1.6079024866393328,0.20659438764534596,-1.2957121630688886, ,0.05779350886630376,0.054569834133680724,0.012424969984399377,-0.0027846108508448697,0.06557303315258256,-0.053715151518553744, ,1.4298160076141357
0.013013212354246443,0.020141421340467258,-0.0866777006248163, ,0.013482812268413465,0.01980045122853333,-0.08709523329246203, ,0.0007149253283870058, ,0.007001665715132062,-0.0015690446496158439,-0.012868146622563463,-0.0033898564825495486,-0.0035318652075670134,0.005148391524008239, ,0.01473344567298279, ,0.004895390278101044, ,7.535809390378674e-05, ,0.17035576447251846,-0.22514855421514135,0.09660860483000001,1.6079024866393328,0.20714093364440772,-1.296239513423815, ,0.05972117152830131,0.051323386456717565,0.013164307041322315,-0.0027846108508448697,0.057806017128251126,-0.04776417402001819, ,1.4404270648956299
0.013085306922483506,0.020124699424222736,-0.0868096244404918, ,0.013568278852007657,0.01977408065242635,-0.08724038748896179, ,0.0007360381863541116, ,0.007075481071377612,-0.0017294429388781114,-0.01278310656432417,-0.0065279535648812516,-0.007649684071922112,0.0040687932995473325, ,0.0147126210684951, ,0.010056416002209854, ,7.663619892795404e-05, ,0.1709658603695822,-0.22461568564681986,0.09674341899000001,1.6079024866393328,0.20768747964346948,-1.2968485425188816, ,0.06013747880764941,0.052720523088039324,0.013056402885245903,-0.0027846108508448697,0.054016518732878945,-0.04599548743016601, ,1.4520220756530762
0.013144650986365488,0.020110734711709943,-0.08691233393105988, ,0.013653635974469686,0.019747782755184004,-0.08738511768339732, ,0.0007837884391439525, ,0.007501254655274232,-0.001961173882527277,-0.012372443588642533,-0.022932132785299486,-0.040856940444993196,-0.0027516654584188874, ,0.014601109024828291, ,0.04685266274918469, ,7.80140094810886e-05, ,0.17146011527353255,-0.22419093533873752,0.09684841848,1.6079024866393328,0.20796075264300035,-1.297153057066415, ,0.06235015871121602,0.05416492098086232,0.012621879175911255,-0.0027846108508448697,0.022361543435366085,-0.03095784606825461, ,1.4629089832305908
0.013235700234127276,0.02008511297781346,-0.08707131899610954, ,0.013738882085808942,0.019721559038817588,-0.08752942416932895, ,0.0007715074802952933, ,0.007317093720401337,-0.0018365296424995292,-0.013086391585094712,0.004481409181710331,0.0050120111916579346,-0.0007304142389717152, ,0.015105176144598706, ,0.006723310244515361, ,7.93410846708467e-05, ,0.17224011129382924,-0.22349588938005732,0.09701045473000001,1.607692796695848,0.20864393514182755,-1.2982002190257407, ,0.06330683226048751,0.05460123219704877,0.01339681372582002,0.004650813150805092,0.06841712996651363,-0.05765611366089748, ,1.4737019538879395
0.013305162542938082,0.020067016761075616,-0.08719301980431904, ,0.013824015645979326,0.019695410997557405,-0.08767330724209091, ,0.0007987336282497113, ,0.007552750293398977,-0.0022651728110876287,-0.013075796420967482,0.030931177967750884,0.0014100885497188914,-0.0031687505678750566, ,0.01526929916208059, ,0.03096329662595151, ,8.071537480378094e-05, ,0.17283476172514453,-0.22297846627748427,0.09713489857,1.607692796695848,0.2091904811408893,-1.2987275693806668, ,0.06567262391589673,0.05879612240301783,0.013262957135720236,0.004650813150805092,0.06670897909851921,-0.09007487125160757, ,1.4846479892730713
0.013386401215842,0.020043754592947043,-0.08733042095482599, ,0.013909035124860854,0.019669340117864698,-0.08781676719878893, ,0.000806142091088402, ,0.007938406297681602,-0.0022306893463545727,-0.013265632770145551,-0.007559055676440088,-0.02869107775403811,-0.008090270967871462, ,0.015619580093567504, ,0.029670134050908376, ,8.228784149031957e-05, ,0.17351436221807628,-0.22236064764754632,0.09727489789,1.6079024866393328,0.20960039064018565,-1.2993885380523182, ,0.06603823351320166,0.059125820285651574,0.013556435336170215,0.004386268422307293,0.036375744063734096,-0.04948855891113749, ,1.4921441078186035
0.01346995983211173,0.020021332739160656,-0.08747501921824054, ,0.013993939002241572,0.019643347878444913,-0.08795980433829592, ,0.0008077396475891041, ,0.008427539774953804,-0.002388029270974821,-0.014506068890592288,0.012867084434868099,-0.016310516487660656,-0.006211087975277114, ,0.016945564172256712, ,0.02077484458744197, ,8.38489190743207e-05, ,0.1742171309096307,-0.2217351062847341,0.09742267495000001,1.6081121765828172,0.2101469366392474,-1.2999158884072446, ,0.07081861310333641,0.06381771456521236,0.014803728178438665,0.004465457934148421,0.054115447444958574,-0.07509768622574849, ,1.4992649555206299
0.01346995983211173,0.020021332739160656,-0.08747501921824054, ,0.014078725767799172,0.019617435750260332,-0.08810241896124815, ,0.0009629949011402785, ,0.008427539774953804,-0.002388029270974821,-0.014506068890592288,0.012867084434868099,-0.016310516487660656,-0.006211087975277114, ,0.016945564172256712, ,0.02077484458744197, ,8.576992647285122e-05, ,0.1742171309096307,-0.2217351062847341,0.09742267495000001,1.6081121765828172,0.2101469366392474,-1.2999158884072446, ,0.07081861310333641,0.06381771456521236,0.014803728178438665,0.004465457934148421,0.054115447444958574,-0.07509768622574849, ,1.5063979625701904
0.01355760870908661,0.019999436012505138,-0.08763980703655326, ,0.014163393921082824,0.01959160519654325,-0.0882446113700425, ,0.0009482035537419167, ,0.008995127498218822,-0.0018849022818454436,-0.017905402252961878,0.0038164143842554306,0.017814116219328137,0.00197700806114695, ,0.020126316234266292, ,0.01821828518256843, ,8.763690652284212e-05, ,0.17495079053268203,-0.2210709512575508,0.09759119265,1.6081121765828172,0.21096675563784006,-1.3008294320498446, ,0.07402257531861994,0.06664111064499352,0.01835116534562212,0.004465457934148421,0.09245949984314694,-0.06886768292874136, ,1.5136990547180176
0.013651277787756044,0.01998695483477502,-0.08783210081429027, ,0.01424794197149501,0.019565857672808266,-0.08838638186883241, ,0.0009168197507676664, ,0.009983157226318236,-0.0011982288855709932,-0.02055059449438366,0.01724480515418832,0.011045909057144794,0.009744835695706212, ,0.022878507703523822, ,0.020479056284404145, ,8.941093986667461e-05, ,0.17570761835435605,-0.2204376871618644,0.09778952502,1.608321866526302,0.21192321113619814,-1.3017727148560008, ,0.07947817550960702,0.06549133302862027,0.02121013517976032,-0.003999678610672733,0.09286707232851077,-0.08259459379164483, ,1.5209980010986328
0.01375169932884086,0.019973377870385046,-0.08804097365007343, ,0.014332368438273096,0.019540194626865695,-0.08852773076352459, ,0.0008727868150986659, ,0.010549144906901514,-0.001489921475416738,-0.02174180318494542,0.008990184099333809,-0.0015932026997421138,0.00639830986251056, ,0.024211780810229903, ,0.00912999708408581, ,9.106323733183012e-05, ,0.17650305984040116,-0.21975808666893265,0.09800470916000001,1.608321866526302,0.21287966663455624,-1.3024709614417351, ,0.08194899961871396,0.07129747675317114,0.022371926292134834,-0.003999678610672733,0.08244531000599993,-0.08004018852289224, ,1.5284640789031982
0.01375169932884086,0.019973377870385046,-0.08804097365007343, ,0.014416671850471317,0.01951461749883374,-0.0886686583617753, ,0.001023053092627024, ,0.010549144906901514,-0.001489921475416738,-0.02174180318494542,0.008990184099333809,-0.0015932026997421138,0.00639830986251056, ,0.024211780810229903, ,0.00912999708408581, ,9.305595443600871e-05, ,0.17650305984040116,-0.21975808666893265,0.09800470916000001,1.608321866526302,0.21287966663455624,-1.3024709614417351, ,0.08194899961871396,0.07129747675317114,0.022371926292134834,-0.003999678610672733,0.08244531000599993,-0.08004018852289224, ,1.5358600616455078
0.01386145364725985,0.01995431232820261,-0.08825783192761995, ,0.014500850746942306,0.01948912772115202,-0.08880916497298658, ,0.0009639468328867471, ,0.01066860675455351,-0.0020218741890148883,-0.020535604162859322,0.0053013638172122995,-0.0030318314674934233,0.006334959865016671, ,0.023229683244787358, ,0.006106783794583093, ,9.489047076623213e-05, ,0.1773680059223143,-0.21900125884725866,0.09822767104,1.608321866526302,0.21369948563314886,-1.3031394688639137, ,0.08541578898152184,0.07384975996768155,0.021125744721485415,-0.003999678610672733,0.08451853529344557,-0.07886293866616848, ,1.542884111404419
0.0139716276966834,0.019932380961691278,-0.08846304867991776, ,0.01458490367631909,0.019463726718593952,-0.08894925090830354, ,0.0009122153439065444, ,0.01099868397727369,-0.002234939228761895,-0.02019966987415067,0.004259590842963506,-0.004695894229284584,0.00652419876634694, ,0.02310828132105168, ,0.006339729789568459, ,9.658632617086611e-05, ,0.17825612020285014,-0.21824443102558463,0.09843896631000001,1.608321866526302,0.21451930463174151,-1.3038896550262327, ,0.08952541656459506,0.07513613741763323,0.020821975843137257,-0.003999678610672733,0.087004284831442,-0.07908809717052183, ,1.5499780178070068
0.0139716276966834,0.019932380961691278,-0.08846304867991776, ,0.014668829196996679,0.01943841590827933,-0.08908891648060945, ,0.0010591515047310262, ,0.01099868397727369,-0.002234939228761895,-0.02019966987415067,0.004259590842963506,-0.004695894229284584,0.00652419876634694, ,0.02310828132105168, ,0.006339729789568459, ,9.860964124654205e-05, ,0.17825612020285014,-0.21824443102558463,0.09843896631000001,1.608321866526302,0.21451930463174151,-1.3038896550262327, ,0.08952541656459506,0.07513613741763323,0.020821975843137257,-0.003999678610672733,0.087004284831442,-0.07908809717052183, ,1.5572280883789062
0.014079639734534905,0.019907049653641297,-0.08866093163573126, ,0.014752625877113857,0.019413196699688315,-0.08922816200452355, ,0.0010092330650110619, ,0.011041528596588905,-0.002937210875666975,-0.01919450800652126,-0.000187019486049203,-0.009491572608436583,0.004826752141324617, ,0.022337674433338752, ,0.009493277695627775, ,0.0001004980453919327, ,0.17914423448338596,-0.2174721577381622,0.09864248384,1.608321866526302,0.2154757601300996,-1.3047512590922483, ,0.09124705919083728,0.07994687578641177,0.01971387564356436,-0.003999678610672733,0.08382950398880025,-0.07936784424149569, ,1.564561128616333
0.014199196705395852,0.01987307628548833,-0.08885902459592504, ,0.014836292294535055,0.019388070494672657,-0.08936698779639632, ,0.0009482341587700741, ,0.011535068855845572,-0.0035249824609329887,-0.01867380919620139,-0.01573326433095352,-0.019103306828991584,0.003366246172046491, ,0.022230485031935747, ,0.02474812452661864, ,0.00010222776314190077, ,0.18014046702416092,-0.21660721165624905,0.09884600137,1.608321866526302,0.21629557912869224,-1.3055014452545675, ,0.09683361383517426,0.0848051309727174,0.019168244909747296,-0.003999678610672733,0.07980064244595603,-0.0685808323426269, ,1.572451114654541
0.014199196705395852,0.01987307628548833,-0.08885902459592504, ,0.014919827036831968,0.019363038687469806,-0.08950539417430706, ,0.0010941846543595735, ,0.011535068855845572,-0.0035249824609329887,-0.01867380919620139,-0.01573326433095352,-0.019103306828991584,0.003366246172046491, ,0.022230485031935747, ,0.02474812452661864, ,0.00010451865665510555, ,0.18014046702416092,-0.21660721165624905,0.09884600137,1.608321866526302,0.21629557912869224,-1.3055014452545675, ,0.09683361383517426,0.0848051309727174,0.019168244909747296,-0.003999678610672733,0.07980064244595603,-0.0685808323426269, ,1.5760560035705566
0.014310732318875372,0.01984028980693418,-0.08904185244435396, ,0.015003228701265399,0.019338102664715355,-0.08964338145805936, ,0.0010457439073514017, ,0.011972673495728867,-0.003497499726242895,-0.01954116587448111,-0.00768917083377306,-0.012603472414369479,0.004796447849626151, ,0.023182635283858104, ,0.014763739892645697, ,0.00010668737843090348, ,0.1810749177019421,-0.21579632470445548,0.09903396342000001,1.608321866526302,0.21711539812728486,-1.306333310157027, ,0.09968166130091469,0.0858019363096481,0.019985961756587206,-0.003999678610672733,0.09001425662024057,-0.07816088116404601, ,1.5796020030975342
0.014310732318875372,0.01984028980693418,-0.08904185244435396, ,0.015086495894767016,0.01931326380545547,-0.0897809499691779, ,0.0011940815228097725, ,0.011972673495728867,-0.003497499726242895,-0.01954116587448111,-0.00768917083377306,-0.012603472414369479,0.004796447849626151, ,0.023182635283858104, ,0.014763739892645697, ,0.00010918713508464801, ,0.1810749177019421,-0.21579632470445548,0.09903396342000001,1.608321866526302,0.21711539812728486,-1.306333310157027, ,0.09968166130091469,0.0858019363096481,0.019985961756587206,-0.003999678610672733,0.09001425662024057,-0.07816088116404601, ,1.5831530094146729
0.014310732318875372,0.01984028980693418,-0.08904185244435396, ,0.015169627233921063,0.019288523481160252,-0.0899181000309049, ,0.001345346195700481, ,0.011972673495728867,-0.003497499726242895,-0.01954116587448111,-0.00768917083377306,-0.012603472414369479,0.004796447849626151, ,0.023182635283858104, ,0.014763739892645697, ,0.0006105218744690296, ,0.1810749177019421,-0.21579632470445548,0.09903396342000001,1.608321866526302,0.21711539812728486,-1.306333310157027, ,0.09968166130091469,0.0858019363096481,0.019985961756587206,-0.003999678610672733,0.09001425662024057,-0.07816088116404601, ,1.5867421627044678
0.014435410923103595,0.019802070247428936,-0.08925242916831469, ,0.01525262134494628,0.019263883055736345,-0.0900548319681964, ,0.0012654361225001708, ,0.013268433443997717,-0.003931076223314953,-0.023628126305136835,0.025893220494236584,0.033034019015343676,0.01264298724900842, ,0.0273823490413589, ,0.041972585282726974, ,0.0006186072355558338, ,0.18213293210571083,-0.2148618740266743,0.09925044385000001,1.608321866526302,0.21834512662517383,-1.3074177500304354, ,0.11151226975143451,0.10052642114244785,0.024281724878048784,-0.003999678610672733,0.14758567223713667,-0.12581808752553642, ,1.591170072555542
0.014435410923103595,0.019802070247428936,-0.08925242916831469, ,0.01533547686367735,0.01923934388553992,-0.0901911461077194, ,0.0014170282806179695, ,0.013268433443997717,-0.003931076223314953,-0.023628126305136835,0.025893220494236584,0.033034019015343676,0.01264298724900842, ,0.0273823490413589, ,0.041972585282726974, ,0.0006283440775687867, ,0.18213293210571083,-0.2148618740266743,0.09925044385000001,1.608321866526302,0.21834512662517383,-1.3074177500304354, ,0.11151226975143451,0.10052642114244785,0.024281724878048784,-0.003999678610672733,0.14758567223713667,-0.12581808752553642, ,1.594865083694458
0.014587275874225316,0.019767541624235142,-0.08954525787287299, ,0.015418192435547054,0.019214907319389244,-0.09032704277784673, ,0.0012676808133028025, ,0.013268433443997717,-0.003931076223314953,-0.023628126305136835,0.025893220494236584,0.033034019015343676,0.01264298724900842, ,0.0273823490413589, ,0.041972585282726974, ,0.0006360469298065458, ,0.18213293210571083,-0.2148618740266743,0.09925044385000001,1.608321866526302,0.21834512662517383,-1.3074177500304354, ,0.11151226975143451,0.10052642114244785,0.024281724878048784,-0.003999678610672733,0.14758567223713667,-0.12581808752553642, ,1.5988869667053223
0.014587275874225316,0.019767541624235142,-0.08954525787287299, ,0.015500766715567705,0.019190574698577614,-0.09046252230865491, ,0.0014172968622238108, ,0.015407221755892547,-0.0025425339787755637,-0.03147733280178295,0.07024559100634363,0.05963736017476791,0.017799429333949335, ,0.03513786336109067, ,0.09214676815943759, ,0.0006453475242400847, ,0.18332995570121563,-0.21381158235577977,0.09954081281,1.608321866526302,0.21998476462235914,-1.309081479835355, ,0.12181892369508443,0.10359928117736984,0.03224455773279353,-0.003999678610672733,0.183331786506342,-0.17201197372557958, ,1.6024270057678223
0.014587275874225316,0.019767541624235142,-0.08954525787287299, ,0.015583198368313149,0.01916634735688663,-0.09059758503192034, ,0.00156865821994197, ,0.015407221755892547,-0.0025425339787755637,-0.03147733280178295,0.07024559100634363,0.05963736017476791,0.017799429333949335, ,0.03513786336109067, ,0.09214676815943759, ,0.000656210003013048, ,0.18332995570121563,-0.21381158235577977,0.09954081281,1.608321866526302,0.21998476462235914,-1.309081479835355, ,0.12181892369508443,0.10359928117736984,0.03224455773279353,-0.003999678610672733,0.183331786506342,-0.17201197372557958, ,1.6059889793395996
0.014754986722335611,0.01974438813602383,-0.08989185688011951, ,0.015665486067900317,0.019142226620598467,-0.090732231281115, ,0.0013776199340825677, ,0.017603998931379237,-0.0017665930011521139,-0.03671241927677343,0.07158826607168037,0.021186933161836827,0.010125089536293354, ,0.04075320059039935, ,0.07465721187730408, ,0.0006645984905836238, ,0.18465826575558225,-0.212684063356143,0.09991155175000001,1.608321866526302,0.22189767561907528,-1.3110497241878076, ,0.13107312369954527,0.10747105499260563,0.038107204593301434,-0.003999678610672733,0.15479297629284225,-0.17839020056547533, ,1.6095941066741943
0.014754986722335611,0.01974438813602383,-0.08989185688011951, ,0.01574762849797118,0.01911821380850853,-0.09086646139140335, ,0.001525544472177388, ,0.017603998931379237,-0.0017665930011521139,-0.03671241927677343,0.07158826607168037,0.021186933161836827,0.010125089536293354, ,0.04075320059039935, ,0.07465721187730408, ,0.0006744944214065407, ,0.18465826575558225,-0.212684063356143,0.09991155175000001,1.608321866526302,0.22189767561907528,-1.3110497241878076, ,0.13107312369954527,0.10747105499260563,0.038107204593301434,-0.003999678610672733,0.15479297629284225,-0.17839020056547533, ,1.6131479740142822
0.014754986722335611,0.01974438813602383,-0.08989185688011951, ,0.015829624351674444,0.019094310231939457,-0.09100027569963927, ,0.0016751237551999821, ,0.017603998931379237,-0.0017665930011521139,-0.03671241927677343,0.07158826607168037,0.021186933161836827,0.010125089536293354, ,0.04075320059039935, ,0.07465721187730408, ,0.000685865209290557, ,0.18465826575558225,-0.212684063356143,0.09991155175000001,1.608321866526302,0.22189767561907528,-1.3110497241878076, ,0.13107312369954527,0.10747105499260563,0.038107204593301434,-0.003999678610672733,0.15479297629284225,-0.17839020056547533, ,1.6167609691619873
0.014934378841113732,0.01972742676363071,-0.09027195378228092, ,0.015911472331647202,0.019070517194752442,-0.09113367454436132, ,0.0014590423375375812, ,0.019792626562873485,-0.0016567577808405374,-0.04196664401284924,0.01183122319800136,-0.014758986766256872,-0.00620133471341985, ,0.04642943163881027, ,0.018912307094594915, ,0.0006945525927540068, ,0.18595568487845196,-0.21159515802087733,0.10030562391000002,1.6081121765828172,0.2232640406167297,-1.3124089394451932, ,0.13996599049921946,0.11803102183889398,0.04352134295081967,0.006258062423594971,0.12538544569951293,-0.12707407723796318, ,1.6203081607818604
0.014934378841113732,0.01972742676363071,-0.09027195378228092, ,0.015993171149996883,0.019046835993361332,-0.09126665826578985, ,0.001604269914770809, ,0.019792626562873485,-0.0016567577808405374,-0.04196664401284924,0.01183122319800136,-0.014758986766256872,-0.00620133471341985, ,0.04642943163881027, ,0.018912307094594915, ,0.0007046605629986378, ,0.18595568487845196,-0.21159515802087733,0.10030562391000002,1.6081121765828172,0.2232640406167297,-1.3124089394451932, ,0.13996599049921946,0.11803102183889398,0.04352134295081967,0.006258062423594971,0.12538544569951293,-0.12707407723796318, ,1.6239211559295654
0.014934378841113732,0.01972742676363071,-0.09027195378228092, ,0.01607471952828282,0.01902326791674455,-0.09139922720582357, ,0.0017512743748159143, ,0.019792626562873485,-0.0016567577808405374,-0.04196664401284924,0.01183122319800136,-0.014758986766256872,-0.00620133471341985, ,0.04642943163881027, ,0.018912307094594915, ,0.0007161618136779486, ,0.18595568487845196,-0.21159515802087733,0.10030562391000002,1.6081121765828172,0.2232640406167297,-1.3124089394451932, ,0.13996599049921946,0.11803102183889398,0.04352134295081967,0.006258062423594971,0.12538544569951293,-0.12707407723796318, ,1.6277520656585693
0.015138526335834516,0.019708612285674342,-0.09070448339889786, ,0.01615611619749825,0.018999814246458555,-0.09153138170803532, ,0.0014905182322304366, ,0.020727261239699497,-0.0021199673810251823,-0.0434923375713711,0.025381126839167635,0.0015851961057947288,-0.003546764587194635, ,0.04822548131037635, ,0.025427521053271184, ,0.0007245787312709104, ,0.18739983592593196,-0.21036724349387564,0.10075414025000001,1.6081121765828172,0.2246304056143841,-1.3138498334427198, ,0.14781455071412894,0.1255250549715222,0.04512411195467422,0.006258062423594971,0.1498790042313468,-0.14802877632812925, ,1.6314620971679688
0.015138526335834516,0.019708612285674342,-0.09070448339889786, ,0.016237359898051848,0.018976476256650682,-0.09166312211766933, ,0.0016317005103809864, ,0.020727261239699497,-0.0021199673810251823,-0.0434923375713711,0.025381126839167635,0.0015851961057947288,-0.003546764587194635, ,0.04822548131037635, ,0.025427521053271184, ,0.0007343327288957499, ,0.18739983592593196,-0.21036724349387564,0.10075414025000001,1.6081121765828172,0.2246304056143841,-1.3138498334427198, ,0.14781455071412894,0.1255250549715222,0.04512411195467422,0.006258062423594971,0.1498790042313468,-0.14802877632812925, ,1.6350610256195068
0.015138526335834516,0.019708612285674342,-0.09070448339889786, ,0.016318449379749633,0.018953255214071322,-0.0917944487816367, ,0.0017750513318638506, ,0.020727261239699497,-0.0021199673810251823,-0.0434923375713711,0.025381126839167635,0.0015851961057947288,-0.003546764587194635, ,0.04822548131037635, ,0.025427521053271184, ,0.0007454042033954106, ,0.18739983592593196,-0.21036724349387564,0.10075414025000001,1.6081121765828172,0.2246304056143841,-1.3138498334427198, ,0.14781455071412894,0.1255250549715222,0.04512411195467422,0.006258062423594971,0.1498790042313468,-0.14802877632812925, ,1.6386189460754395
0.015352664607086695,0.019680466632997492,-0.09114184781968897, ,0.016399383401776636,0.01893015237808761,-0.09192536204851265, ,0.0015074767869016437, ,0.021000232621651863,-0.0033766785506307113,-0.04135352468603449,0.04094585079396989,0.02198019764865742,-7.209169642452171e-05, ,0.04650296476738063, ,0.046471182984195114, ,0.0007534260200638973, ,0.18895210523365108,-0.20903893343950902,0.10120784175000001,1.6081121765828172,0.22627004361156938,-1.3152685270272175, ,0.15633763024459765,0.13290888173455292,0.04293480194070081,0.006258062423594971,0.179163123946205,-0.17090037593473392, ,1.6429550647735596
0.015352664607086695,0.019680466632997492,-0.09114184781968897, ,0.016480160732678755,0.018907169000695216,-0.09205586226853212, ,0.0016445847968540434, ,0.021000232621651863,-0.0033766785506307113,-0.04135352468603449,0.04094585079396989,0.02198019764865742,-7.209169642452171e-05, ,0.04650296476738063, ,0.046471182984195114, ,0.0007627089239887947, ,0.18895210523365108,-0.20903893343950902,0.10120784175000001,1.6081121765828172,0.22627004361156938,-1.3152685270272175, ,0.15633763024459765,0.13290888173455292,0.04293480194070081,0.006258062423594971,0.179163123946205,-0.17090037593473392, ,1.6465139389038086
0.015567444303674145,0.019641968107886307,-0.09154706286863651, ,0.016560780150344415,0.018884306326532863,-0.09218594979358692, ,0.0014031906435251094, ,0.0216719158222756,-0.004438719775019492,-0.03885552286059049,0.036237853582787014,-0.0019958589961255003,-0.003111818892531401, ,0.044711584912848025, ,0.03629155439053778, ,0.0007693118283139113, ,0.19057387913723822,-0.20767973245364552,0.10162913600000001,1.608321866526302,0.2280463181085201,-1.3169619959956926, ,0.16561420865352666,0.1375317993601026,0.040428455634517774,0.004808805378747314,0.16441824303304883,-0.17089726853179163, ,1.6500799655914307
0.015567444303674145,0.019641968107886307,-0.09154706286863651, ,0.01664124044198648,0.018861565592893495,-0.09231562497722194, ,0.0015338689470795336, ,0.0216719158222756,-0.004438719775019492,-0.03885552286059049,0.036237853582787014,-0.0019958589961255003,-0.003111818892531401, ,0.044711584912848025, ,0.03629155439053778, ,0.0007771134315666218, ,0.19057387913723822,-0.20767973245364552,0.10162913600000001,1.608321866526302,0.2280463181085201,-1.3169619959956926, ,0.16561420865352666,0.1375317993601026,0.040428455634517774,0.004808805378747314,0.16441824303304883,-0.17089726853179163, ,1.6536321640014648
0.015567444303674145,0.019641968107886307,-0.09154706286863651, ,0.016721540404123842,0.018838948029737877,-0.09244488817463087, ,0.0016681934345472574, ,0.0216719158222756,-0.004438719775019492,-0.03885552286059049,0.036237853582787014,-0.0019958589961255003,-0.003111818892531401, ,0.044711584912848025, ,0.03629155439053778, ,0.0007861142396775373, ,0.19057387913723822,-0.20767973245364552,0.10162913600000001,1.608321866526302,0.2280463181085201,-1.3169619959956926, ,0.16561420865352666,0.1375317993601026,0.040428455634517774,0.004808805378747314,0.16441824303304883,-0.17089726853179163, ,1.6571800708770752
0.01577588959128356,0.019589646989548563,-0.09190482037189276, ,0.016801678842563318,0.018816454859707277,-0.09257373974265334, ,0.001448282701087159, ,0.022089517974997346,-0.006338270748001231,-0.03536289203665455,0.02098657705854481,-0.009070800909433878,-0.004675077328908918, ,0.04217409884797522, ,0.022861770360641215, ,0.0007927359242916335, ,0.19221109850657384,-0.20629736326915932,0.10200117123,1.608321866526302,0.22982259260547083,-1.318410428743746, ,0.1760611160639532,0.14874128770920184,0.036787093579676675,0.004660251355973433,0.16789389266752003,-0.16664516523119138, ,1.661297082901001
0.01577588959128356,0.019589646989548563,-0.09190482037189276, ,0.016881654572381305,0.018794087298136686,-0.09270218003977158, ,0.001578421317640279, ,0.022089517974997346,-0.006338270748001231,-0.03536289203665455,0.02098657705854481,-0.009070800909433878,-0.004675077328908918, ,0.04217409884797522, ,0.022861770360641215, ,0.0008005149875921152, ,0.19221109850657384,-0.20629736326915932,0.10200117123,1.608321866526302,0.22982259260547083,-1.318410428743746, ,0.1760611160639532,0.14874128770920184,0.036787093579676675,0.004660251355973433,0.16789389266752003,-0.16664516523119138, ,1.6649630069732666
0.01577588959128356,0.019589646989548563,-0.09190482037189276, ,0.016961466417905628,0.018771846553066962,-0.0928302094261058, ,0.001711938920461254, ,0.022089517974997346,-0.006338270748001231,-0.03536289203665455,0.02098657705854481,-0.009070800909433878,-0.004675077328908918, ,0.04217409884797522, ,0.022861770360641215, ,0.0008094505163457343, ,0.19221109850657384,-0.20629736326915932,0.10200117123,1.608321866526302,0.22982259260547083,-1.318410428743746, ,0.1760611160639532,0.14874128770920184,0.036787093579676675,0.004660251355973433,0.16789389266752003,-0.16664516523119138, ,1.6687610149383545
0.015852531932690705,0.019567250923550855,-0.09202325480030156, ,0.01704111321269729,0.018749733825258387,-0.09295782826341119, ,0.0017188621885222072, ,0.02273348139968658,-0.006887797495578265,-0.034752866098424026,-0.03415925456352618,-0.05940824667726774,-0.013370461304007559, ,0.04209530416738879, ,0.06852841565367393, ,0.0008182797558814282, ,0.19281347167076332,-0.20578766289946052,0.10212431878000001,1.608321866526302,0.23023250210476714,-1.3188263611949758, ,0.17905083312919012,0.15281311040011397,0.03611975401360545,0.004564939302360005,0.12007176354941444,-0.11534253914238249, ,1.674211025238037
0.015852531932690705,0.019567250923550855,-0.09202325480030156, ,0.017120593799532166,0.018727750308203048,-0.09308503691507468, ,0.001854756976145089, ,0.02273348139968658,-0.006887797495578265,-0.034752866098424026,-0.03415925456352618,-0.05940824667726774,-0.013370461304007559, ,0.04209530416738879, ,0.06852841565367393, ,0.000828245882999348, ,0.19281347167076332,-0.20578766289946052,0.10212431878000001,1.608321866526302,0.23023250210476714,-1.3188263611949758, ,0.17905083312919012,0.15281311040011397,0.03611975401360545,0.004564939302360005,0.12007176354941444,-0.11534253914238249, ,1.6778230667114258
0.01623850122686436,0.019428067538357283,-0.09254263031245605, ,0.0171999070303829,0.018705897188137883,-0.09321183574611064, ,0.0013761057540058366, ,0.02184191002780306,-0.009220080938977332,-0.02712455964628668,-0.05721707338457546,-0.07989988538283768,-0.01777764189002062, ,0.03602527810009106, ,0.0982739563054781, ,0.0008334635960565526, ,0.19594117848482426,-0.20313104279072727,0.10266487171000001,1.608321866526302,0.23187214010195245,-1.320326733519614, ,0.181447306995164,0.15869053772319527,0.02819258676106195,0.004139970774422362,0.10183806178623309,-0.09797562217165837, ,1.6813859939575195
0.01623850122686436,0.019428067538357283,-0.09254263031245605, ,0.017279051766400447,0.018684175644057697,-0.09333822512315759, ,0.0015063504501106953, ,0.02184191002780306,-0.009220080938977332,-0.02712455964628668,-0.05721707338457546,-0.07989988538283768,-0.01777764189002062, ,0.03602527810009106, ,0.0982739563054781, ,0.0008398115852457427, ,0.19594117848482426,-0.20313104279072727,0.10266487171000001,1.608321866526302,0.23187214010195245,-1.320326733519614, ,0.181447306995164,0.15869053772319527,0.02819258676106195,0.004139970774422362,0.10183806178623309,-0.09797562217165837, ,1.6849479675292969
0.01623850122686436,0.019428067538357283,-0.09254263031245605, ,0.017358026877896112,0.01866258684772719,-0.09346420541447428, ,0.001639694800780168, ,0.02184191002780306,-0.009220080938977332,-0.02712455964628668,-0.05721707338457546,-0.07989988538283768,-0.01777764189002062, ,0.03602527810009106, ,0.0982739563054781, ,0.0008472871293161578, ,0.19594117848482426,-0.20313104279072727,0.10266487171000001,1.608321866526302,0.23187214010195245,-1.320326733519614, ,0.181447306995164,0.15869053772319527,0.02819258676106195,0.004139970774422362,0.10183806178623309,-0.09797562217165837, ,1.6885299682617188
0.016463350770938818,0.019328830951897653,-0.09282278450118824, ,0.017436831244323058,0.01864113196369515,-0.09358977698993716, ,0.0014173466789153667, ,0.02215377222726022,-0.009953793010691983,-0.028098119916066255,0.01578889663928189,0.0070835777375061765,-0.003119350561008037, ,0.03713989717291455, ,0.017304589466681744, ,0.0008525654584791134, ,0.19785641623763195,-0.20145520975702055,0.10295653696000001,1.608321866526302,0.23351177809913773,-1.3219087845843926, ,0.1905561075471301,0.1676624409160261,0.029280903529411772,0.003918269537741011,0.19912200063062693,-0.18007001969061237, ,1.6921100616455078
0.016463350770938818,0.019328830951897653,-0.09282278450118824, ,0.017515463754258272,0.018619812149306022,-0.09371494022103508, ,0.0015509968473705119, ,0.02215377222726022,-0.009953793010691983,-0.028098119916066255,0.01578889663928189,0.0070835777375061765,-0.003119350561008037, ,0.03713989717291455, ,0.017304589466681744, ,0.0008589730859001354, ,0.19785641623763195,-0.20145520975702055,0.10295653696000001,1.608321866526302,0.23351177809913773,-1.3219087845843926, ,0.1905561075471301,0.1676624409160261,0.029280903529411772,0.003918269537741011,0.19912200063062693,-0.18007001969061237, ,1.6956701278686523
0.016463350770938818,0.019328830951897653,-0.09282278450118824, ,0.01759392330538412,0.018598628554713597,-0.0938396954808671, ,0.0016868603193764568, ,0.02215377222726022,-0.009953793010691983,-0.028098119916066255,0.01578889663928189,0.0070835777375061765,-0.003119350561008037, ,0.03713989717291455, ,0.017304589466681744, ,0.0008664993334771929, ,0.19934690368235727,-0.20012689970265393,0.10320153577,1.608321866526302,0.235151416096323,-1.3232457994287499, ,0.18903773218818878,0.16945882421155498,0.03230996251521299,0.0037652458160379676,0.21630924813218427,-0.19315558896677937, ,1.6992859840393066
0.016639391702895072,0.0192521733768471,-0.09305801908918648, ,0.017672208804470343,0.018577582322893447,-0.09396404314413824, ,0.0015305763109142475, ,0.022541405965200843,-0.009605422249715707,-0.03101297678005249,0.027074527364933623,0.02559332402706221,-0.0008798571374428802, ,0.039524471511247314, ,0.03725613476551086, ,0.0008724820089495987, ,0.19934690368235727,-0.20012689970265393,0.10320153577,1.608321866526302,0.235151416096323,-1.3232457994287499, ,0.18903773218818878,0.16945882421155498,0.03230996251521299,0.0037652458160379676,0.21630924813218427,-0.19315558896677937, ,1.70353102684021
0.016639391702895072,0.0192521733768471,-0.09305801908918648, ,0.017750319167355602,0.0185566745896559,-0.09408798358715609, ,0.0016669448885175875, ,0.022541405965200843,-0.009605422249715707,-0.03101297678005249,0.027074527364933623,0.02559332402706221,-0.0008798571374428802, ,0.039524471511247314, ,0.03725613476551086, ,0.00087957542751717, ,0.19934690368235727,-0.20012689970265393,0.10320153577,1.608321866526302,0.235151416096323,-1.3232457994287499, ,0.18903773218818878,0.16945882421155498,0.03230996251521299,0.0037652458160379676,0.21630924813218427,-0.19315558896677937, ,1.7072179317474365
0.016883358928231038,0.01915572327839274,-0.09339132862242525, ,0.017828253318929402,0.018535906483658722,-0.09421151718782671, ,0.0013963192870625582, ,0.023371176018971884,-0.008885545638415803,-0.031663535251609184,-0.032794572472393264,-0.02790936938892339,-0.008086667200025406, ,0.040345312669900504, ,0.04306257140764541, ,0.0008841483820264212, ,0.20136253696252987,-0.1983815620730792,0.10355023778000001,1.608321866526302,0.2372009635928046,-1.3250804254644772, ,0.18979388311694156,0.16249476294258697,0.033185024,0.0035775156647340806,0.163159050018961,-0.12624545024993883, ,1.7108910083770752
0.016883358928231038,0.01915572327839274,-0.09339132862242525, ,0.01790601019311372,0.018515279126420654,-0.09433464432565228, ,0.0015316098841794215, ,0.023371176018971884,-0.008885545638415803,-0.031663535251609184,-0.032794572472393264,-0.02790936938892339,-0.008086667200025406, ,0.040345312669900504, ,0.04306257140764541, ,0.0008898278688874125, ,0.20136253696252987,-0.1983815620730792,0.10355023778000001,1.608321866526302,0.2372009635928046,-1.3250804254644772, ,0.18979388311694156,0.16249476294258697,0.033185024,0.0035775156647340806,0.163159050018961,-0.12624545024993883, ,1.7144839763641357
0.016883358928231038,0.01915572327839274,-0.09339132862242525, ,0.017983588732844905,0.01849479363233309,-0.09445736538172554, ,0.0016684627631987099, ,0.023371176018971884,-0.008885545638415803,-0.031663535251609184,-0.032794572472393264,-0.02790936938892339,-0.008086667200025406, ,0.040345312669900504, ,0.04306257140764541, ,0.0008965986070988151, ,0.20136253696252987,-0.1983815620730792,0.10355023778000001,1.608321866526302,0.2372009635928046,-1.3250804254644772, ,0.18979388311694156,0.16249476294258697,0.033185024,0.0035775156647340806,0.163159050018961,-0.12624545024993883, ,1.7180790901184082
0.017173145331180993,0.019052847711838343,-0.09378784669056327, ,0.01806098789005528,0.01847445110867393,-0.094579680738728, ,0.0013228031598592105, ,0.025611587065082854,-0.008682691142530195,-0.036540964233958646,-0.08649308215192482,-0.08774830734193488,-0.018943928278903094, ,0.04545970286546467, ,0.12321020068839685, ,0.000900272784277784, ,0.20364846589330032,-0.19644315612164887,0.10396634687,1.608321866526302,0.23870396509022446,-1.326469379885419, ,0.1956637970277748,0.16945882421155498,0.03829041230769231,0.0033893736646143226,0.10859464236961203,-0.0791459264274209, ,1.7216429710388184
0.017173145331180993,0.019052847711838343,-0.09378784669056327, ,0.01813820662565508,0.018454252655620017,-0.0947015907809251, ,0.0014575965169045246, ,0.025611587065082854,-0.008682691142530195,-0.036540964233958646,-0.08649308215192482,-0.08774830734193488,-0.018943928278903094, ,0.04545970286546467, ,0.12321020068839685, ,0.0009050362349839954, ,0.20364846589330032,-0.19644315612164887,0.10396634687,1.608321866526302,0.23870396509022446,-1.326469379885419, ,0.1956637970277748,0.16945882421155498,0.03829041230769231,0.0033893736646143226,0.10859464236961203,-0.0791459264274209, ,1.7251379489898682
0.017173145331180993,0.019052847711838343,-0.09378784669056327, ,0.018215243909514043,0.018434199366260017,-0.09482309589416377, ,0.0015938745672122482, ,0.025611587065082854,-0.008682691142530195,-0.036540964233958646,-0.08649308215192482,-0.08774830734193488,-0.018943928278903094, ,0.04545970286546467, ,0.12321020068839685, ,0.0009108738479689806, ,0.20364846589330032,-0.19644315612164887,0.10396634687,1.608321866526302,0.23870396509022446,-1.326469379885419, ,0.1956637970277748,0.16945882421155498,0.03829041230769231,0.0033893736646143226,0.10859464236961203,-0.0791459264274209, ,1.7287211418151855
0.017417215587020286,0.01897311180701399,-0.09414619576103155, ,0.018292098720443312,0.0184142923266072,-0.09494419646586716, ,0.0013093910163691923, ,0.025308394776594155,-0.00790807291178154,-0.03757555254469202,-0.04555622315738514,-0.044516710397380706,-0.011098251975719706, ,0.0459888531318721, ,0.06369483546723474, ,0.0009142227317370496, ,0.20550192178311422,-0.1948445504166844,0.10434227097000001,1.608321866526302,0.23993369358811342,-1.327472141018687, ,0.1924887252707318,0.16249476294258697,0.039525586898263035,0.003249672867578911,0.14910443910006466,-0.11336335166306961, ,1.732349157333374
0.017417215587020286,0.01897311180701399,-0.09414619576103155, ,0.018368770046177083,0.018394532615612542,-0.09506489288503292, ,0.0014436807732709938, ,0.025308394776594155,-0.00790807291178154,-0.03757555254469202,-0.04555622315738514,-0.044516710397380706,-0.011098251975719706, ,0.0459888531318721, ,0.06369483546723474, ,0.0009186348820831657, ,0.20550192178311422,-0.1948445504166844,0.10434227097000001,1.608321866526302,0.23993369358811342,-1.327472141018687, ,0.1924887252707318,0.16249476294258697,0.039525586898263035,0.003249672867578911,0.14910443910006466,-0.11336335166306961, ,1.736109972000122
0.017417215587020286,0.01897311180701399,-0.09414619576103155, ,0.018445256883354435,0.018374921305177417,-0.0951851855422281, ,0.0015793038177902175, ,0.02483404472546665,-0.007642530329728547,-0.037763872933367325,-0.004339611247661764,0.0031294076875772593,-0.0032701784703270385, ,0.04583937331808553, ,0.00534309034812517, ,0.0009240949559319844, ,0.20550192178311422,-0.1948445504166844,0.10434227097000001,1.608321866526302,0.23993369358811342,-1.327472141018687, ,0.1924887252707318,0.16249476294258697,0.039525586898263035,0.003249672867578911,0.14910443910006466,-0.11336335166306961, ,1.7400929927825928
0.017661427838919268,0.01889657119178327,-0.0945142559144746, ,0.018521558237501057,0.018355459460166368,-0.0953050748295862, ,0.0012876415515026662, ,0.02483404472546665,-0.007642530329728547,-0.037763872933367325,-0.004339611247661764,0.0031294076875772593,-0.0032701784703270385, ,0.04583937331808553, ,0.00534309034812517, ,0.000927074846059613, ,0.20737082313867652,-0.19326911291034257,0.10472986168000001,1.608321866526302,0.24170996808506415,-1.3289205737667404, ,0.18979388311694156,0.15895635101921404,0.039822028800000006,0.0031185561642899065,0.1945341573490333,-0.1512378428059916, ,1.743934154510498
0.017661427838919268,0.01889657119178327,-0.0945142559144746, ,0.01859767312301106,0.01833614813841985,-0.09542456114080342, ,0.0014210154241973791, ,0.02483404472546665,-0.007642530329728547,-0.037763872933367325,-0.004339611247661764,0.0031294076875772593,-0.0032701784703270385, ,0.04583937331808553, ,0.00534309034812517, ,0.0009310906231176436, ,0.20737082313867652,-0.19326911291034257,0.10472986168000001,1.608321866526302,0.24170996808506415,-1.3289205737667404, ,0.18979388311694156,0.15895635101921404,0.039822028800000006,0.0031185561642899065,0.1945341573490333,-0.1512378428059916, ,1.7475030422210693
0.017917218456983873,0.0188180148661053,-0.09489577880690722, ,0.01867360056312862,0.018316988390767792,-0.0955436448711354, ,0.0011148416285121367, ,0.02418221911407055,-0.007433344545734955,-0.0350461623570764,-0.016067602203727695,-0.017631276700784623,-0.006179481951033552, ,0.04322346386368272, ,0.02385323645807994, ,0.0009325724860643733, ,0.20932467455585532,-0.19165506173962965,0.10513300787000002,1.608321866526302,0.24362287908178032,-1.3304804244184902, ,0.18498429153698007,0.15015338854188412,0.03713009678321679,0.0029894581079118977,0.16865346356996322,-0.1307760819519052, ,1.751047134399414
0.017917218456983873,0.0188180148661053,-0.09489577880690722, ,0.018749339589929904,0.018297981261041412,-0.09566232641739271, ,0.0012451729877539668, ,0.02418221911407055,-0.007433344545734955,-0.0350461623570764,-0.016067602203727695,-0.017631276700784623,-0.006179481951033552, ,0.04322346386368272, ,0.02385323645807994, ,0.0009350732900778901, ,0.20932467455585532,-0.19165506173962965,0.10513300787000002,1.608321866526302,0.24362287908178032,-1.3304804244184902, ,0.18498429153698007,0.15015338854188412,0.03713009678321679,0.0029894581079118977,0.16865346356996322,-0.1307760819519052, ,1.7546451091766357
0.017917218456983873,0.0188180148661053,-0.09489577880690722, ,0.018824889244304692,0.01827912778608712,-0.09578060617793822, ,0.0013773833960418385, ,0.02418221911407055,-0.007433344545734955,-0.0350461623570764,-0.016067602203727695,-0.017631276700784623,-0.006179481951033552, ,0.04322346386368272, ,0.02385323645807994, ,0.0009385836877442706, ,0.20932467455585532,-0.19165506173962965,0.10513300787000002,1.608321866526302,0.24362287908178032,-1.3304804244184902, ,0.18498429153698007,0.15015338854188412,0.03713009678321679,0.0029894581079118977,0.16865346356996322,-0.1307760819519052, ,1.758213996887207
0.01816053641128342,0.01874230444749507,-0.0952403680648794, ,0.018900248575938215,0.018260428995778216,-0.09589848455268288, ,0.001101133665376004, ,0.024113906351349794,-0.007583417991916459,-0.033633869861259935,-0.04004574301557679,-0.0482427190146886,-0.011458626338655945, ,0.042074052690535525, ,0.06269751534484476, ,0.0009398636088279851, ,0.21117813044566922,-0.1901568515620301,0.10549856165000002,1.608321866526302,0.24512588057920015,-1.331706021359151, ,0.1828457448140092,0.14781455071412894,0.03571482403587444,0.0028752405838835056,0.13553927189727724,-0.10436248374922773, ,1.761842966079712
0.01816053641128342,0.01874230444749507,-0.0952403680648794, ,0.018975416643292862,0.018241885913028603,-0.09601596194308205, ,0.001231257229851977, ,0.024113906351349794,-0.007583417991916459,-0.033633869861259935,-0.04004574301557679,-0.0482427190146886,-0.011458626338655945, ,0.042074052690535525, ,0.06269751534484476, ,0.000942140121492235, ,0.21117813044566922,-0.1901568515620301,0.10549856165000002,1.608321866526302,0.24512588057920015,-1.331706021359151, ,0.1828457448140092,0.14781455071412894,0.03571482403587444,0.0028752405838835056,0.13553927189727724,-0.10436248374922773, ,1.7654659748077393
0.01816053641128342,0.01874230444749507,-0.0952403680648794, ,0.019050392513589937,0.018223499553805755,-0.09613303875213275, ,0.0013630346130636222, ,0.024113906351349794,-0.007583417991916459,-0.033633869861259935,-0.04004574301557679,-0.0482427190146886,-0.011458626338655945, ,0.042074052690535525, ,0.06269751534484476, ,0.0009454028694889124, ,0.21117813044566922,-0.1901568515620301,0.10549856165000002,1.608321866526302,0.24512588057920015,-1.331706021359151, ,0.1828457448140092,0.14781455071412894,0.03571482403587444,0.0028752405838835056,0.13553927189727724,-0.10436248374922773, ,1.7691359519958496
0.01837873290396518,0.018673490788450327,-0.09554516137026027, ,0.019125175262791526,0.018205270927142945,-0.09624971538436888, ,0.001128185442367302, ,0.02288099239695399,-0.007199237039112735,-0.03206677282014592,-0.02610562927894491,-0.03199211214878795,-0.008996053128126175, ,0.04004555838184365, ,0.04129122441648345, ,0.0009468088892802847, ,0.2128385180136275,-0.18882081877478926,0.10582263415000001,1.608321866526302,0.24649224557685456,-1.3328202003961152, ,0.17316960138407075,0.13975985501983915,0.03410880411134904,0.0027768805039426695,0.14217029708889714,-0.11042210723887207, ,1.7735381126403809
0.01837873290396518,0.018673490788450327,-0.09554516137026027, ,0.01919976397558214,0.018187201035152086,-0.09636599224585805, ,0.0012587029320129451, ,0.02288099239695399,-0.007199237039112735,-0.03206677282014592,-0.02610562927894491,-0.03199211214878795,-0.008996053128126175, ,0.04004555838184365, ,0.04129122441648345, ,0.0009491897598354958, ,0.2128385180136275,-0.18882081877478926,0.10582263415000001,1.608321866526302,0.24649224557685456,-1.3328202003961152, ,0.17316960138407075,0.13975985501983915,0.03410880411134904,0.0027768805039426695,0.14217029708889714,-0.11042210723887207, ,1.7772009372711182
0.01861204782021981,0.018598374669382557,-0.09586794609101724, ,0.019274157745350424,0.018169290873037564,-0.0964818697441982, ,0.0009997023102790911, ,0.02074426816691668,-0.006857017453539871,-0.028479651921964045,-0.022799943709202346,-0.026479405168506408,-0.008478353769673033, ,0.03589476178685873, ,0.03494248982787843, ,0.0009495724306721896, ,0.21459930110895067,-0.18739211319305774,0.10616615100000001,1.608321866526302,0.24785861057450898,-1.3338527006929386, ,0.157374695785192,0.12806604798714005,0.030340593371428574,0.0026738082934593638,0.1317759934541814,-0.10223370495996395, ,1.7808361053466797
0.01861204782021981,0.018598374669382557,-0.09586794609101724, ,0.019348355674171116,0.018151541429107423,-0.09659734828851389, ,0.0011286437729053818, ,0.02074426816691668,-0.006857017453539871,-0.028479651921964045,-0.022799943709202346,-0.026479405168506408,-0.008478353769673033, ,0.03589476178685873, ,0.03494248982787843, ,0.0009509188317416121, ,0.21459930110895067,-0.18739211319305774,0.10616615100000001,1.608321866526302,0.24785861057450898,-1.3338527006929386, ,0.157374695785192,0.12806604798714005,0.030340593371428574,0.0026738082934593638,0.1317759934541814,-0.10223370495996395, ,1.7844359874725342
0.01861204782021981,0.018598374669382557,-0.09586794609101724, ,0.019422356872786695,0.018133953684788175,-0.0967124282894524, ,0.0012591416898337243, ,0.02074426816691668,-0.006857017453539871,-0.028479651921964045,-0.022799943709202346,-0.026479405168506408,-0.008478353769673033, ,0.03589476178685873, ,0.03494248982787843, ,0.0009532190023243892, ,0.21459930110895067,-0.18739211319305774,0.10616615100000001,1.608321866526302,0.24785861057450898,-1.3338527006929386, ,0.157374695785192,0.12806604798714005,0.030340593371428574,0.0026738082934593638,0.1317759934541814,-0.10223370495996395, ,1.7880301475524902
0.018822294247005097,0.0185264184845175,-0.09615380252089634, ,0.01949616046058906,0.018116528614636248,-0.09682711015918066, ,0.0010370383575419335, ,0.020348287182991052,-0.007161952990265262,-0.02798345479834113,-0.022928688125745195,-0.02168934951751889,-0.00884549027184091, ,0.03533298889659703, ,0.031561613743292125, ,0.0009538398864371117, ,0.21619790681391515,-0.18607924860443956,0.10647077915000001,1.608321866526302,0.2492249755721634,-1.3349668797299028, ,0.15355492161564852,0.12928738631944245,0.02977347947663552,0.0025802802327453576,0.13274902701479674,-0.10327582764948635, ,1.791628122329712
0.018822294247005097,0.0185264184845175,-0.09615380252089634, ,0.019569765565601346,0.01809926718635102,-0.09694139431138057, ,0.0011668215082382958, ,0.020348287182991052,-0.007161952990265262,-0.02798345479834113,-0.022928688125745195,-0.02168934951751889,-0.00884549027184091, ,0.03533298889659703, ,0.031561613743292125, ,0.0009554059277738852, ,0.21619790681391515,-0.18607924860443956,0.10647077915000001,1.608321866526302,0.2492249755721634,-1.3349668797299028, ,0.15355492161564852,0.12928738631944245,0.02977347947663552,0.0025802802327453576,0.13274902701479674,-0.10327582764948635, ,1.795186996459961
0.018822294247005097,0.0185264184845175,-0.09615380252089634, ,0.019643171324459873,0.01808217036078833,-0.09705528116124675, ,0.0012976360471008818, ,0.020348287182991052,-0.007161952990265262,-0.02798345479834113,-0.022928688125745195,-0.02168934951751889,-0.00884549027184091, ,0.03533298889659703, ,0.031561613743292125, ,0.0009579039578419653, ,0.21619790681391515,-0.18607924860443956,0.10647077915000001,1.608321866526302,0.2492249755721634,-1.3349668797299028, ,0.15355492161564852,0.12928738631944245,0.02977347947663552,0.0025802802327453576,0.13274902701479674,-0.10327582764948635, ,1.7987480163574219
0.019020144709285702,0.018460035061320195,-0.09643359430750867, ,0.019716376882395473,0.018065239091972857,-0.09716877112548206, ,0.0010867787493190756, ,0.01998988417066371,-0.00610873151229446,-0.028902729286009822,0.01017998751862213,0.004779061845414256,-0.0037866983366276227, ,0.0356690318066838, ,0.011245061517900886, ,0.0009588378331425242, ,0.21768839425864048,-0.18484361134456365,0.10676892585000002,1.608321866526302,0.2507279770695832,-1.336110797930423, ,0.14897479051565274,0.11981937065463481,0.030869789767441865,0.002496344341920358,0.15478271375001945,-0.1271981712127313, ,1.8022871017456055
0.019020144709285702,0.018460035061320195,-0.09643359430750867, ,0.01978938139321577,0.018048474327110677,-0.09728186462229377, ,0.0012168277777863292, ,0.01998988417066371,-0.00610873151229446,-0.028902729286009822,0.01017998751862213,0.004779061845414256,-0.0037866983366276227, ,0.0356690318066838, ,0.011245061517900886, ,0.0009606938759097459, ,0.21768839425864048,-0.18484361134456365,0.10676892585000002,1.608321866526302,0.2507279770695832,-1.336110797930423, ,0.14897479051565274,0.11981937065463481,0.030869789767441865,0.002496344341920358,0.15478271375001945,-0.1271981712127313, ,1.8098130226135254
0.01906354096779505,0.01844733930301282,-0.09649676264903946, ,0.019862184019286522,0.018031877006602925,-0.09739456207139106, ,0.0012714100228520561, ,0.019788191404046217,-0.005905208838405699,-0.029135648811398854,0.015818071190975808,0.011777640660544044,-0.002703577381862013, ,0.0357117633578842, ,0.01972062880246929, ,0.0009629132769593338, ,0.2180050263064837,-0.18458876115971423,0.10683633293000001,1.608321866526302,0.2510012500691141,-1.3363336337378158, ,0.14667224352159317,0.11803102183889398,0.031110960000000003,0.0024786487190524113,0.1595222900967793,-0.13110266825511593, ,1.8142240047454834
0.01906354096779505,0.01844733930301282,-0.09649676264903946, ,0.019934783931513583,0.01801544806405802,-0.09750686389397994, ,0.0014021051562366075, ,0.019788191404046217,-0.005905208838405699,-0.029135648811398854,0.015818071190975808,0.011777640660544044,-0.002703577381862013, ,0.0357117633578842, ,0.01972062880246929, ,0.0009660281129825768, ,0.2180050263064837,-0.18458876115971423,0.10683633293000001,1.608321866526302,0.2510012500691141,-1.3363336337378158, ,0.14667224352159317,0.11803102183889398,0.031110960000000003,0.0024786487190524113,0.1595222900967793,-0.13110266825511593, ,1.8179540634155273
0.019420634871944235,0.01835761129454496,-0.0970530112673503, ,0.020007180309324586,0.017999188426304536,-0.09761877051276076, ,0.0008902730066427983, ,0.018421748482781154,-0.003979099196825648,-0.029034569331005036,0.01801587375025592,0.0047747717697277335,-0.002573212724749631, ,0.03461502944990754, ,0.018637315223663218, ,0.0009654946263182121, ,0.22059214181934889,-0.18258085061241586,0.10743133004000001,1.608321866526302,0.25414388956371925,-1.338814566782693, ,0.12946376747403926,0.09723047290826925,0.031110960000000003,0.0023391448640156646,0.13502957228778928,-0.11288361696196306, ,1.821531057357788
0.019420634871944235,0.01835761129454496,-0.0970530112673503, ,0.0200793723406507,0.017983099013404474,-0.09773028235192398, ,0.0010163122666791216, ,0.018421748482781154,-0.003979099196825648,-0.029034569331005036,0.01801587375025592,0.0047747717697277335,-0.002573212724749631, ,0.03461502944990754, ,0.018637315223663218, ,0.000965849994432624, ,0.22059214181934889,-0.18258085061241586,0.10743133004000001,1.608321866526302,0.25414388956371925,-1.338814566782693, ,0.12946376747403926,0.09723047290826925,0.031110960000000003,0.0023391448640156646,0.13502957228778928,-0.11288361696196306, ,1.8251111507415771
0.019420634871944235,0.01835761129454496,-0.0970530112673503, ,0.02015135922190856,0.01796718073866575,-0.09784139983714693, ,0.001143656693059989, ,0.018421748482781154,-0.003979099196825648,-0.029034569331005036,0.01801587375025592,0.0047747717697277335,-0.002573212724749631, ,0.03461502944990754, ,0.018637315223663218, ,0.0009670847631730919, ,0.22059214181934889,-0.18258085061241586,0.10743133004000001,1.608321866526302,0.25414388956371925,-1.338814566782693, ,0.12946376747403926,0.09723047290826925,0.031110960000000003,0.0023391448640156646,0.13502957228778928,-0.11288361696196306, ,1.8287150859832764
0.019607542893980368,0.01831295200401737,-0.09733638627421244, ,0.02022314015798173,0.017951434508655252,-0.0979521233955897, ,0.000942755054900697, ,0.018804003231964836,-0.00474888055736504,-0.02821756164416616,-0.037973102944042283,-0.049968321972844974,-0.012311381282149692, ,0.034239935590450236, ,0.06275963558301849, ,0.000966916972081558, ,0.22188956094221862,-0.18157689533876667,0.10773466190000001,1.608321866526302,0.25510034506207735,-1.339594492108568, ,0.12928738631944245,0.1027023177039727,0.030168203636363643,0.0022684621568111844,0.07966267668545642,-0.06201107484668645, ,1.8322551250457764
0.019607542893980368,0.01831295200401737,-0.09733638627421244, ,0.020294714362202634,0.017935861223211468,-0.09806245345589211, ,0.0010684454295937663, ,0.018804003231964836,-0.00474888055736504,-0.02821756164416616,-0.037973102944042283,-0.049968321972844974,-0.012311381282149692, ,0.034239935590450236, ,0.06275963558301849, ,0.0009676123724754773, ,0.22188956094221862,-0.18157689533876667,0.10773466190000001,1.608321866526302,0.25510034506207735,-1.339594492108568, ,0.12928738631944245,0.1027023177039727,0.030168203636363643,0.0022684621568111844,0.07966267668545642,-0.06201107484668645, ,1.835832118988037
0.019607542893980368,0.01831295200401737,-0.09733638627421244, ,0.02036608105633437,0.01792046177545753,-0.09817239044816957, ,0.001195128320364002, ,0.018804003231964836,-0.00474888055736504,-0.02821756164416616,-0.037973102944042283,-0.049968321972844974,-0.012311381282149692, ,0.034239935590450236, ,0.06275963558301849, ,0.0009691601000121339, ,0.22188956094221862,-0.18157689533876667,0.10773466190000001,1.608321866526302,0.25510034506207735,-1.339594492108568, ,0.12928738631944245,0.1027023177039727,0.030168203636363643,0.0022684621568111844,0.07966267668545642,-0.06201107484668645, ,1.842656135559082
0.019793255206479086,0.018269902481415908,-0.09762315774256287, ,0.02043723947055235,0.017905237051813967,-0.09828193480400968, ,0.0009907995885189086, ,0.0182090360950019,-0.0037805030219497725,-0.028775094607606584,0.001451650964231137,-0.008352037433959897,-0.0046600700586783474, ,0.034261746427827686, ,0.008476089415911594, ,0.000969306312772315, ,0.2231715345993399,-0.18058838553086592,0.10804188263000002,1.608321866526302,0.2561934370602008,-1.3404858353381393, ,0.12470031742243204,0.09358672737521774,0.030869789767441865,0.002202450854537063,0.11702773691097992,-0.09266804064302091, ,1.8470251560211182
0.019978097693195997,0.018234751394141567,-0.09790896224461124, ,0.020508188843426017,0.017890187932011945,-0.09839108695646911, ,0.0007950879478214839, ,0.016912981695997018,-0.003249740904033692,-0.024776609513997558,-0.04425805695659393,-0.06922832857055733,-0.012979875274366422, ,0.030174329235321772, ,0.08216646362843341, ,0.0009681370620008328, ,0.22441489459209002,-0.17968482578458167,0.10834910336,1.608321866526302,0.2570132560587935,-1.3411543427603179, ,0.11378530162886184,0.08035304111640201,0.026726193825503362,0.0021380139160396845,0.04459514664804533,-0.033775589675582585, ,1.8506669998168945
0.019978097693195997,0.018234751394141567,-0.09790896224461124, ,0.020578928421900823,0.017875315289105347,-0.09849984734006853, ,0.0009161534119311877, ,0.016912981695997018,-0.003249740904033692,-0.024776609513997558,-0.04425805695659393,-0.06922832857055733,-0.012979875274366422, ,0.030174329235321772, ,0.08216646362843341, ,0.0009677905043337019, ,0.22441489459209002,-0.17968482578458167,0.10834910336,1.608321866526302,0.2570132560587935,-1.3411543427603179, ,0.11378530162886184,0.08035304111640201,0.026726193825503362,0.0021380139160396845,0.04459514664804533,-0.033775589675582585, ,1.8542530536651611
0.019978097693195997,0.018234751394141567,-0.09790896224461124, ,0.020649457461279722,0.017860619989484336,-0.09860821639079054, ,0.0010390642940170589, ,0.016912981695997018,-0.003249740904033692,-0.024776609513997558,-0.04425805695659393,-0.06922832857055733,-0.012979875274366422, ,0.030174329235321772, ,0.08216646362843341, ,0.0009682625161859096, ,0.22441489459209002,-0.17968482578458167,0.10834910336,1.608321866526302,0.2570132560587935,-1.3411543427603179, ,0.11378530162886184,0.08035304111640201,0.026726193825503362,0.0021380139160396845,0.04459514664804533,-0.033775589675582585, ,1.8578791618347168
0.020136379700544545,0.018201586605692887,-0.09813774936292739, ,0.020719775225205152,0.01784610289288783,-0.09871619454607518, ,0.0008951635817941708, ,0.01591548206560269,-0.0034919983159368917,-0.023404353753812602,0.011155634986054968,-0.0013304531783667338,-0.002629358390309491, ,0.02851772074084163, ,0.011234379165713676, ,0.0009677816021438587, ,0.22551924539310414,-0.1789125524971592,0.10859669475000001,1.608321866526302,0.2578330750573861,-1.3417411714423557, ,0.11243713454795115,0.07981239828298636,0.025324024674085854,0.0020803818989363347,0.11173690791038912,-0.08890477552607463, ,1.8615140914916992
0.020136379700544545,0.018201586605692887,-0.09813774936292739, ,0.020789880985640583,0.01783176485241646,-0.09882378224481683, ,0.0010170905435860432, ,0.01591548206560269,-0.0034919983159368917,-0.023404353753812602,0.011155634986054968,-0.0013304531783667338,-0.002629358390309491, ,0.02851772074084163, ,0.011234379165713676, ,0.0009681038828068795, ,0.22551924539310414,-0.1789125524971592,0.10859669475000001,1.608321866526302,0.2578330750573861,-1.3417411714423557, ,0.11243713454795115,0.07981239828298636,0.025324024674085854,0.0020803818989363347,0.11173690791038912,-0.08890477552607463, ,1.8651659488677979
0.020136379700544545,0.018201586605692887,-0.09813774936292739, ,0.020859774022852495,0.017817606714545707,-0.09893097992735975, ,0.0011401555291724234, ,0.01591548206560269,-0.0034919983159368917,-0.023404353753812602,0.011155634986054968,-0.0013304531783667338,-0.002629358390309491, ,0.02851772074084163, ,0.011234379165713676, ,0.0009692211012897726, ,0.22551924539310414,-0.1789125524971592,0.10859669475000001,1.608321866526302,0.2578330750573861,-1.3417411714423557, ,0.11243713454795115,0.07981239828298636,0.025324024674085854,0.0020803818989363347,0.11173690791038912,-0.08890477552607463, ,1.8687491416931152
0.020288694155246756,0.018169423418484706,-0.09838366651230114, ,0.02092945362539188,0.017803629319138096,-0.09903778803549529, ,0.0009860288985639783, ,0.015660981576419934,-0.002762019073654496,-0.0268171260755082,0.04808487564974975,0.04868728864904334,0.004210103996526238, ,0.031177770033308953, ,0.06842947809778721, ,0.0009693295386915417, ,0.22656953706399866,-0.17812483374398833,0.10886113791000002,1.608321866526302,0.25919944005504053,-1.3428553504793201, ,0.10555833321298196,0.0782332576739248,0.028804360795660042,0.0020261121543731745,0.15524035079949944,-0.12445267420880478, ,1.8723249435424805
0.020288694155246756,0.018169423418484706,-0.09838366651230114, ,0.02099891909007633,0.017789833499456703,-0.09914420701245828, ,0.001107668640460961, ,0.015660981576419934,-0.002762019073654496,-0.0268171260755082,0.04808487564974975,0.04868728864904334,0.004210103996526238, ,0.031177770033308953, ,0.06842947809778721, ,0.0009702163278054482, ,0.22656953706399866,-0.17812483374398833,0.10886113791000002,1.608321866526302,0.25919944005504053,-1.3428553504793201, ,0.10555833321298196,0.0782332576739248,0.028804360795660042,0.0020261121543731745,0.15524035079949944,-0.12445267420880478, ,1.875972032546997
0.020288694155246756,0.018169423418484706,-0.09838366651230114, ,0.02106816972197144,0.017776220082177774,-0.09925023730292289, ,0.0012300959141312781, ,0.015660981576419934,-0.002762019073654496,-0.0268171260755082,0.04808487564974975,0.04868728864904334,0.004210103996526238, ,0.031177770033308953, ,0.06842947809778721, ,0.0009718716117947848, ,0.22656953706399866,-0.17812483374398833,0.10886113791000002,1.608321866526302,0.25919944005504053,-1.3428553504793201, ,0.10555833321298196,0.0782332576739248,0.028804360795660042,0.0020261121543731745,0.15524035079949944,-0.12445267420880478, ,1.8797271251678467
0.02044486578823796,0.01814808277776342,-0.0986558926257049, ,0.02113720483437279,0.01776278988740313,-0.09935587935299824, ,0.0010572442407277066, ,0.015766152684443088,-0.0019604170880184674,-0.027178656312324773,0.056025072555438385,0.04978547792607263,0.0058108212257370565, ,0.03148164805996723, ,0.07494923440043941, ,0.000972411944889297, ,0.22760438326914476,-0.17739889685381122,0.10915409945000001,1.608321866526302,0.26070244155246036,-1.3440809474199806, ,0.10520725228211839,0.07076580280273734,0.02933482784530387,0.001973555268719284,0.15597344705650174,-0.12511835716101086, ,1.884484052658081
0.02044486578823796,0.01814808277776342,-0.0986558926257049, ,0.021206023748787658,0.017749543728674412,-0.09946113361022764, ,0.0011775431447348737, ,0.015766152684443088,-0.0019604170880184674,-0.027178656312324773,0.056025072555438385,0.04978547792607263,0.0058108212257370565, ,0.03148164805996723, ,0.07494923440043941, ,0.000973702078221659, ,0.22760438326914476,-0.17739889685381122,0.10915409945000001,1.608321866526302,0.26070244155246036,-1.3440809474199806, ,0.10520725228211839,0.07076580280273734,0.02933482784530387,0.001973555268719284,0.15597344705650174,-0.12511835716101086, ,1.888066053390503
0.020609398000937224,0.01812906166333533,-0.0989422244265527, ,0.021274625794916693,0.017736482412984044,-0.09956600052358132, ,0.0009928459623292124, ,0.015551644146721312,-0.0016580103637420444,-0.02698533057767088,0.01624627404119524,0.006446680520118913,-0.0009702510920654888, ,0.031189913440384957, ,0.01747818068279488, ,0.0009738217274973312, ,0.22867012040578774,-0.1766729599636341,0.10946261647000001,1.608321866526302,0.2620688065501148,-1.3451134477168043, ,0.09854303380941928,0.06692308995660845,0.029067174306569344,0.0019197114308365105,0.10556592297348373,-0.08140061792529923, ,1.8916170597076416
0.020609398000937224,0.01812906166333533,-0.0989422244265527, ,0.021343010310635856,0.017723606740789197,-0.09967048054345537, ,0.0011103772723558426, ,0.015551644146721312,-0.0016580103637420444,-0.02698533057767088,0.01624627404119524,0.006446680520118913,-0.0009702510920654888, ,0.031189913440384957, ,0.01747818068279488, ,0.000974669898583409, ,0.22867012040578774,-0.1766729599636341,0.10946261647000001,1.608321866526302,0.2620688065501148,-1.3451134477168043, ,0.09854303380941928,0.06692308995660845,0.029067174306569344,0.0019197114308365105,0.10556592297348373,-0.08140061792529923, ,1.8952059745788574
0.020609398000937224,0.01812906166333533,-0.0989422244265527, ,0.021411176641977878,0.017710917506024878,-0.09977457412166697, ,0.0012290238160746442, ,0.015551644146721312,-0.0016580103637420444,-0.02698533057767088,0.01624627404119524,0.006446680520118913,-0.0009702510920654888, ,0.031189913440384957, ,0.01747818068279488, ,0.0009762399844938487, ,0.22867012040578774,-0.1766729599636341,0.10946261647000001,1.608321866526302,0.2620688065501148,-1.3451134477168043, ,0.09854303380941928,0.06692308995660845,0.029067174306569344,0.0019197114308365105,0.10556592297348373,-0.08140061792529923, ,1.8987939357757568
