NicholasDascanio/dvrk_moveit_final/test/execution/third_experiment_notsharpbends/thirdexp_300vel3.0/thirdexp_300vel3.0_27.csv
Current Position (x),Current Position (y),Current Position (z), ,Planned Position (x),Planned Position (y),Planned Position (z), ,Position Error,,Cartesian linear Velocity(x),Cartesian linear Velocity(y),Cartesian linear Velocity(z),Cartesian Angular Velocity(x),Cartesian Angular Velocity(y),Cartesian Angular Velocity(z), ,Total Linear Velocity, ,Total Angular Velocity, ,MSE, ,Joint 1 Position,Joint 2 Position,Joint 3 Position,Joint 4 Position,Joint 5 Position,Joint 6 Position, ,Joint 1 Velocity,Joint 2 Velocity,Joint 3 Velocity,Joint 4 Velocity,Joint 5 Velocity,Joint 6 Velocity, ,Time Stamp
0.008448662547048184,0.021027005352766234,-0.07883130577880616, ,0.008638417894522979,0.020941188898166582,-0.07894804086750218, ,0.0002387438726087039, ,0.0005608716988139046,9.323473335397472e-05,-0.001222042075465732,0.22236495950616295,-0.0022923940430832333,-0.15048669138418908, ,0.001347834044770563, ,0.22237677551089619, ,1.9895322717391992e-05, ,0.18329134203684452,-0.2433046992024432,0.09073900371000002,1.792010257018745,0.7515007487099225,-1.248259068623892, ,0.0041951251525333575,0.0025018886104342312,0.0012597708257513383,-0.002122532867020257,0.0,-0.27173909810402863, ,0.035771846771240234
0.008482679213300467,0.021025194841057172,-0.07886715799406205, ,0.008728264128347402,0.0209305536717165,-0.07908748394176207, ,0.0003432381456987161, ,0.001317291906807122,-3.071953267942197e-05,-0.0019062026116311629,0.04273169015402223,-0.09537716169928222,-0.0682776228377725, ,0.002317285061017969, ,0.10451220176230724, ,2.6453728104882727e-05, ,0.18340718302995787,-0.24321202640795248,0.09076104064000001,1.792010257018745,0.7487680187146137,-1.2546069782647224, ,0.004075422328965407,0.004639671572677374,0.0014165128478628097,-0.002023544796442952,-0.0965551983480486,-0.07749963158614392, ,0.07344388961791992
0.00853233098172687,0.021022940271419457,-0.07894926754987555, ,0.00881802407895791,0.020919745497870637,-0.07922666420242222, ,0.0004113618965550339, ,0.002455108971282723,-8.003165724008653e-05,-0.003145030417984751,-0.06093775358152225,-0.15845983229760535,-0.028544082395502657, ,0.003990636723266457, ,0.16977316708785237, ,3.104199733945168e-05, ,0.18366203321480729,-0.2429957898874742,0.09083233659,1.7915908771317761,0.7465818347183666,-1.260420414638652, ,0.010300533674668258,0.008510140246714832,0.0023770797671989257,0.0019334942816165458,-0.1566903463300943,0.031136468483160873, ,0.10868000984191895
0.008601418783974576,0.0210269054879687,-0.07908759324772993, ,0.008907696246027937,0.020908767018923313,-0.07936558171002805, ,0.0004301629537757884, ,0.0013612464368332642,-0.00047387114153511696,-0.0025236374735250404,0.046531214720082,0.0932893973805981,0.0004376312026546031, ,0.0029062504741248474, ,0.1042500149010021, ,3.389302068186291e-05, ,0.1842335154474999,-0.24260965324376296,0.09097622478,1.7915908771317761,0.7469917442176629,-1.256098980161729, ,0.020833576631936506,0.015506036202364504,0.003133125790715972,0.0019334942816165458,0.11962559626148475,-0.04907118300084884, ,0.14469599723815918
0.008711653479200554,0.021028446066770144,-0.07928063902150348, ,0.0089972791386967,0.020897620866780632,-0.07950423652557775, ,0.0003856074352799094, ,0.002591069501834564,-0.0002675545483811161,-0.0040971621823727095,0.015553944689041272,-0.015211564503274311,-0.022641108744742244, ,0.004855096759938131, ,0.021755847234076458, ,3.4790659690733684e-05, ,0.18522974798827488,-0.24201500281244767,0.09117974231,1.7915908771317761,0.747948199716021,-1.2572056204481665, ,0.02312303644212251,0.016152670903569494,0.00419842159198735,0.0019334942816165458,0.007593010704880518,-0.03580033302520385, ,0.1802349090576172
0.008790423007302844,0.02101421561367793,-0.07937039768481882, ,0.00908677127555228,0.020886309662975184,-0.07964262871052505, ,0.00042224632582969475, ,0.0029494781407007446,-0.0004784784969095259,-0.002883079885531945,-0.021478585044303482,-0.030250703655427362,0.0034887046576670415, ,0.004152169625730048, ,0.03710033270679208, ,3.598968757657816e-05, ,0.18600202127569732,-0.24154391610711998,0.0912717789,1.7918005670752608,0.7480848362157865,-1.2577254320525657, ,0.029738934991686238,0.014795282438177544,0.0029717931940298516,-0.0019174552349443146,0.0,0.00792489942048679, ,0.21625781059265137
0.008901614500142908,0.02100426579783496,-0.07952552216311512, ,0.009176171184614057,0.02087483601868251,-0.0797807583267789, ,0.00039658408939472926, ,0.0027563922679727745,-1.645864633909929e-05,-0.00460863709710012,-0.0027597448916370695,-0.00674920840907023,-0.0025321109083012005, ,0.00537005634185963, ,0.007291639317529536, ,3.649923221031355e-05, ,0.18706003567946608,-0.2409492656758047,0.09143381515000001,1.7915908771317761,0.7486313822148483,-1.2582527824074918, ,0.024770801764153166,0.014628787044623214,0.0048445290510948915,-0.0006928153722213379,0.01912312339679226,-0.010153653914910899, ,0.2528409957885742
0.008987710516278172,0.02099812451760366,-0.07964252788829308, ,0.00926547740331564,0.020863202534734906,-0.07991862543670525, ,0.0004142321103378279, ,0.002613448860047451,-0.0004505881638009435,-0.0030372453832495762,0.009123879577314658,0.0030258073340852,-0.005959684440243453, ,0.004032121545230462, ,0.009612527675168465, ,3.755773863556054e-05, ,0.18790181356275654,-0.24050134716909968,0.09155825899000002,1.7915908771317761,0.7493145647136754,-1.2588098719259742, ,0.02767481526931198,0.015345559760425417,0.0032822607706573257,-0.0006928153722213379,0.0324162646703938,-0.022531618988928248, ,0.28559088706970215
0.009071688721839284,0.020995597764144846,-0.0797738002892069, ,0.00935468847848736,0.02085141180163842,-0.08005623010312772, ,0.00042502359209592645, ,0.003182164612929864,0.0003607659239128674,-0.005997625195355433,-0.014584352518099773,-0.02384746359175402,0.002852331555804239, ,0.006799105210217155, ,0.027953619629157392, ,3.852444912862589e-05, ,0.18866636411730478,-0.2400920423267658,0.09169566573000001,1.791171497244807,0.7497244742129717,-1.2591441256370632, ,0.025278886936193606,0.013693642360529694,0.006236809522317934,-0.004398794801748729,0.0026203898142042547,0.0009377868446315688, ,0.31757187843322754
0.0091538033568726,0.02100032676419908,-0.07993207747130146, ,0.009443802966339173,0.020839466399586705,-0.08019357238932832, ,0.0004223214682535891, ,0.002648443352184615,-0.0003151360444392079,-0.003785041040418578,0.004562989189177667,-0.0014406245258369698,-0.0021848203933332896, ,0.004630345407622268, ,0.004785004554660006, ,3.9288099897271906e-05, ,0.18934596461023653,-0.2396595692858092,0.09186159085000001,1.791171497244807,0.7502710202120335,-1.259589797251849, ,0.025773205203278318,0.015460563955436752,0.0040133060015117164,-0.004398794801748729,0.026638824200298204,-0.019203334226590693, ,0.35001587867736816
0.009233223425262744,0.02098827683957291,-0.08004039921564461, ,0.009532819432443215,0.020827368898477448,-0.08033065235904903, ,0.00044709732752747165, ,0.002541951609596272,-0.00027433995290625495,-0.004773766411307628,0.008954705595014191,0.00877057295512465,-0.004282462690417396, ,0.005415314039371917, ,0.012534340819340089, ,4.015388164219806e-05, ,0.1903421971510115,-0.2389954142586259,0.09202233081000001,1.791171497244807,0.7510908392106261,-1.2602583046740274, ,0.022637629188566502,0.0178210218889147,0.005010635898081159,-0.004398794801748729,0.03405525221229376,-0.025739806934311462, ,0.3825650215148926
0.009342610596094154,0.020978035232864817,-0.08022751471019869, ,0.00962173645171657,0.020815121857926826,-0.08046747007649192, ,0.0004025302334279385, ,0.002635823569242565,-0.0006046493156149538,-0.0037737745116113697,-0.010131091014142198,-0.013842925459451953,-0.00012802247549795513, ,0.004642686802653812, ,0.017154171202579015, ,4.050555086141307e-05, ,0.19106041130831436,-0.2384934366218013,0.09216881158000001,1.7909618073013225,0.7515007487099225,-1.2605925583851167, ,0.024295171929972034,0.018440913633593233,0.00385126003868472,-0.00484200929653636,0.012175534775211175,-0.008149500719761614, ,0.4146699905395508
0.009427159170937147,0.020962573741982193,-0.08034212965374336, ,0.009710552608403783,0.020802727827285514,-0.08060402560632002, ,0.0004176745704737206, ,0.0029036925269680333,-0.0004995578868557094,-0.0038860042073470794,-0.015757219230997654,-0.025462920658784225,0.00040125626789858684, ,0.004876680948453461, ,0.029944119380657937, ,4.0927174771897214e-05, ,0.1918635755272337,-0.2379528453206056,0.09228807026000001,1.7909618073013225,0.7520472947089842,-1.2608748725196213, ,0.02639692393837852,0.017431473467757305,0.003961405501119125,-0.004595774571348756,0.0021130616475987037,-0.002214843602158613, ,0.44770288467407227
0.009512313358086442,0.020951215708620487,-0.08048078156858364, ,0.009799266496059836,0.020790189345653923,-0.08074031901365913, ,0.0004190838559994086, ,0.0028405850268618583,-0.00022818840781271208,-0.004751469602271252,0.010713272722207972,0.006067138776253974,-0.0017194063036253026, ,0.005540528551104092, ,0.012311960970086024, ,4.130302131302561e-05, ,0.1926435715475304,-0.2374199767522841,0.09243325474000001,1.7905424274143533,0.7528671137075769,-1.261706737422081, ,0.026229115964198666,0.01696405819779599,0.005051954176974311,-0.0073652130390423785,0.03569539913920615,-0.02719654969513927, ,0.48055291175842285
0.009599221970665716,0.020941682548768457,-0.08060577474813968, ,0.00988787671753243,0.02077750894189708,-0.08087635036409761, ,0.00042835230830807754, ,0.0028595687802574253,-0.00037771491915765816,-0.0037163486739187853,-0.008356841560440592,-0.0176246195334041,0.0020041631751860542, ,0.004704364955582754, ,0.01950548676282294, ,4.1987833465500246e-05, ,0.19342356756782708,-0.23692572184833374,0.09256288374,1.7905424274143533,0.7531403867071077,-1.2619295732294737, ,0.027113411873848796,0.01535300785608652,0.003885075980487805,-0.006315479056628831,0.011230563773157964,-0.007287368052260797, ,0.508720874786377
0.00969082135158049,0.020930969302067608,-0.08074277630349559, ,0.00997638188494487,0.020764689134660494,-0.08101211972368735, ,0.00042630950058482564, ,0.003215639243630896,-0.00012870705213899358,-0.0053275764456384,-0.0020954934777434983,-0.00644337920173968,-0.004999267988043902, ,0.006224144281310523, ,0.006775560800464292, ,4.258655421292292e-05, ,0.19426534545111754,-0.23639285328001225,0.09270677193000001,1.790332737470869,0.753823569205935,-1.2624049840078153, ,0.028034546989208504,0.017764309539212052,0.0056067622386483645,0.0,0.02266882132657278,-0.013781115851479508, ,0.5371780395507812
0.009779109765864135,0.020922575416367897,-0.08088054065552129, ,0.010064780619678701,0.020751732432385216,-0.08114762715894502, ,0.0004267673396669026, ,0.0028111963522175812,-0.00023557690788009755,-0.0046232119902031455,0.025083495488292272,0.01713189677134648,-0.004954152182309372, ,0.0054159404092554335, ,0.030375707905876508, ,4.312790582275638e-05, ,0.19508395513578533,-0.23588315291031342,0.09285325270000001,1.7901230475273844,0.7547800247042931,-1.26310323059355, ,0.02691348314193726,0.016613610216819116,0.0050043391517436385,-0.00891467044838522,0.048341588531144605,-0.04183427398160176, ,0.5657548904418945
0.009878522693866184,0.020914632797856096,-0.08102969105617128, ,0.0101530715523563,0.020738641333323666,-0.08128287273685217, ,0.00041285716018847976, ,0.0033230509765423658,-0.0005277079242065269,-0.004030841044709481,-0.016469215669627047,-0.031784537344308035,0.00039270966847813237, ,0.005250602153437656, ,0.03579793119581509, ,4.353409692219607e-05, ,0.19594117848482426,-0.23535800707486615,0.09300751121,1.7899133575839,0.7549166612040585,-1.2630512910169651, ,0.030493875822130714,0.01795250502430397,0.00414596864133264,-0.005600740517874235,0.0,-0.002637299184713858, ,0.5982809066772461
0.009961287423762623,0.02089991755019752,-0.08114081013312426, ,0.010241253322823392,0.020725418325554038,-0.08141785652485689, ,0.0004307964568217268, ,0.0026319368967905677,-0.00036782039046741837,-0.003595187063885953,0.003877845631654747,-0.0042177796683299075,-0.002396351480343639, ,0.00447076656655926, ,0.0057295158148739185, ,4.400566081616269e-05, ,0.1967366199708694,-0.23484058397229313,0.09312547360000001,1.7899133575839,0.755736480202651,-1.263801477179284, ,0.024946619757747313,0.015029607468874053,0.0038189430640134265,-0.005064335968390097,0.022963665496578536,-0.018824973841774225, ,0.6319549083709717
0.010050390658100847,0.0208867651809397,-0.08127648530321, ,0.010329324580131928,0.020712065886996714,-0.0815525785908734, ,0.0004295945526384265, ,0.0031342683720113457,-0.0002583525949916504,-0.004653860337656195,-0.004290910883968,-0.014686323585346914,0.004080168573530223, ,0.005616831876915937, ,0.015300327267238659, ,4.4429427297633316e-05, ,0.19753206145691452,-0.23430771540397163,0.09326676921,1.7894939776969307,0.7562830262017128,-1.2643288275342104, ,0.027927292983658262,0.016288524126067763,0.004892141130221131,-0.010633344044836672,0.01646481515169834,-0.013110885718839265, ,0.6601958274841309
0.010137155684874003,0.020882511445870593,-0.08141761259972606, ,0.010417283982522455,0.02069858648542907,-0.08168703900328374, ,0.00042998935004353266, ,0.003157992131986151,-0.00029994185700579746,-0.0049814947731715645,-0.02006752183107475,-0.02800854991802354,0.005638491537177427, ,0.00590577425901178, ,0.03445554088798317, ,4.4819762018379216e-05, ,0.19826572107996585,-0.23383662869864394,0.09341454627000001,1.7894939776969307,0.7566929357010093,-1.2647447599854402, ,0.02599204096370057,0.0175054310198249,0.005108663091725466,-0.00866639771083178,0.0,0.0014910197930742967, ,0.6900548934936523
0.010226991344456014,0.02087875046725922,-0.08158124062314356, ,0.010505130197406884,0.02068498257850089,-0.08182123783093807, ,0.00041533826693894546, ,0.003056995795911642,1.2237354594729947e-05,-0.005559032894561675,0.00687588761397069,0.003089287488654036,-0.007224018160242913, ,0.006344148467043287, ,0.007538005197577916, ,4.510508950979586e-05, ,0.19901482616876562,-0.2333192055960709,0.09358695284000002,1.7892842877534463,0.7575127546996018,-1.2652499099273378, ,0.025503074861185374,0.016486612501471647,0.0059061221802002226,0.0,0.02997597410567994,-0.021572855355030673, ,0.7189738750457764
0.010288110247526187,0.020870201843878174,-0.0816714237204482, ,0.010592861901351051,0.020671256613749966,-0.08195517514315502, ,0.000461484176313667, ,0.0030852276981459263,-0.0006263432730055637,-0.0038463058679359544,-0.002818937672738385,-0.014251481547856694,0.0009810919022635622, ,0.004970412927993477, ,0.014527599081398957, ,4.581260674156817e-05, ,0.19956314020283555,-0.23296395988385657,0.09368158201000001,1.7890745978099616,0.7579226641988982,-1.2655024848982863, ,0.029109491275604533,0.018270493176447977,0.004032610511392406,-0.009523420438825954,0.017856544947982552,-0.016691957665091448, ,0.7437999248504639
0.010375061183363506,0.02085908815283112,-0.08181452466009041, ,0.010680477780057306,0.020657411028617068,-0.08208885100972328, ,0.00045739250766728683, ,0.003774082383025054,-0.0004905733557444051,-0.005728267505990415,-0.011343271208247427,-0.01982301100961898,0.0023440522272675794, ,0.006877311151272134, ,0.022839035903989613, ,4.645441078136305e-05, ,0.20035085895600646,-0.23240020038403816,0.09383454423000001,1.7890745978099616,0.7591523926967871,-1.2664235672914137, ,0.03247670826778603,0.02196180086981504,0.005954695895327104,-0.009250726455394868,0.015495049596511984,-0.01123468413423799, ,0.7703590393066406
0.010465461398453913,0.020841609512520325,-0.08195064304689045, ,0.010767976528347009,0.020643448250461827,-0.08222226550090098, ,0.0004522853602733039, ,0.0026939960610505476,-0.0006197404212752328,-0.004314510960709865,0.03874883989970457,0.050817410775949826,-0.009358274590804457, ,0.005124128979329446, ,0.06390525666992897, ,4.703215843956197e-05, ,0.20120035957217114,-0.2318132726855971,0.09397972871000002,1.7886552179229929,0.7603821211946761,-1.2673446496845409, ,0.028150976433838855,0.020692747832200344,0.004823988952150212,-0.0031345708192658957,0.08351989163458702,-0.054756941966579195, ,0.7963879108428955
0.010536270418948529,0.0208313814037869,-0.08206887940471509, ,0.01085535685014343,0.020629370696577633,-0.08235541868741765, ,0.0004740561537746159, ,0.004225912821705365,-0.00039985540422875524,-0.006304842109951151,-0.030487779867372146,-0.02250687931121242,0.016862928579265316, ,0.007600609025095162, ,0.037895439403815616, ,4.7670180662899784e-05, ,0.201779564537738,-0.2313653541788921,0.09410157997000002,1.7884455279795082,0.7606553941942069,-1.267159091791231, ,0.03640082146469918,0.02238663400766001,0.006606723981750311,-0.011183712723427813,0.017385789355824313,0.011108710607741651, ,0.8212599754333496
0.010639982799103352,0.020814300338520705,-0.08221590648958615, ,0.01094261745845387,0.020615180774207657,-0.08248831064047377, ,0.00045325529158877267, ,0.0032319987155120275,-0.0005996011894164366,-0.004832046578015971,0.01775473643951933,0.0031943295212966717,-0.00808073324136691, ,0.005844143343171593, ,0.018039800566890467, ,4.818113804302147e-05, ,0.20273718341414182,-0.23072436735033144,0.09425843106000001,1.7884455279795082,0.7617484861923306,-1.26772372006024, ,0.029507755459723495,0.020742500887097438,0.005128400360592403,-0.00931790718217746,0.03640177514241538,-0.04054298767767911, ,0.8462579250335693
0.010712822892330165,0.020804844149684178,-0.08232950875420893, ,0.011029757075352685,0.02060088088055923,-0.08262094143174233, ,0.0004764255419838167, ,0.004193235362719858,-0.00030491185862168834,-0.006023202815071419,-0.015316845684541803,-0.035128698290003604,-0.0067359205517442695, ,0.0073454180412129534, ,0.03832272429442676, ,4.875855536950556e-05, ,0.20334727931120555,-0.2302996170422491,0.09437639345000001,1.7882358380360237,0.7620217591918613,-1.2679465558676328, ,0.034927103996492743,0.02087023126423373,0.006261325283018869,-0.0010410340258011105,0.0,-0.00638248781589817, ,0.8719429969787598
0.0108182660854881,0.02078977239712414,-0.08248737876570704, ,0.011116774431963568,0.020586473402820327,-0.08275331113336817, ,0.0004485061183198258, ,0.0033900316667150225,-0.00033476748603516516,-0.00477787835180622,0.0063599881563866185,-0.009045568284070613,0.0022340228221206476, ,0.005867921737352626, ,0.011057655829392561, ,4.9190798235365585e-05, ,0.20432034365335786,-0.22968179841231115,0.09454620744000002,1.7878164581490545,0.7633881241895157,-1.2689790561644565, ,0.03054294868312545,0.01703409469726634,0.005105388307692308,-0.013785018995148194,0.02574759808213379,-0.025754401147724346, ,0.9006710052490234
0.010898501450691444,0.02077692063271772,-0.08259884897910515, ,0.011203668268442202,0.0205719607181743,-0.08288541981797014, ,0.0004661096425880445, ,0.0035059590009354578,-0.000757484403072826,-0.0046916982103285525,-0.017742633333677385,-0.028075029643234686,-0.01340328085223012, ,0.005905722922211903, ,0.033211569141017104, ,4.986388820849886e-05, ,0.20500766687916383,-0.2292261571727319,0.09466157725,1.7876067682055703,0.7635247606892812,-1.2690904740681528, ,0.029701703148191167,0.02271892304488168,0.004787740162308387,0.007064265943048945,0.0,-0.0037126188185243264, ,0.9219110012054443
0.010967332520413535,0.02076488601512947,-0.08270011026073955, ,0.011290437333958906,0.020557345193815333,-0.08301726755864049, ,0.0004980548811725073, ,0.003458212282478731,-0.0006263673189589674,-0.005306419587601647,0.01812598960731006,0.012807518074771604,0.0014540283142415573, ,0.0063647197148522594, ,0.022194233806837542, ,5.0628778792812375e-05, ,0.20567182190634714,-0.22876279320027842,0.09477305819000001,1.7878164581490545,0.7648911256869357,-1.2702046531051172, ,0.03182325337306196,0.021875735721178142,0.005703119054779808,-0.01619643152239059,0.05053868423196781,-0.04121090822999457, ,0.944674015045166
0.011058366305815113,0.02075961772412702,-0.08284811549671779, ,0.01137708038668105,0.02054262918696403,-0.08314885442894585, ,0.0004889852717209614, ,0.004022059478585832,-0.0002105271740397135,-0.006803153115273751,-0.017926237545989238,-0.023188447108193105,-0.0005587446071229336, ,0.007905958287908571, ,0.029309623970150616, ,5.132506675884278e-05, ,0.2064132042622727,-0.22829170649495073,0.09492861299000001,1.7876067682055703,0.7653010351862319,-1.2702121918556442, ,0.03125722712729604,0.021528344273700265,0.007082619617607827,-0.0030783210461802425,0.009198685732696506,-0.0026826244694679274, ,0.9666879177093506
0.011153442305514958,0.02074610871149929,-0.08300707495186149, ,0.011463596193755653,0.02052781504488286,-0.08328018050292776, ,0.0004673694484012392, ,0.004045355647575749,-0.00043410607753226736,-0.006883956794881401,-0.006868811014167074,-0.010688489763789067,0.019945809785017154, ,0.007996387406555366, ,0.01270528876962803, ,5.191116619946109e-05, ,0.2072627048784374,-0.22771250152938388,0.09509972327,1.7869776983751167,0.7668040366836517,-1.2713561100561641, ,0.03322722043363823,0.022675493801307234,0.007237079291231259,-0.028665325461326368,0.030363898256336525,-0.019257447041517065, ,0.9879088401794434
0.011235540144660997,0.020742300227885348,-0.08314985354107668, ,0.011549983531292055,0.02051290510489119,-0.0834112458551036, ,0.00046885254364443694, ,0.003877891885740302,-8.599229093485643e-05,-0.0061829518107876635,-0.022177112278863386,-0.025402813755530194,-0.01834852323060663, ,0.007298926855785935, ,0.03372131739258422, ,5.247730125862537e-05, ,0.2078959689741238,-0.22728002848842732,0.09524879662,1.786768008431632,0.7670773096831827,-1.2713339096431355, ,0.029776260294468393,0.01980320149383781,0.006448911546558706,0.01962675369812863,0.0,0.008082247062283741, ,1.0106239318847656
0.011302246203501072,0.02072949097202305,-0.08324996371388099, ,0.011636241184344297,0.02049790169438097,-0.08354205056046579, ,0.0005005007159786076, ,0.003610797246468965,-0.0012126296309854967,-0.004757253280654721,0.007274263989473094,0.015280197074582875,0.00030816741911234436, ,0.006094242049127355, ,0.016923337046518105, ,5.3130952344635425e-05, ,0.20852923306981022,-0.22681666451597385,0.09535898127,1.7869776983751167,0.7684436746808371,-1.2722847311998184, ,0.03474805622792778,0.02737148588360853,0.005090703585810164,-0.010146758216580905,0.05475908952999842,-0.0324752173971582, ,1.0318098068237305
0.01138049742594683,0.02071290591456184,-0.0833645804888758, ,0.011722367946893714,0.020482807130832354,-0.08367259469448446, ,0.0005144838716840586, ,0.003989568509401935,-0.0005944520664297571,-0.005946643224505565,-0.037634835066928184,-0.03189572543421373,0.0048302791790789095, ,0.0071855824948331174, ,0.04933272852836434, ,5.380577357779489e-05, ,0.20919338809699353,-0.22631468687914927,0.09547823995000002,1.786768008431632,0.7688535841801334,-1.272373948690486, ,0.0317912702038428,0.023448713011729867,0.006119405117172494,0.0,0.0,0.01761001575005039, ,1.0540180206298828
0.01145227561142613,0.020699082154902446,-0.08347652680484627, ,0.011808362621831513,0.020467623721828428,-0.08380287833310615, ,0.0005356083319162277, ,0.003396320327513744,-0.000885593662662047,-0.0047262874561679125,0.02505009452348689,0.029024730429298175,0.0039097223652698136, ,0.005887024802118673, ,0.03833982537480768, ,5.4524603613097116e-05, ,0.20984209765842837,-0.22585904563957002,0.09559879492000001,1.7863486285446628,0.7699466761782569,-1.2731836131799168, ,0.03337915636949376,0.023072438988201018,0.005203793374714146,-0.017947150538588506,0.06945590161477036,-0.047811229168521346, ,1.0756678581237793
0.011533457813137011,0.020685404260738834,-0.08359256745322846, ,0.011894224020941263,0.02045235376507116,-0.08393290155275476, ,0.000547989132670337, ,0.004413477298675031,-0.0007241618798504038,-0.006527469369481868,-0.018627213355343834,-0.02601839319757551,0.0078124854875961675, ,0.007912714367628363, ,0.03199890388933632, ,5.543944120314645e-05, ,0.21052942088423435,-0.22537251346849388,0.09572064618000001,1.7863486285446628,0.7703565856775533,-1.2734361881508656, ,0.03640082146469918,0.025578690447027166,0.006795568054607509,-0.014812387022904246,0.014327285500662078,-0.008460104268641244, ,1.0939908027648926
0.011621342978984643,0.02067692527808993,-0.08373390377731488, ,0.011979950964881417,0.020436999548396756,-0.08406266443033297, ,0.0005424459514925213, ,0.00390887159480723,-0.00024316061919354965,-0.007224921555632618,0.05785536728825364,0.05890252419363915,-0.01126234127918101, ,0.008218144298834272, ,0.08256361705227433, ,5.630626716875688e-05, ,0.2112708032401599,-0.22487053583166927,0.09587231211000001,1.7863486285446628,0.7713130411759113,-1.2742161134767405, ,0.03519916229913605,0.023196514680633287,0.00802863483870968,-0.011964342124007467,0.10112378268190195,-0.07963179406484847, ,1.1117749214172363
0.011708669476874843,0.02067075968036437,-0.08389315484694194, ,0.012065542283167934,0.020421563349791005,-0.08419216704322129, ,0.0005280769873479913, ,0.0048194483903130966,-0.00029544488376953483,-0.008332862421151546,-0.018148055483777945,-0.02073952282415461,0.007437838804072582, ,0.009630730325166243, ,0.027558658977524818, ,5.7099018459767186e-05, ,0.21197357193171434,-0.22439944912634158,0.09603953352000001,1.7857195587142094,0.7725427696738003,-1.274892159649446, ,0.036597355016764664,0.025421093372212905,0.0087185613136289,-0.012480066684229754,0.020024079000032797,-0.007314283390669345, ,1.1297879219055176
0.011809051416103892,0.02066230290863451,-0.0840570700928883, ,0.012150996814156639,0.02040604743740457,-0.08432140946927967, ,0.0005024627624965898, ,0.004728873972482484,-0.00047105069640031923,-0.007543326515435965,0.007233684842037683,0.021555535942801813,0.006144657231907001, ,0.00891548723989221, ,0.022736914956771808, ,5.7785625011025895e-05, ,0.21279218161638214,-0.2238356896265232,0.09621712525000001,1.7857195587142094,0.7732259521726275,-1.2750408554672252, ,0.04106315082582033,0.026279961661166095,0.00820649743431221,-0.010588162263759535,0.0680124752134092,-0.028808722432751024, ,1.148453950881958
0.011852972075198264,0.020658206828871328,-0.08412802752404928, ,0.012236313405025859,0.020390454069568544,-0.08445039178684756, ,0.0005679443926985442, ,0.004593693542605181,-0.00040223949827177365,-0.0075667125078664995,0.04195175054922204,0.038887002225163586,-0.011030581892633912, ,0.00886109220999566, ,0.05720269479141, ,5.865483456754744e-05, ,0.2131937637258418,-0.22358083944167378,0.09629619894000001,1.7857195587142094,0.7741824076709856,-1.275657423312819, ,0.04064108846187185,0.025808251715656996,0.008330968368200839,-0.009530531545239843,0.08525713385013554,-0.0662709640029617, ,1.1662209033966064
0.011943219454971826,0.02064128437597735,-0.08426657717233495, ,0.012321490911758888,0.020374785494809894,-0.08457911407474412, ,0.0005583818263973458, ,0.004539480449168332,-0.0011387065309720645,-0.005818572233329974,-0.02387924544211992,-0.031428606232436415,0.009682321144269554, ,0.007467216224707741, ,0.03947120020887656, ,5.9468048228773237e-05, ,0.21393514608176736,-0.22303252540760385,0.09644138342000001,1.7853001788272402,0.7747289536700473,-1.2760214161874643, ,0.03884442961869455,0.027935514147327284,0.006033640727272728,-0.016720876941899564,0.011623834547653856,-0.005989438370657944, ,1.1842048168182373
0.012039726222104669,0.020620002401691637,-0.0843995068203006, ,0.012406528199126533,0.020359043951866544,-0.08470757641226927, ,0.000545481325416372, ,0.0046555059195597945,-0.0009627282504558786,-0.006613536132763844,0.034620929796464237,0.032021902055402375,-0.010928308811428311, ,0.00814490277600998, ,0.047159420888781195, ,6.0217719178237e-05, ,0.21477692396505785,-0.22243015224341434,0.09658267903000001,1.7850904888837558,0.77554877266864,-1.2766899236096427, ,0.043095795439814163,0.029434535222850736,0.007270110232770426,-0.009746548398335643,0.08065647269916905,-0.06274635149612039, ,1.2017688751220703
0.012084886230552587,0.020611747125892206,-0.08446344742733078, ,0.012491424140669566,0.020343231669703324,-0.08483577887920371, ,0.0006131919215289852, ,0.004777441253840494,-0.0009692774666785423,-0.006984130355967809,0.018930708524423703,0.015869179656364522,-0.008800671281195695, ,0.008517131005829301, ,0.024702278671922456, ,6.132912528216547e-05, ,0.21518622880739174,-0.22215213385994226,0.09665267869000001,1.7850904888837558,0.7762319551674671,-1.2772470131281248, ,0.042120258126263105,0.030250858003975385,0.007538481552295316,-0.008626382430531255,0.06251556827067586,-0.048148859068527824, ,1.21616792678833
0.012191192877510644,0.020594519243125,-0.08462504881791674, ,0.012576177618681298,0.020327350867527145,-0.08496372155580927, ,0.0005781793971125662, ,0.005507373061064527,-0.0006784877923822701,-0.00858943744932578,-0.02184542115549339,-0.02674952011521316,-0.004913710570762282, ,0.010225944426508057, ,0.03453634614577158, ,6.231102173049557e-05, ,0.21604345215643067,-0.22152659249713005,0.09682249268000001,1.7848807989402715,0.7767785011665289,-1.2773659697823483, ,0.04278491503988764,0.031022210381978024,0.00899424704686618,-0.0013917227453399195,0.01709514184818305,-0.007173764185818637, ,1.2303178310394287
0.012243795793932585,0.020583372837398372,-0.08471457107879589, ,0.01266078752419001,0.020311403754802008,-0.08509140452283007, ,0.0006243818779673617, ,0.005112875762477003,-0.0009269601471743542,-0.008786414738834996,0.040403384706397524,0.048190772423669606,0.0019293859730718352, ,0.010207930134938774, ,0.06288707331523685, ,6.340471791430134e-05, ,0.21649137066313567,-0.2211945149835384,0.09691841814,1.7842517291098179,0.7775983201651215,-1.2779527984643864, ,0.044385847314532635,0.033603732846483984,0.009578359302465424,-0.02523220802676533,0.10237978859268473,-0.07436558838419045, ,1.245086908340454
0.012355499289576088,0.020569788613879342,-0.08489834275470018, ,0.012745252756941577,0.020295392531265243,-0.08521882786149208, ,0.0005743793860792738, ,0.006272958323532659,-0.0004325326676569986,-0.010051939047622785,-0.014993941795104998,-0.012533983504015949,-0.034856475759494646, ,0.011856583371886349, ,0.019542746235109102, ,6.432909980024389e-05, ,0.21740265314229418,-0.220561250887852,0.09711545422000001,1.7838323492228487,0.7788280486630106,-1.2787105233772325, ,0.04795196642671591,0.03453309372578995,0.010654723424749164,0.03167376041595314,0.029808302278181407,-0.008727560103715835, ,1.2595698833465576
0.012421718466715104,0.020563630127311116,-0.08500673010559363, ,0.012829572225381685,0.02027931938694229,-0.08534599165350397, ,0.0006018934153469729, ,0.0061520231337988,-0.00036557324866787465,-0.009948533998998473,-0.02762689727783979,-0.027229034544766544,-0.022567492276850884, ,0.01170275015405207, ,0.0387900203401255, ,6.531080070094474e-05, ,0.21790463077911876,-0.22019828244276343,0.09722952774000002,1.7838323492228487,0.7791013216625415,-1.2787700017043442, ,0.0457114362035023,0.03251008617967481,0.010465710591327202,0.02210880573739512,0.01433854702247621,0.0034133790291863714, ,1.274061918258667
0.012530260472065648,0.020544881458150917,-0.08517151337202987, ,0.012913744846638719,0.020263186502162286,-0.0854728959810574, ,0.0005632439886899585, ,0.005359002829102512,-0.0011829228235190332,-0.007798733311343929,0.00961590691804344,0.0316938844228649,-0.007098691926436125, ,0.009536165843261977, ,0.03312050643963776, ,6.616150714006073e-05, ,0.2188313587240257,-0.21951095921695746,0.09740841576,1.7840420391663332,0.7806043231599613,-1.279587204944302, ,0.04728298034801733,0.0352776734418107,0.008499899423692638,0.0,0.08254299199665079,-0.036944732092444504, ,1.2883999347686768
0.012583624845497774,0.020533267160143767,-0.08525225949949736, ,0.012997769546505866,0.02024699604757353,-0.08559954092682796, ,0.0006116137449682319, ,0.0057471937332627294,-0.0010835635984594617,-0.008442304638199559,0.01110333103968069,0.005179377559663426,-0.01251624352140774, ,0.010270192475495607, ,0.012251933284070439, ,6.712799102977659e-05, ,0.21928699996360496,-0.21917115897049158,0.09749526719000001,1.7838323492228487,0.7812875056587885,-1.2798992582423623, ,0.04817103632409685,0.035056129131315394,0.009050461090909092,-0.005714944367689602,0.056915028063517815,-0.04486915176683268, ,1.3029239177703857
0.012599905193164153,0.020528700613938168,-0.08527563985702966, ,0.013081645259423905,0.02023075018415925,-0.08572592657397447, ,0.0007236063000709261, ,0.006000342413101298,-0.0010871460620139304,-0.008633007381533175,0.0037477137041489607,-0.00538178228339628,-5.088399404229655e-05, ,0.010569522793590115, ,0.006558116391291061, ,6.857059414298541e-05, ,0.219426009155341,-0.21907076344312668,0.09751989670000001,1.783622659279364,0.7814241421585539,-1.2800106761460588, ,0.050263210571223925,0.03470992741714366,0.00923409363478261,-0.017454858455604884,0.0507382882805571,-0.039832434641634204, ,1.3135418891906738
0.01270492766381719,0.020511136755058074,-0.08542667751087438, ,0.013165370928463534,0.020214451063252047,-0.08585205300614049, ,0.0006935234038253461, ,0.006343011584728598,-0.001134044237284121,-0.009774823479672226,-0.0069831974191032365,-0.02830651239714062,0.01930832278410455, ,0.01170756278457946, ,0.029155164226028922, ,6.990706433859196e-05, ,0.22029095523725414,-0.21849155847755983,0.09768063666000001,1.7832032793923953,0.7821073246573812,-1.2802410507039788, ,0.05007754171950965,0.03598670517954902,0.01027002676982592,-0.04221527996949403,0.03213083326355664,-0.03838252925896338, ,1.3243019580841064
0.012771633354021011,0.020500299645386084,-0.08553788169797763, ,0.013248945505307821,0.020198100826550453,-0.08597792030745435, ,0.0007160900737350721, ,0.0065762951326348166,-0.0010110895114576316,-0.011604879233802604,0.040774680075710855,0.03203386771352262,0.0018204523209349127, ,0.013376964592269763, ,0.051853090606903796, ,7.128306673185092e-05, ,0.22082382380557564,-0.2180668081694775,0.09779989534000001,1.7832032793923953,0.7829271436559737,-1.2808278793860166, ,0.0525162930594747,0.0403988682666968,0.012483394608150471,-0.03611315071157351,0.09616722503770885,-0.08703525105262333, ,1.3358559608459473
0.012834490359165163,0.020496708717700898,-0.0856487220210293, ,0.013332367950234831,0.020181701606133813,-0.08610352856252912, ,0.0007442852720685798, ,0.006625533937513874,-0.000542777983086496,-0.011900616570653718,0.029752779989670075,0.02001033922766041,0.0012936726501905525, ,0.013631470304328487, ,0.03585584128733508, ,7.271281355630651e-05, ,0.22130263324377755,-0.2177270079230116,0.09791915402000001,1.7832032793923953,0.783610326154801,-1.2813032901643582, ,0.05091037637257016,0.03616499297197819,0.01279422612048193,-0.029004703630474755,0.08038076541131632,-0.07008532844743857, ,1.346724033355713
0.012903688457452569,0.02049071547083466,-0.08576804871253424, ,0.013415637232099913,0.020165255524477725,-0.0862288778564639, ,0.0007618262429455389, ,0.007479494714688898,-0.0008811032208881897,-0.01225321036194793,-0.026783448107243254,-0.0379031839534579,0.01057897620104614, ,0.014382640517202217, ,0.046411250469112215, ,7.41665242575809e-05, ,0.2218200563463506,-0.21734087127930038,0.09804619044000001,1.7832032793923953,0.7841568721538626,-1.2816672830390032, ,0.05526903992922002,0.04048504332699265,0.012845815741935485,-0.024054892687744044,0.023511118969741385,-0.016947370414944946, ,1.3572800159454346
0.013032003580788027,0.020472933343864682,-0.08598110763406908, ,0.013498752328318398,0.020148764694469152,-0.08635396827484301, ,0.0006796798981950563, ,0.0073478964245412975,-0.0010292791356160181,-0.012115027487982263,0.012796388628614416,-0.002451036203994681,-0.008867032261428315, ,0.01420650866467082, ,0.013029001474362324, ,7.53792041658629e-05, ,0.22278539795562866,-0.21663810258774593,0.09827044861,1.782364519618457,0.7848400546526899,-1.2821426938173448, ,0.05641910913107657,0.04245948168164241,0.01288738796116505,-0.018395226548695347,0.06024527076020113,-0.05830223793852327, ,1.369271993637085
0.01312501540741912,0.02045933895696556,-0.08612903279545887, ,0.013581712224847851,0.020132231219422845,-0.08647879990373766, ,0.0006617465413914547, ,0.007238852462719768,-0.0012807632915319677,-0.011104025404591416,-0.010997024218021133,-0.031147557994526717,0.03946537309623698, ,0.013316933572402148, ,0.033031874634397745, ,7.65255434524257e-05, ,0.22351905757867999,-0.2161206794851729,0.09842859599,1.7819451397314878,0.7856598736512825,-1.2828112012395234, ,0.05685856294695672,0.03914890328319751,0.011729610839469811,-0.06371631296856439,0.0409265830537646,-0.041370175656210886, ,1.3800790309906006
0.013200974523300053,0.0204457948371041,-0.0862443908522949, ,0.013664515916170619,0.020115657193095472,-0.08660337282970498, ,0.0006728518016630421, ,0.007548504987185302,-0.0017456034426769835,-0.011680162109612402,-0.015516011393063371,-0.02839189727774567,0.015935316162849038, ,0.014016178003559757, ,0.03235500306270016, ,7.768291987881152e-05, ,0.22410598527712106,-0.21566503824559366,0.09855044725,1.7819451397314878,0.7860697831505788,-1.2831454549506127, ,0.05825472164424235,0.047259433047047196,0.012224721043745205,-0.04010725584126502,0.03997216853069014,-0.039504672061753426, ,1.3906209468841553
0.013200974523300053,0.0204457948371041,-0.0862443908522949, ,0.013747162405276434,0.020099044699702473,-0.08672768713978997, ,0.0008075470027883232, ,0.007548504987185302,-0.0017456034426769835,-0.011680162109612402,-0.015516011393063371,-0.02839189727774567,0.015935316162849038, ,0.014016178003559757, ,0.03235500306270016, ,7.937689692564451e-05, ,0.22410598527712106,-0.21566503824559366,0.09855044725,1.7819451397314878,0.7860697831505788,-1.2831454549506127, ,0.05825472164424235,0.047259433047047196,0.012224721043745205,-0.04010725584126502,0.03997216853069014,-0.039504672061753426, ,1.3977208137512207
0.01327962280492662,0.020431616259818812,-0.08636260952596785, ,0.013829650703644673,0.020082395813932057,-0.08685174292152426, ,0.0008147006123982503, ,0.007846627325709052,-0.001510433351523363,-0.011789322874184703,0.002581047063522762,-0.012694636440617356,0.002733760960156134, ,0.014242159356282064, ,0.012954357203696028, ,8.10718499451457e-05, ,0.224723803907059,-0.21519395154026597,0.09867618738000002,1.7819451397314878,0.7866163291496406,-1.2835911265653983, ,0.06226833435595196,0.04595493537940474,0.012542371275590552,-0.029293997209749924,0.05807740979872322,-0.05344661651359659, ,1.4053139686584473
0.01327962280492662,0.020431616259818812,-0.08636260952596785, ,0.013911979831226924,0.020065712600961693,-0.08697554026292767, ,0.0009536482499257802, ,0.007846627325709052,-0.001510433351523363,-0.011789322874184703,0.002581047063522762,-0.012694636440617356,0.002733760960156134, ,0.014242159356282064, ,0.012954357203696028, ,8.310656601207498e-05, ,0.22537251346849388,-0.2146996966363156,0.09881100154000001,1.7817354497880036,0.7872995116484678,-1.2841482160838804, ,0.06622256912663697,0.05071990462772356,0.014573478060384264,0.0,0.08792757732937569,-0.07714725341311361, ,1.4127788543701172
0.01345210897336038,0.02040311543987917,-0.08664284266685912, ,0.013994148816429344,0.02004899711647301,-0.08709907925250777, ,0.0007920598465586793, ,0.00931386970145857,-0.0009581240728757877,-0.015735854560673664,0.015648660384757096,0.0014749856353452019,-0.01616022570189156, ,0.018310742456532074, ,0.015717989363465575, ,8.470719699553925e-05, ,0.22605983669429985,-0.21418227353374256,0.09897563037000001,1.7813160699010344,0.788255967146826,-1.2849281414097555, ,0.06916686702512448,0.05080136057733982,0.01682028671594509,-0.013922268669214354,0.07654685651376467,-0.06734229427698549, ,1.4209120273590088
0.01345210897336038,0.02040311543987917,-0.08664284266685912, ,0.014076156696095427,0.020032251406667444,-0.08722235997926103, ,0.0009288788977872213, ,0.00931386970145857,-0.0009581240728757877,-0.015735854560673664,0.015648660384757096,0.0014749856353452019,-0.01616022570189156, ,0.018310742456532074, ,0.015717989363465575, ,8.663967664896456e-05, ,0.22605983669429985,-0.21418227353374256,0.09897563037000001,1.7813160699010344,0.788255967146826,-1.2849281414097555, ,0.06916686702512448,0.05080136057733982,0.01682028671594509,-0.013922268669214354,0.07654685651376467,-0.06734229427698549, ,1.4280638694763184
0.013551716339333244,0.020389575598276626,-0.0868111706520176, ,0.014158002515488027,0.02001547750828167,-0.08734538253267214, ,0.0008904575463023069, ,0.009713484253922348,-0.0015973858177049476,-0.01667495101922391,-0.026124341235636405,-0.03951755773849107,0.050358259731331116, ,0.019363817012544783, ,0.047372115061536095, ,8.845531764391235e-05, ,0.22678577358447696,-0.21364168223254684,0.09915322210000001,1.7806870000705808,0.7888025131458877,-1.2853738130245411, ,0.06993142340344198,0.05494901074607457,0.01748497422612514,-0.07875985370967557,0.048967903058983686,-0.04441765233400132, ,1.4355459213256836
0.013647747650576622,0.02038107254966636,-0.08697793438088677, ,0.014239685328272134,0.019998677448602932,-0.08746814700271559, ,0.0008584431502395169, ,0.01017619792039049,-0.0009403183919441378,-0.01797041610683944,0.004152436307870807,-0.010367840415714091,0.01653858756007424, ,0.020673051488499284, ,0.011168391472619228, ,9.017202423069242e-05, ,0.22747309681028294,-0.21311653639709957,0.09933081383,1.7806870000705808,0.7894856956447149,-1.2859309025430232, ,0.07288551578991612,0.05331288851599482,0.019122222713085234,-0.04833732398534315,0.07562961550688768,-0.06581478525379623, ,1.4432148933410645
0.013752980132351355,0.020371854420887747,-0.0871599427228096, ,0.014321204196497106,0.019981853245484477,-0.08759065347985495, ,0.0008127061339283902, ,0.010839501769737126,-0.0013883860963093315,-0.01856727427981365,0.004246686209640541,-0.007916488670786764,-0.00017207076818342602, ,0.021544514121938068, ,0.008983480948424324, ,9.175689161281524e-05, ,0.22822992463195693,-0.21254505416440694,0.09952525733,1.7806870000705808,0.7903055146433074,-1.2865994099652016, ,0.07849209392760198,0.06067579383533937,0.019738304237918218,-0.033519837873183175,0.0807362939385999,-0.06967822746346333, ,1.4503920078277588
0.013752980132351355,0.020371854420887747,-0.0871599427228096, ,0.014402558190579416,0.0199650069073612,-0.08771290205504344, ,0.0009451140545450422, ,0.010839501769737126,-0.0013883860963093315,-0.01856727427981365,0.004246686209640541,-0.007916488670786764,-0.00017207076818342602, ,0.021544514121938068, ,0.008983480948424324, ,9.365614415974645e-05, ,0.22822992463195693,-0.21254505416440694,0.09952525733,1.7806870000705808,0.7903055146433074,-1.2865994099652016, ,0.07849209392760198,0.06067579383533937,0.019738304237918218,-0.033519837873183175,0.0807362939385999,-0.06967822746346333, ,1.4574768543243408
0.01386390174184092,0.020357032002530872,-0.0873422526922441, ,0.01448374638928472,0.019948140433264747,-0.08783489281972502, ,0.0008911195192487128, ,0.010934608309688888,-0.0013080823767357894,-0.01783504205522437,0.008823823400442634,-0.006142001815646262,-0.031182071461163217, ,0.020961046336055503, ,0.010750918153732318, ,9.540256408761052e-05, ,0.22904853431662472,-0.211927235534469,0.09971970083000001,1.7804773101270965,0.7911253336419002,-1.2872679173873802, ,0.08028506054016141,0.06021379540512105,0.019053602296650717,0.0,0.0770849328839688,-0.06643218832973051, ,1.4646079540252686
0.013972406466932874,0.02033829818082834,-0.08751450070829478, ,0.014564767879710637,0.019931255812839374,-0.08795662586583387, ,0.0008438306628791708, ,0.011321827583152208,-0.0018802289195155343,-0.017308511006713333,0.002125232387242546,-0.01453559652116603,-0.011185450452557685, ,0.02076785000624584, ,0.014690085958611654, ,9.70149728152746e-05, ,0.2298594212684183,-0.21132486237027948,0.09990247772000001,1.7798482402966427,0.7918085161407274,-1.2878250069058623, ,0.08603530513007324,0.06356124685764955,0.018500361811846694,-0.022190390671640935,0.07914442901549858,-0.0678878277332513, ,1.4720678329467773
0.013972406466932874,0.02033829818082834,-0.08751450070829478, ,0.014645621757268957,0.019914355026356866,-0.08807810128579482, ,0.0009749831979700493, ,0.011321827583152208,-0.0018802289195155343,-0.017308511006713333,0.002125232387242546,-0.01453559652116603,-0.011185450452557685, ,0.02076785000624584, ,0.014690085958611654, ,9.91774561284637e-05, ,0.2298594212684183,-0.21132486237027948,0.09990247772000001,1.7798482402966427,0.7918085161407274,-1.2878250069058623, ,0.08603530513007324,0.06356124685764955,0.018500361811846694,-0.022190390671640935,0.07914442901549858,-0.0678878277332513, ,1.4758388996124268
0.01408318903674049,0.020314683709895552,-0.08768385685994123, ,0.01472630712566831,0.019897440044732588,-0.08819931917252424, ,0.0009237935635834549, ,0.01100428561555112,-0.0023648641101827053,-0.016860758641520777,-0.013533857972215044,-0.02741437535875041,0.03995949039296203, ,0.02027244598305476, ,0.03057305881439847, ,0.00010120353993056441, ,0.230708921884583,-0.21067615280884464,0.10008266203,1.779219170466189,0.7926283351393201,-1.288493514328041, ,0.08383122045801306,0.06364650674612392,0.01789754103370787,-0.07501128138809562,0.07490178859651271,-0.06422718937006335, ,1.4795968532562256
0.01408318903674049,0.020314683709895552,-0.08768385685994123, ,0.014806823096896344,0.01988051282954026,-0.08832027961942976, ,0.0010569695053127715, ,0.01100428561555112,-0.0023648641101827053,-0.016860758641520777,-0.013533857972215044,-0.02741437535875041,0.03995949039296203, ,0.02027244598305476, ,0.03057305881439847, ,0.00010354610357120707, ,0.230708921884583,-0.21067615280884464,0.10008266203,1.779219170466189,0.7926283351393201,-1.288493514328041, ,0.08383122045801306,0.06364650674612392,0.01789754103370787,-0.07501128138809562,0.07490178859651271,-0.06422718937006335, ,1.4832358360290527
0.01408318903674049,0.020314683709895552,-0.08768385685994123, ,0.014887168791202488,0.01986357533302813,-0.08844098272041111, ,0.0011929466802237977, ,0.01100428561555112,-0.0023648641101827053,-0.016860758641520777,-0.013533857972215044,-0.02741437535875041,0.03995949039296203, ,0.02027244598305476, ,0.03057305881439847, ,0.0005791967591636838, ,0.230708921884583,-0.21067615280884464,0.10008266203,1.779219170466189,0.7926283351393201,-1.288493514328041, ,0.08383122045801306,0.06364650674612392,0.01789754103370787,-0.07501128138809562,0.07490178859651271,-0.06422718937006335, ,1.486840009689331
0.014205528045130257,0.020293826452909086,-0.08787170907264957, ,0.014967343337079959,0.019846629498133487,-0.08856142856985945, ,0.001120741112050603, ,0.012992680946409523,-0.0024030952621396707,-0.020863918714738375,0.02857084697958953,0.022556476839539284,-0.006811413965369096, ,0.02469590510893094, ,0.036401703134125864, ,0.0005863223427543011, ,0.23164337256236417,-0.20996566138441597,0.10028488327000001,1.779219170466189,0.7937214271374435,-1.2895482150378934, ,0.09854303380941928,0.07683962879228404,0.0224349458028169,-0.04006491087151534,0.1345169273519891,-0.10968953451655426, ,1.4903819561004639
0.014205528045130257,0.020293826452909086,-0.08787170907264957, ,0.01504734587124876,0.01982967725849923,-0.08868161726265952, ,0.0012569976146705273, ,0.012992680946409523,-0.0024030952621396707,-0.020863918714738375,0.02857084697958953,0.022556476839539284,-0.006811413965369096, ,0.02469590510893094, ,0.036401703134125864, ,0.0005950324112207455, ,0.23164337256236417,-0.20996566138441597,0.10028488327000001,1.779219170466189,0.7937214271374435,-1.2895482150378934, ,0.09854303380941928,0.07683962879228404,0.0224349458028169,-0.04006491087151534,0.1345169273519891,-0.10968953451655426, ,1.493973970413208
0.014205528045130257,0.020293826452909086,-0.08787170907264957, ,0.015127175538637608,0.01981272053848847,-0.0888015488941879, ,0.0013948114915275478, ,0.012992680946409523,-0.0024030952621396707,-0.020863918714738375,0.02857084697958953,0.022556476839539284,-0.006811413965369096, ,0.02469590510893094, ,0.036401703134125864, ,0.0006052859891733968, ,0.23164337256236417,-0.20996566138441597,0.10028488327000001,1.779219170466189,0.7937214271374435,-1.2895482150378934, ,0.09854303380941928,0.07683962879228404,0.0224349458028169,-0.04006491087151534,0.1345169273519891,-0.10968953451655426, ,1.4975290298461914
0.014346462982979528,0.02027782371637823,-0.08811583960705147, ,0.015206831492366506,0.01979576125319979,-0.08892122356031469, ,0.0012732876746926974, ,0.015100111754734016,-0.0007641911171008886,-0.02798783920189742,0.07142170801793551,0.0661031356895051,-0.0544705426775613, ,0.031810635112493095, ,0.09731735585781935, ,0.0006137417067116159, ,0.2326627733017618,-0.20918566536411928,0.10054803014000001,1.7790094805227048,0.7952244286348634,-1.290773811978554, ,0.10497449287441457,0.07908078463205898,0.030282911634980987,0.0,0.17773514053223427,-0.1449310894620791, ,1.5010619163513184
0.014346462982979528,0.02027782371637823,-0.08811583960705147, ,0.015286312893729464,0.019778801308483862,-0.08904064135740311, ,0.0014098225050589953, ,0.015100111754734016,-0.0007641911171008886,-0.02798783920189742,0.07142170801793551,0.0661031356895051,-0.0544705426775613, ,0.031810635112493095, ,0.09731735585781935, ,0.000623692716690958, ,0.2326627733017618,-0.20918566536411928,0.10054803014000001,1.7790094805227048,0.7952244286348634,-1.290773811978554, ,0.10497449287441457,0.07908078463205898,0.030282911634980987,0.0,0.17773514053223427,-0.1449310894620791, ,1.504640817642212
0.014346462982979528,0.02027782371637823,-0.08811583960705147, ,0.015365618912176663,0.01976184260095785,-0.08915980238231072, ,0.001547505604388928, ,0.015100111754734016,-0.0007641911171008886,-0.02798783920189742,0.07142170801793551,0.0661031356895051,-0.0544705426775613, ,0.031810635112493095, ,0.09731735585781935, ,0.0006350978140699453, ,0.2326627733017618,-0.20918566536411928,0.10054803014000001,1.7790094805227048,0.7952244286348634,-1.290773811978554, ,0.10497449287441457,0.07908078463205898,0.030282911634980987,0.0,0.17773514053223427,-0.1449310894620791, ,1.5083739757537842
0.014483881544144442,0.020268067366990637,-0.08838041830724305, ,0.015444748725296765,0.01974488701802087,-0.08927870673238812, ,0.001415593695985309, ,0.017270645080980005,-0.0011762431793154312,-0.03321097836936678,0.015661309842776753,0.006346283471418093,0.09044316717313887, ,0.03745167304381225, ,0.016897086653646223, ,0.0006446160565323278, ,0.23359722397954297,-0.2084906194054391,0.10083191765,1.777961030805282,0.7967274301322832,-1.2919994089192146, ,0.11530612583046268,0.0848051309727174,0.035476194922048995,-0.1497416268387408,0.1584446591064795,-0.12920099534050844, ,1.5122179985046387
0.014483881544144442,0.020268067366990637,-0.08838041830724305, ,0.015523701518799714,0.019727936437870186,-0.08939735450548109, ,0.0015514916150503155, ,0.017270645080980005,-0.0011762431793154312,-0.03321097836936678,0.015661309842776753,0.006346283471418093,0.09044316717313887, ,0.03745167304381225, ,0.016897086653646223, ,0.0006555422680807374, ,0.23359722397954297,-0.2084906194054391,0.10083191765,1.777961030805282,0.7967274301322832,-1.2919994089192146, ,0.11530612583046268,0.0848051309727174,0.035476194922048995,-0.1497416268387408,0.1584446591064795,-0.12920099534050844, ,1.5158188343048096
0.014700012370432385,0.020261841688298823,-0.08879856698884557, ,0.015602476486498812,0.019710992729515656,-0.08951574579992966, ,0.001277584245068811, ,0.018599099109099224,-0.0002959398372006769,-0.036328470080920786,0.009399961236289786,-0.003914381748613564,0.014011719233923052, ,0.04081386782060351, ,0.010179311382596014, ,0.0006629475297115477, ,0.23500276136265183,-0.20747894139891568,0.10127913770000001,1.7767028911443747,0.7985037046292339,-1.2934478416672681, ,0.11730153468290579,0.08762413809646424,0.03875623240875913,-0.06456815396469243,0.1313691199464646,-0.10712270864670481, ,1.5196340084075928
0.014700012370432385,0.020261841688298823,-0.08879856698884557, ,0.015681072830293435,0.019694057752796285,-0.08963388071456888, ,0.0014080508668721018, ,0.018599099109099224,-0.0002959398372006769,-0.036328470080920786,0.009399961236289786,-0.003914381748613564,0.014011719233923052, ,0.04081386782060351, ,0.010179311382596014, ,0.0006717134513252013, ,0.23500276136265183,-0.20747894139891568,0.10127913770000001,1.7767028911443747,0.7985037046292339,-1.2934478416672681, ,0.11730153468290579,0.08762413809646424,0.03875623240875913,-0.06456815396469243,0.1313691199464646,-0.10712270864670481, ,1.5232720375061035
0.014700012370432385,0.020261841688298823,-0.08879856698884557, ,0.015759489760151187,0.01967713335839447,-0.08975175934872882, ,0.0015404388482911974, ,0.018599099109099224,-0.0002959398372006769,-0.036328470080920786,0.009399961236289786,-0.003914381748613564,0.014011719233923052, ,0.04081386782060351, ,0.010179311382596014, ,0.0006818149094294571, ,0.23500276136265183,-0.20747894139891568,0.10127913770000001,1.7767028911443747,0.7985037046292339,-1.2934478416672681, ,0.11730153468290579,0.08762413809646424,0.03875623240875913,-0.06456815396469243,0.1313691199464646,-0.10712270864670481, ,1.5268478393554688
0.014902623475631902,0.020256811281402894,-0.08918463569927554, ,0.015837726494090633,0.01966022138785288,-0.08986938180223544, ,0.001303539175374266, ,0.02026872390664464,-0.001045338809429138,-0.03854138792028143,0.02077514390109148,0.012409416009675996,-0.026901867364692137, ,0.04355860976720793, ,0.02419742067181969, ,0.0006889611653598572, ,0.2362847350197731,-0.2064827088581407,0.10169135792000002,1.7767028911443747,0.7998700696268883,-1.2945620207042323, ,0.12946376747403926,0.10292509930419824,0.041159719689922485,-0.030383760504541425,0.15358665584656758,-0.1252396194248567, ,1.5303959846496582
0.014902623475631902,0.020256811281402894,-0.08918463569927554, ,0.015915782258163362,0.01964332367358804,-0.08998674817541011, ,0.001430469219498886, ,0.02026872390664464,-0.001045338809429138,-0.03854138792028143,0.02077514390109148,0.012409416009675996,-0.026901867364692137, ,0.04355860976720793, ,0.02419742067181969, ,0.0006973873932478007, ,0.2362847350197731,-0.2064827088581407,0.10169135792000002,1.7767028911443747,0.7998700696268883,-1.2945620207042323, ,0.12946376747403926,0.10292509930419824,0.041159719689922485,-0.030383760504541425,0.15358665584656758,-0.1252396194248567, ,1.5339388847351074
0.014902623475631902,0.020256811281402894,-0.08918463569927554, ,0.015993656286436807,0.019626442038907836,-0.09010385856907087, ,0.0015597078766523575, ,0.02026872390664464,-0.001045338809429138,-0.03854138792028143,0.02077514390109148,0.012409416009675996,-0.026901867364692137, ,0.04355860976720793, ,0.02419742067181969, ,0.0007070763874433575, ,0.2362847350197731,-0.2064827088581407,0.10169135792000002,1.7767028911443747,0.7998700696268883,-1.2945620207042323, ,0.12946376747403926,0.10292509930419824,0.041159719689922485,-0.030383760504541425,0.15358665584656758,-0.1252396194248567, ,1.5375308990478516
0.015083259654100293,0.02024720453748148,-0.08952589465214746, ,0.01607134782097626,0.019609578298025173,-0.09022071308453125, ,0.0013658909549242113, ,0.020666010157991684,-0.0010574531056899746,-0.03822656629269047,0.0389396811393861,0.027903377065189812,-0.04688350285790253, ,0.043468063603643636, ,0.04790423356310028, ,0.0007143965493042559, ,0.237450867683781,-0.20557914911185646,0.10205691170000002,1.776283511257406,0.8013730711243082,-1.295787617644893, ,0.13441493138593594,0.10314884952007694,0.04105363793814434,-0.013531482771995172,0.17113940052950025,-0.13955270575280082, ,1.5412018299102783
0.015083259654100293,0.02024720453748148,-0.08952589465214746, ,0.01614885611182764,0.0195927342560747,-0.0903373118236025, ,0.0014907129120316353, ,0.020666010157991684,-0.0010574531056899746,-0.03822656629269047,0.0389396811393861,0.027903377065189812,-0.04688350285790253, ,0.043468063603643636, ,0.04790423356310028, ,0.0007229274983452162, ,0.237450867683781,-0.20557914911185646,0.10205691170000002,1.776283511257406,0.8013730711243082,-1.295787617644893, ,0.13441493138593594,0.10314884952007694,0.04105363793814434,-0.013531482771995172,0.17113940052950025,-0.13955270575280082, ,1.5449538230895996
0.015083259654100293,0.02024720453748148,-0.08952589465214746, ,0.01622618041699974,0.01957591170912745,-0.09045365488859208, ,0.0016179125402796038, ,0.020666010157991684,-0.0010574531056899746,-0.03822656629269047,0.0389396811393861,0.027903377065189812,-0.04688350285790253, ,0.043468063603643636, ,0.04790423356310028, ,0.0007326555966271117, ,0.237450867683781,-0.20557914911185646,0.10205691170000002,1.776283511257406,0.8013730711243082,-1.295787617644893, ,0.13441493138593594,0.10314884952007694,0.04105363793814434,-0.013531482771995172,0.17113940052950025,-0.13955270575280082, ,1.548926830291748
0.015313271824545269,0.020216860981346466,-0.08993675897209631, ,0.016303320002446612,0.019559112444206828,-0.09056974238230515, ,0.001346661252978907, ,0.02153233702825739,-0.0037713463896361116,-0.03520470732026083,-0.008706318951147147,-0.02312565866515666,0.11496556746931128, ,0.04143954643808631, ,0.0247091481537634, ,0.000739257807985733, ,0.23901858245724858,-0.20437440278347743,0.1024976503,1.7746059917095298,0.8035592551205553,-1.2976519828441764, ,0.15281311040011397,0.11257051193175657,0.03774599886255925,-0.18693961965635245,0.17355174405529597,-0.14151981014365683, ,1.552541971206665
0.015313271824545269,0.020216860981346466,-0.08993675897209631, ,0.01638027414205015,0.01954233823930344,-0.09068557440804415, ,0.0014677191257893218, ,0.02153233702825739,-0.0037713463896361116,-0.03520470732026083,-0.008706318951147147,-0.02312565866515666,0.11496556746931128, ,0.04143954643808631, ,0.0247091481537634, ,0.0007470073964730052, ,0.23901858245724858,-0.20437440278347743,0.1024976503,1.7746059917095298,0.8035592551205553,-1.2976519828441764, ,0.15281311040011397,0.11257051193175657,0.03774599886255925,-0.18693961965635245,0.17355174405529597,-0.14151981014365683, ,1.5561389923095703
0.015313271824545269,0.020216860981346466,-0.08993675897209631, ,0.01645704211760239,0.019525590863391652,-0.09080115106960966, ,0.0015916150783090634, ,0.022051911592382543,-0.0048120096853140155,-0.031240963631432386,-0.05778770139469682,-0.08393887924443401,0.010834269017094509, ,0.03854140696329459, ,0.10190742917979917, ,0.0007558980036502268, ,0.24055540629921926,-0.2032314383180922,0.10285024118000001,1.773976921879076,0.8047889836184442,-1.2987364227175846, ,0.16002856923856792,0.12197550328852286,0.033323873472803356,-0.06144721115468162,0.09160129922144335,-0.07356231864434831, ,1.5597918033599854
0.015529280864265999,0.020179953307342152,-0.09026572025202997, ,0.016533623218787815,0.019508872076443397,-0.09091647247129998, ,0.001372053947348958, ,0.022051911592382543,-0.0048120096853140155,-0.031240963631432386,-0.05778770139469682,-0.08393887924443401,0.010834269017094509, ,0.03854140696329459, ,0.10190742917979917, ,0.0007623162947304219, ,0.24055540629921926,-0.2032314383180922,0.10285024118000001,1.773976921879076,0.8047889836184442,-1.2987364227175846, ,0.16002856923856792,0.12197550328852286,0.033323873472803356,-0.06144721115468162,0.09160129922144335,-0.07356231864434831, ,1.5635969638824463
0.015529280864265999,0.020179953307342152,-0.09026572025202997, ,0.01661001674316612,0.01949218362944509,-0.09103153871791224, ,0.0014924795115722408, ,0.022051911592382543,-0.0048120096853140155,-0.031240963631432386,-0.05778770139469682,-0.08393887924443401,0.010834269017094509, ,0.03854140696329459, ,0.10190742917979917, ,0.0007698437505741521, ,0.24055540629921926,-0.2032314383180922,0.10285024118000001,1.773976921879076,0.8047889836184442,-1.2987364227175846, ,0.16002856923856792,0.12197550328852286,0.033323873472803356,-0.06144721115468162,0.09160129922144335,-0.07356231864434831, ,1.5671899318695068
0.015749826897887356,0.02013082764929317,-0.0905688356448512, ,0.016686221996154202,0.019475527264412464,-0.09114634991474162, ,0.0012805378192033362, ,0.022131500144230102,-0.005507634133890289,-0.029848511462804123,-0.026150458503506026,-0.04765394678831255,-0.027301173449781068, ,0.0375642245884565, ,0.05435734938175821, ,0.0007750549145397561, ,0.2421771802028064,-0.20198035559246783,0.10317560997000001,1.773976921879076,0.8058820756165678,-1.299627765947156, ,0.16532568215761462,0.12806604798714005,0.03211453935483872,-0.03128214836005742,0.12833058639525785,-0.10355742694035902, ,1.5708708763122559
0.015749826897887356,0.02013082764929317,-0.0905688356448512, ,0.01676223829100888,0.019458904714405877,-0.09126090616758273, ,0.0013983629242023342, ,0.022131500144230102,-0.005507634133890289,-0.029848511462804123,-0.026150458503506026,-0.04765394678831255,-0.027301173449781068, ,0.0375642245884565, ,0.05435734938175821, ,0.0007813509550413984, ,0.2421771802028064,-0.20198035559246783,0.10317560997000001,1.773976921879076,0.8058820756165678,-1.299627765947156, ,0.16532568215761462,0.12806604798714005,0.03211453935483872,-0.03128214836005742,0.12833058639525785,-0.10355742694035902, ,1.5746128559112549
0.015749826897887356,0.02013082764929317,-0.0905688356448512, ,0.016838064948809253,0.019442317703546354,-0.09137520758272971, ,0.0015193892533069055, ,0.022131500144230102,-0.005507634133890289,-0.029848511462804123,-0.026150458503506026,-0.04765394678831255,-0.027301173449781068, ,0.0375642245884565, ,0.05435734938175821, ,0.0007887313380240534, ,0.2421771802028064,-0.20198035559246783,0.10317560997000001,1.773976921879076,0.8058820756165678,-1.299627765947156, ,0.16532568215761462,0.12806604798714005,0.03211453935483872,-0.03128214836005742,0.12833058639525785,-0.10355742694035902, ,1.5784409046173096
0.015958192006567663,0.0200743036619555,-0.09084174839838438, ,0.016913701298438936,0.019425767947030024,-0.09148925426697542, ,0.0013239563551137462, ,0.02139934895181086,-0.006269718534882247,-0.02737521876202603,0.015623325029809494,0.0034250656268315694,-0.06829875110287031, ,0.035307847687685474, ,0.01599387337375446, ,0.0007940305956190008, ,0.24376806317489666,-0.2007369955997177,0.10347116409000001,1.7737672319355915,0.8073850771139877,-1.3009350416279573, ,0.16561420865352666,0.13253762787495918,0.02977347947663552,0.0,0.17501365600373658,-0.14166405364439008, ,1.582643985748291
0.015958192006567663,0.0200743036619555,-0.09084174839838438, ,0.01698914667656874,0.01940925715114464,-0.09160304632761294, ,0.0014438590409684812, ,0.02139934895181086,-0.006269718534882247,-0.02737521876202603,0.015623325029809494,0.0034250656268315694,-0.06829875110287031, ,0.035307847687685474, ,0.01599387337375446, ,0.0008004014627302703, ,0.24376806317489666,-0.2007369955997177,0.10347116409000001,1.7737672319355915,0.8073850771139877,-1.3009350416279573, ,0.16561420865352666,0.13253762787495918,0.02977347947663552,0.0,0.17501365600373658,-0.14166405364439008, ,1.5862438678741455
0.016190118471755107,0.019997805243471962,-0.09113686119097746, ,0.01706440042763889,0.0193927870132847,-0.0917165838724356, ,0.0012109890109492816, ,0.02145178989208727,-0.007559880223320606,-0.027059155126337116,-0.04303681699589455,-0.05251530405463834,0.06284005048334072, ,0.03534867684534158, ,0.06789705641855655, ,0.000804387749606183, ,0.24376806317489666,-0.2007369955997177,0.10347116409000001,1.7737672319355915,0.8073850771139877,-1.3009350416279573, ,0.16561420865352666,0.13253762787495918,0.02977347947663552,0.0,0.17501365600373658,-0.14166405364439008, ,1.5900039672851562
0.016190118471755107,0.019997805243471962,-0.09113686119097746, ,0.01713946190384142,0.01937635922196621,-0.09182986700973647, ,0.0013295507416133476, ,0.02145178989208727,-0.007559880223320606,-0.027059155126337116,-0.04303681699589455,-0.05251530405463834,0.06284005048334072, ,0.03534867684534158, ,0.06789705641855655, ,0.0008094373937600981, ,0.24556745993459095,-0.1992928445522377,0.10379005143000002,1.772718782218169,0.8091613516109384,-1.3024651531161513, ,0.16561420865352666,0.13498853706752598,0.029067174306569344,-0.13281409411198536,0.14422382921345106,-0.11772950600518067, ,1.593595027923584
0.016190118471755107,0.019997805243471962,-0.09113686119097746, ,0.017214330465102852,0.019359975456843353,-0.0919428958483097, ,0.0014510440768111634, ,0.02145178989208727,-0.007559880223320606,-0.027059155126337116,-0.04303681699589455,-0.05251530405463834,0.06284005048334072, ,0.03534867684534158, ,0.06789705641855655, ,0.0008155479335986796, ,0.24556745993459095,-0.1992928445522377,0.10379005143000002,1.772718782218169,0.8091613516109384,-1.3024651531161513, ,0.16561420865352666,0.13498853706752598,0.029067174306569344,-0.13281409411198536,0.14422382921345106,-0.11772950600518067, ,1.597208023071289
0.01641029359363931,0.019923262203997406,-0.09141686958539529, ,0.01728900547906614,0.01934363738872264,-0.09205567049745011, ,0.001231326970919894, ,0.022595414775491193,-0.007465959244307829,-0.029016990147860112,-0.0450842778721664,-0.056186092547881546,0.020654457294286107, ,0.03752704402900876, ,0.07203782711708019, ,0.0008194703773469929, ,0.24724329296829767,-0.19791819810062575,0.10409079071,1.7716703325007461,0.8105277166085928,-1.3035793321531155, ,0.17006620350980425,0.14058806156810486,0.031171842504892373,-0.0883824941786333,0.13573394588037282,-0.1108417370504558, ,1.6007490158081055
0.01641029359363931,0.019923262203997406,-0.09141686958539529, ,0.01736348632107355,0.01932734667957932,-0.0921681910669537, ,0.0013521004609595934, ,0.022595414775491193,-0.007465959244307829,-0.029016990147860112,-0.0450842778721664,-0.056186092547881546,0.020654457294286107, ,0.03752704402900876, ,0.07203782711708019, ,0.0008244482285957089, ,0.24724329296829767,-0.19791819810062575,0.10409079071,1.7716703325007461,0.8105277166085928,-1.3035793321531155, ,0.17006620350980425,0.14058806156810486,0.031171842504892373,-0.0883824941786333,0.13573394588037282,-0.1108417370504558, ,1.6043000221252441
0.01641029359363931,0.019923262203997406,-0.09141686958539529, ,0.0174377723741488,0.019311104982572578,-0.09228045766711787, ,0.0014752062510147955, ,0.022595414775491193,-0.007465959244307829,-0.029016990147860112,-0.0450842778721664,-0.056186092547881546,0.020654457294286107, ,0.03752704402900876, ,0.07203782711708019, ,0.0008304737658403301, ,0.24724329296829767,-0.19791819810062575,0.10409079071,1.7716703325007461,0.8105277166085928,-1.3035793321531155, ,0.17006620350980425,0.14058806156810486,0.031171842504892373,-0.0883824941786333,0.13573394588037282,-0.1108417370504558, ,1.6080000400543213
0.01641029359363931,0.019923262203997406,-0.09141686958539529, ,0.017511863028979606,0.019294913942060975,-0.09239247040874175, ,0.0016000230391056175, ,0.023899400959531292,-0.006913741659825148,-0.030260188804726296,-0.02913996438334023,-0.05128003460987897,-0.03374668842616622, ,0.03917473952001378, ,0.05898096389217734, ,0.0008375338509161584, ,0.24869516674865189,-0.1967443427037436,0.10435912274,1.7714606425572619,0.8116208086067163,-1.3043889966425462, ,0.17871363758657396,0.14100585669906504,0.03277533234567902,-0.03271602381065126,0.13839596555764375,-0.11396459590501413, ,1.6117088794708252
0.016605001175325804,0.01986554159004805,-0.09166547519205438, ,0.017585757683899788,0.019278775193617342,-0.09250422940312612, ,0.0014176342122286295, ,0.023899400959531292,-0.006913741659825148,-0.030260188804726296,-0.02913996438334023,-0.05128003460987897,-0.03374668842616622, ,0.03917473952001378, ,0.05898096389217734, ,0.0008428074905644535, ,0.24869516674865189,-0.1967443427037436,0.10435912274,1.7714606425572619,0.8116208086067163,-1.3043889966425462, ,0.17871363758657396,0.14100585669906504,0.03277533234567902,-0.03271602381065126,0.13839596555764375,-0.11396459590501413, ,1.615522861480713
0.016605001175325804,0.01986554159004805,-0.09166547519205438, ,0.01765945574487217,0.019262690364045286,-0.09261573476207426, ,0.0015421729119474894, ,0.023899400959531292,-0.006913741659825148,-0.030260188804726296,-0.02913996438334023,-0.05128003460987897,-0.03374668842616622, ,0.03917473952001378, ,0.05898096389217734, ,0.0008491080799462827, ,0.24869516674865189,-0.1967443427037436,0.10435912274,1.7714606425572619,0.8116208086067163,-1.3043889966425462, ,0.17871363758657396,0.14100585669906504,0.03277533234567902,-0.03271602381065126,0.13839596555764375,-0.11396459590501413, ,1.6191589832305908
0.016886584285844355,0.019786118251129733,-0.09202212023874184, ,0.01773295662547052,0.019246661071393764,-0.09272698659789198, ,0.0012264569989667504, ,0.023264694395459334,-0.006414410874173148,-0.02885371764498075,-0.03705897182449072,-0.06636351603174094,-0.05792963925557893, ,0.037615524642268396, ,0.07600962869107807, ,0.0008524772667232512, ,0.25078030462469253,-0.1950994006015338,0.10474541716,1.7712509526137772,0.8131238101041361,-1.3057779510634882, ,0.17191474920012823,0.13365766416686023,0.03129432518664047,0.0,0.10916354327319609,-0.09153411702794671, ,1.6228430271148682
0.016886584285844355,0.019786118251129733,-0.09202212023874184, ,0.017806259746862323,0.019230688924973115,-0.09283798502338744, ,0.0013490515322915639, ,0.023264694395459334,-0.006414410874173148,-0.02885371764498075,-0.03705897182449072,-0.06636351603174094,-0.05792963925557893, ,0.037615524642268396, ,0.07600962869107807, ,0.0008568717292504044, ,0.25078030462469253,-0.1950994006015338,0.10474541716,1.7712509526137772,0.8131238101041361,-1.3057779510634882, ,0.17191474920012823,0.13365766416686023,0.03129432518664047,0.0,0.10916354327319609,-0.09153411702794671, ,1.6264169216156006
0.01711436009223112,0.01971299562994568,-0.09230727227394298, ,0.01787936453779086,0.019214775525369935,-0.09294873015187208, ,0.0011157613021999533, ,0.023986883401008855,-0.007961549692614053,-0.030265858662202487,-0.05551481446434947,-0.070602210514812,0.0251738453517123, ,0.03943068664583429, ,0.0898139263066018, ,0.0008591426904166285, ,0.25246386039127344,-0.19374019961567027,0.10505263789000001,1.7704121928398393,0.8142169021022596,-1.3066692942930593, ,0.177046532758341,0.14554745637802266,0.03264100721311476,-0.09538439415866659,0.12904424633497333,-0.10774549731767004, ,1.6303198337554932
0.01711436009223112,0.01971299562994568,-0.09230727227394298, ,0.01795227043455777,0.019198922464462982,-0.09305922209716044, ,0.0012376564539015448, ,0.023986883401008855,-0.007961549692614053,-0.030265858662202487,-0.05551481446434947,-0.070602210514812,0.0251738453517123, ,0.03943068664583429, ,0.0898139263066018, ,0.0008624341144469321, ,0.25246386039127344,-0.19374019961567027,0.10505263789000001,1.7704121928398393,0.8142169021022596,-1.3066692942930593, ,0.177046532758341,0.14554745637802266,0.03264100721311476,-0.09538439415866659,0.12904424633497333,-0.10774549731767004, ,1.6339848041534424
0.01711436009223112,0.01971299562994568,-0.09230727227394298, ,0.018024976881005614,0.01918313132543857,-0.09316946097357094, ,0.0013613774167933505, ,0.023986883401008855,-0.007961549692614053,-0.030265858662202487,-0.05551481446434947,-0.070602210514812,0.0251738453517123, ,0.03943068664583429, ,0.0898139263066018, ,0.0008667353498119874, ,0.25246386039127344,-0.19374019961567027,0.10505263789000001,1.7704121928398393,0.8142169021022596,-1.3066692942930593, ,0.177046532758341,0.14554745637802266,0.03264100721311476,-0.09538439415866659,0.12904424633497333,-0.10774549731767004, ,1.63759183883667
0.017353347819494172,0.019639648440346342,-0.09262887036556287, ,0.01809748332849988,0.019167403682805766,-0.09327944689592498, ,0.0010954462965594128, ,0.023804324058305897,-0.0064730053836651955,-0.03285458583869736,-0.02015121804864005,-0.0382621761363288,0.03100703005203311, ,0.041084905417952865, ,0.04324381378672857, ,0.0008686901442286321, ,0.2541860298222255,-0.1923346622325614,0.10540004361000001,1.7691540531789318,0.8157199035996794,-1.3078948912337198, ,0.16885576789763485,0.1338461799132169,0.03563492510067114,-0.10845810811452838,0.15631450667241856,-0.1359356100845704, ,1.6411848068237305
0.017353347819494172,0.019639648440346342,-0.09262887036556287, ,0.018169789235911823,0.019151741102412224,-0.09338917997954896, ,0.001217662049162939, ,0.023804324058305897,-0.0064730053836651955,-0.03285458583869736,-0.02015121804864005,-0.0382621761363288,0.03100703005203311, ,0.041084905417952865, ,0.04324381378672857, ,0.0008716475332534991, ,0.2541860298222255,-0.1923346622325614,0.10540004361000001,1.7691540531789318,0.8157199035996794,-1.3078948912337198, ,0.16885576789763485,0.1338461799132169,0.03563492510067114,-0.10845810811452838,0.15631450667241856,-0.1359356100845704, ,1.6448159217834473
0.017353347819494172,0.019639648440346342,-0.09262887036556287, ,0.018241894069600466,0.019136145141459202,-0.09349866034027274, ,0.0013414785166650917, ,0.023804324058305897,-0.0064730053836651955,-0.03285458583869736,-0.02015121804864005,-0.0382621761363288,0.03100703005203311, ,0.041084905417952865, ,0.04324381378672857, ,0.0008755956927779663, ,0.2541860298222255,-0.1923346622325614,0.10540004361000001,1.7691540531789318,0.8157199035996794,-1.3078948912337198, ,0.16885576789763485,0.1338461799132169,0.03563492510067114,-0.10845810811452838,0.15631450667241856,-0.1359356100845704, ,1.6485068798065186
0.0175805655107317,0.019585833706950086,-0.09294397477707642, ,0.018313797303395364,0.01912061734851725,-0.09360788809443109, ,0.0010930855478356516, ,0.023471012092916597,-0.005932179038065627,-0.032243327300615986,0.002002071181233756,-0.018093741889959294,-0.0349542254298302, ,0.040320110518451587, ,0.01820321221317635, ,0.0008774081082367803, ,0.25577691279431575,-0.19108357950693705,0.10574356046000001,1.7689443632354473,0.8172229050970993,-1.3091204881743805, ,0.1650381592321231,0.13089233318409763,0.03516293933774835,-0.039045805070289555,0.15946253466189278,-0.13802373904456675, ,1.6522128582000732
0.0175805655107317,0.019585833706950086,-0.09294397477707642, ,0.018385498418578762,0.019105159263542056,-0.09371686335886414, ,0.0012150397798173494, ,0.023471012092916597,-0.005932179038065627,-0.032243327300615986,0.002002071181233756,-0.018093741889959294,-0.0349542254298302, ,0.040320110518451587, ,0.01820321221317635, ,0.0008801984526300081, ,0.25577691279431575,-0.19108357950693705,0.10574356046000001,1.7689443632354473,0.8172229050970993,-1.3091204881743805, ,0.1650381592321231,0.13089233318409763,0.03516293933774835,-0.039045805070289555,0.15946253466189278,-0.13802373904456675, ,1.6557769775390625
0.0175805655107317,0.019585833706950086,-0.09294397477707642, ,0.018456996903867998,0.019089772417888815,-0.09382558625091583, ,0.0013384496928107795, ,0.023471012092916597,-0.005932179038065627,-0.032243327300615986,0.002002071181233756,-0.018093741889959294,-0.0349542254298302, ,0.040320110518451587, ,0.01820321221317635, ,0.0008839546103364079, ,0.25577691279431575,-0.19108357950693705,0.10574356046000001,1.7689443632354473,0.8172229050970993,-1.3091204881743805, ,0.1650381592321231,0.13089233318409763,0.03516293933774835,-0.039045805070289555,0.15946253466189278,-0.13802373904456675, ,1.6593568325042725
0.017826565281489983,0.019527503195269247,-0.09328646385436346, ,0.01852829225539806,0.019074458334328796,-0.0939340568884364, ,0.0010569045035927012, ,0.023197539958691022,-0.005106864204716989,-0.033502598813951526,0.014129960563334688,-0.004193249562555839,-0.07069228993292906, ,0.041068601746700274, ,0.014737602235025146, ,0.0008853607070295485, ,0.2574913594923936,-0.18973210125394777,0.10611818827000001,1.768734673291963,0.81899917959405,-1.3105689209224343, ,0.1568544488569765,0.12652925541129437,0.036533971376146786,0.0,0.15771624072757567,-0.13616126186001706, ,1.6631078720092773
0.017826565281489983,0.019527503195269247,-0.09328646385436346, ,0.01859938397670394,0.019059218527064475,-0.0940422753897815, ,0.0011780451363249329, ,0.023197539958691022,-0.005106864204716989,-0.033502598813951526,0.014129960563334688,-0.004193249562555839,-0.07069228993292906, ,0.041068601746700274, ,0.014737602235025146, ,0.0008877210653303177, ,0.2574913594923936,-0.18973210125394777,0.10611818827000001,1.768734673291963,0.81899917959405,-1.3105689209224343, ,0.1568544488569765,0.12652925541129437,0.036533971376146786,0.0,0.15771624072757567,-0.13616126186001706, ,1.6668529510498047
0.01805252382104546,0.01946968445059272,-0.09362002488727005, ,0.018670271578702807,0.019044054501744373,-0.09415024187381225, ,0.0009186420403319379, ,0.022316083442485788,-0.006039734794633012,-0.0330407346567745,-0.04726563656979878,-0.05429567060016342,0.06105905849361116, ,0.04032587411651319, ,0.07198625472087905, ,0.0008879684331303307, ,0.2589972924028674,-0.18848101852832339,0.10647855689,1.7676862235745403,0.8203655445917044,-1.3116830999593985, ,0.14735549931439562,0.12470031742243204,0.03555538285714287,-0.1300065599648003,0.12123069812387277,-0.10606479818756079, ,1.6708438396453857
0.01805252382104546,0.01946968445059272,-0.09362002488727005, ,0.018740954579676717,0.01902896775547922,-0.09425795645989604, ,0.001036882252782083, ,0.022316083442485788,-0.006039734794633012,-0.0330407346567745,-0.04726563656979878,-0.05429567060016342,0.06105905849361116, ,0.04032587411651319, ,0.07198625472087905, ,0.0008891502888418526, ,0.2589972924028674,-0.18848101852832339,0.10647855689,1.7676862235745403,0.8203655445917044,-1.3116830999593985, ,0.14735549931439562,0.12470031742243204,0.03555538285714287,-0.1300065599648003,0.12123069812387277,-0.10606479818756079, ,1.6744098663330078
0.01805252382104546,0.01946968445059272,-0.09362002488727005, ,0.018811432505254935,0.019013959776857527,-0.09436541926790701, ,0.001157255439349828, ,0.022316083442485788,-0.006039734794633012,-0.0330407346567745,-0.04726563656979878,-0.05429567060016342,0.06105905849361116, ,0.04032587411651319, ,0.07198625472087905, ,0.0008912613530190807, ,0.2589972924028674,-0.18848101852832339,0.10647855689,1.7676862235745403,0.8203655445917044,-1.3116830999593985, ,0.14735549931439562,0.12470031742243204,0.03555538285714287,-0.1300065599648003,0.12123069812387277,-0.10606479818756079, ,1.6780009269714355
0.018269475389156176,0.019413621455538654,-0.0939307389670197, ,0.01888170488839613,0.018999032045960144,-0.0944726304182251, ,0.0009167091595286649, ,0.021192003636059005,-0.005616712622709477,-0.029244933179949303,-0.036105613510489326,-0.05300673235326358,0.01632830312444956, ,0.03655016546469443, ,0.0641350731632218, ,0.0008914601640074369, ,0.26044144345034737,-0.1872917176656928,0.10681429600000002,1.7668474638006022,0.821458636589828,-1.3125744431889697, ,0.14356572096591644,0.11544640092271385,0.03173070023904383,-0.07752933486932938,0.10836206381875992,-0.0952757079805285, ,1.6816039085388184
0.018269475389156176,0.019413621455538654,-0.0939307389670197, ,0.018951771269370966,0.018984186034376665,-0.0945795900317378, ,0.001034867215295015, ,0.021192003636059005,-0.005616712622709477,-0.029244933179949303,-0.036105613510489326,-0.05300673235326358,0.01632830312444956, ,0.03655016546469443, ,0.0641350731632218, ,0.0008925718465755577, ,0.26044144345034737,-0.1872917176656928,0.10681429600000002,1.7668474638006022,0.821458636589828,-1.3125744431889697, ,0.14356572096591644,0.11544640092271385,0.03173070023904383,-0.07752933486932938,0.10836206381875992,-0.0952757079805285, ,1.685467004776001
0.018269475389156176,0.019413621455538654,-0.0939307389670197, ,0.01902163119574457,0.018969423205220524,-0.0946862982298394, ,0.001154954649587149, ,0.021192003636059005,-0.005616712622709477,-0.029244933179949303,-0.036105613510489326,-0.05300673235326358,0.01632830312444956, ,0.03655016546469443, ,0.0641350731632218, ,0.000894590175829493, ,0.26044144345034737,-0.1872917176656928,0.10681429600000002,1.7668474638006022,0.821458636589828,-1.3125744431889697, ,0.14356572096591644,0.11544640092271385,0.03173070023904383,-0.07752933486932938,0.10836206381875992,-0.0952757079805285, ,1.6893799304962158
0.018483281798834322,0.019354247632359267,-0.09421724473248287, ,0.019091284222358715,0.01895474501314397,-0.0947927551344314, ,0.000927621427373461, ,0.019467144526709914,-0.005726674068506051,-0.02602046066144689,-0.00227346266127978,-0.01267614003667207,-0.043394716288169335, ,0.032997407245791546, ,0.012877935801274984, ,0.0008948423227878438, ,0.26190876269645,-0.18607924860443956,0.10712670189000001,1.7666377738571177,0.8226883650877169,-1.3135772043222373, ,0.13441493138593594,0.11337746900653618,0.02844430628571429,-0.019015236555912626,0.12929914522524896,-0.11207882005203589, ,1.6930208206176758
0.018483281798834322,0.019354247632359267,-0.09421724473248287, ,0.01916072991131417,0.01894015290435424,-0.0948989608679233, ,0.0010464928466950415, ,0.019467144526709914,-0.005726674068506051,-0.02602046066144689,-0.00227346266127978,-0.01267614003667207,-0.043394716288169335, ,0.032997407245791546, ,0.012877935801274984, ,0.0008959911903932015, ,0.26190876269645,-0.18607924860443956,0.10712670189000001,1.7666377738571177,0.8226883650877169,-1.3135772043222373, ,0.13441493138593594,0.11337746900653618,0.02844430628571429,-0.019015236555912626,0.12929914522524896,-0.11207882005203589, ,1.6965928077697754
0.01866395707032759,0.019302333911267767,-0.09446264293947935, ,0.01922996783195345,0.018925648316628647,-0.09500491555323187, ,0.0008696664918869206, ,0.018370223098345274,-0.00509808734685855,-0.025298421616639748,0.016702336937354477,0.008995976464642784,-0.06164758479139021, ,0.03167752716946894, ,0.018970642824100416, ,0.0008957932603292445, ,0.26314439995632594,-0.18503667966641926,0.10739503392000001,1.766428083913633,0.8239180935856059,-1.3145799654555055, ,0.12486439678746157,0.10614870420410602,0.02775054271777004,0.0,0.13819001452246035,-0.11911543446115753, ,1.700963020324707
0.01866395707032759,0.019302333911267767,-0.09446264293947935, ,0.019298997560842975,0.018911232679330498,-0.09511061931378274, ,0.0009879827831861423, ,0.018370223098345274,-0.00509808734685855,-0.025298421616639748,0.016702336937354477,0.008995976464642784,-0.06164758479139021, ,0.03167752716946894, ,0.018970642824100416, ,0.0008964812418431019, ,0.26314439995632594,-0.18503667966641926,0.10739503392000001,1.766428083913633,0.8239180935856059,-1.3145799654555055, ,0.12486439678746157,0.10614870420410602,0.02775054271777004,0.0,0.13819001452246035,-0.11911543446115753, ,1.704521894454956
0.01866395707032759,0.019302333911267767,-0.09446264293947935, ,0.019367818681755272,0.018896907413423234,-0.09521607227350895, ,0.0011079023307910935, ,0.018370223098345274,-0.00509808734685855,-0.025298421616639748,0.016702336937354477,0.008995976464642784,-0.06164758479139021, ,0.03167752716946894, ,0.018970642824100416, ,0.0008980473239834574, ,0.26314439995632594,-0.18503667966641926,0.10739503392000001,1.766428083913633,0.8239180935856059,-1.3145799654555055, ,0.12486439678746157,0.10614870420410602,0.02775054271777004,0.0,0.13819001452246035,-0.11911543446115753, ,1.7081189155578613
0.018842424738652393,0.019248329949833158,-0.09471623685650178, ,0.01943643078565201,0.01888267393148821,-0.09532127455685327, ,0.0009233732324854398, ,0.017571375585693518,-0.005235344634287873,-0.025911734329914563,0.02174125147331271,0.029956963083859336,0.057298387702789784, ,0.0317424014434533, ,0.03701472641759388, ,0.0008982335438989131, ,0.2643568690175792,-0.1840172789270216,0.10767243998,1.7653796341962105,0.8254210950830257,-1.3158872411363065, ,0.11876963899683453,0.099368525192116,0.02844430628571429,-0.1328901025731624,0.1785320793866217,-0.15148463869365814, ,1.7116940021514893
0.018842424738652393,0.019248329949833158,-0.09471623685650178, ,0.019504833470665416,0.01886853363773712,-0.09542622628876601, ,0.0010426483399764942, ,0.017571375585693518,-0.005235344634287873,-0.025911734329914563,0.02174125147331271,0.029956963083859336,0.057298387702789784, ,0.0317424014434533, ,0.03701472641759388, ,0.0008992876664980197, ,0.2643568690175792,-0.1840172789270216,0.10767243998,1.7653796341962105,0.8254210950830257,-1.3158872411363065, ,0.11876963899683453,0.099368525192116,0.02844430628571429,-0.1328901025731624,0.1785320793866217,-0.15148463869365814, ,1.7152769565582275
0.018842424738652393,0.019248329949833158,-0.09471623685650178, ,0.019573026342081714,0.018854487928030492,-0.09553092759470799, ,0.0011630181597851721, ,0.017571375585693518,-0.005235344634287873,-0.025911734329914563,0.02174125147331271,0.029956963083859336,0.057298387702789784, ,0.0317424014434533, ,0.03701472641759388, ,0.000901198757029086, ,0.2643568690175792,-0.1840172789270216,0.10767243998,1.7653796341962105,0.8254210950830257,-1.3158872411363065, ,0.11876963899683453,0.099368525192116,0.02844430628571429,-0.1328901025731624,0.1785320793866217,-0.15148463869365814, ,1.7190220355987549
0.019014968545392825,0.019202810365855628,-0.09497212054377525, ,0.019641009012322616,0.018840538189890687,-0.095635378600648, ,0.0009813659081701637, ,0.018762137958036783,-0.00434642636138312,-0.028421936706890156,-0.056182453225837085,-0.06293266630966024,0.010268707243472563, ,0.03433242969907316, ,0.08436213601221894, ,0.0009017754991236261, ,0.2654766652843418,-0.18307510551636622,0.10795114233000001,1.7645408744222726,0.8266508235809147,-1.316971681009715, ,0.11488733844851184,0.09895405793375472,0.030573534587332057,-0.05371201884738273,0.06366699671765597,-0.05292224098802818, ,1.7228419780731201
0.019014968545392825,0.019202810365855628,-0.09497212054377525, ,0.019708781100928465,0.018826685802519148,-0.09573957943306552, ,0.0011008354536962376, ,0.018762137958036783,-0.00434642636138312,-0.028421936706890156,-0.056182453225837085,-0.06293266630966024,0.010268707243472563, ,0.03433242969907316, ,0.08436213601221894, ,0.0009031973559420019, ,0.2654766652843418,-0.18307510551636622,0.10795114233000001,1.7645408744222726,0.8266508235809147,-1.316971681009715, ,0.11488733844851184,0.09895405793375472,0.030573534587332057,-0.05371201884738273,0.06366699671765597,-0.05292224098802818, ,1.7264399528503418
0.019014968545392825,0.019202810365855628,-0.09497212054377525, ,0.01977634223454013,0.018812932136810585,-0.09584353021894929, ,0.0012210854802166742, ,0.018762137958036783,-0.00434642636138312,-0.028421936706890156,-0.056182453225837085,-0.06293266630966024,0.010268707243472563, ,0.03433242969907316, ,0.08436213601221894, ,0.0009054518816460777, ,0.2654766652843418,-0.18307510551636622,0.10795114233000001,1.7645408744222726,0.8266508235809147,-1.316971681009715, ,0.11488733844851184,0.09895405793375472,0.030573534587332057,-0.05371201884738273,0.06366699671765597,-0.05292224098802818, ,1.7300398349761963
0.01921411769116049,0.01916504778725235,-0.09528354821691785, ,0.019843692046881585,0.018799278555369427,-0.09594723108579836, ,0.0009852035073117224, ,0.017841598836479806,-0.0032965593149405868,-0.028697846461014098,-0.04358977262820557,-0.050308137280636225,-0.011669727595001782, ,0.03395226566606032, ,0.0665654376518228, ,0.000906013512812737, ,0.2666582434140981,-0.18205570477696859,0.10828688144000001,1.7645408744222726,0.827334006079742,-1.317528770528197, ,0.10359928117736984,0.08977950951605561,0.030869789767441865,-0.02725127834036158,0.060068213991180126,-0.04982090834432751, ,1.7336399555206299
0.01921411769116049,0.01916504778725235,-0.09528354821691785, ,0.019910830178742157,0.018785726412524222,-0.09605068216162198, ,0.001103534088642115, ,0.017841598836479806,-0.0032965593149405868,-0.028697846461014098,-0.04358977262820557,-0.050308137280636225,-0.011669727595001782, ,0.03395226566606032, ,0.0665654376518228, ,0.0009073947755807746, ,0.2666582434140981,-0.18205570477696859,0.10828688144000001,1.7645408744222726,0.827334006079742,-1.317528770528197, ,0.10359928117736984,0.08977950951605561,0.030869789767441865,-0.02725127834036158,0.060068213991180126,-0.04982090834432751, ,1.7371809482574463
0.01939376338101008,0.01913239073549106,-0.09557476601416569, ,0.019977756277959245,0.018772277054343964,-0.09615388357494004, ,0.0008978344592594015, ,0.017833072888750894,-0.0027631858167465866,-0.029618928038603408,0.046848924885118194,0.046442542374863734,-0.05063212131756187, ,0.03468334733945585, ,0.06596748221480422, ,0.0009073283844952094, ,0.2677239805507411,-0.18115986776355855,0.10860317620000001,1.7641214945353034,0.8284270980778654,-1.3184201137577682, ,0.10626757173400983,0.08778625491070376,0.0325077786122449,-0.011022677431212618,0.15956010347736221,-0.13402287770339102, ,1.741048812866211
0.01939376338101008,0.01913239073549106,-0.09557476601416569, ,0.02004446999940032,0.018758931818653325,-0.09625683545478345, ,0.0010139572908200326, ,0.017833072888750894,-0.0027631858167465866,-0.029618928038603408,0.046848924885118194,0.046442542374863734,-0.05063212131756187, ,0.03468334733945585, ,0.06596748221480422, ,0.0009080637562629669, ,0.2677239805507411,-0.18115986776355855,0.10860317620000001,1.7641214945353034,0.8284270980778654,-1.3184201137577682, ,0.10626757173400983,0.08778625491070376,0.0325077786122449,-0.011022677431212618,0.15956010347736221,-0.13402287770339102, ,1.7446320056915283
0.01939376338101008,0.01913239073549106,-0.09557476601416569, ,0.02011097100494553,0.018745692035047702,-0.09635953793069364, ,0.0011312778711380653, ,0.017833072888750894,-0.0027631858167465866,-0.029618928038603408,0.046848924885118194,0.046442542374863734,-0.05063212131756187, ,0.03468334733945585, ,0.06596748221480422, ,0.0009095926200634813, ,0.2677239805507411,-0.18115986776355855,0.10860317620000001,1.7641214945353034,0.8284270980778654,-1.3184201137577682, ,0.10626757173400983,0.08778625491070376,0.0325077786122449,-0.011022677431212618,0.15956010347736221,-0.13402287770339102, ,1.748201847076416
0.019573631124504474,0.019101062443026656,-0.09588965918065863, ,0.02017725896347018,0.018732559024909463,-0.09646199113272416, ,0.000909794042898504, ,0.017025853246571146,-0.002849289377962114,-0.030637312275668974,0.03670959665347039,0.05248580151389806,0.06341122995906807, ,0.035165935679432755, ,0.06404940947333122, ,0.0009095939902868488, ,0.26878199495450983,-0.18028719894877118,0.10894798934000001,1.7628633548743964,0.8303400090745816,-1.3199799644095183, ,0.09763059831118392,0.08159668233746413,0.03346388974789917,-0.13460221548175738,0.17955860637801177,-0.15033031586290363, ,1.7518229484558105
0.019573631124504474,0.019101062443026656,-0.09588965918065863, ,0.0202433335508269,0.01871953410142249,-0.09656419519143955, ,0.0010242382755538907, ,0.017025853246571146,-0.002849289377962114,-0.030637312275668974,0.03670959665347039,0.05248580151389806,0.06341122995906807, ,0.035165935679432755, ,0.06404940947333122, ,0.0009103686138359505, ,0.26878199495450983,-0.18028719894877118,0.10894798934000001,1.7628633548743964,0.8303400090745816,-1.3199799644095183, ,0.09763059831118392,0.08159668233746413,0.03346388974789917,-0.13460221548175738,0.17955860637801177,-0.15033031586290363, ,1.7561008930206299
0.019573631124504474,0.019101062443026656,-0.09588965918065863, ,0.02030919444982805,0.01870661856958819,-0.0966661502379161, ,0.0011399902354209154, ,0.017025853246571146,-0.002849289377962114,-0.030637312275668974,0.03670959665347039,0.05248580151389806,0.06341122995906807, ,0.035165935679432755, ,0.06404940947333122, ,0.0009119096985445744, ,0.26878199495450983,-0.18028719894877118,0.10894798934000001,1.7628633548743964,0.8303400090745816,-1.3199799644095183, ,0.09763059831118392,0.08159668233746413,0.03346388974789917,-0.13460221548175738,0.17955860637801177,-0.15033031586290363, ,1.759814977645874
0.01969737143766345,0.01908376757291377,-0.09611259315671977, ,0.020374841350228393,0.018693813726241057,-0.09676785640374273, ,0.001019999709737543, ,0.016766039629669074,-0.002426620607078086,-0.029437023773949782,0.02480985053245495,0.030178277410420475,0.013457638317059475, ,0.03396361201495528, ,0.0390670578233533, ,0.0009126302986191943, ,0.26947704091319,-0.1796925485174559,0.10919169186000001,1.7624439749874272,0.8315697375724705,-1.320982725542786, ,0.09470752650545987,0.07855707082654866,0.03211453935483872,-0.07223224474122737,0.14194325428026716,-0.11947280899079016, ,1.7634878158569336
0.01969737143766345,0.01908376757291377,-0.09611259315671977, ,0.020440273948707174,0.01868112086006368,-0.0968693138210201, ,0.0011343080181604912, ,0.016766039629669074,-0.002426620607078086,-0.029437023773949782,0.02480985053245495,0.030178277410420475,0.013457638317059475, ,0.03396361201495528, ,0.0390670578233533, ,0.0009140983629870174, ,0.26947704091319,-0.1796925485174559,0.10919169186000001,1.7624439749874272,0.8315697375724705,-1.320982725542786, ,0.09470752650545987,0.07855707082654866,0.03211453935483872,-0.07223224474122737,0.14194325428026716,-0.11947280899079016, ,1.7671489715576172
0.01969737143766345,0.01908376757291377,-0.09611259315671977, ,0.020505491948850534,0.01866854125160207,-0.09697052262236168, ,0.001249605788450074, ,0.016860034357651526,-0.0017256638094237694,-0.027473558250093708,-0.006837389544917541,-0.022961654933810954,-0.05701061803421173, ,0.03228056810289492, ,0.023957709425535902, ,0.0009163056486808534, ,0.2706972327073175,-0.1787503751068005,0.10958057886000001,1.762024595100458,0.8327994660703596,-1.3220671654161946, ,0.09451886609409439,0.07316649310599135,0.029941375037593993,0.022309939957291844,0.0696196962379036,-0.05768079517826154, ,1.7712388038635254
0.019912004679321398,0.01905789064884816,-0.09646902947277834, ,0.020570495061134238,0.01865607617328248,-0.09707148294089372, ,0.0009787822214151597, ,0.016860034357651526,-0.0017256638094237694,-0.027473558250093708,-0.006837389544917541,-0.022961654933810954,-0.05701061803421173, ,0.03228056810289492, ,0.023957709425535902, ,0.0009167139922934957, ,0.2706972327073175,-0.1787503751068005,0.10958057886000001,1.762024595100458,0.8327994660703596,-1.3220671654161946, ,0.09451886609409439,0.07316649310599135,0.029941375037593993,0.022309939957291844,0.0696196962379036,-0.05768079517826154, ,1.7748658657073975
0.019912004679321398,0.01905789064884816,-0.09646902947277834, ,0.02063528300290556,0.018643726889424617,-0.09717219491025515, ,0.0010904608133484256, ,0.016860034357651526,-0.0017256638094237694,-0.027473558250093708,-0.006837389544917541,-0.022961654933810954,-0.05701061803421173, ,0.03228056810289492, ,0.023957709425535902, ,0.000917842218404242, ,0.2706972327073175,-0.1787503751068005,0.10958057886000001,1.762024595100458,0.8327994660703596,-1.3220671654161946, ,0.09451886609409439,0.07316649310599135,0.029941375037593993,0.022309939957291844,0.0696196962379036,-0.05768079517826154, ,1.7784178256988525
0.02007475091999722,0.019036254120156592,-0.0967436242223183, ,0.020699855498366126,0.018631494656259146,-0.09727265866459882, ,0.0009134896817322962, ,0.01608931466533741,-0.0021145799520635483,-0.027916744123591488,0.0037438859197942475,0.004136670320062974,-0.0217227661217958, ,0.03229058836930647, ,0.005577792314244873, ,0.0009178141375224876, ,0.27159306972072755,-0.1779935472851265,0.10987872556000002,1.762024595100458,0.8336192850689521,-1.3227356728383728, ,0.08754330402072949,0.07442897377134963,0.030340593371428574,-0.02218733427919129,0.0984986223884432,-0.08104692917530772, ,1.7820038795471191
0.02007475091999722,0.019036254120156592,-0.0967436242223183, ,0.02076421227855394,0.018619380721941962,-0.09737287433859074, ,0.0010222994198916307, ,0.01608931466533741,-0.0021145799520635483,-0.027916744123591488,0.0037438859197942475,0.004136670320062974,-0.0217227661217958, ,0.03229058836930647, ,0.005577792314244873, ,0.0009184839149735718, ,0.27159306972072755,-0.1779935472851265,0.10987872556000002,1.762024595100458,0.8336192850689521,-1.3227356728383728, ,0.08754330402072949,0.07442897377134963,0.030340593371428574,-0.02218733427919129,0.0984986223884432,-0.08104692917530772, ,1.785571813583374
0.02007475091999722,0.019036254120156592,-0.0967436242223183, ,0.020828353081326082,0.01860738632657006,-0.09747284206741044, ,0.0011329618120378714, ,0.01608931466533741,-0.0021145799520635483,-0.027916744123591488,0.0037438859197942475,0.004136670320062974,-0.0217227661217958, ,0.03229058836930647, ,0.005577792314244873, ,0.0009198500162287584, ,0.27159306972072755,-0.1779935472851265,0.10987872556000002,1.762024595100458,0.8336192850689521,-1.3227356728383728, ,0.08754330402072949,0.07442897377134963,0.030340593371428574,-0.02218733427919129,0.0984986223884432,-0.08104692917530772, ,1.789175033569336
0.02022601176297193,0.019012437248994565,-0.09700337165227903, ,0.020892277651340913,0.01859551270219724,-0.0975725619867521, ,0.0009704194704270059, ,0.015292450670411347,-0.002815093663829694,-0.02595544974952703,0.0034966170704378327,0.01649867559632011,0.08357382717508101, ,0.030256721097027702, ,0.016864781274526633, ,0.0009201700760654562, ,0.2724502930697665,-0.17731394679219475,0.11016261307000001,1.7609761453830355,0.8348490135668412,-1.3238201127117812, ,0.08819418360452676,0.06987992750991957,0.028393603422459897,-0.13919852643758288,0.13306985302549612,-0.10707398056413568, ,1.7934489250183105
0.02022601176297193,0.019012437248994565,-0.09700337165227903, ,0.020955985740040435,0.018583761072848582,-0.0976720342328235, ,0.00107876546005735, ,0.015292450670411347,-0.002815093663829694,-0.02595544974952703,0.0034966170704378327,0.01649867559632011,0.08357382717508101, ,0.030256721097027702, ,0.016864781274526633, ,0.0009211675313106883, ,0.2724502930697665,-0.17731394679219475,0.11016261307000001,1.7609761453830355,0.8348490135668412,-1.3238201127117812, ,0.08819418360452676,0.06987992750991957,0.028393603422459897,-0.13919852643758288,0.13306985302549612,-0.10707398056413568, ,1.7969939708709717
0.02022601176297193,0.019012437248994565,-0.09700337165227903, ,0.021019477105632837,0.018572132654537048,-0.09777125894234716, ,0.0011887414673311294, ,0.015292450670411347,-0.002815093663829694,-0.02595544974952703,0.0034966170704378327,0.01649867559632011,0.08357382717508101, ,0.030256721097027702, ,0.016864781274526633, ,0.0009228398684108161, ,0.2724502930697665,-0.17731394679219475,0.11016261307000001,1.7609761453830355,0.8348490135668412,-1.3238201127117812, ,0.08819418360452676,0.06987992750991957,0.028393603422459897,-0.13919852643758288,0.13306985302549612,-0.10707398056413568, ,1.800567865371704
0.020385149611464766,0.018986810154555264,-0.09727152176510714, ,0.021082751513074736,0.018560628655278393,-0.09787023625256044, ,0.001013280869720827, ,0.015690088519599847,-0.002055712597946833,-0.026478912893190057,0.01998009512459196,0.02238818768081214,-0.0035849409427297376, ,0.030847004069169875, ,0.030007034710601416, ,0.0009234016137605678, ,0.273361575548925,-0.17658800990201765,0.11045687090000002,1.7601373856090976,0.8362153785644955,-1.3249342917487454, ,0.08819418360452676,0.06921731696460305,0.029067174306569344,-0.04463611264003469,0.1218570440756457,-0.09805975229209131, ,1.804994821548462
0.020385149611464766,0.018986810154555264,-0.09727152176510714, ,0.021145808734053678,0.01854925027510659,-0.09796896630121578, ,0.0011209325714906584, ,0.015690088519599847,-0.002055712597946833,-0.026478912893190057,0.01998009512459196,0.02238818768081214,-0.0035849409427297376, ,0.030847004069169875, ,0.030007034710601416, ,0.0009246209406601362, ,0.273361575548925,-0.17658800990201765,0.11045687090000002,1.7601373856090976,0.8362153785644955,-1.3249342917487454, ,0.08819418360452676,0.06921731696460305,0.029067174306569344,-0.04463611264003469,0.1218570440756457,-0.09805975229209131, ,1.808609962463379
0.020544360277009444,0.018971621798079995,-0.09753924643706649, ,0.021208648546970445,0.018537998706089326,-0.09806744922658038, ,0.0009530509316744739, ,0.016743171386119096,-0.0015413774794810248,-0.02794851208112349,0.011450015687314824,0.003513684910621239,-0.01744362892618823, ,0.03261639097367939, ,0.011976301105883845, ,0.0009247953577829235, ,0.27424196709658655,-0.1759161321419601,0.11075112873000001,1.7601373856090976,0.8373084705626191,-1.3258256349783166, ,0.09249214576849003,0.06778352968462198,0.030691351676300584,-0.025330584113565646,0.10335853485407209,-0.08308443920940023, ,1.81219482421875
