NicholasDascanio/dvrk_moveit_final/test/execution/third_experiment_notsharpbends/thirdexp_300vel3.0/thirdexp_300vel3.0_17.csv
Current Position (x),Current Position (y),Current Position (z), ,Planned Position (x),Planned Position (y),Planned Position (z), ,Position Error,,Cartesian linear Velocity(x),Cartesian linear Velocity(y),Cartesian linear Velocity(z),Cartesian Angular Velocity(x),Cartesian Angular Velocity(y),Cartesian Angular Velocity(z), ,Total Linear Velocity, ,Total Angular Velocity, ,MSE, ,Joint 1 Position,Joint 2 Position,Joint 3 Position,Joint 4 Position,Joint 5 Position,Joint 6 Position, ,Joint 1 Velocity,Joint 2 Velocity,Joint 3 Velocity,Joint 4 Velocity,Joint 5 Velocity,Joint 6 Velocity, ,Time Stamp
0.009341241756307815,0.020508873799366386,-0.07617181952866736, ,0.009534912164920787,0.02045326116671403,-0.07632292085391401, ,0.00025185829860089037, ,9.924744282587933e-05,-9.400154246484528e-05,-0.0005333786105075873,0.37747501416541585,0.005044459916061814,-0.020244627932700265, ,0.0005506170057673945, ,0.3775087189655698, ,2.0988191550074196e-05, ,0.14464678673422507,-0.2603796615873536,0.08608402632,1.608321866526302,0.19211091867020927,-1.2536807314250598, ,0.00027745418577854126,0.002912746228537227,0.0004989842946142176,0.0006011534345089583,0.0,-0.3807955833024721, ,0.035642147064208984
0.00942323413704163,0.020531834820252233,-0.07631593947969578, ,0.009588368576287422,0.020452057404321433,-0.07655581290480841, ,0.0003019488022709828, ,0.0027205350956257964,0.0007359469317233703,-0.004609808292011373,0.24722012571529353,-0.21059159891400775,-0.07042478192214818, ,0.005403078898363555, ,0.3247562348743472, ,2.51730500396306e-05, ,0.1446622321999735,-0.26027154332711444,0.08615791485,1.608321866526302,0.18719200467865343,-1.2600428868898401, ,0.0007223151177339593,0.0061679199459210585,0.004601043188908146,0.0005894806759871161,-0.22071635455734617,-0.253537941533716, ,0.07384014129638672
0.009455629564147012,0.020545752032984196,-0.07642426182532355, ,0.009641999364820755,0.020450833447473473,-0.07678793237251208, ,0.0004195229521384137, ,0.0026800723733194374,0.0005131913366439163,-0.0053698587251188356,0.11566109444642063,-0.196379977425076,-0.060040358540888905, ,0.006023415642471582, ,0.22790915799403996, ,3.0416564156571463e-05, ,0.14469312313147042,-0.26000124767651656,0.08633680287,1.608321866526302,0.18391272868428285,-1.268558844600383, ,0.0006847308269381079,0.011303255407905343,0.005299005828343314,0.0,-0.20413933745290713,-0.12698627501391535, ,0.10970211029052734
0.009507843605944043,0.020567032891543977,-0.07674213415732847, ,0.009695802828726518,0.020449589554730314,-0.07701927926438154, ,0.00035486760510699655, ,0.0007037856523799033,6.999844219095458e-05,-0.006493502622642598,-0.036907545569019484,0.05279507199274539,0.012981364491063045, ,0.006531905567035646, ,0.06441650824985307, ,3.162375376469722e-05, ,0.1448475777889549,-0.2592212516562199,0.08665439392,1.608321866526302,0.18459591118311003,-1.2620915624667768, ,0.0036658607125653678,0.020294469965455683,0.0064177322804190185,0.0,0.058652616322851986,0.01685115661590797, ,0.1456000804901123
0.009544469244004237,0.020566756792138575,-0.07693566155548145, ,0.009749777272545121,0.020448325984620347,-0.07724985359438898, ,0.000393565598173455, ,0.0013533507044656695,-0.00016446026012803013,-0.006348788823769634,0.08340118817134515,-0.004235685468493148,-0.00785872118926995, ,0.006493514059063961, ,0.08350867745010382, ,3.311083185174497e-05, ,0.1450020324464394,-0.25858798756053347,0.08684494855000001,1.608321866526302,0.18500582068240637,-1.263569318539834, ,0.005441541211519412,0.022610660366564398,0.006210062970760234,0.0,0.0,-0.10588102723353002, ,0.1828460693359375
0.00960254672553401,0.020558034287333504,-0.07718767204078357, ,0.009803921007142684,0.020447042995639347,-0.07747965538310861, ,0.00037165163839360097, ,0.0011310019406285449,-0.00045105315816490856,-0.004562101519759744,-0.013865533607314408,-0.006412029519586021,-0.0033647561473967155, ,0.004721798875194732, ,0.015276358950988155, ,3.376475636587645e-05, ,0.1452568826312888,-0.2576612596156265,0.08709124365000001,1.6085315564697864,0.18486918418264095,-1.2646014029981054, ,0.005820507175072535,0.0202080369587885,0.00439658060171129,0.0,-0.0006818818239853223,-0.006136053726473003, ,0.22029495239257812
0.009648105820877393,0.020554931010055816,-0.07738678632089903, ,0.00985823234970205,0.02044574084624954,-0.07770868465770452, ,0.00039961755370113557, ,0.0012273089540521635,-5.2241496677080666e-05,-0.005794930846325774,-0.01348646680804989,-0.0025672118325771077,-0.002372664833968361, ,0.005923701541803877, ,0.013728632744123503, ,3.462545067202049e-05, ,0.14546539641889286,-0.25698165912269477,0.08728698344000001,1.6085315564697864,0.18486918418264095,-1.2646014029981054, ,0.005093641104413141,0.019244968882269477,0.0056990381109123436,0.0,0.002551640752021702,-0.0055593649779639345, ,0.25606203079223633
0.00970045770083829,0.020563424347071216,-0.07765287379644456, ,0.009912709623713616,0.020444419794879223,-0.0779369414519167, ,0.00037404196969340915, ,0.0011917886703340795,0.0002232556560112772,-0.006340723571384395,0.0009499806906696075,0.01017744820931569,-0.0016658249591749764, ,0.006455616061336623, ,0.010221687977856235, ,3.4964322171693714e-05, ,0.14568163293937114,-0.25624027676676925,0.08755142660000001,1.6081121765828172,0.18527909368193726,-1.2651806929296163, ,0.00500778455461234,0.017609378652527513,0.006308440205940595,0.002247111204760278,0.014909823387229912,-0.018072897500530302, ,0.2916600704193115
0.009740477479194824,0.0205695002056445,-0.07783801259054852, ,0.009967351158966483,0.02044308009992136,-0.07816442580604899, ,0.0004171322295837795, ,0.0012299248566599438,0.00020282586737212682,-0.006266379348105932,-0.0011638191285283962,0.006483837122042014,-0.0024418157524357335, ,0.006389159852427686, ,0.006587458472486508, ,3.609018294134796e-05, ,0.14584381032972987,-0.25572285366419617,0.08773549978,1.6081121765828172,0.18527909368193726,-1.265425729150038, ,0.005192044753843539,0.01754426725059545,0.006231929389671363,0.0021982794468722224,0.011318729206450396,-0.015898637782678016, ,0.32449913024902344
0.00978026753573409,0.020577824540432228,-0.0780421754308272, ,0.010022155291539192,0.020441722019733374,-0.0783911377669552, ,0.0004458792376697064, ,0.0015371414280376887,0.0001807881520456072,-0.0067812535419848425,0.015380267886659284,0.00024103175160789545,-0.004487658528068188, ,0.0069556371186536015, ,0.015382155968220478, ,3.7300858853323704e-05, ,0.1460137104529628,-0.25517453963012626,0.08793901731,1.6081121765828172,0.18568900318123358,-1.266413412782252, ,0.007605676697593297,0.019410296902939408,0.006752357575243748,0.0021059906742134423,0.0071704040248013814,-0.034319877723744764, ,0.36391305923461914
0.00985386802766512,0.020572827466732037,-0.07835824189442707, ,0.010077120363790831,0.02044034581263584,-0.07861707738802698, ,0.00036659078957982684, ,0.0014256168101808683,-0.0004772355446940988,-0.005694710865684908,0.008889704156916743,-0.0025955961342263504,-0.005580395643695584, ,0.005889810599530302, ,0.009260882965487542, ,3.7584189678093556e-05, ,0.1462685606378122,-0.2543790981440811,0.08817494209000001,1.6081121765828172,0.18568900318123358,-1.2670668427033762, ,0.0078744999988821,0.023718305813164406,0.005526999139486468,0.0019987102433592116,0.0045739312783067525,-0.03210290420712423, ,0.3999760150909424
0.009895668782293312,0.020564237165918233,-0.07853701846222394, ,0.010132244724351884,0.020438951736911907,-0.07884224472918042, ,0.0004059897648000337, ,0.0014805355628721487,-0.0002862766815465947,-0.006200296418810233,-0.004731556306891835,0.0007906668809609016,-0.003783702631395928, ,0.006381035619116813, ,0.004797162707102795, ,3.815819016705281e-05, ,0.1465774699527812,-0.25345237019917416,0.08842512606000001,1.6081121765828172,0.18596227618076444,-1.2676163934713314, ,0.008012412779675206,0.02289431641941394,0.006075061601830665,0.0018961009952193975,0.00841000774275875,-0.017663727873105644, ,0.43230605125427246
0.00994728464432544,0.020565499324520817,-0.07875647143806228, ,0.010187526728115176,0.020437540050806665,-0.07906663985684287, ,0.0004126672782786901, ,0.0017112558241809386,3.3469405318621494e-05,-0.0072308158693419645,-0.02333712805793988,-0.0019391367200572041,-0.0032700595483026993, ,0.007430626812942038, ,0.02341755276379136, ,3.870341510229072e-05, ,0.14684776560337906,-0.25278049243911666,0.08864290278,1.6081121765828172,0.18623554918029533,-1.2681659442392865, ,0.008736995177612259,0.0222085049282637,0.007171909734353896,0.0018278239478565258,0.00657162136233121,0.0016304027957663777, ,0.46484804153442383
0.00999544794913089,0.020561567648763976,-0.0789560797928388, ,0.010242964736226852,0.02043611101252582,-0.07929026284394042, ,0.0004343756889077612, ,0.0016565210046340815,-0.00014314297518064445,-0.006345252002170633,-0.008631790162612932,-0.007771663709073858,0.002894620874055718, ,0.006559479759949556, ,0.011614927805732063, ,3.933609858013738e-05, ,0.1471103385211027,-0.25211633741193334,0.08883993886000001,1.6079024866393328,0.1865088221798262,-1.2687154950072415, ,0.009239390824790493,0.021315575372522634,0.006266251581431944,-0.00610416844112186,0.002939296045312171,-0.013332514927991162, ,0.49763011932373047
0.010046323379697129,0.02056042867306613,-0.07914804197742388, ,0.01029855711607724,0.020434664880235376,-0.07951311376988447, ,0.0004612112346916944, ,0.0017503650705286487,0.00016153995045241354,-0.007303139455980652,-0.016281428211407666,-0.006428590862715127,0.0033205822444080063, ,0.007511705462091835, ,0.017504618370820714, ,4.007531476958881e-05, ,0.14740380237032322,-0.2515062415148696,0.08903049349000001,1.6079024866393328,0.18664545867959165,-1.2694803428320625, ,0.008686541003483853,0.020553810170775566,0.007276752635906807,-0.005841767653570588,0.003780111231615831,-0.004884560312901604, ,0.5296030044555664
0.010118391265367307,0.020569667738796107,-0.07944383973495851, ,0.010354302241291705,0.020433201912060762,-0.07973519272055885, ,0.00039895297046944065, ,0.001971130368607693,0.0004318471585848882,-0.007850820820972918,-0.004611485853239873,-0.01101421618680668,0.0014332843500513542, ,0.008105999905097904, ,0.01194063357446738, ,4.032385462376506e-05, ,0.14776677081541176,-0.25070307729595026,0.08932604761000001,1.6079024866393328,0.1867820951793571,-1.270326869397024, ,0.009917398705282611,0.018960427883810346,0.007893365470763133,-0.005066149305174694,0.0,-0.014879073330309646, ,0.5617530345916748
0.010153789496637528,0.020574067267820767,-0.07958883100120456, ,0.010410198491721761,0.020431722366085404,-0.07995649978830743, ,0.0004703062627903783, ,0.0018104875982318904,0.0002886233622092525,-0.007842253006621783,-0.007092561035456762,-0.0022293865704670146,0.002761313980929828, ,0.008053701075184803, ,0.007434686063311451, ,4.123567823981603e-05, ,0.14805251193175809,-0.2501007041317607,0.08954252804000001,1.6079024866393328,0.18705536817888796,-1.2709580989051195, ,0.00876307920715246,0.02047840775970453,0.007842841713441656,-0.004615143805192566,0.007774897533453413,-0.013832996684095905, ,0.5911200046539307
0.010205731267842213,0.020576742849922492,-0.07980652585145645, ,0.010466244253435725,0.020430226500350767,-0.08017703507191985, ,0.00047603690907645766, ,0.0016620633937889204,-0.00016179596383918528,-0.0064040785116758325,-0.029259147741231614,-0.00772649948511252,0.0019506754953677189, ,0.006618221380597354, ,0.03026212996576725, ,4.2095392846627376e-05, ,0.148222412054991,-0.2496759538236784,0.08968771252,1.6079024866393328,0.18719200467865343,-1.2711511955489565, ,0.008955017471857563,0.02134434133119001,0.006323466264390632,-0.004350976908326647,0.002461941089075392,0.007533920110317722, ,0.6198539733886719
0.010258111538588605,0.020575974481483704,-0.08002166566295495, ,0.010522437918709836,0.02042871457285489,-0.08039679867662007, ,0.00048195299963672725, ,0.001914821931629655,0.00026466085575733555,-0.008097128633493897,0.0070957634699757915,0.009569946750855865,0.004937768106423717, ,0.008324666990682981, ,0.011913593296313807, ,4.291106619979428e-05, ,0.14853132136996,-0.2490117987964951,0.08990160037000001,1.6079024866393328,0.18773855067771517,-1.2717602246440234, ,0.011063008800743585,0.021416597056752605,0.008118660305810398,-0.004019201809527632,0.022008796006650636,-0.028875373485493242, ,0.6485259532928467
0.010318114079944155,0.020581589988063975,-0.08025387966362577, ,0.010578777886018924,0.020427186841551998,-0.0806157907140521, ,0.00047198046556068174, ,0.00207404979489965,0.00025240175347631907,-0.008779851290704502,0.017318086820878594,0.0032060700963689763,-0.0017221525095637096, ,0.009025030630627616, ,0.01761235260907874, ,4.3602958328624e-05, ,0.14884023068492896,-0.24837853470080867,0.09013363628000001,1.607692796695848,0.18773855067771517,-1.2722502970848666, ,0.010808026955424323,0.02354762817828059,0.008781042734288865,0.0,0.014016429108006236,-0.04064310118475142, ,0.6769449710845947
0.010381034464996285,0.020578485055564175,-0.0804955585228736, ,0.010635262560027585,0.02042564356435122,-0.0808340113022675, ,0.0004500474748500421, ,0.0019827089851967273,-0.00017654206803176172,-0.0071491250515818535,0.009085761722746102,-0.005660585197673843,-0.0034076111746871216, ,0.007421070746524386, ,0.010704824715401767, ,4.4124730535948994e-05, ,0.1491954763971433,-0.24761398414626046,0.09037344993,1.607692796695848,0.18801182367724606,-1.2734532777739465, ,0.011715278626804885,0.023571023735338002,0.007085770249110321,0.0,0.005892124050652808,-0.03242502708281445, ,0.7061100006103516
0.010439431435238244,0.02057214465886293,-0.08071049328155036, ,0.010691890351580774,0.020424084999116004,-0.08105146056571265, ,0.000449350482534766, ,0.002074731848287226,-7.227720123597248e-05,-0.008061811518540473,-0.00704341049296089,-0.006275953944415193,-0.0033009945402937206, ,0.008324814784521496, ,0.009433832478434136, ,4.4601723794598375e-05, ,0.14952755391073497,-0.24689576998895757,0.09058604149,1.607692796695848,0.18814846017701148,-1.2741364468586267, ,0.010963873733352808,0.024913872816610862,0.008000407594173784,0.0,0.00464568792934361,-0.01760843488332473, ,0.7345089912414551
0.010499566649751156,0.020573695337061926,-0.0809525748634554, ,0.010748659677694934,0.020422511403663444,-0.08126813863521526, ,0.00042951648668630016, ,0.001974563592836662,-5.432910443042973e-05,-0.007930427169393649,0.0013317590227599364,0.00048182980525118027,-0.0019054527334294359, ,0.008172730762896891, ,0.0014162311563492424, ,4.49479271104532e-05, ,0.14984418595857815,-0.24619300129740315,0.09082715143,1.607692796695848,0.1884217331765424,-1.2745226401463006, ,0.010643071807934515,0.02417756472827281,0.007877750504451041,0.0,0.011204752396275303,-0.025260572569204276, ,0.7634260654449463
0.010545626564832355,0.020574883200322348,-0.08113453532341136, ,0.010805568961548712,0.02042092303576281,-0.081484045647972, ,0.00046198619985485213, ,0.0021161452581779073,7.995878467185812e-05,-0.007971237631124612,-0.009343113249434857,-0.005278167011767881,-0.005194890072841928, ,0.008247732629808761, ,0.010730926335257024, ,4.541766464701846e-05, ,0.15009131341055335,-0.24568330092770432,0.09100603945,1.6072734168088794,0.18869500617607327,-1.2749088334339747, ,0.011656420185883863,0.022675493801307234,0.00797237813813814,0.0027794481868582714,0.005710409050866534,-0.012792338605730456, ,0.7918751239776611
0.010606181809613358,0.020572998653253842,-0.0813732940909325, ,0.010862616632473851,0.02041932015313572,-0.08169918174753446, ,0.0004422427664751201, ,0.002051654621746898,-4.882407583376439e-05,-0.008122418038709832,-0.0038482547553320514,0.0010765033382867824,-0.004068083246389237, ,0.008377669441609361, ,0.003995984077326201, ,4.5970194042333974e-05, ,0.150423390924145,-0.244949641304653,0.09124585310000001,1.6072734168088794,0.18896827917560413,-1.2755400629420701, ,0.011167364799031085,0.02450850763390258,0.008077490628803247,0.0025485222984167,0.011768279060627707,-0.020034609787499526, ,0.8166041374206543
0.010644375037515957,0.020567879104727415,-0.08151872835390102, ,0.010919801125946217,0.02041770301345402,-0.08191354708379742, ,0.0005042759344398197, ,0.002140518349966493,-1.3461012562137242e-05,-0.008149508221261644,0.01566564158962084,0.0016121697866806823,-0.004304138082786037, ,0.008425941149439248, ,0.01574837711921489, ,4.675676549122829e-05, ,0.1506473501774975,-0.24446310913357686,0.09138974129,1.6072734168088794,0.18924155217513502,-1.2762529711903066, ,0.012313084411375474,0.024128385852649575,0.008126944653061225,0.0024046770793759863,0.013325468974830494,-0.039210256111214155, ,0.8424921035766602
0.010716723689887932,0.02057008164112704,-0.08179162670317697, ,0.0109771208835765,0.020416071874340195,-0.08212714181298508, ,0.0004517699587800985, ,0.0023861380878965627,3.69938776110011e-05,-0.009506401341530293,-0.005450662473928549,-0.0033393449865889192,-0.0050729590062241064, ,0.00980136163947338, ,0.006392250676014474, ,4.727757135039775e-05, ,0.1510180413554603,-0.2436908358461544,0.09166196219000002,1.6072734168088794,0.18924155217513502,-1.2769880798515714, ,0.01216003864152624,0.027292764325128206,0.009470161426872773,0.002205863273914075,0.008313785255249284,-0.021230610610269717, ,0.8670141696929932
0.010763537605204598,0.02057361682603576,-0.08197544711834111, ,0.011034574353101071,0.020414426993365688,-0.08233996609763822, ,0.00048132775507301527, ,0.0023044498074990508,-9.10945891009764e-05,-0.00816814157607242,0.009723970724873241,-0.006376387170818386,-0.005630601087286494, ,0.008487480423907245, ,0.0116281504828156, ,4.7888891495195434e-05, ,0.1512728915403097,-0.24319658094220403,0.09184603537000001,1.6072734168088794,0.18951482517466592,-1.2775376306195265, ,0.013346967870389699,0.024848636176609266,0.008139402922841084,0.0020957165283752273,0.006294608167582639,-0.03401466893082152, ,0.8925189971923828
0.010831812330265532,0.02057015384353891,-0.08222281498408038, ,0.01109215998837302,0.020412768628050162,-0.08255202010660112, ,0.00044824883918465443, ,0.0023078361739563933,0.00017354615624271593,-0.008454991340337453,0.004088916969151163,-0.008448360160024244,-0.005518656996035978, ,0.008766019885863232, ,0.009385839768818289, ,4.833563694467482e-05, ,0.15166675091689513,-0.24243975312053004,0.09209233047000001,1.6072734168088794,0.18978809817419678,-1.2784138963480443, ,0.012470031742243202,0.022487426909590234,0.008477281277275149,0.001945379342150328,0.003381519875496275,-0.026057151621556283, ,0.917849063873291
0.010875525275455638,0.020569904988851917,-0.08238524201918196, ,0.011149876249352812,0.020411097035861088,-0.08276330401500871, ,0.0004933754103114315, ,0.002221434485918885,7.312268436096618e-05,-0.00864098505851703,-0.007240231382174492,0.001689678192816877,-0.0027920825964937927, ,0.008922260973750566, ,0.007434777379875613, ,4.893189060505447e-05, ,0.1519061556359961,-0.24196866641520234,0.09225436672000001,1.6072734168088794,0.18992473467396223,-1.2788520292123025, ,0.012155365897075802,0.024054991523059767,0.008638184121475054,0.0018596340329520328,0.0136350789983606,-0.01628176269917085, ,0.943166971206665
0.010944941571836736,0.02057124024305649,-0.08263788944725682, ,0.011207721602099402,0.020409412474212102,-0.0829738180042738, ,0.00045616835323541045, ,0.002398639331351194,0.00018383808793801708,-0.008603822522582006,0.0022428220673733714,-0.008908054591190888,-0.005197473679629272, ,0.008933813804001682, ,0.009186056840570481, ,4.9357527754867316e-05, ,0.15230001501258156,-0.24125817499077368,0.09250714327000001,1.6072734168088794,0.1901980076734931,-1.2793199012401173, ,0.01318196160000983,0.022589131530223943,0.008638184121475054,0.0017392429052748523,0.003715377539116235,-0.024336705928252954, ,0.9677870273590088
0.010991556941160741,0.02057309374596398,-0.08280833075582839, ,0.01126569451876075,0.02040771520046303,-0.08318356226207323, ,0.0004932546584100164, ,0.0020914716549529184,-4.425694263343789e-05,-0.007297319673236558,-0.01110494867824911,0.004320664047926942,0.0007167860375611359, ,0.00759125067257353, ,0.011915871863565398, ,4.989676849985252e-05, ,0.15258575612892786,-0.24078708828544598,0.09267825355,1.6074831067523636,0.1906079171727894,-1.2799808699117687, ,0.013412995273282088,0.02138281693521198,0.0073101475539238195,0.0,0.018167239189213612,-0.010037920241831942, ,0.9941291809082031
0.011064576301005113,0.02057267160161989,-0.08304915422682746, ,0.01132379347756493,0.02040600547191825,-0.0833925369823362, ,0.0004613923061713802, ,0.0025573362796775948,0.0002978128072507236,-0.009012178253384621,0.017862856737766362,-0.0026945791652599233,0.001685536014729701, ,0.009372727361141819, ,0.018064948055896195, ,5.047538169689632e-05, ,0.15301050643701022,-0.24009976505964,0.09291936349,1.6072734168088794,0.1906079171727894,-1.2803892636124714, ,0.015200535248834017,0.02218254828388751,0.009096979737292977,-0.003646653972558674,0.013350158593593134,-0.04036409767440915, ,1.016280174255371
0.011109776856080153,0.020577197557513617,-0.08322556677116967, ,0.011382016962810989,0.02040428354582645,-0.08360074236522996, ,0.000494743021708301, ,0.0026180419832506417,0.00040307015149558436,-0.00994214982450664,0.004268019934956704,-0.0010738441920365295,-0.006025880499697414, ,0.010288972373664294, ,0.0044010269680148295, ,5.1146328310626814e-05, ,0.15328080208760808,-0.2396595692858092,0.09309695522000001,1.6068540369219102,0.1911544631718512,-1.2810799714476788, ,0.01400692864331672,0.023617954593944942,0.010024425122718693,0.0043595539553871925,0.011958284472564727,-0.026993658003150782, ,1.0374670028686523
0.011169606361156466,0.02058785966866591,-0.08344625697452497, ,0.01144036346485961,0.020402549679379146,-0.08380817861714762, ,0.0004885043262181548, ,0.0027030289723380483,0.00043558179470949167,-0.010171563630340018,0.009766926539807003,0.008390871189314614,-0.003554677494432801, ,0.0105336035529745, ,0.012876314087192843, ,5.1768336380333645e-05, ,0.15359743413545127,-0.23915759164898462,0.09331991710000001,1.6068540369219102,0.19129109967161662,-1.2813547468316564, ,0.01572703704979628,0.023825493738004213,0.010283286972240156,0.0043595539553871925,0.023418100678576883,-0.032706786129217236, ,1.0589141845703125
0.011229620655375033,0.02059483758066999,-0.08365815328231577, ,0.01149883148012417,0.020400804129710553,-0.08401484595069511, ,0.00048718898584524186, ,0.0029988167601094746,0.00044994435128386254,-0.010272058423893013,-0.011414015344173157,-0.005677108446835115,-0.0056622408224250844, ,0.010710300469353657, ,0.012747909327833163, ,5.236088325135123e-05, ,0.15392951164904292,-0.23866333674503426,0.09352602721000002,1.6068540369219102,0.1915643726711475,-1.2817409401193305, ,0.017589794542812006,0.02368279050623179,0.010404187798824299,0.0043595539553871925,0.01111410992013084,-0.014427504999832584, ,1.0802950859069824
0.01127923719746374,0.0205973714139058,-0.08384783553116826, ,0.011557419511061416,0.020399047153895893,-0.08422074458467761, ,0.0005057460567283507, ,0.002413931178861519,-0.0002216188287916624,-0.009023602937095742,0.02302189136257506,0.019246563619478133,-0.002367579665285075, ,0.009343531912928731, ,0.030007293000893318, ,5.299108311062834e-05, ,0.1542384209640119,-0.238138190909587,0.09372435958000001,1.6068540369219102,0.19211091867020927,-1.282595005434819, ,0.015402847193389187,0.02778013511664835,0.00900441578292821,0.0043595539553871925,0.03407277494568563,-0.04988619441649112, ,1.1018080711364746
0.01133385682004458,0.020592743349789784,-0.08402868615442712, ,0.011616126066162445,0.02039727900895087,-0.08442587474408729, ,0.0005250152489211884, ,0.002523277853002682,-0.00024737116658925305,-0.008569700755042708,-0.0029691716171160944,0.0019332416767013257,-0.005238359057429722, ,0.008936883945117175, ,0.003543071725579228, ,5.365904682113615e-05, ,0.15454733027898088,-0.2375821541426428,0.09390454389000001,1.6068540369219102,0.19211091867020927,-1.2827583629151, ,0.015610617134145549,0.026724004944655246,0.008550086698872786,0.0043595539553871925,0.016758622188573043,-0.022813942379750818, ,1.1241111755371094
0.011383815683011753,0.020583823510364085,-0.08419840227186604, ,0.011674949659943425,0.020395499951831358,-0.0846302366600899, ,0.0005538101606824832, ,0.0026320951384180623,-0.0003048667197755032,-0.008906868624435495,-0.010095644197221308,-0.006035656330133493,-0.007254600873720112, ,0.009292641025427815, ,0.011762275419151048, ,5.4392767959603445e-05, ,0.1548639623268241,-0.2370106719099502,0.09407306159,1.6068540369219102,0.19252082816950558,-1.2832559741064704, ,0.015310897315016262,0.02816768820376099,0.00886411325542571,0.0043595539553871925,0.008309081609659805,-0.017101152036384386, ,1.1455659866333008
0.011465637290585792,0.020577076204022313,-0.0844816320654097, ,0.011733888812936605,0.020393710239431324,-0.08483383057001156, ,0.0004791928034285336, ,0.0026888462171696785,-0.0001295513813843391,-0.009893255032993991,0.00974695855730267,0.007414143207888521,-0.004912838868046431, ,0.010252959216141807, ,0.012246331117905008, ,5.4867414530010003e-05, ,0.155342771765026,-0.23615344856091128,0.09435565281000001,1.6068540369219102,0.1929307376688019,-1.284080300258403, ,0.015523792173805133,0.02872183461212796,0.0098875304283054,0.0043595539553871925,0.022154462732484802,-0.03751252029811434, ,1.1671571731567383
0.01149453429489392,0.02057761280984121,-0.08458521238942399, ,0.011792942051680936,0.02039191012858311,-0.08503665671732658, ,0.0005721316774419392, ,0.002803960421446694,0.00011774566037097041,-0.01073315200470577,0.0035840495193312106,0.0031384182757001862,-0.005766383793203063, ,0.011093989816188548, ,0.004763920422174649, ,5.5778101394817e-05, ,0.15548950368963627,-0.2358754301774392,0.09445935601000001,1.6068540369219102,0.1929307376688019,-1.284080300258403, ,0.014760762413823424,0.028159329839308835,0.010762710486486488,0.0043595539553871925,0.017042722296420242,-0.030783483125977278, ,1.1849861145019531
0.011549693190105492,0.020580400441394774,-0.0847943102451151, ,0.011852107908713078,0.020390099876055806,-0.08523871535164358, ,0.0005702322911826561, ,0.00288828568769538,0.00012458372396834312,-0.011039825858298885,-0.007376781234942521,-0.003385902862890376,-0.007111447033437243, ,0.011412075635027509, ,0.008116715813522723, ,5.665563688942113e-05, ,0.15579069027173104,-0.23533483887624349,0.09466935499000001,1.6068540369219102,0.19334064716809823,-1.2848229476701953, ,0.01437179184589895,0.028765365734607695,0.011061674666666669,0.0043595539553871925,0.010040297606210133,-0.02040573432667498, ,1.2026820182800293
0.011613001107946183,0.020588453580847384,-0.08503730383254497, ,0.011911384922558256,0.020388279738554484,-0.08544000672869301, ,0.0005396962947128417, ,0.0031795606899940117,0.000635878442745187,-0.012249997710700742,0.014346984140292476,0.011087953884844686,-0.003369522444645161, ,0.012671874032181533, ,0.01813224750051048, ,5.7416521489616186e-05, ,0.1561227677853227,-0.23476335664355086,0.0949143538,1.6068540369219102,0.19375055666739455,-1.2857289525622682, ,0.017285417405914532,0.026301813070529596,0.012415285674201094,0.0043595539553871925,0.027724952527221684,-0.03971937206696122, ,1.2214241027832031
0.011680351341924668,0.020597896670210118,-0.08528138213753442, ,0.011970771637720928,0.020386449972719725,-0.08564053111031376, ,0.0005079779904074987, ,0.003239706047307519,0.00035614879053600204,-0.01178073127511535,0.0076340781746209,-0.001768112642222982,-0.006360062770639206, ,0.01222326333719609, ,0.007836143501610639, ,5.806241442224606e-05, ,0.15645484529891435,-0.2342073198766067,0.0951606489,1.6068540369219102,0.19375055666739455,-1.2858106313024087, ,0.01737402811396389,0.027984942954429604,0.011887172776119406,0.00421319101239068,0.014682021275456661,-0.03467638007306676, ,1.2391550540924072
0.011738578083395039,0.020601300693268276,-0.08550145402445752, ,0.012030266604675821,0.020384610835126257,-0.0858402887644409, ,0.0004968356560153263, ,0.0026641548841305892,5.9031677158520146e-05,-0.010300095657989613,0.03920203859771006,0.03182708622468857,0.000687279578161499, ,0.01063922819330808, ,0.05049517929305053, ,5.865758325194086e-05, ,0.15679464554538022,-0.23365128310966254,0.09538231449000001,1.6068540369219102,0.19443373916622175,-1.2867761145215937, ,0.01686457109622726,0.02716774736858597,0.01037032,0.00390866384467164,0.048457527529219585,-0.06552573106799858, ,1.257613182067871
0.011771223172561384,0.020599946596984216,-0.08560466405635193, ,0.012089868379858612,0.020382762582282214,-0.08603927996509167, ,0.0005810289601261185, ,0.0030198453062907898,-0.00024051114893631722,-0.009975403013174082,-0.004255809785292898,0.010008973436975883,-0.00241659388453855, ,0.010425256666477414, ,0.010876183494889082, ,5.947502939928863e-05, ,0.15699543660011006,-0.23335781926044202,0.09548601769000001,1.6068540369219102,0.1945703756659872,-1.2871325686457118, ,0.019482024544953968,0.02960903012744798,0.010005534874371861,0.0037668138043720264,0.029177401645276515,-0.024452856634121018, ,1.2754461765289307
0.011835952663880534,0.020595286989172467,-0.08580397425646144, ,0.01214957552565684,0.0203809054706283,-0.08623750499235353, ,0.0005764266075444427, ,0.003273785672692511,-0.00021809557654377517,-0.009935566175111203,-0.02925316944893537,-0.015340915733893153,-0.007044560507421941, ,0.010463303184522972, ,0.03303167451920924, ,6.0256686151523925e-05, ,0.15737385051094707,-0.23277089156200095,0.09568564635000001,1.6068540369219102,0.1945703756659872,-1.287295926125993, ,0.01973319641473711,0.029136303825136867,0.009967967158948689,0.0035176249118013567,0.0036930887527733065,0.0010123126038620537, ,1.2960541248321533
0.011896563793758787,0.02059389644168891,-0.08601938069999465, ,0.012209386610400788,0.02037903975653681,-0.08643496413237019, ,0.0005627886806177034, ,0.002989821534239196,4.475601382538156e-05,-0.010673469601424174,0.0345252924665912,0.028566159506380216,0.006729693089764735, ,0.011084402971739158, ,0.04481094900046905, ,6.097907634450758e-05, ,0.1577290962231614,-0.23219940932930833,0.09589434904000001,1.6070637268653947,0.19511692166504896,-1.2880683127013408, ,0.019229370123297014,0.027927292983658262,0.010791877723577238,-0.0021944055619783466,0.0339607854738634,-0.049781661599974616, ,1.3136589527130127
0.011967090430740722,0.02059495647752974,-0.08624466396911926, ,0.012269300208354173,0.020377165696310973,-0.08663165767732964, ,0.0005371477490071733, ,0.0036729887198801298,0.0003179471666136548,-0.012676534755792005,0.007255924239842085,0.002266965628719508,0.0028296857867288333, ,0.013201760108104033, ,0.007601792051440919, ,6.178025515223748e-05, ,0.1581384010654953,-0.2315970361651188,0.09612897753,1.6066443469784255,0.19525355816481438,-1.2883430880853184, ,0.02125827543872553,0.030068739403824703,0.01282513004830918,-0.0034898324113356747,0.024611744190826873,-0.03753449873799564, ,1.3295190334320068
0.01200584041995441,0.0205981428818949,-0.08637140542938865, ,0.01232931489970514,0.020375283546183297,-0.08682758592544984, ,0.0006019988933133165, ,0.003978924537267822,0.00030395601335684425,-0.01289432914972846,-0.020211971641533762,-0.022417148629268923,-0.0019946517234977353, ,0.013497701802635322, ,0.030183637849982334, ,6.273938453792495e-05, ,0.1583623603188478,-0.23129584958302407,0.09625731024,1.6066443469784255,0.19539019466457985,-1.2885361847291554, ,0.021745403656844818,0.03072092637049879,0.013035033977086746,-0.0034083689098830766,0.0,-0.010656801781478806, ,1.3439371585845947
0.012076099929381254,0.020608416938613885,-0.08663074665906417, ,0.012389429270556971,0.02037339356231588,-0.08702274918096732, ,0.0005541455049231658, ,0.003581440958032202,0.00028884583647359084,-0.013080969275778889,0.0368276210689963,0.033011362742793336,0.008626139101011678, ,0.013565467498283648, ,0.0494572882469016, ,6.355004755068289e-05, ,0.15877166516118169,-0.23072436735033144,0.09652045711000001,1.6066443469784255,0.19621001366317248,-1.2895314071118964, ,0.022626833943364517,0.031226371029440866,0.013251923061564062,-0.003206366640729,0.057216233069010525,-0.06825662009532905, ,1.3592181205749512
0.012116942456377185,0.02061179811999124,-0.08676517691617396, ,0.012449641912919023,0.02037149600079836,-0.08721714775412286, ,0.0006105011672618279, ,0.0039135577752118095,0.000377315340076535,-0.012986391402463543,0.00563009769796376,-0.0053478648438758224,0.0009583348268747932, ,0.01356851734655474, ,0.0077651329108580705, ,6.44926427280879e-05, ,0.15900334714740844,-0.23040773530248826,0.09665656756,1.6066443469784255,0.19634665016293792,-1.289806182495874, ,0.02247145194375344,0.029935943709296774,0.013164307041322315,-0.003109536129769752,0.01795043954959962,-0.03571206315524143, ,1.373650074005127
0.012199205794313047,0.020616940126466046,-0.08702533920836741, ,0.012509951424697442,0.02036959111764773,-0.0874107819611491, ,0.0005534532452143724, ,0.004038155463134669,0.00021262302477191477,-0.012874819147178683,-0.010927684697237662,-0.014713679036278687,-0.0008800205386013114, ,0.013494920383895059, ,0.01832774644814099, ,6.526615758228168e-05, ,0.1594589883869877,-0.22978219393967605,0.09691971443000001,1.6066443469784255,0.19634665016293792,-1.2900512187162956, ,0.023027649007151364,0.031277831759548715,0.013024375731807033,-0.002935711671684287,0.009016750364373275,-0.020431319727218185, ,1.388578176498413
0.012237002181576726,0.020617503608392436,-0.08715498825461603, ,0.012570356409686196,0.0203676791688072,-0.0876036521242575, ,0.0006122389728971826, ,0.004008070235444979,3.8831799016354296e-05,-0.01271659284555135,-0.004556946880396257,-0.01125719539302328,-0.0006472521754665415, ,0.01333333673618133, ,0.012144541178646755, ,6.617593567183623e-05, ,0.1596829476403402,-0.22946556189183287,0.09704675085000002,1.6066443469784255,0.19675655966223426,-1.290548829907666, ,0.02312303644212251,0.03256586875719657,0.01287696970088925,-0.0028579553511732764,0.012727318055343956,-0.028169968294807786, ,1.4026830196380615
0.01227436363237359,0.020617084251497803,-0.08728065439072485, ,0.012630855477557603,0.020365760410145053,-0.08779575857162544, ,0.0006749684630382894, ,0.00395773522308117,-2.2511968304540515e-06,-0.012950168495737253,0.03408270344907376,0.013291867638958036,0.003582586413002456, ,0.01354143778303804, ,0.03658283826465527, ,6.72278964932489e-05, ,0.1599377978251896,-0.22911803891249274,0.09717767614000002,1.6066443469784255,0.197303105661296,-1.2913212164830137, ,0.024900798099834892,0.03366333506863099,0.013088587937551356,-0.002781264369332545,0.03917430138681854,-0.06783636665690333, ,1.417057991027832
0.012370581483561065,0.020616120791585837,-0.0875683894274916, ,0.012691447243853488,0.02036383509745426,-0.08798710163738292, ,0.000584741671427277, ,0.004555453848597396,0.0002464038065302589,-0.014031843106029606,0.013852328999668987,-0.0123178741878105,-0.0012361169800386687, ,0.014754846510716539, ,0.018536895620720525, ,6.802949569490951e-05, ,0.16049383459213376,-0.22836121109081875,0.09746804510000001,1.6066443469784255,0.197303105661296,-1.2917296101837166, ,0.02703616568617401,0.03359183771981267,0.014234862841823058,-0.002629014626817916,0.015237018537474029,-0.04747340751038602, ,1.4314050674438477
0.012418419659951156,0.02061830709884506,-0.0877183548212072, ,0.012752130329975743,0.020361903486451047,-0.08817768166159969, ,0.0006229661066558147, ,0.0048408740247547054,0.00030508935481017823,-0.015655906027951222,-0.0021661087100027193,-0.015788864847717375,-0.0021709919969594206, ,0.016390074264444405, ,0.01593672926146507, ,6.908460304899285e-05, ,0.1607564075098574,-0.2279982426457302,0.09761971103000001,1.6066443469784255,0.197303105661296,-1.291811288923857, ,0.026822199422970826,0.03693925323412642,0.015849563701492538,-0.002565082816161275,0.011569960389543114,-0.034734647486987485, ,1.442209005355835
0.012467021713686495,0.02062168752607298,-0.08788581275792007, ,0.012812903363177398,0.020359965832774257,-0.0883674989902723, ,0.0006481928622218739, ,0.004951739145186568,0.0004499370927820178,-0.016033875795487595,0.026499458373220222,-0.012521936256945972,-0.0023628359867136337, ,0.016787118185518236, ,0.02930902799434885, ,7.01869506816801e-05, ,0.16104987135907792,-0.22760438326914476,0.09778952502,1.6066443469784255,0.19784965166035778,-1.292583675499205, ,0.027658683054057352,0.03623403648662496,0.016270491848825334,-0.002500625709817146,0.015475214251688338,-0.06272006282848665, ,1.4529449939727783
0.01251343178846734,0.020626015984584776,-0.08805199216717163, ,0.012873764976553246,0.020358022391984462,-0.08855655397531166, ,0.000675457763553362, ,0.004775882620381954,0.00047407624463981083,-0.01770947322823056,0.025005835679983296,0.02912857449132887,0.0063880104459135756, ,0.01834827635258454, ,0.038389633080184275, ,7.134054103281737e-05, ,0.16132016700967577,-0.22722596935830774,0.09795804272000001,1.6066443469784255,0.19839619765941952,-1.2932743833344125, ,0.02676923598264338,0.04000714230964198,0.017937850810810813,-0.002443474372057206,0.057296371377024806,-0.06497630076389024, ,1.4635341167449951
0.012563333104955979,0.020630527748193746,-0.08822724557027695, ,0.012934713809030862,0.020356073419562744,-0.08874484697452872, ,0.0006936569898349335, ,0.00514738146013292,0.000502492804749087,-0.017631534981139025,-0.010830440998744235,0.011797393517080914,0.00207017248032918, ,0.018374413207122395, ,0.016014844429422064, ,7.252190893118309e-05, ,0.16159818539314785,-0.2268321099817223,0.09813563445000001,1.606434657034941,0.19880610715871586,-1.2938536732659234, ,0.029379858067638008,0.03949102853036654,0.01789754103370787,0.0,0.041985899268199296,-0.028212029380939127, ,1.4745941162109375
0.012613075465880995,0.020635310354992827,-0.08839325946590533, ,0.012995748505361256,0.02035411917091036,-0.08893237835162289, ,0.0007184401924225186, ,0.0054161613142861805,0.0007078075626618753,-0.017932164143333276,-0.028908408209074987,-0.01643712828663007,-0.003595549493300839, ,0.018745620976419512, ,0.03325467481819618, ,7.37465408764862e-05, ,0.16187620377661996,-0.22646141880375953,0.09830415215,1.606434657034941,0.19907938015824675,-1.294158187813457, ,0.028756648957112357,0.03789813960002826,0.018225184805491994,0.0,0.012559702922799815,-0.008514113359029976, ,1.4852931499481201
0.012672920568038116,0.020640498370477208,-0.08857967107873287, ,0.013056867716109841,0.020352159901347155,-0.08911914847616809, ,0.0007222121209424229, ,0.00593862869218863,0.0003251672248326192,-0.019094421267251485,-0.019735342822724756,-0.021945901070916766,-0.005911199163165766, ,0.019999249185883382, ,0.02951446750165107, ,7.496249354229436e-05, ,0.16220055855733737,-0.2260443912285514,0.09849341049000002,1.606434657034941,0.19907938015824675,-1.294158187813457, ,0.03204895020549503,0.04478383273169929,0.019331081941747576,0.0,0.010114715598822514,-0.024491480201797918, ,1.4960081577301025
0.012728121288697722,0.020643525975872747,-0.0887638443704869, ,0.013118070097647205,0.02035019586611122,-0.08930515772360063, ,0.0007287817047326756, ,0.005664509339717214,0.000462406984751872,-0.017974733692361067,-0.007123731012612633,-0.009694568142083157,-0.0026974444809173934, ,0.018851831146883078, ,0.012030391459057089, ,7.617669649194686e-05, ,0.16251719060518058,-0.22561191818759482,0.09868007625000001,1.606434657034941,0.19948928965754306,-1.2945741202646868, ,0.03216845476558331,0.0403988682666968,0.018266985688073393,0.0,0.022726414341573044,-0.032793536968205056, ,1.5067100524902344
0.012778917348753955,0.02064571551003208,-0.08893871829919187, ,0.013179354312139988,0.020348227320357373,-0.08949040647520493, ,0.0007437800939756182, ,0.005046056827328678,6.470101226624045e-06,-0.01768095547763039,0.05151849722071714,0.06125998842799139,0.010601593283201267, ,0.018386922471386784, ,0.08004336331101224, ,7.740935200510423e-05, ,0.162841545385898,-0.2251948906123867,0.09885766798000001,1.606434657034941,0.20030910865613571,-1.2954059851671462, ,0.03301911675660083,0.04436509656777502,0.017917673250843646,0.0,0.09576414974629648,-0.09547704614958737, ,1.5174431800842285
0.01283764825043809,0.020644862064410054,-0.08913216471542838, ,0.013240719027541672,0.02034625451915692,-0.08967489511810194, ,0.0007390458763995531, ,0.0056025410864929985,-1.4554205978984584e-05,-0.017650875759019507,-0.02798907434292427,-0.0027701822419964645,-0.0009869325316371755, ,0.018518695783210443, ,0.028125797392002883, ,7.880036908222171e-05, ,0.16320451383098655,-0.22470063570843635,0.09905340777,1.606434657034941,0.2009922911549629,-1.2961264321659098, ,0.03255469693258002,0.04432365322674954,0.01785741201793722,0.0,0.03040268969124452,-0.015790584522913723, ,1.5250170230865479
0.012893927800241666,0.020643964449838376,-0.0893013461528398, ,0.013302162917583411,0.02034427771749612,-0.08985862404523563, ,0.0007530117515192903, ,0.0061273823785025425,-0.00013225650295221295,-0.018067105544161334,-0.0478153415833697,-0.030088523073793266,-0.006374861118113839, ,0.019078328263734793, ,0.05649446155547064, ,8.021129565415263e-05, ,0.163528868611704,-0.22426816266747976,0.09922451805000002,1.606434657034941,0.2011289276547283,-1.2962378500696061, ,0.03490141285710584,0.04649531678514002,0.018266985688073393,0.0,0.004960310571632359,0.0019369338298362336, ,1.5321121215820312
0.012893927800241666,0.020643964449838376,-0.0893013461528398, ,0.013363684661764878,0.020342297170275782,-0.09004159365535915, ,0.0009271682811081072, ,0.0061273823785025425,-0.00013225650295221295,-0.018067105544161334,-0.0478153415833697,-0.030088523073793266,-0.006374861118113839, ,0.019078328263734793, ,0.05649446155547064, ,8.201965813009556e-05, ,0.163528868611704,-0.22426816266747976,0.09922451805000002,1.606434657034941,0.2011289276547283,-1.2962378500696061, ,0.03490141285710584,0.04649531678514002,0.018266985688073393,0.0,0.004960310571632359,0.0019369338298362336, ,1.5400190353393555
0.012952328657953815,0.020643582705441366,-0.08949220843350957, ,0.01342528294534517,0.020340313132309835,-0.09022380435302332, ,0.0009224374132690122, ,0.006345341743829938,0.00022127751597226521,-0.021121440275796467,-0.01018484362314434,0.01761184689731058,0.0026347993670942415, ,0.022055102922206072, ,0.020344630426684374, ,8.379993535312097e-05, ,0.16387639159104408,-0.22378935322927784,0.09941766526000001,1.606434657034941,0.2016754736537901,-1.296846879164673, ,0.03656914896280184,0.05005112951396138,0.021409692903225808,0.0,0.05518203727996134,-0.039287096715705974, ,1.5472841262817383
0.013019775502673971,0.020651328553663865,-0.08971856994233464, ,0.013486956459333526,0.020338325858324707,-0.09040525654856264, ,0.0008875625210247717, ,0.006422537108327778,0.0008635330866205654,-0.021823571493530248,0.01609420574377401,0.03620985385955604,0.007109813750377828, ,0.022765389191330813, ,0.03962539620976153, ,8.548209107816426e-05, ,0.16427025096762954,-0.22331054379107593,0.09964840488000001,1.606434657034941,0.2023586561526173,-1.2975673261634362, ,0.03794359918371483,0.0448261415014033,0.022278058069930072,0.0,0.07544042626779769,-0.06044939642673863, ,1.5547549724578857
0.013091286829007441,0.020657634499439175,-0.08994913021690203, ,0.013548703900480293,0.02033633560295856,-0.09058595065808264, ,0.0008473509499964797, ,0.007711956402513101,0.0006810388824352615,-0.025245383181953338,-0.02310973148586674,-0.011372296990879827,-0.003509739272392863, ,0.026405822416984172, ,0.025756136624259893, ,8.705508356151346e-05, ,0.1646718330770892,-0.22280856615425132,0.09988303337000001,1.606434657034941,0.20276856565191362,-1.2978199011343847, ,0.04093914648769231,0.05469564354955088,0.02524375835182251,0.0,0.03125032004687315,-0.03189990192327309, ,1.5618581771850586
0.013091286829007441,0.020657634499439175,-0.08994913021690203, ,0.013610523971267543,0.02033434262075986,-0.09076588710344684, ,0.001020400245217931, ,0.007711956402513101,0.0006810388824352615,-0.025245383181953338,-0.02310973148586674,-0.011372296990879827,-0.003509739272392863, ,0.026405822416984172, ,0.025756136624259893, ,8.901408837191833e-05, ,0.1646718330770892,-0.22280856615425132,0.09988303337000001,1.606434657034941,0.20276856565191362,-1.2978199011343847, ,0.04093914648769231,0.05469564354955088,0.02524375835182251,0.0,0.03125032004687315,-0.03189990192327309, ,1.5691189765930176
0.013166138526375156,0.0206660351261929,-0.09020285576594618, ,0.013672415379900224,0.020332347166186933,-0.09094506631226398, ,0.000958405134655256, ,0.008112878873716277,0.0012137164417057463,-0.027279009386456263,-0.01855767127514721,-0.007878337348737802,-0.0025412899491467334, ,0.028485720358222076, ,0.020160363507714132, ,9.081219196157597e-05, ,0.16506569245367467,-0.22227569758592983,0.10014099508,1.606434657034941,0.20317847515120993,-1.298154154845474, ,0.04200838493070862,0.05388809855676932,0.027798972984293194,0.0,0.03464174037282965,-0.03466537779480212, ,1.5765931606292725
0.013252007986242303,0.020678302978806958,-0.09049630588858186, ,0.01373437684029671,0.0203303494936067,-0.09112348871787428, ,0.0008643550431298516, ,0.007959063784367972,0.001114161138545738,-0.027294361599503353,0.02337093623908958,0.03264352393229635,0.005167949727129776, ,0.0284529475887952, ,0.04014704431314779, ,9.23780879689308e-05, ,0.16554450189187658,-0.22168876988748878,0.10044043807000001,1.606434657034941,0.20399829414980258,-1.2990676984880742, ,0.04426163318958525,0.05469564354955088,0.027847572587412592,0.0,0.07804971207063004,-0.07747227479641082, ,1.5842390060424805
0.01333421784361972,0.020687161746258113,-0.0907686570097262, ,0.01379640707207984,0.02032834985729418,-0.09130115475933778, ,0.0007911502435744008, ,0.008267537077761934,0.0008424493641001969,-0.027339420000249744,0.013857576187612177,0.011785282977085122,0.00414188207318099, ,0.028574565197274603, ,0.018190932875118953, ,9.376254931056673e-05, ,0.1659924203985816,-0.22112501038767038,0.10071784413000001,1.6062249670914566,0.20454484014886434,-1.2996767275831411, ,0.04534015363519865,0.057270332865703544,0.027847572587412592,-0.003657745490680813,0.058629913956997466,-0.07107024485391521, ,1.5919849872589111
0.01333421784361972,0.020687161746258113,-0.0907686570097262, ,0.013858504800567563,0.020326348511430843,-0.09147806488141987, ,0.0009530595637593128, ,0.008267537077761934,0.0008424493641001969,-0.027339420000249744,0.013857576187612177,0.011785282977085122,0.00414188207318099, ,0.028574565197274603, ,0.018190932875118953, ,9.550240036769896e-05, ,0.1659924203985816,-0.22112501038767038,0.10071784413000001,1.6062249670914566,0.20454484014886434,-1.2996767275831411, ,0.04534015363519865,0.057270332865703544,0.027847572587412592,-0.003657745490680813,0.058629913956997466,-0.07107024485391521, ,1.5991711616516113
0.013419503917806757,0.02069368739773544,-0.09103321274654652, ,0.013920668756764015,0.020324345710104535,-0.09165421953457936, ,0.0008793343555280696, ,0.008721164993766947,0.0002574179573506868,-0.025034025566361574,-0.02751135854693658,-0.037908744244247915,-0.004517375993161704, ,0.026510892457827926, ,0.04683949089189135, ,9.705970705275024e-05, ,0.16647122983678353,-0.22055352815497778,0.10098747245,1.6062249670914566,0.20495474964816068,-1.3001743387745113, ,0.0496063468679931,0.05772320046135693,0.025486098432000007,-0.003657745490680813,0.01248688821364606,-0.030048676091160284, ,1.6063120365142822
0.013419503917806757,0.02069368739773544,-0.09103321274654652, ,0.013982897677350125,0.020322341707307682,-0.09182961917495536, ,0.0010438263022661371, ,0.008721164993766947,0.0002574179573506868,-0.025034025566361574,-0.02751135854693658,-0.037908744244247915,-0.004517375993161704, ,0.026510892457827926, ,0.04683949089189135, ,9.91968776965728e-05, ,0.16647122983678353,-0.22055352815497778,0.10098747245,1.6062249670914566,0.20495474964816068,-1.3001743387745113, ,0.0496063468679931,0.05772320046135693,0.025486098432000007,-0.003657745490680813,0.01248688821364606,-0.030048676091160284, ,1.6101081371307373
0.013497921444624902,0.020691296892446056,-0.09125667865207546, ,0.014045190304674689,0.020320336756937205,-0.09200426426435353, ,0.0009979974323624863, ,0.008299870828218106,-0.000636094461266805,-0.02289136604133546,-0.01096605068896186,-0.026912063670075943,-0.0036497202029858733, ,0.024357896279587992, ,0.029060405243633094, ,0.00010122120327014468, ,0.166934593809237,-0.21998976865515937,0.10121432320000001,1.6062249670914566,0.20522802264769155,-1.3005605320621854, ,0.049788531772545004,0.061661430512326684,0.02318604296943232,-0.003563505193996862,0.023703221230449843,-0.05049236734244267, ,1.6149981021881104
0.013497921444624902,0.020691296892446056,-0.09125667865207546, ,0.014107545386744955,0.020318331112793134,-0.0921781552702344, ,0.001166132060022256, ,0.008299870828218106,-0.000636094461266805,-0.02289136604133546,-0.01096605068896186,-0.026912063670075943,-0.0036497202029858733, ,0.024357896279587992, ,0.029060405243633094, ,0.0001036142613752056, ,0.166934593809237,-0.21998976865515937,0.10121432320000001,1.6062249670914566,0.20522802264769155,-1.3005605320621854, ,0.049788531772545004,0.061661430512326684,0.02318604296943232,-0.003563505193996862,0.023703221230449843,-0.05049236734244267, ,1.618678092956543
0.01358695027395258,0.02068566475819961,-0.0915120989037241, ,0.014169961677217627,0.020316325028577185,-0.09235129266569905, ,0.0010865359185744056, ,0.008470119867296627,-0.0006247514924807046,-0.02536441122879514,0.028724053871351195,0.04214606815703979,0.009858843643746108, ,0.026748581307747123, ,0.05100344923122829, ,0.0005826528670437148, ,0.16749063057618116,-0.21931789089510184,0.10147358120000001,1.6062249670914566,0.20591120514651876,-1.3012809790609485, ,0.054041538472933255,0.06711240562833859,0.02573313654281099,-0.00344801111751631,0.09833558760414164,-0.09567472472107788, ,1.6222760677337646
0.01358695027395258,0.02068566475819961,-0.0915120989037241, ,0.014232437935389693,0.02031431875789329,-0.09252367692947723, ,0.001256121918922548, ,0.008470119867296627,-0.0006247514924807046,-0.02536441122879514,0.028724053871351195,0.04214606815703979,0.009858843643746108, ,0.026748581307747123, ,0.05100344923122829, ,0.0005908659042617493, ,0.16749063057618116,-0.21931789089510184,0.10147358120000001,1.6062249670914566,0.20591120514651876,-1.3012809790609485, ,0.054041538472933255,0.06711240562833859,0.02573313654281099,-0.00344801111751631,0.09833558760414164,-0.09567472472107788, ,1.6258840560913086
0.01358695027395258,0.02068566475819961,-0.0915120989037241, ,0.014294972926189226,0.02031231255424478,-0.09269530854591315, ,0.0014285212639814982, ,0.008470119867296627,-0.0006247514924807046,-0.02536441122879514,0.028724053871351195,0.04214606815703979,0.009858843643746108, ,0.026748581307747123, ,0.05100344923122829, ,0.0006009581375113849, ,0.16749063057618116,-0.21931789089510184,0.10147358120000001,1.6062249670914566,0.20591120514651876,-1.3012809790609485, ,0.054041538472933255,0.06711240562833859,0.02573313654281099,-0.00344801111751631,0.09833558760414164,-0.09567472472107788, ,1.6294751167297363
0.01368275803224367,0.020685566126059138,-0.09181634433988373, ,0.01435756542016627,0.02031030667103479,-0.09286618800495386, ,0.0013032100331366327, ,0.010362941583446446,0.0010405541837143495,-0.03528823851961322,0.0625884951206447,0.0820850597901384,0.01729522523552003, ,0.03679311197885119, ,0.10322413497693834, ,0.0006093182791259711, ,0.16809300374037067,-0.21859195400492476,0.10178339451000001,1.6062249670914566,0.20727757014417317,-1.3025585155781938, ,0.06040543702003232,0.07277372818901133,0.03603803511312218,-0.003347070536407253,0.14530433694990535,-0.13520376599909373, ,1.6330671310424805
0.01368275803224367,0.020685566126059138,-0.09181634433988373, ,0.014420214193483659,0.020308301361565362,-0.09303631580213587, ,0.0014746188188779462, ,0.010362941583446446,0.0010405541837143495,-0.03528823851961322,0.0625884951206447,0.0820850597901384,0.01729522523552003, ,0.03679311197885119, ,0.10322413497693834, ,0.0006194982854759944, ,0.16809300374037067,-0.21859195400492476,0.10178339451000001,1.6062249670914566,0.20727757014417317,-1.3025585155781938, ,0.06040543702003232,0.07277372818901133,0.03603803511312218,-0.003347070536407253,0.14530433694990535,-0.13520376599909373, ,1.6366779804229736
0.01368275803224367,0.020685566126059138,-0.09181634433988373, ,0.01448291802790784,0.020306296879035658,-0.09320569243857126, ,0.0016475403848542514, ,0.010362941583446446,0.0010405541837143495,-0.03528823851961322,0.0625884951206447,0.0820850597901384,0.01729522523552003, ,0.03679311197885119, ,0.10322413497693834, ,0.0006314522633757416, ,0.16809300374037067,-0.21859195400492476,0.10178339451000001,1.6062249670914566,0.20727757014417317,-1.3025585155781938, ,0.06040543702003232,0.07277372818901133,0.03603803511312218,-0.003347070536407253,0.14530433694990535,-0.13520376599909373, ,1.6402781009674072
0.013799001542113238,0.020709032450476395,-0.09221685186726175, ,0.014545675710799693,0.020304293476541262,-0.0933743184209358, ,0.0014356408931483343, ,0.012926141754639256,0.00311338579198181,-0.044833659548482716,0.03699867540557248,0.04777594545602926,0.011829821503998294, ,0.0467636112833472, ,0.06042567172351489, ,0.0006406958108443921, ,0.16873399056893132,-0.21788918531337031,0.10219431844000001,1.6062249670914566,0.20864393514182755,-1.3037543733552988, ,0.06711240562833859,0.07316649310599135,0.04603702751445087,-0.0032525605285774867,0.11723242251540408,-0.10992524075217276, ,1.6439261436462402
0.013799001542113238,0.020709032450476395,-0.09221685186726175, ,0.014608486035105527,0.020302291407073653,-0.09354219426145535, ,0.0016053771776844722, ,0.012926141754639256,0.00311338579198181,-0.044833659548482716,0.03699867540557248,0.04777594545602926,0.011829821503998294, ,0.0467636112833472, ,0.06042567172351489, ,0.0006516580991039384, ,0.16873399056893132,-0.21788918531337031,0.10219431844000001,1.6062249670914566,0.20864393514182755,-1.3037543733552988, ,0.06711240562833859,0.07316649310599135,0.04603702751445087,-0.0032525605285774867,0.11723242251540408,-0.10992524075217276, ,1.6476671695709229
0.013799001542113238,0.020709032450476395,-0.09221685186726175, ,0.014671347799347804,0.020300290923519315,-0.09370932047789343, ,0.00177637838933354, ,0.012926141754639256,0.00311338579198181,-0.044833659548482716,0.03699867540557248,0.04777594545602926,0.011829821503998294, ,0.0467636112833472, ,0.06042567172351489, ,0.0006642954057357317, ,0.16873399056893132,-0.21788918531337031,0.10219431844000001,1.6062249670914566,0.20864393514182755,-1.3037543733552988, ,0.06711240562833859,0.07316649310599135,0.04603702751445087,-0.0032525605285774867,0.11723242251540408,-0.10992524075217276, ,1.6513869762420654
0.01394489556361809,0.020745114846744264,-0.09272590521815322, ,0.014734259807615929,0.020298292278658044,-0.09387569759353742, ,0.0014645029271207004, ,0.014786449844093202,0.0038659102055879887,-0.05227328206697105,0.01125767713606452,0.02513846207017501,0.006617293393612881, ,0.05446173315973951, ,0.027537016350543644, ,0.0006731866004177869, ,0.16942903652761152,-0.2171014665601994,0.10269857525000001,1.6062249670914566,0.2097370271399511,-1.30464571658487, ,0.07113713760005305,0.08145660219611225,0.05363236202020203,-0.0031621995700854815,0.09786886832362046,-0.09268119141509432, ,1.6559381484985352
0.01394489556361809,0.020745114846744264,-0.09272590521815322, ,0.014797220869557199,0.020296295725162856,-0.09404132613718656, ,0.0016304076868292286, ,0.014786449844093202,0.0038659102055879887,-0.05227328206697105,0.01125767713606452,0.02513846207017501,0.006617293393612881, ,0.05446173315973951, ,0.027537016350543644, ,0.0006837055134552752, ,0.16942903652761152,-0.2171014665601994,0.10269857525000001,1.6062249670914566,0.2097370271399511,-1.30464571658487, ,0.07113713760005305,0.08145660219611225,0.05363236202020203,-0.0031621995700854815,0.09786886832362046,-0.09268119141509432, ,1.6595251560211182
0.014095839144722204,0.020785581948102823,-0.09326554794961771, ,0.014860229800367704,0.020294301515598478,-0.0942062066431382, ,0.0013078563818307747, ,0.015602628744848345,0.00406343261313907,-0.05423033149017266,0.0029160259274783923,0.020284177299079238,0.00623448355873293, ,0.05657634100827927, ,0.020481260077997762, ,0.000690489762024574, ,0.17016269615066285,-0.21623652047828626,0.10327023914000001,1.6062249670914566,0.21069348263830917,-1.3055073206508858, ,0.07483985927324195,0.08346256953251607,0.055695145174825184,-0.003074619750220403,0.09715756593286376,-0.08590312493189897, ,1.6630959510803223
0.014095839144722204,0.020785581948102823,-0.09326554794961771, ,0.014923285420782934,0.020292309902420647,-0.09437033965117486, ,0.0014657930804338655, ,0.015602628744848345,0.00406343261313907,-0.05423033149017266,0.0029160259274783923,0.020284177299079238,0.00623448355873293, ,0.05657634100827927, ,0.020481260077997762, ,0.0006988263568461793, ,0.17016269615066285,-0.21623652047828626,0.10327023914000001,1.6062249670914566,0.21069348263830917,-1.3055073206508858, ,0.07483985927324195,0.08346256953251607,0.055695145174825184,-0.003074619750220403,0.09715756593286376,-0.08590312493189897, ,1.6666591167449951
0.014095839144722204,0.020785581948102823,-0.09326554794961771, ,0.014986386557068937,0.02029032113797528,-0.09453372570655202, ,0.0016268474995735174, ,0.015602628744848345,0.00406343261313907,-0.05423033149017266,0.0029160259274783923,0.020284177299079238,0.00623448355873293, ,0.05657634100827927, ,0.020481260077997762, ,0.0007086989221943425, ,0.17016269615066285,-0.21623652047828626,0.10327023914000001,1.6062249670914566,0.21069348263830917,-1.3055073206508858, ,0.07483985927324195,0.08346256953251607,0.055695145174825184,-0.003074619750220403,0.09715756593286376,-0.08590312493189897, ,1.6701991558074951
0.014250378067797876,0.020820522536534762,-0.09378695408778288, ,0.015049532041013005,0.020288335474497564,-0.09469636535998449, ,0.0013224594526535236, ,0.016413237486426886,0.002980710707016374,-0.0531343518816664,0.006458310284855004,0.018101743245643037,0.005931556947616449, ,0.05569145671455827, ,0.019208314796661775, ,0.0007151595593570708, ,0.17092724670521106,-0.2153947425949958,0.10380560691000001,1.6062249670914566,0.21164993813666727,-1.3064506034570416, ,0.08510936462643119,0.09133488119198342,0.054550724383561656,-0.002997295023153005,0.10527300034605794,-0.09720782614932813, ,1.673788070678711
0.014250378067797876,0.020820522536534762,-0.09378695408778288, ,0.015112720709914458,0.020286353164110132,-0.09485825916763335, ,0.001475352949284526, ,0.016413237486426886,0.002980710707016374,-0.0531343518816664,0.006458310284855004,0.018101743245643037,0.005931556947616449, ,0.05569145671455827, ,0.019208314796661775, ,0.0007230782405021484, ,0.17092724670521106,-0.2153947425949958,0.10380560691000001,1.6062249670914566,0.21164993813666727,-1.3064506034570416, ,0.08510936462643119,0.09133488119198342,0.054550724383561656,-0.002997295023153005,0.10527300034605794,-0.09720782614932813, ,1.677347183227539
0.014250378067797876,0.020820522536534762,-0.09378695408778288, ,0.015175951406575605,0.020284374458823678,-0.09501940769109313, ,0.0016318954166863286, ,0.016413237486426886,0.002980710707016374,-0.0531343518816664,0.006458310284855004,0.018101743245643037,0.005931556947616449, ,0.05569145671455827, ,0.019208314796661775, ,0.0007324474897411606, ,0.17092724670521106,-0.2153947425949958,0.10380560691000001,1.6062249670914566,0.21164993813666727,-1.3064506034570416, ,0.08510936462643119,0.09133488119198342,0.054550724383561656,-0.002997295023153005,0.10527300034605794,-0.09720782614932813, ,1.6810550689697266
0.01436821787047855,0.020838012024375623,-0.0941622556029912, ,0.015239222979292661,0.02028239961053462,-0.0951798114973792, ,0.0014500948424838519, ,0.016496995086646964,0.0019204181785909035,-0.050595018882663614,-0.0025167637308256617,0.008230551287779744,0.0039244708784975865, ,0.053251242132053636, ,0.008587463652331543, ,0.0007397704219120043, ,0.17155278806802327,-0.21471514210206405,0.10419060504000001,1.6062249670914566,0.2124697571352599,-1.3072007896193607, ,0.08927275781605906,0.09575877049290694,0.05188537954397395,-0.00294175680087817,0.09944717723130521,-0.0925645823877111, ,1.6850030422210693
0.01436821787047855,0.020838012024375623,-0.0941622556029912, ,0.015302534281846367,0.020280428871024943,-0.0953394711589142, ,0.001603022955094161, ,0.016496995086646964,0.0019204181785909035,-0.050595018882663614,-0.0025167637308256617,0.008230551287779744,0.0039244708784975865, ,0.053251242132053636, ,0.008587463652331543, ,0.0007484901444693999, ,0.17155278806802327,-0.21471514210206405,0.10419060504000001,1.6062249670914566,0.2124697571352599,-1.3072007896193607, ,0.08927275781605906,0.09575877049290694,0.05188537954397395,-0.00294175680087817,0.09944717723130521,-0.0925645823877111, ,1.688655138015747
0.014594791976644688,0.020844093156280386,-0.09479067551296483, ,0.015365884173493098,0.02027846249196121,-0.09549838725351557, ,0.0011896962352516824, ,0.016496995086646964,0.0019204181785909035,-0.050595018882663614,-0.0025167637308256617,0.008230551287779744,0.0039244708784975865, ,0.053251242132053636, ,0.008587463652331543, ,0.0007529022053772228, ,0.1728888208552641,-0.2133482183833263,0.10483486117000002,1.6062249670914566,0.21383612213291428,-1.3085600048767465, ,0.10337357468243004,0.10485849895963623,0.043284813913043486,-0.0028424633895038623,0.10110091253705136,-0.0932092488076672, ,1.6923670768737793
0.014594791976644688,0.020844093156280386,-0.09479067551296483, ,0.015429271518955519,0.02027650072489291,-0.09565656036438222, ,0.0013297645846606684, ,0.016533334635122816,-0.000905277459940205,-0.04227823698137109,-0.010810515256160188,-0.0041939768662377225,0.002332096761801657, ,0.04540506583729839, ,0.011589719761264442, ,0.0007586137140829994, ,0.1728888208552641,-0.2133482183833263,0.10483486117000002,1.6062249670914566,0.21383612213291428,-1.3085600048767465, ,0.10337357468243004,0.10485849895963623,0.043284813913043486,-0.0028424633895038623,0.10110091253705136,-0.0932092488076672, ,1.6963770389556885
0.014594791976644688,0.020844093156280386,-0.09479067551296483, ,0.015492695188413548,0.020274543821252603,-0.09581399108008153, ,0.0014757341808871918, ,0.016533334635122816,-0.000905277459940205,-0.04227823698137109,-0.010810515256160188,-0.0041939768662377225,0.002332096761801657, ,0.04540506583729839, ,0.011589719761264442, ,0.0007656443068948051, ,0.1728888208552641,-0.2133482183833263,0.10483486117000002,1.6062249670914566,0.21383612213291428,-1.3085600048767465, ,0.10337357468243004,0.10485849895963623,0.043284813913043486,-0.0028424633895038623,0.10110091253705136,-0.0932092488076672, ,1.7000069618225098
0.014752028277497171,0.02083191045760922,-0.09516987990796448, ,0.015556154057495263,0.020272592032354278,-0.09597067999453686, ,0.0012652020192607724, ,0.016015696179207357,-0.0016416131446835914,-0.0389000204034536,-0.004034520683985492,0.00265988964675652,0.003554704236011364, ,0.04209998818539717, ,0.004823203961436833, ,0.0007704943817721445, ,0.17390822159466174,-0.2123674313082998,0.10522374817,1.6062249670914566,0.21479257763127238,-1.3094216089427622, ,0.1039396950257073,0.10405366398955129,0.039822028800000006,-0.0027771811281089107,0.10859060429760613,-0.0991887138519919, ,1.7035720348358154
0.014752028277497171,0.02083191045760922,-0.09516987990796448, ,0.01561964700726752,0.020270645609392512,-0.0961266277070141, ,0.0014082424653014624, ,0.016015696179207357,-0.0016416131446835914,-0.0389000204034536,-0.004034520683985492,0.00265988964675652,0.003554704236011364, ,0.04209998818539717, ,0.004823203961436833, ,0.0007766265748830035, ,0.17390822159466174,-0.2123674313082998,0.10522374817,1.6062249670914566,0.21479257763127238,-1.3094216089427622, ,0.1039396950257073,0.10405366398955129,0.039822028800000006,-0.0027771811281089107,0.10859060429760613,-0.0991887138519919, ,1.7071290016174316
0.014752028277497171,0.02083191045760922,-0.09516987990796448, ,0.015683172924227082,0.0202687048034412,-0.09628183482210856, ,0.001555851758076508, ,0.016015696179207357,-0.0016416131446835914,-0.0389000204034536,-0.004034520683985492,0.00265988964675652,0.003554704236011364, ,0.04209998818539717, ,0.004823203961436833, ,0.0007840477671038939, ,0.17390822159466174,-0.2123674313082998,0.10522374817,1.6062249670914566,0.21479257763127238,-1.3094216089427622, ,0.1039396950257073,0.10405366398955129,0.039822028800000006,-0.0027771811281089107,0.10859060429760613,-0.0991887138519919, ,1.71071195602417
0.014900725433621765,0.020809652999523334,-0.09551752048346798, ,0.015746730700291364,0.020266769865453806,-0.09643630194973299, ,0.0013618393412006885, ,0.016445186389249626,-0.0027918738324589,-0.03776669679630812,-0.011269596123034206,-0.0037477147142618247,0.0015879194402150197, ,0.0412863427997419, ,0.011873176906292363, ,0.0007894986310104674, ,0.17488900866968823,-0.2113634760346506,0.10557893163000001,1.6062249670914566,0.21574903312963048,-1.3102832130087778, ,0.10945437319316122,0.11243713454795115,0.038568550895883784,-0.002716968428964331,0.10762764745796219,-0.1001875015894006, ,1.7145261764526367
0.014900725433621765,0.020809652999523334,-0.09551752048346798, ,0.01581031923278925,0.0202648410462609,-0.09659002970510303, ,0.001508130290921103, ,0.016445186389249626,-0.0027918738324589,-0.03776669679630812,-0.011269596123034206,-0.0037477147142618247,0.0015879194402150197, ,0.0412863427997419, ,0.011873176906292363, ,0.0007962148147479499, ,0.17488900866968823,-0.2113634760346506,0.10557893163000001,1.6062249670914566,0.21574903312963048,-1.3102832130087778, ,0.10945437319316122,0.11243713454795115,0.038568550895883784,-0.002716968428964331,0.10762764745796219,-0.1001875015894006, ,1.718245029449463
0.015079117312738165,0.020776463958553534,-0.09593058385719902, ,0.015873937424451985,0.0202629185965703,-0.09674301870872558, ,0.0016576809061389485, ,0.01642308008736684,-0.003167162220282291,-0.037366581258368496,-0.02582953848028611,-0.013149559433566998,-0.0008565981941644665, ,0.04093909953850847, ,0.02898280737845866, ,0.0008041913526312, ,0.1760705867994446,-0.21011239330902623,0.10600022588,1.6062249670914566,0.21697876162751942,-1.311367652882186, ,0.10796011553864708,0.11433366452827805,0.038107204593301434,-0.0026481492302685653,0.09657822589689222,-0.08743620132157935, ,1.7228541374206543
0.015079117312738165,0.020776463958553534,-0.09593058385719902, ,0.015937584183404067,0.020261002766965623,-0.09689526958638543, ,0.0013904258930845816, ,0.01642308008736684,-0.003167162220282291,-0.037366581258368496,-0.02582953848028611,-0.013149559433566998,-0.0008565981941644665, ,0.04093909953850847, ,0.02898280737845866, ,0.0008095696511674696, ,0.1760705867994446,-0.21011239330902623,0.10600022588,1.6062249670914566,0.21697876162751942,-1.311367652882186, ,0.10796011553864708,0.11433366452827805,0.038107204593301434,-0.0026481492302685653,0.09657822589689222,-0.08743620132157935, ,1.7264339923858643
0.015079117312738165,0.020776463958553534,-0.09593058385719902, ,0.016001258423154047,0.02025909380790555,-0.09704678296913197, ,0.0015375033521200707, ,0.01642308008736684,-0.003167162220282291,-0.037366581258368496,-0.02582953848028611,-0.013149559433566998,-0.0008565981941644665, ,0.04093909953850847, ,0.02898280737845866, ,0.0008161872302670385, ,0.1760705867994446,-0.21011239330902623,0.10600022588,1.6062249670914566,0.21697876162751942,-1.311367652882186, ,0.10796011553864708,0.11433366452827805,0.038107204593301434,-0.0026481492302685653,0.09657822589689222,-0.08743620132157935, ,1.7300240993499756
0.015246176603420706,0.020743804395807846,-0.096311992182305, ,0.016064959062585475,0.02025719196972269,-0.0971975594932665, ,0.0013005482808800162, ,0.01706450346802539,-0.0032821551424092373,-0.039232246822277876,-0.025285952005917753,-0.009409834246378979,-0.0007209640206925697, ,0.04290849579877191, ,0.026978350701207885, ,0.0008205508433356239, ,0.17715949213471024,-0.20894626064501834,0.10638911288000001,1.6062249670914566,0.21793521712587752,-1.312147578208061, ,0.11021712143840974,0.11803102183889398,0.04012295093198993,-0.002588491009462729,0.10314914267532264,-0.09220977053191101, ,1.7336101531982422
0.015246176603420706,0.020743804395807846,-0.096311992182305, ,0.01612868502594764,0.02025529750262283,-0.09734759980032931, ,0.0014456635981549204, ,0.01706450346802539,-0.0032821551424092373,-0.039232246822277876,-0.025285952005917753,-0.009409834246378979,-0.0007209640206925697, ,0.04290849579877191, ,0.026978350701207885, ,0.000826132207217939, ,0.17715949213471024,-0.20894626064501834,0.10638911288000001,1.6062249670914566,0.21793521712587752,-1.312147578208061, ,0.11021712143840974,0.11803102183889398,0.04012295093198993,-0.002588491009462729,0.10314914267532264,-0.09220977053191101, ,1.7371811866760254
0.015246176603420706,0.020743804395807846,-0.096311992182305, ,0.016192435242846456,0.02025341065668377,-0.09749690453708613, ,0.0015937091078904364, ,0.01706450346802539,-0.0032821551424092373,-0.039232246822277876,-0.025285952005917753,-0.009409834246378979,-0.0007209640206925697, ,0.04290849579877191, ,0.026978350701207885, ,0.0008329249231530938, ,0.17715949213471024,-0.20894626064501834,0.10638911288000001,1.6062249670914566,0.21793521712587752,-1.312147578208061, ,0.11021712143840974,0.11803102183889398,0.04012295093198993,-0.002588491009462729,0.10314914267532264,-0.09220977053191101, ,1.7407419681549072
0.0154265800677651,0.02071361136090052,-0.0967224216101497, ,0.016256208648235515,0.020251531681854874,-0.09764547435551642, ,0.0013243215553819714, ,0.018557758955265312,-0.0025072207419847637,-0.04179052471900973,-0.012260803909107144,-0.006942940350904539,0.0017940786455317738, ,0.04579437224791854, ,0.014085605018981914, ,0.0008372354199270313, ,0.17833334753159238,-0.20774923704951354,0.10680911084000001,1.6062249670914566,0.21902830912400104,-1.3130389214376326, ,0.12135158767067875,0.11586928151217434,0.04293480194070081,-0.0025310426160245936,0.11637863961183297,-0.1025107050924464, ,1.7443091869354248
0.0154265800677651,0.02071361136090052,-0.0967224216101497, ,0.01632000418240665,0.02024966082795537,-0.09779330991279894, ,0.0014697817873392334, ,0.018557758955265312,-0.0025072207419847637,-0.04179052471900973,-0.012260803909107144,-0.006942940350904539,0.0017940786455317738, ,0.04579437224791854, ,0.014085605018981914, ,0.0008427358231219201, ,0.17833334753159238,-0.20774923704951354,0.10680911084000001,1.6062249670914566,0.21902830912400104,-1.3130389214376326, ,0.12135158767067875,0.11586928151217434,0.04293480194070081,-0.0025310426160245936,0.11637863961183297,-0.1025107050924464, ,1.7479829788208008
0.0154265800677651,0.02071361136090052,-0.0967224216101497, ,0.016383820790980975,0.02024779834467415,-0.0979404118712999, ,0.0016176500995349692, ,0.018557758955265312,-0.0025072207419847637,-0.04179052471900973,-0.012260803909107144,-0.006942940350904539,0.0017940786455317738, ,0.04579437224791854, ,0.014085605018981914, ,0.0008494161186082395, ,0.17833334753159238,-0.20774923704951354,0.10680911084000001,1.6062249670914566,0.21902830912400104,-1.3130389214376326, ,0.12135158767067875,0.11586928151217434,0.04293480194070081,-0.0025310426160245936,0.11637863961183297,-0.1025107050924464, ,1.7517011165618896
0.015611450610120554,0.0206882812270089,-0.09713725694102018, ,0.016447657424899818,0.020245944481568287,-0.09808678089855895, ,0.0013403355473128188, ,0.01941563829845602,-0.002770659531910899,-0.042666623248794035,-0.0227258968962753,-0.01664472203671935,0.00023942054039765713, ,0.04695832518555972, ,0.028166855771259644, ,0.00085361201116127, ,0.17954581659284563,-0.2065985498512541,0.10723559025000001,1.6062249670914566,0.22025803762189,-1.3141233613110406, ,0.12686756892843687,0.11951755863787251,0.043881023471074386,-0.0024777170986011727,0.11213435909433393,-0.09559576929630312, ,1.7556681632995605
0.015611450610120554,0.0206882812270089,-0.09713725694102018, ,0.016511513040415354,0.02024409948806235,-0.0982324176672776, ,0.0014855257695437088, ,0.01941563829845602,-0.002770659531910899,-0.042666623248794035,-0.0227258968962753,-0.01664472203671935,0.00023942054039765713, ,0.04695832518555972, ,0.028166855771259644, ,0.0008589672125034942, ,0.17954581659284563,-0.2065985498512541,0.10723559025000001,1.6062249670914566,0.22025803762189,-1.3141233613110406, ,0.12686756892843687,0.11951755863787251,0.043881023471074386,-0.0024777170986011727,0.11213435909433393,-0.09559576929630312, ,1.7593631744384766
0.015829241542062254,0.0206593896043871,-0.0976116042203507, ,0.016575386599081643,0.020242263613447484,-0.09837732285530464, ,0.0011476286709330428, ,0.019719865985058586,-0.0024273234263485623,-0.04253984940968816,-0.03170162747339421,-0.033021421678257126,-0.002016906084071735, ,0.04695107880851853, ,0.04577409928041768, ,0.0008613929390449189, ,0.18096679944170294,-0.20529340799551013,0.10772429158,1.6062249670914566,0.22148776611977897,-1.3151261224443085, ,0.12737844504492724,0.11488733844851184,0.043881023471074386,-0.0024200557823690844,0.09602786886272298,-0.08199203406763404, ,1.7632780075073242
0.015829241542062254,0.0206593896043871,-0.0976116042203507, ,0.016639277067745453,0.020240437106880366,-0.09852149714562447, ,0.0012882483780308999, ,0.019719865985058586,-0.0024273234263485623,-0.04253984940968816,-0.03170162747339421,-0.033021421678257126,-0.002016906084071735, ,0.04695107880851853, ,0.04577409928041768, ,0.0008649500677031355, ,0.18096679944170294,-0.20529340799551013,0.10772429158,1.6062249670914566,0.22148776611977897,-1.3151261224443085, ,0.12737844504492724,0.11488733844851184,0.043881023471074386,-0.0024200557823690844,0.09602786886272298,-0.08199203406763404, ,1.7670600414276123
0.015829241542062254,0.0206593896043871,-0.0976116042203507, ,0.01670318341853711,0.020238620217381983,-0.09866494122634327, ,0.0014319008794921686, ,0.019719865985058586,-0.0024273234263485623,-0.04253984940968816,-0.03170162747339421,-0.033021421678257126,-0.002016906084071735, ,0.04695107880851853, ,0.04577409928041768, ,0.0008696356116022184, ,0.18096679944170294,-0.20529340799551013,0.10772429158,1.6062249670914566,0.22148776611977897,-1.3151261224443085, ,0.12737844504492724,0.11488733844851184,0.043881023471074386,-0.0024200557823690844,0.09602786886272298,-0.08199203406763404, ,1.7706451416015625
0.016032445870163534,0.02063439180985181,-0.09803988008347876, ,0.01676710462886142,0.02023681319383773,-0.09880765579067705, ,0.001134580003440486, ,0.019976030139777057,-0.0025169539652709254,-0.04169848814969431,-0.061184520901840456,-0.07012659552432263,-0.008455679990046594, ,0.04630486746961675, ,0.09306534763692995, ,0.000871807286945155, ,0.18226421856457264,-0.20413499806437646,0.10816632647,1.6062249670914566,0.22217094861860617,-1.3156832119627906, ,0.12686756892843687,0.1131072009040176,0.04305084194594595,-0.0023698387496531937,0.05791085778049172,-0.05062754275118152, ,1.774177074432373
0.016032445870163534,0.02063439180985181,-0.09803988008347876, ,0.016831039681388466,0.020235016284994887,-0.09894964153693686, ,0.0012747230237897553, ,0.019976030139777057,-0.0025169539652709254,-0.04169848814969431,-0.061184520901840456,-0.07012659552432263,-0.008455679990046594, ,0.04630486746961675, ,0.09306534763692995, ,0.0008750830246430785, ,0.18226421856457264,-0.20413499806437646,0.10816632647,1.6062249670914566,0.22217094861860617,-1.3156832119627906, ,0.12686756892843687,0.1131072009040176,0.04305084194594595,-0.0023698387496531937,0.05791085778049172,-0.05062754275118152, ,1.7777400016784668
0.016032445870163534,0.02063439180985181,-0.09803988008347876, ,0.016894987564044422,0.020233229739463142,-0.09909089916851797, ,0.0014175860811668885, ,0.019976030139777057,-0.0025169539652709254,-0.04169848814969431,-0.061184520901840456,-0.07012659552432263,-0.008455679990046594, ,0.04630486746961675, ,0.09306534763692995, ,0.0008794580492924642, ,0.18226421856457264,-0.20413499806437646,0.10816632647,1.6062249670914566,0.22217094861860617,-1.3156832119627906, ,0.12686756892843687,0.1131072009040176,0.04305084194594595,-0.0023698387496531937,0.05791085778049172,-0.05062754275118152, ,1.781290054321289
0.016222883627933966,0.02060927446397278,-0.09843509258314995, ,0.016958947270002644,0.02023145380571271,-0.0992314293938857, ,0.0011483424798884123, ,0.019748061319061726,-0.002481705246135502,-0.04072339229981319,-0.04417719242183308,-0.05294452550075509,-0.005121334943632465, ,0.04532702799869635, ,0.06895386218576073, ,0.0008816091247372317, ,0.18348441035870014,-0.20305381546198503,0.10857465782000002,1.6062249670914566,0.22285413111743338,-1.3162403014812727, ,0.12686756892843687,0.10996169357876104,0.04213971301587302,-0.0023239731155554927,0.07529186087099056,-0.06456072934393896, ,1.7849681377410889
0.016222883627933966,0.02060927446397278,-0.09843509258314995, ,0.01702291779767425,0.02022968873207373,-0.09937123292656222, ,0.0012886034080264626, ,0.019748061319061726,-0.002481705246135502,-0.04072339229981319,-0.04417719242183308,-0.05294452550075509,-0.005121334943632465, ,0.04532702799869635, ,0.06895386218576073, ,0.0008848392380966701, ,0.18348441035870014,-0.20305381546198503,0.10857465782000002,1.6062249670914566,0.22285413111743338,-1.3162403014812727, ,0.12686756892843687,0.10996169357876104,0.04213971301587302,-0.0023239731155554927,0.07529186087099056,-0.06456072934393896, ,1.7886290550231934
0.016222883627933966,0.02060927446397278,-0.09843509258314995, ,0.017086898150699185,0.020227934766735418,-0.0995103104851144, ,0.0014310955932232933, ,0.019748061319061726,-0.002481705246135502,-0.04072339229981319,-0.04417719242183308,-0.05294452550075509,-0.005121334943632465, ,0.04532702799869635, ,0.06895386218576073, ,0.0008891404692393994, ,0.18348441035870014,-0.20305381546198503,0.10857465782000002,1.6062249670914566,0.22285413111743338,-1.3162403014812727, ,0.12686756892843687,0.10996169357876104,0.04213971301587302,-0.0023239731155554927,0.07529186087099056,-0.06456072934393896, ,1.792281150817871
0.016414459279957088,0.02058712476204796,-0.09882895550580227, ,0.017150887337937112,0.02022619215774505,-0.09964866279314026, ,0.00115953381423058, ,0.01939710846596218,-0.0021570468326844857,-0.03986511591052467,-0.028068317208575506,-0.03711224910142363,-0.0018238295824624421, ,0.044386125472249356, ,0.0465300846678673, ,0.000891252917247143, ,0.18472004761857605,-0.20201124652396474,0.10898298917000002,1.6062249670914566,0.223673950116026,-1.3169904876435918, ,0.1251938542987741,0.10428235336095688,0.04137353641558442,-0.0022789451781531408,0.08961516704249312,-0.07509896471420346, ,1.7959671020507812
0.016414459279957088,0.02058712476204796,-0.09882895550580227, ,0.017214884373458045,0.020224461153006707,-0.09978629057925631, ,0.0012994982364336217, ,0.01939710846596218,-0.0021570468326844857,-0.03986511591052467,-0.028068317208575506,-0.03711224910142363,-0.0018238295824624421, ,0.044386125472249356, ,0.0465300846678673, ,0.0008944176096439373, ,0.18472004761857605,-0.20201124652396474,0.10898298917000002,1.6062249670914566,0.223673950116026,-1.3169904876435918, ,0.1251938542987741,0.10428235336095688,0.04137353641558442,-0.0022789451781531408,0.08961516704249312,-0.07509896471420346, ,1.7995550632476807
0.016622046467114585,0.02056539543400946,-0.09925840790733208, ,0.017278888276533462,0.02022274200028088,-0.09992319457708447, ,0.0009953862840762515, ,0.01939710846596218,-0.0021570468326844857,-0.03986511591052467,-0.028068317208575506,-0.03711224910142363,-0.0018238295824624421, ,0.044386125472249356, ,0.0465300846678673, ,0.0008951942917549551, ,0.18595568487845196,-0.20097640031881864,0.10940039455000002,1.6062249670914566,0.22449376911461866,-1.317740673805911, ,0.1255250549715222,0.10042004397721775,0.04137353641558442,-0.0022345495087826147,0.08008814903398874,-0.0675569376644799, ,1.8031060695648193
0.016622046467114585,0.02056539543400946,-0.09925840790733208, ,0.017342898071627182,0.020221034947183143,-0.10005937552523876, ,0.001131264913957271, ,0.019504690454728253,-0.0018390771178430484,-0.0396506472592836,-0.02798954085203594,-0.042235482945583595,-0.002198939407272378, ,0.04422656421722442, ,0.0506670742301002, ,0.0008969963575732935, ,0.18595568487845196,-0.20097640031881864,0.10940039455000002,1.6062249670914566,0.22449376911461866,-1.317740673805911, ,0.1255250549715222,0.10042004397721775,0.04137353641558442,-0.0022345495087826147,0.08008814903398874,-0.0675569376644799, ,1.8072330951690674
0.016622046467114585,0.02056539543400946,-0.09925840790733208, ,0.017406912788385926,0.0202193402411833,-0.10019483416731309, ,0.0012699068781331906, ,0.019504690454728253,-0.0018390771178430484,-0.0396506472592836,-0.02798954085203594,-0.042235482945583595,-0.002198939407272378, ,0.04422656421722442, ,0.0506670742301002, ,0.0008998214372745049, ,0.18595568487845196,-0.20097640031881864,0.10940039455000002,1.6062249670914566,0.22449376911461866,-1.317740673805911, ,0.1255250549715222,0.10042004397721775,0.04137353641558442,-0.0022345495087826147,0.08008814903398874,-0.0675569376644799, ,1.810817003250122
0.01679720835311804,0.020549706754940472,-0.09961692152345522, ,0.017470931461630576,0.02021765812960445,-0.10032957125186755, ,0.0010353882131536455, ,0.018518759430068057,-0.0016458936406596972,-0.03793026997725248,-0.00844754157898483,-0.024473867989614876,-0.0017127224303786293, ,0.042241671335925615, ,0.025889238348270116, ,0.0009008407363412653, ,0.1871681539397052,-0.2000187814424148,0.10980224445000002,1.6060152771479719,0.22545022461297673,-1.318683956612067, ,0.11862117694808846,0.09395736787967403,0.039525586898263035,0.0,0.09519589100642922,-0.08416743870262922, ,1.814380168914795
0.01679720835311804,0.020549706754940472,-0.09961692152345522, ,0.01753495313134676,0.02021598885962197,-0.10046358753241576, ,0.001171528199485064, ,0.018518759430068057,-0.0016458936406596972,-0.03793026997725248,-0.00844754157898483,-0.024473867989614876,-0.0017127224303786293, ,0.042241671335925615, ,0.025889238348270116, ,0.0009028607920363683, ,0.1871681539397052,-0.2000187814424148,0.10980224445000002,1.6060152771479719,0.22545022461297673,-1.318683956612067, ,0.11862117694808846,0.09395736787967403,0.039525586898263035,0.0,0.09519589100642922,-0.08416743870262922, ,1.8179881572723389
0.01679720835311804,0.020549706754940472,-0.09961692152345522, ,0.017598976842675973,0.02021433267826294,-0.10059688376741233, ,0.0013098223092224237, ,0.018518759430068057,-0.0016458936406596972,-0.03793026997725248,-0.00844754157898483,-0.024473867989614876,-0.0017127224303786293, ,0.042241671335925615, ,0.025889238348270116, ,0.000905875321793302, ,0.1871681539397052,-0.2000187814424148,0.10980224445000002,1.6060152771479719,0.22545022461297673,-1.318683956612067, ,0.11862117694808846,0.09395736787967403,0.039525586898263035,0.0,0.09519589100642922,-0.08416743870262922, ,1.8216590881347656
0.016982418390030854,0.020532647984459956,-0.09999230508647869, ,0.017663001645906173,0.020212689832404575,-0.10072946072023854, ,0.0010530741738493238, ,0.017862581240352168,-0.0018119974654907806,-0.03559521305671331,-0.014399879149437116,-0.031964846050891074,-0.003132598094411473, ,0.03986695794685042, ,0.035057820243712234, ,0.0009069576662937139, ,0.1883574548023358,-0.19908433076463364,0.11019372403000001,1.6060152771479719,0.22640668011133483,-1.319463881937942, ,0.11460983280008549,0.0902062182114741,0.03713009678321679,0.0,0.08354460303225121,-0.0744784026567366, ,1.8253459930419922
0.016982418390030854,0.020532647984459956,-0.09999230508647869, ,0.01772702659646284,0.02021106056877383,-0.10086131915919096, ,0.0011887158220472648, ,0.017862581240352168,-0.0018119974654907806,-0.03559521305671331,-0.014399879149437116,-0.031964846050891074,-0.003132598094411473, ,0.03986695794685042, ,0.035057820243712234, ,0.0009090142951678274, ,0.1883574548023358,-0.19908433076463364,0.11019372403000001,1.6060152771479719,0.22640668011133483,-1.319463881937942, ,0.11460983280008549,0.0902062182114741,0.03713009678321679,0.0,0.08354460303225121,-0.0744784026567366, ,1.8289220333099365
0.016982418390030854,0.020532647984459956,-0.09999230508647869, ,0.017791050754899843,0.020209445133946312,-0.10099245985746777, ,0.0013261432615015545, ,0.017862581240352168,-0.0018119974654907806,-0.03559521305671331,-0.014399879149437116,-0.031964846050891074,-0.003132598094411473, ,0.03986695794685042, ,0.035057820243712234, ,0.0009120369688369124, ,0.1883574548023358,-0.19908433076463364,0.11019372403000001,1.6060152771479719,0.22640668011133483,-1.319463881937942, ,0.11460983280008549,0.0902062182114741,0.03713009678321679,0.0,0.08354460303225121,-0.0744784026567366, ,1.8324761390686035
0.017157373889007246,0.020514777480408124,-0.10033609684508732, ,0.01785507318689026,0.020207843774344925,-0.10112288359315567, ,0.0010954569809536643, ,0.01736337157378698,-0.0014854647553428023,-0.0339016604700783,-0.018517422166896443,-0.039450961218779494,-0.0037268026303713337, ,0.038118445148998786, ,0.04358013862589244, ,0.0009133565372694071, ,0.18948497380197257,-0.19821166194984627,0.11055279636000001,1.6060152771479719,0.22722649910992745,-1.320214068100261, ,0.1111205404665934,0.08316997507315581,0.035476194922048995,0.0,0.07245227102505904,-0.06339878978631112, ,1.8361821174621582
0.017157373889007246,0.020514777480408124,-0.10033609684508732, ,0.017919092963217184,0.02020625673623961,-0.10125259114921663, ,0.0012310007339961277, ,0.01736337157378698,-0.0014854647553428023,-0.0339016604700783,-0.018517422166896443,-0.039450961218779494,-0.0037268026303713337, ,0.038118445148998786, ,0.04358013862589244, ,0.0009156254243888836, ,0.18948497380197257,-0.19821166194984627,0.11055279636000001,1.6060152771479719,0.22722649910992745,-1.320214068100261, ,0.1111205404665934,0.08316997507315581,0.035476194922048995,0.0,0.07245227102505904,-0.06339878978631112, ,1.8398451805114746
0.017338090123453373,0.020500209728724367,-0.10068229614513016, ,0.017983109159764765,0.020204684265746092,-0.10138158331347627, ,0.0009961864284791866, ,0.017068803518746407,-0.0013498491199195695,-0.03294307366811125,-0.01325123358228868,-0.03541723423640841,-0.002739422240511051, ,0.037126974680287674, ,0.03781450612402717, ,0.0009161967790278219, ,0.19064338373310624,-0.19736988406655578,0.11091575756000001,1.6060152771479719,0.22790968160875466,-1.320771157618743, ,0.10945437319316122,0.07947817550960702,0.034552736485900216,0.0,0.07484179166411835,-0.0650335679841939, ,1.844038963317871
0.017338090123453373,0.020500209728724367,-0.10068229614513016, ,0.018047120857508935,0.020203126608824565,-0.10150986087860903, ,0.0011295336869977417, ,0.017068803518746407,-0.0013498491199195695,-0.03294307366811125,-0.01325123358228868,-0.03541723423640841,-0.002739422240511051, ,0.037126974680287674, ,0.03781450612402717, ,0.0009176991516191594, ,0.19064338373310624,-0.19736988406655578,0.11091575756000001,1.6060152771479719,0.22790968160875466,-1.320771157618743, ,0.10945437319316122,0.07947817550960702,0.034552736485900216,0.0,0.07484179166411835,-0.0650335679841939, ,1.8476340770721436
0.017338090123453373,0.020500209728724367,-0.10068229614513016, ,0.01811112714250842,0.02020158401127946,-0.10163742464212697, ,0.0012645291604879547, ,0.017068803518746407,-0.0013498491199195695,-0.03294307366811125,-0.01325123358228868,-0.03541723423640841,-0.002739422240511051, ,0.037126974680287674, ,0.03781450612402717, ,0.0009201245362965635, ,0.19064338373310624,-0.19736988406655578,0.11091575756000001,1.6060152771479719,0.22790968160875466,-1.320771157618743, ,0.10945437319316122,0.07947817550960702,0.034552736485900216,0.0,0.07484179166411835,-0.0650335679841939, ,1.8511559963226318
0.01748862765200552,0.02049117273107,-0.10097443591590345, ,0.018175127105895413,0.020200056718757988,-0.10176427540636514, ,0.0010862211807492741, ,0.017068803518746407,-0.0013498491199195695,-0.03294307366811125,-0.01325123358228868,-0.03541723423640841,-0.002739422240511051, ,0.037126974680287674, ,0.03781450612402717, ,0.0009212779852163741, ,0.19161644807525854,-0.19669028357362403,0.11122297829000001,1.6062249670914566,0.2287295006073473,-1.3215213437810622, ,0.10983442310008192,0.07466321129698723,0.03516293933774835,0.0004961629013837258,0.10070943802653887,-0.08706304949930041, ,1.8548381328582764
0.01748862765200552,0.02049117273107,-0.10097443591590345, ,0.018239119843866676,0.020198544976749243,-0.10189041397846979, ,0.0012197890570693599, ,0.01703379472863098,-0.0007865404776425135,-0.033398390814368926,0.013542192554660227,-0.01011969889158447,0.0018487133174148517, ,0.03749961756830901, ,0.016904370127881756, ,0.0009233366822636359, ,0.19161644807525854,-0.19669028357362403,0.11122297829000001,1.6062249670914566,0.2287295006073473,-1.3215213437810622, ,0.10983442310008192,0.07466321129698723,0.03516293933774835,0.0004961629013837258,0.10070943802653887,-0.08706304949930041, ,1.8585751056671143
0.01748862765200552,0.02049117273107,-0.10097443591590345, ,0.01830310445767432,0.020197049030583888,-0.10201584117038555, ,0.0013544024963883594, ,0.01703379472863098,-0.0007865404776425135,-0.033398390814368926,0.013542192554660227,-0.01011969889158447,0.0018487133174148517, ,0.03749961756830901, ,0.016904370127881756, ,0.0009262891878398326, ,0.19161644807525854,-0.19669028357362403,0.11122297829000001,1.6062249670914566,0.2287295006073473,-1.3215213437810622, ,0.10983442310008192,0.07466321129698723,0.03516293933774835,0.0004961629013837258,0.10070943802653887,-0.08706304949930041, ,1.8622000217437744
0.017681031623496678,0.02048700213529459,-0.10135579851581988, ,0.018367080053616515,0.02019556912543186,-0.10214055779884103, ,0.0010823321024507233, ,0.017737663444067693,8.854452301080749e-05,-0.035363521059353524,-0.01382208732722503,-0.04456869564047801,-0.0031275947843957055, ,0.039562749731318105, ,0.04666222693470865, ,0.0009273507042657571, ,0.1928289171365118,-0.19588711935470468,0.11162482819000001,1.6062249670914566,0.22968595610570539,-1.3223829478470779, ,0.10895171246667139,0.06967470011635153,0.03730400824355972,0.0004961629013837258,0.0649964070337903,-0.05467645697537525, ,1.8657469749450684
0.017681031623496678,0.02048700213529459,-0.10135579851581988, ,0.018431045743028736,0.020194105506303052,-0.10226456468533725, ,0.0012141522003568236, ,0.017737663444067693,8.854452301080749e-05,-0.035363521059353524,-0.01382208732722503,-0.04456869564047801,-0.0031275947843957055, ,0.039562749731318105, ,0.04666222693470865, ,0.0009292885522123182, ,0.1928289171365118,-0.19588711935470468,0.11162482819000001,1.6062249670914566,0.22968595610570539,-1.3223829478470779, ,0.10895171246667139,0.06967470011635153,0.03730400824355972,0.0004961629013837258,0.0649964070337903,-0.05467645697537525, ,1.8693461418151855
0.017681031623496678,0.02048700213529459,-0.10135579851581988, ,0.018495000642274276,0.020192658418044972,-0.10238786265613446, ,0.0013469744530381262, ,0.017737663444067693,8.854452301080749e-05,-0.035363521059353524,-0.01382208732722503,-0.04456869564047801,-0.0031275947843957055, ,0.039562749731318105, ,0.04666222693470865, ,0.0009320918132916862, ,0.1928289171365118,-0.19588711935470468,0.11162482819000001,1.6062249670914566,0.22968595610570539,-1.3223829478470779, ,0.10895171246667139,0.06967470011635153,0.03730400824355972,0.0004961629013837258,0.0649964070337903,-0.05467645697537525, ,1.8729090690612793
0.017860295634534954,0.020491270895667667,-0.1017144688107495, ,0.0185589438727354,0.020191228105342914,-0.10251045254223827, ,0.001100783874137535, ,0.018422992072965785,0.0006699732048191026,-0.03706318563384793,-0.03524883404063401,-0.07384049602908258,-0.007596516212619758, ,0.04139486961381576, ,0.08182193603772846, ,0.0009332164270306585, ,0.193902377006029,-0.19521524159464715,0.11200334487000001,1.6062249670914566,0.2300958656050017,-1.322717201558167, ,0.10895171246667139,0.06701761409496525,0.039137129041769046,0.0004961629013837258,0.0353911876640238,-0.030535385692704864, ,1.876460075378418
0.017860295634534954,0.020491270895667667,-0.1017144688107495, ,0.018622874560803918,0.020189814812718074,-0.10263233517938788, ,0.0012308050452505702, ,0.018422992072965785,0.0006699732048191026,-0.03706318563384793,-0.03524883404063401,-0.07384049602908258,-0.007596516212619758, ,0.04139486961381576, ,0.08182193603772846, ,0.0009351872125817837, ,0.193902377006029,-0.19521524159464715,0.11200334487000001,1.6062249670914566,0.2300958656050017,-1.322717201558167, ,0.10895171246667139,0.06701761409496525,0.039137129041769046,0.0004961629013837258,0.0353911876640238,-0.030535385692704864, ,1.8800280094146729
0.01804500880781954,0.02050203323731989,-0.10210288419196113, ,0.018686791837872398,0.0201884187845274,-0.10275351140804226, ,0.0013617727028921573, ,0.01768221429474309,0.0013302062017203698,-0.03760286601728666,0.03353690840593468,0.003237278688226516,0.0057760931759428214, ,0.04157409871083586, ,0.03369167580152767, ,0.0009379936960706677, ,0.19502217327279153,-0.19455108656746384,0.11241426880000001,1.6062249670914566,0.23118895760312522,-1.323690223527879, ,0.10650610724856428,0.061342560800562884,0.039822028800000006,0.0004961629013837258,0.11082239628329991,-0.0939957186956782, ,1.8844389915466309
0.01804500880781954,0.02050203323731989,-0.10210288419196113, ,0.0187506948403248,0.020187040264962097,-0.10287398207336776, ,0.001091698352026602, ,0.01768221429474309,0.0013302062017203698,-0.03760286601728666,0.03353690840593468,0.003237278688226516,0.0057760931759428214, ,0.04157409871083586, ,0.03369167580152767, ,0.000938998301665151, ,0.19502217327279153,-0.19455108656746384,0.11241426880000001,1.6062249670914566,0.23118895760312522,-1.323690223527879, ,0.10650610724856428,0.061342560800562884,0.039822028800000006,0.0004961629013837258,0.11082239628329991,-0.0939957186956782, ,1.8900229930877686
0.01822539932544156,0.02051633815030058,-0.10248741886340824, ,0.01881458270952754,0.020185679498047095,-0.10299374802522417, ,0.0012190004298432621, ,0.01768221429474309,0.0013302062017203698,-0.03760286601728666,0.03353690840593468,0.003237278688226516,0.0057760931759428214, ,0.04157409871083586, ,0.03369167580152767, ,0.0009408164973026713, ,0.19608791040943452,-0.19393326793752588,0.11282130386000001,1.6062249670914566,0.23214541310148332,-1.3244701488537538, ,0.10182075274514032,0.05797003149570604,0.038382678361445786,0.0004961629013837258,0.09062343789370352,-0.07752482252603479, ,1.8943791389465332
0.01822539932544156,0.02051633815030058,-0.10248741886340824, ,0.01887845459182011,0.02018433672763963,-0.1031128101181533, ,0.0009632343157847195, ,0.017181233296174978,0.0013564029402935737,-0.0362202362856877,0.020446730817725137,-0.012041341731881946,0.0029923708389927913, ,0.04011159586834057, ,0.02372762890239189, ,0.0009409611283896521, ,0.19608791040943452,-0.19393326793752588,0.11282130386000001,1.6062249670914566,0.23214541310148332,-1.3244701488537538, ,0.10182075274514032,0.05797003149570604,0.038382678361445786,0.0004961629013837258,0.09062343789370352,-0.07752482252603479, ,1.89839506149292
0.01822539932544156,0.02051633815030058,-0.10248741886340824, ,0.018942309638506245,0.020183012197428758,-0.10323116921136459, ,0.0010854635728211241, ,0.017181233296174978,0.0013564029402935737,-0.0362202362856877,0.020446730817725137,-0.012041341731881946,0.0029923708389927913, ,0.04011159586834057, ,0.02372762890239189, ,0.0009418874261103668, ,0.19608791040943452,-0.19393326793752588,0.11282130386000001,1.6062249670914566,0.23214541310148332,-1.3244701488537538, ,0.10182075274514032,0.05797003149570604,0.038382678361445786,0.0004961629013837258,0.09062343789370352,-0.07752482252603479, ,1.9019920825958252
0.018384415727011418,0.020526587313043177,-0.10280987322696354, ,0.01900614700584459,0.020181706150934065,-0.10334882616872262, ,0.0008921676257789413, ,0.015957143938029585,0.00043186838946646057,-0.030408219488705694,-0.011396063123475507,-0.0491377236466616,-0.0035332064283496245, ,0.03434351125668596, ,0.05044165085513087, ,0.0009415707394840519, ,0.19703780655296413,-0.1934003993692044,0.11316352442000001,1.6062249670914566,0.23282859560031052,-1.3250272383722361, ,0.09693252457453604,0.05530124799444684,0.03230996251521299,0.0004961629013837258,0.04817575397777913,-0.0429115825294053, ,1.9055380821228027
0.018384415727011418,0.020526587313043177,-0.10280987322696354, ,0.01906996585503975,0.020180418831505197,-0.10346578185873502, ,0.0010099642215852529, ,0.015957143938029585,0.00043186838946646057,-0.030408219488705694,-0.011396063123475507,-0.0491377236466616,-0.0035332064283496245, ,0.03434351125668596, ,0.05044165085513087, ,0.0009420036096239329, ,0.19703780655296413,-0.1934003993692044,0.11316352442000001,1.6062249670914566,0.23282859560031052,-1.3250272383722361, ,0.09693252457453604,0.05530124799444684,0.03230996251521299,0.0004961629013837258,0.04817575397777913,-0.0429115825294053, ,1.9090800285339355
0.018384415727011418,0.020526587313043177,-0.10280987322696354, ,0.0191337653522329,0.02017915048232021,-0.10358203715453772, ,0.0011306963974512224, ,0.015957143938029585,0.00043186838946646057,-0.030408219488705694,-0.011396063123475507,-0.0491377236466616,-0.0035332064283496245, ,0.03434351125668596, ,0.05044165085513087, ,0.0009431903567171863, ,0.19703780655296413,-0.1934003993692044,0.11316352442000001,1.6062249670914566,0.23282859560031052,-1.3250272383722361, ,0.09693252457453604,0.05530124799444684,0.03230996251521299,0.0004961629013837258,0.04817575397777913,-0.0429115825294053, ,1.9126720428466797
0.018536771873569426,0.02052884728979604,-0.10308963312686845, ,0.019197544668493105,0.020177901346385526,-0.10369759293388339, ,0.0009640533536341221, ,0.015266015144003735,-6.353575243169029e-05,-0.026958720824101053,0.002781245743483611,-0.03497463165113976,-0.0007320254098771473, ,0.030981089129348056, ,0.03508483928228695, ,0.0009433207504479171, ,0.19798770269649377,-0.19287525353375712,0.11346167112000001,1.6062249670914566,0.23337514159937228,-1.3254729099870217, ,0.09763059831118392,0.05328295427202177,0.028804360795660042,0.0004961629013837258,0.06319206097113432,-0.05515637399679272, ,1.91624116897583
0.018536771873569426,0.02052884728979604,-0.10308963312686845, ,0.019261302979807667,0.020176671666533898,-0.10381245007912794, ,0.0010823295893583398, ,0.015266015144003735,-6.353575243169029e-05,-0.026958720824101053,0.002781245743483611,-0.03497463165113976,-0.0007320254098771473, ,0.030981089129348056, ,0.03508483928228695, ,0.0009441841593852489, ,0.19798770269649377,-0.19287525353375712,0.11346167112000001,1.6062249670914566,0.23337514159937228,-1.3254729099870217, ,0.09763059831118392,0.05328295427202177,0.028804360795660042,0.0004961629013837258,0.06319206097113432,-0.05515637399679272, ,1.9198830127716064
0.018536771873569426,0.02052884728979604,-0.10308963312686845, ,0.01932503946707345,0.020175461685424587,-0.10392660947721796, ,0.001202820267284353, ,0.015266015144003735,-6.353575243169029e-05,-0.026958720824101053,0.002781245743483611,-0.03497463165113976,-0.0007320254098771473, ,0.030981089129348056, ,0.03508483928228695, ,0.0009457806785698112, ,0.19798770269649377,-0.19287525353375712,0.11346167112000001,1.6062249670914566,0.23337514159937228,-1.3254729099870217, ,0.09763059831118392,0.05328295427202177,0.028804360795660042,0.0004961629013837258,0.06319206097113432,-0.05515637399679272, ,1.9235320091247559
