NicholasDascanio/dvrk_moveit_final/test/execution/third_experiment_notsharpbends/thirdexp_300vel3.0/thirdexp_300vel3.0_5.csv
Current Position (x),Current Position (y),Current Position (z), ,Planned Position (x),Planned Position (y),Planned Position (z), ,Position Error,,Cartesian linear Velocity(x),Cartesian linear Velocity(y),Cartesian linear Velocity(z),Cartesian Angular Velocity(x),Cartesian Angular Velocity(y),Cartesian Angular Velocity(z), ,Total Linear Velocity, ,Total Angular Velocity, ,MSE, ,Joint 1 Position,Joint 2 Position,Joint 3 Position,Joint 4 Position,Joint 5 Position,Joint 6 Position, ,Joint 1 Velocity,Joint 2 Velocity,Joint 3 Velocity,Joint 4 Velocity,Joint 5 Velocity,Joint 6 Velocity, ,Time Stamp
0.009285722606352966,0.02066117022851613,-0.07888223878253564, ,0.009474008379040565,0.02061690626104591,-0.07896834170914434, ,0.00021171807901866475, ,0.00012076136810569627,6.798065387212078e-05,-0.00035866639287688125,0.27333634477620045,0.002525073923056966,-0.013139802230236303, ,0.0003845078135837475, ,0.27334800781042984, ,1.7643173251555396e-05, ,0.13828325484586407,-0.25382306137713695,0.08870901357000001,1.6058055872044876,0.18541573018170268,-1.259247884062911, ,0.0008840682760692465,0.00031924226700291193,0.00037559026902917445,-0.0006057307142375087,0.0,-0.31002536278535286, ,0.03566288948059082
0.009337120571590758,0.020668118431390107,-0.07892349598475065, ,0.009523078161597342,0.020628691270245178,-0.07909295833061271, ,0.00025466097655918197, ,0.0012681415585313837,0.0005542300899179281,-0.0026898798076559526,0.16866256659633047,-0.08958221349624203,-0.03118618235146387, ,0.0030250301460778978, ,0.1909765282583362, ,2.1199047980811217e-05, ,0.13831414577736098,-0.2537767249798916,0.08874919856,1.6058055872044876,0.18063345268991227,-1.2662932086123715, ,0.0005631830505875569,0.0017740180900801558,0.0027326833968090583,-0.0006057307142375087,-0.09394131656709155,-0.17069398170560057, ,0.07244300842285156
0.009391103654851352,0.02068837178287967,-0.07902709125405248, ,0.009572431733580324,0.02064005486039191,-0.07921757851508918, ,0.00026739445347929546, ,0.0007195846670971307,0.0007510768088932333,-0.0032692957645073066,-0.10147564794300215,0.0029054733892148145,0.006813469849338727, ,0.003430774440531459, ,0.10151723450081798, ,2.2930422158035694e-05, ,0.13845315496909702,-0.25369177491827516,0.08885549434000001,1.6058055872044876,0.17749081319530713,-1.2707549684794424, ,0.0042661364859884286,0.0013454194535671212,0.003421136494845361,-0.0006057307142375087,0.008705499041079699,0.0955748179890693, ,0.1142878532409668
0.009415887483105831,0.02070696957036036,-0.07913300228255853, ,0.009622065972038909,0.020651001080349722,-0.0793422001305686, ,0.00029900799451660747, ,0.0005835303698679779,0.0003989499002765152,-0.0020500141390606646,0.048148666396364684,0.03277974204220589,0.008833838554994786, ,0.002168461824851325, ,0.05824779449958403, ,2.4590035799374993e-05, ,0.13874661881831754,-0.25357593392516176,0.08896697528000001,1.6058055872044876,0.178993814692727,-1.2680599858933561, ,0.008431924964591175,0.0018489975520121639,0.0021985937225672877,-0.0006057307142375087,0.04216981640028357,-0.05011147007727251, ,0.15256500244140625
0.009461262064574025,0.020723642337363582,-0.07924844026605107, ,0.009671977767641858,0.020661533964268508,-0.07946682105390518, ,0.0003097559136347005, ,0.001378732356626176,0.0005665204207382154,-0.003200197982028627,-0.006741134564350349,-0.015107141732971407,-0.00076097679843264, ,0.0035303137852748263, ,0.016542932817947283, ,2.581802725400866e-05, ,0.13912503272915455,-0.25340603380192883,0.08908753025,1.6058055872044876,0.17913045119249243,-1.2686614762378956, ,0.011108418212443127,0.003485321642148612,0.0033711770412698412,-0.0006057307142375087,-0.003938609473244468,0.003211671930568285, ,0.18971800804138184
0.009502169892348743,0.02073763976872132,-0.07934932589673667, ,0.009722164024654685,0.020671657531605332,-0.07959143917080003, ,0.00033372130789260853, ,0.0012549064290830448,0.0004451077642144891,-0.003566556559664308,-0.006869153610351644,-0.009511203169565483,-0.00021215121497466198, ,0.003806998392540045, ,0.011732359373896915, ,2.7036431050017078e-05, ,0.13944166477699774,-0.25325157914444435,0.08919252974000001,1.6058055872044876,0.178993814692727,-1.2685500583341993, ,0.009349583287866834,0.005971983179688761,0.0036846660929909783,-0.0006057307142375087,0.0,0.0008744789167956425, ,0.22628998756408691
0.009548952831453236,0.020756157387327064,-0.07949987731223679, ,0.009772621660916877,0.020681375787146437,-0.07971605237578822, ,0.00031992450844015415, ,0.0009784217348464525,0.0002561420570076179,-0.00332709668702779,0.004345809059221698,0.006808461764517662,0.0029258015642890235, ,0.003477425802144358, ,0.008077202954638759, ,2.7724767132516843e-05, ,0.13982007868783475,-0.25299672895959496,0.08934808454000001,1.6058055872044876,0.17954036069178875,-1.2691590874292662, ,0.008026742967787433,0.0073926637672872735,0.0033977840273037544,-0.0006057307142375087,0.015351048841471553,-0.011762664621941235, ,0.26264095306396484
0.009580283946727339,0.02076275420913312,-0.07958473688222906, ,0.009823347607819237,0.02069069272102798,-0.079840658572227, ,0.00036023424715416185, ,0.0011082234007078412,0.00027054412192086485,-0.0033476978258114103,0.003283921435006408,0.004276796983032978,-0.00015527257467591498, ,0.0035367264469739284, ,0.0053921361263332525, ,2.9091573835745363e-05, ,0.14005948340693572,-0.25280366063773935,0.08943493597,1.6060152771479719,0.17954036069178875,-1.2691590874292662, ,0.009357122162370068,0.007366130551550235,0.0034336735330890277,0.0021643602385333013,0.013412444824638733,-0.010295711382881234, ,0.2947728633880615
0.009623991491303326,0.020778226016331395,-0.07971681585120498, ,0.009874338810281123,0.020699612308757838,-0.07996525567228187, ,0.0003613533448503677, ,0.0015989512003568463,0.0006172633259297954,-0.004944733298064278,-0.009715833479259348,-0.015780473378570997,0.021422090362711223, ,0.005233358992429828, ,0.018531615075120064, ,3.0197453617174916e-05, ,0.14038383818765313,-0.25256425591863835,0.08957104642000001,1.606434657034941,0.1796769971915542,-1.2691888265928222, ,0.01126506903590584,0.0077166368531310595,0.005095589097888676,-0.02317347468299456,0.0013062793297354991,-0.0010651832036896777, ,0.32727599143981934
0.009682594690246064,0.020793078147577457,-0.07986030837916755, ,0.009925592226727911,0.020708138511236547,-0.08008984159691514, ,0.00034488844951307667, ,0.0015162177579376157,0.00026939378956710174,-0.0034158277284708147,-0.005010922403147443,-0.011846873589696612,0.01341356607205495, ,0.003746914513827715, ,0.01286303839361398, ,3.09359522733214e-05, ,0.14090126129022618,-0.25228623753516627,0.08972011977000001,1.606434657034941,0.1800869066908505,-1.2696047590440518, ,0.013274156043988078,0.0052293558460528395,0.003562695486468352,-0.012365789901116664,0.0023924687539336794,-0.00199141134251847, ,0.3599269390106201
0.009736412328599451,0.02080865042425105,-0.07998705151140693, ,0.009977104829068053,0.02071627527477907,-0.08021441427587236, ,0.0003437439085818987, ,0.001812634638527335,0.00048172677141630597,-0.004025599021287213,-0.0003633478496916795,-0.009407772117744712,0.00990242740323134, ,0.004441075601166553, ,0.009414786074154927, ,3.154077021889553e-05, ,0.14135690252980543,-0.252070001014688,0.08985234135,1.606434657034941,0.18022354319061595,-1.2697161769477483, ,0.01627455694708811,0.006613403825246382,0.004290011182332346,-0.009302989655300683,0.00939202483194033,-0.007711541615394022, ,0.3926098346710205
0.009792149272497056,0.02082088992442612,-0.0800955257155831, ,0.010028873602670607,0.020724026531135815,-0.08033897164767041, ,0.0003531102480893073, ,0.0018969599323350244,0.00037363990322386185,-0.00374871077438952,-0.003681605209591987,-0.01373443972062677,0.007447527633005522, ,0.004217925584003316, ,0.01421931962572478, ,3.213259343358996e-05, ,0.14186660289950423,-0.25186920995995815,0.08996641487000001,1.606434657034941,0.1803601796903814,-1.2698275948514448, ,0.01733594109581125,0.007348141898155258,0.003928190263871764,-0.007577962660273997,0.005621025941695749,-0.004634350240041067, ,0.4250209331512451
0.009844865150807102,0.02083503748055331,-0.08021691910460942, ,0.010080895546342384,0.020731396197514237,-0.08046351165958474, ,0.00035673484738077193, ,0.0017750233997211337,0.0005214760248644319,-0.004325707269186748,0.0013927009507747332,-0.0056863630947182236,0.007670274538979567, ,0.004704719831484236, ,0.005854429064281608, ,3.266863713579997e-05, ,0.14234541233770617,-0.2516529734394799,0.09009345129000002,1.606434657034941,0.1807700891896777,-1.270161848562534, ,0.015442952247106716,0.0073195648929513125,0.004514969251700681,-0.0064466069455569475,0.01163224248848212,-0.00953317264341952, ,0.45682501792907715
0.00989456638739205,0.020843735392361847,-0.08032565780144937, ,0.010133167672305307,0.020738388176599776,-0.08058803226763593, ,0.0003699580645664568, ,0.0016062810969066429,2.6193232158965647e-05,-0.0030768627721235956,-0.00732937629338076,-0.012895729999503936,0.004762067960361794, ,0.003471009876991225, ,0.014833057971784231, ,3.323115810131299e-05, ,0.14277788537866273,-0.2514135687203789,0.09020622852000001,1.606434657034941,0.18090672568944316,-1.2702732664662304, ,0.014592794334687189,0.009275274482863107,0.0031592248155493854,-0.005626518074584712,0.003169991047415168,-0.002629715352076303, ,0.4896240234375
0.00993936893665793,0.02084918697737032,-0.08043001227988768, ,0.010185687006173757,0.020745006356577986,-0.08071253143657854, ,0.0003890286197903644, ,0.0015706241985121699,0.00046382619040410386,-0.004472950006076932,0.0030750017360950976,0.0001898892237264056,0.00680475805440137, ,0.00476332623958515, ,0.003080858939288231, ,3.409255219208124e-05, ,0.14318719022099663,-0.25115099580265526,0.09031382059000001,1.606434657034941,0.1813166351887395,-1.2706075201773195, ,0.012935788107752286,0.008341490890003802,0.0046237479013062415,-0.005007226422377059,0.014709838158855624,-0.012036779149200809, ,0.5190889835357666
0.009982924248981263,0.020861915256977885,-0.08055191177058302, ,0.010238450586931756,0.020751254611154853,-0.08083700713988681, ,0.0003985208369945383, ,0.0016516990023279483,0.0003218362062331361,-0.00428448785852753,-0.00017246082991532273,-0.002785902624559334,0.0010941775241579783, ,0.004603099428407288, ,0.002791235340780686, ,3.492553510239838e-05, ,0.14351926773458829,-0.25092703654930276,0.09043956072,1.6062249670914566,0.18145327168850492,-1.270718938081016, ,0.013839425631977653,0.009521102444430697,0.004412413163434903,0.0,0.01131222278997891,-0.009264027229072578, ,0.5475690364837646
0.010041305162425658,0.020870005480283792,-0.08069140334869528, ,0.010291455466910352,0.020757136799579072,-0.0809614573597437, ,0.0003850242626136022, ,0.0017093694252003511,0.0004471753100360679,-0.004678425824186548,0.005976805408807983,0.0038187683490280735,0.00013099643768030487, ,0.005000957686496779, ,0.0070926153397037825, ,3.5589811717457594e-05, ,0.14404441357003556,-0.25057951356996266,0.09058344891,1.6066443469784255,0.18199981768756668,-1.2711646096958016, ,0.014541364014476064,0.00929129770460829,0.00484011288969918,0.00257435921525423,0.018140462176660474,-0.014829127986950354, ,0.5762999057769775
0.010104307327054965,0.020884098437306924,-0.08085342307847905, ,0.010344698711764912,0.020762656766663033,-0.08108588008702629, ,0.0003557700915398536, ,0.0019050896038658343,0.0002710287454609291,-0.004514962025732093,-0.002455036888368349,-0.0066558258758658145,0.0024824692587231767, ,0.004907922684132936, ,0.007094168192038551, ,3.601527038691983e-05, ,0.14455411393973439,-0.2502397133234968,0.09075067032,1.6068540369219102,0.18227309068709754,-1.2713874455031946, ,0.016294117712649513,0.010765743722921453,0.0046521061682242995,-0.0018705876762197312,0.010340899245514878,-0.00846680300807575, ,0.6045279502868652
0.010144456207012185,0.02088637832635597,-0.08093658988451355, ,0.010398177400452397,0.020767818342803758,-0.08121027332129559, ,0.00039157826455186973, ,0.002029304342613674,8.377015259880351e-05,-0.0040634396437626286,-0.004508522858562074,-0.010113044122598433,0.0020610822174513873, ,0.0045427563540122754, ,0.01107250823815362, ,3.660644810952847e-05, ,0.1449093596519487,-0.25000803133727006,0.09083622546,1.6068540369219102,0.182409727186863,-1.2715805421470316, ,0.01841228978627683,0.011622589171242523,0.004185184319495534,-0.0018705876762197312,0.008970133570858801,-0.007260678768116358, ,0.63319993019104
0.010204924623971766,0.020890367889249566,-0.08106642133391753, ,0.01045188862520863,0.020772625344004945,-0.08133463507078174, ,0.00038313592041241533, ,0.001999079143602482,0.00010198094225804237,-0.004460527118271014,-0.0029827425853545626,-0.005672312392046017,0.0027772718010180726, ,0.004889071456606192, ,0.00640873462063218, ,3.709980513431638e-05, ,0.1454422282202702,-0.24965278562505572,0.09096974333,1.6068540369219102,0.18268300018639388,-1.2718850566945652, ,0.017701350785015998,0.012535923587644751,0.004574615600229753,-0.0018705876762197312,0.01279380361482025,-0.009693470109531711, ,0.662431001663208
0.010265345012124106,0.020893006888163597,-0.08119926751055824, ,0.01050582949152568,0.020777081571897983,-0.08145896335237254, ,0.0003724424707790031, ,0.001996981588404853,5.045803496131696e-05,-0.00431930260703792,-0.011116550110214597,-0.014385080238390231,0.000620335119989796, ,0.004758871346116082, ,0.018179884991783073, ,3.749584717465393e-05, ,0.14596737405571747,-0.24927437171421873,0.09110585378000001,1.6068540369219102,0.18295627318592475,-1.2721078925019578, ,0.016789975505745007,0.012646180911310072,0.004412413163434903,-0.0018705876762197312,0.0029416645075163407,-0.0016608161153922093, ,0.6919510364532471
0.01032114416423225,0.020896128382553066,-0.081325588176541, ,0.01055999711812909,0.02078119081376314,-0.08158325619160042, ,0.00036966766735711424, ,0.001815632604429747,5.676015423199945e-05,-0.0038722139439798533,-0.0010027476588639176,-0.0028035166521943127,-0.00420240726117134, ,0.004620665594451729, ,0.002873416659145501, ,3.803724483694957e-05, ,0.14646162895966783,-0.2489268487348786,0.09123548278000002,1.6066443469784255,0.18336618268522106,-1.2724421462130473, ,0.016381312197215742,0.01135567390599519,0.003977231340823971,0.005506459236847735,0.012512718797960058,-0.009466570126924641, ,0.7178020477294922
0.010359306140559788,0.020899784313613272,-0.08140587357483, ,0.010614388636955206,0.02078495684255127,-0.08170751162263, ,0.00041138539103668297, ,0.0021112588329123324,0.00031703744061036416,-0.004962884220257878,-0.004254978972253127,-0.007780503635983895,-0.003561670796674828, ,0.005402605517894468, ,0.008867980597247182, ,3.874517009147657e-05, ,0.14679370647325948,-0.24871833494727455,0.09131844534000001,1.6068540369219102,0.1835028191849865,-1.2725535641167434, ,0.017589794542812006,0.011571194995049458,0.005121804347266882,0.00401647811451138,0.009034217233827638,-0.006630891648804035, ,0.7430248260498047
0.010419345560221102,0.02091204116626894,-0.0815587066274465, ,0.010669001193128405,0.02078838341690479,-0.08183172768824538, ,0.0003900764971898428, ,0.0018991584675672885,0.000436743056113357,-0.00521204067866286,0.011604662567744362,0.010232427803147067,0.01088219079981627, ,0.005564433072473077, ,0.015471611687589669, ,3.93058319148233e-05, ,0.14730340684295828,-0.2483862574336829,0.09147659272000001,1.6072734168088794,0.1840493651840483,-1.2729992357315294, ,0.01672782329604632,0.010666078181334613,0.005395938861788619,-0.006379177447662275,0.029207423971772544,-0.0230820482839623, ,0.7688009738922119
0.010460881119024055,0.020919101223169916,-0.0816567403292204, ,0.010723831944938523,0.020791474281179525,-0.08195590243983758, ,0.0004182460299869465, ,0.0020074425314329635,0.00032451278061789156,-0.00486630422011489,0.002063655269617121,-0.0015579181049479025,0.008375767438734779, ,0.005274092417136652, ,0.0025856873679137196, ,3.995928034670998e-05, ,0.14762776162367572,-0.24817002091320461,0.09157770334000001,1.6072734168088794,0.1840493651840483,-1.2729992357315294, ,0.017364490678585687,0.010931864552043369,0.0050327998483412325,-0.006379177447662275,0.01778928084602785,-0.013798414943008118, ,0.7936878204345703
0.010524574362383571,0.02093018072394991,-0.08181048824829906, ,0.010778878063818052,0.0207942331654652,-0.08208003393739176, ,0.00039472394116608575, ,0.0019628762248090296,0.00013005567106329208,-0.004473881936402466,0.013651619296919902,0.011816662265694472,0.011539259139356281, ,0.004887270928889102, ,0.018055476031862864, ,4.0468169633166244e-05, ,0.14819152112349412,-0.24783022066673874,0.09173714701,1.6072734168088794,0.18473254768287548,-1.2735563252500115, ,0.01914402694340746,0.012021401261524041,0.004626433784490271,-0.006379177447662275,0.03329131206312612,-0.02648095744005973, ,0.8194019794464111
0.010566947753679586,0.02093265760225273,-0.08190394415519926, ,0.010834136734319454,0.02079666378560769,-0.082204120249475, ,0.00042425223289417586, ,0.0022381098690299464,0.00017718734719075172,-0.004858927530333432,-0.013967363603116997,-0.019673061299501648,0.004284587809871544, ,0.00535254218917384, ,0.024127092328071646, ,4.1073212746737116e-05, ,0.14854676683570844,-0.24757537048188932,0.09183307247000001,1.6072734168088794,0.18486918418264095,-1.2736677431537078, ,0.018103193734923844,0.012549185606780056,0.0049933578432601895,-0.006379177447662275,0.0,0.0006415626526894012, ,0.8443868160247803
0.010631918949765177,0.02093877575202492,-0.08206029217425026, ,0.010889605154092472,0.020798769843229932,-0.08232815945322303, ,0.00039718599363823624, ,0.002083836545895838,0.00017080030970317552,-0.005445003958747569,0.007057537786623052,0.007531132225875289,0.010012379916989344, ,0.0058326336767006454, ,0.010321181493754859, ,4.153018568178326e-05, ,0.1491028036026526,-0.24717378837242965,0.09199381243000002,1.6072734168088794,0.18541573018170268,-1.2741134147684936, ,0.018148200718774293,0.014278805530916459,0.005579268483362522,-0.006379177447662275,0.027876368339676556,-0.022122430169368424, ,0.8703749179840088
0.010679473394354353,0.020939169005654325,-0.0821697393158352, ,0.010945280533861458,0.02080055502575338,-0.08245214963432806, ,0.0004118529577751897, ,0.0022560712658799918,-9.216091532588063e-05,-0.004903913611007258,-0.01303788133840353,-0.01544089271048781,0.004852962978740863, ,0.005398770220639631, ,0.0202090948499688, ,4.2191453339037286e-05, ,0.14948894024636383,-0.24684943359171221,0.09210529337000001,1.6072734168088794,0.18555236668146813,-1.2742248326721899, ,0.018643799913255557,0.015677670834044404,0.0049824246230841425,-0.006379177447662275,0.004877689046037559,-0.0033905167886491387, ,0.891995906829834
0.010721251132097478,0.020937551147273716,-0.0822649587033959, ,0.011001160097402539,0.02080202300641907,-0.08257608888702621, ,0.000439907827831579, ,0.002107359864268817,-1.4479665320215094e-05,-0.005076361623468201,0.016097412260731924,0.01850954713040585,0.0022372520628452844, ,0.005496419069763475, ,0.02453018575334575, ,4.2932560909661716e-05, ,0.14987507689007507,-0.24654824700961747,0.09220251512000001,1.6070637268653947,0.1860989126805299,-1.274588825546835, ,0.02013514567334411,0.015508570282476021,0.0052003955337904025,0.0038973207231680356,0.038556308897412794,-0.030915305716580008, ,0.9139268398284912
0.010770858882568552,0.020938790788777632,-0.08237387828746581, ,0.011057241081521122,0.02080317744430935,-0.0826999753140849, ,0.0004546922188080593, ,0.002182627388813411,4.089306356598829e-05,-0.005334342972374617,0.005808050967090868,0.007306061253362888,-0.0018076168136813217, ,0.005763744399951192, ,0.009333380028424973, ,4.3696502201716325e-05, ,0.15028438173240896,-0.24623161496177426,0.09231399606000001,1.6072734168088794,0.18623554918029533,-1.2747002434505315, ,0.01913244789485298,0.015584979727126093,0.005453204902430675,0.005228141997825045,0.02574472536750248,-0.020485647143354623, ,0.9350178241729736
0.01084782748774182,0.020946030778565525,-0.0825576740024685, ,0.011113520736029017,0.02080402198436884,-0.08282380702678964, ,0.00040197784323133754, ,0.002497616245209706,0.0002759815967012667,-0.006335255802060651,0.008080724296270781,0.004701307357038911,0.027305005286716637, ,0.00681540305687025, ,0.009348817348333777, ,4.422604322452329e-05, ,0.15094081402671805,-0.24575280552357234,0.09250325440000001,1.6079024866393328,0.1869187316791225,-1.275339011709154, ,0.02177034676725643,0.015256743015831315,0.006525527046292504,-0.02350962534603118,0.03294083805305769,-0.026610968463752622, ,0.9563548564910889
0.010901634014793875,0.02094701905195926,-0.0826754789627771, ,0.011169996323721808,0.020804560257426306,-0.08294758214493246, ,0.000407863921831761, ,0.0025449330116426943,-0.00012621544080160995,-0.005280425323487047,-0.001063147393303917,-0.0054089482784702774,0.02097066540450309, ,0.0058630628487309246, ,0.0055124404535340805, ,4.475384938187374e-05, ,0.15138100980054883,-0.24541300527710647,0.09262380937,1.6079024866393328,0.18705536817888796,-1.2754504296128504, ,0.023094899381472567,0.016858579065281716,0.005405093831014592,-0.0193999890000337,0.02292018276191259,-0.018454213956814864, ,0.9775190353393555
0.010954503745957606,0.020945369225502587,-0.08278552894427141, ,0.011226665120356093,0.020804795880215318,-0.08307129879679791, ,0.0004189237254354838, ,0.0027521139821247258,-2.0204730149550967e-06,-0.005912326052092661,-0.006614793964616085,-0.012361225740332243,0.01479846426098037, ,0.006521482561440397, ,0.014019821460116336, ,4.5298779197613745e-05, ,0.15185209650587653,-0.24506548229776637,0.0927365866,1.6079024866393328,0.1874652776781843,-1.2757030045837991, ,0.023495157602988554,0.017323282504284554,0.006058886085964246,-0.014826436121304194,0.015066254966533682,-0.012695295238413425, ,0.9998910427093506
0.011008306930694937,0.02094423921124318,-0.08290046862396251, ,0.011283524414626865,0.02080473245539602,-0.08319495511915205, ,0.00042653146922336086, ,0.0026797818344951496,-0.0001515496757452955,-0.005338839265061409,-0.0006437233363478811,-0.005742922486686036,0.013604896167956147, ,0.005975567143198221, ,0.005778886924347585, ,4.584749832540693e-05, ,0.1523386286769527,-0.24471023658555205,0.09285454899000001,1.6079024866393328,0.18801182367724606,-1.2761486761985847, ,0.02435128087207359,0.01741228285476528,0.005473818391752578,-0.01206452240851173,0.022019879168113723,-0.018359663556491473, ,1.0214049816131592
0.011079073842165919,0.02094192565495495,-0.08303697622232478, ,0.011340571508144805,0.020804373571576718,-0.08331854925722873, ,0.0004081482315766143, ,0.0030288507714042352,-0.0001188820750679736,-0.005814676116087564,-0.019032019422684305,-0.02757020927272995,0.006705915754972185, ,0.006557326305607162, ,0.03350125663315522, ,4.6309523469935306e-05, ,0.15294100184114218,-0.24427776354459546,0.09299454831000001,1.6079024866393328,0.18814846017701148,-1.276341772842422, ,0.02517160253540339,0.01841228978627683,0.00595247067264574,-0.00994332764467703,0.0,-0.0006357247096720365, ,1.0425150394439697
0.011106522447476333,0.020942070442282676,-0.08309461973643621, ,0.011397803715413476,0.02080372280333449,-0.08344207936471715, ,0.00047403906963322534, ,0.0027806475825982303,6.667778501796417e-05,-0.006707328191549121,0.019018764729468403,0.012132056920338013,0.013678039084837541, ,0.007261177478534311, ,0.022558816533185966, ,4.713713934803616e-05, ,0.15344297947796678,-0.24393796329812958,0.09311899215000001,1.6079024866393328,0.1888316426758387,-1.2772255773214662, ,0.02454019693779953,0.018780316952002926,0.006792670157782517,-0.00872812116993786,0.04192516413173691,-0.04065140836957642, ,1.0604889392852783
0.011166273847305192,0.020944806453120773,-0.0832256580432343, ,0.01145521836380667,0.02080278371123701,-0.08356554360374954, ,0.0004681683319867082, ,0.002988833115001671,0.00019983166775910233,-0.006799256199180782,-0.012465147126391461,-0.003840483221121176,0.010844979858207975, ,0.007429868164837669, ,0.013043358069259346, ,4.791728241933323e-05, ,0.1536978296628162,-0.2437526177091482,0.09318899181000001,1.6079024866393328,0.1888316426758387,-1.2773889348017473, ,0.02535995231386178,0.017586534758797404,0.007010920563380283,-0.008212094990913358,0.02417104127891772,-0.006145372405815317, ,1.0784718990325928
0.011221444220088595,0.020947869895315746,-0.08334798195430722, ,0.011512812793545773,0.02080155984186382,-0.08368894014488834, ,0.0004717571038828453, ,0.003405123750595928,0.00027564593047217775,-0.0077112784924841336,-0.02899669855098853,-0.02783078563111127,0.004540189317281826, ,0.0084341368511844, ,0.04019155543687144, ,4.868352232621831e-05, ,0.15413802543664698,-0.24342826292843078,0.09331473194,1.6079024866393328,0.18896827917560413,-1.2775003527054438, ,0.025942302230309123,0.019291917373139008,0.007924781850746269,-0.0074718545626251505,0.0,0.008827017784363376, ,1.0968329906463623
0.011292923184126804,0.02095513672942425,-0.08352140032733485, ,0.011570584357676978,0.020800054727827803,-0.08381226716711362, ,0.0004309868594276533, ,0.0028290114603606135,9.582972671733656e-05,-0.006957316167539841,0.005773724484605035,0.011729787240826668,0.011925819847698915, ,0.007511107603708369, ,0.01307378242278783, ,4.929251339049286e-05, ,0.15473267586796227,-0.24300351262034842,0.09349361996000001,1.6079024866393328,0.18965146167443137,-1.278057442223926, ,0.02456560744459508,0.01908627143171174,0.007142964807174889,-0.006678444424587681,0.0388120295302403,-0.02566671783355145, ,1.1150588989257812
0.011356732714205616,0.020957170816742053,-0.08365869990742841, ,0.011628530422048599,0.020798271887796003,-0.08393552285781053, ,0.0004192300197590349, ,0.003359573273475903,6.977201523852941e-05,-0.006701920701518391,-0.01990725156062891,-0.025504226851668525,0.0038473024196956007, ,0.007497155580845632, ,0.03235373608223504, ,4.984448608316561e-05, ,0.15525009897053532,-0.24263282144238565,0.09363361928000001,1.6079024866393328,0.18992473467396223,-1.2783619567714593, ,0.027434790852405543,0.01876546204438813,0.006910547297180044,-0.006132092507961878,0.0034955726215474504,0.0005205631019226523, ,1.1336779594421387
0.011417148213716886,0.020956262182951896,-0.08378437362662475, ,0.011686648365288405,0.02079621482651171,-0.08405870541275667, ,0.0004165374135451654, ,0.003037888202211093,-0.00015959865816027346,-0.006085639740315961,0.0038679263151924818,-0.0012031843145374659,0.0005317724892506304, ,0.006803620176768601, ,0.004050740441881266, ,5.037063382885535e-05, ,0.15580613573747948,-0.24224668479867442,0.09376454457000001,1.6079024866393328,0.1906079171727894,-1.2788373675498008, ,0.027067011283077806,0.019643332965943033,0.0062539503415783276,0.0019165525003132576,0.025946916596764857,-0.0230167464076574, ,1.1525650024414062
0.011451268340116888,0.020955794384895067,-0.08384991007464648, ,0.011744935578780907,0.020793887034815068,-0.08418181303610947, ,0.00047181989455975494, ,0.00316450022351826,3.204758868155473e-05,-0.006575723532976772,-0.004600089823111686,-0.00726634446607728,-0.0031866412450616646, ,0.0072976180151287685, ,0.008600033487475123, ,5.10516453626494e-05, ,0.1560609859223289,-0.24206133920969303,0.09382676649,1.6081121765828172,0.1906079171727894,-1.2789190462899414, ,0.02702846526871854,0.018971799591857415,0.006704045252525254,0.004520093182754292,0.019525887689018542,-0.01387291773263952, ,1.1705219745635986
0.011510083951966546,0.020951742085759038,-0.08396079945485538, ,0.011803389466644594,0.020791291989665135,-0.08430484394039367, ,0.000479728012843116, ,0.003095981622171451,-0.0003057876117309043,-0.005874978384197023,-0.011519791437127492,-0.016070397453212197,0.023832247807763256, ,0.00664785523933048, ,0.019772790952725907, ,5.1894218547336005e-05, ,0.15660929995639883,-0.24166747983310757,0.09394602517,1.6085315564697864,0.19101782667208575,-1.2792533000010307, ,0.027113411873848796,0.020096768648553743,0.006013141381653455,-0.024238598819772503,0.017243156210490683,-0.012011503275477495, ,1.1855108737945557
0.011539562030892634,0.02095045588915063,-0.08402761233843647, ,0.011862007445709241,0.020788433154160388,-0.0844277963464887, ,0.0005388595851339334, ,0.002928389551469567,-6.36478713320734e-05,-0.007120823167710273,0.027236700256759432,0.02847510275053579,0.03334811543412864, ,0.0076997168131354415, ,0.03940392492153167, ,5.2895072658951075e-05, ,0.1568873183398709,-0.24145896604550351,0.09401472854000001,1.6085315564697864,0.1915643726711475,-1.2798623290960975, ,0.02767481526931198,0.020847307020753686,0.007320225882352943,-0.024238598819772503,0.06333398819308574,-0.05154966532281842, ,1.1996839046478271
0.011611311076894745,0.020955630124200753,-0.08418961326493173, ,0.011920786945493358,0.020785313977560678,-0.08455066848361521, ,0.000505117584320493, ,0.003946582597100127,0.0003410379944065186,-0.00924798046421179,-0.021719726408325802,-0.02538087251942719,0.014959077611598821, ,0.010060664181643541, ,0.0334056153581269, ,5.377130338636806e-05, ,0.15746652330543776,-0.24104966120316962,0.09418194995000001,1.6085315564697864,0.19197428217044385,-1.2802782615473274, ,0.02972961828272894,0.022370801876112865,0.009515419068100361,-0.017187778996807818,0.008680169326638497,-0.0029953423537674483, ,1.214289903640747
0.011652687126944268,0.020960008205452598,-0.08429038755089961, ,0.011979725408181237,0.020781937895308498,-0.0846734585893248, ,0.0005342344927364783, ,0.0040723668563501375,0.00048645242059785386,-0.009530548741585237,-0.02310938272791416,-0.03324109066478692,0.010925012281719297, ,0.010375556230194918, ,0.04048473292513579, ,5.471274668781646e-05, ,0.15777543262040672,-0.24081025648406867,0.09428565315000001,1.6085315564697864,0.19211091867020927,-1.2803080007108831, ,0.029683122164050918,0.021533229307572222,0.009826533942011105,-0.014936025724538301,0.0,-0.00043581310873364726, ,1.2290048599243164
0.011721596707276264,0.020969385660399652,-0.08447840612892547, ,0.012038820288600462,0.020778308329049984,-0.08479616490948416, ,0.0004879672014859247, ,0.0037840336009640676,0.0003042131886597515,-0.009478815016414165,0.016947513103918167,0.016044116196929782,0.018808401495566885, ,0.010210748751819246, ,0.023337347501995478, ,5.549734206605161e-05, ,0.158370083051722,-0.2403777834431121,0.09448009665000001,1.6085315564697864,0.19347728366786368,-1.281503858487988, ,0.03171689223210922,0.023437130540496613,0.009778275948434624,-0.012147476392044753,0.05176490400168323,-0.04199891447206099, ,1.2442920207977295
0.01176349390775014,0.02097090370782322,-0.08456518011672562, ,0.012098069054199079,0.020774428686656576,-0.08491878569826587, ,0.0005249570171549114, ,0.004119072720625827,0.00011616008538221559,-0.008685669659967414,-0.0065328943450932335,-0.012642714995519975,0.012231585689061773, ,0.00961358989583591, ,0.014230843318269846, ,5.637044768245134e-05, ,0.15869443783243944,-0.24014610145688536,0.09456954066,1.6085315564697864,0.19347728366786368,-1.2814221797478473, ,0.034160166147757666,0.023396681843804435,0.008973978321126761,-0.011134841267871924,0.024713340845886188,-0.018300765773133866, ,1.259704828262329
0.011808060261781144,0.020971984532522983,-0.08465571712959878, ,0.012157469185023013,0.020770302362246477,-0.08504131921813259, ,0.0005580781881870279, ,0.00409102882581784,-1.1866893745732395e-06,-0.00852693929853401,-0.004581276907173186,-0.020498158960694412,0.008871430347976278, ,0.009457547888474468, ,0.02100387044808572, ,5.731801576637505e-05, ,0.15904196081177954,-0.23989897400491017,0.09466287354000001,1.6085315564697864,0.19347728366786368,-1.2813405010077068, ,0.033065136431522923,0.024196058530971645,0.008776204694214878,-0.010247164272760496,0.015245677857856358,-0.020907146470618965, ,1.2741508483886719
0.01186659754615621,0.02096813891815429,-0.08477537185618818, ,0.012217018173693188,0.020765932736205257,-0.08516376373982705, ,0.0005608299309936709, ,0.003676716939667537,-0.00041364113923857723,-0.0074938835400238215,0.019970843890285857,0.016335098605206457,0.015816294284411805, ,0.008357489871842429, ,0.025800581941074967, ,5.8416535211839865e-05, ,0.15956710664722681,-0.23951283736119894,0.09478602109,1.6085315564697864,0.1941604661666909,-1.2819792692663294, ,0.034111050164798984,0.02591396547200185,0.0076913623949782725,-0.009194030755462743,0.0537370420580915,-0.047033493972714405, ,1.2848570346832275
0.011898464236679448,0.020964071319557128,-0.08484871095241575, ,0.012276713525383023,0.020761323175208096,-0.08528611754235826, ,0.0006127836970472323, ,0.0037262959916942507,-0.0003724895958486025,-0.007965418733131724,0.019678251377217133,0.02445734135836356,0.01721289233536714, ,0.008801813785286411, ,0.03139100335316788, ,5.9642120902068755e-05, ,0.15988373869507003,-0.23925798717634952,0.09486120591000001,1.6085315564697864,0.1949802851652835,-1.2827294554286486, ,0.03465921897679722,0.026731532833372047,0.008177007967145792,-0.008653471875941681,0.06251879967545605,-0.04747327423793458, ,1.2954668998718262
0.011945637901004239,0.020961318488973046,-0.0849408942755408, ,0.012336552757795508,0.020756477032240397,-0.08540837891298825, ,0.0006428968299080827, ,0.004613637779618175,-0.00013485366948742474,-0.009563997048575495,-0.013272428357811008,-0.01607586059129289,0.008431951715744332, ,0.010619504631519077, ,0.020846835928844544, ,6.09309277554073e-05, ,0.1602544298730328,-0.23897224606000322,0.0949532425,1.6085315564697864,0.19511692166504896,-1.282840873332345, ,0.03788301060218394,0.02840375383372367,0.009802345550769233,-0.008146112617073688,0.02479415537581008,-0.01663358058286661, ,1.3064370155334473
0.01204251767195116,0.020964295469172275,-0.08515463244879473, ,0.012396533401140785,0.02075139764661976,-0.08553054614722139, ,0.0005585371321819799, ,0.005045819642729627,0.00016620033778476004,-0.010766602884536685,-0.020175159935782686,-0.026064665885152268,0.006307710065988198, ,0.011891495115945243, ,0.0329606392757185, ,6.196603615462427e-05, ,0.1610421486262037,-0.2383930410944364,0.09517620438,1.6085315564697864,0.19566346766411072,-1.2832865449471307, ,0.03840426611026741,0.029370764951553937,0.011550987324147935,-0.007310726103821758,0.02310769653613691,-0.015074282265314931, ,1.3176319599151611
0.012090905620126562,0.020965010753562555,-0.08527423359575766, ,0.012456652998113186,0.02074608834401668,-0.08565261754878996, ,0.0005699759484555591, ,0.004826931913918669,4.039793982008196e-05,-0.011943681052186779,0.0349191289969904,0.04366294602746577,0.012987719104207839, ,0.01288225216223909, ,0.05590883814441542, ,6.301542916006602e-05, ,0.1614591762014118,-0.23806868631371897,0.09529935193000001,1.608321866526302,0.19648328666270337,-1.2839550523693093, ,0.042101571232684466,0.03312284173070533,0.01230024055598456,0.0,0.08759878987191722,-0.06773938111442816, ,1.3282928466796875
0.012142338106357045,0.020965726445744067,-0.08539248281005908, ,0.012516909103868623,0.020740552436476174,-0.08577459142964224, ,0.0005805288655926938, ,0.005376894333822207,8.350823364834941e-05,-0.012305071892401485,-0.0026198148707479696,-0.002259559517231666,0.0032930849930145087, ,0.01342880339342808, ,0.0034595891457531304, ,6.407635755603484e-05, ,0.16188392650949418,-0.23774433153300153,0.09542120319000001,1.608321866526302,0.19702983266176513,-1.2844007239840949, ,0.04282352958414746,0.03356807271258252,0.012662012337042927,0.0,0.04144173047194646,-0.03057110131768461, ,1.3388848304748535
0.012167912907547443,0.020966486806086575,-0.08544905243110883, ,0.012577299286001962,0.02073479322243932,-0.08589646610993029, ,0.0006491980618917251, ,0.005630224593645702,0.0001238056268692599,-0.012009144229866542,-0.014447448692011219,-0.01966557534171465,-0.0023837357570645214, ,0.01326402284157692, ,0.024402118298365662, ,6.530476881738867e-05, ,0.16208471756422402,-0.23758987687551705,0.09547953624000001,1.6085315564697864,0.19716646916153055,-1.2845121418877914, ,0.044489892901299004,0.032399092372301395,0.012395962272373542,0.002500484590819904,0.024774705415895843,-0.017166228371517607, ,1.350080966949463
0.012261459918504181,0.02096770945309145,-0.08564217443586333, ,0.012637821124524185,0.0207288139867643,-0.08601823991799692, ,0.0005832186966146308, ,0.005630224593645702,0.0001238056268692599,-0.012009144229866542,-0.014447448692011219,-0.01966557534171465,-0.006221200002059866, ,0.01326402284157692, ,0.024402118298365662, ,6.65149537344471e-05, ,0.16208471756422402,-0.23758987687551705,0.09547953624000001,1.6085315564697864,0.19716646916153055,-1.2845121418877914, ,0.044489892901299004,0.032399092372301395,0.012395962272373542,0.002500484590819904,0.024774705415895843,-0.017166228371517607, ,1.3576958179473877
0.012261459918504181,0.02096770945309145,-0.08564217443586333, ,0.012698472211839854,0.02072261800074764,-0.08613991119036313, ,0.0007062516841172778, ,0.006116351581506932,-0.00022571999724029104,-0.012197971166352227,-0.020184552359286158,-0.026531657834715214,-0.006221200002059866, ,0.013647388276183718, ,0.033336837752807415, ,6.803947973617153e-05, ,0.1628338226530238,-0.23705700830719556,0.09567916490000002,1.6087412464132707,0.19757637866082686,-1.2848463955988807, ,0.04916939977122838,0.03679602231813524,0.0125621541955836,0.005090203195854562,0.021918090899098786,-0.015347843228412391, ,1.3649418354034424
0.012319821193312269,0.02096657412209396,-0.08577011799876459, ,0.012759250152724215,0.020716208522145976,-0.08626147827171536, ,0.000705135208198708, ,0.005876862917185492,-0.00010795538647367687,-0.012942321854227938,0.03446528470985496,0.03702683559817762,0.007835292033692659, ,0.014214530139659374, ,0.05058499818539878, ,6.954491954761694e-05, ,0.1633435230227226,-0.23668631712923277,0.09581138648000001,1.6087412464132707,0.19839619765941952,-1.285514903021059, ,0.05185625221774359,0.03747904484931705,0.013385555899159665,0.004820845794527052,0.08960118474313179,-0.07079935555378997, ,1.3720450401306152
0.012319821193312269,0.02096657412209396,-0.08577011799876459, ,0.012820152564300611,0.020709588795196944,-0.08638293951489343, ,0.0008318191808715903, ,0.005876862917185492,-0.00010795538647367687,-0.012942321854227938,0.03446528470985496,0.03702683559817762,0.007835292033692659, ,0.014214530139659374, ,0.05058499818539878, ,7.136789149965997e-05, ,0.1633435230227226,-0.23668631712923277,0.09581138648000001,1.6087412464132707,0.19839619765941952,-1.285514903021059, ,0.05185625221774359,0.03747904484931705,0.013385555899159665,0.004820845794527052,0.08960118474313179,-0.07079935555378997, ,1.3792400360107422
0.012380731851180328,0.020965087608659592,-0.08590851965644451, ,0.012881177076017821,0.02070276205064064,-0.08650429328087714, ,0.0008211006838519797, ,0.006117597924438145,-3.662326025484172e-05,-0.014571556394787476,0.02706328319238275,0.032943706332875,0.006361186549292559, ,0.015803689486786097, ,0.04263459190788347, ,7.31437158474418e-05, ,0.16386094612529564,-0.2362847350197731,0.09595397838000001,1.6087412464132707,0.19921601665801217,-1.2861834104432377, ,0.05082857073297846,0.04088623074470952,0.014998880903954804,0.004583804303915621,0.08442460702443064,-0.06679002706479176, ,1.3867130279541016
0.012442018330498326,0.02096635631393099,-0.08605312197007273, ,0.012942321329627263,0.02069573150574115,-0.08662553793877492, ,0.0008069702094690172, ,0.006696812546723169,0.0003375574517805235,-0.015632301543832328,0.004233719579706808,-8.225812982492113e-05,-6.243647087635592e-05, ,0.017009705902116708, ,0.004234408385934944, ,7.486424391456194e-05, ,0.16435520102924603,-0.23589859837606186,0.09610305173000001,1.6087412464132707,0.19989919915683937,-1.2866588212215793, ,0.051884604460618246,0.03954039231602949,0.01613861349544073,0.004377762662377973,0.051813248004264276,-0.04262000854471455, ,1.3938798904418945
0.012522290005068852,0.020969128316195997,-0.08623790254125872, ,0.013003582979160334,0.02068850036430768,-0.08674667186580981, ,0.0007544807485251195, ,0.0076290282005611765,0.0003509281565925777,-0.018538962098408916,0.000315454249632951,-0.00352306468231638,-0.0008949341119122991, ,0.02005039494728943, ,0.003536849760066368, ,7.643095961584691e-05, ,0.16497301965918398,-0.23541978893785995,0.09629360636,1.6087412464132707,0.20044574515590113,-1.2870228140962243, ,0.05689265081443092,0.04707189561432083,0.019076420982035932,0.004165773162547107,0.05343416312650523,-0.04616589285701463, ,1.4015729427337646
0.012597386870371291,0.0209749082168814,-0.08642868830722061, ,0.013064959690905709,0.020681071816716017,-0.08686769344730771, ,0.000705471250716538, ,0.00769881011517119,0.0005771441964452104,-0.01881191722576622,0.03437353463504104,0.03101328557377136,0.01134391036794902, ,0.020334527344446254, ,0.04629645136984968, ,7.785521047018928e-05, ,0.1655136109603797,-0.2349873158969034,0.09647638325,1.6089509363567556,0.2012655641544938,-1.2876913215184027, ,0.060482435665054665,0.045146023576817684,0.01952060235294118,0.00024040829322772255,0.09351318032305926,-0.07881132696685772, ,1.4087238311767578
0.012597386870371291,0.0209749082168814,-0.08642868830722061, ,0.013126449143386626,0.02067344903992937,-0.08698860107668473, ,0.0008272163160296832, ,0.00769881011517119,0.0005771441964452104,-0.01881191722576622,0.03437353463504104,0.03101328557377136,0.01134391036794902, ,0.020334527344446254, ,0.04629645136984968, ,7.957702045759776e-05, ,0.1655136109603797,-0.2349873158969034,0.09647638325,1.6089509363567556,0.2012655641544938,-1.2876913215184027, ,0.060482435665054665,0.045146023576817684,0.01952060235294118,0.00024040829322772255,0.09351318032305926,-0.07881132696685772, ,1.4161698818206787
0.012673330738953444,0.020977671546745787,-0.08660029155958346, ,0.013188049027338248,0.02066563519752059,-0.08710939315543408, ,0.0007883438555181477, ,0.008105945890613716,5.361273093578843e-05,-0.017975777207199416,0.02013229110346875,0.013468905722370311,0.008004279834911646, ,0.01971897054385309, ,0.024222276720919388, ,8.118209651525835e-05, ,0.16616232052181454,-0.2345162291915757,0.09666823417,1.6089509363567556,0.2020853831530864,-1.2883598289405813, ,0.06558185318484504,0.04866509823511321,0.0185867112252042,0.00024040829322772255,0.08055490729239402,-0.06820782247878115, ,1.4238200187683105
0.012756039662340827,0.02097492105691107,-0.08678137579878237, ,0.01324975704568486,0.020657633439692742,-0.08723006809311458, ,0.0007387510146519376, ,0.008217971967751658,-0.0005203161030952113,-0.01714762667096284,-0.0037192795100532243,-0.009452041298067027,0.002626134063516003, ,0.0190222735906255, ,0.010157393474094164, ,8.264500723003351e-05, ,0.16683419828187207,-0.23399108335612842,0.09685489993000002,1.6089509363567556,0.20290520215167906,-1.2891100151029005, ,0.06576364626366651,0.0525162930594747,0.017639879867109635,0.00024040829322772255,0.057360237290670565,-0.04811813575253044, ,1.4319419860839844
0.012756039662340827,0.02097492105691107,-0.08678137579878237, ,0.013311570913517232,0.020649446903300745,-0.08735062430733681, ,0.0008594139050500859, ,0.008217971967751658,-0.0005203161030952113,-0.01714762667096284,-0.0037192795100532243,-0.009452041298067027,0.002626134063516003, ,0.0190222735906255, ,0.010157393474094164, ,8.461151076881847e-05, ,0.16683419828187207,-0.23399108335612842,0.09685489993000002,1.6089509363567556,0.20290520215167906,-1.2891100151029005, ,0.06576364626366651,0.0525162930594747,0.017639879867109635,0.00024040829322772255,0.057360237290670565,-0.04811813575253044, ,1.4355289936065674
0.012840278914625436,0.02096907995841837,-0.08694722097609031, ,0.013373488358069932,0.020641078711872714,-0.08747106022375105, ,0.0008162748836658282, ,0.008533392182274896,-0.0005876270805481947,-0.01569868944992634,-0.005944542487781122,-0.021008855725641075,0.0018018891954465265, ,0.01787772183941602, ,0.0218336586672498, ,8.645914554886141e-05, ,0.16752152150767807,-0.23347366025355537,0.09702601021000001,1.6089509363567556,0.20345174815074082,-1.289555686717686, ,0.07113713760005305,0.04947702896687736,0.016270491848825334,0.00024040829322772255,0.05104780726680042,-0.04288393999742967, ,1.4391260147094727
0.012840278914625436,0.02096907995841837,-0.08694722097609031, ,0.013435507118698575,0.020632531975631148,-0.08759137427603514, ,0.0009394118550838567, ,0.008533392182274896,-0.0005876270805481947,-0.01569868944992634,-0.005944542487781122,-0.021008855725641075,0.0018018891954465265, ,0.01787772183941602, ,0.0218336586672498, ,8.8607641038874e-05, ,0.16752152150767807,-0.23347366025355537,0.09702601021000001,1.6089509363567556,0.20345174815074082,-1.289555686717686, ,0.07113713760005305,0.04947702896687736,0.016270491848825334,0.00024040829322772255,0.05104780726680042,-0.04288393999742967, ,1.4427969455718994
0.012840278914625436,0.02096907995841837,-0.08694722097609031, ,0.013497624946857125,0.020623809791514333,-0.08771156490588097, ,0.0010656157549757412, ,0.008533392182274896,-0.0005876270805481947,-0.01569868944992634,-0.005944542487781122,-0.021008855725641075,0.0018018891954465265, ,0.01787772183941602, ,0.0218336586672498, ,0.0004964773869508043, ,0.16752152150767807,-0.23347366025355537,0.09702601021000001,1.6089509363567556,0.20345174815074082,-1.289555686717686, ,0.07113713760005305,0.04947702896687736,0.016270491848825334,0.00024040829322772255,0.05104780726680042,-0.04288393999742967, ,1.4464800357818604
0.012840278914625436,0.02096907995841837,-0.08694722097609031, ,0.01355983960607532,0.020614915243197817,-0.08783163056298293, ,0.001193893023505317, ,0.008533392182274896,-0.0005876270805481947,-0.01569868944992634,-0.005944542487781122,-0.021008855725641075,0.0018018891954465265, ,0.01787772183941602, ,0.0218336586672498, ,0.0005059019225799194, ,0.16752152150767807,-0.23347366025355537,0.09702601021000001,1.6089509363567556,0.20345174815074082,-1.289555686717686, ,0.07113713760005305,0.04947702896687736,0.016270491848825334,0.00024040829322772255,0.05104780726680042,-0.04288393999742967, ,1.4503889083862305
0.01295956936509315,0.020956616863634515,-0.08718362471109939, ,0.013622148871935724,0.020605851401115444,-0.08795156970502427, ,0.0010732136442844213, ,0.009377937683985715,-0.0006495646266583614,-0.021548609854585427,0.05999914800775083,0.0695764839970857,0.019333735568434804, ,0.023509790217568112, ,0.09187371898900105, ,0.0005134660788693127, ,0.16853319951420148,-0.2326936642332587,0.09726971273000001,1.6089509363567556,0.20468147664862982,-1.2906401265910945, ,0.07921280597535124,0.06526612211724263,0.022184974261838443,0.00024040829322772255,0.15161619410268934,-0.1245635873350296, ,1.4542038440704346
0.01295956936509315,0.020956616863634515,-0.08718362471109939, ,0.013684550532051325,0.020596621322480985,-0.08807138079766526, ,0.0012013764403088676, ,0.009377937683985715,-0.0006495646266583614,-0.021548609854585427,0.05999914800775083,0.0695764839970857,0.019333735568434804, ,0.023509790217568112, ,0.09187371898900105, ,0.0005225175309935175, ,0.16853319951420148,-0.2326936642332587,0.09726971273000001,1.6089509363567556,0.20468147664862982,-1.2906401265910945, ,0.07921280597535124,0.06526612211724263,0.022184974261838443,0.00024040829322772255,0.15161619410268934,-0.1245635873350296, ,1.4578828811645508
0.013065006915876242,0.020959018576681733,-0.08744167466182608, ,0.013747042386042577,0.020587228051309067,-0.08819106231453035, ,0.0010793435186943554, ,0.010874460521605284,0.0008161055563413306,-0.027470191719226683,0.08105248915837546,0.09069203356044114,0.01733464397248565, ,0.029555563824872524, ,0.1216327887845803, ,0.0005297490373272946, ,0.16853319951420148,-0.2326936642332587,0.09726971273000001,1.6089509363567556,0.20468147664862982,-1.2906401265910945, ,0.07921280597535124,0.06526612211724263,0.022184974261838443,0.00024040829322772255,0.15161619410268934,-0.1245635873350296, ,1.46201491355896
0.013065006915876242,0.020959018576681733,-0.08744167466182608, ,0.013809622245514887,0.020577674618436965,-0.08831061273719554, ,0.0012062042042910632, ,0.010874460521605284,0.0008161055563413306,-0.027470191719226683,0.08105248915837546,0.09069203356044114,0.01733464397248565, ,0.029555563824872524, ,0.1216327887845803, ,0.0005384215394678558, ,0.16939814559611463,-0.23202178647320118,0.09753674847,1.6091606263002398,0.20645775114558051,-1.2921702380792885, ,0.08690196113413075,0.06486462170777224,0.028495190554561723,0.00799538231142421,0.17915822266658962,-0.1439688254006584, ,1.4656009674072266
0.013065006915876242,0.020959018576681733,-0.08744167466182608, ,0.013872287934035759,0.020567964041545688,-0.08843003055517586, ,0.0013347185709543326, ,0.010874460521605284,0.0008161055563413306,-0.027470191719226683,0.08105248915837546,0.09069203356044114,0.01733464397248565, ,0.029555563824872524, ,0.1216327887845803, ,0.0005485012487271782, ,0.16939814559611463,-0.23202178647320118,0.09753674847,1.6091606263002398,0.20645775114558051,-1.2921702380792885, ,0.08690196113413075,0.06486462170777224,0.028495190554561723,0.00799538231142421,0.17915822266658962,-0.1439688254006584, ,1.4691638946533203
0.013187081206254654,0.020971623308146448,-0.08775820140901783, ,0.013935037287112246,0.020558099325181187,-0.08854931426591295, ,0.0011646029090312553, ,0.012852495831237645,0.0015596655188701912,-0.03358697660044595,0.03544417910137524,0.043221667855185116,0.006168589433456649, ,0.03599589147085591, ,0.055895971790299946, ,0.0005562025194809792, ,0.17031715080814733,-0.23131129504877251,0.09786470984000001,1.6093703162437245,0.2080973891427658,-1.293425574183505, ,0.09222248936683264,0.07232998594395638,0.034779064454148474,0.009203564715177076,0.13593182898137993,-0.10541564498247456, ,1.472717046737671
0.013187081206254654,0.020971623308146448,-0.08775820140901783, ,0.013997868152168124,0.02054808346077606,-0.08866846237476211, ,0.0012904791744665787, ,0.012852495831237645,0.0015596655188701912,-0.03358697660044595,0.03544417910137524,0.043221667855185116,0.006168589433456649, ,0.03599589147085591, ,0.055895971790299946, ,0.0005652676633696903, ,0.17031715080814733,-0.23131129504877251,0.09786470984000001,1.6093703162437245,0.2080973891427658,-1.293425574183505, ,0.09222248936683264,0.07232998594395638,0.034779064454148474,0.009203564715177076,0.13593182898137993,-0.10541564498247456, ,1.4763410091400146
0.013187081206254654,0.020971623308146448,-0.08775820140901783, ,0.014060778388521331,0.020537919426670433,-0.08878747339497993, ,0.001418043244825228, ,0.012852495831237645,0.0015596655188701912,-0.03358697660044595,0.03544417910137524,0.043221667855185116,0.006168589433456649, ,0.03599589147085591, ,0.055895971790299946, ,0.0005756673655825627, ,0.17031715080814733,-0.23131129504877251,0.09786470984000001,1.6093703162437245,0.2080973891427658,-1.293425574183505, ,0.09222248936683264,0.07232998594395638,0.034779064454148474,0.009203564715177076,0.13593182898137993,-0.10541564498247456, ,1.4798929691314697
0.013315580882231242,0.020990536586833516,-0.08809598357166322, ,0.014123765867361016,0.020527610188133642,-0.08890634584771177, ,0.0012345650405082116, ,0.01439896317084894,0.002120059677660392,-0.038072176342130525,0.02273609783103068,0.017194739336177187,0.0012598544396756968, ,0.0407592370495154, ,0.028504547267091975, ,0.0005836058917864862, ,0.17120526508868317,-0.23062397182296654,0.09821470814000001,1.6093703162437245,0.2091904811408893,-1.2942352386729357, ,0.09773114475640657,0.07721476123553359,0.039330398814814815,0.008593080125077007,0.1152527422767777,-0.09778048545184405, ,1.4836268424987793
0.013315580882231242,0.020990536586833516,-0.08809598357166322, ,0.014186828471725244,0.0205171586973852,-0.08902507826197865, ,0.001358814163890702, ,0.01439896317084894,0.002120059677660392,-0.038072176342130525,0.02273609783103068,0.017194739336177187,0.0012598544396756968, ,0.0407592370495154, ,0.028504547267091975, ,0.0005928345616924887, ,0.17120526508868317,-0.23062397182296654,0.09821470814000001,1.6093703162437245,0.2091904811408893,-1.2942352386729357, ,0.09773114475640657,0.07721476123553359,0.039330398814814815,0.008593080125077007,0.1152527422767777,-0.09778048545184405, ,1.487426996231079
0.013315580882231242,0.020990536586833516,-0.08809598357166322, ,0.014249964096477864,0.020506567893616684,-0.08914366917466587, ,0.0014849049834312273, ,0.01439896317084894,0.002120059677660392,-0.038072176342130525,0.02273609783103068,0.017194739336177187,0.0012598544396756968, ,0.0407592370495154, ,0.028504547267091975, ,0.0006033295078305916, ,0.17120526508868317,-0.23062397182296654,0.09821470814000001,1.6093703162437245,0.2091904811408893,-1.2942352386729357, ,0.09773114475640657,0.07721476123553359,0.039330398814814815,0.008593080125077007,0.1152527422767777,-0.09778048545184405, ,1.491175889968872
0.013315580882231242,0.020990536586833516,-0.08809598357166322, ,0.014313170648286183,0.020495840703012427,-0.08926211713050912, ,0.001612382347916798, ,0.01439896317084894,0.002120059677660392,-0.038072176342130525,0.02273609783103068,0.017194739336177187,0.0012598544396756968, ,0.0407592370495154, ,0.028504547267091975, ,0.0006150626803897335, ,0.17120526508868317,-0.23062397182296654,0.09821470814000001,1.6093703162437245,0.2091904811408893,-1.2942352386729357, ,0.09773114475640657,0.07721476123553359,0.039330398814814815,0.008593080125077007,0.1152527422767777,-0.09778048545184405, ,1.4948070049285889
0.013467033986044742,0.021006459157059724,-0.08848852131723334, ,0.014376446045597914,0.020484980038771222,-0.08938042068208261, ,0.0013763921105158367, ,0.015132866164839406,0.0010752453265498617,-0.03827340319594754,0.021173993521431574,0.020659250633978755,0.0020292486040530116, ,0.0411705378040508, ,0.029581421728989577, ,0.0006238135933796887, ,0.17224783402670346,-0.2297667484739276,0.09862044691,1.6093703162437245,0.21042020963877828,-1.2952379998062036, ,0.10591176513222186,0.08860592115636862,0.039525586898263035,0.007989802910095977,0.12701684630918716,-0.10736213474816618, ,1.498420000076294
0.013467033986044742,0.021006459157059724,-0.08848852131723334, ,0.014439788218618774,0.020473988801127618,-0.08949857838978593, ,0.00149999692224707, ,0.014967323195188518,0.00021123317412399464,-0.03307716194555996,-0.004829758324472033,-0.019498920189051697,-0.004205892252618851, ,0.036306528689147334, ,0.020087181458190467, ,0.000633770222116818, ,0.17224783402670346,-0.2297667484739276,0.09862044691,1.6093703162437245,0.21042020963877828,-1.2952379998062036, ,0.10591176513222186,0.08860592115636862,0.039525586898263035,0.007989802910095977,0.12701684630918716,-0.10736213474816618, ,1.5021209716796875
0.013619035836951862,0.021014055462301125,-0.08884800413398905, ,0.014503195109289624,0.02046286987737305,-0.0896165888218323, ,0.0012947067584130549, ,0.014967323195188518,0.00021123317412399464,-0.03307716194555996,-0.004829758324472033,-0.019498920189051697,-0.004205892252618851, ,0.036306528689147334, ,0.020087181458190467, ,0.0006411964753336296, ,0.1733367393619691,-0.22890952512488869,0.09899248214,1.6093703162437245,0.2115133016369018,-1.296129343035775, ,0.10945437319316122,0.08420314246536893,0.034255508645161296,0.007465016424922457,0.0898289607779736,-0.0770287558941939, ,1.505795955657959
0.013619035836951862,0.021014055462301125,-0.08884800413398905, ,0.014566664671263895,0.020451626141877406,-0.08973445055423551, ,0.0014142540097378674, ,0.014967323195188518,0.00021123317412399464,-0.03307716194555996,-0.004829758324472033,-0.019498920189051697,-0.004205892252618851, ,0.036306528689147334, ,0.020087181458190467, ,0.0006497860034936767, ,0.1733367393619691,-0.22890952512488869,0.09899248214,1.6093703162437245,0.2115133016369018,-1.296129343035775, ,0.10945437319316122,0.08420314246536893,0.034255508645161296,0.007465016424922457,0.0898289607779736,-0.0770287558941939, ,1.5093879699707031
0.01377644155759221,0.021000478337041703,-0.08916812363334357, ,0.014630194869884757,0.020440260456110384,-0.08985216217079696, ,0.0012290840138440653, ,0.01637894035980304,-0.0018457014993366752,-0.0326824222945451,0.02746263543790626,0.020419459186912296,0.004571611753883049, ,0.03660351114816196, ,0.03422153372514623, ,0.0006561519156953292, ,0.17456465388897083,-0.2279287380498622,0.09932303609000001,1.6093703162437245,0.21274303013479076,-1.2969687466887616, ,0.13089233318409763,0.10497449287441457,0.03374748203389831,0.007011616182168323,0.15235001671638893,-0.12996281463303838, ,1.5129928588867188
0.01377644155759221,0.021000478337041703,-0.08916812363334357, ,0.01469378368216246,0.02042877566866234,-0.08996972226309384, ,0.0013457046027121435, ,0.01637894035980304,-0.0018457014993366752,-0.0326824222945451,0.02746263543790626,0.020419459186912296,0.004571611753883049, ,0.03660351114816196, ,0.03422153372514623, ,0.0006636470535976859, ,0.17456465388897083,-0.2279287380498622,0.09932303609000001,1.6093703162437245,0.21274303013479076,-1.2969687466887616, ,0.13089233318409763,0.10497449287441457,0.03374748203389831,0.007011616182168323,0.15235001671638893,-0.12996281463303838, ,1.5202000141143799
0.013942588211281687,0.020979411650293413,-0.08949928016689124, ,0.014757429096751692,0.020417174615266376,-0.09008712943046607, ,0.001151365671224831, ,0.01609786658432034,-0.0024790763435180727,-0.03098908751239425,0.06691217068483964,0.06573023294800655,0.02074981994306482, ,0.03500872281209924, ,0.09379591425195136, ,0.0006688913398087305, ,0.17592385487483433,-0.2268398327145965,0.09966525665,1.609580006187209,0.21465594113150693,-1.2985285973405116, ,0.13518082843087004,0.10674571603877478,0.03204992257545272,-3.521517385519881e-05,0.20441024661365964,-0.1724144413291635, ,1.523900032043457
0.013942588211281687,0.020979411650293413,-0.08949928016689124, ,0.01482112911392879,0.02040546011881861,-0.09020438228000364, ,0.0012642877315001673, ,0.01609786658432034,-0.0024790763435180727,-0.03098908751239425,0.06691217068483964,0.06573023294800655,0.02074981994306482, ,0.03500872281209924, ,0.09379591425195136, ,0.0006752253439756607, ,0.17592385487483433,-0.2268398327145965,0.09966525665,1.609580006187209,0.21465594113150693,-1.2985285973405116, ,0.13518082843087004,0.10674571603877478,0.03204992257545272,-3.521517385519881e-05,0.20441024661365964,-0.1724144413291635, ,1.528174877166748
0.013942588211281687,0.020979411650293413,-0.08949928016689124, ,0.014884881745569211,0.020393634989400958,-0.09032147942653457, ,0.001380964526613348, ,0.016105899818972334,-0.003698766087167727,-0.024371946799116796,-0.024477660198540422,-0.04076232504385136,0.0008421381972401631, ,0.02944609770963437, ,0.047546970384171355, ,0.00068265417747711, ,0.17592385487483433,-0.2268398327145965,0.09966525665,1.609580006187209,0.21465594113150693,-1.2985285973405116, ,0.13518082843087004,0.10674571603877478,0.03204992257545272,-3.521517385519881e-05,0.20441024661365964,-0.1724144413291635, ,1.5318448543548584
0.014100516146515373,0.0209497858025134,-0.08977335515092552, ,0.014948685015124596,0.020381702024301104,-0.0904384194926116, ,0.0012183678374481739, ,0.016105899818972334,-0.003698766087167727,-0.024371946799116796,-0.024477660198540422,-0.04076232504385136,0.0008421381972401631, ,0.02944609770963437, ,0.047546970384171355, ,0.0006882345281018086, ,0.1772676103949494,-0.22581270924232466,0.09994914416,1.609580006187209,0.21629557912869224,-1.2999472909250092, ,0.13673910887387722,0.10281358782066174,0.02524375835182251,-3.521517385519881e-05,0.09767898276750907,-0.076929599358838, ,1.535874843597412
0.014100516146515373,0.0209497858025134,-0.08977335515092552, ,0.01501253695760029,0.02036966400803447,-0.09055520110850016, ,0.0013340188745505968, ,0.016105899818972334,-0.003698766087167727,-0.024371946799116796,-0.024477660198540422,-0.04076232504385136,0.0008421381972401631, ,0.02944609770963437, ,0.047546970384171355, ,0.0006948920986837549, ,0.1772676103949494,-0.22581270924232466,0.09994914416,1.609580006187209,0.21629557912869224,-1.2999472909250092, ,0.13673910887387722,0.10281358782066174,0.02524375835182251,-3.521517385519881e-05,0.09767898276750907,-0.076929599358838, ,1.5394699573516846
0.014266811032778864,0.020901879662561025,-0.09001196213173179, ,0.015076435619532506,0.02035752371236526,-0.09067182291216556, ,0.001177807973119645, ,0.017171209146107497,-0.005224704188310442,-0.02586262802233691,-0.11442412088660728,-0.12654468185170076,-0.019667685845063402, ,0.03148052549778165, ,0.17060605022924674, ,0.0006998198116882027, ,0.17864225684656135,-0.22468519024268788,0.10019414297000001,1.609580006187209,0.21670548862798855,-1.3002815446360985, ,0.1359555036654309,0.12181892369508443,0.02637220450331126,-3.521517385519881e-05,0.009606966357651797,-0.005480652668063915, ,1.5430560111999512
0.014266811032778864,0.020901879662561025,-0.09001196213173179, ,0.015140379058965673,0.020345283896328423,-0.09078828354926037, ,0.0012944477149261593, ,0.017171209146107497,-0.005224704188310442,-0.02586262802233691,-0.11442412088660728,-0.12654468185170076,-0.019667685845063402, ,0.03148052549778165, ,0.17060605022924674, ,0.0007058261541451517, ,0.17864225684656135,-0.22468519024268788,0.10019414297000001,1.609580006187209,0.21670548862798855,-1.3002815446360985, ,0.1359555036654309,0.12181892369508443,0.02637220450331126,-3.521517385519881e-05,0.009606966357651797,-0.005480652668063915, ,1.546644926071167
0.014266811032778864,0.020901879662561025,-0.09001196213173179, ,0.015204365345429766,0.020332947306250057,-0.09090458167311218, ,0.001414023253303134, ,0.017171209146107497,-0.005224704188310442,-0.02586262802233691,-0.11442412088660728,-0.12654468185170076,-0.019667685845063402, ,0.03148052549778165, ,0.17060605022924674, ,0.0007129081251367315, ,0.17864225684656135,-0.22468519024268788,0.10019414297000001,1.609580006187209,0.21670548862798855,-1.3002815446360985, ,0.1359555036654309,0.12181892369508443,0.02637220450331126,-3.521517385519881e-05,0.009606966357651797,-0.005480652668063915, ,1.5502738952636719
0.01443452590419792,0.020854054020898283,-0.09028073063655474, ,0.015268392559917627,0.02032051667576955,-0.09102071594471045, ,0.00123595062783854, ,0.017794981445175058,-0.004726661598667409,-0.029209504767659017,-0.06190169411730714,-0.06999979764431924,-0.015068720119785313, ,0.03452821836229516, ,0.09344394117337461, ,0.0007180867637773435, ,0.1799782896338022,-0.22348816664718307,0.10046895645000001,1.6097896961306934,0.2172520346270503,-1.300727216250884, ,0.14121568684296246,0.12437344896260916,0.029941375037593993,0.006620879177587366,0.07093190052700576,-0.059450565017622255, ,1.553846836090088
0.01443452590419792,0.020854054020898283,-0.09028073063655474, ,0.015332458794862109,0.02030799472586017,-0.09113668503269425, ,0.0013554047949246037, ,0.017794981445175058,-0.004726661598667409,-0.029209504767659017,-0.06190169411730714,-0.06999979764431924,-0.015068720119785313, ,0.03452821836229516, ,0.09344394117337461, ,0.0007243349797689834, ,0.1799782896338022,-0.22348816664718307,0.10046895645000001,1.6097896961306934,0.2172520346270503,-1.300727216250884, ,0.14121568684296246,0.12437344896260916,0.029941375037593993,0.006620879177587366,0.07093190052700576,-0.059450565017622255, ,1.557452917098999
0.01443452590419792,0.020854054020898283,-0.09028073063655474, ,0.015396562154113573,0.02029538416485097,-0.09125248761333976, ,0.0014771382386689672, ,0.017794981445175058,-0.004726661598667409,-0.029209504767659017,-0.06190169411730714,-0.06999979764431924,-0.015068720119785313, ,0.03452821836229516, ,0.09344394117337461, ,0.0007316437492728667, ,0.1799782896338022,-0.22348816664718307,0.10046895645000001,1.6097896961306934,0.2172520346270503,-1.300727216250884, ,0.14121568684296246,0.12437344896260916,0.029941375037593993,0.006620879177587366,0.07093190052700576,-0.059450565017622255, ,1.5611920356750488
0.01443452590419792,0.020854054020898283,-0.09028073063655474, ,0.015460700752917214,0.02028268768844805,-0.0913681223705478, ,0.0016005983534785103, ,0.017794981445175058,-0.004726661598667409,-0.029209504767659017,-0.06190169411730714,-0.06999979764431924,-0.015068720119785313, ,0.03452821836229516, ,0.09344394117337461, ,0.0007399990820056132, ,0.1799782896338022,-0.22348816664718307,0.10046895645000001,1.6097896961306934,0.2172520346270503,-1.300727216250884, ,0.14121568684296246,0.12437344896260916,0.029941375037593993,0.006620879177587366,0.07093190052700576,-0.059450565017622255, ,1.5649528503417969
0.014732391266161634,0.02078003409891703,-0.09076775526900033, ,0.015524872717890052,0.020269907979755405,-0.0914835879958305, ,0.0011834998950509504, ,0.01893781018523913,-0.00453630806993883,-0.030546261526745465,-0.016684486751968156,-0.02805805652261388,-0.004902834359231177, ,0.03622558265615433, ,0.03264352982743614, ,0.0007442228992727116, ,0.18244184142067982,-0.22147253336701048,0.10097191697,1.6097896961306934,0.2195748551230628,-1.3026213206137234, ,0.1545552794111902,0.12486439678746157,0.03160478476190477,0.006620879177587366,0.12711311479020035,-0.1052161654936744, ,1.569093942642212
0.014732391266161634,0.02078003409891703,-0.09076775526900033, ,0.015589076186998625,0.020257047709296934,-0.09159888318829983, ,0.0013031490457950155, ,0.01893781018523913,-0.00453630806993883,-0.030546261526745465,-0.016684486751968156,-0.02805805652261388,-0.004902834359231177, ,0.03622558265615433, ,0.03264352982743614, ,0.0007494957874474503, ,0.18244184142067982,-0.22147253336701048,0.10097191697,1.6097896961306934,0.2195748551230628,-1.3026213206137234, ,0.1545552794111902,0.12486439678746157,0.03160478476190477,0.006620879177587366,0.12711311479020035,-0.1052161654936744, ,1.572674036026001
0.014732391266161634,0.02078003409891703,-0.09076775526900033, ,0.01565330930953604,0.02024410953503698,-0.0917140066546541, ,0.0014250252157889146, ,0.01893781018523913,-0.00453630806993883,-0.030546261526745465,-0.016684486751968156,-0.02805805652261388,-0.004902834359231177, ,0.03622558265615433, ,0.03264352982743614, ,0.0007558091465908284, ,0.18244184142067982,-0.22147253336701048,0.10097191697,1.6097896961306934,0.2195748551230628,-1.3026213206137234, ,0.1545552794111902,0.12486439678746157,0.03160478476190477,0.006620879177587366,0.12711311479020035,-0.1052161654936744, ,1.5762219429016113
0.01492578199714823,0.020734117215189196,-0.09108385721298604, ,0.015717570246099398,0.02023109610240264,-0.09182895710916572, ,0.001197970252707955, ,0.02021048588796356,-0.004397076707300205,-0.03328620814518824,-0.0361549788518136,-0.051502550374762326,-0.009519509112869215, ,0.039188897357316045, ,0.06292578429142952, ,0.0007599032309067278, ,0.18398638799552472,-0.22019828244276343,0.10129858205000002,1.6097896961306934,0.22066794712118631,-1.3035126638432946, ,0.15975916087284645,0.12928738631944245,0.034477947012987016,0.006620879177587366,0.10854985459355093,-0.09001888857661577, ,1.5798909664154053
0.01492578199714823,0.020734117215189196,-0.09108385721298604, ,0.015781857168567035,0.0202180100443041,-0.09194373327366871, ,0.0013185667031644299, ,0.02021048588796356,-0.004397076707300205,-0.03328620814518824,-0.0361549788518136,-0.051502550374762326,-0.009519509112869215, ,0.039188897357316045, ,0.06292578429142952, ,0.0007650285838632205, ,0.18398638799552472,-0.22019828244276343,0.10129858205000002,1.6097896961306934,0.22066794712118631,-1.3035126638432946, ,0.15975916087284645,0.12928738631944245,0.034477947012987016,0.006620879177587366,0.10854985459355093,-0.09001888857661577, ,1.5834319591522217
0.01492578199714823,0.020734117215189196,-0.09108385721298604, ,0.01584616826007587,0.020204853981156512,-0.092058333877546, ,0.0014411229002609595, ,0.02021048588796356,-0.004397076707300205,-0.03328620814518824,-0.0361549788518136,-0.051502550374762326,-0.009519509112869215, ,0.039188897357316045, ,0.06292578429142952, ,0.0007711748958304727, ,0.18398638799552472,-0.22019828244276343,0.10129858205000002,1.6097896961306934,0.22066794712118631,-1.3035126638432946, ,0.15975916087284645,0.12928738631944245,0.034477947012987016,0.006620879177587366,0.10854985459355093,-0.09001888857661577, ,1.5869839191436768
0.01512530777724639,0.020692577430814218,-0.091419105539647, ,0.015910501714998627,0.020191630520901387,-0.09217275765771708, ,0.0011981105297532483, ,0.020177091076810035,-0.00421796229679852,-0.034494359431239636,-0.03575973325209927,-0.046857856332717496,-0.009665241712156302, ,0.04018416408027734, ,0.05894377309199843, ,0.00077502116280275, ,0.18554638003611806,-0.21893175425139064,0.10164598777000002,1.6097896961306934,0.22176103911930983,-1.3044856858130065, ,0.1558242061715448,0.12928738631944245,0.03571482403587444,0.006620879177587366,0.10925500071803808,-0.09037940842360928, ,1.5905649662017822
0.01512530777724639,0.020692577430814218,-0.091419105539647, ,0.015974855738921264,0.02017834225902746,-0.09228700335862464, ,0.001318869279070006, ,0.020177091076810035,-0.00421796229679852,-0.034494359431239636,-0.03575973325209927,-0.046857856332717496,-0.009665241712156302, ,0.04018416408027734, ,0.05894377309199843, ,0.0007798769495551362, ,0.18554638003611806,-0.21893175425139064,0.10164598777000002,1.6097896961306934,0.22176103911930983,-1.3044856858130065, ,0.1558242061715448,0.12928738631944245,0.03571482403587444,0.006620879177587366,0.10925500071803808,-0.09037940842360928, ,1.5941698551177979
0.01512530777724639,0.020692577430814218,-0.091419105539647, ,0.01603922854862023,0.020164991778592507,-0.0924010697322231, ,0.0014414754497668067, ,0.020177091076810035,-0.00421796229679852,-0.034494359431239636,-0.03575973325209927,-0.046857856332717496,-0.009665241712156302, ,0.04018416408027734, ,0.05894377309199843, ,0.0007857318035393102, ,0.18717587667257943,-0.21761116692989824,0.10201024526000001,1.6097896961306934,0.2229907676171988,-1.3054884469462744, ,0.15556875665323078,0.12636077437878931,0.03470329307189543,0.006620879177587366,0.11235754846891978,-0.0929093280798849, ,1.5983049869537354
0.015334328567201608,0.02064874609884445,-0.09177013296728548, ,0.0161036183720397,0.020151581650244315,-0.09251495553796564, ,0.0011805676408297458, ,0.020046032593710836,-0.004259545962208376,-0.033428358345305394,-0.030323928305359696,-0.043528047662464694,-0.00884683694838709, ,0.03921023203469257, ,0.05304893796281854, ,0.0007891952757962438, ,0.18717587667257943,-0.21761116692989824,0.10201024526000001,1.6097896961306934,0.2229907676171988,-1.3054884469462744, ,0.15556875665323078,0.12636077437878931,0.03470329307189543,0.006620879177587366,0.11235754846891978,-0.0929093280798849, ,1.602025032043457
0.015334328567201608,0.02064874609884445,-0.09177013296728548, ,0.016168023448268943,0.020138114432242275,-0.09262865954279065, ,0.001301099432980979, ,0.020046032593710836,-0.004259545962208376,-0.033428358345305394,-0.030323928305359696,-0.043528047662464694,-0.00884683694838709, ,0.03921023203469257, ,0.05304893796281854, ,0.0007936466162935025, ,0.18717587667257943,-0.21761116692989824,0.10201024526000001,1.6097896961306934,0.2229907676171988,-1.3054884469462744, ,0.15556875665323078,0.12636077437878931,0.03470329307189543,0.006620879177587366,0.11235754846891978,-0.0929093280798849, ,1.605841875076294
0.015533087359342104,0.020604258586545427,-0.09210159976458221, ,0.016232442027519677,0.020124592670478468,-0.09274218052111077, ,0.0010627888071356537, ,0.019904926318936013,-0.004785362738255599,-0.03324350753072892,-0.04267238470953685,-0.05242893239457302,-0.01150615468316847, ,0.0390414725803803, ,0.06759944354852306, ,0.0007959668075938659, ,0.18869725504880167,-0.2163369160056512,0.10235376211000001,1.6099993860741781,0.2239472231155569,-1.3063500510122898, ,0.1520784319847288,0.1303529417011961,0.03440348060475163,0.005837085722508086,0.09992615917283391,-0.08453757525306957, ,1.6094529628753662
0.015533087359342104,0.020604258586545427,-0.09210159976458221, ,0.016296872371103225,0.020111018898499304,-0.09285551725479928, ,0.0011811200261234993, ,0.019904926318936013,-0.004785362738255599,-0.03324350753072892,-0.04267238470953685,-0.05242893239457302,-0.01150615468316847, ,0.0390414725803803, ,0.06759944354852306, ,0.0007992587154445466, ,0.18869725504880167,-0.2163369160056512,0.10235376211000001,1.6099993860741781,0.2239472231155569,-1.3063500510122898, ,0.1520784319847288,0.1303529417011961,0.03440348060475163,0.005837085722508086,0.09992615917283391,-0.08453757525306957, ,1.6130058765411377
0.015533087359342104,0.020604258586545427,-0.09210159976458221, ,0.016361312751407904,0.020097395637526175,-0.09296866853317753, ,0.001301797065069842, ,0.019904926318936013,-0.004785362738255599,-0.03324350753072892,-0.04267238470953685,-0.05242893239457302,-0.01150615468316847, ,0.0390414725803803, ,0.06759944354852306, ,0.0008035175150176423, ,0.18869725504880167,-0.2163369160056512,0.10235376211000001,1.6099993860741781,0.2239472231155569,-1.3063500510122898, ,0.1520784319847288,0.1303529417011961,0.03440348060475163,0.005837085722508086,0.09992615917283391,-0.08453757525306957, ,1.6166000366210938
0.015717494293330272,0.02056033585743984,-0.09240512953206173, ,0.016425761451876426,0.020083725396477764,-0.09308163315300277, ,0.0010892460918083978, ,0.019714409089974988,-0.004630785766557595,-0.03192166592904736,-0.027548669305439883,-0.04342957370214534,-0.00885368908061673, ,0.03780337099080377, ,0.05142979590382302, ,0.0008059185954948755, ,0.1901259606305332,-0.2151476151430206,0.10266876058,1.6099993860741781,0.22504031511368042,-1.307323072982002, ,0.15256743015831317,0.12502890850918416,0.033185024,0.005629469154459823,0.10957002472572781,-0.09446157772515788, ,1.6203320026397705
0.015717494293330272,0.02056033585743984,-0.09240512953206173, ,0.016490216766983114,0.0200700106719907,-0.09319440991845555, ,0.0012085041733977944, ,0.019714409089974988,-0.004630785766557595,-0.03192166592904736,-0.027548669305439883,-0.04342957370214534,-0.00885368908061673, ,0.03780337099080377, ,0.05142979590382302, ,0.0008092734753107332, ,0.1901259606305332,-0.2151476151430206,0.10266876058,1.6099993860741781,0.22504031511368042,-1.307323072982002, ,0.15256743015831317,0.12502890850918416,0.033185024,0.005629469154459823,0.10957002472572781,-0.09446157772515788, ,1.6239268779754639
0.015717494293330272,0.02056033585743984,-0.09240512953206173, ,0.01655467700221111,0.020056253948440857,-0.09330699764112646, ,0.0013297892860062864, ,0.019714409089974988,-0.004630785766557595,-0.03192166592904736,-0.027548669305439883,-0.04342957370214534,-0.00885368908061673, ,0.03780337099080377, ,0.05142979590382302, ,0.0008135752588702005, ,0.1901259606305332,-0.2151476151430206,0.10266876058,1.6099993860741781,0.22504031511368042,-1.307323072982002, ,0.15256743015831317,0.12502890850918416,0.033185024,0.005629469154459823,0.10957002472572781,-0.09446157772515788, ,1.6275088787078857
0.015939233517040127,0.02050684291523731,-0.0927600302796673, ,0.0166191404740298,0.020042457697964897,-0.09341939514000445, ,0.0010548408027904225, ,0.01924888425233908,-0.0048130913254276105,-0.03072722809674997,-0.011024341312173334,-0.027469859708387803,-0.006048890643721517, ,0.03657660371845033, ,0.02959901860190703, ,0.0008155528452957761, ,0.1918558527943595,-0.21374207775991175,0.10303820323000001,1.6099993860741781,0.22640668011133483,-1.3086822882393878, ,0.15015338854188412,0.12324278124476726,0.031985565301204825,0.005236374138646987,0.12334741260780034,-0.10930420283150938, ,1.6310389041900635
0.015939233517040127,0.02050684291523731,-0.0927600302796673, ,0.016683605509872152,0.02002862438048188,-0.09353160124146387, ,0.0011739269056393752, ,0.01924888425233908,-0.0048130913254276105,-0.03072722809674997,-0.011024341312173334,-0.027469859708387803,-0.006048890643721517, ,0.03657660371845033, ,0.02959901860190703, ,0.000818466455542472, ,0.1918558527943595,-0.21374207775991175,0.10303820323000001,1.6099993860741781,0.22640668011133483,-1.3086822882393878, ,0.15015338854188412,0.12324278124476726,0.031985565301204825,0.005236374138646987,0.12334741260780034,-0.10930420283150938, ,1.6346328258514404
0.015939233517040127,0.02050684291523731,-0.0927600302796673, ,0.016748070448111937,0.02001475644371389,-0.09364361477925162, ,0.0012950242640304916, ,0.01924888425233908,-0.0048130913254276105,-0.03072722809674997,-0.011024341312173334,-0.027469859708387803,-0.006048890643721517, ,0.03657660371845033, ,0.02959901860190703, ,0.00082230966367544, ,0.1918558527943595,-0.21374207775991175,0.10303820323000001,1.6099993860741781,0.22640668011133483,-1.3086822882393878, ,0.15015338854188412,0.12324278124476726,0.031985565301204825,0.005236374138646987,0.12334741260780034,-0.10930420283150938, ,1.6388828754425049
0.01614644941873753,0.0204506781733535,-0.09308821118952597, ,0.016812533638041065,0.020000856323207892,-0.0937554345944752, ,0.0010446027743528494, ,0.018797171271636805,-0.005361331149706106,-0.02908815566980847,-3.800010032315246e-05,-0.03833126111492179,-0.009941250853248653, ,0.03504566049859908, ,0.03833100830742189, ,0.0008240880085608593, ,0.1934621812321982,-0.21238287677404824,0.10337912750000001,1.6099993860741781,0.22763640860922377,-1.3100117643332179, ,0.1462202489344696,0.124210656490145,0.03022544880455408,0.00491062013940996,0.10812223961158826,-0.1212428227333994, ,1.6425628662109375
0.01614644941873753,0.0204506781733535,-0.09308821118952597, ,0.016876993439846846,0.019986926442356775,-0.09386705953558924, ,0.0011642014348670618, ,0.018797171271636805,-0.005361331149706106,-0.02908815566980847,-3.800010032315246e-05,-0.03833126111492179,-0.009941250853248653, ,0.03504566049859908, ,0.03833100830742189, ,0.0008267873214680513, ,0.1934621812321982,-0.21238287677404824,0.10337912750000001,1.6099993860741781,0.22763640860922377,-1.3100117643332179, ,0.1462202489344696,0.124210656490145,0.03022544880455408,0.00491062013940996,0.10812223961158826,-0.1212428227333994, ,1.6464710235595703
0.016336026630438927,0.02039503863314006,-0.0933828608924791, ,0.016941448224589328,0.019972969212420876,-0.09397848845838366, ,0.0009483934309321373, ,0.017672296166982897,-0.005209394605280656,-0.027509936656766994,-0.013490951635932849,-0.022270775628895914,-0.006396299939331533, ,0.033109582583089416, ,0.026038000443272796, ,0.0008277448498890285, ,0.19492950047830085,-0.21111634858267542,0.10368505194000001,1.6099993860741781,0.2287295006073473,-1.3111481437832109, ,0.1375317993601026,0.1181780094127905,0.02859750721723519,0.004631868955190007,0.11591293571761933,-0.10189049572973406, ,1.6513400077819824
0.016336026630438927,0.02039503863314006,-0.0933828608924791, ,0.017005896374178788,0.019958987032549523,-0.09408972022597152, ,0.0010670129283663911, ,0.017672296166982897,-0.005209394605280656,-0.027509936656766994,-0.013490951635932849,-0.022270775628895914,-0.006396299939331533, ,0.033109582583089416, ,0.026038000443272796, ,0.0008296141317521329, ,0.19492950047830085,-0.21111634858267542,0.10368505194000001,1.6099993860741781,0.2287295006073473,-1.3111481437832109, ,0.1375317993601026,0.1181780094127905,0.02859750721723519,0.004631868955190007,0.11591293571761933,-0.10189049572973406, ,1.6549739837646484
0.016336026630438927,0.02039503863314006,-0.0933828608924791, ,0.01707033628135265,0.019944982289801527,-0.09420075370877452, ,0.0011877331495550427, ,0.017672296166982897,-0.005209394605280656,-0.027509936656766994,-0.013490951635932849,-0.022270775628895914,-0.006396299939331533, ,0.033109582583089416, ,0.026038000443272796, ,0.0008323902481692097, ,0.19492950047830085,-0.21111634858267542,0.10368505194000001,1.6099993860741781,0.2287295006073473,-1.3111481437832109, ,0.1375317993601026,0.1181780094127905,0.02859750721723519,0.004631868955190007,0.11591293571761933,-0.10189049572973406, ,1.6585438251495361
0.016517721942205205,0.020344812491614666,-0.09366820297008452, ,0.01713476634965303,0.019930957359167306,-0.09431158778451271, ,0.000982834620296037, ,0.017738906668907293,-0.004686267336111279,-0.028401660807682517,-0.02838030055001356,-0.04676645027696874,-0.011220642074917339, ,0.03381248656914123, ,0.05470396557934354, ,0.0008335475125701853, ,0.19631186966278705,-0.20993477045291908,0.10398190235000002,1.6099993860741781,0.22968595610570539,-1.3120097478492263, ,0.1327229951866724,0.11405882398854661,0.02955252601113173,0.004389529771307228,0.08615931919395711,-0.08289714746389171, ,1.662113904953003
0.016517721942205205,0.020344812491614666,-0.09366820297008452, ,0.017199184993404146,0.019916914603589957,-0.09442222133819009, ,0.001102738496728015, ,0.017738906668907293,-0.004686267336111279,-0.028401660807682517,-0.02838030055001356,-0.04676645027696874,-0.011220642074917339, ,0.03381248656914123, ,0.05470396557934354, ,0.0008356024055790237, ,0.19631186966278705,-0.20993477045291908,0.10398190235000002,1.6099993860741781,0.22968595610570539,-1.3120097478492263, ,0.1327229951866724,0.11405882398854661,0.02955252601113173,0.004389529771307228,0.08615931919395711,-0.08289714746389171, ,1.6656780242919922
0.016517721942205205,0.020344812491614666,-0.09366820297008452, ,0.017263590637689334,0.019902856373986595,-0.0945326532620836, ,0.0012243037319837626, ,0.017738906668907293,-0.004686267336111279,-0.028401660807682517,-0.02838030055001356,-0.04676645027696874,-0.011220642074917339, ,0.03381248656914123, ,0.05470396557934354, ,0.0008385471125972414, ,0.19631186966278705,-0.20993477045291908,0.10398190235000002,1.6099993860741781,0.22968595610570539,-1.3120097478492263, ,0.1327229951866724,0.11405882398854661,0.02955252601113173,0.004389529771307228,0.08615931919395711,-0.08289714746389171, ,1.669219970703125
0.016694266481499513,0.020296865352819892,-0.09394475706675778, ,0.017327981718328556,0.01988878500926938,-0.0946428824557292, ,0.001027377061700371, ,0.0175063364331755,-0.004843127326047747,-0.027570926090931293,-0.07881012362932785,-0.07480593578862665,-0.011874328393783294, ,0.03301641505553615, ,0.10865977951467747, ,0.0008399668866506485, ,0.1976247342514052,-0.20879952872040808,0.10426967873000001,1.6102090760176624,0.23036913860453262,-1.3126485161078492, ,0.12823911021414972,0.11297254947436998,0.028648941582733817,0.0,0.054340115888241246,-0.03209601547927048, ,1.6728239059448242
0.016694266481499513,0.020296865352819892,-0.09394475706675778, ,0.017392356681855757,0.01987470283636761,-0.0947529078259102, ,0.0011483286845016837, ,0.0175063364331755,-0.004843127326047747,-0.027570926090931293,-0.07881012362932785,-0.07480593578862665,-0.011874328393783294, ,0.03301641505553615, ,0.10865977951467747, ,0.000842268094097298, ,0.1976247342514052,-0.20879952872040808,0.10426967873000001,1.6102090760176624,0.23036913860453262,-1.3126485161078492, ,0.12823911021414972,0.11297254947436998,0.028648941582733817,0.0,0.054340115888241246,-0.03209601547927048, ,1.6765029430389404
0.016694266481499513,0.020296865352819892,-0.09394475706675778, ,0.017456713985496,0.019860612170248135,-0.09486272828664394, ,0.0012705566481639981, ,0.0175063364331755,-0.004843127326047747,-0.027570926090931293,-0.07881012362932785,-0.07480593578862665,-0.011874328393783294, ,0.03301641505553615, ,0.10865977951467747, ,0.0008454406019051994, ,0.1976247342514052,-0.20879952872040808,0.10426967873000001,1.6102090760176624,0.23036913860453262,-1.3126485161078492, ,0.12823911021414972,0.11297254947436998,0.028648941582733817,0.0,0.054340115888241246,-0.03209601547927048, ,1.680344820022583
0.016694266481499513,0.020296865352819892,-0.09394475706675778, ,0.017521052097142796,0.01984651531393721,-0.09497234275916998, ,0.0013936721160325062, ,0.0175063364331755,-0.004843127326047747,-0.027570926090931293,-0.07881012362932785,-0.07480593578862665,-0.011874328393783294, ,0.03301641505553615, ,0.10865977951467747, ,0.0008494717159796649, ,0.1976247342514052,-0.20879952872040808,0.10426967873000001,1.6102090760176624,0.23036913860453262,-1.3126485161078492, ,0.12823911021414972,0.11297254947436998,0.028648941582733817,0.0,0.054340115888241246,-0.03209601547927048, ,1.6841280460357666
0.01684493719720727,0.020256104286620717,-0.09418722287574867, ,0.01758536949533552,0.0198324145585417,-0.09508175017193689, ,0.0012360954887940334, ,0.016661562939191542,-0.004201797020852319,-0.02778649125717793,0.013106823119857655,0.0038492838706550726,0.00232543221869254, ,0.03267035160763211, ,0.013659766999669167, ,0.0008522937873140764, ,0.1987599759839162,-0.20782646437825578,0.10452245528000001,1.6102090760176624,0.23132559410289066,-1.3134284414337238, ,0.1255250549715222,0.10638670578303898,0.029014228633879785,0.0,0.13114470762198568,-0.11775266119255817, ,1.6878960132598877
0.017031466301876824,0.020213299645515742,-0.09450848977884475, ,0.017649664669236696,0.019818312183270462,-0.09519094946059017, ,0.0010019658347196465, ,0.017295617233383527,-0.003729149664226805,-0.030261988917364334,0.03541877885097743,0.01883417215998524,0.0048011605357279824, ,0.035054713034577786, ,0.04011471745502431, ,0.00085337836736774, ,0.2001423451684024,-0.20666033171424789,0.10485819439,1.6102090760176624,0.23282859560031052,-1.3148173958546658, ,0.12754965263235318,0.10638670578303898,0.031667617335984104,0.0,0.14827585350931857,-0.14009639642755156, ,1.691680908203125
0.017031466301876824,0.020213299645515742,-0.09450848977884475, ,0.017713936118609202,0.01980421045545571,-0.09529993956795907, ,0.0011222797266563233, ,0.017295617233383527,-0.003729149664226805,-0.030261988917364334,0.03541877885097743,0.01883417215998524,0.0048011605357279824, ,0.035054713034577786, ,0.04011471745502431, ,0.0008553129095208952, ,0.2001423451684024,-0.20666033171424789,0.10485819439,1.6102090760176624,0.23282859560031052,-1.3148173958546658, ,0.12754965263235318,0.10638670578303898,0.031667617335984104,0.0,0.14827585350931857,-0.14009639642755156, ,1.6953699588775635
0.017031466301876824,0.020213299645515742,-0.09450848977884475, ,0.017778182353793623,0.01979011163057384,-0.09540871944404467, ,0.00124381928280865, ,0.017295617233383527,-0.003729149664226805,-0.030261988917364334,0.03541877885097743,0.01883417215998524,0.0048011605357279824, ,0.035054713034577786, ,0.04011471745502431, ,0.0008580879550443791, ,0.2001423451684024,-0.20666033171424789,0.10485819439,1.6102090760176624,0.23282859560031052,-1.3148173958546658, ,0.12754965263235318,0.10638670578303898,0.031667617335984104,0.0,0.14827585350931857,-0.14009639642755156, ,1.6990230083465576
0.017218316688919433,0.02017704217328415,-0.09483901692626368, ,0.017842401895685606,0.0197760179522676,-0.09551728804600651, ,0.0010051639085360688, ,0.017447052431477497,-0.003093600975550677,-0.031227110591817004,0.0060264230766857415,-0.014240519849694929,-0.0012504350571274935, ,0.035904072769760015, ,0.015462227761606972, ,0.0008591310469131145, ,0.20148610068851747,-0.20554825818035954,0.10520430382000001,1.6102090760176624,0.23419496059796494,-1.31593157489163, ,0.12260586764660306,0.10127741895247683,0.03270803186858317,0.0,0.10971924880586471,-0.10557002000455626, ,1.702711820602417
0.017218316688919433,0.02017704217328415,-0.09483901692626368, ,0.01790659327571314,0.019761931652366636,-0.095625644338151, ,0.0011246439835064976, ,0.017447052431477497,-0.003093600975550677,-0.031227110591817004,0.0060264230766857415,-0.014240519849694929,-0.0012504350571274935, ,0.035904072769760015, ,0.015462227761606972, ,0.0008610008563257439, ,0.20148610068851747,-0.20554825818035954,0.10520430382000001,1.6102090760176624,0.23419496059796494,-1.31593157489163, ,0.12260586764660306,0.10127741895247683,0.03270803186858317,0.0,0.10971924880586471,-0.10557002000455626, ,1.7063069343566895
0.017218316688919433,0.02017704217328415,-0.09483901692626368, ,0.017970755035813846,0.01974785495090952,-0.09573378729191825, ,0.001245383131803413, ,0.017447052431477497,-0.003093600975550677,-0.031227110591817004,0.0060264230766857415,-0.014240519849694929,-0.0012504350571274935, ,0.035904072769760015, ,0.015462227761606972, ,0.0008636888442661473, ,0.20148610068851747,-0.20554825818035954,0.10520430382000001,1.6102090760176624,0.23419496059796494,-1.31593157489163, ,0.12260586764660306,0.10127741895247683,0.03270803186858317,0.0,0.10971924880586471,-0.10557002000455626, ,1.709885835647583
0.01738880817509702,0.020147520803107936,-0.09514874708149224, ,0.01803488572841228,0.019733790056164317,-0.09584171588586929, ,0.0010338254686861415, ,0.017321700558715465,-0.0029552357130686836,-0.03157027985996485,-0.009249166682336734,-0.021367674803056312,-0.0028617997061194844, ,0.03613111261505937, ,0.023282896075099275, ,0.0008648703486023973, ,0.20265995608539958,-0.2045597483724588,0.10552837632,1.6102090760176624,0.235151416096323,-1.3167931789576455, ,0.11876963899683453,0.09989151742996924,0.03304732680497926,0.0,0.09866222743352794,-0.08888122281742628, ,1.7134909629821777
0.01738880817509702,0.020147520803107936,-0.09514874708149224, ,0.018098983916397266,0.01971973916465056,-0.09594942910567386, ,0.001152579028778599, ,0.017321700558715465,-0.0029552357130686836,-0.03157027985996485,-0.009249166682336734,-0.021367674803056312,-0.0028617997061194844, ,0.03613111261505937, ,0.023282896075099275, ,0.0008668545463967159, ,0.20265995608539958,-0.2045597483724588,0.10552837632,1.6102090760176624,0.235151416096323,-1.3167931789576455, ,0.11876963899683453,0.09989151742996924,0.03304732680497926,0.0,0.09866222743352794,-0.08888122281742628, ,1.7171039581298828
0.01738880817509702,0.020147520803107936,-0.09514874708149224, ,0.018163048173099154,0.01970570446116025,-0.09605692594409794, ,0.0012725714522187636, ,0.017321700558715465,-0.0029552357130686836,-0.03157027985996485,-0.009249166682336734,-0.021367674803056312,-0.0028617997061194844, ,0.03613111261505937, ,0.023282896075099275, ,0.0008696334293133053, ,0.20384153421515594,-0.20355579309880964,0.10586152285000001,1.6102090760176624,0.23624450809444655,-1.3177662009273574, ,0.11433366452827805,0.09585549652370785,0.03211453935483872,0.0,0.11631258340233512,-0.10577149844677028, ,1.720944881439209
0.017561414471105142,0.020117678178961908,-0.09546706123733101, ,0.018227077082267253,0.01969168811877922,-0.09616420540099072, ,0.001053842601244798, ,0.01661466905869524,-0.0028205516090876945,-0.030643427015416256,0.011561156916624378,0.0005252691521563046,0.0007880463111965045, ,0.03497173656767183, ,0.01157191586777401, ,0.0008708865529318869, ,0.20384153421515594,-0.20355579309880964,0.10586152285000001,1.6102090760176624,0.23624450809444655,-1.3177662009273574, ,0.11433366452827805,0.09585549652370785,0.03211453935483872,0.0,0.11631258340233512,-0.10577149844677028, ,1.7249200344085693
0.017561414471105142,0.020117678178961908,-0.09546706123733101, ,0.018291069238046895,0.019677692298908415,-0.09627126648327215, ,0.0011716354941561505, ,0.01661466905869524,-0.0028205516090876945,-0.030643427015416256,0.011561156916624378,0.0005252691521563046,0.0007880463111965045, ,0.03497173656767183, ,0.01157191586777401, ,0.0008729186403725912, ,0.20384153421515594,-0.20355579309880964,0.10586152285000001,1.6102090760176624,0.23624450809444655,-1.3177662009273574, ,0.11433366452827805,0.09585549652370785,0.03211453935483872,0.0,0.11631258340233512,-0.10577149844677028, ,1.7285499572753906
0.01772351554722528,0.020089254473727943,-0.09576631400567547, ,0.018355023244957018,0.01966371915128542,-0.09637810820492079, ,0.000976818522127284, ,0.016168597166796736,-0.0027034002640585943,-0.029635728374633883,0.014849304358405252,0.004307117678791618,0.0015233964876533062, ,0.03386751103380553, ,0.015460602916207999, ,0.0008736159550152401, ,0.20496133048191847,-0.20261361968815422,0.10617522503000001,1.6102090760176624,0.23747423659233552,-1.3187689620606253, ,0.11125081073677699,0.09195440073495231,0.031110960000000003,0.0,0.11700657971248303,-0.1052250303323036, ,1.7321529388427734
0.01772351554722528,0.020089254473727943,-0.09576631400567547, ,0.018418937717867272,0.01964977081400557,-0.0964847295869608, ,0.0010921899239678691, ,0.016168597166796736,-0.0027034002640585943,-0.029635728374633883,0.014849304358405252,0.004307117678791618,0.0015233964876533062, ,0.03386751103380553, ,0.015460602916207999, ,0.0008750731148082576, ,0.20496133048191847,-0.20261361968815422,0.10617522503000001,1.6102090760176624,0.23747423659233552,-1.3187689620606253, ,0.11125081073677699,0.09195440073495231,0.031110960000000003,0.0,0.11700657971248303,-0.1052250303323036, ,1.7357399463653564
0.01772351554722528,0.020089254473727943,-0.09576631400567547, ,0.018482811281975493,0.019635849413543377,-0.0965911296574493, ,0.0012093084886917532, ,0.016168597166796736,-0.0027034002640585943,-0.029635728374633883,0.014849304358405252,0.004307117678791618,0.0015233964876533062, ,0.03386751103380553, ,0.015460602916207999, ,0.0008772865941054993, ,0.20496133048191847,-0.20261361968815422,0.10617522503000001,1.6102090760176624,0.23747423659233552,-1.3187689620606253, ,0.11125081073677699,0.09195440073495231,0.031110960000000003,0.0,0.11700657971248303,-0.1052250303323036, ,1.7393150329589844
0.017884229953721895,0.020060718530441644,-0.0960605238884622, ,0.01854664257278473,0.01962195706477379,-0.09669730745146414, ,0.0010182315099024066, ,0.016136797431804902,-0.002953259524366476,-0.02955602294398615,0.008268959520170644,0.0011406336996693767,0.00022107350060472596, ,0.033803497828461516, ,0.008345908126185091, ,0.0008782138632883737, ,0.20605795855005837,-0.2016868917432473,0.10648374205000001,1.6102090760176624,0.23856732859045904,-1.3196603052901965, ,0.10996169357876104,0.09367911308832258,0.030989905680933853,0.0,0.11248223032818143,-0.10030270463509174, ,1.7428839206695557
0.017884229953721895,0.020060718530441644,-0.0960605238884622, ,0.018610430236080975,0.019608095870993707,-0.09680326201109116, ,0.0011330904821551173, ,0.016136797431804902,-0.002953259524366476,-0.02955602294398615,0.008268959520170644,0.0011406336996693767,0.00022107350060472596, ,0.033803497828461516, ,0.008345908126185091, ,0.0008798797235424047, ,0.20605795855005837,-0.2016868917432473,0.10648374205000001,1.6102090760176624,0.23856732859045904,-1.3196603052901965, ,0.10996169357876104,0.09367911308832258,0.030989905680933853,0.0,0.11248223032818143,-0.10030270463509174, ,1.7470638751983643
0.017884229953721895,0.020060718530441644,-0.0960605238884622, ,0.018674172927910012,0.01959426792394287,-0.09690899238541115, ,0.0012495938784609366, ,0.016136797431804902,-0.002953259524366476,-0.02955602294398615,0.008268959520170644,0.0011406336996693767,0.00022107350060472596, ,0.033803497828461516, ,0.008345908126185091, ,0.0008822804648081095, ,0.20605795855005837,-0.2016868917432473,0.10648374205000001,1.6102090760176624,0.23856732859045904,-1.3196603052901965, ,0.10996169357876104,0.09367911308832258,0.030989905680933853,0.0,0.11248223032818143,-0.10030270463509174, ,1.7509820461273193
0.017884229953721895,0.020060718530441644,-0.0960605238884622, ,0.0187378693145551,0.019580475303825753,-0.09701449763048842, ,0.0013672598931986806, ,0.016136797431804902,-0.002953259524366476,-0.02955602294398615,0.008268959520170644,0.0011406336996693767,0.00022107350060472596, ,0.033803497828461516, ,0.008345908126185091, ,0.0008854093643461133, ,0.20605795855005837,-0.2016868917432473,0.10648374205000001,1.6102090760176624,0.23856732859045904,-1.3196603052901965, ,0.10996169357876104,0.09367911308832258,0.030989905680933853,0.0,0.11248223032818143,-0.10030270463509174, ,1.754762887954712
0.017964547307591554,0.02004673137942174,-0.09620615236619894, ,0.01880151807251397,0.019566720079332325,-0.09711977680935673, ,0.0013287740713468661, ,0.01587857359426996,-0.0029701151104543997,-0.028717306669069537,0.020167366462550566,0.014060444318954153,0.002932071323591067, ,0.03294896637959046, ,0.024584532408585755, ,0.0008882514458012463, ,0.2066062725841283,-0.20123125050366805,0.10663670427000001,1.6102090760176624,0.23911387458952077,-1.320105976904982, ,0.10996169357876104,0.09186538389009755,0.030168203636363643,-0.00013529229015345315,0.12559309008189584,-0.11048334640078877, ,1.758544921875
0.018199177465931908,0.020001279165769846,-0.09661822450163317, ,0.018865117888476446,0.01955300430766006,-0.09722482899200834, ,0.0010061789117922636, ,0.014789760425739115,-0.0032166878275591802,-0.024209278228167073,0.0005208838748052782,-0.002514859794781245,0.0007865953878691312, ,0.02855123896365148, ,0.0025666172093627457, ,0.0008890025761578771, ,0.20826666015208659,-0.199887494983553,0.10707096142000001,1.6102090760176624,0.2411634220860024,-1.3219406029407097, ,0.10567588146823026,0.08427792323132396,0.02556791576243981,-6.065309476665134e-05,0.10450696109900985,-0.08330591077121495, ,1.7621629238128662
0.018199177465931908,0.020001279165769846,-0.09661822450163317, ,0.01892866745930148,0.019539330034534435,-0.09732965325537946, ,0.0011187866293143134, ,0.014789760425739115,-0.0032166878275591802,-0.024209278228167073,0.0005208838748052782,-0.002514859794781245,0.0007865953878691312, ,0.02855123896365148, ,0.0025666172093627457, ,0.0008904569056082342, ,0.20826666015208659,-0.199887494983553,0.10707096142000001,1.6102090760176624,0.2411634220860024,-1.3219406029407097, ,0.10567588146823026,0.08427792323132396,0.02556791576243981,-6.065309476665134e-05,0.10450696109900985,-0.08330591077121495, ,1.7657389640808105
0.018199177465931908,0.020001279165769846,-0.09661822450163317, ,0.01899216549199464,0.01952569929423103,-0.09743424868334, ,0.0012332484294829032, ,0.014789760425739115,-0.0032166878275591802,-0.024209278228167073,0.0005208838748052782,-0.002514859794781245,0.0007865953878691312, ,0.02855123896365148, ,0.0025666172093627457, ,0.0008926128271420372, ,0.20826666015208659,-0.199887494983553,0.10707096142000001,1.6102090760176624,0.2411634220860024,-1.3219406029407097, ,0.10567588146823026,0.08427792323132396,0.02556791576243981,-6.065309476665134e-05,0.10450696109900985,-0.08330591077121495, ,1.7693288326263428
0.01834051479018122,0.01996662671860776,-0.09684568980117478, ,0.01905561070368519,0.019512114109596045,-0.09753861436667868, ,0.0010945722135791178, ,0.015719403496493003,-0.0037832494342032066,-0.026133157100525623,-0.0022404230638923277,-0.0002290143940686102,-2.34095259300106e-06, ,0.0307303518139267, ,0.0022493897709259993, ,0.000893875073307269, ,0.20927833815861,-0.19905343983313672,0.10731077507000002,1.6102090760176624,0.2421198775843605,-1.3227205282665846, ,0.11099057492218804,0.09349452370292687,0.0275109007253886,-2.4679542709772706e-05,0.11217915704056172,-0.08956215866241031, ,1.7728819847106934
0.01834051479018122,0.01996662671860776,-0.09684568980117478, ,0.01911900182160379,0.01949857649206851,-0.0976427494030923, ,0.0012084771746563845, ,0.015719403496493003,-0.0037832494342032066,-0.026133157100525623,-0.0022404230638923277,-0.0002290143940686102,-2.34095259300106e-06, ,0.0307303518139267, ,0.0022493897709259993, ,0.0008958291236262076, ,0.20927833815861,-0.19905343983313672,0.10731077507000002,1.6102090760176624,0.2421198775843605,-1.3227205282665846, ,0.11099057492218804,0.09349452370292687,0.0275109007253886,-2.4679542709772706e-05,0.11217915704056172,-0.08956215866241031, ,1.7764320373535156
0.01834051479018122,0.01996662671860776,-0.09684568980117478, ,0.01918233758305933,0.019485088441701034,-0.09774665289717197, ,0.0013237368420816263, ,0.015719403496493003,-0.0037832494342032066,-0.026133157100525623,-0.0022404230638923277,-0.0002290143940686102,-2.34095259300106e-06, ,0.0307303518139267, ,0.0022493897709259993, ,0.0008984705292956855, ,0.20927833815861,-0.19905343983313672,0.10731077507000002,1.6102090760176624,0.2421198775843605,-1.3227205282665846, ,0.11099057492218804,0.09349452370292687,0.0275109007253886,-2.4679542709772706e-05,0.11217915704056172,-0.08956215866241031, ,1.7800040245056152
