NicholasDascanio/dvrk_moveit_final/test/execution/third_experiment_notsharpbends/thirdexp_300vel3.0/thirdexp_300vel3.0_2.csv
Current Position (x),Current Position (y),Current Position (z), ,Planned Position (x),Planned Position (y),Planned Position (z), ,Position Error,,Cartesian linear Velocity(x),Cartesian linear Velocity(y),Cartesian linear Velocity(z),Cartesian Angular Velocity(x),Cartesian Angular Velocity(y),Cartesian Angular Velocity(z), ,Total Linear Velocity, ,Total Angular Velocity, ,MSE, ,Joint 1 Position,Joint 2 Position,Joint 3 Position,Joint 4 Position,Joint 5 Position,Joint 6 Position, ,Joint 1 Velocity,Joint 2 Velocity,Joint 3 Velocity,Joint 4 Velocity,Joint 5 Velocity,Joint 6 Velocity, ,Time Stamp
0.008880356757362559,0.02002032366371057,-0.0805661014607393, ,0.009090100825136558,0.01996709834172917,-0.08057751588339614, ,0.00021669286539015734, ,0.0006921417885731364,0.00012575841807654358,-0.0004681556434382946,0.19004151956021628,-0.046672066865581965,-0.017593998857991868, ,0.0008450119180753953, ,0.1956886838380324, ,1.805773878251311e-05, ,0.129440725704877,-0.24160569797011378,0.09011548822000001,1.601611788334797,0.17612444819765274,-1.274133120150209, ,0.0025142772722404954,-0.00010449764001202123,0.0004885133186078639,-0.0031961467194829125,-0.04716083876354033,-0.19056603358933932, ,0.03531193733215332
0.008934154555379926,0.020024497937004528,-0.08057852351472018, ,0.009170834925659758,0.019996692793477322,-0.08064641819245656, ,0.0002477910630900436, ,0.0017904149410132334,0.00022200650586299002,-0.0007822281908738144,0.09511399235067795,-0.09470819513146882,-0.02230181006435053, ,0.0019664062378477736, ,0.1342248626966886, ,2.1112905840009133e-05, ,0.1296260712938584,-0.241613420702988,0.09012845112000001,1.601611788334797,0.17202535320468954,-1.2792851720139349, ,0.011086391956744698,-8.629551645892983e-05,0.0008793695215181655,-0.0029398184546063654,-0.08656921672081413,-0.09546772371264156, ,0.0722038745880127
0.008996350849026849,0.020033080900634142,-0.08060310723912174, ,0.009251379402176766,0.020025888135946506,-0.08071550216882431, ,0.0002787900984763211, ,0.0017386987815291943,0.00018015926415753574,-0.0004990050178123556,-0.15718588964911523,-0.04872713498354945,-0.01110973774422214, ,0.0018178385024954222, ,0.16456529885880816, ,2.3227313342391313e-05, ,0.13013577166355722,-0.24162114343586225,0.09015826579000001,1.602031168221766,0.17011244220797336,-1.2827894032509, ,0.01672782329604632,-3.1320450038404056e-05,0.0006656407406614693,0.01008968386955006,-0.03372398407696528,0.15864261575627803, ,0.11113309860229492
0.009064397578828298,0.020045656624145418,-0.08064259980413466, ,0.009331734524486343,0.020054686859537988,-0.08078476737211199, ,0.000302922770767743, ,0.0019488020908297087,0.0004994425559003497,-0.001511405842799241,-0.02522732786828053,0.0030662821886426692,-0.0022053077066909047, ,0.0025162710659851813, ,0.02541299191016721, ,2.490944756486345e-05, ,0.1310702223413384,-0.24162886616873647,0.0902088211,1.602031168221766,0.1716154437053932,-1.279277633263408, ,0.024239320960018077,-0.0006161530956517436,0.0018255361525599924,0.01008968386955006,0.02595574663639092,0.027137578406641938, ,0.14708495140075684
0.009138830651591394,0.02006210323000106,-0.08069863166981929, ,0.009411900563474532,0.020083091448003694,-0.08085421335950663, ,0.0003149814982451466, ,0.0025185271319156555,0.0006270964664259548,-0.002113317216734408,0.036962292169426446,-0.01795970978929909,-0.008789294472315948, ,0.003346989475774503, ,0.041094552170473114, ,2.617650569171945e-05, ,0.13188883202600618,-0.2416365889016107,0.09027493189000001,1.602031168221766,0.1716154437053932,-1.2800944206648135, ,0.028176051531612463,-0.0002601044520620416,0.0024753397855477857,0.009558209012864997,0.007768176707262425,-0.03552153446236739, ,0.18371987342834473
0.009243647742371675,0.02008693999784948,-0.08077707031762071, ,0.00949187779111247,0.02011110437845355,-0.08092383968577739, ,0.0002893843841967734, ,0.002496924170174832,0.0005237368625764635,-0.001784451949152353,-0.015069075645762516,-0.02674691687853366,-0.003157855029147954, ,0.0031133903339700822, ,0.030699749238500437, ,2.6621978712357822e-05, ,0.13305496469001407,-0.24165975710023335,0.09036826477000001,1.6024505481087352,0.17175208020515864,-1.2802875173086505, ,0.027530299262683716,-0.00011982984496825179,0.0021227094243070365,0.0039709366589304905,0.0,0.015713590094682754, ,0.22011303901672363
0.009314305284432767,0.020101503245425756,-0.08082118352480909, ,0.009571666480454684,0.020138728121364077,-0.08099364590328569, ,0.0003120316467864427, ,0.0023970246005034124,0.0004293002082695807,-0.001276811755454625,0.0031169988555192164,-0.023596026434253698,-0.0022615357814513085, ,0.0027495952180468255, ,0.02380101143539732, ,2.7258254541008722e-05, ,0.13388901984043033,-0.2416752025659818,0.09042270895000001,1.6026602380522197,0.17216198970445498,-1.2804584135394586, ,0.02745860577502048,-0.0004995208377216403,0.0016054914054247338,0.0031242774009818436,0.0031856227944268584,-0.0022201213412810384, ,0.2559819221496582
0.009407754361948649,0.020123837284444585,-0.08088734439827674, ,0.009651266905636901,0.02016596514058549,-0.08106363156199321, ,0.0003035626447502202, ,0.002420636135575633,0.0007507043943887313,-0.002340329029690112,-0.003664567458015862,-0.010068652404434318,-0.007718623508263358, ,0.0034496632235363712, ,0.010714794250262678, ,2.797724656423269e-05, ,0.13497792517569598,-0.2417060934974787,0.09050307893000001,1.6030796179391889,0.1727085357035167,-1.2803323339732604, ,0.027206691960570746,-0.0009871202428923362,0.0027294056751199455,0.012119843925137187,0.014736758261673913,0.006228590227791729, ,0.28865694999694824
0.009479922262423545,0.02014865710232843,-0.08096892936061843, ,0.009730679341874127,0.020192817893350378,-0.08113379620947156, ,0.0003033321054702738, ,0.0025049135391239956,0.0008153942928968318,-0.0026260321892356553,-0.05196946569001794,-0.01673018341440237,-0.006971231061240142, ,0.0037196108331755936, ,0.05459601085299743, ,2.854987863525691e-05, ,0.1357656439288669,-0.2417369844289756,0.09059641181000001,1.6030796179391889,0.17311844520281303,-1.2795230853223818, ,0.02699002888466177,-0.0009174648872408833,0.0030225448804554085,0.011713691746081653,0.0082646561479422,0.0544610001074499, ,0.32123804092407227
0.009549227383960837,0.020169738697038316,-0.08103231503860836, ,0.009809904065458409,0.020219288830280825,-0.0812041393909111, ,0.00031611889539411296, ,0.0023823268348964997,0.0006667706235651816,-0.001960655022154644,-0.011460069765091849,-0.005074246087894961,-0.0006619406483056406, ,0.003156617228714578, ,0.01253320279706332, ,2.9147555278456917e-05, ,0.1365919763464089,-0.2417678753604725,0.09067159663,1.6034989978261578,0.17393826420140568,-1.2792114478628736, ,0.028084327185105295,-0.0011635068221567196,0.0023525050243686308,0.006974283846169742,0.022133191533072527,0.013542114393515547, ,0.35431790351867676
0.0096185042977888,0.02018862668621082,-0.08109505347668028, ,0.009888941353756833,0.020245380395396837,-0.08127466064912936, ,0.0003295692964191018, ,0.0022496994024994665,0.0006928836391843979,-0.0021717376564392935,0.04152892349683444,0.01825885998191598,0.002992801636296156, ,0.0032027612442160447, ,0.04536559769910268, ,2.9770159898021637e-05, ,0.13740286329820248,-0.24178332082622095,0.09074548516000001,1.6034989978261578,0.1746214467002329,-1.2793601436806528, ,0.02872183461212796,-0.0008339254108932386,0.0025829108999513542,0.006974283846169742,0.04626908209203187,-0.0398272787545069, ,0.3859860897064209
0.009729285356382166,0.020219086252720557,-0.08119507070029888, ,0.009967791485209234,0.020271095026123672,-0.08134535952457983, ,0.0002866649903680604, ,0.002703809327364779,0.0006943789057099585,-0.0022542086810890373,0.010088580065110727,-0.016893906218644537,0.0004800625297387296, ,0.0035880640631595355, ,0.019676979315847738, ,2.9930275720977753e-05, ,0.13859216416083306,-0.2418064890248436,0.09086215126000001,1.6039183777131267,0.17475808319999833,-1.2794715615843493, ,0.03038646863863938,-0.0006375315771309664,0.0026708268812877262,0.0025354797937135417,0.013185022684299033,-0.009127951083958953, ,0.4192180633544922
0.00980818349424196,0.02024112160796004,-0.08126535336671324, ,0.010046454739325942,0.020296435153300034,-0.08141623555536169, ,0.00028739904207094523, ,0.0026339880356320853,0.0006969944512396869,-0.002186010005501864,0.0073749280474084775,-0.020072609602339465,-0.008621932520246525, ,0.0034931839317542588, ,0.02138455563958401, ,3.0073343662105892e-05, ,0.1394880011742431,-0.2418296572234663,0.09094511382,1.6041280676566114,0.1753046291990601,-1.2797538757188538, ,0.028852825040580957,-0.0007473745228103283,0.002590050653658537,0.01047648821203745,0.006409464190983618,-0.005226488275113875, ,0.45192694664001465
0.009891531230567949,0.020259771214703133,-0.08132148439692934, ,0.01012493139668557,0.020321403201185365,-0.08148728827722782, ,0.000292856732931841, ,0.002514809402847852,0.0005416696948029098,-0.0016676214296579312,-0.0014169581716639533,-0.02122433013053647,-0.0026757553096868718, ,0.0030657191038277157, ,0.021271576338798837, ,3.0237763217460614e-05, ,0.14043017458489848,-0.24185282542208897,0.09101381719000001,1.6043377576000957,0.17557790219859098,-1.279568317825544, ,0.02821794277682747,-0.0005672558434922467,0.002040874740131713,0.004507385950122543,0.0061208948606453805,0.0025913356403880583, ,0.4876890182495117
0.009961470310999794,0.02027777964088816,-0.08137625194814664, ,0.010203221738932611,0.020346001587468018,-0.08155851722359275, ,0.0003103524086198591, ,0.002266194783493303,0.0006906702977703058,-0.0021346464697237716,0.005891014181675839,-0.005363975892053142,-0.007356389981723546, ,0.0031987952777500226, ,0.00796720060089553, ,3.050312807622946e-05, ,0.1415036344544157,-0.2418914390864601,0.09110326120000001,1.6047571374870648,0.17612444819765274,-1.2795239169994863, ,0.025633965845075844,-0.000861658056605199,0.0025163999241706162,0.012140661345280116,0.01785957806251762,-0.003380768361374134, ,0.5205740928649902
0.010032362756807942,0.02030080307485881,-0.08144574358148324, ,0.010281326048775127,0.020370232723272767,-0.08162992192554322, ,0.0003173717997029672, ,0.002446117580708818,0.0009277987812463736,-0.0031219415463708978,0.0034379345424626925,-0.012340999566858342,0.01811992404701419, ,0.004073183130684371, ,0.012810919714481402, ,3.098567264921059e-05, ,0.14203650302273718,-0.24190688455220855,0.09116159425,1.605176517374034,0.1766709941967145,-1.2798879098741314, ,0.02606342805780576,-0.001242551783349255,0.0035468295524382102,-0.014391103649527224,0.017655429092239387,-0.004186594589222779, ,0.5498270988464355
0.010104024791457469,0.020323774535388178,-0.08152472377550089, ,0.010359244609982303,0.020394099013168472,-0.08170150191184554, ,0.0003183287568417385, ,0.002496384494878853,0.0005707627651521769,-0.0019015721316968737,-0.018846615876456217,-0.030410581523075325,0.01456778969256889, ,0.003189621020184357, ,0.03577706525892584, ,3.1425943747010924e-05, ,0.14280877631015965,-0.241922330017957,0.09125233455000001,1.605176517374034,0.17708090369601082,-1.2796504124042367, ,0.026799475164775707,-0.0006078891485700553,0.0022674464797153024,-0.014391103649527224,0.0,0.017472630073490425, ,0.5788478851318359
0.010172266496797287,0.020342675395117957,-0.08158699442596429, ,0.010436977707382026,0.020417602855175687,-0.08177325670895416, ,0.00033223453665225886, ,0.0023571496754926304,0.0007068377456616921,-0.002442491013276103,0.015313173538511917,0.008027536953512023,0.006065340120803315, ,0.0034672087536376634, ,0.0172897262347804, ,3.190705676294052e-05, ,0.14361194052907897,-0.24193777548370543,0.09132622308,1.605176517374034,0.17790072269460347,-1.2799105261257124, ,0.028100959892943672,-0.00026069825051632385,0.002858724249820532,0.002345680595428262,0.036509926572906005,-0.01474929292605101, ,0.6085689067840576
0.010256436244458291,0.02036723655445231,-0.08167084515236109, ,0.010514525626858444,0.020440746640774936,-0.08184518584102081, ,0.0003200133400675634, ,0.002901026751761287,0.0008010012848213191,-0.0026904992493136286,-0.013727727761067527,-0.019802793236102595,-0.01203413462565323, ,0.0040368732310139795, ,0.024095666193173253, ,3.2274993615008925e-05, ,0.14450777754248903,-0.24194549821657965,0.09142344483,1.6055958972610032,0.17817399569413436,-1.2797249682324023, ,0.031032354989689596,-0.0002909727032849997,0.0031467426945871197,0.015195544906886436,0.007974642602174689,0.016151396374104385, ,0.6371729373931885
0.010342479572869203,0.020389271979615237,-0.08174384625129774, ,0.010591888655349397,0.020463532754913444,-0.08191728882990339, ,0.00031273292318666787, ,0.002755237362306142,0.0006733675644651158,-0.0021224074259034035,0.008836553584317319,-0.007097314011734283,-0.006758879390640914, ,0.0035425090093112394, ,0.011333867185855148, ,3.257136847515347e-05, ,0.14546539641889286,-0.24196094368232812,0.09150899997,1.6055958972610032,0.1787205416931961,-1.2797622461464853, ,0.0317912702038428,-0.00047218774652581864,0.002578729402622633,0.012515579803632756,0.02254882015796038,-0.006840529369614718, ,0.6666359901428223
0.01042618628988472,0.020412572308946393,-0.08181613735119535, ,0.010669067080843904,0.020485963576013365,-0.081989565195173, ,0.00030733462832130165, ,0.002840567787851491,0.0009002474371735684,-0.002906672605924737,0.013314686224215819,0.010671835554056422,-0.0012894962739708135, ,0.004162693412149205, ,0.01706367320170728, ,3.281492931119552e-05, ,0.1464539062267936,-0.2419841118809508,0.09159714769,1.6060152771479719,0.1796769971915542,-1.2800520990315167, ,0.033544341307342095,-0.0007782486154352302,0.003426287700580771,0.011774675756426925,0.04256019387996284,-0.010889030363419254, ,0.6964600086212158
0.010517358124392917,0.020437115191703513,-0.08190002920436597, ,0.010746061192379568,0.02050804147597944,-0.08206201445412463, ,0.0002890931549640575, ,0.0029476224792190195,0.0007140382275992485,-0.0023688693496194445,-0.029456678561590156,-0.019636636379938486,0.0036799438206030245, ,0.0038483595032217047, ,0.035401884132404235, ,3.294779791356799e-05, ,0.14744241603469435,-0.241991834613825,0.09169566573000001,1.6062249670914566,0.1800869066908505,-1.2797329228214815, ,0.03255469693258002,-0.00041391025443482924,0.002836831971504898,0.0007316523333006285,0.013414351273893305,0.029988965156214818, ,0.7248668670654297
0.01060286065654852,0.020458870459595338,-0.08197025434524896, ,0.01082287128004005,0.02052976882020616,-0.08213463612178354, ,0.00028364171139502275, ,0.0027714685512382578,0.000741906022525,-0.0025235124593773325,0.03366215802010819,-0.011386542250858698,0.00017728961434910996, ,0.0038209393621718452, ,0.0355358161141543, ,3.304423699090683e-05, ,0.14840003491109818,-0.24200728007957345,0.09177992458,1.606434657034941,0.18063345268991227,-1.2796068432552834, ,0.030681196753466145,-0.00028749739576350725,0.002980690778443114,0.003372188910081795,0.01874731269341526,-0.03291902155788775, ,0.7533519268035889
0.010657499911484855,0.020474070666268947,-0.08202316940196569, ,0.010899497634952317,0.020551147967586003,-0.0822074297109155, ,0.00031377646501297077, ,0.0027239063026968094,0.0008227985469035139,-0.00282863282832996,0.020446217482101976,-0.01124733207097726,-0.0068528701089197504, ,0.004012209699425478, ,0.02333560129628463, ,3.34278035307981e-05, ,0.14901785354103614,-0.24200728007957345,0.09184214650000001,1.6066443469784255,0.18117999868897403,-1.2798074786496474, ,0.029190077378797533,-0.00024411955393041578,0.0032849683481130138,0.01045502951575945,0.01573800116801101,-0.01871208079481545, ,0.7792530059814453
0.010742869331983079,0.020499874855208367,-0.08211289777969702, ,0.010975940549284007,0.0205721812705166,-0.0822803947320337, ,0.00029598249791320614, ,0.002775407526257482,0.0008690104261487758,-0.003085344948059587,0.00012961245308621436,-0.011564297492248729,-0.002364590351990159, ,0.004239978715286053, ,0.011565023804456141, ,3.370702818484143e-05, ,0.14990596782157195,-0.24201500281244767,0.09194584970000001,1.6068540369219102,0.18145327168850492,-1.2797852782366184, ,0.029379858067638008,-9.748902371497428e-05,0.0035531589382110196,0.006728240260762212,0.016708857563289502,0.0009408793542902806, ,0.8042759895324707
0.01079558883068508,0.020518773238039804,-0.0821805994614778, ,0.01105220031624091,0.02059287107490812,-0.0823535306934089, ,0.00031819043814191174, ,0.0025665967134101625,0.0009746419642860059,-0.0034711111655771243,0.04010455686273929,0.03534938623750356,0.006263197333774694, ,0.00442560259983082, ,0.05345984089034494, ,3.4066160240946335e-05, ,0.15051606371863568,-0.24201500281244767,0.0920236271,1.6070637268653947,0.182409727186863,-1.2803201673420717, ,0.03149583191452731,-9.232757463620154e-05,0.003998195662650603,0.008816049945375427,0.06636563014896862,-0.03875966030364352, ,0.8290340900421143
0.010886088637382581,0.020545472867273047,-0.08227563244170638, ,0.011128277230063982,0.02061321972019127,-0.08242683710107611, ,0.00029344130506872465, ,0.002932832252188029,0.0007522383265413012,-0.0025756810804398716,-0.020382037185954195,-0.015996656239745048,-0.004569890679346221, ,0.003975110130238893, ,0.025909852384543484, ,3.4299118645107775e-05, ,0.15148140532791377,-0.24201500281244767,0.09213381175,1.6072734168088794,0.18295627318592475,-1.2799490515554517, ,0.031780623428824775,-8.005589858718494e-05,0.003054422151486098,0.009151420813341334,0.01420558746175398,0.021814707684649975, ,0.8541159629821777
0.010936257525406149,0.02055843239368626,-0.08232062397012502, ,0.011204171586026804,0.020633229539324893,-0.08250031345884427, ,0.00033115082550119523, ,0.002817631723476608,0.0007440591617752756,-0.002531663596918459,0.008393249970734214,0.007987380132297555,0.0013657087266548541, ,0.003860309978916926, ,0.01158640955365606, ,3.4673838789080787e-05, ,0.15211466942360016,-0.24201500281244767,0.09218825593,1.6072734168088794,0.1840493651840483,-1.2804320010843204, ,0.03326215967699642,-7.297448737950502e-05,0.0030357940766152095,0.008513897618561205,0.0403468766305623,-0.007083148595129981, ,0.8790180683135986
0.011030869669354213,0.020583617485015287,-0.08240550871950766, ,0.011279883680432746,0.020652902858802856,-0.08257395926830367, ,0.0003085190887513761, ,0.0026829895205645084,0.0008607933959527891,-0.002921596642531924,0.0465258787100935,0.05071301308891246,0.0038991370764182155, ,0.004058956144087876, ,0.06882199565611037, ,3.493704765799203e-05, ,0.15317268382736893,-0.24201500281244767,0.09228936655000002,1.6079024866393328,0.18486918418264095,-1.2801203636248122, ,0.03563535169300442,-6.382559546356854e-05,0.003490863800131493,0.01572960817002449,0.08472237555532267,-0.04415139379398968, ,0.9051730632781982
0.011093044603272652,0.02060065954194151,-0.08246416104208612, ,0.01135541381061216,0.020672241998662508,-0.08264777402883536, ,0.00032813926612514896, ,0.0033478211448254463,0.0008230111592930121,-0.0029352832193053065,-0.03212015769976206,-0.022240263379449964,0.01389101387783696, ,0.004527818609838132, ,0.039068322790042964, ,3.5262261403202946e-05, ,0.15390634345042026,-0.24201500281244767,0.09235936621000002,1.6081121765828172,0.185825639680999,-1.2804102165098437, ,0.036178780617030414,-5.866472703212754e-05,0.003480946573426574,-0.009066840532805352,0.016882810584988785,0.030851679929639254, ,0.9304020404815674
0.011172136087029385,0.020620521888401973,-0.08253319037834314, ,0.011430762274919655,0.020691249272491444,-0.0827217572376186, ,0.0003277915928449103, ,0.0034947202724013144,0.0008653858669517063,-0.002955064515120479,-0.020542007064286546,-0.03251308165546541,-0.013926980861815217, ,0.004657721413907953, ,0.03845873805442427, ,3.570415503219797e-05, ,0.15473267586796227,-0.24202272554532192,0.09244103248,1.6079024866393328,0.18596227618076444,-1.2799498832325562, ,0.03598670517954902,0.0,0.003506231899625798,0.015343552768267465,0.0,0.02285244370388375, ,0.9517130851745605
0.011234626049727742,0.020640138516797652,-0.082596457095464, ,0.01150592937273117,0.020709926987435245,-0.08279590838963966, ,0.0003438847807841779, ,0.003181761273721217,0.0009634490678703193,-0.0033471769942933238,0.024475234334057867,0.018201970028583973,-0.009270308552768046, ,0.004717566400217249, ,0.03050161976368427, ,3.6186161911718376e-05, ,0.15545861275813938,-0.24203044827819614,0.09251621730000001,1.6085315564697864,0.1869187316791225,-1.2804030935978687, ,0.03698244020205409,0.00016878836167133273,0.003945705107753283,0.021827000286834316,0.05130103627614531,-0.021365149657701015, ,0.9742140769958496
0.011303222688778577,0.020660359275930868,-0.08266608174677739, ,0.011580915404441146,0.02072827744420526,-0.08287022697769958, ,0.0003512853501387067, ,0.0035087776668351243,0.0008657549435593208,-0.0034042405928959383,-0.04252476570923384,-0.03491562240611871,0.04528886921239502, ,0.004964867203853375, ,0.0550223262519379, ,3.6674046925058e-05, ,0.15619999511406493,-0.24203044827819614,0.09259788357000001,1.6089509363567556,0.1874652776781843,-1.2802770140316708, ,0.03658324655299568,0.0001544094936707759,0.003963376840009953,-0.04275803470171596,0.01258934022443998,0.035942687162798526, ,0.995358943939209
0.011399618339906369,0.0206872714521989,-0.08276412200892251, ,0.011655720671459723,0.020746302937085723,-0.08294471249242369, ,0.0003188824911565328, ,0.0033473440785140294,0.0008695687310543755,-0.0032386905862781972,-0.00524363492221528,-0.014805164237627415,0.027479829644723147, ,0.0047381408665886525, ,0.015706323406331338, ,3.702578432579175e-05, ,0.15728890044933058,-0.24202272554532192,0.09271325338000001,1.6089509363567556,0.18869500617607327,-1.2805446665036735, ,0.036484791064387075,6.712776464382193e-05,0.0038098090217651287,-0.021594871546483915,0.027698432239695463,0.0018988297243095103, ,1.0174040794372559
0.011466005991847838,0.02070585854332426,-0.08283009100341873, ,0.01173034547620976,0.020764005753941422,-0.08301936442226825, ,0.0003302739592796672, ,0.0033271462185639916,0.0009598772261436156,-0.003395660878256559,0.00861821343077234,0.007095330532409369,0.0059359656420286365, ,0.004849925674595018, ,0.011163212693979407, ,3.740250646281237e-05, ,0.1580225600723819,-0.24202272554532192,0.09279103078,1.6089509363567556,0.18937818867490044,-1.280448326101031, ,0.0377024003013392,6.337696059476816e-05,0.004008256547559135,0.004866987921315173,0.044902226896291024,-0.007943218808517553, ,1.0384938716888428
0.011534835182853673,0.020726040595730834,-0.08290179976796064, ,0.011804790122124006,0.020781388176225244,-0.08309418225353017, ,0.00033608041397401625, ,0.003513461802087597,0.0010147210397816859,-0.003584076064777571,-0.006092005392441394,-0.010668968231349323,-0.002570145791318444, ,0.005120514999628039, ,0.012285740198769858, ,3.778361695836575e-05, ,0.15878711062693016,-0.24201500281244767,0.09287528963000001,1.6093703162437245,0.1901980076734931,-1.2803817248619445, ,0.037375715462178334,6.424396740406478e-05,0.004199528478776695,0.009341999155483354,0.025286875214373995,0.007472909393227601, ,1.0604660511016846
0.011604114637609762,0.020748074665810665,-0.08297967645831646, ,0.01187905491364199,0.020798452478985593,-0.08316916547035404, ,0.0003376924120082413, ,0.003283637531441085,0.0009808007848624073,-0.0036900656749686888,0.016518517925056805,0.01064567038286228,0.03738716652389211, ,0.00503595376299836, ,0.019651761540808343, ,3.8154823347188646e-05, ,0.15954393844860415,-0.24201500281244767,0.09296602993000001,1.609580006187209,0.19101782667208575,-1.280478481103139, ,0.03768742714792326,6.424396740406478e-05,0.004312076751488901,-0.025603022701494286,0.05596573435811083,-0.020531287210807988, ,1.0820178985595703
0.01167113384252161,0.020765028787962034,-0.08304291535960388, ,0.011953140156207381,0.02081520093087356,-0.08324431355474138, ,0.00035015144992933114, ,0.0036878518100759775,0.0009292966070450943,-0.003276085030740882,-0.004022403351623412,-0.013067201180707155,-0.0028918953587391185, ,0.005019619137503429, ,0.013672288581025795, ,3.8552274199143405e-05, ,0.16030076627027814,-0.24200728007957345,0.09304121475,1.6093703162437245,0.1918376456706784,-1.2805752373443338, ,0.03987266452036587,0.00026250299176177374,0.003910830228332925,0.009572600434721875,0.025314221509188838,0.005246223715574248, ,1.1042320728302002
0.01174537323957158,0.020784952980667674,-0.08311018316098481, ,0.012027046156264801,0.02083163579415102,-0.08331962598655877, ,0.0003540977467558807, ,0.0036961491887503987,0.0009753213657868689,-0.003405788802941781,-0.0004914200555380994,-0.007508810362444666,-0.0074613119490407115, ,0.005119782022928731, ,0.007524873837607255, ,3.9072714120950384e-05, ,0.1611039304891975,-0.24200728007957345,0.09312158473000001,1.6097896961306934,0.19238419166974016,-1.2803674790379946, ,0.04012555668434282,0.000246159930872729,0.004057262231278656,0.01539697949004009,0.02984141777800216,0.0026499637086238974, ,1.1221740245819092
0.011816407133823474,0.020806318987290493,-0.0831873913658805, ,0.012100773221256834,0.02084775932469743,-0.08339510224354489, ,0.0003545774695982072, ,0.0036791676199772567,0.0011486409648011114,-0.004017695698916091,0.011044232329746493,0.007715105159579318,-0.005917039855472345, ,0.005567542471413864, ,0.013472116178608813, ,3.957815507013596e-05, ,0.16190709470811684,-0.24199955734669923,0.09321232503000002,1.6099993860741781,0.19347728366786368,-1.2806870710865823, ,0.04029594121378802,7.3303018524414e-05,0.004711272262644188,0.01728613005026217,0.04514414633763851,-0.008413215985972156, ,1.1398189067840576
0.01189372129706563,0.0208317377289236,-0.08327949301281914, ,0.012174321659621207,0.02086357377201796,-0.08347074180132026, ,0.0003410662636634876, ,0.004051217911137027,0.0013939134558679945,-0.004995706918862281,7.106259263683546e-05,-0.005972736998195136,-0.006691252323930609, ,0.00658121940867616, ,0.005973159467992979, ,4.002557847111348e-05, ,0.1627102589270362,-0.24199955734669923,0.09331862081,1.6099993860741781,0.1941604661666909,-1.2805090519437994, ,0.04136745490779023,7.3303018524414e-05,0.005744252261089074,0.01534131901102793,0.03271614038058158,0.002267085456145356, ,1.1588928699493408
0.01193314276667664,0.02084471191974563,-0.08332905812865252, ,0.012247691780787563,0.020879081379249795,-0.08354654413339455, ,0.00038395638330858916, ,0.0038717794737526596,0.0013085396817937957,-0.004692736323632018,0.017975882787589152,0.01937018446119962,0.001234669595389757, ,0.006222919459171618, ,0.026426055433572765, ,4.059120459712278e-05, ,0.16313500923511853,-0.241991834613825,0.09337565757,1.6099993860741781,0.19470701216575265,-1.2804646511177418, ,0.04274637007138323,0.00019279127360523392,0.005453204902430675,0.013427694527385025,0.06056345211163504,-0.016072669901975464, ,1.1767818927764893
0.012012111990303342,0.020868321301074123,-0.0834129747913804, ,0.012320883895174611,0.020894284383171157,-0.08362250871117491, ,0.00037405699353742664, ,0.003943190221411728,0.0011530186912537253,-0.004127608459035157,-0.012451819789043368,-0.007410006897858589,-0.00477292307811955, ,0.005823688935349836, ,0.014489859112048866, ,4.110969238667373e-05, ,0.16398450985128324,-0.2419841118809508,0.09347417561000002,1.6104187659611469,0.1955268311643453,-1.2805614073589362, ,0.04154857336185235,0.00032650726879166484,0.00484011288969918,0.013554543202914613,0.031972546064347504,0.014287183373078341, ,1.1953558921813965
0.012092290812758576,0.02089219381572134,-0.08349929015523802, ,0.012393898314187073,0.020909185014207462,-0.08369863500397451, ,0.0003619311460232575, ,0.0036294574895801156,0.0011323208012199134,-0.004095518192884559,-0.0039101780730493385,0.01839870655171286,0.0068855193747925135, ,0.005588235976924463, ,0.01880962238288568, ,4.15765063690316e-05, ,0.16484173320032217,-0.24197638914807656,0.09357528623000001,1.6106284559046316,0.19634665016293792,-1.2805764848599903, ,0.040710828639412604,0.00033539971712643273,0.0048065212794206405,0.00789093139913463,0.0590265595770899,0.004839131199859122, ,1.2130110263824463
0.012169519885876653,0.02091353953284015,-0.08357828463265037, ,0.012466735350212487,0.020923785496439227,-0.08377492247901981, ,0.00035652272667426515, ,0.0040840448218060765,0.0010465914808376017,-0.0039055217659501994,-0.034934819330953534,-0.01827875190542129,0.006364618648333842, ,0.0057469884373116354, ,0.039427837526266385, ,4.201368341264662e-05, ,0.16569123381648684,-0.24196094368232812,0.09366861911,1.610838145848116,0.197303105661296,-1.2805396227844597, ,0.04274637007138323,0.0006979228649926668,0.004615708930744713,0.0009202979583105699,0.0253089317186013,0.034416556877343255, ,1.2309808731079102
0.012247664378565271,0.020934208969944912,-0.08365679776355302, ,0.012539395316618296,0.020938088047609618,-0.08385137060145997, ,0.0003506858661423256, ,0.0036712157775867465,0.0010425927983062006,-0.003957849349108513,0.03855964405372815,0.042754868164147815,0.002483315337688304, ,0.005498126635402325, ,0.057574516066682666, ,4.242127022157153e-05, ,0.16657934809702268,-0.24193777548370543,0.09376195199000001,1.6110478357916007,0.19853283415918496,-1.280725596516322, ,0.04399487323063087,0.0012783413544685514,0.004705705028064994,0.017304705258549977,0.0848087470721288,-0.03706060073883792, ,1.2493219375610352
0.01228920717458439,0.020945933955265162,-0.08370083202348613, ,0.012611878527748732,0.020952094879131328,-0.08392797883437364, ,0.0003946522935853243, ,0.00414687360478498,0.0011622453626917023,-0.004454416244777297,0.009968174382551443,0.007768595168986226,-0.003717592424806615, ,0.006195901795452911, ,0.012637862543438913, ,4.306587541555159e-05, ,0.1670349893366019,-0.2419300527508312,0.09381380359000001,1.6110478357916007,0.19907938015824675,-1.2808445531705452, ,0.04486853028769304,0.001339224370903372,0.005224274030829781,0.01605668948127091,0.050213017529389725,-0.008708871064792113, ,1.2637388706207275
0.012332062294498724,0.020957015387651157,-0.08374504744276068, ,0.012684185298921688,0.020965808196094733,-0.08400474663877855, ,0.0004376203790233142, ,0.004410774709711892,0.0010816899418648483,-0.004113045490356838,-0.013060455934108798,-0.022854736531716806,-0.008536688177215803, ,0.006127163281316267, ,0.026323268983237568, ,4.381759461487484e-05, ,0.16793082635001197,-0.24189916181933432,0.09391491421,1.6112575257350852,0.19976256265707393,-1.2806665340277623, ,0.04426163318958525,0.0013533925957430668,0.005374092955465587,0.0034555292900662017,0.026658531670935823,-0.017400282868069272, ,1.278404951095581
0.012416817303128685,0.0209802196628006,-0.08383465804204056, ,0.012756315946425612,0.020979230197274674,-0.08408167347363805, ,0.0004198534640678562, ,0.004271412786458108,0.0012086887053073738,-0.0048019282429364405,0.01841944557045562,0.010836521210303176,0.0024380858634680917, ,0.006539450315505584, ,0.02137068469916596, ,4.450270129725119e-05, ,0.16838646758959122,-0.24188371635358588,0.09397065468000002,1.6114672156785694,0.20030910865613571,-1.2809488481622668, ,0.04606647648469455,0.0017351899744141332,0.005600847932489452,0.010629904427711409,0.055862664843980656,-0.018414467276444284, ,1.2930989265441895
0.012463475697443696,0.020994231360577,-0.08388404189081515, ,0.012828270787516492,0.020992363075138246,-0.08415875879587043, ,0.000456670916694778, ,0.00432430465161426,0.001257491718076144,-0.004735162205801588,0.0017091855138019149,0.009799939059517626,-0.004777698010207274, ,0.006534727022321175, ,0.009947870038873447, ,4.527461296347217e-05, ,0.1688884452264158,-0.24187599362071163,0.09402898773000001,1.6118865955655386,0.20085565465519745,-1.2810678048164903, ,0.04649531678514002,0.001190540312038407,0.005553978912133891,0.018361387180919807,0.053499548872085134,0.00012805041314100166, ,1.3073790073394775
0.012555029404287349,0.021020959486819753,-0.08399571822198551, ,0.012900050140414666,0.021005209015851973,-0.08423600206035657, ,0.0004207418551509614, ,0.004783197338749677,0.001379164134633967,-0.0057647758761372155,-0.04128390798987595,-0.0017891282715628287,-0.005826348360131646, ,0.007616673249770942, ,0.0413226576168811, ,4.593117023277922e-05, ,0.1698306186370712,-0.2418296572234663,0.09415732044000001,1.6118865955655386,0.20181211015355555,-1.2810309427409596, ,0.04866509823511321,0.002785815920928273,0.006625961530782031,0.018361387180919807,0.04417155364978478,0.04158166296734617, ,1.3214659690856934
0.012603593001486387,0.02103512430037371,-0.08405146872182936, ,0.012971654324301661,0.021017770199289368,-0.08431340271994812, ,0.00045208375501388403, ,0.004591386769464244,0.0014474012993319337,-0.005417693318733045,0.0489091187346057,0.020372984270404362,-0.0031750693175575974, ,0.00724756537631526, ,0.05298264224074271, ,4.665843059614715e-05, ,0.17034031900677002,-0.24181421175771783,0.09422213494000001,1.6118865955655386,0.2023586561526173,-1.2810682206550426, ,0.04945124625246002,0.0010982386864854005,0.006320956952380953,0.018361387180919807,0.06700599026929502,-0.04700670331040144, ,1.3368849754333496
0.01269797663909595,0.021061127834431793,-0.08416525165700064, ,0.013043083659317056,0.021030048799038067,-0.08439096022547554, ,0.00041353248932808563, ,0.0050438409328331536,0.0014547989644762877,-0.005778016453682605,0.013952187861523729,-0.004414873666926324,-0.004357785552227359, ,0.007806551448737874, ,0.01463402368380108, ,4.726673828232275e-05, ,0.17132110608179651,-0.24175242989472406,0.09435306023000001,1.6118865955655386,0.20345174815074082,-1.2813878127036298, ,0.051490472902046,0.002027542510238589,0.006701224871687001,0.015024077402011895,0.04468939073013137,-0.013486023185161396, ,1.3510329723358154
0.012729697240109401,0.021070752564028343,-0.08420078936435346, ,0.013114338466555466,0.02104204698240767,-0.08446867402575645, ,0.0004696116217824101, ,0.004937446815244146,0.0013894076733395105,-0.005437389548448726,0.014955724711277724,-0.008531603801318963,0.0014755946278879719, ,0.0074748939683234785, ,0.017218070748762006, ,4.8138577130555306e-05, ,0.17164546086251395,-0.24174470716184981,0.09439454151000001,1.6120962855090233,0.20372502115027172,-1.281365612290601, ,0.05053085280003769,0.001632260307749818,0.0063385640748109835,0.008038246841517757,0.04116612745478226,-0.015248637041277737, ,1.3617939949035645
0.01280143329797809,0.021088317792954944,-0.08427616585443207, ,0.013185419068063099,0.021053766910436426,-0.08454654356760244, ,0.0004708958938978193, ,0.005264460231370927,0.001213627562227031,-0.005549733164672875,0.020833962898208023,-0.002658671846608847,-0.0027898067300172963, ,0.00774512566628542, ,0.021002917434664117, ,4.900000236144225e-05, ,0.17239456595131372,-0.24169064803173027,0.09448268923000001,1.612725355339477,0.2044082036490989,-1.281595986848521, ,0.05491721155004096,0.0041787077746725885,0.006469866580016247,0.014056905031609392,0.050198503603838276,-0.022611275386068948, ,1.3724548816680908
0.012856303065656223,0.021102721322575742,-0.08433865353961813, ,0.013256325786834985,0.021065210737899562,-0.08462456829582969, ,0.0004931252064552458, ,0.005496317326853994,0.0015739176012128458,-0.006714311323048086,0.02913857922440851,0.018350950113394878,-0.030936472815850206, ,0.008818656208045235, ,0.034435652391603906, ,4.990608927079021e-05, ,0.17297377091688057,-0.24165203436735913,0.09455528147000002,1.6129350452829614,0.2050913861479261,-1.2819080401465812, ,0.05672261898294727,0.004188120310330227,0.007736188207867897,0.047259772998090116,0.06550316172364311,-0.025361322337543825, ,1.383552074432373
0.012916159158759157,0.021122133374249473,-0.08441824317831054, ,0.013327058946811292,0.02107638061331549,-0.08470274765326417, ,0.000501871245662686, ,0.006027037912216483,0.00200502815672704,-0.00834157101718071,0.010228550035605945,-0.00823649919995974,0.03784283288734545, ,0.010484614010025943, ,0.013132521255076995, ,5.082077233014167e-05, ,0.17356069861532164,-0.24162114343586225,0.09464602177,1.613144735226446,0.20563793214698786,-1.2820269968008047, ,0.058759716135276016,0.002457527884884669,0.009470161426872773,-0.025852540329112186,0.05830752363164365,-0.016971604730177024, ,1.394299030303955
0.012971881069523617,0.021139211163939863,-0.08449608270469221, ,0.013397618872874665,0.021087278678954484,-0.08478108108075173, ,0.000514950225318427, ,0.0058655390158915644,0.0016914437966461247,-0.008019720764707803,0.03179032831788613,0.011570948893943325,0.03455370909826362, ,0.010078762384739724, ,0.03383063404211283, ,5.175501951655405e-05, ,0.1741167353822658,-0.2415748070386169,0.09473416949,1.613144735226446,0.20632111464581507,-1.2823390500988652, ,0.059422004732918456,0.005200478982633806,0.009096979737292977,-0.01892655136329957,0.07748653210068132,-0.0401014806368055, ,1.4049570560455322
0.013032703570267382,0.021156519731589985,-0.08457575373814846, ,0.013468005890846617,0.021097907070844822,-0.0848595680171654, ,0.0005229475110134872, ,0.006222313162066475,0.001813635210386971,-0.008236615624618566,-0.012144287840149658,-0.009628003328071188,0.0121156373949445, ,0.010480853529693647, ,0.01549781072669979, ,5.269538384510603e-05, ,0.17472683127932953,-0.24152847064137153,0.09482490979000001,1.6129350452829614,0.2070042971446423,-1.282569424656785, ,0.06032863417576019,0.00488518687421024,0.009347894084507044,0.0,0.05233175991281918,0.007335482379304252, ,1.4154999256134033
0.013099010346225726,0.021174138550408377,-0.08466035081401767, ,0.013538220327484581,0.021108267918780958,-0.08493820789941299, ,0.0005238787146399272, ,0.006594629207588444,0.0017260162640314117,-0.008139609134279436,-0.0005952970763733902,-0.01882701848025253,0.010124440675781209, ,0.010617038352955346, ,0.018836426618022983, ,5.3623791365676106e-05, ,0.17536009537501593,-0.24146668877837774,0.09492083525000002,1.6129350452829614,0.20741420664393861,-1.2824952846671716, ,0.06407626033657716,0.005718939502924955,0.009282524195804198,0.0,0.04659470660903013,-0.005048882667732809, ,1.4262890815734863
0.01316676966363378,0.021192230721198684,-0.08474027580870093, ,0.013608262510478543,0.021118363346330802,-0.08501700016244636, ,0.0005262591479877474, ,0.0066415895530809585,0.001606964532179126,-0.0075036794617100114,0.0038871942015580936,-0.009938620379298163,-0.005625200321157644, ,0.010148805459923076, ,0.010671758524989755, ,5.454416359210109e-05, ,0.17603197313507346,-0.2414126296482582,0.09501287184000001,1.6133544251699303,0.20796075264300035,-1.282450883841114, ,0.0665010102021519,0.005759835352856934,0.008666382763873775,0.018227802491060038,0.053752851137346506,-0.006459798779170384, ,1.4378750324249268
0.013227691820527654,0.02120651405457934,-0.08480707813303613, ,0.013678132768447891,0.02112819547084247,-0.08509594423926799, ,0.0005408090933512344, ,0.00653270108457749,0.0014438455656556794,-0.007070194708669117,0.005088406112186125,0.004215586496075092,-0.005738502672249075, ,0.009733885488148927, ,0.006607800587310831, ,5.562617052485054e-05, ,0.1766652372307599,-0.2413585705181386,0.09509064924,1.6135641151134148,0.20864393514182755,-1.2825995796588932, ,0.06754230715905395,0.006482541266142112,0.008223444254001034,0.021904860550573873,0.06849973157488357,-0.007729036090667635, ,1.4451320171356201
0.013297082788242761,0.02122062830578242,-0.08487931879477528, ,0.013747831430938273,0.021137766403452704,-0.08517503956094026, ,0.000545427543575448, ,0.006935270516325726,0.001357090836906351,-0.0071246636001482,0.01034010462172695,-0.005222522750617035,-0.007632711053215163, ,0.010034964080130472, ,0.011584148182370664, ,5.6708901703218995e-05, ,0.17738345138806277,-0.2412890659222706,0.09517490809000001,1.6135641151134148,0.2093271176406548,-1.2827482754766724, ,0.07129747675317114,0.007724688893775733,0.008309239186228482,0.021904860550573873,0.06258067983969728,-0.014202787014789829, ,1.4522418975830078
0.013297082788242761,0.02122062830578242,-0.08487931879477528, ,0.01381735882841816,0.021147078249093072,-0.08525428555659265, ,0.0006455205971054676, ,0.006935270516325726,0.001357090836906351,-0.0071246636001482,0.01034010462172695,-0.005222522750617035,-0.007632711053215163, ,0.010034964080130472, ,0.011584148182370664, ,5.8029256030015585e-05, ,0.17738345138806277,-0.2412890659222706,0.09517490809000001,1.6135641151134148,0.2093271176406548,-1.2827482754766724, ,0.07129747675317114,0.007724688893775733,0.008309239186228482,0.021904860550573873,0.06258067983969728,-0.014202787014789829, ,1.4594080448150635
0.013371654051082708,0.021234683618252398,-0.08495771533567517, ,0.013886715292275715,0.02115613310649809,-0.08533368165343008, ,0.0006425020911735088, ,0.007529465987699178,0.0014820596525480538,-0.008243288697307007,0.015054734527628906,-0.020831505779920313,-0.004741517591611566, ,0.011262378408701203, ,0.02570207436556972, ,5.932911671918467e-05, ,0.17813255647686255,-0.24119639312777988,0.09526564839000001,1.6137738050568995,0.20987366363971652,-1.2827855533907553, ,0.07448739525782637,0.009400590961365491,0.009487082501488983,0.015424447868361925,0.05130865078070989,-0.02166747653714883, ,1.4666109085083008
0.013451471251398093,0.021251463914110362,-0.08504941966764551, ,0.013955901154815644,0.02116493306821243,-0.08541322727674076, ,0.0006279276162021044, ,0.007869745024684377,0.0017045240517312853,-0.009328639047734138,0.019716103466485866,-0.009145675014955536,-0.005427530046391075, ,0.012323221797865404, ,0.021734029463809246, ,6.058039284391129e-05, ,0.17885849336703966,-0.2411037203332892,0.09536287014000001,1.6137738050568995,0.21042020963877828,-1.2829045100449787, ,0.07702673827797953,0.010152744824791208,0.01059096510638298,0.015424447868361925,0.06534396755216135,-0.024645428373201807, ,1.4741089344024658
0.013530440417457597,0.021269451688226634,-0.08514606671811623, ,0.014024916749255767,0.021173480220598073,-0.08549292184990483, ,0.0006115765264915267, ,0.008437211051425272,0.0020348532032062115,-0.01098564710961918,-0.009399625464647518,-0.006160605635258609,-0.0007373013578391248, ,0.014000414290369252, ,0.011238588019221774, ,6.177945333487389e-05, ,0.17968482578458167,-0.24099560207305004,0.09548083253,1.6141931849438687,0.21110339213760548,-1.2831348846028985, ,0.08103923275702031,0.011126434606665842,0.012434669414519907,0.017248843619636297,0.07294953366293445,0.0014519802156015126, ,1.4812278747558594
0.013530440417457597,0.021269451688226634,-0.08514606671811623, ,0.014093762409723942,0.02118177664384182,-0.08557276479440143, ,0.0007121024004202594, ,0.008437211051425272,0.0020348532032062115,-0.01098564710961918,-0.009399625464647518,-0.006160605635258609,-0.0007373013578391248, ,0.014000414290369252, ,0.011238588019221774, ,6.321143263840312e-05, ,0.17968482578458167,-0.24099560207305004,0.09548083253,1.6141931849438687,0.21110339213760548,-1.2831348846028985, ,0.08103923275702031,0.011126434606665842,0.012434669414519907,0.017248843619636297,0.07294953366293445,0.0014519802156015126, ,1.4884090423583984
0.013616583420964277,0.021291684644245988,-0.08526613953011888, ,0.014162438471254596,0.021189824411962724,-0.0856527555298169, ,0.0006766130164804247, ,0.008928601093343386,0.0022743473417049156,-0.012591404587289285,0.020755275044670795,-0.004483976070938781,-0.024252736003304236, ,0.015602437078725316, ,0.02123410386822907, ,6.454361218126901e-05, ,0.18048799000350102,-0.24087203834706244,0.09561564669000001,1.6146125648308374,0.21178657463643272,-1.2832835804206777, ,0.08280710432676333,0.013433881874075704,0.014108779025686451,0.03979056091272757,0.0707069048701093,-0.027030478354334336, ,1.495609998703003
0.013708618945117261,0.021312330705489557,-0.0853907671224266, ,0.014230945269785607,0.02119762559281907,-0.08573289347385346, ,0.0006348484013171535, ,0.00905756702673556,0.0020741193579169913,-0.011950685622414463,-0.00016805429759813955,-0.011459856733378843,-0.023064770909741544, ,0.01513804407446606, ,0.011461078257981368, ,6.576231381248496e-05, ,0.1813606588182884,-0.24072530642245218,0.09575564601000001,1.6146125648308374,0.21260639363502531,-1.283462015402013, ,0.08488098529380213,0.013898204680502459,0.013464760371935757,0.0380659487954667,0.06625857120901761,-0.006830601392327919, ,1.5028400421142578
0.013708618945117261,0.021312330705489557,-0.0853907671224266, ,0.01429928314215502,0.02120518224811617,-0.08581317804233668, ,0.000734027227586984, ,0.00905756702673556,0.0020741193579169913,-0.011950685622414463,-0.00016805429759813955,-0.011459856733378843,-0.023064770909741544, ,0.01513804407446606, ,0.011461078257981368, ,6.72071641721061e-05, ,0.1813606588182884,-0.24072530642245218,0.09575564601000001,1.6146125648308374,0.21260639363502531,-1.283462015402013, ,0.08488098529380213,0.013898204680502459,0.013464760371935757,0.0380659487954667,0.06625857120901761,-0.006830601392327919, ,1.5102190971374512
0.013815095707171487,0.021333359506030443,-0.08552666750752294, ,0.014367452426097676,0.021212496433413396,-0.0858936086492232, ,0.0006740561020698696, ,0.009529867973121041,0.001738110808908132,-0.011913206904355588,-0.0044844686453790784,-0.012282411980549702,-0.012705363196053459, ,0.015354605547364187, ,0.013075467988902509, ,6.849509203302652e-05, ,0.18235689135906336,-0.24054768356634504,0.09590860823000001,1.6146125648308374,0.21328957613385255,-1.2835290324796516, ,0.09081047039088112,0.01745070642855292,0.013442035037974686,0.028427503525287792,0.07388377399753417,-0.00768144982343805, ,1.517637014389038
0.013918026386753657,0.021351790286586188,-0.08565509402651958, ,0.01443545346024201,0.021219570198131567,-0.08597418470660954, ,0.0006221187911403623, ,0.009814250070957924,0.0017876823942510468,-0.011968996614418735,0.028937224441900132,-0.006002129347921366,-0.005919699293181272, ,0.015581148633973682, ,0.02955314314038264, ,6.964741651538831e-05, ,0.1833145102354672,-0.24036233797736364,0.09604860755000001,1.6146125648308374,0.21424603163221062,-1.2839822428449645, ,0.09499193349196275,0.0170739369482675,0.01361436882051282,0.023196995772525108,0.0854720720686533,-0.03206168238986576, ,1.52475905418396
0.013918026386753657,0.021351790286586188,-0.08565509402651958, ,0.014503286584106741,0.021226405585560593,-0.08605490562473907, ,0.0007197917309387972, ,0.009814250070957924,0.0017876823942510468,-0.011968996614418735,0.028937224441900132,-0.006002129347921366,-0.005919699293181272, ,0.015581148633973682, ,0.02955314314038264, ,7.118804285288453e-05, ,0.1833145102354672,-0.24036233797736364,0.09604860755000001,1.6146125648308374,0.21424603163221062,-1.2839822428449645, ,0.09499193349196275,0.0170739369482675,0.01361436882051282,0.023196995772525108,0.0854720720686533,-0.03206168238986576, ,1.5283539295196533
0.013918026386753657,0.021351790286586188,-0.08565509402651958, ,0.014570952138097549,0.021233004632866002,-0.08613577081201083, ,0.0008194340976600396, ,0.010505718937108725,0.0017883259368194709,-0.012816132393585039,-0.019415494698947586,-0.027183067572213827,-0.002295284149093948, ,0.016667977968899704, ,0.033404793836698095, ,7.295694605573833e-05, ,0.1833145102354672,-0.24036233797736364,0.09604860755000001,1.6146125648308374,0.21424603163221062,-1.2839822428449645, ,0.09499193349196275,0.0170739369482675,0.01361436882051282,0.023196995772525108,0.0854720720686533,-0.03206168238986576, ,1.5323760509490967
0.01402014067064863,0.021369745995217508,-0.08577877389612482, ,0.014638450463503807,0.02123936937109763,-0.08621677967498688, ,0.0007688654800249978, ,0.010505718937108725,0.0017883259368194709,-0.012816132393585039,-0.019415494698947586,-0.027183067572213827,-0.002295284149093948, ,0.016667977968899704, ,0.033404793836698095, ,7.459823976792998e-05, ,0.18431846550911637,-0.24017699238838225,0.09619379203,1.6150319447178065,0.21492921413103783,-1.2841309386627437, ,0.09895405793375472,0.01935487284488492,0.014480737745454548,0.01651722488636731,0.06994530289010077,0.0033251645228238383, ,1.536383867263794
0.01402014067064863,0.021369745995217508,-0.08577877389612482, ,0.01470578190249535,0.021245501825195287,-0.08629793161840103, ,0.0008689449080303236, ,0.010505718937108725,0.0017883259368194709,-0.012816132393585039,-0.019415494698947586,-0.027183067572213827,-0.002295284149093948, ,0.016667977968899704, ,0.033404793836698095, ,0.0004166486996106747, ,0.18431846550911637,-0.24017699238838225,0.09619379203,1.6150319447178065,0.21492921413103783,-1.2841309386627437, ,0.09895405793375472,0.01935487284488492,0.014480737745454548,0.01651722488636731,0.06994530289010077,0.0033251645228238383, ,1.5400619506835938
0.014126331610783622,0.02138950178211473,-0.08591452637207536, ,0.014772946798118924,0.02125140401399783,-0.08637922604516576, ,0.0008081633375883012, ,0.011635874984758517,0.0024337105036828454,-0.01595610020941061,0.04053606700284314,0.009945866590133757,-0.07625330169650231, ,0.019897579434931742, ,0.041738375100356856, ,0.0004216045811040624, ,0.18531469804989134,-0.2399684786007782,0.09634675425000001,1.6158707044917449,0.21574903312963048,-1.2843910523842195, ,0.10734948140098505,0.02290536846692512,0.01787745400673401,0.09820362841081909,0.09644415479390363,-0.045450037419984046, ,1.5442650318145752
0.014126331610783622,0.02138950178211473,-0.08591452637207536, ,0.014839945494295178,0.02125707795024885,-0.08646066235638121, ,0.0009083200753810323, ,0.011635874984758517,0.0024337105036828454,-0.01595610020941061,0.04053606700284314,0.009945866590133757,-0.07625330169650231, ,0.019897579434931742, ,0.041738375100356856, ,0.00042768852478252447, ,0.18531469804989134,-0.2399684786007782,0.09634675425000001,1.6158707044917449,0.21574903312963048,-1.2843910523842195, ,0.10734948140098505,0.02290536846692512,0.01787745400673401,0.09820362841081909,0.09644415479390363,-0.045450037419984046, ,1.5480549335479736
0.014126331610783622,0.02138950178211473,-0.08591452637207536, ,0.014906778335815144,0.02126252564060511,-0.08654223995134222, ,0.001009576331299971, ,0.011635874984758517,0.0024337105036828454,-0.01595610020941061,0.04053606700284314,0.009945866590133757,-0.07625330169650231, ,0.019897579434931742, ,0.041738375100356856, ,0.0004348723248629868, ,0.18531469804989134,-0.2399684786007782,0.09634675425000001,1.6158707044917449,0.21574903312963048,-1.2843910523842195, ,0.10734948140098505,0.02290536846692512,0.01787745400673401,0.09820362841081909,0.09644415479390363,-0.045450037419984046, ,1.5517280101776123
0.014126331610783622,0.02138950178211473,-0.08591452637207536, ,0.014973445668336955,0.021267749085643592,-0.08662395822754733, ,0.0011116292111854847, ,0.011635874984758517,0.0024337105036828454,-0.01595610020941061,0.04053606700284314,0.009945866590133757,-0.07625330169650231, ,0.019897579434931742, ,0.041738375100356856, ,0.0004431254576230172, ,0.18531469804989134,-0.2399684786007782,0.09634675425000001,1.6158707044917449,0.21574903312963048,-1.2843910523842195, ,0.10734948140098505,0.02290536846692512,0.01787745400673401,0.09820362841081909,0.09644415479390363,-0.045450037419984046, ,1.5553600788116455
0.014294396926523624,0.021423967520000236,-0.08615354891215424, ,0.015039947838382625,0.02127275027986854,-0.08670581658070557, ,0.0009400597819362132, ,0.012305251780264256,0.0026427521729819824,-0.01775641269040731,0.03531940881037392,0.0023723780791153077,0.022097639916846042, ,0.021764502109066393, ,0.03539896963665469, ,0.0004491126181569111, ,0.1868824128233589,-0.2396286783543123,0.09661378999,1.6162900843787136,0.2175253076265812,-1.2850226977308674, ,0.11270420612644985,0.023489341969918507,0.01981195462686567,0.0,0.11809808916057189,-0.05836289166218868, ,1.558945894241333
0.014294396926523624,0.021423967520000236,-0.08615354891215424, ,0.015106285193334658,0.021277531211719387,-0.08678781440474549, ,0.0010406242670918137, ,0.012305251780264256,0.0026427521729819824,-0.01775641269040731,0.03531940881037392,0.0023723780791153077,0.022097639916846042, ,0.021764502109066393, ,0.03539896963665469, ,0.0004561544235013742, ,0.1868824128233589,-0.2396286783543123,0.09661378999,1.6162900843787136,0.2175253076265812,-1.2850226977308674, ,0.11270420612644985,0.023489341969918507,0.01981195462686567,0.0,0.11809808916057189,-0.05836289166218868, ,1.562514066696167
0.014429368988571405,0.02145204795424978,-0.08635423412923997, ,0.015172458081432569,0.021282093863577302,-0.08686995109182238, ,0.0009203422072038034, ,0.014287054715603565,0.003059756707236601,-0.022040969107041238,0.02370991972076155,0.014826514115576783,0.01884728055003032, ,0.026444023194886132, ,0.02796391625268183, ,0.00046161545625081454, ,0.1881103273503606,-0.23935065997084023,0.09683675187000002,1.616080394435229,0.21889167262423562,-1.285483446846707, ,0.12789345223513582,0.03117507935560801,0.024393279509954065,0.00869873062661389,0.144469052769413,-0.052763131231069876, ,1.5665109157562256
0.014429368988571405,0.02145204795424978,-0.08635423412923997, ,0.01523846685176981,0.021286440211773054,-0.08695222603232632, ,0.0010196369906772184, ,0.014287054715603565,0.003059756707236601,-0.022040969107041238,0.02370991972076155,0.014826514115576783,0.01884728055003032, ,0.026444023194886132, ,0.02796391625268183, ,0.0004681040787441448, ,0.1881103273503606,-0.23935065997084023,0.09683675187000002,1.616080394435229,0.21889167262423562,-1.285483446846707, ,0.12789345223513582,0.03117507935560801,0.024393279509954065,0.00869873062661389,0.144469052769413,-0.052763131231069876, ,1.5701608657836914
0.014429368988571405,0.02145204795424978,-0.08635423412923997, ,0.015304311854290186,0.021290572226594133,-0.08703463861489044, ,0.0011200668252329409, ,0.014287054715603565,0.003059756707236601,-0.022040969107041238,0.02370991972076155,0.014826514115576783,0.01884728055003032, ,0.026444023194886132, ,0.02796391625268183, ,0.0004755979034164298, ,0.1881103273503606,-0.23935065997084023,0.09683675187000002,1.616080394435229,0.21889167262423562,-1.285483446846707, ,0.12789345223513582,0.03117507935560801,0.024393279509954065,0.00869873062661389,0.144469052769413,-0.052763131231069876, ,1.5737318992614746
0.014573754463010145,0.02148600267321772,-0.08658936505038205, ,0.0153699934397849,0.021294491872292466,-0.08711718822639869, ,0.0009743049831272732, ,0.01500289303719925,0.003604875510580101,-0.0248598367089755,0.02439700078433028,0.020015666569438102,0.02457446998923936, ,0.029259073945177207, ,0.03155679103724705, ,0.0004812650293222349, ,0.18937685554173342,-0.23903402792299702,0.09709600987000001,1.6162900843787136,0.22039467412165545,-1.2860556138662433, ,0.12999581035406957,0.032711803363829985,0.027369091958762887,0.004344707859552223,0.1530052550549532,-0.05574502539481575, ,1.5772910118103027
0.014573754463010145,0.02148600267321772,-0.08658936505038205, ,0.01543551195988864,0.02129820110709089,-0.08719987425199358, ,0.001072668120584519, ,0.01500289303719925,0.003604875510580101,-0.0248598367089755,0.02439700078433028,0.020015666569438102,0.02457446998923936, ,0.029259073945177207, ,0.03155679103724705, ,0.0004879100078757437, ,0.18937685554173342,-0.23903402792299702,0.09709600987000001,1.6162900843787136,0.22039467412165545,-1.2860556138662433, ,0.12999581035406957,0.032711803363829985,0.027369091958762887,0.004344707859552223,0.1530052550549532,-0.05574502539481575, ,1.5810248851776123
0.014573754463010145,0.02148600267321772,-0.08658936505038205, ,0.015500867767076704,0.02130170188319129,-0.08728269607508467, ,0.0011722686422474856, ,0.01500289303719925,0.003604875510580101,-0.0248598367089755,0.02439700078433028,0.020015666569438102,0.02457446998923936, ,0.029259073945177207, ,0.03155679103724705, ,0.0004955139927020965, ,0.18937685554173342,-0.23903402792299702,0.09709600987000001,1.6162900843787136,0.22039467412165545,-1.2860556138662433, ,0.12999581035406957,0.032711803363829985,0.027369091958762887,0.004344707859552223,0.1530052550549532,-0.05574502539481575, ,1.5848019123077393
0.014733616706297189,0.02152446411963954,-0.08684360525490288, ,0.01556606121466151,0.021304996146781743,-0.08736565307735565, ,0.0010068088098263278, ,0.016030816420012712,0.003976934975699583,-0.025424030247454883,0.030619447608449684,0.027718144903054888,-0.02100860475817065, ,0.030318054042378653, ,0.041301761540274456, ,0.000501132617066099, ,0.19076694745909384,-0.23870195040940537,0.09737730480000001,1.6169191542091674,0.22189767561907528,-1.2863827446653577, ,0.13996599049921946,0.03159019359469733,0.02819258676106195,0.05396459385835936,0.1591717396470577,-0.05165170918691801, ,1.5884969234466553
0.014733616706297189,0.02152446411963954,-0.08684360525490288, ,0.01563109265678911,0.02130808583804325,-0.08744874463877311, ,0.0011038461470552778, ,0.016030816420012712,0.003976934975699583,-0.025424030247454883,0.030619447608449684,0.027718144903054888,-0.02100860475817065, ,0.030318054042378653, ,0.041301761540274456, ,0.0005076838510877205, ,0.19076694745909384,-0.23870195040940537,0.09737730480000001,1.6169191542091674,0.22189767561907528,-1.2863827446653577, ,0.13996599049921946,0.03159019359469733,0.02819258676106195,0.05396459385835936,0.1591717396470577,-0.05165170918691801, ,1.5920910835266113
0.014733616706297189,0.02152446411963954,-0.08684360525490288, ,0.0156959624484361,0.02131097289115801,-0.08753197013759399, ,0.0012023036404227496, ,0.016030816420012712,0.003976934975699583,-0.025424030247454883,0.030619447608449684,0.027718144903054888,-0.02100860475817065, ,0.030318054042378653, ,0.041301761540274456, ,0.0005151528810805702, ,0.19076694745909384,-0.23870195040940537,0.09737730480000001,1.6169191542091674,0.22189767561907528,-1.2863827446653577, ,0.13996599049921946,0.03159019359469733,0.02819258676106195,0.05396459385835936,0.1591717396470577,-0.05165170918691801, ,1.595686912536621
0.014899450081330133,0.02156082992503842,-0.08710231454528307, ,0.015760670945405956,0.021313659234315833,-0.0876153289503736, ,0.00103246235132434, ,0.017094796203620217,0.0033079257995007197,-0.026296789228714333,0.027951427152303063,0.025917769892712043,-0.042943649980300196, ,0.031538794429681945, ,0.03811824367542336, ,0.0005206561733172062, ,0.19221882123944806,-0.23833898196431683,0.09766378489000001,1.6173385340961361,0.22353731361626059,-1.2869029721083092, ,0.14920902760765847,0.041768020052143834,0.029067174306569344,0.07532500330233473,0.1616293658835689,-0.05490476901662713, ,1.5993139743804932
0.014899450081330133,0.02156082992503842,-0.08710231454528307, ,0.015825218504325986,0.02131614678972218,-0.08769882045197384, ,0.001128156153394288, ,0.017094796203620217,0.0033079257995007197,-0.026296789228714333,0.027951427152303063,0.025917769892712043,-0.042943649980300196, ,0.031538794429681945, ,0.03811824367542336, ,0.0005270509099495965, ,0.19221882123944806,-0.23833898196431683,0.09766378489000001,1.6173385340961361,0.22353731361626059,-1.2869029721083092, ,0.14920902760765847,0.041768020052143834,0.029067174306569344,0.07532500330233473,0.1616293658835689,-0.05490476901662713, ,1.6028978824615479
0.015079455717381068,0.02159189003992561,-0.08736942609771725, ,0.0158896054826437,0.021318437473604922,-0.08778244401557048, ,0.0009495803013175257, ,0.018080964542737027,0.0027705050265970444,-0.025217739897108727,-0.011053948135562604,-0.03000936732532371,0.03543198191204516, ,0.031153352667350944, ,0.0319803329919962, ,0.0005314522577763457, ,0.19378653601291562,-0.23789878619048602,0.09795933901000001,1.617548224039621,0.22504031511368042,-1.287311781647564, ,0.15895635101921404,0.04290096815482405,0.02804368225352113,-0.012926194467144993,0.13568105890060295,-0.033414478287350245, ,1.60652494430542
0.015079455717381068,0.02159189003992561,-0.08736942609771725, ,0.015953832238623667,0.021320533196221996,-0.08786619901266182, ,0.0010416103717550162, ,0.018080964542737027,0.0027705050265970444,-0.025217739897108727,-0.011053948135562604,-0.03000936732532371,0.03543198191204516, ,0.031153352667350944, ,0.0319803329919962, ,0.0005367116197761259, ,0.19378653601291562,-0.23789878619048602,0.09795933901000001,1.617548224039621,0.22504031511368042,-1.287311781647564, ,0.15895635101921404,0.04290096815482405,0.02804368225352113,-0.012926194467144993,0.13568105890060295,-0.033414478287350245, ,1.6102759838104248
0.015079455717381068,0.02159189003992561,-0.08736942609771725, ,0.016017899131343855,0.021322435861868518,-0.087950084813076, ,0.0011359780539273714, ,0.018080964542737027,0.0027705050265970444,-0.025217739897108727,-0.011053948135562604,-0.03000936732532371,0.03543198191204516, ,0.031153352667350944, ,0.0319803329919962, ,0.000542826583389914, ,0.19378653601291562,-0.23789878619048602,0.09795933901000001,1.617548224039621,0.22504031511368042,-1.287311781647564, ,0.15895635101921404,0.04290096815482405,0.02804368225352113,-0.012926194467144993,0.13568105890060295,-0.033414478287350245, ,1.6138460636138916
0.015258211495444911,0.021613565153090607,-0.08760525224855989, ,0.01608180652069272,0.021324147368884393,-0.08803410078497946, ,0.0009726163100714376, ,0.01834700937110696,0.0016839773329518398,-0.022470173187456075,0.014918085702908469,-0.023343349392130387,0.01584015131775762, ,0.029057825376233026, ,0.027702987447181898, ,0.0005471678937604345, ,0.1953851417178801,-0.237450867683781,0.09822248588000002,1.6173385340961361,0.22640668011133483,-1.2877725307634038, ,0.16795918859906334,0.047903554547436035,0.02524375835182251,0.008170701783318487,0.14642902149645043,-0.06040573650754156, ,1.6174938678741455
0.015258211495444911,0.021613565153090607,-0.08760525224855989, ,0.016145554767365424,0.021325669609661185,-0.08811824629488428, ,0.00106462426128348, ,0.01834700937110696,0.0016839773329518398,-0.022470173187456075,0.014918085702908469,-0.023343349392130387,0.01584015131775762, ,0.029057825376233026, ,0.027702987447181898, ,0.0005523424574356649, ,0.1953851417178801,-0.237450867683781,0.09822248588000002,1.6173385340961361,0.22640668011133483,-1.2877725307634038, ,0.16795918859906334,0.047903554547436035,0.02524375835182251,0.008170701783318487,0.14642902149645043,-0.06040573650754156, ,1.6211788654327393
0.015258211495444911,0.021613565153090607,-0.08760525224855989, ,0.016209144232860493,0.021327004470649672,-0.08820252070765663, ,0.0011589304155304172, ,0.01834700937110696,0.0016839773329518398,-0.022470173187456075,0.014918085702908469,-0.023343349392130387,0.01584015131775762, ,0.029057825376233026, ,0.027702987447181898, ,0.0005583482788029397, ,0.1953851417178801,-0.237450867683781,0.09822248588000002,1.6173385340961361,0.22640668011133483,-1.2877725307634038, ,0.16795918859906334,0.047903554547436035,0.02524375835182251,0.008170701783318487,0.14642902149645043,-0.06040573650754156, ,1.6249160766601562
0.015443854257992964,0.021627365386559412,-0.08782531299805808, ,0.016272575279476845,0.021328153832367497,-0.08828692338652447, ,0.000994680972147008, ,0.018732419426315733,0.0010341561611576986,-0.021433659313601784,0.006790536725797872,-0.038025756180856504,0.014856003477115642, ,0.028484640915774594, ,0.03862725719718157, ,0.0005626260503063129, ,0.1969605792242219,-0.23698750371132754,0.0984532255,1.617548224039621,0.2277730451089892,-1.288314958619384, ,0.17222675418960212,0.05101986105294128,0.024244766392694066,0.005887234244561505,0.13659689564111696,-0.05849453882057959, ,1.628514051437378
0.015443854257992964,0.021627365386559412,-0.08782531299805808, ,0.01633584827030991,0.021329119569405797,-0.08837145369308524, ,0.0010875999008016057, ,0.018732419426315733,0.0010341561611576986,-0.021433659313601784,0.006790536725797872,-0.038025756180856504,0.014856003477115642, ,0.028484640915774594, ,0.03862725719718157, ,0.0005677228838062672, ,0.1969605792242219,-0.23698750371132754,0.0984532255,1.617548224039621,0.2277730451089892,-1.288314958619384, ,0.17222675418960212,0.05101986105294128,0.024244766392694066,0.005887234244561505,0.13659689564111696,-0.05849453882057959, ,1.632093906402588
0.015443854257992964,0.021627365386559412,-0.08782531299805808, ,0.01639896356924851,0.021329903550436853,-0.08845611098731422, ,0.0011826341123297736, ,0.018732419426315733,0.0010341561611576986,-0.021433659313601784,0.006790536725797872,-0.038025756180856504,0.014856003477115642, ,0.028484640915774594, ,0.03862725719718157, ,0.0005736354917728394, ,0.1969605792242219,-0.23698750371132754,0.0984532255,1.617548224039621,0.2277730451089892,-1.288314958619384, ,0.17222675418960212,0.05101986105294128,0.024244766392694066,0.005887234244561505,0.13659689564111696,-0.05849453882057959, ,1.635673999786377
0.01562941669934318,0.02163595595112659,-0.0880325808446384, ,0.016461921540971394,0.021330507638221363,-0.08854089462757217, ,0.0010221281158012943, ,0.018986892334396776,0.0005966985012011138,-0.020607715151494836,0.026163806725553254,-0.011520417880866983,-0.024115580450838836, ,0.02802741610253183, ,0.028587778750593505, ,0.0005779068500969199, ,0.19881403511403578,-0.2364160214786349,0.09870470576000001,1.6181772938700745,0.22927604660640907,-1.2889688043790608, ,0.17837770969637368,0.055625405368388496,0.02339032528634362,0.0509714049949306,0.1589175642490789,-0.07091713864550608, ,1.6393859386444092
0.01562941669934318,0.02163595595112659,-0.0880325808446384, ,0.016524722550944032,0.02133093368961607,-0.08862580397061301, ,0.0011164787616066887, ,0.018986892334396776,0.0005966985012011138,-0.020607715151494836,0.026163806725553254,-0.011520417880866983,-0.024115580450838836, ,0.02802741610253183, ,0.028587778750593505, ,0.0005829877171866348, ,0.19881403511403578,-0.2364160214786349,0.09870470576000001,1.6181772938700745,0.22927604660640907,-1.2889688043790608, ,0.17837770969637368,0.055625405368388496,0.02339032528634362,0.0509714049949306,0.1589175642490789,-0.07091713864550608, ,1.6432130336761475
0.01562941669934318,0.02163595595112659,-0.0880325808446384, ,0.016587366965415008,0.021331183555580502,-0.08871083837159238, ,0.0012126781098971465, ,0.019988573989675115,0.00036715013268469755,-0.020692884180426297,-0.05046063777340893,-0.09437228593966752,-0.051402153365526476, ,0.028772788274082577, ,0.10701588911890299, ,0.0005888726741278545, ,0.2006134318737301,-0.23583681651306806,0.09893933425000001,1.6185966737570436,0.23050577510429804,-1.2893181355912042, ,0.17972905598195224,0.05836220268048633,0.023459221678939622,0.06028084123003098,0.07342620168256199,0.004975079414546772, ,1.6469650268554688
0.01582456858887187,0.02163975600881869,-0.08823955190324857, ,0.01664985515141279,0.02133125908118472,-0.088795997184075, ,0.0010420650724519162, ,0.019988573989675115,0.00036715013268469755,-0.020692884180426297,-0.05046063777340893,-0.09437228593966752,-0.051402153365526476, ,0.028772788274082577, ,0.10701588911890299, ,0.0005930689000382625, ,0.2006134318737301,-0.23583681651306806,0.09893933425000001,1.6185966737570436,0.23050577510429804,-1.2893181355912042, ,0.17972905598195224,0.05836220268048633,0.023459221678939622,0.06028084123003098,0.07342620168256199,0.004975079414546772, ,1.6506690979003906
0.01582456858887187,0.02163975600881869,-0.08823955190324857, ,0.01671218747674217,0.021331162105616454,-0.08888127976004245, ,0.0011379420588865533, ,0.019988573989675115,0.00036715013268469755,-0.020692884180426297,-0.05046063777340893,-0.09437228593966752,-0.051402153365526476, ,0.028772788274082577, ,0.10701588911890299, ,0.0005980677363579715, ,0.2006134318737301,-0.23583681651306806,0.09893933425000001,1.6185966737570436,0.23050577510429804,-1.2893181355912042, ,0.17972905598195224,0.05836220268048633,0.023459221678939622,0.06028084123003098,0.07342620168256199,0.004975079414546772, ,1.654252052307129
0.01582456858887187,0.02163975600881869,-0.08823955190324857, ,0.01677436430998114,0.021330894462188388,-0.08896668544990234, ,0.00123540704283796, ,0.019988573989675115,0.00036715013268469755,-0.020692884180426297,-0.05046063777340893,-0.09437228593966752,-0.051402153365526476, ,0.028772788274082577, ,0.10701588911890299, ,0.0006038617300532442, ,0.2006134318737301,-0.23583681651306806,0.09893933425000001,1.6185966737570436,0.23050577510429804,-1.2893181355912042, ,0.17972905598195224,0.05836220268048633,0.023459221678939622,0.06028084123003098,0.07342620168256199,0.004975079414546772, ,1.6580049991607666
0.016021523558335485,0.021639809743307845,-0.08844597884963053, ,0.016836386020477215,0.021330457978345287,-0.08905221360249382, ,0.0010617061374374528, ,0.01987245628603173,-0.0002186430476094056,-0.021354049289931953,-0.010114775094294627,-0.06047611931486126,0.016890624770175933, ,0.02917118003611361, ,0.061316109159070736, ,0.0006079864544440931, ,0.20239738316767594,-0.23522672061600433,0.09917266645000002,1.6188063637005279,0.23146223060265614,-1.2895263097360952, ,0.18110103350853202,0.06468775839023229,0.02406164882175227,-0.002272999338656851,0.12428491682366057,-0.053702537004910685, ,1.6617820262908936
0.016021523558335485,0.021639809743307845,-0.08844597884963053, ,0.016898252978344238,0.02132985447567186,-0.08913786356509808, ,0.0011590647968693526, ,0.01987245628603173,-0.0002186430476094056,-0.021354049289931953,-0.010114775094294627,-0.06047611931486126,0.016890624770175933, ,0.02917118003611361, ,0.061316109159070736, ,0.0006129067967871757, ,0.20239738316767594,-0.23522672061600433,0.09917266645000002,1.6188063637005279,0.23146223060265614,-1.2895263097360952, ,0.18110103350853202,0.06468775839023229,0.02406164882175227,-0.002272999338656851,0.12428491682366057,-0.053702537004910685, ,1.6653950214385986
0.016222074538631066,0.021636330368755032,-0.08865960448318927, ,0.016959965554458944,0.02132908576989961,-0.08922363468344448, ,0.000978270137316507, ,0.019239193837156415,-0.0003088734140909081,-0.020714447058677407,0.033493383166816,-0.0332582368869698,0.012670369849960275, ,0.02827243002000993, ,0.047200775660062866, ,0.0006161401006856654, ,0.2042353935917414,-0.23457028832169527,0.09941377639000001,1.6185966737570436,0.23282859560031052,-1.290313773812497, ,0.17671683716661224,0.06377482631617659,0.02339032528634362,0.005997325115666072,0.14541092724409846,-0.09485871162712593, ,1.668950080871582
0.016222074538631066,0.021636330368755032,-0.08865960448318927, ,0.017021524120457553,0.021328153670914216,-0.0893095263017193, ,0.0010754026600190278, ,0.019239193837156415,-0.0003088734140909081,-0.020714447058677407,0.033493383166816,-0.0332582368869698,0.012670369849960275, ,0.02827243002000993, ,0.047200775660062866, ,0.0006201687196271861, ,0.2042353935917414,-0.23457028832169527,0.09941377639000001,1.6185966737570436,0.23282859560031052,-1.290313773812497, ,0.17671683716661224,0.06377482631617659,0.02339032528634362,0.005997325115666072,0.14541092724409846,-0.09485871162712593, ,1.6725928783416748
0.016222074538631066,0.021636330368755032,-0.08865960448318927, ,0.017082929048732317,0.02132705998276284,-0.08939553776257321, ,0.0011740172276922625, ,0.019239193837156415,-0.0003088734140909081,-0.020714447058677407,0.033493383166816,-0.0332582368869698,0.012670369849960275, ,0.02827243002000993, ,0.047200775660062866, ,0.0006249847936103607, ,0.2042353935917414,-0.23457028832169527,0.09941377639000001,1.6185966737570436,0.23282859560031052,-1.290313773812497, ,0.17671683716661224,0.06377482631617659,0.02339032528634362,0.005997325115666072,0.14541092724409846,-0.09485871162712593, ,1.6761760711669922
0.0164208765386182,0.021632356992993432,-0.08887983289618878, ,0.017144180712428243,0.021325806503661483,-0.08948166840712948, ,0.0009896201860259029, ,0.020302521327293398,-0.0004932745686254781,-0.023272985946622998,0.014863265913640988,-0.03197476213092514,0.012869871195651986, ,0.030887984183448545, ,0.035260392219419213, ,0.0006281282021656671, ,0.20604251308430993,-0.2338906878287635,0.09966136778000001,1.6185966737570436,0.23433159709773038,-1.2911309770524548, ,0.18214384176289977,0.07221989464114975,0.026027469803921573,0.005882265788320121,0.1523975235782456,-0.08452383954708835, ,1.6797630786895752
0.0164208765386182,0.021632356992993432,-0.08887983289618878, ,0.017205279485439623,0.021324395026002495,-0.0895679175749919, ,0.0010879288034143816, ,0.020302521327293398,-0.0004932745686254781,-0.023272985946622998,0.014863265913640988,-0.03197476213092514,0.012869871195651986, ,0.030887984183448545, ,0.035260392219419213, ,0.0006320581218344594, ,0.20604251308430993,-0.2338906878287635,0.09966136778000001,1.6185966737570436,0.23433159709773038,-1.2911309770524548, ,0.18214384176289977,0.07221989464114975,0.026027469803921573,0.005882265788320121,0.1523975235782456,-0.08452383954708835, ,1.6833240985870361
0.0164208765386182,0.021632356992993432,-0.08887983289618878, ,0.01726622574240663,0.02132282733636118,-0.08965428460425201, ,0.0011875181399888858, ,0.020302521327293398,-0.0004932745686254781,-0.023272985946622998,0.014863265913640988,-0.03197476213092514,0.012869871195651986, ,0.030887984183448545, ,0.035260392219419213, ,0.0006367654101239037, ,0.20604251308430993,-0.2338906878287635,0.09966136778000001,1.6185966737570436,0.23433159709773038,-1.2911309770524548, ,0.18214384176289977,0.07221989464114975,0.026027469803921573,0.005882265788320121,0.1523975235782456,-0.08452383954708835, ,1.6869308948516846
0.0164208765386182,0.021632356992993432,-0.08887983289618878, ,0.017327019858711865,0.021321105215504017,-0.08974076883149798, ,0.0012880931916004427, ,0.020302521327293398,-0.0004932745686254781,-0.023272985946622998,0.014863265913640988,-0.03197476213092514,0.012869871195651986, ,0.030887984183448545, ,0.035260392219419213, ,0.0006422387528253873, ,0.20604251308430993,-0.2338906878287635,0.09966136778000001,1.6185966737570436,0.23433159709773038,-1.2911309770524548, ,0.18214384176289977,0.07221989464114975,0.026027469803921573,0.005882265788320121,0.1523975235782456,-0.08452383954708835, ,1.6906349658966064
0.016615406377749775,0.02163197582518067,-0.08910913663775913, ,0.017387662210477182,0.021319230438395217,-0.08982736959182201, ,0.001100021510898301, ,0.020344902320172928,0.00014785231779085675,-0.024287961874235934,-0.007615176394160904,-0.03220299002416377,0.018553823677006843, ,0.03168346576259599, ,0.033091011258208375, ,0.0006460536091426616, ,0.2077724052481362,-0.2332265328015802,0.0999180332,1.6188063637005279,0.2358345985951502,-1.2917848228121316, ,0.17905083312919012,0.06759041421543502,0.027182272218430035,0.0010947825864765983,0.15033091738557827,-0.058434675764993185, ,1.6944410800933838
0.016615406377749775,0.02163197582518067,-0.08910913663775913, ,0.01744815317456002,0.021317204774204703,-0.08991408621882811, ,0.001200204928415715, ,0.020344902320172928,0.00014785231779085675,-0.024287961874235934,-0.007615176394160904,-0.03220299002416377,0.018553823677006843, ,0.03168346576259599, ,0.033091011258208375, ,0.0006506333721118604, ,0.2077724052481362,-0.2332265328015802,0.0999180332,1.6188063637005279,0.2358345985951502,-1.2917848228121316, ,0.17905083312919012,0.06759041421543502,0.027182272218430035,0.0010947825864765983,0.15033091738557827,-0.058434675764993185, ,1.698072910308838
0.016615406377749775,0.02163197582518067,-0.08910913663775913, ,0.017508493128550157,0.021315029986314737,-0.09000091804464007, ,0.0013012811713415983, ,0.020344902320172928,0.00014785231779085675,-0.024287961874235934,-0.007615176394160904,-0.03220299002416377,0.018553823677006843, ,0.03168346576259599, ,0.033091011258208375, ,0.0006559665507940713, ,0.2077724052481362,-0.2332265328015802,0.0999180332,1.6188063637005279,0.2358345985951502,-1.2917848228121316, ,0.17905083312919012,0.06759041421543502,0.027182272218430035,0.0010947825864765983,0.15033091738557827,-0.058434675764993185, ,1.7017440795898438
0.016934794097132007,0.021631468053265608,-0.0894935042659967, ,0.01756868245076626,0.02131270783232754,-0.09008786439990968, ,0.0009255736016712475, ,0.019983218370747364,-0.00013799499114650656,-0.024364702262414287,-0.031249320453694322,-0.029604617370818567,-0.0448912885336461, ,0.0315116926775864, ,0.04304584546969004, ,0.0006581584780369752, ,0.21054486634998282,-0.23211445926769186,0.10034710519000001,1.6196451234744662,0.23802078259139725,-1.2922606494290254, ,0.17129411833658983,0.07140477167680269,0.027135965110732543,0.06286819273642948,0.13067536059759863,-0.025841120821318883, ,1.7062880992889404
0.016934794097132007,0.021631468053265608,-0.0894935042659967, ,0.017628721520252365,0.02131024006407258,-0.09017492461382388, ,0.001024234533704258, ,0.019983218370747364,-0.00013799499114650656,-0.024364702262414287,-0.031249320453694322,-0.029604617370818567,-0.0448912885336461, ,0.0315116926775864, ,0.04304584546969004, ,0.0006611107042923565, ,0.21054486634998282,-0.23211445926769186,0.10034710519000001,1.6196451234744662,0.23802078259139725,-1.2922606494290254, ,0.17129411833658983,0.07140477167680269,0.027135965110732543,0.06286819273642948,0.13067536059759863,-0.025841120821318883, ,1.7097859382629395
0.01713741261575299,0.021628568442211994,-0.0897522405588301, ,0.017688610716774855,0.021307628427614304,-0.09026209801411406, ,0.0008165638151722749, ,0.01921148385828795,-0.0005620132169347678,-0.025261510036433323,-0.01331926774697474,-0.011391072688034872,0.04780692447522451, ,0.031741784137223436, ,0.017525670974744393, ,0.0006623543291793959, ,0.21226703578093487,-0.23135763144601787,0.10063358528,1.6198548134179507,0.23952378408881708,-1.2926694589682803, ,0.1630531641898123,0.07525530654914415,0.027847572587412592,-0.02917628357572966,0.16233531117436398,-0.06631696117354058, ,1.7133278846740723
0.01713741261575299,0.021628568442211994,-0.0897522405588301, ,0.017748350420818508,0.021304874663258287,-0.0903493839270618, ,0.000913566016451296, ,0.01921148385828795,-0.0005620132169347678,-0.025261510036433323,-0.01331926774697474,-0.011391072688034872,0.04780692447522451, ,0.031741784137223436, ,0.017525670974744393, ,0.0006643480727291728, ,0.21226703578093487,-0.23135763144601787,0.10063358528,1.6198548134179507,0.23952378408881708,-1.2926694589682803, ,0.1630531641898123,0.07525530654914415,0.027847572587412592,-0.02917628357572966,0.16233531117436398,-0.06631696117354058, ,1.7168960571289062
0.01713741261575299,0.021628568442211994,-0.0897522405588301, ,0.017807941013583493,0.021301980505559776,-0.09043678167750904, ,0.0010123559432462991, ,0.01921148385828795,-0.0005620132169347678,-0.025261510036433323,-0.01331926774697474,-0.011391072688034872,0.04780692447522451, ,0.031741784137223436, ,0.017525670974744393, ,0.0006670882921820635, ,0.21226703578093487,-0.23135763144601787,0.10063358528,1.6198548134179507,0.23952378408881708,-1.2926694589682803, ,0.1630531641898123,0.07525530654914415,0.027847572587412592,-0.02917628357572966,0.16233531117436398,-0.06631696117354058, ,1.7204720973968506
0.01713741261575299,0.021628568442211994,-0.0897522405588301, ,0.01786738287698187,0.021298947683330315,-0.09052429058886449, ,0.001112460190676678, ,0.01921148385828795,-0.0005620132169347678,-0.025261510036433323,-0.01331926774697474,-0.011391072688034872,0.04780692447522451, ,0.031741784137223436, ,0.017525670974744393, ,0.0006705677601390527, ,0.21226703578093487,-0.23135763144601787,0.10063358528,1.6198548134179507,0.23952378408881708,-1.2926694589682803, ,0.1630531641898123,0.07525530654914415,0.027847572587412592,-0.02917628357572966,0.16233531117436398,-0.06631696117354058, ,1.7241508960723877
0.017394639757923228,0.021618620109964695,-0.09008582978215587, ,0.01792667639363406,0.021295777919645282,-0.0906119099831118, ,0.0008148929005866771, ,0.017973864578680162,-0.0008621897899132703,-0.023473756561352664,-0.01576373069328357,-0.007955683332436379,0.03490650108750911, ,0.02957736340900269, ,0.017657320735441556, ,0.0006716865596774063, ,0.21439851005422084,-0.23035367617236868,0.10099265761000001,1.6198548134179507,0.2415733315852987,-1.2934422613821805, ,0.15183510649355325,0.0731101244672348,0.025942689771986976,-0.018132708554720038,0.15233038431275217,-0.06037122084081765, ,1.7279160022735596
0.017394639757923228,0.021618620109964695,-0.09008582978215587, ,0.017985821946865585,0.02129247293185097,-0.09069963918081786, ,0.0009124858027388757, ,0.017973864578680162,-0.0008621897899132703,-0.023473756561352664,-0.01576373069328357,-0.007955683332436379,0.03490650108750911, ,0.02957736340900269, ,0.017657320735441556, ,0.0006735388615471099, ,0.21439851005422084,-0.23035367617236868,0.10099265761000001,1.6198548134179507,0.2415733315852987,-1.2934422613821805, ,0.15183510649355325,0.0731101244672348,0.025942689771986976,-0.018132708554720038,0.15233038431275217,-0.06037122084081765, ,1.7315599918365479
0.017394639757923228,0.021618620109964695,-0.09008582978215587, ,0.01804481992070358,0.021289034431572124,-0.09078747750114036, ,0.0010117660228682835, ,0.017973864578680162,-0.0008621897899132703,-0.023473756561352664,-0.01576373069328357,-0.007955683332436379,0.03490650108750911, ,0.02957736340900269, ,0.017657320735441556, ,0.0006761207482747525, ,0.21439851005422084,-0.23035367617236868,0.10099265761000001,1.6198548134179507,0.2415733315852987,-1.2934422613821805, ,0.15183510649355325,0.0731101244672348,0.025942689771986976,-0.018132708554720038,0.15233038431275217,-0.06037122084081765, ,1.735137939453125
0.017572479169897647,0.02160817927247702,-0.09031818202224437, ,0.018103670699873415,0.02128546412471918,-0.09087542426183563, ,0.0008347624941832543, ,0.017445053265237914,-0.000995348648794075,-0.023319044336439256,-0.029458102750511524,-0.015034292102539872,0.013453720783098472, ,0.02913929359343606, ,0.033072690567522094, ,0.0006773225796831503, ,0.21593533389619152,-0.22958912561782044,0.10125710077000001,1.6196451234744662,0.24307633308271853,-1.2940144284017165, ,0.14356572096591644,0.07396488040410817,0.02556791576243981,-2.90941614050632e-05,0.13177863508574228,-0.04295128058213977, ,1.73866605758667
0.017572479169897647,0.02160817927247702,-0.09031818202224437, ,0.01816237466979514,0.02128176371149536,-0.09096347877926679, ,0.0009332372280797301, ,0.017445053265237914,-0.000995348648794075,-0.023319044336439256,-0.029458102750511524,-0.015034292102539872,0.013453720783098472, ,0.02913929359343606, ,0.033072690567522094, ,0.0006792467499718463, ,0.21593533389619152,-0.22958912561782044,0.10125710077000001,1.6196451234744662,0.24307633308271853,-1.2940144284017165, ,0.14356572096591644,0.07396488040410817,0.02556791576243981,-2.90941614050632e-05,0.13177863508574228,-0.04295128058213977, ,1.7423300743103027
0.017572479169897647,0.02160817927247702,-0.09031818202224437, ,0.01822093221658043,0.02127793488640451,-0.09105164036841142, ,0.0010332056203131536, ,0.017445053265237914,-0.000995348648794075,-0.023319044336439256,-0.029458102750511524,-0.015034292102539872,0.013453720783098472, ,0.02913929359343606, ,0.033072690567522094, ,0.000681888234078871, ,0.21593533389619152,-0.22958912561782044,0.10125710077000001,1.6196451234744662,0.24307633308271853,-1.2940144284017165, ,0.14356572096591644,0.07396488040410817,0.02556791576243981,-2.90941614050632e-05,0.13177863508574228,-0.04295128058213977, ,1.7459759712219238
0.017750733176523682,0.021596717158242858,-0.09055857532712237, ,0.01827934372702875,0.021273979338257656,-0.09113990834286965, ,0.0008494332756325832, ,0.017055416226201055,-0.0012742747479403409,-0.02337578090062847,-0.02624581412698077,-0.01988283905935454,0.008360886277682994, ,0.028964428727257636, ,0.032926631601888974, ,0.0006831293084607504, ,0.21739493040941996,-0.228816852330398,0.10152024764,1.6196451234744662,0.24444269808037297,-1.294556856257697, ,0.13733276636537015,0.07640655520005699,0.025486098432000007,0.0015080389185176451,0.11995182046666578,-0.048213749537176595, ,1.7495529651641846
0.017750733176523682,0.021596717158242858,-0.09055857532712237, ,0.018337609588624175,0.021269898750180875,-0.09122828201487158, ,0.0009485469110930335, ,0.017055416226201055,-0.0012742747479403409,-0.02337578090062847,-0.02624581412698077,-0.01988283905935454,0.008360886277682994, ,0.028964428727257636, ,0.032926631601888974, ,0.0006850809084801054, ,0.21739493040941996,-0.228816852330398,0.10152024764,1.6196451234744662,0.24444269808037297,-1.294556856257697, ,0.13733276636537015,0.07640655520005699,0.025486098432000007,0.0015080389185176451,0.11995182046666578,-0.048213749537176595, ,1.7531399726867676
0.017750733176523682,0.021596717158242858,-0.09055857532712237, ,0.018395730189531986,0.021265694799622308,-0.09131676069528577, ,0.0010490195428081465, ,0.016365483306466967,-0.0010420595387301936,-0.02307936262281427,0.0025332750480779754,-0.0027758896200437903,-0.00042591631714078345, ,0.028312045334307163, ,0.0037571927679218658, ,0.0006877373948620619, ,0.21739493040941996,-0.228816852330398,0.10152024764,1.6196451234744662,0.24444269808037297,-1.294556856257697, ,0.13733276636537015,0.07640655520005699,0.025486098432000007,0.012538276031016687,0.12796381559035078,-0.07124292927327552, ,1.7576038837432861
0.017921582601919735,0.0215847172969564,-0.0907924487500304, ,0.018453705918595145,0.021261369158359734,-0.09140534369362685, ,0.0008736987208240999, ,0.016365483306466967,-0.0010420595387301936,-0.02307936262281427,0.0025332750480779754,-0.0027758896200437903,-0.00042591631714078345, ,0.028312045334307163, ,0.0037571927679218658, ,0.0006890849407023664, ,0.2187695768610319,-0.22805230177584976,0.10177561677000001,1.620064503361435,0.24567242657826194,-1.2950695449501213, ,0.13071204071414708,0.07294153847691835,0.025163999241706165,0.012538276031016687,0.12796381559035078,-0.07124292927327552, ,1.7615089416503906
0.017921582601919735,0.0215847172969564,-0.0907924487500304, ,0.0185115371653309,0.021256923492507452,-0.0914940303180633, ,0.0009735049366738126, ,0.016365483306466967,-0.0010420595387301936,-0.02307936262281427,0.0025332750480779754,-0.0027758896200437903,-0.00042591631714078345, ,0.028312045334307163, ,0.0037571927679218658, ,0.0006911311277237438, ,0.2187695768610319,-0.22805230177584976,0.10177561677000001,1.620064503361435,0.24567242657826194,-1.2950695449501213, ,0.13071204071414708,0.07294153847691835,0.025163999241706165,0.012538276031016687,0.12796381559035078,-0.07124292927327552, ,1.7655220031738281
0.01807945550892781,0.021574133169946164,-0.09102426083669732, ,0.01856922431992749,0.02125235946252408,-0.09158281987542548, ,0.0008095677900961213, ,0.01565169280387989,-0.0011904198514320332,-0.023501226417392246,0.002573719466657782,0.0006966533219426258,-0.0019288061057747363, ,0.028261285005661795, ,0.002664993216163728, ,0.0006919771038835465, ,0.22000521412090784,-0.22732636488567268,0.10202709703000001,1.620064503361435,0.2469021550761509,-1.2958272698629676, ,0.12088782364136405,0.07472200122714234,0.02540480306220096,0.01191052671629094,0.12154530656698885,-0.07313057603580828, ,1.7692439556121826
0.01807945550892781,0.021574133169946164,-0.09102426083669732, ,0.01862676777324059,0.02124767872321925,-0.09167171167121349, ,0.0009084689337399724, ,0.01565169280387989,-0.0011904198514320332,-0.023501226417392246,0.002573719466657782,0.0006966533219426258,-0.0019288061057747363, ,0.028261285005661795, ,0.002664993216163728, ,0.0006935125069321736, ,0.22000521412090784,-0.22732636488567268,0.10202709703000001,1.620064503361435,0.2469021550761509,-1.2958272698629676, ,0.12088782364136405,0.07472200122714234,0.02540480306220096,0.01191052671629094,0.12154530656698885,-0.07313057603580828, ,1.7728679180145264
0.018229874667809322,0.021561748089438604,-0.09125158687267125, ,0.018684167916789868,0.021242882923761662,-0.0917607050096051, ,0.0007531657369440572, ,0.015520144419228998,-0.001237349837440427,-0.023548406415573056,-0.0420760079692432,-0.027219652801686568,-0.006737969650261517, ,0.028230008185031425, ,0.05011279980325417, ,0.0006939326001012714, ,0.22114045585341882,-0.22660042799549557,0.10227209584000001,1.620064503361435,0.24785861057450898,-1.2963621589684207, ,0.11558701773260752,0.07472200122714234,0.02536434955414013,0.010209858494427534,0.0881850461240662,-0.028762551881078964, ,1.7771220207214355
0.018229874667809322,0.021561748089438604,-0.09125158687267125, ,0.01874142514275583,0.02123797370768562,-0.0918497991934634, ,0.0008511002992861942, ,0.015520144419228998,-0.001237349837440427,-0.023548406415573056,-0.0420760079692432,-0.027219652801686568,-0.006737969650261517, ,0.028230008185031425, ,0.05011279980325417, ,0.0006950316749207464, ,0.22114045585341882,-0.22660042799549557,0.10227209584000001,1.620064503361435,0.24785861057450898,-1.2963621589684207, ,0.11558701773260752,0.07472200122714234,0.02536434955414013,0.010209858494427534,0.0881850461240662,-0.028762551881078964, ,1.78102707862854
0.018229874667809322,0.021561748089438604,-0.09125158687267125, ,0.018798539843975993,0.02123295271289887,-0.09193899352434474, ,0.0009507967117021077, ,0.015520144419228998,-0.001237349837440427,-0.023548406415573056,-0.0420760079692432,-0.027219652801686568,-0.006737969650261517, ,0.028230008185031425, ,0.05011279980325417, ,0.0006968078210095058, ,0.22114045585341882,-0.22660042799549557,0.10227209584000001,1.620064503361435,0.24785861057450898,-1.2963621589684207, ,0.11558701773260752,0.07472200122714234,0.02536434955414013,0.010209858494427534,0.0881850461240662,-0.028762551881078964, ,1.7845790386199951
0.018358250470071866,0.021551701551917494,-0.09145170066559219, ,0.01885551241394187,0.021227821571689717,-0.09202828730250745, ,0.0008274175682706839, ,0.014889815213942906,-0.001225277651809096,-0.023304638385023117,-0.026382571462447664,-0.013254356196653728,-0.003995378529602581, ,0.027682378378421194, ,0.02952475505609317, ,0.0006977085778871691, ,0.22209035199694846,-0.2259748866326834,0.10248727998000001,1.620064503361435,0.2486784295731016,-1.2967856301701775, ,0.10983442310008192,0.07344964516909504,0.025045301132075475,0.009078331000607844,0.0967452338365876,-0.043458383480575104, ,1.78814697265625
0.018358250470071866,0.021551701551917494,-0.09145170066559219, ,0.01891234324679518,0.021222581910734218,-0.0921176798269179, ,0.0009267506605067302, ,0.014889815213942906,-0.001225277651809096,-0.023304638385023117,-0.026382571462447664,-0.013254356196653728,-0.003995378529602581, ,0.027682378378421194, ,0.02952475505609317, ,0.0006992773592749743, ,0.22209035199694846,-0.2259748866326834,0.10248727998000001,1.620064503361435,0.2486784295731016,-1.2967856301701775, ,0.10983442310008192,0.07344964516909504,0.025045301132075475,0.009078331000607844,0.0967452338365876,-0.043458383480575104, ,1.7917590141296387
0.018358250470071866,0.021551701551917494,-0.09145170066559219, ,0.018969032737324816,0.021217235351103633,-0.09220717039526033, ,0.0010274517652534177, ,0.014889815213942906,-0.001225277651809096,-0.023304638385023117,-0.026382571462447664,-0.013254356196653728,-0.003995378529602581, ,0.027682378378421194, ,0.02952475505609317, ,0.0007015098382272087, ,0.22209035199694846,-0.2259748866326834,0.10248727998000001,1.620064503361435,0.2486784295731016,-1.2967856301701775, ,0.10983442310008192,0.07344964516909504,0.025045301132075475,0.009078331000607844,0.0967452338365876,-0.043458383480575104, ,1.795456886291504
0.018358250470071866,0.021551701551917494,-0.09145170066559219, ,0.01902558128096305,0.021211783508271676,-0.09229675830394364, ,0.001129157694787056, ,0.014889815213942906,-0.001225277651809096,-0.023304638385023117,-0.026382571462447664,-0.013254356196653728,-0.003995378529602581, ,0.027682378378421194, ,0.02952475505609317, ,0.0007043993507715319, ,0.22209035199694846,-0.2259748866326834,0.10248727998000001,1.620064503361435,0.2486784295731016,-1.2967856301701775, ,0.10983442310008192,0.07344964516909504,0.025045301132075475,0.009078331000607844,0.0967452338365876,-0.043458383480575104, ,1.7993860244750977
0.018479764142830934,0.02154097011903852,-0.09164237919096757, ,0.01908198927378231,0.02120622799212172,-0.09238644284810936, ,0.001014079940518202, ,0.013835958617334042,-0.001305760411891562,-0.0214631445250206,-0.040890381173862796,-0.00491252519035162,0.005581190035944302, ,0.025569617400652774, ,0.041184361370749746, ,0.0007064777439913083, ,0.2229861890103585,-0.22536479073561963,0.10269209380000001,1.6202741933049198,0.24949824857169425,-1.2971274226317937, ,0.10303685294079346,0.0691164905742686,0.02308523408695653,0.0012989677352177348,0.10026611884979769,-0.026361339512232226, ,1.803067922592163
0.018479764142830934,0.02154097011903852,-0.09164237919096757, ,0.019138257112491865,0.021200570406954486,-0.09247622332163959, ,0.0011156975348793846, ,0.013835958617334042,-0.001305760411891562,-0.0214631445250206,-0.040890381173862796,-0.00491252519035162,0.005581190035944302, ,0.025569617400652774, ,0.041184361370749746, ,0.0007092058759305621, ,0.22433766726334778,-0.22442261732496424,0.10300061082,1.6202741933049198,0.25086461356934864,-1.2977515292279147, ,0.09854303380941928,0.07333612176079658,0.02339032528634362,0.001299332919762912,0.10650465719736094,-0.07638087561346957, ,1.8067469596862793
0.018662590748155197,0.021521460297728206,-0.09192993102777111, ,0.019194385194434067,0.021194812351494525,-0.0925660990171654, ,0.0008911868067928927, ,0.013514495447487972,-0.0016772821052565318,-0.02190116430938255,0.004993569032062156,0.00610481378089693,0.004326323150904834, ,0.025789840258663082, ,0.007886662416648767, ,0.0007104110476581273, ,0.22433766726334778,-0.22442261732496424,0.10300061082,1.6202741933049198,0.25086461356934864,-1.2977515292279147, ,0.09854303380941928,0.07333612176079658,0.02339032528634362,0.001299332919762912,0.10650465719736094,-0.07638087561346957, ,1.8111798763275146
0.018662590748155197,0.021521460297728206,-0.09192993102777111, ,0.019250373917581276,0.021188955418898512,-0.09265606922607407, ,0.0009916275670536709, ,0.013514495447487972,-0.0016772821052565318,-0.02190116430938255,0.004993569032062156,0.00610481378089693,0.004326323150904834, ,0.025789840258663082, ,0.007886662416648767, ,0.0007122611563383612, ,0.22433766726334778,-0.22442261732496424,0.10300061082,1.6202741933049198,0.25086461356934864,-1.2977515292279147, ,0.09854303380941928,0.07333612176079658,0.02339032528634362,0.001299332919762912,0.10650465719736094,-0.07638087561346957, ,1.8147521018981934
0.01880253314601914,0.021507316131840957,-0.09217074421233129, ,0.019306223680532156,0.02118300119676166,-0.09274613323851677, ,0.0008306364205404015, ,0.013276249787981378,-0.0010402905346233334,-0.023950450240028783,0.017210907370154477,0.043351572508170025,0.011612286227720394, ,0.02740374207164776, ,0.04664296614356298, ,0.0007130348508756294, ,0.22530300887262586,-0.2236889577019129,0.10324820221000001,1.6202741933049198,0.25209434206723763,-1.2985909328809013, ,0.09423728059431061,0.07124395011897205,0.02556791576243981,0.0015496875800647578,0.13967842272435058,-0.08648886874327477, ,1.818342924118042
0.01880253314601914,0.021507316131840957,-0.09217074421233129, ,0.019361934882508598,0.02117695126712587,-0.09283629034341766, ,0.0009300660725075771, ,0.013276249787981378,-0.0010402905346233334,-0.023950450240028783,0.017210907370154477,0.043351572508170025,0.011612286227720394, ,0.02740374207164776, ,0.04664296614356298, ,0.0007144441445225901, ,0.22530300887262586,-0.2236889577019129,0.10324820221000001,1.6202741933049198,0.25209434206723763,-1.2985909328809013, ,0.09423728059431061,0.07124395011897205,0.02556791576243981,0.0015496875800647578,0.13967842272435058,-0.08648886874327477, ,1.8219430446624756
0.01880253314601914,0.021507316131840957,-0.09217074421233129, ,0.019417507923351944,0.02117080720648621,-0.09292653982848022, ,0.001030853649646192, ,0.013276249787981378,-0.0010402905346233334,-0.023950450240028783,0.017210907370154477,0.043351572508170025,0.011612286227720394, ,0.02740374207164776, ,0.04664296614356298, ,0.0007164854961685488, ,0.22530300887262586,-0.2236889577019129,0.10324820221000001,1.6202741933049198,0.25209434206723763,-1.2985909328809013, ,0.09423728059431061,0.07124395011897205,0.02556791576243981,0.0015496875800647578,0.13967842272435058,-0.08648886874327477, ,1.825484037399292
0.018929807557140854,0.02150199963956543,-0.09240486234089787, ,0.01947294320351953,0.021164570585798487,-0.09301688098019607, ,0.0008851110165067778, ,0.01331925476888701,-0.0004590775604573925,-0.024952486277719933,0.014318656377574537,0.04748544240717593,0.009384119062345403, ,0.0282885112942487, ,0.049597192338754856, ,0.0007175664289912298, ,0.22622201408465856,-0.22301707994185538,0.10350746021000001,1.620483883248404,0.25346070706489204,-1.299460075697444, ,0.0914228724070046,0.06735056178741716,0.026636808561872914,0.005117955522245594,0.14075427858959327,-0.07903797256965311, ,1.8290860652923584
0.018929807557140854,0.02150199963956543,-0.09240486234089787, ,0.019528241124081785,0.021158242970487146,-0.0931073130838529, ,0.0009847479006606244, ,0.01331925476888701,-0.0004590775604573925,-0.024952486277719933,0.014318656377574537,0.04748544240717593,0.009384119062345403, ,0.0282885112942487, ,0.049597192338754856, ,0.0007192682218044107, ,0.22622201408465856,-0.22301707994185538,0.10350746021000001,1.620483883248404,0.25346070706489204,-1.299460075697444, ,0.0914228724070046,0.06735056178741716,0.026636808561872914,0.005117955522245594,0.14075427858959327,-0.07903797256965311, ,1.8328180313110352
0.018929807557140854,0.02150199963956543,-0.09240486234089787, ,0.01958340208671828,0.021151825920451648,-0.09319783542354186, ,0.001085639789455706, ,0.01331925476888701,-0.0004590775604573925,-0.024952486277719933,0.014318656377574537,0.04748544240717593,0.009384119062345403, ,0.0282885112942487, ,0.049597192338754856, ,0.0007215870291946087, ,0.22622201408465856,-0.22301707994185538,0.10350746021000001,1.620483883248404,0.25346070706489204,-1.299460075697444, ,0.0914228724070046,0.06735056178741716,0.026636808561872914,0.005117955522245594,0.14075427858959327,-0.07903797256965311, ,1.8366310596466064
0.019066267773085076,0.021495610119082867,-0.09266706561593306, ,0.019638426493714445,0.02114532099007426,-0.09328844728216563, ,0.0009144305608540282, ,0.013606672373665167,-0.0005466274642456528,-0.0265248288167409,-0.02106575046457982,0.02897744172896427,0.00427904601280519, ,0.02981621837903558, ,0.035825198420178984, ,0.0007227998815949824, ,0.22713329656381706,-0.22229886578455252,0.10378616256,1.620483883248404,0.25482707206254646,-1.3002475397738458, ,0.0880305580319766,0.07140477167680269,0.02814277653710248,0.005117955522245594,0.11852544220820412,-0.047549123273781475, ,1.8402509689331055
0.019066267773085076,0.021495610119082867,-0.09266706561593306, ,0.019693314747958136,0.021138729728227102,-0.09337914794144622, ,0.0010137123657049127, ,0.013606672373665167,-0.0005466274642456528,-0.0265248288167409,-0.02106575046457982,0.02897744172896427,0.00427904601280519, ,0.02981621837903558, ,0.035825198420178984, ,0.0007246180846206694, ,0.22713329656381706,-0.22229886578455252,0.10378616256,1.620483883248404,0.25482707206254646,-1.3002475397738458, ,0.0880305580319766,0.07140477167680269,0.02814277653710248,0.005117955522245594,0.11852544220820412,-0.047549123273781475, ,1.8438560962677002
0.0192039741753962,0.021490935990138994,-0.09294204362277847, ,0.019748067252936412,0.02113205367828006,-0.09346993668193343, ,0.0008387519732891105, ,0.013606672373665167,-0.0005466274642456528,-0.0265248288167409,-0.02106575046457982,0.02897744172896427,0.005930888372576976, ,0.02981621837903558, ,0.035825198420178984, ,0.0007253269907614672, ,0.22802141084435287,-0.2215729288943754,0.10407782781000001,1.620483883248404,0.2561934370602008,-1.300953325110107, ,0.0858019363096481,0.07066041813735724,0.02789634241681261,0.005048386474706523,0.13005928591873572,-0.0785575783235493, ,1.8478460311889648
0.0192039741753962,0.021490935990138994,-0.09294204362277847, ,0.019802684412731735,0.021125294378107,-0.09356081278301184, ,0.0009354266461864569, ,0.013286922673684576,-0.0005724440316013988,-0.026300099139636293,0.010633670507828407,0.042723203754811784,0.005930888372576976, ,0.029471430590666734, ,0.044026520467385186, ,0.0007266239022147079, ,0.22802141084435287,-0.2215729288943754,0.10407782781000001,1.620483883248404,0.2561934370602008,-1.300953325110107, ,0.0858019363096481,0.07066041813735724,0.02789634241681261,0.005048386474706523,0.13005928591873572,-0.0785575783235493, ,1.8514258861541748
