NicholasDascanio/dvrk_moveit_final/test/execution/third_experiment_notsharpbends/thirdexp_300vel3.0/thirdexp_300vel3.0_29.csv
Current Position (x),Current Position (y),Current Position (z), ,Planned Position (x),Planned Position (y),Planned Position (z), ,Position Error,,Cartesian linear Velocity(x),Cartesian linear Velocity(y),Cartesian linear Velocity(z),Cartesian Angular Velocity(x),Cartesian Angular Velocity(y),Cartesian Angular Velocity(z), ,Total Linear Velocity, ,Total Angular Velocity, ,MSE, ,Joint 1 Position,Joint 2 Position,Joint 3 Position,Joint 4 Position,Joint 5 Position,Joint 6 Position, ,Joint 1 Velocity,Joint 2 Velocity,Joint 3 Velocity,Joint 4 Velocity,Joint 5 Velocity,Joint 6 Velocity, ,Time Stamp
0.009585053498138423,0.02052737374832461,-0.07843588412479359, ,0.009730879681470486,0.020450851720406966,-0.07856330984994768, ,0.000208226347835404, ,8.96356344538341e-05,0.00010570232707440135,-0.00040468282442046393,0.26845033326438233,0.0031079810495946,-0.18182572613307274, ,0.00042775660987740346, ,0.2684683239713068, ,1.7352195652950332e-05, ,0.19967898119594893,-0.2377366088001273,0.09044993104000001,1.7936877765666213,0.7677604921820099,-1.2523697802680231, ,0.0,0.0,-0.00062496794885171,0.0010635737286040705,0.0,-0.23050126351478317, ,0.03645896911621094
0.009621643999228553,0.02053225218411686,-0.07848409612810903, ,0.009774263121248265,0.020464751360813764,-0.07870316010260453, ,0.00027538696859951507, ,0.0012256461751585972,0.0003446646450906484,-0.002330462552838365,0.038789730432690774,-0.10344169173228045,-0.06990211262826809, ,0.0026555711201996213, ,0.11047545779678043, ,2.1982423474314504e-05, ,0.1997021493945716,-0.2377057178686304,0.09047974571,1.7936877765666213,0.7639346701885775,-1.2577446679391417, ,0.00045480448165856736,0.0013108804373299446,0.0018436124444444445,0.0010302402511852206,-0.10948769881657024,-0.0705205644041842, ,0.07249593734741211
0.00966125291335882,0.02054864833125974,-0.07858685120300925, ,0.009817940735880675,0.020478290297493294,-0.07884301465802898, ,0.0003084169942298385, ,0.0010692717214145346,0.0007193001207971069,-0.003704453807339173,-0.005315017436250771,-0.03841746899335153,-0.012814250727311068, ,0.0039222076294741495, ,0.03878338991765873, ,2.4750947208273674e-05, ,0.19970987212744581,-0.23762076780701394,0.09057178230000001,1.7938974665101057,0.7612019401932687,-1.2616422153757556, ,0.0007444799088519856,0.0017665532953751078,0.0036483764360971146,-0.0004144847448035586,-0.03967225771108466,-0.003955242957988853, ,0.1097109317779541
0.009684515389216252,0.02057238405634597,-0.07871734956025914, ,0.00986190976053661,0.020491471748211254,-0.07898287031176518, ,0.0003294189339794629, ,0.00028106209154984095,0.0005786900992191231,-0.003307688299832507,0.04459959648478296,0.07512821870788876,-0.0018157881867527964, ,0.003369670609880062, ,0.08736917793152169, ,2.670117249152906e-05, ,0.19974848579181695,-0.23750492681390056,0.09071178162000001,1.7938974665101057,0.7621583956916268,-1.2584198824347428, ,0.001759221318194311,0.003994186407435114,0.003833648981949459,-0.00039923787259067543,0.08091366310077747,-0.04173968041206709, ,0.1453859806060791
0.009716048678624235,0.02059394733401633,-0.07886008499877596, ,0.009906167441977311,0.020504298919743837,-0.0791227238742319, ,0.000336394353789174, ,0.0010373222362751171,0.0005993592003475977,-0.004104505914574664,0.0115162240767007,-0.005367212289020896,-0.013026548542629367, ,0.004275773342413103, ,0.012705525710306342, ,2.803545381602682e-05, ,0.19981799038768497,-0.23735047215641608,0.09086085497000002,1.7936877765666213,0.7625683051909231,-1.2594892448070971, ,0.002279443005378821,0.004918725442298096,0.004209516786469345,-0.00016608924980919976,-0.0033681664305326934,-0.020370173243268144, ,0.1811819076538086
0.009764187625689435,0.020614565872223628,-0.07902364975816645, ,0.009950711038537063,0.02051677500789271,-0.07926257217069997, ,0.00031849325879483624, ,0.0011070262844771156,0.00043026254278122556,-0.003733492384764132,-0.009044634353395468,-0.006213724571592441,0.00034490578307911377, ,0.0039178563574147965, ,0.01097341254637021, ,2.8650594471423078e-05, ,0.20000333597666636,-0.2371110674373151,0.09102807638,1.7936877765666213,0.7625683051909231,-1.2595709235472379, ,0.0041558845970854135,0.00588820368767701,0.0038281210093727472,-0.00016608924980919976,-0.0021118497454159246,0.0034762633698087256, ,0.21711182594299316
0.00980000678630421,0.02062811520807144,-0.07914617592098327, ,0.009995537820104148,0.02052890319750058,-0.0794024120412675, ,0.00033724228317145365, ,0.0011795840851236438,0.00043581276729552784,-0.004206875606184977,-0.010642732982221589,-0.006677427213117971,0.004681091764778875, ,0.004390803314648584, ,0.012564067740971109, ,2.9355265838884508e-05, ,0.2001423451684024,-0.23692572184833374,0.09115511280000001,1.793478086623137,0.7625683051909231,-1.2596526022873784, ,0.003974943956391645,0.006831431259147335,0.0042946377783769215,-0.004886780925780312,-0.00161677927419257,0.00327720453367035, ,0.25342798233032227
0.009832778667773967,0.020639836211197488,-0.07925691560347936, ,0.010040645068101574,0.02054068666246586,-0.07954224034083668, ,0.00036667325938342574, ,0.0009590211732873036,0.0001955152688412424,-0.0030802208816403647,-0.008500043149021254,-0.0052180904111379205,0.0037684862619679674, ,0.003231982133437121, ,0.009973926047287427, ,3.062039999732235e-05, ,0.20025818616151575,-0.23674037625935235,0.09126789003,1.793478086623137,0.7624316686911576,-1.2596228631238224, ,0.00418408212212681,0.006442883814735201,0.00313189373181282,-0.004362346190257791,0.0,0.001488977487525686, ,0.287186861038208
0.009873292008742929,0.02065623930557798,-0.07941412461650847, ,0.010086030075467881,0.020552128565758523,-0.079682053939091, ,0.00035760684148818865, ,0.0012525762064043695,0.0006729506321988307,-0.004987979501580773,-0.005084957586753204,-0.001410081939547573,1.5207011587144224e-05, ,0.005186689620019415, ,0.00527684769987737, ,3.1531769347458875e-05, ,0.20038947262037757,-0.23648552607450293,0.09142992628,1.793268396679652,0.7627049416906886,-1.259927377671356, ,0.003147805476474391,0.006530403204020386,0.005138326296774195,-0.0016293352900768228,0.0022244743080016885,-0.0015023930477098563, ,0.3192470073699951
0.009911222805335776,0.020674787781162864,-0.079557109833924, ,0.010131690146638003,0.020563232059434635,-0.0798218497204699, ,0.00036212944530860443, ,0.0013018043870607241,0.0005278416245116038,-0.004518922233622955,-0.005934622552177351,-0.0047653034357197244,0.0010938718958137061, ,0.004732226705924968, ,0.007611035395193537, ,3.232311804626165e-05, ,0.20051303634636516,-0.23630018048552154,0.09157770334000001,1.7930587067361679,0.7628415781904541,-1.2599571168349117, ,0.004820434788556184,0.006773643775978731,0.004648033708783193,-0.0031522246848496222,0.0008261732620563139,-0.001409286183728977, ,0.35144495964050293
0.009950127104976446,0.020692677226577843,-0.0797001364383428, ,0.010177622597524048,0.02057400028465182,-0.07996162458414725, ,0.000366352925565828, ,0.001055510060200413,0.00044399099875894513,-0.0039675644436642935,0.002260431207619267,0.0031106968243224107,-0.0011821353650413966, ,0.004129503252062214, ,0.0038452546071851028, ,3.302168159394195e-05, ,0.20064432280522698,-0.23609166669791748,0.0917254804,1.7930587067361679,0.7629782146902195,-1.2601502134787488, ,0.003731162769683239,0.0062121593926849645,0.004107481052088706,-0.0031522246848496222,0.007927079416443354,-0.009140679153479906, ,0.38397693634033203
0.009986443456615205,0.02070594152822257,-0.07982368002113674, ,0.010223824755496082,0.02058443637168459,-0.0801013754440059, ,0.00038500406751900015, ,0.0013815973430627384,0.0004500433957636525,-0.0041988126048746926,-0.0017605634781519587,-0.0035461225916786723,0.00022256976557277297, ,0.004443127003280809, ,0.003959112007856108, ,3.377218529627975e-05, ,0.2008065001955857,-0.23589859837606186,0.09185381311000002,1.7928490167926832,0.7632514876897504,-1.2603730492861416, ,0.006854280121125023,0.006778663064640328,0.00435094551215515,-0.0038317564074021363,0.004390058797758701,-0.005860850584683973, ,0.41616392135620117
0.010029024470957642,0.020721859335042617,-0.07996404819246182, ,0.010270293959363037,0.020594543439939605,-0.08024109922861541, ,0.0003888156115886582, ,0.0013733360220201942,0.0006001035832929691,-0.004842741207531471,0.001132195314003237,0.0017557706065217185,0.0011377919596720092, ,0.005069350899590862, ,0.002089161072836276, ,3.444572453375705e-05, ,0.20098412305169286,-0.23569780732133203,0.09199510872000001,1.7926393268491987,0.7633881241895157,-1.2605661459299786, ,0.005592773204837308,0.006869739380988189,0.004994923650047038,-0.005201123209192789,0.008951223899509933,-0.008790419307558844, ,0.44813990592956543
0.010074642909216943,0.020738649505002746,-0.08010514176577777, ,0.010317027559353369,0.02060432459797006,-0.08038079288120761, ,0.00039086703200553606, ,0.00142747229328436,0.00023919621570019675,-0.00384018736968293,-0.007014919873241011,-0.007173416382880407,0.002923947805681609, ,0.004103892178404802, ,0.010033294702889144, ,3.504465424636241e-05, ,0.2012080823050454,-0.23547384806797952,0.09214547836,1.7926393268491987,0.7635247606892812,-1.2607592425738154, ,0.008109492068032218,0.008079386432713807,0.003946682735381566,-0.005201123209192789,0.0022529770844409848,-0.0018371517439001394, ,0.48100781440734863
0.010115132999899456,0.020744953863204643,-0.08022185778493546, ,0.010364022917096,0.020613782943492094,-0.08052045335965351, ,0.00041025762430641226, ,0.0013946546708017322,0.0003723728157875025,-0.004159461741625223,-0.003547787491818436,-0.005034316476250741,0.0043023730218570075, ,0.0044028224066808026, ,0.006158825961586042, ,3.595304858437298e-05, ,0.2014397642912721,-0.23523444334887855,0.09226603333000001,1.7922199469622295,0.763798033688812,-1.2611454358614895, ,0.007086167781473869,0.007205497415740582,0.0042946377783769215,-0.007939011603178834,0.004074658160694571,-0.005244814202131044, ,0.5100350379943848
0.01016229162395342,0.020759436494567202,-0.08036549229014035, ,0.010411277405601094,0.02062292156339887,-0.0806600776364393, ,0.0004091586149021773, ,0.001640557405488877,0.0005451597404895911,-0.00520806212708305,-0.005812904610919417,-0.006090218407525951,0.0046999759608374, ,0.005487489304127334, ,0.008419062681522848, ,3.675791100971864e-05, ,0.2016560008117504,-0.2349873158969034,0.09241381039,1.7922199469622295,0.763798033688812,-1.2613904720819111, ,0.007380915436837918,0.008152545114355944,0.005374092955465587,-0.007939011603178834,0.0032814578098991107,-0.003801036749830393, ,0.5388119220733643
0.010210864563822874,0.02077526063332635,-0.08052091398832824, ,0.010458788409240818,0.020631743533776878,-0.08079966269864364, ,0.00039970518447026955, ,0.0015345553932637063,0.0004057747162211877,-0.004608261954230608,0.002790417756674173,-0.001026684703824462,-0.002184988562064273, ,0.004873970826146626, ,0.002973299624934739, ,3.742232545243889e-05, ,0.20189540553085136,-0.23473246571205397,0.09257584664000001,1.792010257018745,0.7642079431881085,-1.26164304705286, ,0.007886745889020693,0.008378695710774497,0.004777687918416317,-0.004489087503146748,0.008238714808040495,-0.012588485580017851, ,0.5674898624420166
0.010256851307440175,0.020784981143334724,-0.08065647902493031, ,0.010506553323730194,0.02064025191991979,-0.08093920554791248, ,0.00040401971715149843, ,0.0015604924384893478,0.00035420208610664305,-0.0047120930556144615,-0.0006055836830134224,-0.0028618610101008826,0.0010118859024342345, ,0.004976385910794576, ,0.002925231224221484, ,3.804891894664241e-05, ,0.20211936478420386,-0.23446989279433034,0.09271454967000001,1.7918005670752608,0.7642079431881085,-1.2618880832732817, ,0.007850619334564081,0.00904362229778637,0.00486079082087275,-0.0069420610753392455,0.0068834255069614644,-0.010143173658702273, ,0.5966958999633789
0.010304609196558942,0.02079431045460596,-0.08078891160958049, ,0.0105545695561079,0.020648449776344682,-0.08107870320043702, ,0.00040955425152211777, ,0.001714698637915659,0.0003047566549017616,-0.0048077996965489615,0.000996316993270204,-0.001124979749644832,0.0005965165240151295, ,0.00511351209636909, ,0.001502738972470217, ,3.864984980349372e-05, ,0.20238966043480172,-0.23419187441085826,0.09285195641,1.7918005670752608,0.7644812161876393,-1.2621109190806745, ,0.009744496923254518,0.009965558220186887,0.0049824246230841425,-0.0069420610753392455,0.010692027093909838,-0.012379693893340574, ,0.6255068778991699
0.010360110465712537,0.020804235814726287,-0.08094924706427714, ,0.010602834524717003,0.020656340146807072,-0.081218152686929, ,0.000391277818567139, ,0.0018196264976405117,0.0003243004323793857,-0.0052217779494374,-0.009087087216643077,-0.010013231180218423,0.008881631738726465, ,0.005539239687410862, ,0.01352183230442718, ,3.909836903922699e-05, ,0.20268312428402227,-0.2338906878287635,0.09301658524,1.791171497244807,0.7646178526874048,-1.2625490519449332, ,0.009401984027589672,0.010302877314533597,0.005352423225806452,-0.012982801262925328,0.0024983099193991156,-0.003754033882972541, ,0.6541340351104736
0.010395277751607222,0.020810947742198587,-0.0810511283270214, ,0.010651345659185948,0.02066392606431565,-0.08135755105259795, ,0.00042553617215112025, ,0.0017901790741730295,0.00048355954396348466,-0.004879678211029597,-0.006450463693321925,-0.006221155318253339,-0.011810852995185127, ,0.005220137009060412, ,0.008961654567435376, ,3.96886790907312e-05, ,0.20286846987300364,-0.23368989677403365,0.09312158473000001,1.7909618073013225,0.7647544891871703,-1.2630688635493321, ,0.009336019226744815,0.009176663333997054,0.005048751670364502,0.010399492470220428,0.0007410069945807311,-0.0004501479425257568, ,0.6827349662780762
0.01044802464386526,0.020818982845124692,-0.0811961233546025, ,0.01070010040040919,0.020671210551147755,-0.08149689535712723, ,0.00041933594576084313, ,0.0017524519307181919,0.00042416615679685807,-0.005142717599741373,0.007411507917476024,0.00025256733620780133,-0.02000011840690893, ,0.005449637511682717, ,0.007415809886515353, ,4.0403402283285364e-05, ,0.20315421098934996,-0.23336554199331624,0.09327065808000001,1.7909618073013225,0.7648911256869357,-1.2631802814530289, ,0.00866852152467583,0.01062740978177339,0.005318467953255426,0.010399492470220428,0.0067365773674855686,-0.017584094093591927, ,0.707629919052124
0.010484954874450062,0.020828932658074412,-0.08130633579154521, ,0.010749096200528043,0.020678196618864653,-0.08163618267465039, ,0.00044865461097940736, ,0.0019380203050022391,0.0004080609300312071,-0.005892278853023523,-0.002968125221850364,-0.00852988542433467,0.002935174714527872, ,0.006216219631496872, ,0.00903153949126482, ,4.1212332990584926e-05, ,0.2033318338454571,-0.23314930547283794,0.0933847316,1.791171497244807,0.765027762186701,-1.2632916993567251, ,0.00911207576461912,0.011249044755627168,0.006040504937428897,-0.011328720664522665,0.0032891068718326256,-0.011671505296242654, ,0.7326099872589111
0.010546245284933748,0.020842523408683956,-0.08149552860361604, ,0.010798330522911423,0.02068488726832666,-0.08177541009372742, ,0.0004083255667478733, ,0.001965834628822958,0.0004648654090599995,-0.006085851795443018,0.006119370442374749,0.0029449549116621963,0.0050783813681186864, ,0.006412347285707241, ,0.006791129927652954, ,4.1777612404800865e-05, ,0.2036407431604261,-0.23280950522637206,0.09358047139,1.7905424274143533,0.7654376716859974,-1.2636259530678144, ,0.010060194049968506,0.011047373871766098,0.006325977569499604,-0.014746160924069192,0.01712953404556346,-0.02036743911844538, ,0.7581658363342285
0.010589137232451161,0.020851288328249687,-0.0816154809153062, ,0.010847800842136886,0.020691285489708094,-0.08191457471732128, ,0.0004265734095332851, ,0.0018799218925373588,0.00025125920872020257,-0.005535652790125477,0.002749630492988944,0.0009326355972622104,0.005839207947590887, ,0.0058515544366289475, ,0.002903493035493675, ,4.2390078718498034e-05, ,0.20385697968090438,-0.23257010050727112,0.09370361894000001,1.7905424274143533,0.7654376716859974,-1.2636259530678144, ,0.010208456154448365,0.011919633246285907,0.005721555862068966,-0.014746160924069192,0.015184402418168569,-0.017740254633426218, ,0.7831020355224609
0.010642803207087864,0.020857906771776034,-0.08176570844355396, ,0.01089750464397121,0.02069739426251281,-0.08205367366277497, ,0.00041660659507672046, ,0.001765760155527515,3.3359654636434684e-05,-0.004603796967538791,-0.008330870423970594,-0.006965864655925302,0.009481875861831784, ,0.00493091962130041, ,0.010859404696276546, ,4.292050369215836e-05, ,0.20415816626299912,-0.23221485479505677,0.09385917374000001,1.7905424274143533,0.7658475811852937,-1.2641235642591848, ,0.010451385469922967,0.011760519813596822,0.004708486999704405,-0.013822236613685528,0.006979558275200272,-0.005691361774377917, ,0.808384895324707
0.010677906046278694,0.020857520075246355,-0.08185319012329201, ,0.010947439425351207,0.020703216555589182,-0.08219270406178686, ,0.0004601386019941429, ,0.0017506369000251855,-1.884884494177269e-05,-0.00423316874466708,-0.009689853876769062,-0.008870106443512422,0.002802403924421638, ,0.00458091720679513, ,0.013136668341441738, ,4.360589028507267e-05, ,0.20437440278347743,-0.23197545007595582,0.09394861775,1.790332737470869,0.7659842176850592,-1.2643166609030219, ,0.010763072001977242,0.011826637781464453,0.004316751089430895,-0.006265884433702718,0.003488188239462122,-0.0030531174126705, ,0.8335049152374268
0.010738108220892995,0.020864338467998497,-0.08202129071245733, ,0.010997602694364613,0.02070875532714535,-0.08233166306038774, ,0.0004334449098096295, ,0.0020585520018057924,0.00046227930430015344,-0.006097111118338614,-0.004172646801614107,-0.003664453277831894,0.0006158366751825188, ,0.006451829390854287, ,0.005553304487460678, ,4.414007227596484e-05, ,0.2047142030299433,-0.23161248163086728,0.09411972803000002,1.7899133575839,0.7663941271843555,-1.2648959508345328, ,0.010130659302296697,0.011512516038106381,0.0062860345382794005,-0.00565183307640344,0.00810859646960291,-0.008226759773438687, ,0.858954906463623
0.01078063368865136,0.020874314275744505,-0.08214763933644353, ,0.011047991970230904,0.020714013524764326,-0.08247054781891697, ,0.0004488281069042714, ,0.0021455619860631255,0.00039959316633014856,-0.006501583919040631,-0.002172803783691214,-0.0038872163428111325,-0.003230549828358262, ,0.006858112305215235, ,0.0044532589820479454, ,4.4887989646893635e-05, ,0.20490727135179893,-0.2313653541788921,0.09425194961000001,1.7899133575839,0.7663941271843555,-1.2650593083148138, ,0.01007810641462065,0.01335824064730726,0.006681548456375841,-0.004737265203202721,0.007571191481685708,-0.012696093124750063, ,0.8801298141479492
0.010829137475524785,0.020887524060965446,-0.08228281674750443, ,0.01109860478328201,0.020718994085419332,-0.08260935551199909, ,0.000455678118111021, ,0.0024400741729307543,0.0006608245491314551,-0.006938972101080994,0.01208286231698872,-0.0002554241397906013,-0.0094080582156816, ,0.007385119150949352, ,0.012085561103046474, ,4.562747448907482e-05, ,0.20516984426952256,-0.23113367219266534,0.09439324522,1.7899133575839,0.7666674001838863,-1.2654455016024877, ,0.012944610770491171,0.011759669500590798,0.00724366144611187,-0.004080808962960322,0.014157225042823787,-0.026450620436835118, ,0.9014739990234375
0.010861589716777122,0.020891024107626898,-0.08237363549760872, ,0.011149438674943156,0.02072369993548873,-0.08274808332852046, ,0.0005010644463275194, ,0.0020103706738219093,0.0001517321249093021,-0.005476390171328023,0.006276680911615108,-0.004305258952427321,0.0005925359962122805, ,0.005835705800716039, ,0.0076113056033734585, ,4.6508480688272765e-05, ,0.2053474671256297,-0.23094832660368397,0.09448657810000001,1.7894939776969307,0.7668040366836517,-1.265638598246325, ,0.011330978096533825,0.012702040096167955,0.005634528305624337,-0.014154085988078597,0.01063510063716948,-0.023699481203942004, ,0.9235029220581055
0.0109112598112115,0.020897359060221072,-0.08251605772714653, ,0.011200491197713732,0.02072813399077157,-0.08288672847160485, ,0.0004996886229097832, ,0.0024823884488905826,0.0003441001197931609,-0.006753801223127301,0.005227555640374078,-0.003168957084098366,-0.0017188614429528852, ,0.007203782913521401, ,0.006113069026435046, ,4.7344229698803624e-05, ,0.20572588103646672,-0.23050040809697894,0.09469916966000001,1.7892842877534463,0.7670773096831827,-1.2661881490142801, ,0.013875850498387306,0.014300322718274682,0.006992454574187885,-0.010772577662562418,0.013695174278287196,-0.02290461662005, ,0.9454028606414795
0.010961295071170912,0.020906815222592922,-0.08265245275903352, ,0.011251759915147878,0.020732299156502237,-0.0830252881585904, ,0.0005038173459430174, ,0.0025094652241206797,0.000543868367363615,-0.007414312443225015,-0.0118367853416268,-0.005647294604933099,0.0064590667275223855, ,0.007846351860441329, ,0.013114930467721476, ,4.81581258756562e-05, ,0.20587261296107698,-0.2303613989052429,0.09477435448,1.7892842877534463,0.7672139461829481,-1.2664629243982575, ,0.01445718183401444,0.012844740330058306,0.0072900739221967974,-0.009765931657200704,0.009950616071739738,0.006183322178967823, ,0.9699578285217285
0.01104361087623348,0.02092034673242425,-0.0828878501637813, ,0.011303242401835644,0.020736198327366406,-0.08316375962100633, ,0.00042124243940760655, ,0.002200187518791085,0.00020048055487124737,-0.006385686989335241,-0.009688453544410197,-0.003657046960229249,0.010180393923657232, ,0.0067570715473858145, ,0.010355680273822124, ,4.863745081824196e-05, ,0.2062896405362851,-0.2298903121999152,0.09501676071000001,1.7888649078664773,0.767487219182479,-1.2667674389457908, ,0.011250412341011897,0.014459384665316285,0.006555066469135804,-0.014444453602859703,0.011404629365383766,-0.006538861276368748, ,0.9915988445281982
0.011092669112504184,0.02092468926142086,-0.08301568403839636, ,0.011354936243383469,0.020739834387515553,-0.08330214010454905, ,0.0004301307361510805, ,0.002583111537988401,0.00016318459218671639,-0.006435654541915708,-0.009446876879178997,-0.008788863161057777,0.00293118392736493, ,0.006936623372484355, ,0.0129030069128984, ,4.912789773753851e-05, ,0.20657538165263142,-0.22959684835069466,0.09514898229,1.7886552179229929,0.7677604921820099,-1.2669902747531838, ,0.01526410512441222,0.015516177494844798,0.006628718901373285,-0.008139226790596015,0.008709505904546104,-0.007102018068246607, ,1.0128259658813477
0.01114262954251304,0.020927392670006113,-0.08313975511257923, ,0.011406839036395125,0.0207432102105822,-0.08344042686905807, ,0.0004406056515308668, ,0.0024065352120025796,0.00016060000670705922,-0.006266673524774211,0.004992058517990932,0.007136593155378847,-0.0011787745835282154, ,0.006714789732736881, ,0.008709282430132428, ,4.980722234674818e-05, ,0.20687656823472617,-0.22928021630285148,0.09527731500000002,1.7886552179229929,0.7680337651815408,-1.2672947893007172, ,0.014970333105926926,0.01627734846629001,0.006024512677760969,-0.0067245476304871885,0.02307237221194355,-0.019612811183438675, ,1.031507968902588
0.011166177614210578,0.020927368482201808,-0.08319844308863424, ,0.011458948388452482,0.020746328659695494,-0.08357861718849323, ,0.0005128571826414421, ,0.0022250342441582616,8.259954633713099e-05,-0.006316290351869126,-0.00106816164619175,0.003911310916868404,-0.0013338315870163018, ,0.006697247485485887, ,0.004054542185927737, ,5.071071916492524e-05, ,0.20700785469358798,-0.22911803891249274,0.09533694434000001,1.7886552179229929,0.7680337651815408,-1.2672947893007172, ,0.011985260720157483,0.016202312029788418,0.006504210502245815,-0.006186585081660048,0.018091180839250893,-0.015624262059531024, ,1.048949956893921
0.011219930075715277,0.020935232649506915,-0.0833606903132093, ,0.011511261918096304,0.020749192587495982,-0.08371670835091094, ,0.0004962196995556269, ,0.002895428475602189,0.0007662240214936322,-0.008823415640994977,0.0019845450508920144,-2.046053347034182e-05,0.006023556825232058, ,0.009317900454619414, ,0.0019846370482784056, ,5.15277767532451e-05, ,0.20728587307706006,-0.2287859613989011,0.09550546204,1.7882358380360237,0.7685803111806025,-1.2679854971359246, ,0.0137671466064806,0.014521337652405628,0.00917558267281106,-0.015887459028603043,0.018107261798566383,-0.01965434085309469, ,1.0670149326324463
0.011276410955076194,0.02094314996565818,-0.0835161219667521, ,0.011563777254807187,0.020751804836151338,-0.08385469765844003, ,0.00048355542372000905, ,0.002824044284458198,0.00036703154120205526,-0.007764334217709632,0.0013021721205726514,0.0053620394064377965,0.0035796541267667, ,0.008270116330325396, ,0.005517888238277509, ,5.22758447663371e-05, ,0.20758705965915483,-0.22846160661818368,0.095666202,1.7880261480925392,0.7688535841801334,-1.2685350479038795, ,0.015922305630615904,0.016596177257515003,0.008089797623158965,-0.011433650118437472,0.024969910080272963,-0.018846033305700095, ,1.085216999053955
0.011338857400983365,0.020948900605694796,-0.08367829699665362, ,0.01161649203898606,0.02075416823737058,-0.08399258242725874, ,0.00046236027011702633, ,0.0028105491040341,0.0003984937079727815,-0.007451840503326153,0.007427458858223566,-0.0031301515350729454,-0.010903204572663914, ,0.007974202805829117, ,0.008060085033349876, ,5.29305061548887e-05, ,0.2079191371727465,-0.22809863817309511,0.09583212712000001,1.7878164581490545,0.7688535841801334,-1.268453369163739, ,0.01546308319349369,0.015792468224075682,0.007728680989810773,-0.003057290766637223,0.013517914210978517,-0.02550186378212451, ,1.105116844177246
0.01139114316760175,0.020953618902580233,-0.0838199433900841, ,0.011669403921935292,0.02075628561242037,-0.08413035998757092, ,0.0004612243909453202, ,0.002877886723885172,0.00030927190153936943,-0.007734061538933199,-0.0036861240206562365,-0.004582171444523288,-0.005556105328063005, ,0.008257940965676738, ,0.0058807973754261, ,5.3560544168256905e-05, ,0.20822032375484123,-0.22775883792662924,0.09597990418,1.7878164581490545,0.7694001301791952,-1.2690623982588058, ,0.015380379507045508,0.01746676634612015,0.007980366492985972,-0.003057290766637223,0.011979030660128112,-0.014444237237632794, ,1.1228220462799072
0.011420272216785137,0.020954742308491356,-0.0839027565598913, ,0.01172251056583935,0.020758159772139406,-0.0842680276835827, ,0.0005132403988779167, ,0.002780331804673671,0.00018451759726804837,-0.007640892633652665,0.007846483526917091,0.005228085612781652,-0.004924531003205573, ,0.008408584398639516, ,0.00942868797171633, ,5.4334795518530185e-05, ,0.20854467853555866,-0.22738042401579223,0.09614842188000002,1.7871873883186011,0.7696734031787261,-1.2693669128063392, ,0.015382872679278776,0.01828457448140092,0.007916904333996026,-0.008806768322089788,0.023548777131443436,-0.028351313382844644, ,1.1414718627929688
0.011480675572466986,0.020958380087509748,-0.0840602852540454, ,0.011775809643745567,0.020759793516953798,-0.08440558287347845, ,0.0004957531563397037, ,0.0030040836170278197,0.00014415675824149156,-0.007763819074324577,0.0008572917449555143,-0.0029615282201631747,-0.0033878757322511827, ,0.008325994605324205, ,0.0030831104953413734, ,5.520212877169399e-05, ,0.20869913319304315,-0.22720280115968508,0.09622619928000001,1.7871873883186011,0.7696734031787261,-1.2693669128063392, ,0.017132504343468274,0.018998386698392548,0.00801651309511827,-0.008806768322089788,0.016824967604519674,-0.022131276391619922, ,1.1560389995574951
0.011513639536105555,0.02096092865433111,-0.08414436854508853, ,0.011829298839545033,0.020761189636892507,-0.08454302292939754, ,0.000546316564881602, ,0.0034178891380866523,0.0003536735780697439,-0.008925392164269672,-0.014594282106503802,-0.019698149442995375,0.0002115546082261914, ,0.009563978065955705, ,0.024515507440007488, ,5.620369200183192e-05, ,0.20888447878202454,-0.22700201010495524,0.09631305071000001,1.7871873883186011,0.7698100396784915,-1.2695600094501762, ,0.017764309539212052,0.019494030722775425,0.009143979058553388,-0.008806768322089788,0.0,-0.007501598279332115, ,1.1704959869384766
0.011579176318947807,0.020967336145635028,-0.08431998241957762, ,0.011882975847953326,0.020762350911602362,-0.08468034523741091, ,0.0005139790467248163, ,0.0032320603849014407,0.0005247374597546702,-0.009100366943066752,0.02881304912861081,0.02066727724753068,-0.013804082687908613, ,0.00967151705947837, ,0.03545882240709979, ,5.7082610782128237e-05, ,0.2092551699599873,-0.2266081507283698,0.09649582760000001,1.7869776983751167,0.7703565856775533,-1.270577432245946, ,0.018256433543376447,0.01864746346206932,0.009578359302465424,-0.0069493765462156805,0.042199452241508534,-0.04980670597466905, ,1.1853749752044678
0.011613975977036919,0.02097323722683297,-0.08442093789558988, ,0.011936838374491384,0.02076328011036281,-0.08481754719749669, ,0.000552830043327529, ,0.0039230677294749975,0.00068563828852826,-0.010917933671237414,-0.023781155720883317,-0.03678900054752944,0.008918759346974642, ,0.011621610728392332, ,0.04380609288186649, ,5.805708405599916e-05, ,0.20942507008322025,-0.2264228051393884,0.09659693822000001,1.786768008431632,0.7706298586770841,-1.2708002680533386, ,0.017586534758797404,0.01974551426518327,0.011131244947589101,-0.019495401302681927,-0.015597972044647052,-0.0026767819494571635, ,1.1997809410095215
0.011690859204877878,0.020982847915917043,-0.08461979419543314, ,0.011990884135466177,0.020763979992101958,-0.0849546262235177, ,0.0005000306131436911, ,0.0035042158980609934,0.0003403345265457362,-0.009160191943437812,-0.0029760822423111205,-0.013639994398454092,0.0017567293885543255, ,0.00981348424825788, ,0.01396088995044121, ,5.8851749566146615e-05, ,0.20982665219267993,-0.22602122302992872,0.09680434462000001,1.7863486285446628,0.7704932221773186,-1.2707705288897828, ,0.018769173567735515,0.019671836973149,0.009436499715639812,-0.016221659376347862,0.009058125344466674,-0.021669487205288458, ,1.2141268253326416
0.01172357016691292,0.02098624601610426,-0.08471004612067187, ,0.0120451108579517,0.020764453305411025,-0.08509157974319727, ,0.0005460296032521503, ,0.003540446482105026,0.00022855304931209251,-0.009408723276580986,0.006692561451789869,0.0005817729494614704,-0.0006084106027879065, ,0.01005540011557355, ,0.0067177946395479745, ,5.9762666296315425e-05, ,0.21001199778166132,-0.22581270924232466,0.09689897379000001,1.7863486285446628,0.7709031316766151,-1.2711864613410127, ,0.01972089392320673,0.021745403656844818,0.009748354663402695,-0.016221659376347862,0.024917922604564113,-0.032588754532854244, ,1.228821039199829
0.011793395253049926,0.020991783073786206,-0.08488650829311152, ,0.012099516279769547,0.02076470278855971,-0.08522840519809559, ,0.0005120244452915374, ,0.003586991222728508,3.836304521356114e-05,-0.00868411824236596,0.00015326219043676001,-0.005730420338282963,0.0011936870498775991, ,0.009395844155932061, ,0.005732465190788826, ,6.0553894644449554e-05, ,0.21042130262399522,-0.22539568166711654,0.09708304697,1.7863486285446628,0.7714496776756767,-1.2716321329557985, ,0.021562586130077433,0.021931347713998333,0.008984101252115061,-0.015519064628521179,0.020098665047746177,-0.025748083863623265, ,1.2437009811401367
0.011833101363024465,0.020990780529916007,-0.08498337188641561, ,0.012154098149469904,0.02076473116951192,-0.08536510004358659, ,0.0005475889299689595, ,0.0038168313736236755,9.249002356696205e-05,-0.009790589996731248,-0.008094706589157586,-0.010639752570912998,-0.0014433078571171327, ,0.01050868253508647, ,0.013368938610669998, ,6.160540971926453e-05, ,0.21064526187734772,-0.22515627694801557,0.09718156501000001,1.785929248657694,0.7714496776756767,-1.2716321329557985, ,0.020856470672191377,0.02435128087207359,0.01005606787878788,-0.011240550343369618,0.013234767444211443,-0.019001750652928744, ,1.2543079853057861
0.011872582554744817,0.02099271583586726,-0.08508592592472373, ,0.012208854226312245,0.02076454116593979,-0.08550166174883349, ,0.0005813592628861062, ,0.0042844858829293765,0.00033540656235704137,-0.010592840012442954,-0.01413260525021018,-0.013857266774913831,0.004397952026992347, ,0.011431429323243255, ,0.019792782529452428, ,6.273516195210872e-05, ,0.21086922113070022,-0.22491687222891463,0.09728786079000001,1.7857195587142094,0.7717229506752076,-1.2720183262434723, ,0.02423313114363401,0.023718305813164406,0.010880335737704918,-0.012592661075932376,0.013773019839209677,-0.011230974159088513, ,1.2650389671325684
0.011914362900150677,0.02099582111521132,-0.08520013963739788, ,0.012263782280246147,0.020764135485239858,-0.08563808779676624, ,0.0006062761125227591, ,0.004073372015603853,0.0003482282919123606,-0.011623737204316299,0.03615181652444774,0.03942793166192177,0.01541501843273905, ,0.01232172427527088, ,0.05349313433481488, ,6.391615242291785e-05, ,0.21112407131554964,-0.22466974477693943,0.09740841576,1.7853001788272402,0.7724061331740348,-1.272820451982376, ,0.024295171929972034,0.02495317947895629,0.012290749629629632,-0.04036483542753522,0.07585347382015652,-0.06771196464406484, ,1.2766218185424805
0.011956192485324618,0.021002383324058772,-0.08532422780630478, ,0.012318880091892137,0.020763516824548096,-0.08577437568405774, ,0.0006254859042309892, ,0.004450069785137275,0.00062543779839331,-0.013462835086617005,0.026158349478160065,0.027591706713209554,0.012071014274003552, ,0.014193034281001955, ,0.03802053503705952, ,6.513110325474485e-05, ,0.21134803056890217,-0.2244071718592158,0.09753934105,1.7853001788272402,0.773089315672862,-1.2735408989811394, ,0.022866732905655607,0.02660413276099545,0.014096293380530976,-0.036577707430785936,0.06108515465016277,-0.05964053842667214, ,1.2872099876403809
0.012010640095719692,0.021013056778372667,-0.08547438553114613, ,0.01237414545252239,0.020762687870754668,-0.08591052292109949, ,0.0006205131402649104, ,0.005138026443615414,0.0008930613639055873,-0.014341961093577832,-0.006424232787007158,-0.012625318456152857,0.012277117319661203, ,0.015260692066374067, ,0.01416576246535796, ,6.631199167280227e-05, ,0.2116106034866258,-0.22412915347574372,0.09769489585,1.7853001788272402,0.7732259521726275,-1.2736523168848357, ,0.025258701506114128,0.025984923756426824,0.014858965970149254,-0.02828349770041207,0.019677990275297076,-0.02587577234600902, ,1.2978270053863525
0.012061531346942964,0.021021441180091704,-0.08561298279336296, ,0.012429576164041672,0.020761651300519265,-0.08604652703197889, ,0.000625226659507212, ,0.005160344994521821,0.0007442729326195745,-0.01438669672634681,-0.013093469387270108,-0.017621385588238,0.008700065026810677, ,0.01530229216021556, ,0.021953395052380885, ,6.748634617552626e-05, ,0.21185000820572675,-0.22385885782514586,0.09783748775000001,1.7853001788272402,0.7732259521726275,-1.2736523168848357, ,0.02473851448343868,0.027886259641043427,0.014831295642458102,-0.023566580733750262,0.012823182866662893,-0.02028613653841865, ,1.3088178634643555
0.012113054867427416,0.02102799095534374,-0.085754285185951, ,0.01248517003896803,0.020760409780286756,-0.08618238555445512, ,0.0006271676902144582, ,0.005091738836485511,0.0006041769497986365,-0.013241687100284302,-0.010387489448626224,-0.015951623476456563,-0.013371108767751185, ,0.0141997574425579, ,0.019035593541190873, ,6.864675232767895e-05, ,0.21211258112345038,-0.22357311670879956,0.09798396852,1.7850904888837558,0.7734992251721584,-1.2738751526922285, ,0.026128012543631823,0.028092641077107988,0.013672799587982834,0.0,0.010554033758138397,-0.018421416372187065, ,1.31984281539917
0.012156873654731632,0.021027001404793737,-0.08587232044385675, ,0.01254092490041351,0.02075896596630145,-0.0863180960399361, ,0.0006465711388992436, ,0.004275472368482358,-9.073848193106524e-05,-0.011193037300739476,0.06278459953971947,0.0663216743569558,-0.011585668969937122, ,0.011982152622192082, ,0.09132617507147651, ,7.003065894247211e-05, ,0.21239059950692246,-0.22328737559245324,0.09810841236000001,1.7844614190533024,0.774319044170751,-1.2746253388545477, ,0.029056013949317443,0.030097349051211794,0.011976550015037595,-0.021864054368167827,0.1044577920464308,-0.09572738110312727, ,1.32704496383667
0.012204276264996164,0.02102396714723832,-0.08598847227869563, ,0.012596838582065287,0.020757322504623463,-0.08645365605345431, ,0.00066453027208444, ,0.005113611327832724,-0.00040141031636400866,-0.012363248629448955,0.003809970162912173,0.0006759367777786046,0.03517832565933746, ,0.013385068835377503, ,0.0038694281652535472, ,7.144814260247075e-05, ,0.21269950882189145,-0.22297074354461005,0.09823026362000001,1.7840420391663332,0.7750022266695782,-1.2751824283730298, ,0.032005713847713585,0.03312284173070533,0.012814812164119069,-0.05975693694199988,0.04777798745566701,-0.04892558318928356, ,1.334096908569336
0.012204276264996164,0.02102396714723832,-0.08598847227869563, ,0.01265290892816607,0.02075548203114232,-0.08658906317364361, ,0.0007962819520260481, ,0.005113611327832724,-0.00040141031636400866,-0.012363248629448955,0.003809970162912173,0.0006759367777786046,0.03517832565933746, ,0.013385068835377503, ,0.0038694281652535472, ,7.32045556853232e-05, ,0.21269950882189145,-0.22297074354461005,0.09823026362000001,1.7840420391663332,0.7750022266695782,-1.2751824283730298, ,0.032005713847713585,0.03312284173070533,0.012814812164119069,-0.05975693694199988,0.04777798745566701,-0.04892558318928356, ,1.341372013092041
0.012265132856320863,0.021022919614638463,-0.08613190956224392, ,0.012709133793495146,0.020753447171594074,-0.08672431499271571, ,0.0007878428928564479, ,0.005907825088623534,0.00034016856176096605,-0.014478346577519532,-0.005870510410715528,-0.008859115391433655,-0.03114706513993265, ,0.01564099202566614, ,0.0106276141160343, ,7.491961927218363e-05, ,0.21303930906835733,-0.22260005236664726,0.09837674439,1.7838323492228487,0.7750022266695782,-1.2751824283730298, ,0.032577048252135525,0.03525146417476626,0.014984770950141113,0.015224138503978813,0.02115630630494027,-0.026429622225326403, ,1.3487348556518555
0.012327625416245984,0.021030128930944567,-0.08628701176229203, ,0.012765511043349142,0.02075122054157467,-0.08685940911643637, ,0.0007727693337056522, ,0.006560784814097267,0.0007427782588329522,-0.016634832475933576,-0.03019032248958089,-0.034508995626227994,-0.005092182413892844, ,0.017897297796624457, ,0.04585111860557567, ,7.65763482486764e-05, ,0.21337138658194899,-0.22226025212018138,0.09853748435000001,1.7840420391663332,0.7751388631693437,-1.2753755250168668, ,0.03332055532249676,0.0344954349540061,0.017127754322580648,-0.005564318689499601,0.0,-0.005602631377205953, ,1.3564858436584473
0.012390468419606601,0.021036279623396534,-0.08646766732839128, ,0.01282203855352265,0.02074880474655606,-0.08699434316410148, ,0.000739108937318309, ,0.006600636126247619,0.0009178118450692677,-0.019575677478722794,0.045615788092088466,0.05653535349722732,-0.007846802529595433, ,0.020678924648178623, ,0.07264326151595335, ,7.812649703391703e-05, ,0.21370346409554064,-0.2218818382093444,0.09872674269000001,1.783622659279364,0.7759586821679364,-1.276289068659467, ,0.03406207521840301,0.03970583328806308,0.020606483208279434,-0.024862670084988818,0.10010313500171185,-0.08811832027817522, ,1.3636298179626465
0.012390468419606601,0.021036279623396534,-0.08646766732839128, ,0.012878714210289424,0.020746202381901526,-0.0871291147685149, ,0.0008718035754680807, ,0.006600636126247619,0.0009178118450692677,-0.019575677478722794,0.045615788092088466,0.05653535349722732,-0.007846802529595433, ,0.020678924648178623, ,0.07264326151595335, ,8.000952487970715e-05, ,0.21370346409554064,-0.2218818382093444,0.09872674269000001,1.783622659279364,0.7759586821679364,-1.276289068659467, ,0.03406207521840301,0.03970583328806308,0.020606483208279434,-0.024862670084988818,0.10010313500171185,-0.08811832027817522, ,1.3708410263061523
0.012457455923531608,0.021043362668781155,-0.08666493033147549, ,0.012935535910382667,0.020743416032880126,-0.08726372157596299, ,0.0008228483533985728, ,0.007375041521474093,0.0009356134090493212,-0.02197409500513597,0.024402061671580537,0.0144332673332974,0.056380135162001806, ,0.023197574467805928, ,0.02835092055607156, ,8.174468012483584e-05, ,0.21404326434200652,-0.22148797883275895,0.09893285280000001,1.7829935894489106,0.7767785011665289,-1.2772026123020672, ,0.03601401956678208,0.039973437893205885,0.022886223448275865,-0.09797842053907409,0.07479261016146282,-0.08612205523375026, ,1.3788049221038818
0.012535558528571213,0.021052935421273275,-0.08688127166280935, ,0.012992501560976257,0.020740448274682546,-0.08739816124619244, ,0.0007573770481456944, ,0.008164732777554518,0.0013508925792003559,-0.020953399497219746,-0.00648243993435699,-0.01998272718950691,-0.06616066311167274, ,0.022528486912784453, ,0.02100779318361879, ,8.32912626453984e-05, ,0.21442940098571775,-0.22107867399042505,0.09915711097,1.782364519618457,0.7771884106658253,-1.277618544753297, ,0.04022761405615548,0.04221394197440871,0.021730984338335608,0.046411939448140954,0.0103258829197157,-0.028168115524456805, ,1.3866729736328125
0.012620588354023956,0.021062610276772285,-0.08709418684459938, ,0.013049609079665347,0.02073730167243609,-0.08753243145238626, ,0.0006942210075612132, ,0.008300733792057379,0.0007979968725458812,-0.019768957327929892,-0.021221739687159232,-0.03758421676669795,-0.0467545784891946, ,0.021455783703437852, ,0.043161702537416406, ,8.465820171863781e-05, ,0.21486959675954853,-0.22063847821659424,0.09937748027000001,1.782364519618457,0.7773250471655907,-1.2778116413971339, ,0.04393376924003276,0.043791851203724405,0.020421553230769232,0.02837341070289106,0.0,-0.01878164840811648, ,1.3937609195709229
0.012620588354023956,0.021062610276772285,-0.08709418684459938, ,0.01310685639444706,0.020733978781219204,-0.08766652988113982, ,0.0008197754683342942, ,0.008300733792057379,0.0007979968725458812,-0.019768957327929892,-0.021221739687159232,-0.03758421676669795,-0.0467545784891946, ,0.021455783703437852, ,0.043161702537416406, ,8.633464260754766e-05, ,0.21486959675954853,-0.22063847821659424,0.09937748027000001,1.782364519618457,0.7773250471655907,-1.2778116413971339, ,0.04393376924003276,0.043791851203724405,0.020421553230769232,0.02837341070289106,0.0,-0.01878164840811648, ,1.4008469581604004
0.012698687246540134,0.021064971320095847,-0.08728127695433036, ,0.013164241443701714,0.02073048214607817,-0.08780045423243814, ,0.0007734137082656336, ,0.0078000809630118855,-0.00017597734382715843,-0.018429619196356127,0.0004537389310918279,-0.00924490626958733,-0.02956168180356889, ,0.020013073096797982, ,0.00925591944974906, ,8.810091269921369e-05, ,0.21530979253337934,-0.22016739151126655,0.09957192377000001,1.7825742095619415,0.777734956664887,-1.2782275738483637, ,0.044489892901299004,0.04927151690470964,0.019053602296650717,0.0,0.03656124517781348,-0.051269406691346844, ,1.4045360088348389
0.012698687246540134,0.021064971320095847,-0.08728127695433036, ,0.013221762176173085,0.020726814302040493,-0.08793420221963136, ,0.0009023685239074938, ,0.0078000809630118855,-0.00017597734382715843,-0.018429619196356127,0.0004537389310918279,-0.00924490626958733,-0.02956168180356889, ,0.020013073096797982, ,0.00925591944974906, ,9.018877836897852e-05, ,0.21530979253337934,-0.22016739151126655,0.09957192377000001,1.7825742095619415,0.777734956664887,-1.2782275738483637, ,0.044489892901299004,0.04927151690470964,0.019053602296650717,0.0,0.03656124517781348,-0.051269406691346844, ,1.4082520008087158
0.012698687246540134,0.021064971320095847,-0.08728127695433036, ,0.013279416550949476,0.020722977774131027,-0.08806777156941208, ,0.0010357508822269443, ,0.0078000809630118855,-0.00017597734382715843,-0.018429619196356127,0.0004537389310918279,-0.00924490626958733,-0.02956168180356889, ,0.020013073096797982, ,0.00925591944974906, ,9.260709577014979e-05, ,0.21530979253337934,-0.22016739151126655,0.09957192377000001,1.7825742095619415,0.777734956664887,-1.2782275738483637, ,0.044489892901299004,0.04927151690470964,0.019053602296650717,0.0,0.03656124517781348,-0.051269406691346844, ,1.412060022354126
0.012777851671978452,0.02106140563986132,-0.08747025806131355, ,0.013337202537444708,0.020718975077387704,-0.08820116002179121, ,0.0009820131142932536, ,0.007959362729860165,-0.00032648334556574846,-0.019099977975662798,0.04158968010407864,0.0430278593400259,-0.01167512089214736, ,0.02069461778123053, ,0.05984225621256509, ,0.000516547049450303, ,0.2158040474373297,-0.21966541387444197,0.09977025614000001,1.7821548296749725,0.7786914121632451,-1.27917085665452, ,0.0496063468679931,0.051295644085659876,0.020086773669609086,-0.028459688983951147,0.10282845249807226,-0.09748388680410183, ,1.4157559871673584
0.012777851671978452,0.02106140563986132,-0.08747025806131355, ,0.013395118115378551,0.020714808716875244,-0.0883343653300743, ,0.0011170625144083881, ,0.007959362729860165,-0.00032648334556574846,-0.019099977975662798,0.04158968010407864,0.0430278593400259,-0.01167512089214736, ,0.02069461778123053, ,0.05984225621256509, ,0.0005247732886963041, ,0.2158040474373297,-0.21966541387444197,0.09977025614000001,1.7821548296749725,0.7786914121632451,-1.27917085665452, ,0.0496063468679931,0.051295644085659876,0.020086773669609086,-0.028459688983951147,0.10282845249807226,-0.09748388680410183, ,1.4195499420166016
0.012863483742265992,0.021055609295994867,-0.08768613083782495, ,0.013453161274757614,0.020710481187701493,-0.08846738526083847, ,0.0010378783536319478, ,0.009560436727202299,-1.5736924724762448e-05,-0.025040699183842927,0.03525009586673702,0.039425205602276754,0.05789167650704146, ,0.026803708953824845, ,0.05288578495230182, ,0.0005317071409251643, ,0.21632147053990275,-0.219117099840372,0.09999581060000001,1.78110637995755,0.7797845041613686,-1.2801438786242318, ,0.05520473621784223,0.05723579104853485,0.02624186411861615,-0.10662970324596502,0.12247372193058083,-0.11291669376988944, ,1.4235148429870605
0.012863483742265992,0.021055609295994867,-0.08768613083782495, ,0.01351133001585638,0.020705994975032106,-0.08860021759390885, ,0.0011736650140799078, ,0.009560436727202299,-1.5736924724762448e-05,-0.025040699183842927,0.03525009586673702,0.039425205602276754,0.05789167650704146, ,0.026803708953824845, ,0.05288578495230182, ,0.0005402665792338942, ,0.21632147053990275,-0.219117099840372,0.09999581060000001,1.78110637995755,0.7797845041613686,-1.2801438786242318, ,0.05520473621784223,0.05723579104853485,0.02624186411861615,-0.10662970324596502,0.12247372193058083,-0.11291669376988944, ,1.427182912826538
0.012863483742265992,0.021055609295994867,-0.08768613083782495, ,0.013569622349197735,0.0207013525541059,-0.08873286012233415, ,0.0013114006887379767, ,0.009560436727202299,-1.5736924724762448e-05,-0.025040699183842927,0.03525009586673702,0.039425205602276754,0.05789167650704146, ,0.026803708953824845, ,0.05288578495230182, ,0.0005504130806747373, ,0.21632147053990275,-0.219117099840372,0.09999581060000001,1.78110637995755,0.7797845041613686,-1.2801438786242318, ,0.05520473621784223,0.05723579104853485,0.02624186411861615,-0.10662970324596502,0.12247372193058083,-0.11291669376988944, ,1.4306869506835938
0.012971558849413884,0.021068551447433474,-0.08797925534300456, ,0.013628036295534017,0.02069655639025013,-0.0888653106523643, ,0.001163802805924544, ,0.01162376726206295,0.0018022074614761157,-0.03238190955594559,0.04158151853255494,0.045147949689229354,0.00860372850185961, ,0.034452111453236754, ,0.0613785340286722, ,0.0005583791810026569, ,0.21689295277259535,-0.2185224494090567,0.10030432762000001,1.7808966900140653,0.7810142326592575,-1.2812283184976403, ,0.05879612240301783,0.05901551091944699,0.03403592205128206,-0.05435500340695383,0.12028818022823952,-0.10997533148910078, ,1.4342608451843262
0.012971558849413884,0.021068551447433474,-0.08797925534300456, ,0.013686569885827454,0.0206916089388951,-0.08899756700342612, ,0.0013001096394869628, ,0.01162376726206295,0.0018022074614761157,-0.03238190955594559,0.04158151853255494,0.045147949689229354,0.00860372850185961, ,0.034452111453236754, ,0.0613785340286722, ,0.0005678885458550197, ,0.21689295277259535,-0.2185224494090567,0.10030432762000001,1.7808966900140653,0.7810142326592575,-1.2812283184976403, ,0.05879612240301783,0.05901551091944699,0.03403592205128206,-0.05435500340695383,0.12028818022823952,-0.10997533148910078, ,1.437835931777954
0.012971558849413884,0.021068551447433474,-0.08797925534300456, ,0.013745221161231431,0.020686512645590013,-0.08912962700809964, ,0.0014380062540526278, ,0.01162376726206295,0.0018022074614761157,-0.03238190955594559,0.04158151853255494,0.045147949689229354,0.00860372850185961, ,0.034452111453236754, ,0.0613785340286722, ,0.0005789026940600528, ,0.21689295277259535,-0.2185224494090567,0.10030432762000001,1.7808966900140653,0.7810142326592575,-1.2812283184976403, ,0.05879612240301783,0.05901551091944699,0.03403592205128206,-0.05435500340695383,0.12028818022823952,-0.10997533148910078, ,1.4415249824523926
0.013096988964043071,0.021094328074936042,-0.0883364963715043, ,0.013803988173070858,0.020681269946017836,-0.08926148851209542, ,0.0012353442271636965, ,0.01361110821754017,0.0029359443211253774,-0.03952987260600769,0.03597444065269819,0.04998303309405923,-0.030623660033185347, ,0.041910534048297865, ,0.061582200800126406, ,0.0005871082132238483, ,0.21749532593678486,-0.21791235351199298,0.10068025172000002,1.7806870000705808,0.7822439611571466,-1.2823127583710487, ,0.06202414480945802,0.06687592780723804,0.04148128,-0.01076820416835256,0.11886966129390304,-0.10180298474816661, ,1.4452269077301025
0.013096988964043071,0.021094328074936042,-0.0883364963715043, ,0.013862868982823297,0.0206758832660104,-0.08939314937422997, ,0.0013704684707985053, ,0.01361110821754017,0.0029359443211253774,-0.03952987260600769,0.03597444065269819,0.04998303309405923,-0.030623660033185347, ,0.041910534048297865, ,0.061582200800126406, ,0.0005967793275148934, ,0.21749532593678486,-0.21791235351199298,0.10068025172000002,1.7806870000705808,0.7822439611571466,-1.2823127583710487, ,0.06202414480945802,0.06687592780723804,0.04148128,-0.01076820416835256,0.11886966129390304,-0.10180298474816661, ,1.448913812637329
0.013096988964043071,0.021094328074936042,-0.0883364963715043, ,0.013921861662099536,0.020670355021563693,-0.08952460746640255, ,0.00150724121885156, ,0.01361110821754017,0.0029359443211253774,-0.03952987260600769,0.03597444065269819,0.04998303309405923,-0.030623660033185347, ,0.041910534048297865, ,0.061582200800126406, ,0.0006078825213116821, ,0.21749532593678486,-0.21791235351199298,0.10068025172000002,1.7806870000705808,0.7822439611571466,-1.2823127583710487, ,0.06202414480945802,0.06687592780723804,0.04148128,-0.01076820416835256,0.11886966129390304,-0.10180298474816661, ,1.4524729251861572
0.013251991256202581,0.021121804548843458,-0.08878418111012146, ,0.013980964292624529,0.02066468761885306,-0.08965586067357216, ,0.0012248195119492866, ,0.014852969863433232,0.002714194894509425,-0.04280589692573386,0.018168038148024833,0.02673958629140581,0.0170576842560177, ,0.04539077416508765, ,0.032325521881624714, ,0.0006153154971024965, ,0.21820581736121353,-0.21714780295744476,0.10114821241000001,1.7798482402966427,0.7834736896550355,-1.2834788769845975, ,0.06730279543153955,0.07282957909322392,0.04474385258426967,-0.0644607397173342,0.1120771935205683,-0.10244629383997823, ,1.4560139179229736
0.013251991256202581,0.021121804548843458,-0.08878418111012146, ,0.014040174966218174,0.020658883454248305,-0.0897869068937332, ,0.0013568303127786093, ,0.014852969863433232,0.002714194894509425,-0.04280589692573386,0.018168038148024833,0.02673958629140581,0.0170576842560177, ,0.04539077416508765, ,0.032325521881624714, ,0.0006241430544319741, ,0.21820581736121353,-0.21714780295744476,0.10114821241000001,1.7798482402966427,0.7834736896550355,-1.2834788769845975, ,0.06730279543153955,0.07282957909322392,0.04474385258426967,-0.0644607397173342,0.1120771935205683,-0.10244629383997823, ,1.4595649242401123
0.013251991256202581,0.021121804548843458,-0.08878418111012146, ,0.014099491784776036,0.02065294491432888,-0.0899177440378922, ,0.0014909900784463997, ,0.014852969863433232,0.002714194894509425,-0.04280589692573386,0.018168038148024833,0.02673958629140581,0.0170576842560177, ,0.04539077416508765, ,0.032325521881624714, ,0.0006343412547144967, ,0.21820581736121353,-0.21714780295744476,0.10114821241000001,1.7798482402966427,0.7834736896550355,-1.2834788769845975, ,0.06730279543153955,0.07282957909322392,0.04474385258426967,-0.0644607397173342,0.1120771935205683,-0.10244629383997823, ,1.4631538391113281
0.013400271908882893,0.02114185565304136,-0.08919905647257224, ,0.014158912860250158,0.02064687437589872,-0.09004837003004422, ,0.001241723027377238, ,0.015361357252886409,0.0018943425786195562,-0.04211870545120666,0.012219577957431182,0.019236959356530536,0.0325685078127643, ,0.04487254371373973, ,0.022786973080356265, ,0.0006414038334663891, ,0.21890858605276795,-0.2164064206015192,0.10158117327,1.7787997905792199,0.7845667816531591,-1.2844518989543094, ,0.0743124052924595,0.07816881512229883,0.04400224176795581,-0.08316064265604187,0.11558575778162815,-0.10585764376428251, ,1.4671778678894043
0.013400271908882893,0.02114185565304136,-0.08919905647257224, ,0.01421843631463014,0.020640674206002557,-0.0901787828071495, ,0.0013712911902115617, ,0.015361357252886409,0.0018943425786195562,-0.04211870545120666,0.012219577957431182,0.019236959356530536,0.0325685078127643, ,0.04487254371373973, ,0.022786973080356265, ,0.0006497933433140347, ,0.21890858605276795,-0.2164064206015192,0.10158117327,1.7787997905792199,0.7845667816531591,-1.2844518989543094, ,0.0743124052924595,0.07816881512229883,0.04400224176795581,-0.08316064265604187,0.11558575778162815,-0.10585764376428251, ,1.471078872680664
0.013558185843319154,0.02115997967883751,-0.08961461393894016, ,0.014278060279923465,0.020634346761939457,-0.09030898031910975, ,0.0011298910733840456, ,0.01577586799594859,0.001128186734676171,-0.03958194794590256,0.022012735607249614,0.02713088412539818,-0.02735129930887291, ,0.04262489201776391, ,0.03493634558333817, ,0.0006552489993375576, ,0.2196499684086935,-0.21564959277984522,0.10198691204000002,1.7785901006357356,0.7856598736512825,-1.2853432421838809, ,0.08302444580793594,0.08390534178467797,0.04180790425196851,-0.022870716031954445,0.11811334375225978,-0.10705526434151018, ,1.4748408794403076
0.013558185843319154,0.02115997967883751,-0.08961461393894016, ,0.014337782898136682,0.020627894391279215,-0.09043896052874453, ,0.001253169430379731, ,0.01577586799594859,0.001128186734676171,-0.03958194794590256,0.022012735607249614,0.02713088412539818,-0.02735129930887291, ,0.04262489201776391, ,0.03493634558333817, ,0.000661967206427919, ,0.2196499684086935,-0.21564959277984522,0.10198691204000002,1.7785901006357356,0.7856598736512825,-1.2853432421838809, ,0.08302444580793594,0.08390534178467797,0.04180790425196851,-0.022870716031954445,0.11811334375225978,-0.10705526434151018, ,1.47849702835083
0.013558185843319154,0.02115997967883751,-0.08961461393894016, ,0.01439760232125602,0.020621319431876988,-0.09056872141176758, ,0.0013802521345003022, ,0.01577586799594859,0.001128186734676171,-0.03958194794590256,0.022012735607249614,0.02713088412539818,-0.02735129930887291, ,0.04262489201776391, ,0.03493634558333817, ,0.0006699481500731677, ,0.2196499684086935,-0.21564959277984522,0.10198691204000002,1.7785901006357356,0.7856598736512825,-1.2853432421838809, ,0.08302444580793594,0.08390534178467797,0.04180790425196851,-0.022870716031954445,0.11811334375225978,-0.10705526434151018, ,1.4820938110351562
0.013710372269448965,0.02116217235445302,-0.08997502696237268, ,0.014457516711228214,0.020614624211888633,-0.09069826095676362, ,0.0011752026191044675, ,0.015356830902805547,-0.0005808122238357761,-0.03452257133635131,0.00940903794690854,0.018280677451079738,-0.045944278453780955, ,0.03778858994313211, ,0.020558796829685297, ,0.0006755003969855997, ,0.22055352815497778,-0.2147383103006867,0.10239394710000001,1.7783804106922512,0.7868896021491716,-1.2865093607974298, ,0.08960995425729064,0.09107192088144989,0.03611975401360545,0.0,0.11196226777209738,-0.0971587644958915, ,1.4856669902801514
0.013710372269448965,0.02116217235445302,-0.08997502696237268, ,0.014517524239941512,0.020607811049786127,-0.09082757716516454, ,0.001298326849395953, ,0.015356830902805547,-0.0005808122238357761,-0.03452257133635131,0.00940903794690854,0.018280677451079738,-0.045944278453780955, ,0.03778858994313211, ,0.020558796829685297, ,0.0006822702497291905, ,0.22055352815497778,-0.2147383103006867,0.10239394710000001,1.7783804106922512,0.7868896021491716,-1.2865093607974298, ,0.08960995425729064,0.09107192088144989,0.03611975401360545,0.0,0.11196226777209738,-0.0971587644958915, ,1.4892048835754395
0.013710372269448965,0.02116217235445302,-0.08997502696237268, ,0.014577623089205996,0.020600882254371764,-0.09095666805122599, ,0.001425057819228248, ,0.015356830902805547,-0.0005808122238357761,-0.03452257133635131,0.00940903794690854,0.018280677451079738,-0.045944278453780955, ,0.03778858994313211, ,0.020558796829685297, ,0.0006902572128420836, ,0.22055352815497778,-0.2147383103006867,0.10239394710000001,1.7783804106922512,0.7868896021491716,-1.2865093607974298, ,0.08960995425729064,0.09107192088144989,0.03611975401360545,0.0,0.11196226777209738,-0.0971587644958915, ,1.4927618503570557
0.013871365283983523,0.021142689727427836,-0.09032604124552213, ,0.014637811450735071,0.020593840124794885,-0.09108553164200363, ,0.0012105789008512086, ,0.01561933435192164,-0.0027713318572424993,-0.03243356242203519,-0.029653457808729036,-0.02183128529242174,0.09606572386233643, ,0.036105122313103165, ,0.036822502461797864, ,0.0006957925499485636, ,0.22153431523000428,-0.21374207775991175,0.10275950088000001,1.7773319609748286,0.7881193306470605,-1.2875121219306975, ,0.09895405793375472,0.09844081074530164,0.03367613429175476,-0.15084748482725485,0.11315942983925839,-0.09767516671292019, ,1.4969890117645264
0.013871365283983523,0.021142689727427836,-0.09032604124552213, ,0.014698087526125584,0.020586686950565532,-0.09121416597732947, ,0.0013346813450329077, ,0.01561933435192164,-0.0027713318572424993,-0.03243356242203519,-0.029653457808729036,-0.02183128529242174,0.09606572386233643, ,0.036105122313103165, ,0.036822502461797864, ,0.0007025176951599777, ,0.22153431523000428,-0.21374207775991175,0.10275950088000001,1.7773319609748286,0.7881193306470605,-1.2875121219306975, ,0.09895405793375472,0.09844081074530164,0.03367613429175476,-0.15084748482725485,0.11315942983925839,-0.09767516671292019, ,1.5005748271942139
0.014024608628871109,0.021114540531501014,-0.09064193429027674, ,0.014758449526839084,0.020579425011570493,-0.09134256910978884, ,0.0011470659237871699, ,0.01570468857173329,-0.0024261615043892075,-0.03205902134470961,-0.002419033389581106,0.00558285585930855,-0.004463995443975795, ,0.03578134084073788, ,0.006081622897575075, ,0.0007071484058748444, ,0.22249965683928236,-0.21274584521913678,0.10308746225000001,1.776283511257406,0.789212422645184,-1.28856682264055, ,0.09895405793375472,0.10031389171085707,0.03346388974789917,-0.049005899322712085,0.11902672874024328,-0.10540025163251067, ,1.5041718482971191
0.014024608628871109,0.021114540531501014,-0.09064193429027674, ,0.01481889567418232,0.020572056578088038,-0.09147073910469627, ,0.001269684279836836, ,0.01570468857173329,-0.0024261615043892075,-0.03205902134470961,-0.002419033389581106,0.00558285585930855,-0.004463995443975795, ,0.03578134084073788, ,0.006081622897575075, ,0.0007129477447816691, ,0.22249965683928236,-0.21274584521913678,0.10308746225000001,1.776283511257406,0.789212422645184,-1.28856682264055, ,0.09895405793375472,0.10031389171085707,0.03346388974789917,-0.049005899322712085,0.11902672874024328,-0.10540025163251067, ,1.5078349113464355
0.014024608628871109,0.021114540531501014,-0.09064193429027674, ,0.014879424199288508,0.020564583910803975,-0.09159867404007246, ,0.0013958914330691034, ,0.01570468857173329,-0.0024261615043892075,-0.03205902134470961,-0.002419033389581106,0.00558285585930855,-0.004463995443975795, ,0.03578134084073788, ,0.006081622897575075, ,0.0007199165579274592, ,0.22249965683928236,-0.21274584521913678,0.10308746225000001,1.776283511257406,0.789212422645184,-1.28856682264055, ,0.09895405793375472,0.10031389171085707,0.03346388974789917,-0.049005899322712085,0.11902672874024328,-0.10540025163251067, ,1.511488914489746
0.014177989180580528,0.021089791366465743,-0.09095372889782934, ,0.014940033343097518,0.020557009260825227,-0.0917263720066201, ,0.0012089439405029534, ,0.016006030525520992,-0.003160277615302907,-0.03246147229044913,0.0002758010089841406,0.018258272986803287,-0.028589130740405436, ,0.03633080718967432, ,0.018259368937236117, ,0.0007248562284585248, ,0.22347272118143463,-0.21172644447973915,0.10341412733000001,1.776283511257406,0.7905787876428384,-1.2898443591577953, ,0.10084690920135046,0.10983442310008192,0.03381913273885351,-0.02749926005433568,0.1294207659585983,-0.1123375725935822, ,1.5151820182800293
0.014177989180580528,0.021089791366465743,-0.09095372889782934, ,0.015000721356337125,0.020549334869696574,-0.09185383110770073, ,0.001333853607462438, ,0.016006030525520992,-0.003160277615302907,-0.03246147229044913,0.0002758010089841406,0.018258272986803287,-0.028589130740405436, ,0.03633080718967432, ,0.018259368937236117, ,0.0007309462022485639, ,0.22347272118143463,-0.21172644447973915,0.10341412733000001,1.776283511257406,0.7905787876428384,-1.2898443591577953, ,0.10084690920135046,0.10983442310008192,0.03381913273885351,-0.02749926005433568,0.1294207659585983,-0.1123375725935822, ,1.5187900066375732
0.014177989180580528,0.021089791366465743,-0.09095372889782934, ,0.015061486499503658,0.02054156296941492,-0.09198104945931139, ,0.0014616803425924138, ,0.016006030525520992,-0.003160277615302907,-0.03246147229044913,0.0002758010089841406,0.018258272986803287,-0.028589130740405436, ,0.03633080718967432, ,0.018259368937236117, ,0.000738181193737117, ,0.22347272118143463,-0.21172644447973915,0.10341412733000001,1.776283511257406,0.7905787876428384,-1.2898443591577953, ,0.10084690920135046,0.10983442310008192,0.03381913273885351,-0.02749926005433568,0.1294207659585983,-0.1123375725935822, ,1.522425889968872
0.01434748549276348,0.02105553001534173,-0.09129534514426597, ,0.015122327042842738,0.020533695782444586,-0.09210802519006017, ,0.0012382000045164912, ,0.016304262740320184,-0.0030128585412794776,-0.03335611300975994,-0.00011272862496977912,0.011746458033769945,-0.05692706878498443, ,0.03724965201468371, ,0.011745241207017561, ,0.0007430833389408364, ,0.22449212192083226,-0.21059892548010237,0.10375634789000002,1.776073821313921,0.7918085161407274,-1.2910104777713443, ,0.09978647903098925,0.11086091303559671,0.03470329307189543,0.0,0.11539933645348477,-0.10898113929324861, ,1.5259699821472168
0.01434748549276348,0.02105553001534173,-0.09129534514426597, ,0.015183241266330359,0.020525735521732938,-0.09223475644114382, ,0.0013644279032657904, ,0.016304262740320184,-0.0030128585412794776,-0.03335611300975994,-0.00011272862496977912,0.011746458033769945,-0.05692706878498443, ,0.03724965201468371, ,0.011745241207017561, ,0.000749115810439137, ,0.22449212192083226,-0.21059892548010237,0.10375634789000002,1.776073821313921,0.7918085161407274,-1.2910104777713443, ,0.09978647903098925,0.11086091303559671,0.03470329307189543,0.0,0.11539933645348477,-0.10898113929324861, ,1.529541015625
0.01434748549276348,0.02105553001534173,-0.09129534514426597, ,0.015244227459653242,0.020517684390724787,-0.09236124136632323, ,0.0014931707294535497, ,0.016304262740320184,-0.0030128585412794776,-0.03335611300975994,-0.00011272862496977912,0.011746458033769945,-0.05692706878498443, ,0.03724965201468371, ,0.011745241207017561, ,0.0007562701846604294, ,0.22552696812597836,-0.2094714064804656,0.10410893877,1.7750253715964985,0.7929016081388509,-1.2919834997410562, ,0.10686592517845808,0.1170122583951551,0.03611975401360545,-0.1458994252245589,0.10800425548745846,-0.10106463883790515, ,1.5331089496612549
0.01450851556652927,0.02101915741110181,-0.0916232371489296, ,0.015305283922190138,0.020509544583378506,-0.09248747813190046, ,0.0012811937883899932, ,0.01728021020933957,-0.00423289559585007,-0.03496799757436762,-0.045420484646334816,-0.03285592158260709,0.08323851259523697, ,0.03923370903146056, ,0.05605782484501925, ,0.0007612694570769015, ,0.22552696812597836,-0.2094714064804656,0.10410893877,1.7750253715964985,0.7929016081388509,-1.2919834997410562, ,0.10686592517845808,0.1170122583951551,0.03611975401360545,-0.1458994252245589,0.10800425548745846,-0.10106463883790515, ,1.5373449325561523
0.01450851556652927,0.02101915741110181,-0.0916232371489296, ,0.01536640896299223,0.02050131828418018,-0.09261346491669517, ,0.0014087900741841174, ,0.01728021020933957,-0.00423289559585007,-0.03496799757436762,-0.045420484646334816,-0.03285592158260709,0.08323851259523697, ,0.03923370903146056, ,0.05605782484501925, ,0.0007673781421439508, ,0.22552696812597836,-0.2094714064804656,0.10410893877,1.7750253715964985,0.7929016081388509,-1.2919834997410562, ,0.10686592517845808,0.1170122583951551,0.03611975401360545,-0.1458994252245589,0.10800425548745846,-0.10106463883790515, ,1.5410449504852295
0.014691896584606241,0.02097760665670791,-0.09198740374879949, ,0.015427600900764121,0.02049300766815965,-0.09273919991202044, ,0.001158142690495895, ,0.017904152580632077,-0.003684157116023221,-0.03473965377461909,-0.02640866103148821,-0.024078777499653762,0.0005114462968588255, ,0.03925525745255666, ,0.03573729572930457, ,0.0007710301472687353, ,0.22666220985848937,-0.20825121468633812,0.10448615916000001,1.773976921879076,0.7939947001369744,-1.2931198791910492, ,0.11151226975143451,0.11586928151217434,0.03611975401360545,-0.06031008184702085,0.10329874099392411,-0.10109001868807772, ,1.5447888374328613
0.014691896584606241,0.02097760665670791,-0.09198740374879949, ,0.015488858063844608,0.02048461490090505,-0.0928646813216599, ,0.001283668341326232, ,0.017904152580632077,-0.003684157116023221,-0.03473965377461909,-0.02640866103148821,-0.024078777499653762,0.0005114462968588255, ,0.03925525745255666, ,0.03573729572930457, ,0.0007757767972137121, ,0.22666220985848937,-0.20825121468633812,0.10448615916000001,1.773976921879076,0.7939947001369744,-1.2931198791910492, ,0.11151226975143451,0.11586928151217434,0.03611975401360545,-0.06031008184702085,0.10329874099392411,-0.10109001868807772, ,1.5485119819641113
0.014691896584606241,0.02097760665670791,-0.09198740374879949, ,0.015550178790187538,0.02047614213857835,-0.09298990736184401, ,0.0014117820304592789, ,0.017904152580632077,-0.003684157116023221,-0.03473965377461909,-0.02640866103148821,-0.024078777499653762,0.0005114462968588255, ,0.03925525745255666, ,0.03573729572930457, ,0.0007816117076104603, ,0.22666220985848937,-0.20825121468633812,0.10448615916000001,1.773976921879076,0.7939947001369744,-1.2931198791910492, ,0.11151226975143451,0.11586928151217434,0.03611975401360545,-0.06031008184702085,0.10329874099392411,-0.10109001868807772, ,1.552189826965332
0.01487333365803214,0.020944028975752964,-0.09233630809473355, ,0.015611561427342506,0.020467591527930432,-0.09311487626122641, ,0.0011739426182504299, ,0.018435012783158546,-0.0038402884823656733,-0.03515256469192734,-0.009437221408877296,-0.005297626104672989,-0.03361821191344065, ,0.039878569637878766, ,0.010819996009932541, ,0.000785178352252642, ,0.22778972885812615,-0.20708508202233022,0.10485041665000001,1.773976921879076,0.795087792135098,-1.2940112224206208, ,0.11586928151217434,0.11997084899933096,0.03670233069124424,-0.029373748387071224,0.12063854994921341,-0.1149605621240608, ,1.5558619499206543
0.01487333365803214,0.020944028975752964,-0.09233630809473355, ,0.0156730043324359,0.02045896520631642,-0.09323958626086014, ,0.0013002582410130575, ,0.018435012783158546,-0.0038402884823656733,-0.03515256469192734,-0.009437221408877296,-0.005297626104672989,-0.03361821191344065, ,0.039878569637878766, ,0.010819996009932541, ,0.0007898187116108439, ,0.22778972885812615,-0.20708508202233022,0.10485041665000001,1.773976921879076,0.795087792135098,-1.2940112224206208, ,0.11586928151217434,0.11997084899933096,0.03670233069124424,-0.029373748387071224,0.12063854994921341,-0.1149605621240608, ,1.5594558715820312
0.01487333365803214,0.020944028975752964,-0.09233630809473355, ,0.01573450587215118,0.02045026530171004,-0.09336403561417464, ,0.0014288610857573242, ,0.018435012783158546,-0.0038402884823656733,-0.03515256469192734,-0.009437221408877296,-0.005297626104672989,-0.03361821191344065, ,0.039878569637878766, ,0.010819996009932541, ,0.0007955244470942946, ,0.22778972885812615,-0.20708508202233022,0.10485041665000001,1.773976921879076,0.795087792135098,-1.2940112224206208, ,0.11586928151217434,0.11997084899933096,0.03670233069124424,-0.029373748387071224,0.12063854994921341,-0.1149605621240608, ,1.5630278587341309
0.01506152318612642,0.02090355953705159,-0.09268986780398467, ,0.01579606442271035,0.020441493932720288,-0.09348822258695164, ,0.0011791631822756932, ,0.018520714724754417,-0.0036882535773189494,-0.03475483736353202,-0.005276965648056307,-0.00427022328650009,-0.06085823896803642, ,0.0395539986415015, ,0.006784575549599285, ,0.0007989194801489972, ,0.2289790297207567,-0.20585716749532854,0.10521985930000001,1.7737672319355915,0.796317520632987,-1.2952590197743101, ,0.11601093100057551,0.11862117694808846,0.0363671495890411,0.0,0.11560024723331536,-0.11148367875418971, ,1.5666279792785645
0.01506152318612642,0.02090355953705159,-0.09268986780398467, ,0.01585767836985433,0.020432653208604983,-0.0936121454573019, ,0.00130622047011836, ,0.018520714724754417,-0.0036882535773189494,-0.03475483736353202,-0.005276965648056307,-0.00427022328650009,-0.06085823896803642, ,0.0395539986415015, ,0.006784575549599285, ,0.0008033694888329389, ,0.2289790297207567,-0.20585716749532854,0.10521985930000001,1.7737672319355915,0.796317520632987,-1.2952590197743101, ,0.11601093100057551,0.11862117694808846,0.0363671495890411,0.0,0.11560024723331536,-0.11148367875418971, ,1.57023286819458
0.015244426425167056,0.020861910996725807,-0.09303701738929464, ,0.015919346108823812,0.020423745229287152,-0.09373580251564179, ,0.0010657422164606415, ,0.01867295951707688,-0.004444436849646087,-0.03541139232529623,-0.04904216962257229,-0.04959879919413841,0.07676716574807131, ,0.04027901615547396, ,0.0697504093232823, ,0.0008056509908123102, ,0.23012199418614193,-0.20469875756419487,0.10558152421000001,1.772718782218169,0.7974106126311105,-1.2963137204841626, ,0.11586928151217434,0.11730153468290579,0.036787093579676675,-0.14111420054541404,0.09814183932860858,-0.09845550720973102, ,1.574422836303711
0.015244426425167056,0.020861910996725807,-0.09303701738929464, ,0.015981066044340186,0.020414772085369345,-0.09385919206466926, ,0.0011910257475856467, ,0.01867295951707688,-0.004444436849646087,-0.03541139232529623,-0.04904216962257229,-0.04959879919413841,0.07676716574807131, ,0.04027901615547396, ,0.0697504093232823, ,0.0008089731869913907, ,0.23012199418614193,-0.20469875756419487,0.10558152421000001,1.772718782218169,0.7974106126311105,-1.2963137204841626, ,0.11586928151217434,0.11730153468290579,0.036787093579676675,-0.14111420054541404,0.09814183932860858,-0.09845550720973102, ,1.5781488418579102
0.015244426425167056,0.020861910996725807,-0.09303701738929464, ,0.0160428365905863,0.020405735858149598,-0.09398231241934094, ,0.0013187635281315746, ,0.01867295951707688,-0.004444436849646087,-0.03541139232529623,-0.04904216962257229,-0.04959879919413841,0.07676716574807131, ,0.04027901615547396, ,0.0697504093232823, ,0.0008133303693942983, ,0.23012199418614193,-0.20469875756419487,0.10558152421000001,1.772718782218169,0.7974106126311105,-1.2963137204841626, ,0.11586928151217434,0.11730153468290579,0.036787093579676675,-0.14111420054541404,0.09814183932860858,-0.09845550720973102, ,1.5818688869476318
0.015428156592324303,0.020820112983109634,-0.09338229232533755, ,0.016104656171187306,0.020396638619635966,-0.0941051619068479, ,0.0010768113337972368, ,0.01848172864403544,-0.003978182826111564,-0.034650617635075175,-0.06145204767071323,-0.07477169426401341,0.017230428481447537, ,0.03947233885598764, ,0.09678383374201724, ,0.0008155632589231368, ,0.2312417904529045,-0.20355579309880964,0.10593930025000001,1.7716703325007461,0.7980937951299377,-1.2971158462230665, ,0.11086091303559671,0.11405882398854661,0.035875701621621625,-0.07290085880357189,0.05235644893333494,-0.06979880306406425, ,1.5855050086975098
0.015428156592324303,0.020820112983109634,-0.09338229232533755, ,0.01616652321919121,0.020387482432561853,-0.09422773886659244, ,0.0012029689618015679, ,0.01848172864403544,-0.003978182826111564,-0.034650617635075175,-0.06145204767071323,-0.07477169426401341,0.017230428481447537, ,0.03947233885598764, ,0.09678383374201724, ,0.0008188187690313589, ,0.2312417904529045,-0.20355579309880964,0.10593930025000001,1.7716703325007461,0.7980937951299377,-1.2971158462230665, ,0.11086091303559671,0.11405882398854661,0.035875701621621625,-0.07290085880357189,0.05235644893333494,-0.06979880306406425, ,1.5890848636627197
0.015428156592324303,0.020820112983109634,-0.09338229232533755, ,0.016228436177050144,0.020378269350401268,-0.09435004165016445, ,0.001331244517433516, ,0.01848172864403544,-0.003978182826111564,-0.034650617635075175,-0.06145204767071323,-0.07477169426401341,0.017230428481447537, ,0.03947233885598764, ,0.09678383374201724, ,0.0008230889836013769, ,0.2312417904529045,-0.20355579309880964,0.10593930025000001,1.7716703325007461,0.7980937951299377,-1.2971158462230665, ,0.11086091303559671,0.11405882398854661,0.035875701621621625,-0.07290085880357189,0.05235644893333494,-0.06979880306406425, ,1.5926439762115479
0.015612477627266613,0.020785770177410363,-0.09372683612038561, ,0.01629039349660067,0.020369001417384153,-0.09447206862131836, ,0.0010902465802171634, ,0.018559715798877663,-0.0036130516164868663,-0.034943923173390026,-0.03513301475873429,-0.05250522112011468,-0.026249402918545547, ,0.03973153607987353, ,0.06317495443955559, ,0.000825296897622995, ,0.2323461412539186,-0.20242827409917286,0.10629837258000001,1.7716703325007461,0.7987769776287649,-1.29791797196197, ,0.11047373871766097,0.11297254947436998,0.0363671495890411,-0.03353883380383927,0.06671777562459155,-0.08693814529664487, ,1.5962488651275635
0.015612477627266613,0.020785770177410363,-0.09372683612038561, ,0.016352393639045042,0.02035968066851116,-0.09459381815594853, ,0.0012168343453687015, ,0.018559715798877663,-0.0036130516164868663,-0.034943923173390026,-0.03513301475873429,-0.05250522112011468,-0.026249402918545547, ,0.03973153607987353, ,0.06317495443955559, ,0.000828506220965173, ,0.2323461412539186,-0.20242827409917286,0.10629837258000001,1.7716703325007461,0.7987769776287649,-1.29791797196197, ,0.11047373871766097,0.11297254947436998,0.0363671495890411,-0.03353883380383927,0.06671777562459155,-0.08693814529664487, ,1.599822998046875
0.015800816196044197,0.02075041594148968,-0.09408318518384495, ,0.016414435074931632,0.020350309129569158,-0.09471528864206685, ,0.0013452882440839044, ,0.018200182129021917,-0.003251672970567405,-0.034637961963162364,0.04227357371224245,-0.004772323409918543,-0.08891182646112565, ,0.03973153607987353, ,0.042541512009521616, ,0.000832707700827927, ,0.23346593752068115,-0.20128530963378763,0.10667040781,1.7714606425572619,0.7995967966273575,-1.2989948730848513, ,0.10882676784228298,0.11047373871766097,0.0363671495890411,0.0,0.10716159030297585,-0.16056914253726515, ,1.6040399074554443
0.015800816196044197,0.02075041594148968,-0.09408318518384495, ,0.016476516284135913,0.02034088881714609,-0.09483647847977825, ,0.001091665637600785, ,0.018200182129021917,-0.003251672970567405,-0.034637961963162364,0.04227357371224245,-0.004772323409918543,-0.08891182646112565, ,0.039263321504918174, ,0.042541512009521616, ,0.0008347960712857725, ,0.23346593752068115,-0.20128530963378763,0.10667040781,1.7714606425572619,0.7995967966273575,-1.2989948730848513, ,0.10882676784228298,0.11047373871766097,0.0363671495890411,0.0,0.10716159030297585,-0.16056914253726515, ,1.6077070236206055
0.015800816196044197,0.02075041594148968,-0.09408318518384495, ,0.016538635755841392,0.020331421738646566,-0.09495738608125763, ,0.0012182614882990405, ,0.018200182129021917,-0.003251672970567405,-0.034637961963162364,0.04227357371224245,-0.004772323409918543,-0.08891182646112565, ,0.039263321504918174, ,0.042541512009521616, ,0.0008378637946218786, ,0.23346593752068115,-0.20128530963378763,0.10667040781,1.7714606425572619,0.7995967966273575,-1.2989948730848513, ,0.10882676784228298,0.11047373871766097,0.0363671495890411,0.0,0.10716159030297585,-0.16056914253726515, ,1.6114850044250488
0.01597710675690628,0.020711972150644853,-0.09442228314654562, ,0.016600791988520134,0.020321909892306592,-0.09507800987072627, ,0.000985448816691088, ,0.017145583476384594,-0.004210282119848014,-0.03231847162091266,-0.03569208196636066,-0.05604104905647461,0.07661652652900276, ,0.03682636441716887, ,0.06644161825795657, ,0.0008390351043208406, ,0.2345162291915757,-0.20021184976427042,0.10702429498,1.7704121928398393,0.8005532521257156,-1.3003465495917104, ,0.10303685294079346,0.10428235336095688,0.03360508759493671,-0.14730354881932756,0.07861040600773547,-0.1051791798184353, ,1.6152019500732422
0.01597710675690628,0.020711972150644853,-0.09442228314654562, ,0.016662983489913658,0.02031235526720893,-0.09519834828442826, ,0.0011101340660680224, ,0.017145583476384594,-0.004210282119848014,-0.03231847162091266,-0.03569208196636066,-0.05604104905647461,0.07661652652900276, ,0.03682636441716887, ,0.06644161825795657, ,0.000841169741814913, ,0.2345162291915757,-0.20021184976427042,0.10702429498,1.7704121928398393,0.8005532521257156,-1.3003465495917104, ,0.10303685294079346,0.10428235336095688,0.03360508759493671,-0.14730354881932756,0.07861040600773547,-0.1051791798184353, ,1.6188948154449463
0.01597710675690628,0.020711972150644853,-0.09442228314654562, ,0.01672520877701411,0.02030275984329854,-0.09531839977060708, ,0.001236986802230492, ,0.017145583476384594,-0.004210282119848014,-0.03231847162091266,-0.03569208196636066,-0.05604104905647461,0.07661652652900276, ,0.03682636441716887, ,0.06644161825795657, ,0.0008442620625994096, ,0.2345162291915757,-0.20021184976427042,0.10702429498,1.7704121928398393,0.8005532521257156,-1.3003465495917104, ,0.10303685294079346,0.10428235336095688,0.03360508759493671,-0.14730354881932756,0.07861040600773547,-0.1051791798184353, ,1.62270188331604
0.01615389885978459,0.020667958633367248,-0.0947465059854635, ,0.016787466376044346,0.020293125591396982,-0.09543816278948111, ,0.001010097392114295, ,0.017174159458561492,-0.004003186190536414,-0.03128805886517981,-0.0309425648106985,-0.057699868690484934,0.003972875315352837, ,0.035915454616852, ,0.06547279724984799, ,0.0008455476077894476, ,0.23558196632821868,-0.19912294442900474,0.10736133038000001,1.7693637431224165,0.8012364346245429,-1.3014753902911764, ,0.10281358782066174,0.10439707542186004,0.03257425668711657,-0.06862342308659225,0.06034461487949492,-0.09284282002630256, ,1.6262738704681396
0.01615389885978459,0.020667958633367248,-0.0947465059854635, ,0.016849754822439545,0.020283454473218714,-0.09555763581322187, ,0.0011357775166877116, ,0.017174159458561492,-0.004003186190536414,-0.03128805886517981,-0.0309425648106985,-0.057699868690484934,0.003972875315352837, ,0.035915454616852, ,0.06547279724984799, ,0.0008477801455502034, ,0.23558196632821868,-0.19912294442900474,0.10736133038000001,1.7693637431224165,0.8012364346245429,-1.3014753902911764, ,0.10281358782066174,0.10439707542186004,0.03257425668711657,-0.06862342308659225,0.06034461487949492,-0.09284282002630256, ,1.62990403175354
0.01615389885978459,0.020667958633367248,-0.0947465059854635, ,0.016912072660827258,0.020273748441385023,-0.09567681732592882, ,0.0012632135125340209, ,0.017174159458561492,-0.004003186190536414,-0.03128805886517981,-0.0309425648106985,-0.057699868690484934,0.003972875315352837, ,0.035915454616852, ,0.06547279724984799, ,0.0008509513926264157, ,0.23558196632821868,-0.19912294442900474,0.10736133038000001,1.7693637431224165,0.8012364346245429,-1.3014753902911764, ,0.10281358782066174,0.10439707542186004,0.03257425668711657,-0.06862342308659225,0.06034461487949492,-0.09284282002630256, ,1.633443832397461
0.016316522062948348,0.020634826985443257,-0.09504145696107788, ,0.016974418445008826,0.020264009439440202,-0.09579570582360629, ,0.0010673446718738014, ,0.01667967128021639,-0.0032313182982022324,-0.030596695199573434,-0.013798058179224993,-0.021371579566800247,-0.02097979795425881, ,0.03499729431107456, ,0.02543823909036266, ,0.0008525907356510172, ,0.23656275340324517,-0.19814215735397825,0.10767114369000001,1.7693637431224165,0.8020562536231354,-1.3023072551936359, ,0.10010225902792276,0.09723047290826925,0.03217941721212122,-0.03259177704802291,0.08792564850657396,-0.0903134704699868, ,1.6377768516540527
0.016316522062948348,0.020634826985443257,-0.09504145696107788, ,0.01703679073793985,0.02025423940186604,-0.0959142998141407, ,0.001193938239227638, ,0.01667967128021639,-0.0032313182982022324,-0.030596695199573434,-0.013798058179224993,-0.021371579566800247,-0.02097979795425881, ,0.03499729431107456, ,0.02543823909036266, ,0.0008551572582343001, ,0.23656275340324517,-0.19814215735397825,0.10767114369000001,1.7693637431224165,0.8020562536231354,-1.3023072551936359, ,0.10010225902792276,0.09723047290826925,0.03217941721212122,-0.03259177704802291,0.08792564850657396,-0.0903134704699868, ,1.6413469314575195
0.016486980480879022,0.020603577993203843,-0.09535454391402942, ,0.01709918811171114,0.020244440254097554,-0.09603259781727592, ,0.0009815982857601534, ,0.016479364032441032,-0.0027913518068148884,-0.03056834647815824,0.01394297770598016,-0.01972639086056115,-0.06579561637042947, ,0.03483941575617836, ,0.024155960610314903, ,0.0008561008479919557, ,0.23757443140976858,-0.19716137027895173,0.10800040135000001,1.7691540531789318,0.8028760726217281,-1.3033841563165174, ,0.09643998125860852,0.09414379122864167,0.03217941721212122,0.0,0.07901187728313193,-0.11253684994768451, ,1.644906997680664
0.016486980480879022,0.020603577993203843,-0.09535454391402942, ,0.01716160914752924,0.020234613912537405,-0.0961505983645899, ,0.0011067795710734056, ,0.016479364032441032,-0.0027913518068148884,-0.03056834647815824,0.01394297770598016,-0.01972639086056115,-0.06579561637042947, ,0.03483941575617836, ,0.024155960610314903, ,0.0008579577274221886, ,0.23757443140976858,-0.19716137027895173,0.10800040135000001,1.7691540531789318,0.8028760726217281,-1.3033841563165174, ,0.09643998125860852,0.09414379122864167,0.03217941721212122,0.0,0.07901187728313193,-0.11253684994768451, ,1.6485729217529297
0.016486980480879022,0.020603577993203843,-0.09535454391402942, ,0.017224052435697912,0.02022476228457208,-0.09626829999947185, ,0.0012335828271217953, ,0.016479364032441032,-0.0027913518068148884,-0.03056834647815824,0.01394297770598016,-0.01972639086056115,-0.06579561637042947, ,0.03483941575617836, ,0.024155960610314903, ,0.0008607196766846857, ,0.23757443140976858,-0.19716137027895173,0.10800040135000001,1.7691540531789318,0.8028760726217281,-1.3033841563165174, ,0.09643998125860852,0.09414379122864167,0.03217941721212122,0.0,0.07901187728313193,-0.11253684994768451, ,1.6522879600524902
0.01665643276152834,0.020570410287185197,-0.09567420803873657, ,0.017286516575597967,0.02021488726858597,-0.09638570127709832, ,0.001014704320351959, ,0.01681964359044042,-0.003209926747811026,-0.03240087853930716,-0.05583164057557256,-0.06707364862104075,0.09421672754331913, ,0.03664725051562111, ,0.08726975833119682, ,0.0008618436521859067, ,0.2385552184847951,-0.19621147413542211,0.10833484417000001,1.7681056034615095,0.8035592551205553,-1.3042679607955618, ,0.09537381061152843,0.09151103332542987,0.03381913273885351,-0.1479492215110374,0.058911262864958396,-0.07048174915423161, ,1.6559679508209229
0.01665643276152834,0.020570410287185197,-0.09567420803873657, ,0.017349000175669177,0.020204990753977716,-0.09650280076440915, ,0.0011400644558167824, ,0.01681964359044042,-0.003209926747811026,-0.03240087853930716,-0.05583164057557256,-0.06707364862104075,0.09421672754331913, ,0.03664725051562111, ,0.08726975833119682, ,0.0008638597449658406, ,0.2385552184847951,-0.19621147413542211,0.10833484417000001,1.7681056034615095,0.8035592551205553,-1.3042679607955618, ,0.09537381061152843,0.09151103332542987,0.03381913273885351,-0.1479492215110374,0.058911262864958396,-0.07048174915423161, ,1.6595840454101562
0.01665643276152834,0.020570410287185197,-0.09567420803873657, ,0.017411501853390035,0.02019507462117414,-0.09661959704008437, ,0.0012667938109788045, ,0.01681964359044042,-0.003209926747811026,-0.03240087853930716,-0.05583164057557256,-0.06707364862104075,0.09421672754331913, ,0.03664725051562111, ,0.08726975833119682, ,0.0008667585511961496, ,0.2385552184847951,-0.19621147413542211,0.10833484417000001,1.7681056034615095,0.8035592551205553,-1.3042679607955618, ,0.09537381061152843,0.09151103332542987,0.03381913273885351,-0.1479492215110374,0.058911262864958396,-0.07048174915423161, ,1.6631200313568115
0.01682575389494769,0.020546684942737765,-0.0960055248843995, ,0.017474020235259128,0.020185140741646103,-0.09673608869452063, ,0.0010414830473812282, ,0.016989573313488965,-0.002062609977141069,-0.033604248140145704,0.007345565619449046,-0.01784680414296593,0.0027549573617817063, ,0.03771134384182966, ,0.01929826159022931, ,0.0008680065833117573, ,0.23950511462832472,-0.1953233598548863,0.10868354618,1.7672668436875714,0.804379074119148,-1.3053448619184431, ,0.09451886609409439,0.08754330402072949,0.035476194922048995,-0.06786407576375783,0.09255464142146512,-0.11358887198401574, ,1.6666948795318604
0.01682575389494769,0.020546684942737765,-0.0960055248843995, ,0.01753655395677613,0.020175190977923987,-0.09685227432980778, ,0.0011662886079729976, ,0.016989573313488965,-0.002062609977141069,-0.033604248140145704,0.007345565619449046,-0.01784680414296593,0.0027549573617817063, ,0.03771134384182966, ,0.01929826159022931, ,0.0008701220586639647, ,0.23950511462832472,-0.1953233598548863,0.10868354618,1.7672668436875714,0.804379074119148,-1.3053448619184431, ,0.09451886609409439,0.08754330402072949,0.035476194922048995,-0.06786407576375783,0.09255464142146512,-0.11358887198401574, ,1.6703920364379883
0.01682575389494769,0.020546684942737765,-0.0960055248843995, ,0.017599101662422054,0.02016522718361213,-0.09696815255970495, ,0.0012923733333362677, ,0.016989573313488965,-0.002062609977141069,-0.033604248140145704,0.007345565619449046,-0.01784680414296593,0.0027549573617817063, ,0.03771134384182966, ,0.01929826159022931, ,0.0008730956591898259, ,0.24047817897047702,-0.1944429683072247,0.10905039625000001,1.767057153744087,0.805335529617506,-1.3062064659844586, ,0.09480213941905173,0.08390534178467797,0.03661795751724139,-0.014582302320649278,0.08865811635606932,-0.09852977754478422, ,1.674379825592041
0.017001725197688052,0.020530556761064883,-0.09635174558955496, ,0.017661662005640375,0.020155251203404192,-0.09708372200961723, ,0.0010545901249435646, ,0.017414341516048506,-0.0012136195946539571,-0.03453307511552368,0.010136869619260736,-0.011636339309717749,-0.03990389581064015, ,0.03869451433850152, ,0.015430858935675015, ,0.000874364851258034, ,0.24047817897047702,-0.1944429683072247,0.10905039625000001,1.767057153744087,0.805335529617506,-1.3062064659844586, ,0.09480213941905173,0.08390534178467797,0.03661795751724139,-0.014582302320649278,0.08865811635606932,-0.09852977754478422, ,1.6784238815307617
0.017001725197688052,0.020530556761064883,-0.09635174558955496, ,0.017724233648817936,0.02014526487309877,-0.09719898131657216, ,0.001178251534274815, ,0.017414341516048506,-0.0012136195946539571,-0.03453307511552368,0.010136869619260736,-0.011636339309717749,-0.03990389581064015, ,0.03869451433850152, ,0.015430858935675015, ,0.0008764751754456505, ,0.24047817897047702,-0.1944429683072247,0.10905039625000001,1.767057153744087,0.805335529617506,-1.3062064659844586, ,0.09480213941905173,0.08390534178467797,0.03661795751724139,-0.014582302320649278,0.08865811635606932,-0.09852977754478422, ,1.6822509765625
0.017172250103642796,0.020519099362087984,-0.09669456288602277, ,0.01778681526326549,0.020135270019613995,-0.09731392912919573, ,0.0009532207733512074, ,0.01711163989097143,-0.0008663850772163818,-0.03455700989030755,0.028655102616206234,-0.013847529919092449,-0.06433815295589668, ,0.038571307670587494, ,0.03182482850952752, ,0.0008770044554312061, ,0.2413894614496355,-0.19362435862255692,0.10941335745000001,1.7668474638006022,0.8061553486160986,-1.3072016883671993, ,0.0902062182114741,0.08069467819597856,0.03661795751724139,0.0,0.0785558746019394,-0.11463017546997284, ,1.685978889465332
0.017172250103642796,0.020519099362087984,-0.09669456288602277, ,0.017849405529198573,0.020125268461002987,-0.0974285641076897, ,0.0010734989717822718, ,0.01711163989097143,-0.0008663850772163818,-0.03455700989030755,0.028655102616206234,-0.013847529919092449,-0.06433815295589668, ,0.038571307670587494, ,0.03182482850952752, ,0.0008783503082829257, ,0.2413894614496355,-0.19362435862255692,0.10941335745000001,1.7668474638006022,0.8061553486160986,-1.3072016883671993, ,0.0902062182114741,0.08069467819597856,0.03661795751724139,0.0,0.0785558746019394,-0.11463017546997284, ,1.689579963684082
0.017172250103642796,0.020519099362087984,-0.09669456288602277, ,0.017912003135718724,0.02011526200646927,-0.0975428849238074, ,0.0011958132956484966, ,0.01711163989097143,-0.0008663850772163818,-0.03455700989030755,0.028655102616206234,-0.013847529919092449,-0.06433815295589668, ,0.038571307670587494, ,0.03182482850952752, ,0.0008805099204418752, ,0.2413894614496355,-0.19362435862255692,0.10941335745000001,1.7668474638006022,0.8061553486160986,-1.3072016883671993, ,0.0902062182114741,0.08069467819597856,0.03661795751724139,0.0,0.0785558746019394,-0.11463017546997284, ,1.6931419372558594
0.01734152867908131,0.020502013955814358,-0.09703678043392322, ,0.017974606780793573,0.02010525245638126,-0.09765689026083021, ,0.0009709499305971575, ,0.016317733792197833,-0.0019628879961137973,-0.03245344886448078,-0.03766044966533035,-0.04777273272288782,0.08747592026025887, ,0.03637784639856779, ,0.06083179646089406, ,0.000881121001591573, ,0.24228529846304556,-0.19281347167076332,0.10977372607000001,1.7657990140831794,0.8068385311149259,-1.3080038141061032, ,0.08794897271406003,0.07772067285706043,0.034181998969957085,-0.13654132612841327,0.06838986818373592,-0.07204626564932332, ,1.6966829299926758
0.01734152867908131,0.020502013955814358,-0.09703678043392322, ,0.01803721517123819,0.02009524160228809,-0.09777057881354374, ,0.0010899098609043532, ,0.016317733792197833,-0.0019628879961137973,-0.03245344886448078,-0.03766044966533035,-0.04777273272288782,0.08747592026025887, ,0.03637784639856779, ,0.06083179646089406, ,0.0008825222691037394, ,0.24228529846304556,-0.19281347167076332,0.10977372607000001,1.7657990140831794,0.8068385311149259,-1.3080038141061032, ,0.08794897271406003,0.07772067285706043,0.034181998969957085,-0.13654132612841327,0.06838986818373592,-0.07204626564932332, ,1.7002758979797363
0.01734152867908131,0.020502013955814358,-0.09703678043392322, ,0.018099827022695764,0.020085231226934442,-0.09788394928821544, ,0.0012109580045170018, ,0.016317733792197833,-0.0019628879961137973,-0.03245344886448078,-0.03766044966533035,-0.04777273272288782,0.08747592026025887, ,0.03637784639856779, ,0.06083179646089406, ,0.0008847118406731611, ,0.24228529846304556,-0.19281347167076332,0.10977372607000001,1.7657990140831794,0.8068385311149259,-1.3080038141061032, ,0.08794897271406003,0.07772067285706043,0.034181998969957085,-0.13654132612841327,0.06838986818373592,-0.07204626564932332, ,1.7038178443908691
0.01749419819219275,0.020483827464810932,-0.09733731939583921, ,0.018162441059618332,0.02007522310427579,-0.09799700040256956, ,0.0010240532622643524, ,0.015349862710675784,-0.001919002067743194,-0.029710143656279477,0.0033228762192716323,0.0049015124881731246,0.0022965563838026094, ,0.03349617127746635, ,0.005919728244786182, ,0.000885634631544626, ,0.243127076346336,-0.19206436658196355,0.11009261341000001,1.7649602543092415,0.8077949866132839,-1.3091104543925405, ,0.08556983007977528,0.07734062066705036,0.03160478476190477,-0.049398860496362114,0.10305816314761519,-0.09030088581037604, ,1.7073860168457031
0.01749419819219275,0.020483827464810932,-0.09733731939583921, ,0.018225056015247525,0.020065218999493494,-0.09810973088576477, ,0.0011428060703920012, ,0.015349862710675784,-0.001919002067743194,-0.029710143656279477,0.0033228762192716323,0.0049015124881731246,0.0022965563838026094, ,0.03349617127746635, ,0.005919728244786182, ,0.0008873265489054639, ,0.243127076346336,-0.19206436658196355,0.11009261341000001,1.7649602543092415,0.8077949866132839,-1.3091104543925405, ,0.08556983007977528,0.07734062066705036,0.03160478476190477,-0.049398860496362114,0.10305816314761519,-0.09030088581037604, ,1.710965871810913
0.01764918438937374,0.020466694147376147,-0.09762811980796622, ,0.018287670631595716,0.020055220669010172,-0.09822213947836987, ,0.0012634116019525255, ,0.015316156098713783,-0.001976224149770496,-0.028337447876403528,0.026754444554840714,0.007654142903724718,-0.029469872119569033, ,0.03227229542003776, ,0.027827467263278248, ,0.0008897846211476016, ,0.2440074678939976,-0.1912920932945411,0.11040372301000001,1.7649602543092415,0.8088880786114074,-1.3100834763622524, ,0.08778625491070376,0.07628371507915659,0.030282911634980987,-0.027660941333031774,0.10375206049379905,-0.11088639861894745, ,1.7150459289550781
0.01764918438937374,0.020466694147376147,-0.09762811980796622, ,0.018350283659426342,0.020045229860504575,-0.09833422493234048, ,0.0010806279555166255, ,0.015316156098713783,-0.001976224149770496,-0.028337447876403528,0.026754444554840714,0.007654142903724718,-0.029469872119569033, ,0.03227229542003776, ,0.027827467263278248, ,0.0008910238635785693, ,0.2440074678939976,-0.1912920932945411,0.11040372301000001,1.7649602543092415,0.8088880786114074,-1.3100834763622524, ,0.08778625491070376,0.07628371507915659,0.030282911634980987,-0.027660941333031774,0.10375206049379905,-0.11088639861894745, ,1.7187998294830322
0.01764918438937374,0.020466694147376147,-0.09762811980796622, ,0.018412893858235323,0.02003524831292733,-0.09844598601099576, ,0.0011992926194011333, ,0.015316156098713783,-0.001976224149770496,-0.028337447876403528,0.026754444554840714,0.007654142903724718,-0.029469872119569033, ,0.03227229542003776, ,0.027827467263278248, ,0.0008930126942612956, ,0.2440074678939976,-0.1912920932945411,0.11040372301000001,1.7649602543092415,0.8088880786114074,-1.3100834763622524, ,0.08778625491070376,0.07628371507915659,0.030282911634980987,-0.027660941333031774,0.10375206049379905,-0.11088639861894745, ,1.722491979598999
0.01780122366599768,0.02044631951007419,-0.09790875106528003, ,0.01847549999623095,0.020025277756514977,-0.09855742148899398, ,0.0010260107437811224, ,0.015184074886285396,-0.0017444745174519543,-0.027728965448406466,0.0233366838210555,0.002882289236070538,-0.05122870130420474, ,0.03166219901291257, ,0.02351365581169398, ,0.0008938652458607816, ,0.24487241397591075,-0.19052754273999287,0.110703166,1.7647505643657568,0.8098445341097655,-1.3110267591684084, ,0.08634844545811718,0.07408036031106227,0.029662591284916204,0.0,0.09193425401349992,-0.09839420104264576, ,1.7261698246002197
0.01780122366599768,0.02044631951007419,-0.09790875106528003, ,0.018538100850315813,0.02001531991280643,-0.09866853015231052, ,0.0011428092136058683, ,0.015184074886285396,-0.0017444745174519543,-0.027728965448406466,0.0233366838210555,0.002882289236070538,-0.05122870130420474, ,0.03166219901291257, ,0.02351365581169398, ,0.0008954508762285848, ,0.24487241397591075,-0.19052754273999287,0.110703166,1.7647505643657568,0.8098445341097655,-1.3110267591684084, ,0.08634844545811718,0.07408036031106227,0.029662591284916204,0.0,0.09193425401349992,-0.09839420104264576, ,1.7297449111938477
0.01780122366599768,0.02044631951007419,-0.09790875106528003, ,0.018600695206066782,0.020005376494657442,-0.09877931079821248, ,0.001261530711012889, ,0.015184074886285396,-0.0017444745174519543,-0.027728965448406466,0.0233366838210555,0.002882289236070538,-0.05122870130420474, ,0.03166219901291257, ,0.02351365581169398, ,0.0008977678372082324, ,0.24487241397591075,-0.19052754273999287,0.110703166,1.7647505643657568,0.8098445341097655,-1.3110267591684084, ,0.08634844545811718,0.07408036031106227,0.029662591284916204,0.0,0.09193425401349992,-0.09839420104264576, ,1.7333219051361084
0.017955578297779953,0.020425579930068383,-0.09819020461461389, ,0.018663281857716298,0.019995449206256063,-0.09888976223523678, ,0.0010840837757689413, ,0.015920382093352038,-0.0022479503314933383,-0.029129318633822742,0.006983180022521474,-0.024508516511610404,0.0491013082715893, ,0.03327204608619611, ,0.02548354787422433, ,0.00089893963556396, ,0.24576052825644656,-0.18980160584981579,0.11100390528000001,1.763911804591819,0.8108009896081236,-1.312051720714705, ,0.0908974536000678,0.07408036031106227,0.031050314853801175,-0.11348528182948771,0.0902984951700944,-0.11162324628197728, ,1.7368888854980469
0.017955578297779953,0.020425579930068383,-0.09819020461461389, ,0.018725859608132684,0.01998553974313724,-0.09899988328316535, ,0.0012010612846563567, ,0.015920382093352038,-0.0022479503314933383,-0.029129318633822742,0.006983180022521474,-0.024508516511610404,0.0491013082715893, ,0.03327204608619611, ,0.02548354787422433, ,0.0009008278958707875, ,0.24576052825644656,-0.18980160584981579,0.11100390528000001,1.763911804591819,0.8108009896081236,-1.312051720714705, ,0.0908974536000678,0.07408036031106227,0.031050314853801175,-0.11348528182948771,0.0902984951700944,-0.11162324628197728, ,1.7404589653015137
0.017955578297779953,0.020425579930068383,-0.09819020461461389, ,0.01878842726880134,0.019975649792198607,-0.09910967277300191, ,0.0013196576191514028, ,0.015920382093352038,-0.0022479503314933383,-0.029129318633822742,0.006983180022521474,-0.024508516511610404,0.0491013082715893, ,0.03327204608619611, ,0.02548354787422433, ,0.0009034293227234621, ,0.24576052825644656,-0.18980160584981579,0.11100390528000001,1.763911804591819,0.8108009896081236,-1.312051720714705, ,0.0908974536000678,0.07408036031106227,0.031050314853801175,-0.11348528182948771,0.0902984951700944,-0.11162324628197728, ,1.7440249919891357
0.018119196546991914,0.020404855878499002,-0.09849749757489377, ,0.018850983659805653,0.019965781031715556,-0.09921912954694964, ,0.0011176098615578755, ,0.016551085403763217,-0.001628481385018343,-0.03157209697736095,-0.006069463776232839,-0.02319801815494533,0.016158255294336503, ,0.03568455810587963, ,0.02397822067332748, ,0.0009047514248150325, ,0.24666408800273085,-0.18904477802814176,0.11133057036,1.7628633548743964,0.8116208086067163,-1.312801906877024, ,0.08927275781605906,0.07519567476899429,0.03360508759493671,-0.0665061867493088,0.08085161468794622,-0.08557697291508111, ,1.7476699352264404
0.018119196546991914,0.020404855878499002,-0.09849749757489377, ,0.018913527609807267,0.01995593513135593,-0.09932825245838511, ,0.0012339551657226321, ,0.016551085403763217,-0.001628481385018343,-0.03157209697736095,-0.006069463776232839,-0.02319801815494533,0.016158255294336503, ,0.03568455810587963, ,0.02397822067332748, ,0.0009067710796672265, ,0.24666408800273085,-0.18904477802814176,0.11133057036,1.7628633548743964,0.8116208086067163,-1.312801906877024, ,0.08927275781605906,0.07519567476899429,0.03360508759493671,-0.0665061867493088,0.08085161468794622,-0.08557697291508111, ,1.7514369487762451
