NicholasDascanio/dvrk_moveit_final/test/execution/third_experiment_notsharpbends/thirdexp_300vel3.0/thirdexp_300vel3.0_12.csv
Current Position (x),Current Position (y),Current Position (z), ,Planned Position (x),Planned Position (y),Planned Position (z), ,Position Error,,Cartesian linear Velocity(x),Cartesian linear Velocity(y),Cartesian linear Velocity(z),Cartesian Angular Velocity(x),Cartesian Angular Velocity(y),Cartesian Angular Velocity(z), ,Total Linear Velocity, ,Total Angular Velocity, ,MSE, ,Joint 1 Position,Joint 2 Position,Joint 3 Position,Joint 4 Position,Joint 5 Position,Joint 6 Position, ,Joint 1 Velocity,Joint 2 Velocity,Joint 3 Velocity,Joint 4 Velocity,Joint 5 Velocity,Joint 6 Velocity, ,Time Stamp
0.010218404984979636,0.01990718489954597,-0.0801179589648765, ,0.010369391648846746,0.019879028054352356,-0.08012342641473816, ,0.00015368693374833908, ,0.001508874364611601,-0.0001351681840170384,0.0006685962643979462,0.09052565068177774,-0.16883746846174189,-0.045845254270867636, ,0.0016558965097249934, ,0.1915750092990447, ,1.2807244479028257e-05, ,0.14868577602744448,-0.24096471114155316,0.08983808216000001,1.6060152771479719,0.19511692166504896,-1.274264605617586, ,0.0004200357209307749,-0.00035323231029599347,-0.0007659744884403808,-0.0006455695762836556,-0.17456078218761414,-0.09029677534596026, ,0.035568952560424805
0.010263573772274147,0.019915158840960186,-0.08013116627285899, ,0.01037871125023562,0.019938309459140872,-0.08018468139625223, ,0.00012905990231388886, ,0.0009849626003109566,0.00037008566636451465,-0.0007814250561963934,0.09693698159706282,-0.09774173682944666,-0.02802893064340778, ,0.0013106257447919006, ,0.137659818100947, ,1.2852128911919454e-05, ,0.14870122149319293,-0.24101877027167273,0.08985104506000001,1.6060152771479719,0.19047128067302396,-1.2784809134256827, ,-0.0006958339726174232,-0.0020808095149632737,0.0008053613321355079,-0.0006197247696759329,-0.10241519638989358,-0.09501601339184584, ,0.07086992263793945
0.010296454686789434,0.019934489256546138,-0.0801531173609189, ,0.010388558365179905,0.019996629309750512,-0.08024649285926785, ,0.00014513255140461323, ,0.0003172118481939697,0.000611165473605337,-0.0003173413266151584,-0.16628653864872206,-0.03660650921369404,-0.0001677015431023434, ,0.0007581900225799193, ,0.1702681692289701, ,1.3371230858338788e-05, ,0.14868577602744448,-0.24118094766203144,0.08987567457000001,1.6060152771479719,0.18705536817888796,-1.281739692603674, ,-0.000724187770972449,-0.0062421386143197855,0.0004363327853911367,-0.0005882627221248611,-0.03639831695164039,0.17255208323048032, ,0.10880589485168457
0.010290694622674079,0.01995618507394645,-0.08017656416886984, ,0.01039892954374223,0.02005399463045906,-0.08030885631962595, ,0.00019693328981027739, ,-0.00047196610785974944,0.0009611578092769673,-0.0012079257103888793,0.015227719714418615,0.06600162032268722,0.017670075988290675, ,0.0016142059543691623, ,0.06773549536925584, ,1.4876492316121871e-05, ,0.14867805329457026,-0.24136629325101283,0.08990419295,1.6060152771479719,0.18801182367724606,-1.27835400218238, ,-0.0005244195624350393,-0.00773574757721983,0.0014380069111180902,-0.00056691911058421,0.06752541854858302,-0.007704288533250787, ,0.14404606819152832
0.010296277320161445,0.02000008513983414,-0.0802342545766216, ,0.010409821348268138,0.020110412422026817,-0.08037176730741948, ,0.00020970003969051596, ,0.00029342030991628265,0.0012308953840459483,-0.0017910981938757788,0.03228754683759848,0.000449127310762749,-0.001642784355348316, ,0.002192996047612049, ,0.03229067041906927, ,1.6048321480146817e-05, ,0.14868577602744448,-0.2417060934974787,0.08997160003000002,1.6062249670914566,0.1884217331765424,-1.2789332921138912, ,0.00030565156207958355,-0.009089848717399486,0.0020567213368715607,0.0020904935336917498,0.0,-0.02301967140059698, ,0.1801619529724121
0.010308926571634004,0.0200512152509665,-0.08030623887568022, ,0.010421230353367587,0.020165889661730167,-0.08043522136697392, ,0.0002059097932007806, ,0.0002943383933183627,0.0012800548428330962,-0.0016012309126127132,-0.015687846267953585,-0.0005199395098999905,0.0006531685562955805, ,0.0020710180892373298, ,0.01569646003436361, ,1.6781008228522824e-05, ,0.1486934987603187,-0.24209223014118994,0.09005456259000001,1.6062249670914566,0.18828509667677693,-1.2781684442890702, ,0.0006570886502099493,-0.010186173044143612,0.0018860156841400532,0.002030594146797844,-6.226224844053973e-05,0.02607888968149482, ,0.21938800811767578
0.01031513091101472,0.020087735653101863,-0.08034343398592213, ,0.010433153145896323,0.0202204333033941,-0.08049921405683039, ,0.00023623154914556102, ,0.0001899872745084994,0.00129420084113612,-0.0013431510069759826,0.01233971403690835,0.0002876416220582679,-0.00036828978187834104, ,0.0018748614906742324, ,0.01234306607820933, ,1.773130637936078e-05, ,0.14870122149319293,-0.24240886218903313,0.09009993274000001,1.6062249670914566,0.18828509667677693,-1.2780050868087889, ,-0.00018119748682049222,-0.011115490494470085,0.0016277939524593308,0.001954246215931539,-0.00038608208600228206,-0.001066658667454561, ,0.255403995513916
0.010326371505771368,0.02014369334641111,-0.08041436646375964, ,0.010445586324937398,0.020274050277425248,-0.08056374094972787, ,0.00023133923063433826, ,0.00025753902606102653,0.0014569421958901322,-0.0018717487265510512,0.006065156346809928,0.0002974467834073304,0.0016201456928776868, ,0.002385885623296956, ,0.006072445642180263, ,1.861720111047302e-05, ,0.1486934987603187,-0.24284905796286393,0.09018289530000001,1.606434657034941,0.18814846017701148,-1.2777303114248113, ,-0.0002790832628470364,-0.011484562696172186,0.0021853219261901502,0.0003208652916018494,0.0,0.005343950027712664, ,0.2879340648651123
0.010335646878670637,0.020188107279391156,-0.08047227245579601, ,0.010458526501782502,0.02032674749084492,-0.08062879763258517, ,0.00024252967030228523, ,0.0002791568664473823,0.0014987050970063816,-0.0018803556859606336,4.940591926134482e-05,0.00021884058015789434,0.0020245326158556494, ,0.002420698872144595, ,0.0002243482134422939, ,1.9450255113895553e-05, ,0.14868577602744448,-0.24319658094220403,0.09025030238000001,1.606434657034941,0.18801182367724606,-1.276720427379569, ,0.0,-0.011917656668657715,0.002207123669114591,0.0003208652916018494,0.00028013820963896264,0.011794044945714139, ,0.3211379051208496
0.010344749923110175,0.020232553888445977,-0.08052457974922088, ,0.01047197029991352,0.02037853182732209,-0.08069437970648335, ,0.00025753952783765476, ,0.00029210911567838785,0.0014459159027376174,-0.0017533488701822928,-0.0016769796471083735,-0.00017452955118099427,0.0020495369646158145, ,0.002291338646691377, ,0.0016860371539442517, ,2.028345947563893e-05, ,0.14870122149319293,-0.24355954938729257,0.0903125243,1.606434657034941,0.18801182367724606,-1.2766387486394284, ,0.0003909172909065416,-0.01164522537225068,0.0020740830081465364,0.0003208652916018494,0.0002950518790006981,0.01325234969185445, ,0.3536510467529297
0.010354580026327484,0.020278324399766443,-0.08058587635783242, ,0.010485914354983777,0.020429410147205916,-0.08076048278664735, ,0.0002656369965694706, ,0.00032806646404679764,0.001532386826898959,-0.0021264147882827837,0.008388463466125423,0.0013088742859769565,-0.0028555405112839984, ,0.0026414914052317767, ,0.008489962966676451, ,2.1052773006090047e-05, ,0.14870894422606715,-0.2439070723666327,0.09038382025000001,1.6066443469784255,0.18801182367724606,-1.2765570698992876, ,0.0001447771156300458,-0.011453507527285125,0.002458908848410004,0.004981314522667542,0.0002998609294469901,0.003658241778387357, ,0.38582491874694824
0.010365076542652365,0.020336333512603035,-0.08065993863675441, ,0.010500355314799674,0.020479389287558936,-0.08082710250242986, ,0.0002582809689649538, ,0.00026252902069463444,0.0013850455473396021,-0.0019596279571363236,-0.008496819185577664,0.0008956017669419986,-0.0018682138394000344, ,0.0024140038080546645, ,0.008543888972151515, ,2.1640858577971617e-05, ,0.1487166669589414,-0.24436271360621192,0.09047067168,1.6066443469784255,0.18814846017701148,-1.2760150578818599, ,-0.00042075758435794713,-0.01024043558507077,0.002253970782510259,0.0042882093403441976,-0.0003599824688918134,0.0192594066284416, ,0.4184598922729492
0.010374469834586463,0.020381578310538283,-0.08072678762547887, ,0.010515289839301866,0.020528476062190177,-0.08089423449729082, ,0.0002635292736073795, ,0.00042810460581758155,0.0015669970621037478,-0.0024718112011290036,-0.007377160419097595,-0.0010893996398853942,0.0017310345394715846, ,0.002957803908339904, ,0.007457163491047333, ,2.2186585136746498e-05, ,0.14870894422606715,-0.24468706838692936,0.09054715279000002,1.6068540369219102,0.18814846017701148,-1.275770021661438, ,0.0006597199577839254,-0.01087363504429563,0.002811793736981466,0.0005846360341527255,-0.00038328847566752823,0.01823246667129081, ,0.4508531093597412
0.010386341939836346,0.020425264659321533,-0.08080178546449703, ,0.01053071460054678,0.020576677261687513,-0.08096187442878232, ,0.00026343446585780405, ,0.0003650493911607897,0.0013444113535919413,-0.002121956699639253,-0.0038407830762052365,-0.000907800424052727,0.0012822011589036118, ,0.0025383859400803675, ,0.003946608189997287, ,2.2658845874724908e-05, ,0.1487166669589414,-0.24497280950327568,0.09063141164,1.6068540369219102,0.18814846017701148,-1.275443306700876, ,0.0005292604367831791,-0.009307254461302622,0.0024134562909090915,0.0005839331053101342,-0.00038732716380298894,0.013142000327958047, ,0.4829070568084717
0.010398222529222304,0.02046619451667407,-0.08086400040883726, ,0.010546626282688081,0.02062399965345097,-0.08103001796852895, ,0.0002729248346374691, ,0.00038903353640441714,0.0012393546389292312,-0.001830471499583948,-0.008441021821483484,-0.0018832027327041123,0.0018643674078078437, ,0.0022445429210135055, ,0.008648543339931555, ,2.3299783410666655e-05, ,0.14874755789043828,-0.24525855061962198,0.09070270759000001,1.6070637268653947,0.18814846017701148,-1.275034913000173, ,0.0013499517413299194,-0.008914860205524731,0.002110615015237843,0.00010200661282998703,-0.0003819205183374052,0.017288778361335515, ,0.5117969512939453
0.010409534235927517,0.02050971392513056,-0.08093505624750126, ,0.010563021581957903,0.0206704499817254,-0.08109866080221101, ,0.0002759726356052087, ,0.00043807808565279584,0.0015182059601540543,-0.002567533970921583,-0.0017530357702425434,-0.0029978733049439658,0.009419463128074627, ,0.003014812172990693, ,0.0034728055880896788, ,2.3892991147884375e-05, ,0.1487552806233125,-0.24554429173596828,0.09078307757000001,1.6074831067523636,0.18814846017701148,-1.2749532342600323, ,0.0006113095349143175,-0.010144808861131192,0.0028940427906976748,-0.007873616751094529,-0.0003718377246869153,0.010664015845964821, ,0.5413610935211182
0.010423943891706738,0.020552282490755813,-0.08101020552975416, ,0.010579897206648411,0.020716034967633412,-0.08116779862954597, ,0.0002756299969648395, ,0.000451323410862773,0.0016513008506236176,-0.0027829606979133986,0.006601369535302421,-0.002369593669481881,0.009323263919311781, ,0.0032673165696935035, ,0.007013775996789257, ,2.442435006475082e-05, ,0.14877844882193517,-0.24581458738656614,0.09086733642000001,1.6074831067523636,0.18801182367724606,-1.2745151013957736, ,0.0004200276700071597,-0.011034528088194277,0.0031362101831069115,-0.007873616751094529,0.0,0.0031822447926591977, ,0.5696980953216553
0.010438503092849882,0.02060624461495552,-0.0810903038301364, ,0.010597249877092967,0.020760761309208474,-0.08123742716427122, ,0.0002659346268490175, ,0.0003828110198348329,0.0014934991760692602,-0.0020493682317213515,0.004442110264025889,-0.0028989419921052724,0.009469024177541623, ,0.002564565112258849, ,0.005304357476189376, ,2.4846744234397592e-05, ,0.14880933975343208,-0.24620072403027737,0.09095937301000001,1.6074831067523636,0.18801182367724606,-1.2742700651753518, ,0.0009202520421778121,-0.011321977093437323,0.0023838388985333737,-0.007873616751094529,0.0,0.005627936285505077, ,0.5990049839019775
0.010453518459805845,0.020652367479313427,-0.08115210956661556, ,0.010615076325647744,0.020804635681427434,-0.08130754213412587, ,0.0002710089157818786, ,0.000534443375401742,0.0016135728087599214,-0.0022573797729190576,-0.0008621378289134847,-0.004189858211836537,0.008925513003259014, ,0.0028257760650597006, ,0.004277638766039132, ,2.5259515445293012e-05, ,0.1488788443493001,-0.24654824700961747,0.09103196525000001,1.6074831067523636,0.18801182367724606,-1.2739433502147897, ,0.002372952151132453,-0.01201054068026514,0.002632426296479921,-0.006930435019140242,0.0,0.011754086831923865, ,0.6284620761871338
0.010464425780437887,0.02068398749810437,-0.08119925937100876, ,0.01063337329667293,0.020847664736243405,-0.08137813928083333, ,0.00029551907496075175, ,0.0005356545303029705,0.0015809658603511928,-0.002362717267478464,-0.004354344553340705,-0.003900355867525512,0.008381387858427484, ,0.0028928898550534174, ,0.005845775595155691, ,2.577013266604934e-05, ,0.14892518074654545,-0.24677220626296997,0.09108640943000001,1.6074831067523636,0.18801182367724606,-1.2736166352542273, ,0.0021934839776678876,-0.011306677178419012,0.002726135806948486,-0.0063453254106154286,0.0,0.01463679848825293, ,0.657088041305542
0.010481971130063493,0.02073178052147512,-0.08127781761062419, ,0.01065213754651423,0.020889855102618874,-0.08144921436008248, ,0.00028865382072012846, ,0.0005512583108402997,0.0015424056488045862,-0.0026412997721523,0.017556582848624516,-5.728192682708606e-05,-0.005627757367723985, ,0.003107951961840239, ,0.01755667629169037, ,2.620203192988041e-05, ,0.14899468534241347,-0.24708883831081319,0.09117585344000001,1.6074831067523636,0.18801182367724606,-1.2732082415535246, ,0.001862663606779273,-0.00976650905327504,0.0029868388374273396,0.007078001819849586,0.0,-0.006886018135668674, ,0.6867029666900635
0.010495796835465362,0.02077616414529874,-0.08134423678160933, ,0.0106713658434841,0.02093121338655853,-0.08152076314151126, ,0.00029330240287482015, ,0.000395789707521664,0.0011975336166921082,-0.001650576912119325,0.0023107273647876908,-0.00023090386533160967,-0.004764762964731674, ,0.002077291601703798, ,0.002322235461177987, ,2.6757022734757465e-05, ,0.1490410217396588,-0.24739774762578218,0.09125233455000001,1.607692796695848,0.18801182367724606,-1.2732082415535246, ,0.0017790693136998863,-0.008705520495174212,0.0019304336563315528,0.006637324452231521,0.0,0.007260747621320602, ,0.7143940925598145
0.010509769100828958,0.020816443232435887,-0.08141167776297828, ,0.010691054967843205,0.020971746171141857,-0.08159278140868745, ,0.0002996366113127191, ,0.000537815031745151,0.0014897873425709822,-0.002836552020234264,-0.0024085388207358274,-6.515408803035294e-05,-0.003712958608638326, ,0.003248805734104585, ,0.002409419872613388, ,2.7305010306315595e-05, ,0.14908735813690416,-0.2476603205435058,0.09132881566,1.607692796695848,0.18801182367724606,-1.2728815265929625, ,0.0013421569920657782,-0.008597581608123113,0.0031604784761904764,0.005721243500524773,0.0,0.011745753075649002, ,0.7428178787231445
0.010521864355688205,0.020846923515989612,-0.08147512140966115, ,0.010711201711781759,0.021011460016556276,-0.08166526495909185, ,0.00031476255149131974, ,0.0006786990698190126,0.0016056976790140142,-0.003431013106001211,-0.0020854864706695434,-0.0007912186057372921,-0.0033580816221307225, ,0.0038484735152156447, ,0.0022305336191039294, ,2.7888158793801965e-05, ,0.14911824906840107,-0.24782249793386452,0.09139881532000001,1.607692796695848,0.18801182367724606,-1.2725548116324001, ,0.001961333946899575,-0.008160730901187428,0.00377818110056926,0.0052473085795637624,0.0,0.010921742358670055, ,0.7674989700317383
0.01054242696421943,0.020891093551603387,-0.0815649734275332, ,0.010731802879400882,0.021050361460129733,-0.08173820960409969, ,0.00030206005497010886, ,0.00065011816644402,0.0013127005846922703,-0.0026164180600235756,-0.005004274266302242,-0.002079358325675307,-0.0028624790666406845, ,0.002998579650469451, ,0.005419085887519895, ,2.8376026115324774e-05, ,0.14920319913001753,-0.2480619026529655,0.09149862965000001,1.607692796695848,0.18801182367724606,-1.2723914541521193, ,0.0030849426790576797,-0.007153556895221752,0.00291950357771261,0.004654884216343716,0.0,0.012761151940133646, ,0.7930200099945068
0.010556212500783667,0.020918788624496632,-0.08161811908286769, ,0.010752855286693909,0.02108845701636376,-0.08181161116896345, ,0.00032387487681357236, ,0.0007596265648274001,0.0013918474104574097,-0.0027381029561156832,0.004447835910032962,-0.0042144450125299795,0.0012878533425019004, ,0.0031640922126698386, ,0.006127380426602704, ,2.8930197327742026e-05, ,0.14927270372588555,-0.24821635731044997,0.09155825899000002,1.6079024866393328,0.18801182367724606,-1.272228096671838, ,0.0041803515341326085,-0.0077500879767478225,0.0030697266371169786,0.0,0.0,0.0032190858112520425, ,0.8190319538116455
0.01058114448132931,0.02096433354732341,-0.0817110881439759, ,0.010774355761527873,0.0211257531769661,-0.08188546549279417, ,0.0003062586413651678, ,0.0009172946351600442,0.001563335364078589,-0.00337059966057967,0.004827360795967111,-0.0033232955116678986,-0.004687029625577273, ,0.003827060096232083, ,0.005860691501628927, ,2.9375464538347062e-05, ,0.14940399018474737,-0.24845576202955091,0.09166196219000002,1.6081121765828172,0.18801182367724606,-1.2719013817112756, ,0.004927147256670806,-0.007687899012696788,0.0037400355764263915,0.006271805357008647,0.00010322776984117425,0.0036832684368135957, ,0.8440999984741211
0.010607854970794226,0.021008332491092324,-0.08180286788985647, ,0.01079630114362463,0.02116225641088379,-0.0819597684285439, ,0.0002895208320290645, ,0.0008710958143838075,0.001400484701214105,-0.002989891432454173,-0.0007947247128685124,-0.006249542385070223,0.005762986638459864, ,0.0034146180011876315, ,0.00629987040764329, ,2.9725016956099706e-05, ,0.14955844484223185,-0.24867972128290344,0.0917643691,1.608321866526302,0.18801182367724606,-1.2717380242309946, ,0.005046118872196242,-0.007140487615469305,0.003328209678228166,-0.004588717637922664,0.0,0.007199470483897318, ,0.8695058822631836
0.010623053492302852,0.021037032529833397,-0.0818609550519625, ,0.010818688284542449,0.021197973164336057,-0.08203451584298851, ,0.0003070801327834872, ,0.0008000463731557655,0.0014338794766885741,-0.003245994465321792,-0.0015664252329410093,-0.004825965886837804,0.005308020962432689, ,0.0036376592228750757, ,0.005073818521681139, ,3.02483097652334e-05, ,0.1496356721709741,-0.24883417594038792,0.0918291836,1.608321866526302,0.18801182367724606,-1.2715746667507135, ,0.003725350422656787,-0.006791991323255547,0.003573886363024456,-0.004147070232838302,0.0,0.007690419437223024, ,0.8909389972686768
0.010639525443861174,0.02106830797274355,-0.08193169918870823, ,0.010841514047657184,0.021232909860846482,-0.0821097036167089, ,0.0003155610147314747, ,0.0008818253883530875,0.0016191469448850197,-0.0038815316696929726,-0.0015473080839182856,-0.004520372880877093,0.005018740311210432, ,0.004297154982951404, ,0.004777858558773719, ,3.0780338162614644e-05, ,0.1497051767668421,-0.24898090786499819,0.09190696100000001,1.608321866526302,0.18801182367724606,-1.2713296305302917, ,0.003555919612831558,-0.0070255506937719646,0.004224028512330948,-0.0037971671648273013,5.232617907728011e-05,0.007954283036297756, ,0.9124059677124023
0.010658843373208476,0.021100577507030115,-0.08200877560038676, ,0.010864775308143665,0.02126707290127672,-0.08218532764407317, ,0.00031827551313497697, ,0.0008359943888669895,0.0015025891942765423,-0.0036151549478078224,-0.00740771381903092,-0.004351573720193328,0.004889643677524467, ,0.0040032494553341414, ,0.008591298926788792, ,3.1298142364782436e-05, ,0.14978240409558435,-0.24911991705673422,0.09199121985000001,1.608321866526302,0.1878751871774806,-1.271054855146314, ,0.003490895076121034,-0.0064621585581492455,0.0039505980952380965,-0.0034840305586684214,0.00014019614862445932,0.013305855555229475, ,0.9344489574432373
0.010677259811039185,0.021130912467360985,-0.0820795039020698, ,0.010888468952957113,0.021300468663858763,-0.08226138383321963, ,0.0003262497735716661, ,0.0009360472969615039,0.0015956318208588543,-0.003868428624402413,-0.006577817850303901,-0.004222943185215908,0.0015763157668590335, ,0.00428800250372854, ,0.007816708767187689, ,3.182261554426338e-05, ,0.14987507689007507,-0.24925892624847026,0.09206899725,1.6081121765828172,0.1878751871774806,-1.270891497666033, ,0.004219499764797177,-0.006673286264785989,0.004229636622411047,0.0,0.00014019614862445932,0.013188300038367299, ,0.9558119773864746
0.010697261552078985,0.021163903131365173,-0.08215608380156453, ,0.010912591880814265,0.021333103504228065,-0.08233786810603755, ,0.0003286965926244521, ,0.0008921631057764867,0.001563122238842491,-0.003497365089083876,-0.002411353625072739,-0.0018028196634646244,-0.00820742527055615, ,0.003933302519158089, ,0.003010778059054075, ,3.2332841097444393e-05, ,0.14997547241743997,-0.2493979354402063,0.09215325610000001,1.6085315564697864,0.1878751871774806,-1.270891497666033, ,0.004348948175654908,-0.007167498682962172,0.0038596587157741706,0.01019507547119085,0.00014622094831488698,0.010984599662238621, ,0.9778189659118652
0.010715164478577245,0.02119302456384094,-0.08222313937930258, ,0.01093714100217506,0.021364983755456063,-0.08241477639815044, ,0.0003399533609223382, ,0.0008934672732317446,0.0014404817008059412,-0.003394149028328781,0.0016991106065595996,-0.002107364224588763,-0.007925573059322778, ,0.0037938791395085527, ,0.002707020572131229, ,3.286166832330552e-05, ,0.15006814521193068,-0.24952922189906812,0.09222714463000001,1.6085315564697864,0.1878751871774806,-1.2706464614456114, ,0.004544254684326634,-0.0060750320798329555,0.0037304008243559724,0.009504415874765887,0.0001526787474485176,0.00568982193028454, ,0.9991650581359863
0.010735057154879424,0.02122120357483822,-0.08228612872638207, ,0.010962113239223501,0.02139611572808312,-0.08249210465889767, ,0.0003529515711342051, ,0.0010724771672373792,0.0014787011984012262,-0.0032693538451739348,0.0012685057188971355,-0.00473563923796097,-0.0067143016149073505, ,0.0037450552830835928, ,0.00490258966031973, ,3.3414085206973505e-05, ,0.1502612135337863,-0.24973001295379796,0.09233214412000001,1.6085315564697864,0.1878751871774806,-1.2704831039653302, ,0.007549058380688843,-0.006503260158911685,0.0036676977941515086,0.007943856250861577,0.00015991055351806586,0.0103587518858042, ,1.0213160514831543
0.010758236469569683,0.021251323096766694,-0.08235358152187564, ,0.010987505525849458,0.02142650571015158,-0.08256984885131645, ,0.00036058952561498223, ,0.0011669011653102487,0.0014557195661068615,-0.0034703154164842185,-0.007232354785586887,-0.005780606991007566,-0.0056740991851898966, ,0.0039400338671941385, ,0.009258637719760205, ,3.40883677839077e-05, ,0.15034616359540276,-0.24979951754966598,0.09237232911000001,1.6085315564697864,0.1878751871774806,-1.2702380677449083, ,0.007646148454157822,-0.0059444530464936324,0.0038419709406657026,0.007501681351202244,0.00016196573553869497,0.014211217022747807, ,1.0391819477081299
0.010783800641644718,0.02128337150556072,-0.08243619435698414, ,0.011013314807629635,0.02145615996723819,-0.08264800495212406, ,0.000356926229198898, ,0.0015201232885836825,0.0017888154341728715,-0.004716591803391679,0.023778754138937902,-0.009186870264407426,0.00025603525260756713, ,0.0052684792596963985, ,0.025491718877331353, ,3.472701295609729e-05, ,0.15051606371863568,-0.24991535854277935,0.09246306941000002,1.6085315564697864,0.18801182367724606,-1.2701044494281835, ,0.0095977745186287,-0.006147542050955143,0.005166659591307169,0.0,0.00023562997778887393,-0.01771643653197233, ,1.056797981262207
0.01081506958371835,0.021319005592866903,-0.08253083942184897, ,0.011039538041809117,0.021485084742487174,-0.08272656895170023, ,0.00034099621914624817, ,0.0014447923988645727,0.0015396392118813868,-0.004274845560345152,-0.0025492120172201246,-0.00932076440321923,0.0010414779508681675, ,0.004767831639580223, ,0.009663080747953658, ,3.529051852635238e-05, ,0.15071685477336552,-0.2500311995358927,0.09256677261000001,1.6087412464132707,0.18801182367724606,-1.2700227706880427, ,0.009476763344511415,-0.0046122630870754884,0.004671205724340177,0.0,0.00023562997778887393,0.007115554069531578, ,1.0782380104064941
0.01084217779587893,0.021346609880012735,-0.08260651020224952, ,0.011066172197282564,0.02151328625664325,-0.08280553685406883, ,0.0003428791543988284, ,0.0013939159193901256,0.0013230402700480095,-0.0036874658739562693,-0.001441955850253943,-0.009739476081683868,0.0008523737567442344, ,0.004158225789695649, ,0.00984564016902915, ,3.58415998567069e-05, ,0.15090220036234692,-0.2501161495975092,0.09264973517000001,1.6087412464132707,0.18801182367724606,-1.2699410919479024, ,0.009914189471698134,-0.0038579683890698595,0.004046954146341464,0.0,0.00023562997778887393,0.0052607578028473585, ,1.0961170196533203
0.010869977322546966,0.021373929065601864,-0.08268215968802936, ,0.011093214254575597,0.02154077070808371,-0.0828849046768801, ,0.00034463951020114266, ,0.0013780490675229097,0.0012664118463221485,-0.003612864846088048,-8.677440489695866e-05,-0.008048076436056045,-0.005475337567378686, ,0.00406885863518317, ,0.008048544185279878, ,3.638046471311605e-05, ,0.15109526868420253,-0.25019337692625143,0.09273269773000001,1.6089509363567556,0.18801182367724606,-1.2699410919479024, ,0.00983741574093558,-0.0033034437104960375,0.0039594361222967936,0.006478706146231119,0.00023562997778887393,0.004301260965198462, ,1.1137690544128418
0.010896862845875217,0.021398339689490453,-0.08275597829841817, ,0.011120661205826061,0.021567544272851905,-0.08296466845139214, ,0.0003496676663569379, ,0.0015200300039443452,0.0015345380141837802,-0.004549375831324706,0.004299947047432996,-0.008101489978773144,-0.005136833790048263, ,0.005036081669761472, ,0.009171896343620886, ,3.6918174145139635e-05, ,0.15128061427318393,-0.250247436056371,0.09281306771,1.6089509363567556,0.18801182367724606,-1.2698594132077616, ,0.009810730353733199,-0.0035993406169119646,0.0049437652141527,0.005996165420487133,0.00023306830311548192,0.00013401524838668703, ,1.1316230297088623
0.010912482921769556,0.021412794158177505,-0.08280281383043114, ,0.011148510054765453,0.021593613104689872,-0.08304482422245471, ,0.0003833710066965238, ,0.0015608360356164424,0.0014156469015155922,-0.004801456138154563,0.0021799436715105825,-0.008198465081188237,-0.005145099970048683, ,0.005243495620907076, ,0.008483335520095557, ,3.754524082012646e-05, ,0.15138100980054883,-0.2502706042549937,0.09286362302000001,1.6089509363567556,0.18801182367724606,-1.2698594132077616, ,0.009827187377429936,-0.0015321062879357207,0.0051616369151004544,0.005680494579939003,0.00023083631459413787,0.00016483982896509978, ,1.149449110031128
0.010947687020895535,0.021446205409054175,-0.08291368786982392, ,0.011176757816700092,0.021618983335071257,-0.08312536804848947, ,0.0003565587458598862, ,0.001831535261983103,0.0016028666502081112,-0.0055683276193757465,-0.0015273454410408731,-0.010160696738623253,-0.00451303099617619, ,0.0060770038169265335, ,0.010274849729178963, ,3.8188162261183725e-05, ,0.1515972463210271,-0.25031694065223903,0.0929828817,1.6089509363567556,0.18801182367724606,-1.2696960557274806, ,0.011616005404673673,-0.0013546968383486913,0.005979283603603605,0.0051360510552730726,0.0002264376228962877,0.0036211227194014777, ,1.1634559631347656
0.0109843551952171,0.021481891719818992,-0.0830289560633477, ,0.01120540151849253,0.02164366107323357,-0.0832062960014726, ,0.00032631312322966465, ,0.001774445093744366,0.001554593782189811,-0.005249544853933437,-0.0009233213200168166,-0.01088275884422762,-0.00021046073501600248, ,0.005755270488152203, ,0.010921856908738583, ,3.872219448944504e-05, ,0.15183665104012808,-0.2503709997823586,0.09310732554000001,1.6091606263002398,0.18814846017701148,-1.2697257948910363, ,0.011516409706251738,-0.0018199080396695184,0.005654530181043664,0.0007535577975949914,0.0004904820904915076,0.002835337045940316, ,1.1824159622192383
0.010999863841454436,0.021495390540338367,-0.08307469799179641, ,0.011234438198542843,0.021667652406211605,-0.0832876041669175, ,0.0003605943965763446, ,0.001679408700697366,0.0013412848705773664,-0.004619037792169851,-0.0012675273430252404,-0.010883183407505687,-0.00031305511529841124, ,0.005094601928856767, ,0.010956746987318786, ,3.934743953083886e-05, ,0.15193704656749302,-0.25038644524810705,0.09315658456,1.6091606263002398,0.18814846017701148,-1.2697257948910363, ,0.011521133205644475,-0.0012548134180644544,0.004983983579474344,0.0007624340364537035,0.0004904820904915076,0.0026221010049996252, ,1.1964778900146484
0.011018469793692361,0.021511149327406626,-0.08312349263314399, ,0.011263864906769939,0.021690963398870312,-0.08336928864385651, ,0.0003911106502013135, ,0.0017749286724079258,0.0015755226196675805,-0.004723620915347339,0.003985474955060484,-0.011775288505166931,-8.999096148786618e-05, ,0.005286325554591468, ,0.012431469247263868, ,4.0049304071613506e-05, ,0.1520683330263548,-0.25041733617960393,0.09320973245000001,1.6091606263002398,0.18814846017701148,-1.2696441161508958, ,0.012443868549497873,-0.003540879089302133,0.00515495518446602,0.0007670075785711946,0.0004904820904915076,-0.0003730080910339709, ,1.2112228870391846
0.011056271599667555,0.02154365323838697,-0.08322884149595791, ,0.011293678704592879,0.02171360009393684,-0.08345134554482206, ,0.0003670859830356525, ,0.0018903724976254625,0.001762196965838979,-0.005557957992013814,-0.0004975392083391802,-0.011617686449330667,-4.3722930476544175e-05, ,0.006129416233800823, ,0.011628335151479275, ,4.066321732606217e-05, ,0.15232318321120422,-0.2504636725768493,0.09332380597,1.6093703162437245,0.18814846017701148,-1.2694807586706147, ,0.012263755693780147,-0.0032085458576724115,0.006017684744994334,0.00083878274122417,0.0004904820904915076,0.003795628964909499, ,1.2259130477905273
0.011075416213040354,0.02156165216777874,-0.0832889102937497, ,0.011323876664912145,0.021735568512034047,-0.08353377099583074, ,0.00038979001317002436, ,0.002058078938990029,0.0017158213669035847,-0.006053011471673657,-0.005352325946428867,-0.01210681773219523,-5.738125154934452e-05, ,0.00661956794348771, ,0.013237160590994364, ,4.1329308657046845e-05, ,0.15245446967006604,-0.25048684077547195,0.09338862047,1.6093703162437245,0.18828509667677693,-1.2695104978341705, ,0.013397845765702498,-0.0012176024287285678,0.006504210502245815,0.00083878274122417,0.0011857885949274867,0.006685321598524546, ,1.2400259971618652
0.011119221859375292,0.02159767581077887,-0.08341143582930598, ,0.011354455872090965,0.021756874651713012,-0.08361656113636316, ,0.00035036509998628016, ,0.0023484500448102473,0.001912633894491303,-0.006539117101703875,-0.006595965271822345,-0.01461548683898432,0.0001242173613445729, ,0.007206485863243076, ,0.016034936902006948, ,4.1865679281273205e-05, ,0.1527479335192866,-0.2505254544398431,0.09352084205000001,1.6093703162437245,0.18828509667677693,-1.2693471403538894, ,0.01588765135752064,-0.0019217447859300203,0.007057515073105894,0.00083878274122417,0.0011857885949274867,0.008626492781924771, ,1.2544240951538086
0.011143839851902529,0.02161760386861359,-0.08348106854192315, ,0.011385413421936682,0.021777524489486028,-0.08369971211934776, ,0.00036295648316059145, ,0.0024547977744244867,0.0018644801918650284,-0.006584412597478042,-0.005958190236202994,-0.014723876210823123,0.00025902057892014435, ,0.007270268753835996, ,0.01588371962691008, ,4.254774665287312e-05, ,0.1529101109096453,-0.25054089990559153,0.09359084171000001,1.6093703162437245,0.1884217331765424,-1.2694585582575857, ,0.01714488555708596,-0.001209180485926168,0.007184849580514209,0.00083878274122417,0.0023657583089523606,0.007306450823477044, ,1.2654740810394287
0.011167071708579647,0.021636594719026216,-0.08354572645458536, ,0.011416746421681953,0.021797523979858995,-0.08378322011114162, ,0.00038031424672153185, ,0.002430341269699574,0.001835803682931726,-0.006437568982726013,-0.0011307466771503553,-0.01259895467633751,-0.002856266618811631, ,0.007121729302411505, ,0.012649594298948954, ,4.326760707100108e-05, ,0.1530954564986267,-0.25055634537134,0.09366602653000002,1.609580006187209,0.18855836967630782,-1.2694882974211419, ,0.0172445832379558,-0.0012387543263380756,0.006955812890829694,0.004280304761060263,0.003732259569033814,0.002991811295587369, ,1.2761890888214111
0.011190398241610168,0.021652986659961675,-0.0836072099826536, ,0.011448451989966107,0.021816879055364728,-0.08386708129151366, ,0.00040123004807733474, ,0.0024485229814786573,0.0019025065043513038,-0.0067656921376819295,-0.001201795097199805,-0.012190871476960147,-0.002890512518039105, ,0.007442404577273344, ,0.012249965087589867, ,4.4034350649713874e-05, ,0.1532576338889854,-0.25055634537134,0.09373213732,1.609580006187209,0.18855836967630782,-1.2694882974211419, ,0.01683764044685429,-0.00104600787075351,0.0072900739221967974,0.004280304761060263,0.003732259569033814,0.0028727399743735094, ,1.2871549129486084
0.011217986797630577,0.02167323552817605,-0.08368332098857782, ,0.011480527256816508,0.021835595626595292,-0.0839512918536256, ,0.0004087746063330238, ,0.002690866802793773,0.0020627882558564045,-0.007473222180244511,-0.0036811089512352284,-0.013736501333457529,-0.002853281850558675, ,0.00820639441497758, ,0.01422118169088262, ,4.4809340998128115e-05, ,0.15344297947796678,-0.25055634537134,0.09381380359000001,1.609580006187209,0.18855836967630782,-1.2693249399408604, ,0.01836241129227376,-0.0007387239810824659,0.008040793296314994,0.004280304761060263,0.003732259569033814,0.005050652973472234, ,1.2977619171142578
0.011244169551717751,0.02169349754102391,-0.08375804580451082, ,0.0115129693636297,0.02185367958223513,-0.08403584800401483, ,0.00041843241659765665, ,0.002734175576615375,0.0019947768692898074,-0.007242054348801082,-0.0010891415380179482,-0.011855396133661265,-0.003632949263311701, ,0.007993885290207906, ,0.011905319267242235, ,4.5598242091470534e-05, ,0.15362832506694818,-0.25055634537134,0.09389417357,1.6097896961306934,0.18869500617607327,-1.2694363578445569, ,0.019546228951281313,-0.0005793331914297871,0.007812070387444827,0.005694660534149663,0.006510600338980075,0.002511856319489434, ,1.3092360496520996
0.011270879680028453,0.021712780702373678,-0.08382754960912896, ,0.011545775463152868,0.02187113678909384,-0.08412074596257604, ,0.00043198199436501807, ,0.0027304796305020937,0.0019073304907528232,-0.0070974260394120366,0.0012697296529703768,-0.008216654084532723,-0.002731184061008153, ,0.007840081951004484, ,0.008314180640741917, ,4.6411430157835845e-05, ,0.15382911612167802,-0.2505640681042142,0.09396935839000001,1.6097896961306934,0.1888316426758387,-1.2694660970081126, ,0.020195135466795227,0.0,0.007658082461538462,0.005694660534149663,0.010911287080373703,-0.0004186388280020331, ,1.3199958801269531
0.011299543541676468,0.021731721911495076,-0.083900925598411, ,0.011578942719465059,0.021887973092138465,-0.08420598196254364, ,0.0004421964691166343, ,0.0029346206771225206,0.0019151775343834287,-0.007216322894414821,0.003179194788870357,-0.008391215196751383,-0.002306012630114601, ,0.00802217050574578, ,0.00897327991395951, ,4.723919567325422e-05, ,0.1540453526421563,-0.25055634537134,0.09404843208000001,1.6097896961306934,0.18896827917560413,-1.2695775149118091, ,0.02256227806906105,0.00033303348780298306,0.007804415247427732,0.005694660534149663,0.013154347058072183,-0.0026572264921024148, ,1.3306469917297363
0.011329536736138447,0.02175066189722545,-0.08397411825720089, ,0.011612468307958425,0.021904194314527177,-0.08429155225047329, ,0.00045209160308492527, ,0.003032177830110102,0.0019492575785244413,-0.0073278429058379144,-0.0008262226067259669,-0.013971214881837541,-0.0034938229743860963, ,0.008166455115500557, ,0.01399562317087938, ,4.8210970705152084e-05, ,0.15427703462838302,-0.2505486226384658,0.09412750577000001,1.6097896961306934,0.18910491567536958,-1.2696889328155057, ,0.022888794394228362,0.00028757519996645505,0.007924781850746269,0.005694660534149663,0.0077671612764580785,0.001394417020694197, ,1.337697982788086
0.011360600133715011,0.021770243441985217,-0.08404969562642654, ,0.011646349415319657,0.021919806257641093,-0.08437745308622444, ,0.0004598332743697996, ,0.0032093743170153394,0.002135323639168715,-0.008021910902327086,0.00825436274938128,-0.008907929097049684,-0.0021707063287760425, ,0.008900041858080476, ,0.0121443679118033, ,4.919316349693451e-05, ,0.154516439347484,-0.25054089990559153,0.09420917204000001,1.6097896961306934,0.18924155217513502,-1.2697186719790614, ,0.02435128087207359,0.00026769738507432687,0.008671100446379969,0.005694660534149663,0.014419059871474838,-0.0076701789700517695, ,1.344851016998291
0.011395903687645887,0.02179464444723545,-0.08414369922067201, ,0.011680583239511199,0.021934814701117984,-0.08446368074294225, ,0.00045064212177525943, ,0.0032093743170153394,0.002135323639168715,-0.008021910902327086,0.00825436274938128,-0.008907929097049684,-0.0021707063287760425, ,0.008900041858080476, ,0.0121443679118033, ,5.014008767645438e-05, ,0.1547712895323334,-0.25053317717271734,0.09431028266000001,1.6097896961306934,0.18937818867490044,-1.269830089882758, ,0.02518496325861751,0.0009511194524792631,0.010683307525150905,0.005694660534149663,0.014281515918965077,-0.007853661718051729, ,1.3525068759918213
0.011395903687645887,0.02179464444723545,-0.08414369922067201, ,0.01171516698975254,0.021949225402884277,-0.08455023150703911, ,0.0005395301917225845, ,0.003587991326799993,0.002576102736143096,-0.009952105144242353,0.007762935030397596,-0.009872766079354545,-0.0023166064745665876, ,0.01088826817590433, ,0.012559242521575139, ,5.131455296086528e-05, ,0.1547712895323334,-0.25053317717271734,0.09431028266000001,1.6097896961306934,0.18937818867490044,-1.269830089882758, ,0.02518496325861751,0.0009511194524792631,0.010683307525150905,0.005694660534149663,0.014281515918965077,-0.007853661718051729, ,1.3599259853363037
0.011432120660387787,0.02182357171492559,-0.08425103459706779, ,0.011750097886501453,0.02196304409918834,-0.08463710167817834, ,0.0005192396878283665, ,0.003935776165000441,0.00311167573120073,-0.011981829182461304,0.01656516792805312,-0.0023488182213399576,0.0006329411728358981, ,0.012989884157867247, ,0.016730854388457027, ,5.242255982763825e-05, ,0.15502613971718282,-0.25053317717271734,0.09442565247000001,1.6099993860741781,0.18965146167443137,-1.2699712469500102, ,0.026448422953865878,0.0008676574611545322,0.01282513004830918,0.004694672495385686,0.023529814881020628,-0.016722119799416565, ,1.3670299053192139
0.011474875697956338,0.021857623928586648,-0.08438337420839549, ,0.011785373161435445,0.02197627650463315,-0.08472428756925349, ,0.00047613971504267935, ,0.004289062872037753,0.0035751972528659964,-0.013717530600962471,0.017435729166825464,-0.00217236723225861,-0.0020887835094522424, ,0.014810426783369043, ,0.017570524899891943, ,5.3404820661996454e-05, ,0.15529643536778068,-0.2505177317069689,0.09456694808,1.6102090760176624,0.18978809817419678,-1.2700826648537067, ,0.02734782177477544,0.0008022543626516548,0.01465392044158234,0.007630399152865554,0.023888977804998855,-0.01708353953383559, ,1.3745450973510742
0.011474875697956338,0.021857623928586648,-0.08438337420839549, ,0.011820990057432972,0.021988928312208864,-0.0848117855063733, ,0.0005661909847651805, ,0.004289062872037753,0.0035751972528659964,-0.013717530600962471,0.017435729166825464,-0.00217236723225861,-0.0020887835094522424, ,0.014810426783369043, ,0.017570524899891943, ,5.4613718934210105e-05, ,0.15529643536778068,-0.2505177317069689,0.09456694808,1.6102090760176624,0.18978809817419678,-1.2700826648537067, ,0.02734782177477544,0.0008022543626516548,0.01465392044158234,0.007630399152865554,0.023888977804998855,-0.01708353953383559, ,1.381850004196167
0.011519949456882884,0.021894541466727698,-0.08452523187488253, ,0.011856945828554663,0.02200100519332595,-0.08489959182884196, ,0.0005148266258942303, ,0.004547500400513925,0.003613628828174743,-0.013924007760438976,0.01246392395817343,-0.010049216788390792,-0.003485626424806283, ,0.015086950166062547, ,0.01601048516161178, ,5.5675496913335266e-05, ,0.1555898992170012,-0.25051000897409464,0.09471861401000001,1.6102090760176624,0.19006137117372765,-1.270223821920959, ,0.029226036821210586,0.0010318754875020739,0.01488673973831776,0.007630399152865554,0.017736905622755254,-0.012337767886906529, ,1.3898499011993408
0.01156549657811092,0.02192757806423363,-0.08465743812499765, ,0.011893237740024643,0.022012512797847793,-0.08498770288914123, ,0.000472972507257536, ,0.004650440447892199,0.0032891123767532695,-0.01296318542959543,0.013241705546180992,-0.012105381251414037,-0.00346985639361527, ,0.014159414997392322, ,0.01794108845495333, ,5.6617219604561475e-05, ,0.15589108579909594,-0.25048684077547195,0.09485990962000002,1.6102090760176624,0.1901980076734931,-1.2702535610845147, ,0.03215755389985455,0.001959571249822935,0.013899486492146597,0.007630399152865554,0.018624441928209997,-0.014031829325328225, ,1.3969550132751465
0.01160882985394443,0.02195733558314703,-0.0847822438475043, ,0.011929863068211904,0.02202345675412352,-0.08507611505291342, ,0.0004402211027231863, ,0.004487069113487743,0.002955001072863125,-0.012471145473022627,0.025869009183905656,0.0049031427812664214,0.00018378478058037834, ,0.013579222731037689, ,0.026329567858602545, ,5.746433531314713e-05, ,0.15620771784693915,-0.2504482271111009,0.09499342749,1.6102090760176624,0.1906079171727894,-1.270587814795604, ,0.03297322500294329,0.004251150493568309,0.01335189565800503,0.007630399152865554,0.036889940607285544,-0.028926118744963165, ,1.4040629863739014
0.01160882985394443,0.02195733558314703,-0.0847822438475043, ,0.011966819100611545,0.022033842669020597,-0.085164824698943, ,0.0005295070753122364, ,0.004487069113487743,0.002955001072863125,-0.012471145473022627,0.025869009183905656,0.0049031427812664214,0.00018378478058037834, ,0.013579222731037689, ,0.026329567858602545, ,5.853283635615214e-05, ,0.15620771784693915,-0.2504482271111009,0.09499342749,1.6102090760176624,0.1906079171727894,-1.270587814795604, ,0.03297322500294329,0.004251150493568309,0.01335189565800503,0.007630399152865554,0.036889940607285544,-0.028926118744963165, ,1.4112389087677002
0.011652839673221773,0.021983882363840208,-0.08489449393142386, ,0.012004103135825991,0.022043676127958056,-0.08525382821913778, ,0.0005060458919060203, ,0.00450864210554899,0.002598480043726001,-0.011050163393320217,0.014768139479453837,-0.006877746487224859,-0.0019731129983567644, ,0.012214174683237737, ,0.016291137948905837, ,5.9683255522090104e-05, ,0.1565397953605308,-0.25040961344672974,0.09511398246000001,1.6102090760176624,0.1908811901723203,-1.2707289718628563, ,0.034633920276814154,0.004174743248908016,0.011887172776119406,0.007630399152865554,0.026544039922129718,-0.017744582947807563, ,1.4152328968048096
0.011652839673221773,0.021983882363840208,-0.08489449393142386, ,0.01204171248354639,0.02205296269493865,-0.0853431220185124, ,0.0005977134056378156, ,0.00450864210554899,0.002598480043726001,-0.011050163393320217,0.014768139479453837,-0.006877746487224859,-0.0019731129983567644, ,0.012214174683237737, ,0.016291137948905837, ,6.106282000956632e-05, ,0.1565397953605308,-0.25040961344672974,0.09511398246000001,1.6102090760176624,0.1908811901723203,-1.2707289718628563, ,0.034633920276814154,0.004174743248908016,0.011887172776119406,0.007630399152865554,0.026544039922129718,-0.017744582947807563, ,1.4190280437469482
0.011652839673221773,0.021983882363840208,-0.08489449393142386, ,0.012079644464533823,0.022061707912582343,-0.08543270251516945, ,0.0006912941671541666, ,0.00450864210554899,0.002598480043726001,-0.011050163393320217,0.014768139479453837,-0.006877746487224859,-0.0019731129983567644, ,0.012214174683237737, ,0.016291137948905837, ,6.2674664887174e-05, ,0.1565397953605308,-0.25040961344672974,0.09511398246000001,1.6102090760176624,0.1908811901723203,-1.2707289718628563, ,0.034633920276814154,0.004174743248908016,0.011887172776119406,0.007630399152865554,0.026544039922129718,-0.017744582947807563, ,1.422847032546997
0.011702230672840722,0.022009094884979544,-0.08500633856908141, ,0.012117896410600673,0.022069917302158473,-0.08552256614028178, ,0.0006655586204433446, ,0.004831544929153083,0.0025272545160432156,-0.010981210199370112,0.011889797920341996,-0.012967272990008074,-0.0026735381329890603, ,0.012260416764288067, ,0.017593103867816446, ,0.0003496021193240053, ,0.15693365473711626,-0.25035555431661016,0.09523453743000002,1.6102090760176624,0.1911544631718512,-1.270951807670249, ,0.038095921942380886,0.004867166946301379,0.011842982542750931,0.007630399152865554,0.02385059723928421,-0.015548261042867965, ,1.4264509677886963
0.011702230672840722,0.022009094884979544,-0.08500633856908141, ,0.012156465664591802,0.022077596363618914,-0.08561270933807433, ,0.0007607281970559188, ,0.004831544929153083,0.0025272545160432156,-0.010981210199370112,0.011889797920341996,-0.012967272990008074,-0.0026735381329890603, ,0.012260416764288067, ,0.017593103867816446, ,0.00035523398340252466, ,0.15693365473711626,-0.25035555431661016,0.09523453743000002,1.6102090760176624,0.1911544631718512,-1.270951807670249, ,0.038095921942380886,0.004867166946301379,0.011842982542750931,0.007630399152865554,0.02385059723928421,-0.015548261042867965, ,1.430034875869751
0.01175405583270615,0.02203551206699699,-0.08513215657266948, ,0.012195349580365899,0.022084750575630824,-0.08570312856580677, ,0.000723307416941948, ,0.005671435673719519,0.0029347393003013684,-0.014780216626567854,0.022944339494175073,0.0045885828443420614,0.003516722486230765, ,0.01610070436006278, ,0.023398655986924696, ,0.000360207948720625, ,0.15734295957945016,-0.2502706042549937,0.09536935159000001,1.6104187659611469,0.1915643726711475,-1.2712043826411978, ,0.04317422272905859,0.011276315119985015,0.015739932332015812,0.005619555597283721,0.0475743592962747,-0.03323733505963109, ,1.433656930923462
0.01175405583270615,0.02203551206699699,-0.08513215657266948, ,0.012234545522776802,0.022091385395609123,-0.08579382029375478, ,0.0008196286054761819, ,0.005671435673719519,0.0029347393003013684,-0.014780216626567854,0.022944339494175073,0.0045885828443420614,0.003516722486230765, ,0.01610070436006278, ,0.023398655986924696, ,0.00036633355747736575, ,0.15734295957945016,-0.2502706042549937,0.09536935159000001,1.6104187659611469,0.1915643726711475,-1.2712043826411978, ,0.04317422272905859,0.011276315119985015,0.015739932332015812,0.005619555597283721,0.0475743592962747,-0.03323733505963109, ,1.4371979236602783
0.01175405583270615,0.02203551206699699,-0.08513215657266948, ,0.012274050867654741,0.022097506259749707,-0.08588478100519222, ,0.0009168869356340584, ,0.005671435673719519,0.0029347393003013684,-0.014780216626567854,0.022944339494175073,0.0045885828443420614,0.003516722486230765, ,0.01610070436006278, ,0.023398655986924696, ,0.00037357768087416433, ,0.15734295957945016,-0.2502706042549937,0.09536935159000001,1.6104187659611469,0.1915643726711475,-1.2712043826411978, ,0.04317422272905859,0.011276315119985015,0.015739932332015812,0.005619555597283721,0.0475743592962747,-0.03323733505963109, ,1.4407479763031006
0.011816046701373546,0.02207337840020234,-0.08531122372146265, ,0.01231386300178755,0.022103118583061875,-0.085976007196374, ,0.0008310491056186826, ,0.006820668021142023,0.004609381469810919,-0.021311176664482866,0.04926423050946325,0.032594177120735306,0.000861148160117653, ,0.022845878416328506, ,0.0590706390186806, ,0.00037951886820850874, ,0.1577986008190294,-0.2501547632618803,0.09555990622,1.610838145848116,0.19224755516997472,-1.27176147215968, ,0.04742475840003537,0.011742056529762868,0.02262615272727273,0.015304432101333346,0.07818448904669618,-0.058523870122639175, ,1.4443180561065674
0.011816046701373546,0.02207337840020234,-0.08531122372146265, ,0.012353979322902066,0.022108227759401387,-0.08606749537651684, ,0.0009287264394748, ,0.006820668021142023,0.004609381469810919,-0.021311176664482866,0.04926423050946325,0.032594177120735306,0.000861148160117653, ,0.022845878416328506, ,0.0590706390186806, ,0.00038655999091705097, ,0.1577986008190294,-0.2501547632618803,0.09555990622,1.610838145848116,0.19224755516997472,-1.27176147215968, ,0.04742475840003537,0.011742056529762868,0.02262615272727273,0.015304432101333346,0.07818448904669618,-0.058523870122639175, ,1.4479920864105225
0.011816046701373546,0.02207337840020234,-0.08531122372146265, ,0.012394397239645395,0.022112839161502904,-0.0861592420677824, ,0.0010272203329844344, ,0.006820668021142023,0.004609381469810919,-0.021311176664482866,0.04926423050946325,0.032594177120735306,0.000861148160117653, ,0.022845878416328506, ,0.0590706390186806, ,0.0003946696155001824, ,0.1577986008190294,-0.2501547632618803,0.09555990622,1.610838145848116,0.19224755516997472,-1.27176147215968, ,0.04742475840003537,0.011742056529762868,0.02262615272727273,0.015304432101333346,0.07818448904669618,-0.058523870122639175, ,1.451659917831421
0.011899702765783145,0.02212964085491797,-0.08557435155906393, ,0.01243511417156614,0.022116958141013207,-0.0862512438052588, ,0.0008631392342103605, ,0.00854234721331745,0.005803481890341323,-0.027165537654402376,0.035088478769016995,0.012154961035038188,-0.0019845597028581236, ,0.0290623215524353, ,0.03713394169605111, ,0.0004005254857340596, ,0.1583083011887282,-0.2500234768030185,0.09581786793000001,1.610838145848116,0.1929307376688019,-1.272318561678162, ,0.054569834133680724,0.014843882615121349,0.028292738046181175,0.01470592475860762,0.06491965004876496,-0.04803587840575196, ,1.4553160667419434
0.011899702765783145,0.02212964085491797,-0.08557435155906393, ,0.012476127549095706,0.022120590028523644,-0.08634349713694268, ,0.0009612140075164332, ,0.00854234721331745,0.005803481890341323,-0.027165537654402376,0.035088478769016995,0.012154961035038188,-0.0019845597028581236, ,0.0290623215524353, ,0.03713394169605111, ,0.00040744756624989134, ,0.1583083011887282,-0.2500234768030185,0.09581786793000001,1.610838145848116,0.1929307376688019,-1.272318561678162, ,0.054569834133680724,0.014843882615121349,0.028292738046181175,0.01470592475860762,0.06491965004876496,-0.04803587840575196, ,1.4589660167694092
0.011991101003404168,0.022190849874137466,-0.08586773183393859, ,0.012517434813529566,0.022123740133602864,-0.08643599862372088, ,0.0007774690613299107, ,0.00854234721331745,0.005803481890341323,-0.027165537654402376,0.035088478769016995,0.012154961035038188,-0.0019845597028581236, ,0.0290623215524353, ,0.03713394169605111, ,0.0004119600235069648, ,0.15891067435291772,-0.2498304084811629,0.09614842188000002,1.610838145848116,0.19347728366786368,-1.2727642332929476, ,0.06029030594566124,0.020182250437786212,0.033534340042105266,0.013278484236857273,0.04800841502157661,-0.03455204967256129, ,1.4627439975738525
0.011991101003404168,0.022190849874137466,-0.08586773183393859, ,0.01255903341700861,0.022126413744830126,-0.08652874483935363, ,0.0008738635102294354, ,0.009953270977741228,0.006560027941937113,-0.03178048158865727,0.016653912372498744,-0.010199361739733707,-0.0052088338198219945, ,0.03394260714444789, ,0.019528117113615844, ,0.0004175251257566331, ,0.15891067435291772,-0.2498304084811629,0.09614842188000002,1.610838145848116,0.19347728366786368,-1.2727642332929476, ,0.06029030594566124,0.020182250437786212,0.033534340042105266,0.013278484236857273,0.04800841502157661,-0.03455204967256129, ,1.466520071029663
0.011991101003404168,0.022190849874137466,-0.08586773183393859, ,0.01260092082250033,0.022128616129827087,-0.0866217323704552, ,0.0009717355914860309, ,0.009953270977741228,0.006560027941937113,-0.03178048158865727,0.016653912372498744,-0.010199361739733707,-0.0052088338198219945, ,0.03394260714444789, ,0.019528117113615844, ,0.00042412286939626877, ,0.15891067435291772,-0.2498304084811629,0.09614842188000002,1.610838145848116,0.19347728366786368,-1.2727642332929476, ,0.06029030594566124,0.020182250437786212,0.033534340042105266,0.013278484236857273,0.04800841502157661,-0.03455204967256129, ,1.4700820446014404
0.01209067425351959,0.022253672554156296,-0.08618360418225168, ,0.012643094503780178,0.022130352535291768,-0.08671495781647728, ,0.0007763456991285981, ,0.010290336072560885,0.006211085538497873,-0.03199795842252921,0.033785584657031346,0.009503853557316588,0.0008381600567102151, ,0.034180958782086455, ,0.03509637330731954, ,0.00042826666739311973, ,0.15953621571572993,-0.2496064492278104,0.09648156841000001,1.610838145848116,0.1941604661666909,-1.2733213228114297, ,0.06594645000588659,0.02459107062930054,0.03374748203389831,0.012192487606604657,0.07425789224936699,-0.05620844681225071, ,1.473762035369873
0.01209067425351959,0.022253672554156296,-0.08618360418225168, ,0.01268555194541283,0.02213162818703052,-0.08680841778968937, ,0.0008713015206566858, ,0.010290336072560885,0.006211085538497873,-0.03199795842252921,0.033785584657031346,0.009503853557316588,0.0008381600567102151, ,0.034180958782086455, ,0.03509637330731954, ,0.00043341823545432404, ,0.15953621571572993,-0.2496064492278104,0.09648156841000001,1.610838145848116,0.1941604661666909,-1.2733213228114297, ,0.06594645000588659,0.02459107062930054,0.03374748203389831,0.012192487606604657,0.07425789224936699,-0.05620844681225071, ,1.4773459434509277
0.01209067425351959,0.022253672554156296,-0.08618360418225168, ,0.012728290642733347,0.02213244828999089,-0.08690210891516235, ,0.0009682453373146026, ,0.010290336072560885,0.006211085538497873,-0.03199795842252921,0.033785584657031346,0.009503853557316588,0.0008381600567102151, ,0.034180958782086455, ,0.03509637330731954, ,0.00043956567340674096, ,0.15953621571572993,-0.2496064492278104,0.09648156841000001,1.610838145848116,0.1941604661666909,-1.2733213228114297, ,0.06594645000588659,0.02459107062930054,0.03374748203389831,0.012192487606604657,0.07425789224936699,-0.05620844681225071, ,1.4809489250183105
0.012191018240762855,0.022306582170084775,-0.08647621465318238, ,0.012771308101828706,0.02213281802829462,-0.08699602783074997, ,0.0007982080176249869, ,0.010375529100506164,0.004809928349825729,-0.02860199377012996,0.0340658364699226,0.00561419251603776,0.011724683426892871, ,0.030803588467457173, ,0.03452508117669105, ,0.00044364115459103923, ,0.16020809347578746,-0.24933615357721253,0.09679008543,1.6110478357916007,0.19484364866551807,-1.2737967335897715, ,0.0732794915509427,0.030116452414621003,0.030168203636363643,0.0011985984568709648,0.08054639080663259,-0.06362971684128423, ,1.4844999313354492
0.012191018240762855,0.022306582170084775,-0.08647621465318238, ,0.012814601839518804,0.02213274256527037,-0.08709017118707041, ,0.0008921991584524453, ,0.010375529100506164,0.004809928349825729,-0.02860199377012996,0.0340658364699226,0.00561419251603776,0.011724683426892871, ,0.030803588467457173, ,0.03452508117669105, ,0.00044868113216251567, ,0.16020809347578746,-0.24933615357721253,0.09679008543,1.6110478357916007,0.19484364866551807,-1.2737967335897715, ,0.0732794915509427,0.030116452414621003,0.030168203636363643,0.0011985984568709648,0.08054639080663259,-0.06362971684128423, ,1.4881319999694824
0.012191018240762855,0.022306582170084775,-0.08647621465318238, ,0.01285816938333792,0.022132227043486604,-0.08718453564748894, ,0.0009885388147087195, ,0.010375529100506164,0.004809928349825729,-0.02860199377012996,0.0340658364699226,0.00561419251603776,0.011724683426892871, ,0.030803588467457173, ,0.03452508117669105, ,0.0004546795508574735, ,0.16020809347578746,-0.24933615357721253,0.09679008543,1.6110478357916007,0.19484364866551807,-1.2737967335897715, ,0.0732794915509427,0.030116452414621003,0.030168203636363643,0.0011985984568709648,0.08054639080663259,-0.06362971684128423, ,1.4917171001434326
0.012300004537430671,0.022348002760726925,-0.08675542288095797, ,0.012902008271515969,0.022131276584783977,-0.08727911788809987, ,0.0008268223459104462, ,0.010811624912963638,0.003387217040280121,-0.02580440650079712,0.018719031393760074,-0.012349751297001967,0.008335394380121777, ,0.028182119639852513, ,0.022425589229191436, ,0.00045876903212179186, ,0.1610112576947068,-0.24898090786499819,0.09708434326000001,1.6110478357916007,0.19566346766411072,-1.27446524101195, ,0.08180770824006102,0.03774739123248639,0.027182272218430035,0.0011985984568709648,0.07086472391079607,-0.05581836819697906, ,1.4952640533447266
0.012300004537430671,0.022348002760726925,-0.08675542288095797, ,0.012946116052959625,0.02212989629030846,-0.08737391459770821, ,0.0009206315911515218, ,0.010811624912963638,0.003387217040280121,-0.02580440650079712,0.018719031393760074,-0.012349751297001967,0.008335394380121777, ,0.028182119639852513, ,0.022425589229191436, ,0.0004637892773286367, ,0.1610112576947068,-0.24898090786499819,0.09708434326000001,1.6110478357916007,0.19566346766411072,-1.27446524101195, ,0.08180770824006102,0.03774739123248639,0.027182272218430035,0.0011985984568709648,0.07086472391079607,-0.05581836819697906, ,1.4988489151000977
0.012300004537430671,0.022348002760726925,-0.08675542288095797, ,0.012990490287233843,0.022128091240544052,-0.08746892247781216, ,0.0010169627928795983, ,0.010811624912963638,0.003387217040280121,-0.02580440650079712,0.018719031393760074,-0.012349751297001967,0.008335394380121777, ,0.028182119639852513, ,0.022425589229191436, ,0.000469737379646389, ,0.1610112576947068,-0.24898090786499819,0.09708434326000001,1.6110478357916007,0.19566346766411072,-1.27446524101195, ,0.08180770824006102,0.03774739123248639,0.027182272218430035,0.0011985984568709648,0.07086472391079607,-0.05581836819697906, ,1.5024309158325195
0.012410165956316539,0.022376811755752013,-0.08700521265962124, ,0.013035128544542909,0.022125866495345335,-0.08756413824258455, ,0.0008751854476018488, ,0.011174899342713516,0.0024784160591891876,-0.023734263580802793,0.023036433011226803,-0.010779788881911416,0.009833845872693075, ,0.026350259755935, ,0.025433709182219336, ,0.00047405065696506417, ,0.16187620377661996,-0.2485716030226643,0.09734749013,1.6110478357916007,0.19648328666270337,-1.2751337484341285, ,0.0902062182114741,0.04186014184317194,0.025045301132075475,0.0011985984568709648,0.08105903359687612,-0.06420479942132212, ,1.5060040950775146
0.012410165956316539,0.022376811755752013,-0.08700521265962124, ,0.01308002840571186,0.02212322709397071,-0.08765955861885548, ,0.000970149223659334, ,0.011174899342713516,0.0024784160591891876,-0.023734263580802793,0.023036433011226803,-0.010779788881911416,0.009833845872693075, ,0.026350259755935, ,0.025433709182219336, ,0.0004792727471407933, ,0.16187620377661996,-0.2485716030226643,0.09734749013,1.6110478357916007,0.19648328666270337,-1.2751337484341285, ,0.0902062182114741,0.04186014184317194,0.025045301132075475,0.0011985984568709648,0.08105903359687612,-0.06420479942132212, ,1.509572982788086
0.012523748944033278,0.022396592994812448,-0.08723512967566953, ,0.013125187462167755,0.022120178055114736,-0.08775518034609442, ,0.0008417756291276572, ,0.011174899342713516,0.0024784160591891876,-0.023734263580802793,0.023036433011226803,-0.010779788881911416,0.009833845872693075, ,0.026350259755935, ,0.025433709182219336, ,0.0004830488188281564, ,0.16187620377661996,-0.2485716030226643,0.09734749013,1.6110478357916007,0.19648328666270337,-1.2751337484341285, ,0.0902062182114741,0.04186014184317194,0.025045301132075475,0.0011985984568709648,0.08105903359687612,-0.06420479942132212, ,1.5131630897521973
0.012523748944033278,0.022396592994812448,-0.08723512967566953, ,0.013170603315920874,0.02211672437694097,-0.08785100017639136, ,0.0009359719522286687, ,0.01168017976229677,0.0013804490161678639,-0.022427899064511442,0.015849350251995072,-0.016234410257495356,-0.0036002419483029025, ,0.025324748670297187, ,0.02268815340917665, ,0.00048771812948177, ,0.16281065445440113,-0.24811596178308504,0.09758989636000001,1.6112575257350852,0.197303105661296,-1.275802255856307, ,0.09763059831118392,0.0502898471428038,0.023598239288888892,0.013497557847804254,0.07998002549762852,-0.06339150138748399, ,1.517488956451416
0.012523748944033278,0.022396592994812448,-0.08723512967566953, ,0.013216273579545985,0.022112871037115067,-0.0879470148744397, ,0.0010328935358010984, ,0.01168017976229677,0.0013804490161678639,-0.022427899064511442,0.015849350251995072,-0.016234410257495356,-0.0036002419483029025, ,0.025324748670297187, ,0.02268815340917665, ,0.0004932811438319672, ,0.16281065445440113,-0.24811596178308504,0.09758989636000001,1.6112575257350852,0.197303105661296,-1.275802255856307, ,0.09763059831118392,0.0502898471428038,0.023598239288888892,0.013497557847804254,0.07998002549762852,-0.06339150138748399, ,1.5211260318756104
0.012630370355714404,0.022406132994150216,-0.08743773662162163, ,0.013262195876163705,0.022108622992837067,-0.0880432212175178, ,0.000924298266275517, ,0.011615612711263785,0.0007629006798308519,-0.02214937237993503,0.012815511402167195,-0.013448570025016458,0.0010410142254397294, ,0.02502197380164858, ,0.018576760676608517, ,0.0004976348521394778, ,0.16369876873493694,-0.2476294296120089,0.09780248792000001,1.6114672156785694,0.1979862881601232,-1.276359345374789, ,0.09733019647022642,0.05578891332067653,0.02318604296943232,0.008499468734217992,0.08378499412341125,-0.06655006408683534, ,1.5252089500427246
0.012630370355714404,0.022406132994150216,-0.08743773662162163, ,0.013308367839421811,0.022103985180874662,-0.08813961599547164, ,0.0010215716051343907, ,0.011615612711263785,0.0007629006798308519,-0.02214937237993503,0.012815511402167195,-0.013448570025016458,0.0010410142254397294, ,0.02502197380164858, ,0.018576760676608517, ,0.000502874219669427, ,0.16369876873493694,-0.2476294296120089,0.09780248792000001,1.6114672156785694,0.1979862881601232,-1.276359345374789, ,0.09733019647022642,0.05578891332067653,0.02318604296943232,0.008499468734217992,0.08378499412341125,-0.06655006408683534, ,1.529036045074463
0.012630370355714404,0.022406132994150216,-0.08743773662162163, ,0.013354787113476306,0.022098962517595404,-0.08823619601069581, ,0.0011210132633443213, ,0.011615612711263785,0.0007629006798308519,-0.02214937237993503,0.012815511402167195,-0.013448570025016458,0.0010410142254397294, ,0.02502197380164858, ,0.018576760676608517, ,0.0005089944082206636, ,0.16369876873493694,-0.2476294296120089,0.09780248792000001,1.6114672156785694,0.1979862881601232,-1.276359345374789, ,0.09733019647022642,0.05578891332067653,0.02318604296943232,0.008499468734217992,0.08378499412341125,-0.06655006408683534, ,1.5327339172363281
0.012757352354905773,0.02240987343294105,-0.08768042067545675, ,0.013401451352972922,0.02209355989900011,-0.08833295807811649, ,0.0009699086724713952, ,0.012166506634819736,-0.00016193216954690434,-0.022392142067563365,-0.011280421084740916,-0.033677125115396146,-0.0034922983579693005, ,0.0254844684483822, ,0.03551606715668947, ,0.0005135131755172394, ,0.16474906040583145,-0.2469729973176998,0.09805526447000001,1.6114672156785694,0.19880610715871586,-1.2770278527969676, ,0.10073985303447004,0.06608422114099637,0.023253739445255477,0.007523774851247982,0.06679563303294309,-0.05274962306471785, ,1.536350965499878
0.012757352354905773,0.02240987343294105,-0.08768042067545675, ,0.013448358223028256,0.022087782200755246,-0.08842989902517329, ,0.0010690882415986497, ,0.012166506634819736,-0.00016193216954690434,-0.022392142067563365,-0.011280421084740916,-0.033677125115396146,-0.0034922983579693005, ,0.0254844684483822, ,0.03551606715668947, ,0.0005189071081976414, ,0.16474906040583145,-0.2469729973176998,0.09805526447000001,1.6114672156785694,0.19880610715871586,-1.2770278527969676, ,0.10073985303447004,0.06608422114099637,0.023253739445255477,0.007523774851247982,0.06679563303294309,-0.05274962306471785, ,1.539949893951416
0.012757352354905773,0.02240987343294105,-0.08768042067545675, ,0.013495505399211056,0.02208163427822572,-0.08852701569180048, ,0.001170185447355855, ,0.012166506634819736,-0.00016193216954690434,-0.022392142067563365,-0.011280421084740916,-0.033677125115396146,-0.0034922983579693005, ,0.0254844684483822, ,0.03551606715668947, ,0.0005251693999203165, ,0.16474906040583145,-0.2469729973176998,0.09805526447000001,1.6114672156785694,0.19880610715871586,-1.2770278527969676, ,0.10073985303447004,0.06608422114099637,0.023253739445255477,0.007523774851247982,0.06679563303294309,-0.05274962306471785, ,1.5435690879821777
0.012877149728393699,0.022407921508365354,-0.08790273428252149, ,0.013542890567523601,0.022075120966507752,-0.08862430493041036, ,0.0010366442328209166, ,0.01265136376025974,-0.00018041468908225843,-0.02382659530485869,-2.4701621209998067e-05,-0.02110924678353496,6.923147275212228e-05, ,0.02697769816489102, ,0.02110907934622002, ,0.0005300405888050842, ,0.1657375702137322,-0.24631656502339075,0.09828600409,1.6114672156785694,0.19948928965754306,-1.2775032635753092, ,0.10462727845476381,0.06998299524960973,0.02473417937888199,0.006826108565620835,0.08379275257345849,-0.0679660160558354, ,1.5471999645233154
0.012877149728393699,0.022407921508365354,-0.08790273428252149, ,0.013590511424382863,0.022068247080461605,-0.08872176360587421, ,0.0011380125916649114, ,0.01265136376025974,-0.00018041468908225843,-0.02382659530485869,-2.4701621209998067e-05,-0.02110924678353496,6.923147275212228e-05, ,0.02697769816489102, ,0.02110907934622002, ,0.000535776173737724, ,0.1657375702137322,-0.24631656502339075,0.09828600409,1.6114672156785694,0.19948928965754306,-1.2775032635753092, ,0.10462727845476381,0.06998299524960973,0.02473417937888199,0.006826108565620835,0.08379275257345849,-0.0679660160558354, ,1.5507879257202148
0.013038077246745083,0.02240264460483502,-0.08820926534187848, ,0.013638365676601755,0.022061017414744265,-0.08881938859550464, ,0.0009215778429652446, ,0.013806364372325752,-0.0005850198992391014,-0.02634458519178225,0.009752710577151031,-0.006327809831125521,0.004250865344702547, ,0.029748867447198797, ,0.011625138751892942, ,0.0005393817968146168, ,0.1657375702137322,-0.24631656502339075,0.09828600409,1.6114672156785694,0.19948928965754306,-1.2775032635753092, ,0.10462727845476381,0.06998299524960973,0.02473417937888199,0.006826108565620835,0.08379275257345849,-0.0679660160558354, ,1.5550200939178467
0.013038077246745083,0.02240264460483502,-0.08820926534187848, ,0.01368645104137058,0.022053436743842646,-0.08891717678903781, ,0.0010215054208153526, ,0.013806364372325752,-0.0005850198992391014,-0.02634458519178225,0.009752710577151031,-0.006327809831125521,0.004250865344702547, ,0.029748867447198797, ,0.011625138751892942, ,0.0005438459044442533, ,0.16707360300097304,-0.2453898370784838,0.09860359514000001,1.6114672156785694,0.20071901815543203,-1.278506024708577, ,0.1144715820970697,0.08090105844711916,0.027275362191780828,0.00610761155428571,0.10915018675813465,-0.0886381838370016, ,1.5588181018829346
0.013038077246745083,0.02240264460483502,-0.08820926534187848, ,0.013734765246238106,0.02204550982210552,-0.08901512508861545, ,0.0011235343132649806, ,0.013806364372325752,-0.0005850198992391014,-0.02634458519178225,0.009752710577151031,-0.006327809831125521,0.004250865344702547, ,0.029748867447198797, ,0.011625138751892942, ,0.0005491641467270123, ,0.16707360300097304,-0.2453898370784838,0.09860359514000001,1.6114672156785694,0.20071901815543203,-1.278506024708577, ,0.1144715820970697,0.08090105844711916,0.027275362191780828,0.00610761155428571,0.10915018675813465,-0.0886381838370016, ,1.5625848770141602
0.013182550371462164,0.02239666491660524,-0.08848059604028333, ,0.013783306029092874,0.022037241383777207,-0.08911323040876648, ,0.0009435671042972881, ,0.01455366393853365,-0.0006156415352144409,-0.0276854728422454,-0.009822465823772542,-0.029165896336573495,0.005330920435641125, ,0.03128375864621072, ,0.030775218581888305, ,0.0005527496281594693, ,0.1681933992677356,-0.24460984105818712,0.09886544572000001,1.6116769056220543,0.2016754736537901,-1.279285950034452, ,0.1181780094127905,0.08420314246536893,0.02859750721723519,0.0,0.09631228151928183,-0.0781689580125695, ,1.566175937652588
0.013182550371462164,0.02239666491660524,-0.08848059604028333, ,0.013832071138144645,0.02202863614302983,-0.08921148967638935, ,0.001044762131698649, ,0.01455366393853365,-0.0006156415352144409,-0.0276854728422454,-0.009822465823772542,-0.029165896336573495,0.005330920435641125, ,0.03128375864621072, ,0.030775218581888305, ,0.0005571821732363988, ,0.1681933992677356,-0.24460984105818712,0.09886544572000001,1.6116769056220543,0.2016754736537901,-1.279285950034452, ,0.1181780094127905,0.08420314246536893,0.02859750721723519,0.0,0.09631228151928183,-0.0781689580125695, ,1.5697839260101318
0.013182550371462164,0.02239666491660524,-0.08848059604028333, ,0.013881058331905467,0.022019698793996022,-0.08930989983073435, ,0.001147937979707149, ,0.01455366393853365,-0.0006156415352144409,-0.0276854728422454,-0.009822465823772542,-0.029165896336573495,0.005330920435641125, ,0.03128375864621072, ,0.030775218581888305, ,0.0005624567786513162, ,0.1681933992677356,-0.24460984105818712,0.09886544572000001,1.6116769056220543,0.2016754736537901,-1.279285950034452, ,0.1181780094127905,0.08420314246536893,0.02859750721723519,0.0,0.09631228151928183,-0.0781689580125695, ,1.5733990669250488
0.013327345072555001,0.022389561817359405,-0.08875267273713548, ,0.013930265379171022,0.02201043401080212,-0.08940845782338486, ,0.0009681450661868784, ,0.015180221646705254,-0.0008621861703320932,-0.02854492652356232,-0.02486336979277769,-0.04406174390160467,-0.010424370126115738, ,0.032341850974719775, ,0.050592543734792224, ,0.0005660469404879141, ,0.1694213137947373,-0.24371400404477708,0.099166185,1.6118865955655386,0.20249529265238275,-1.2799544574566304, ,0.12058061189132248,0.0891051094445735,0.02949779911111111,0.012091310160273695,0.07530965133413815,-0.06104409621007593, ,1.576982021331787
0.013327345072555001,0.022389561817359405,-0.08875267273713548, ,0.013979690059001895,0.022000846447600562,-0.08950716061824016, ,0.0010704697953529431, ,0.015180221646705254,-0.0008621861703320932,-0.02854492652356232,-0.02486336979277769,-0.04406174390160467,-0.010424370126115738, ,0.032341850974719775, ,0.050592543734792224, ,0.000570471702372695, ,0.1694213137947373,-0.24371400404477708,0.099166185,1.6118865955655386,0.20249529265238275,-1.2799544574566304, ,0.12058061189132248,0.0891051094445735,0.02949779911111111,0.012091310160273695,0.07530965133413815,-0.06104409621007593, ,1.5810070037841797
0.013476736685469453,0.022375356942011756,-0.08903733136679431, ,0.01402933016070481,0.021990940738602627,-0.08960600519149699, ,0.0008812067210468515, ,0.014556050107038003,-0.0018658389646480742,-0.027785503781365913,-0.012508316074837504,-0.01787673631050007,-0.007137838059442018, ,0.03142282880558177, ,0.021817862199569174, ,0.0005731737460133399, ,0.1706183373902421,-0.2427718306341217,0.09945914654000002,1.6118865955655386,0.20345174815074082,-1.2808160615226458, ,0.11672440536097266,0.09693252457453604,0.028546257204301078,0.012091310160273695,0.0951136391420477,-0.07877661630295653, ,1.5847671031951904
0.013476736685469453,0.022375356942011756,-0.08903733136679431, ,0.014079183483814045,0.021980721498111765,-0.08970498853163167, ,0.000982061794479576, ,0.014556050107038003,-0.0018658389646480742,-0.027785503781365913,-0.012508316074837504,-0.01787673631050007,-0.007137838059442018, ,0.03142282880558177, ,0.021817862199569174, ,0.0005766986429828764, ,0.1706183373902421,-0.2427718306341217,0.09945914654000002,1.6118865955655386,0.20345174815074082,-1.2808160615226458, ,0.11672440536097266,0.09693252457453604,0.028546257204301078,0.012091310160273695,0.0951136391420477,-0.07877661630295653, ,1.588381052017212
0.013476736685469453,0.022375356942011756,-0.08903733136679431, ,0.014129247838072527,0.02197019332055544,-0.0898041076393825, ,0.0010852991369328644, ,0.014556050107038003,-0.0018658389646480742,-0.027785503781365913,-0.012508316074837504,-0.01787673631050007,-0.007137838059442018, ,0.03142282880558177, ,0.021817862199569174, ,0.0005810456557516797, ,0.1706183373902421,-0.2427718306341217,0.09945914654000002,1.6118865955655386,0.20345174815074082,-1.2808160615226458, ,0.11672440536097266,0.09693252457453604,0.028546257204301078,0.012091310160273695,0.0951136391420477,-0.07877661630295653, ,1.5922770500183105
0.013619296615853996,0.022353118543597544,-0.08931600777068953, ,0.0141795210434132,0.021959360780518872,-0.08990335952773121, ,0.0009021522442020002, ,0.013725379021455274,-0.002304695569522799,-0.027130151022319127,0.029638892552415173,0.03856360778796983,0.0038506740076334383, ,0.030491683217635367, ,0.04863744544343134, ,0.0005837668980266824, ,0.17178447005425,-0.2417678753604725,0.09974433034,1.6118865955655386,0.20481811314839524,-1.2819302405596102, ,0.11337746900653618,0.09916085847280122,0.02775054271777004,0.012091310160273695,0.15239301372984915,-0.12548819999271615, ,1.5958878993988037
0.013619296615853996,0.022353118543597544,-0.08931600777068953, ,0.014230000929940197,0.021948228432777078,-0.0900027412218852, ,0.0010042403069359575, ,0.013725379021455274,-0.002304695569522799,-0.027130151022319127,0.029638892552415173,0.03856360778796983,0.0038506740076334383, ,0.030491683217635367, ,0.04863744544343134, ,0.0005873002880175165, ,0.17178447005425,-0.2417678753604725,0.09974433034,1.6118865955655386,0.20481811314839524,-1.2819302405596102, ,0.11337746900653618,0.09916085847280122,0.02775054271777004,0.012091310160273695,0.15239301372984915,-0.12548819999271615, ,1.599581003189087
0.013619296615853996,0.022353118543597544,-0.08931600777068953, ,0.014280685337910253,0.021936800812328218,-0.0901022497592599, ,0.001108572036280701, ,0.013725379021455274,-0.002304695569522799,-0.027130151022319127,0.029638892552415173,0.03856360778796983,0.0038506740076334383, ,0.030491683217635367, ,0.04863744544343134, ,0.0005916442192530431, ,0.17178447005425,-0.2417678753604725,0.09974433034,1.6118865955655386,0.20481811314839524,-1.2819302405596102, ,0.11337746900653618,0.09916085847280122,0.02775054271777004,0.012091310160273695,0.15239301372984915,-0.12548819999271615, ,1.6032099723815918
0.013758245533933736,0.022326190679833102,-0.08958108976710054, ,0.014331572117713912,0.02192508243442559,-0.09020188218946015, ,0.0009354006777109247, ,0.013985107264484958,-0.0027319171345755377,-0.025894898690423444,-0.001192275778548597,0.001564036637995747,-0.003746211628065235, ,0.029556596127034505, ,0.0019636926875975774, ,0.0005944851817196371, ,0.17294287998538366,-0.2407561973539491,0.10001525495000001,1.6118865955655386,0.20632111464581507,-1.2831558375002707, ,0.1141960788910599,0.09989151742996924,0.026459819800664457,0.011437168158135419,0.1155247467266992,-0.09542946699097418, ,1.6068029403686523
0.013758245533933736,0.022326190679833102,-0.08958108976710054, ,0.014382659129856718,0.021913077794611307,-0.09030163557426298, ,0.0010391057958307774, ,0.013985107264484958,-0.0027319171345755377,-0.025894898690423444,-0.001192275778548597,0.001564036637995747,-0.003746211628065235, ,0.029556596127034505, ,0.0019636926875975774, ,0.0005981296129828432, ,0.17294287998538366,-0.2407561973539491,0.10001525495000001,1.6118865955655386,0.20632111464581507,-1.2831558375002707, ,0.1141960788910599,0.09989151742996924,0.026459819800664457,0.011437168158135419,0.1155247467266992,-0.09542946699097418, ,1.610342025756836
0.013758245533933736,0.022326190679833102,-0.08958108976710054, ,0.014433944244940666,0.021900791368748472,-0.0904015069875989, ,0.00114482214235136, ,0.013985107264484958,-0.0027319171345755377,-0.025894898690423444,-0.001192275778548597,0.001564036637995747,-0.003746211628065235, ,0.029556596127034505, ,0.0019636926875975774, ,0.0006025742676931563, ,0.17294287998538366,-0.2407561973539491,0.10001525495000001,1.6118865955655386,0.20632111464581507,-1.2831558375002707, ,0.1141960788910599,0.09989151742996924,0.026459819800664457,0.011437168158135419,0.1155247467266992,-0.09542946699097418, ,1.6139380931854248
0.013896731148748544,0.022296787509271342,-0.08983298748671427, ,0.014485425343645235,0.02188822761305426,-0.09050149351553444, ,0.0009799909971376717, ,0.014516759955014688,-0.003244868265899024,-0.02678791437228622,-0.043196006137360146,-0.03615870257307351,-0.012294689079249731, ,0.03064078729522946, ,0.05633234349688139, ,0.0006056179509951283, ,0.17404723078639778,-0.23975996481317413,0.10027192037,1.6118865955655386,0.20714093364440772,-1.2839060236625899, ,0.11378530162886184,0.10698640536467957,0.02722873764102564,0.010487516430826412,0.07680392528955814,-0.06050220555750326, ,1.6176419258117676
0.013896731148748544,0.022296787509271342,-0.08983298748671427, ,0.01453710031670891,0.02187539096413225,-0.09060159225625407, ,0.0010855418054081295, ,0.014516759955014688,-0.003244868265899024,-0.02678791437228622,-0.043196006137360146,-0.03615870257307351,-0.012294689079249731, ,0.03064078729522946, ,0.05633234349688139, ,0.0006094573418304322, ,0.17404723078639778,-0.23975996481317413,0.10027192037,1.6118865955655386,0.20714093364440772,-1.2839060236625899, ,0.11378530162886184,0.10698640536467957,0.02722873764102564,0.010487516430826412,0.07680392528955814,-0.06050220555750326, ,1.6212871074676514
0.01404296112254048,0.022263820407577874,-0.09011086906055685, ,0.014588967064910167,0.021862285839005683,-0.09070180032004226, ,0.0008991953360079654, ,0.014432720312299913,-0.0032625434297203423,-0.027526034877275972,-0.016309131194810977,-0.006862764398629948,-0.0058132265246177255, ,0.031251083202169155, ,0.01769376990056897, ,0.0006117568497207301, ,0.17404723078639778,-0.23975996481317413,0.10027192037,1.6118865955655386,0.20714093364440772,-1.2839060236625899, ,0.11378530162886184,0.10698640536467957,0.02722873764102564,0.010487516430826412,0.07680392528955814,-0.06050220555750326, ,1.6250429153442383
0.01404296112254048,0.022263820407577874,-0.09011086906055685, ,0.014641023499049107,0.021848916635150123,-0.09080211482926523, ,0.001003814952731413, ,0.014432720312299913,-0.0032625434297203423,-0.027526034877275972,-0.016309131194810977,-0.006862764398629948,-0.0058132265246177255, ,0.031251083202169155, ,0.01769376990056897, ,0.0006148439213979795, ,0.17520564071753145,-0.23866333674503426,0.10055451159,1.6118865955655386,0.20823402564253127,-1.2847156881520208, ,0.11364903180655184,0.10845364749539518,0.027994396344463976,0.00964755772987576,0.10674493761809926,-0.08899180551611294, ,1.6287789344787598
0.01404296112254048,0.022263820407577874,-0.09011086906055685, ,0.014693267539928358,0.02183528773052584,-0.09090253291835318, ,0.001110527062046762, ,0.014432720312299913,-0.0032625434297203423,-0.027526034877275972,-0.016309131194810977,-0.006862764398629948,-0.0058132265246177255, ,0.031251083202169155, ,0.01769376990056897, ,0.0006187164459342981, ,0.17520564071753145,-0.23866333674503426,0.10055451159,1.6118865955655386,0.20823402564253127,-1.2847156881520208, ,0.11364903180655184,0.10845364749539518,0.027994396344463976,0.00964755772987576,0.10674493761809926,-0.08899180551611294, ,1.632524013519287
0.014183878808843966,0.022228283178844448,-0.09037512360593462, ,0.014745697118334582,0.021821403483611147,-0.09100305173378254, ,0.0009356733580767496, ,0.013741230485308857,-0.003810174099895017,-0.02561241050780541,0.0020715683841819885,0.017623938148131135,-0.0006151721562656209, ,0.029314406252595897, ,0.01774495899195039, ,0.0006211734762609838, ,0.176325436984294,-0.2375821541426428,0.10082284362,1.6118865955655386,0.2093271176406548,-1.2856070313815922, ,0.11138138680571688,0.10857773633692308,0.025985010636215337,0.008940011009345909,0.12958730805492427,-0.10762410245799169, ,1.636202096939087
0.014183878808843966,0.022228283178844448,-0.09037512360593462, ,0.01479831017501967,0.021807268233434995,-0.0911036684340575, ,0.0010419006932444437, ,0.013741230485308857,-0.003810174099895017,-0.02561241050780541,0.0020715683841819885,0.017623938148131135,-0.0006151721562656209, ,0.029314406252595897, ,0.01774495899195039, ,0.0006244098394685489, ,0.176325436984294,-0.2375821541426428,0.10082284362,1.6118865955655386,0.2093271176406548,-1.2856070313815922, ,0.11138138680571688,0.10857773633692308,0.025985010636215337,0.008940011009345909,0.12958730805492427,-0.10762410245799169, ,1.6398730278015137
0.014183878808843966,0.022228283178844448,-0.09037512360593462, ,0.01485110466068194,0.021792886299609147,-0.0912043801896926, ,0.001149968374136738, ,0.013741230485308857,-0.003810174099895017,-0.02561241050780541,0.0020715683841819885,0.017623938148131135,-0.0006151721562656209, ,0.029314406252595897, ,0.01774495899195039, ,0.0006284217366797564, ,0.176325436984294,-0.2375821541426428,0.10082284362,1.6118865955655386,0.2093271176406548,-1.2856070313815922, ,0.11138138680571688,0.10857773633692308,0.025985010636215337,0.008940011009345909,0.12958730805492427,-0.10762410245799169, ,1.6434359550476074
0.014327104158912462,0.022186131850416253,-0.09064911516014941, ,0.014904078535947553,0.021778261982361963,-0.09130518418319404, ,0.0009642011325550247, ,0.013628233586257277,-0.003965942469172132,-0.02636773873602931,-0.0010623610065772344,0.020081303692864472,0.0051431900761464725, ,0.029945201558878753, ,0.02010906818307524, ,0.0006309655199818417, ,0.17748384691542768,-0.2364082987457607,0.10110024968,1.6120962855090233,0.21083011913807462,-1.2868326283222529, ,0.10808307694586651,0.11125081073677699,0.026681426331658296,0.0022673457109611017,0.13030943100702955,-0.10821935992309101, ,1.6470019817352295
0.014327104158912462,0.022186131850416253,-0.09064911516014941, ,0.014957229771351704,0.021763399562570375,-0.09140607760904283, ,0.001071798966072494, ,0.013628233586257277,-0.003965942469172132,-0.02636773873602931,-0.0010623610065772344,0.020081303692864472,0.0051431900761464725, ,0.029945201558878753, ,0.02010906818307524, ,0.0006342800571704933, ,0.17748384691542768,-0.2364082987457607,0.10110024968,1.6120962855090233,0.21083011913807462,-1.2868326283222529, ,0.10808307694586651,0.11125081073677699,0.026681426331658296,0.0022673457109611017,0.13030943100702955,-0.10821935992309101, ,1.6505260467529297
0.014327104158912462,0.022186131850416253,-0.09064911516014941, ,0.015010556347319858,0.02174830330179304,-0.0915070576736753, ,0.0011810444904166353, ,0.013628233586257277,-0.003965942469172132,-0.02636773873602931,-0.0010623610065772344,0.020081303692864472,0.0051431900761464725, ,0.029945201558878753, ,0.02010906818307524, ,0.0006383603887618824, ,0.17748384691542768,-0.2364082987457607,0.10110024968,1.6120962855090233,0.21083011913807462,-1.2868326283222529, ,0.10808307694586651,0.11125081073677699,0.026681426331658296,0.0022673457109611017,0.13030943100702955,-0.10821935992309101, ,1.6540858745574951
0.014458579425617022,0.022147073051413804,-0.09090175694037511, ,0.015064056254149003,0.02173297744230297,-0.09160812159546652, ,0.0010183459084890704, ,0.013964917234389331,-0.0040183495673164855,-0.026939355127404647,-0.009784676673127983,0.010321286837363924,0.002808376731028077, ,0.030608738969270195, ,0.01422162687927714, ,0.000641175096315417, ,0.17851097038769953,-0.23533483887624349,0.10135561881,1.6120962855090233,0.21192321113619814,-1.287723971551824, ,0.10907694432008136,0.11270420612644985,0.027275362191780828,0.0022390664532534028,0.12133309907324905,-0.10090555370043465, ,1.6576790809631348
0.014458579425617022,0.022147073051413804,-0.09090175694037511, ,0.015117727491989134,0.021717426207120357,-0.09170926660471164, ,0.0011274504167413768, ,0.013964917234389331,-0.0040183495673164855,-0.026939355127404647,-0.009784676673127983,0.010321286837363924,0.002808376731028077, ,0.030608738969270195, ,0.01422162687927714, ,0.0006447506501420786, ,0.17851097038769953,-0.23533483887624349,0.10135561881,1.6120962855090233,0.21192321113619814,-1.287723971551824, ,0.10907694432008136,0.11270420612644985,0.027275362191780828,0.0022390664532534028,0.12133309907324905,-0.10090555370043465, ,1.6613619327545166
0.01457165866456189,0.02211508844267665,-0.09112572047939459, ,0.015171568070824188,0.02170165380004517,-0.0918104899436083, ,0.0009998643500842184, ,0.014134511644439867,-0.0036289467279263755,-0.028111749953097898,-0.0024811632268320885,0.016155555579566872,0.003973529095684297, ,0.030608738969270195, ,0.016344436071135098, ,0.0006473427209445759, ,0.17851097038769953,-0.23533483887624349,0.10135561881,1.6120962855090233,0.21192321113619814,-1.287723971551824, ,0.10907694432008136,0.11270420612644985,0.027275362191780828,0.0022390664532534028,0.12133309907324905,-0.10090555370043465, ,1.6656520366668701
0.01457165866456189,0.02211508844267665,-0.09112572047939459, ,0.01522557601045353,0.02168566440569024,-0.09191178886623771, ,0.001109015963633451, ,0.014134511644439867,-0.0036289467279263755,-0.028111749953097898,-0.0024811632268320885,0.016155555579566872,0.003973529095684297, ,0.03167371401030251, ,0.016344436071135098, ,0.0006506881792249301, ,0.17939136193536115,-0.23441583366421076,0.10158246956000001,1.6120962855090233,0.21301630313432166,-1.288696993521536, ,0.10857773633692308,0.1111205404665934,0.028546257204301078,0.002192052667825777,0.12674487122501188,-0.10665458809242594, ,1.669651985168457
0.01457165866456189,0.02211508844267665,-0.09112572047939459, ,0.015279749340473225,0.021669462189513985,-0.09201316063854804, ,0.0012196414222625772, ,0.014134511644439867,-0.0036289467279263755,-0.028111749953097898,-0.0024811632268320885,0.016155555579566872,0.003973529095684297, ,0.03167371401030251, ,0.016344436071135098, ,0.0006547813680237621, ,0.17939136193536115,-0.23441583366421076,0.10158246956000001,1.6120962855090233,0.21301630313432166,-1.288696993521536, ,0.10857773633692308,0.1111205404665934,0.028546257204301078,0.002192052667825777,0.12674487122501188,-0.10665458809242594, ,1.6733880043029785
0.014733112375926042,0.022076614297981665,-0.09145077186228541, ,0.01533408610025725,0.021653051297852662,-0.09211460253833564, ,0.0009905787191738554, ,0.014138692152519932,-0.0030231861100491553,-0.028007417445684888,-0.026010026658463144,-0.016630167736400685,-0.0026410818534010074, ,0.0315191640437461, ,0.030871778901430627, ,0.0006571799205319771, ,0.18061155372948862,-0.23317247367146063,0.10191302351,1.6120962855090233,0.21438266813197607,-1.2898111725585002, ,0.10439707542186004,0.10382597544690457,0.028546257204301078,0.0021172432491686597,0.08900852475471932,-0.07589006506199593, ,1.6769928932189941
0.014733112375926042,0.022076614297981665,-0.09145077186228541, ,0.015388584338938596,0.02163643585795383,-0.09221611185522695, ,0.0010996116851673709, ,0.014138692152519932,-0.0030231861100491553,-0.028007417445684888,-0.026010026658463144,-0.016630167736400685,-0.0026410818534010074, ,0.0315191640437461, ,0.030871778901430627, ,0.0006603177344655614, ,0.18061155372948862,-0.23317247367146063,0.10191302351,1.6120962855090233,0.21438266813197607,-1.2898111725585002, ,0.10439707542186004,0.10382597544690457,0.028546257204301078,0.0021172432491686597,0.08900852475471932,-0.07589006506199593, ,1.6806299686431885
0.014733112375926042,0.022076614297981665,-0.09145077186228541, ,0.015443242115390969,0.021619619978008577,-0.09231768589066106, ,0.001210234683007672, ,0.014138692152519932,-0.0030231861100491553,-0.028007417445684888,-0.026010026658463144,-0.016630167736400685,-0.0026410818534010074, ,0.0315191640437461, ,0.030871778901430627, ,0.0006641903890327593, ,0.18061155372948862,-0.23317247367146063,0.10191302351,1.6120962855090233,0.21438266813197607,-1.2898111725585002, ,0.10439707542186004,0.10382597544690457,0.028546257204301078,0.0021172432491686597,0.08900852475471932,-0.07589006506199593, ,1.6841959953308105
0.014891501733148176,0.022035911376223828,-0.09176087021740723, ,0.015498057498209577,0.021602607747184772,-0.09241932195787131, ,0.0009945957096166354, ,0.014823388551841808,-0.0039873174343040985,-0.02973742109356176,-0.015030028381262816,0.00640946404802078,0.000736861949285168, ,0.033465590713098015, ,0.01633890227387873, ,0.000666500915750129, ,0.18179313185924495,-0.23195228187733316,0.10222802198000001,1.6120962855090233,0.2154757601300996,-1.290620837047931, ,0.11034528088194276,0.11744670984959255,0.030168203636363643,0.0020437080895423176,0.11856592945048047,-0.10030527362057906, ,1.6877400875091553
0.014891501733148176,0.022035911376223828,-0.09176087021740723, ,0.015553028565692765,0.0215854032356595,-0.09252101738186773, ,0.0011038111462240954, ,0.014823388551841808,-0.0039873174343040985,-0.02973742109356176,-0.015030028381262816,0.00640946404802078,0.000736861949285168, ,0.033465590713098015, ,0.01633890227387873, ,0.0006695377923506427, ,0.18179313185924495,-0.23195228187733316,0.10222802198000001,1.6120962855090233,0.2154757601300996,-1.290620837047931, ,0.11034528088194276,0.11744670984959255,0.030168203636363643,0.0020437080895423176,0.11856592945048047,-0.10030527362057906, ,1.6912870407104492
0.015032694578531427,0.021999914011189836,-0.09205432726732381, ,0.015608153405822988,0.021568010494651683,-0.09262276949941844, ,0.0009169624205683323, ,0.013810031346872427,-0.003392939546558568,-0.029309182490604487,0.025088845792194978,0.05269225677156163,0.010121832999356014, ,0.03257694250287704, ,0.05836011033880032, ,0.0006712441690969717, ,0.18179313185924495,-0.23195228187733316,0.10222802198000001,1.6120962855090233,0.2154757601300996,-1.290620837047931, ,0.11034528088194276,0.11744670984959255,0.030168203636363643,0.0020437080895423176,0.11856592945048047,-0.10030527362057906, ,1.6953020095825195
0.015032694578531427,0.021999914011189836,-0.09205432726732381, ,0.01566343011624839,0.02155043355645548,-0.09272457565903253, ,0.0010242523635879163, ,0.013810031346872427,-0.003392939546558568,-0.029309182490604487,0.025088845792194978,0.05269225677156163,0.010121832999356014, ,0.03257694250287704, ,0.05836011033880032, ,0.0006736620334428, ,0.1828434235301395,-0.2308324856105706,0.10252616868000002,1.6120962855090233,0.216842125127754,-1.2918166948250358, ,0.10359928117736984,0.10945437319316122,0.02982923505617978,0.001977178638472656,0.15886241367417445,-0.1326224192821083, ,1.6991500854492188
0.015032694578531427,0.021999914011189836,-0.09205432726732381, ,0.015718856804263794,0.021532676434472382,-0.09282643322094117, ,0.0011337006468773708, ,0.013810031346872427,-0.003392939546558568,-0.029309182490604487,0.025088845792194978,0.05269225677156163,0.010121832999356014, ,0.03257694250287704, ,0.05836011033880032, ,0.0006767915478199059, ,0.1828434235301395,-0.2308324856105706,0.10252616868000002,1.6120962855090233,0.216842125127754,-1.2918166948250358, ,0.10359928117736984,0.10945437319316122,0.02982923505617978,0.001977178638472656,0.15886241367417445,-0.1326224192821083, ,1.7028639316558838
0.01516944151477839,0.021961414237317116,-0.0923335285395675, ,0.015774431586792103,0.021514743123244154,-0.09292833955708052, ,0.0009588160501040914, ,0.01385786221450189,-0.004170437813506436,-0.026895400383211827,-0.0020757226275363466,0.02847376832254549,0.005403517879441756, ,0.030541700320802615, ,0.028549081137628232, ,0.0006786971187812855, ,0.18389371520103404,-0.22972813480955648,0.10281005619000001,1.6120962855090233,0.21848176312493928,-1.2932353884095333, ,0.10603010229996734,0.11099057492218804,0.02732214668953688,0.0019109448512925871,0.13669263059064932,-0.10692494029656717, ,1.7065849304199219
0.01516944151477839,0.021961414237317116,-0.0923335285395675, ,0.015830152590365507,0.02149663759848583,-0.09303029205107281, ,0.0010667876266492815, ,0.01385786221450189,-0.004170437813506436,-0.026895400383211827,-0.0020757226275363466,0.02847376832254549,0.005403517879441756, ,0.030541700320802615, ,0.028549081137628232, ,0.0006813017530622788, ,0.18389371520103404,-0.22972813480955648,0.10281005619000001,1.6120962855090233,0.21848176312493928,-1.2932353884095333, ,0.10603010229996734,0.11099057492218804,0.02732214668953688,0.0019109448512925871,0.13669263059064932,-0.10692494029656717, ,1.7101309299468994
0.01516944151477839,0.021961414237317116,-0.0923335285395675, ,0.01588601795110687,0.021478363817118585,-0.09313228809820928, ,0.0011767906908523764, ,0.01385786221450189,-0.004170437813506436,-0.026895400383211827,-0.0020757226275363466,0.02847376832254549,0.005403517879441756, ,0.030541700320802615, ,0.028549081137628232, ,0.0006846050126475461, ,0.18389371520103404,-0.22972813480955648,0.10281005619000001,1.6120962855090233,0.21848176312493928,-1.2932353884095333, ,0.10603010229996734,0.11099057492218804,0.02732214668953688,0.0019109448512925871,0.13669263059064932,-0.10692494029656717, ,1.7136681079864502
0.015305111195260842,0.021919959350244267,-0.09259686399476319, ,0.015942025814710905,0.021459925717301903,-0.0932343251054319, ,0.0010117548337034825, ,0.013989138265405945,-0.004104433251354744,-0.027795744900579854,-0.026482410722531102,0.0037509030341554596,-0.0007230163131169817, ,0.03138703229522636, ,0.026746415825709025, ,0.0006867715677538769, ,0.18490539320755744,-0.22863922947429083,0.10307709193000002,1.6120962855090233,0.2195748551230628,-1.2941267316391047, ,0.10225963530007626,0.11177496061068408,0.02819258676106195,0.0018484603870846073,0.10763998283399753,-0.08323445411290827, ,1.7173199653625488
0.015305111195260842,0.021919959350244267,-0.09259686399476319, ,0.015998174336425388,0.021441327218466734,-0.09333640049131525, ,0.0011208654981501, ,0.013989138265405945,-0.004104433251354744,-0.027795744900579854,-0.026482410722531102,0.0037509030341554596,-0.0007230163131169817, ,0.03138703229522636, ,0.026746415825709025, ,0.0006896274488749046, ,0.18490539320755744,-0.22863922947429083,0.10307709193000002,1.6120962855090233,0.2195748551230628,-1.2941267316391047, ,0.10225963530007626,0.11177496061068408,0.02819258676106195,0.0018484603870846073,0.10763998283399753,-0.08323445411290827, ,1.7210030555725098
0.015305111195260842,0.021919959350244267,-0.09259686399476319, ,0.01605446168103256,0.021422572221348406,-0.09343851168604803, ,0.0012317836428377637, ,0.013989138265405945,-0.004104433251354744,-0.027795744900579854,-0.026482410722531102,0.0037509030341554596,-0.0007230163131169817, ,0.03138703229522636, ,0.026746415825709025, ,0.0006931709534106097, ,0.18490539320755744,-0.22863922947429083,0.10307709193000002,1.6120962855090233,0.2195748551230628,-1.2941267316391047, ,0.10225963530007626,0.11177496061068408,0.02819258676106195,0.0018484603870846073,0.10763998283399753,-0.08323445411290827, ,1.724632978439331
0.01545054607879755,0.021876914971414117,-0.09288410215042867, ,0.016110886022830295,0.021403664608019252,-0.09354065613141672, ,0.0010445467333201547, ,0.014073447383332351,-0.004234398523011025,-0.027306852853880962,-0.015536076181871427,0.012869358268999657,0.0014046329977522322, ,0.03101058311103822, ,0.0201736179789785, ,0.0006954526143191132, ,0.18597885307707465,-0.22748081954315716,0.10336875718,1.6120962855090233,0.22080458362095176,-1.2952111715125132, ,0.10451205017452729,0.11138138680571688,0.02775054271777004,0.0017843203545846711,0.11919724029700762,-0.09380698363838277, ,1.7282118797302246
0.01545054607879755,0.021876914971414117,-0.09288410215042867, ,0.016167445545613394,0.02138460824192101,-0.09364283128078595, ,0.001154114662708066, ,0.014073447383332351,-0.004234398523011025,-0.027306852853880962,-0.015536076181871427,0.012869358268999657,0.0014046329977522322, ,0.03101058311103822, ,0.0201736179789785, ,0.0006984117243087194, ,0.18597885307707465,-0.22748081954315716,0.10336875718,1.6120962855090233,0.22080458362095176,-1.2952111715125132, ,0.10451205017452729,0.11138138680571688,0.02775054271777004,0.0017843203545846711,0.11919724029700762,-0.09380698363838277, ,1.7318310737609863
0.01545054607879755,0.021876914971414117,-0.09288410215042867, ,0.01622413844265487,0.02136540696789824,-0.09374503459908104, ,0.001265420983001991, ,0.01414135605024537,-0.0046063425804925475,-0.02674646595792202,0.0015496808856772372,0.025390883001421588,0.003690117424498827, ,0.030603427653564424, ,0.025437860811993413, ,0.0007020463990439326, ,0.18597885307707465,-0.22748081954315716,0.10336875718,1.6120962855090233,0.22080458362095176,-1.2952111715125132, ,0.10451205017452729,0.11138138680571688,0.02775054271777004,0.0017843203545846711,0.11919724029700762,-0.09380698363838277, ,1.7362620830535889
0.015544940401525573,0.021847109876002944,-0.09306265766753428, ,0.016280962916687115,0.02134606461223059,-0.09384726356277036, ,0.001186752674322931, ,0.01414135605024537,-0.0046063425804925475,-0.02674646595792202,0.0015496808856772372,0.025390883001421588,0.003690117424498827, ,0.030603427653564424, ,0.025437860811993413, ,0.0007051337001603593, ,0.1866893445015033,-0.22673171445435739,0.10355023778000001,1.6120962855090233,0.22162440261954441,-1.295798000194551, ,0.10734948140098505,0.11351308798860141,0.027182272218430035,0.0017449076230822349,0.13476036236218178,-0.11301482553668969, ,1.7404160499572754
0.015544940401525573,0.021847109876002944,-0.09306265766753428, ,0.016337917179883466,0.021326584982665837,-0.09394951565984719, ,0.0012985666845132533, ,0.01414135605024537,-0.0046063425804925475,-0.02674646595792202,0.0015496808856772372,0.025390883001421588,0.003690117424498827, ,0.030603427653564424, ,0.025437860811993413, ,0.0007088896051246181, ,0.1866893445015033,-0.22673171445435739,0.10355023778000001,1.6120962855090233,0.22162440261954441,-1.295798000194551, ,0.10734948140098505,0.11351308798860141,0.027182272218430035,0.0017449076230822349,0.13476036236218178,-0.11301482553668969, ,1.7440218925476074
0.015726097320883106,0.021789324746238126,-0.09340521662814832, ,0.01639499945383905,0.021306971868452606,-0.09405178838981178, ,0.0010479262403249405, ,0.014027730108494528,-0.004667660022001856,-0.025568524738793078,-0.004536890590302251,0.015350787033608206,0.0017769171658700957, ,0.029534957582431565, ,0.016006845757046938, ,0.0007110219110063812, ,0.18806399095311527,-0.2252952861397516,0.10389893979,1.6120962855090233,0.22340067711649514,-1.2972464329426048, ,0.10662577703198964,0.11060249598889368,0.026027469803921573,0.001671762956703513,0.12376774728850408,-0.10403950991405779, ,1.7475969791412354
0.015726097320883106,0.021789324746238126,-0.09340521662814832, ,0.01645220796955235,0.021287229040372935,-0.09415407926365335, ,0.0011576407123173708, ,0.014027730108494528,-0.004667660022001856,-0.025568524738793078,-0.004536890590302251,0.015350787033608206,0.0017769171658700957, ,0.029534957582431565, ,0.016006845757046938, ,0.0007138132785145749, ,0.18806399095311527,-0.2252952861397516,0.10389893979,1.6120962855090233,0.22340067711649514,-1.2972464329426048, ,0.10662577703198964,0.11060249598889368,0.026027469803921573,0.001671762956703513,0.12376774728850408,-0.10403950991405779, ,1.7511370182037354
0.015726097320883106,0.021789324746238126,-0.09340521662814832, ,0.016509540967406377,0.0212673602507753,-0.09425638580383139, ,0.0012691413819722489, ,0.014027730108494528,-0.004667660022001856,-0.025568524738793078,-0.004536890590302251,0.015350787033608206,0.0017769171658700957, ,0.029534957582431565, ,0.016006845757046938, ,0.000717262521393194, ,0.18806399095311527,-0.2252952861397516,0.10389893979,1.6120962855090233,0.22340067711649514,-1.2972464329426048, ,0.10662577703198964,0.11060249598889368,0.026027469803921573,0.001671762956703513,0.12376774728850408,-0.10403950991405779, ,1.7547130584716797
