NicholasDascanio/dvrk_moveit_final/test/execution/third_experiment_notsharpbends/thirdexp_300vel3.0/thirdexp_300vel3.0_18.csv
Current Position (x),Current Position (y),Current Position (z), ,Planned Position (x),Planned Position (y),Planned Position (z), ,Position Error,,Cartesian linear Velocity(x),Cartesian linear Velocity(y),Cartesian linear Velocity(z),Cartesian Angular Velocity(x),Cartesian Angular Velocity(y),Cartesian Angular Velocity(z), ,Total Linear Velocity, ,Total Angular Velocity, ,MSE, ,Joint 1 Position,Joint 2 Position,Joint 3 Position,Joint 4 Position,Joint 5 Position,Joint 6 Position, ,Joint 1 Velocity,Joint 2 Velocity,Joint 3 Velocity,Joint 4 Velocity,Joint 5 Velocity,Joint 6 Velocity, ,Time Stamp
0.009157886838516375,0.020592001533920185,-0.07874121926329773, ,0.009358536662030638,0.020540863867661907,-0.07882449913985204, ,0.0002231836697107302, ,1.763381629464899e-05,-1.5564772229177182e-05,-2.0195435243263294e-06,0.3262798881413058,0.004070711954509124,-0.016272318049623702, ,2.3607036402442427e-05, ,0.3263052805293221, ,1.859863914256085e-05, ,0.1367464310038934,-0.25349870659641954,0.08853919958,1.605176517374034,0.1837760921845174,-1.261259697564317, ,0.00021694499384489118,0.00019638962460204537,0.0,0.0,0.0,-0.3269065073438959, ,0.03984880447387695
0.009220935711056824,0.0206005935077537,-0.07878689161278588, ,0.009418751843005162,0.020551186515937098,-0.07895958227744855, ,0.00026719719040627007, ,0.0011607588704401592,0.00021957730139891547,-0.0011493990301412371,0.20111403462057406,-0.058026576786897384,-0.02398144032521071, ,0.0016482395084103404, ,0.20931779316381385, ,2.2290039096227288e-05, ,0.13685454926413254,-0.2534600929320484,0.08858456973,1.6049668274305493,0.17844726869366523,-1.2681860654595543, ,0.006171729761524538,0.0011470977756711262,0.0012100473806385319,0.000638101155890006,-0.056264976103076854,-0.2023605340356558, ,0.07577800750732422
0.009266727598933008,0.020617070099496624,-0.07886789631703182, ,0.009479089213218776,0.020561128478330488,-0.07909454036675238, ,0.00031558587654470196, ,0.0016947344884067491,0.0008582369172646235,-0.004094273673890483,-0.13421521988442686,-0.06880308691716602,-0.009265064792485053, ,0.004513509998777431, ,0.15082304206190003, ,2.5186460520678197e-05, ,0.13707078578461082,-0.25338286560330614,0.08867790261000001,1.6053862073175185,0.17626108469741816,-1.2713041034088453, ,0.007891377766325145,0.0024265234831774346,0.0042488160896239,-0.0012528568132552822,-0.0292903343075216,0.1878936446310487, ,0.11151981353759766
0.009307308361752078,0.020640251544714792,-0.07901776095531908, ,0.009539546735883586,0.02057069346960392,-0.07922937206090455, ,0.0003217953514883048, ,0.0010671874961894773,0.00023496398140635644,-0.0028271287958326423,0.001195046640276515,0.021117934506026892,0.008812043920247604, ,0.0030309659273584084, ,0.021151720830529918, ,2.6851478289285884e-05, ,0.13748781335981894,-0.2531897972814505,0.08882567967,1.6053862073175185,0.17803735919436892,-1.268423562929449, ,0.012335903223245336,0.006259994792848608,0.002948142054414215,-0.0012528568132552822,0.034811310840768134,-0.007571790787495605, ,0.14929485321044922
0.009362608276839839,0.02064603064258244,-0.0791256680883841, ,0.009600122384445013,0.020579885191039368,-0.07936407601941027, ,0.00034296721949407625, ,0.0016150101350180582,0.000279873883718844,-0.003763773302623917,0.028043017103276516,-0.01239054579513142,-0.0012458202815649384, ,0.004105188984753742, ,0.03065838274600622, ,2.8283255916232372e-05, ,0.13798979099664355,-0.25291177889797845,0.08893716061000001,1.6053862073175185,0.17803735919436892,-1.2694853865512763, ,0.013725331437441536,0.00863145322494815,0.0038746804962296287,-0.0012528568132552822,0.0012714536168332514,-0.03679581640679161, ,0.18521595001220703
0.00941887883972569,0.020661049468202377,-0.07926203036212892, ,0.009660814142563397,0.020588707330458738,-0.07949865090812927, ,0.0003460568716872933, ,0.0017768149946340921,0.00039168700686864405,-0.004373928043393072,-0.008247856355203108,-0.013718090311946337,0.00020585110747061065, ,0.004737271025103653, ,0.016006659072458015, ,2.930300289244156e-05, ,0.13845315496909702,-0.25265692871312906,0.08907845622,1.6053862073175185,0.17803735919436892,-1.269730422771698, ,0.014628787044623214,0.009188691736876486,0.004508579541466177,-0.0012528568132552822,0.0012528301719993728,-0.0010215989994724907, ,0.22081494331359863
0.009484423542356816,0.020669824939886654,-0.07940117312078293, ,0.009721620004095405,0.020597163562243302,-0.0796330953992671, ,0.0003396023859156869, ,0.0016033629830571943,0.0003023497485960499,-0.0035279178056460735,-0.005917259873905667,-0.011340077256808752,-0.002797624852051003, ,0.003886951539356873, ,0.012791063914281036, ,2.9949841183986992e-05, ,0.13905552813328653,-0.25231712846666315,0.08922234441000002,1.6053862073175185,0.17831063219389978,-1.2699532585790907, ,0.013980103352750557,0.007673943640183581,0.0036550737769619097,0.002303800960404835,0.002117583629060777,-0.0013754049969088552, ,0.257565975189209
0.009535386304791855,0.02068006839259086,-0.0795108410517848, ,0.009782537973075649,0.020605257547353574,-0.07976740817136627, ,0.00036401551690952845, ,0.0017065788770438814,0.00034376767594145356,-0.003672795359949471,-0.004376996262564948,-0.010240618299818453,-0.006808878411894276, ,0.004064481939271093, ,0.011136801999531345, ,3.111609977971101e-05, ,0.13951116937286576,-0.25208544648043646,0.08933641793000001,1.6055958972610032,0.17844726869366523,-1.2700646764827872, ,0.015086954142841141,0.007730912099736702,0.0038189430640134265,0.00672728277845746,0.0032464723006010374,-0.002375770676571339, ,0.2895998954772949
0.009588552168669601,0.020694669587798517,-0.07963081225465271, ,0.00984356606369811,0.020612992933348635,-0.07990158790929619, ,0.00038081835261360764, ,0.0019433332543396767,0.000623803370349693,-0.004693297252640554,0.0007500227809769115,-0.006208746608438901,-0.004646496872637029, ,0.005117881777056348, ,0.006253884100512488, ,3.2235804830779996e-05, ,0.14000542427681614,-0.2518769326928324,0.08946215806,1.6055958972610032,0.17885717819296154,-1.2703989301938765, ,0.016876567945664375,0.007575372998950656,0.004907212421441775,0.005887795196269858,0.009419723475746981,-0.007465425937616985, ,0.3219759464263916
0.00966400913741226,0.020719733961420093,-0.07980985209496823, ,0.009904702300297698,0.020620373354405874,-0.08003563330424497, ,0.0003446489276764091, ,0.0018122433068596983,0.0002275831459946537,-0.0033630803460756647,0.0029615443268797225,-0.004017209124278045,-0.003159804119213389, ,0.0038270522998463206, ,0.00499086300333325, ,3.278657941865261e-05, ,0.1406850247697479,-0.2516066370422345,0.08965012011000001,1.6055958972610032,0.1794037241920233,-1.270844601808662, ,0.017891580233497507,0.008154205281267434,0.003520179341436464,0.005036705746143226,0.012917920396092821,-0.010366505968845993, ,0.3546268939971924
0.009721343589867867,0.020729809480262384,-0.07991736453001086, ,0.00996594471733175,0.020627402431340435,-0.0801695430537102, ,0.00036593841427306296, ,0.0019471677135601626,0.0004142739033379953,-0.004165160137352869,0.007536802443419329,0.0008407603639074442,-0.005498761948859101, ,0.004616453610891307, ,0.007583552452976816, ,3.344268311777474e-05, ,0.1412178933380694,-0.25137495505600777,0.08976289734000001,1.6060152771479719,0.17954036069178875,-1.270874340972218, ,0.018636477132456947,0.008476408449598185,0.004361667995618839,0.008504917461946591,0.017770326255166047,-0.014785162505415839, ,0.3867058753967285
0.009781719443868535,0.020744396296729573,-0.08005390313989834, ,0.010027291359361569,0.020634083771624727,-0.08030331586148945, ,0.0003669892703682357, ,0.0021650792898317917,0.0004159553152455179,-0.0046084252333219765,-0.0034972319135848544,-0.013195533430912574,0.006731398036734527, ,0.00510863683252766, ,0.013651107336226133, ,3.400682946228981e-05, ,0.14176620737213932,-0.2511123821382842,0.08990548924000001,1.6062249670914566,0.17995027019108506,-1.2712085946833072, ,0.019402359754338742,0.009496717544211693,0.004800726799276674,-0.006610996234270458,0.008033365075793612,-0.006815390206316661, ,0.41912388801574707
0.009842622132700868,0.020752578012280844,-0.08018007762958525, ,0.010088740281033891,0.020640420969408328,-0.08043695043767139, ,0.00037301070324971205, ,0.001812115801436786,0.00011608876055293989,-0.0037048061074525093,0.0002608855224189974,-0.005519711701379631,0.006737127757907878, ,0.0041258730678440676, ,0.005525873489702787, ,3.4538172621727134e-05, ,0.14232224413908348,-0.2508111955561894,0.09003641453000001,1.6062249670914566,0.18022354319061595,-1.2714314304907002, ,0.017185248380744436,0.01019111057714432,0.0038244445426170474,-0.0055222756562519635,0.013342401438879228,-0.011119337975638967, ,0.45256781578063965
0.009914707672999283,0.020753580255567422,-0.08032131629678022, ,0.010150289547062373,0.02064641760553733,-0.0805704454986271, ,0.00035923253215906916, ,0.0017578310620188296,0.00014649843250910354,-0.003758974391346078,-0.0017730295880431389,-0.006972566878049161,0.0051831004992642215, ,0.004152266887872393, ,0.0071944646804645105, ,3.489660949997547e-05, ,0.14300184463201523,-0.25037872251523285,0.09018159901,1.6062249670914566,0.18063345268991227,-1.2717656842017893, ,0.016038016149817605,0.00995311567988696,0.0038746804962296287,-0.0045344343917762585,0.010426715307684782,-0.008714707593452066, ,0.4853858947753906
0.009951975552676526,0.020757875777603175,-0.08040436895960974, ,0.010211937232209225,0.0206520772475738,-0.08070379976700005, ,0.0004104049368565777, ,0.0017612349060534176,0.00034624665678652103,-0.004787853512373715,0.0027372289232177162,0.00044178384940777736,0.006110410090279634, ,0.005113254970914922, ,0.002772650831196392, ,3.5814316219253615e-05, ,0.14332619941273267,-0.25017020872762874,0.09026715415000001,1.6062249670914566,0.1807700891896777,-1.2718771021054858, ,0.014934992376215105,0.010672939297462183,0.004923898460587326,-0.004171905595272536,0.0167932462336724,-0.01389505230959471, ,0.5143048763275146
0.010012398738903973,0.020770317429216582,-0.08055481315683127, ,0.010273681421266447,0.020657403449815523,-0.08083701197169786, ,0.00040081713780578185, ,0.0020690992485605797,0.0003358489103348387,-0.004758805073630134,-0.003411856376857618,-0.009230779115051721,0.000336409508365218, ,0.0052000184537917705, ,0.009841140409861985, ,3.657128713350363e-05, ,0.14384362251530572,-0.24985357667978556,0.09042270895000001,1.6060152771479719,0.18117999868897403,-1.272211355816575, ,0.01779095267312913,0.010838815402014685,0.004919336479308216,0.0,0.008756805568112515,-0.0073264659790570315, ,0.5438158512115479
0.010073906296533798,0.02077759193506013,-0.08068101605314748, ,0.010335520209037725,0.020662399753315658,-0.0809700808478827, ,0.00040653355766280313, ,0.00207803762327236,0.00029800776484198194,-0.004537812416109713,0.006287523195613312,0.001171718242404566,-0.00308358654814664, ,0.004999879050081214, ,0.006395769668369607, ,3.728803720013743e-05, ,0.14439965928224988,-0.24953694463194237,0.09055363424000001,1.606434657034941,0.18145327168850492,-1.2724341916239679, ,0.019410296902939408,0.010753798568270613,0.004715456341030197,0.006009454114293691,0.01954447852518478,-0.01611030383910436, ,0.5729708671569824
0.010139270788081632,0.020788599396080434,-0.08083228383049919, ,0.010397451700319551,0.020667069685902203,-0.08110300513696254, ,0.00039334066618293526, ,0.0022872005656206095,0.0003839126195359816,-0.005136226078982003,0.0011720349445325257,-0.004958063169434698,-0.0035092600394520945, ,0.005635556198036628, ,0.005094708306543772, ,3.785711725152567e-05, ,0.14498658698069095,-0.24919714438547647,0.09071048533,1.606434657034941,0.18199981768756668,-1.2728798632387535, ,0.020246840528796838,0.011512455664250227,0.005330927550200804,0.005153847582782798,0.014342951159811773,-0.011857350992296433, ,0.6010518074035645
0.01021175983913192,0.020798569922274725,-0.0809792559872191, ,0.010459474009882945,0.020671416762197473,-0.08123578358658196, ,0.0003785982643163729, ,0.002359045574312536,0.00023365345191095745,-0.0044025162637224636,-0.010137553098038612,-0.0196575707555942,-0.005931991088336888, ,0.005000183937578124, ,0.022117641582520987, ,3.8289924830406625e-05, ,0.14563529654212581,-0.2488573441390106,0.09086344755,1.606434657034941,0.18227309068709754,-1.2731026990461465, ,0.020769739890232168,0.011040234850396173,0.0045772446896551735,0.004508920141757093,0.0,-0.000151734232285243, ,0.6333529949188232
0.010293312801550408,0.020797063897675758,-0.08112102530569867, ,0.010521585262454879,0.020675444483637753,-0.08136841495061257, ,0.0003579123282159427, ,0.001950095119251637,-0.0001434531108000721,-0.003308213275548686,-0.0063896088401394725,-0.012050720777874046,-0.0003439875842934603, ,0.0038428797594569413, ,0.01363990366534989, ,3.857185340730657e-05, ,0.14641529256242247,-0.24839398016655714,0.09100992832,1.6066443469784255,0.18268300018639388,-1.2734369527572358, ,0.01840514770334965,0.011951755863787251,0.0033934408862377505,0.0,0.0065008672157749765,-0.00544131533802496, ,0.6674418449401855
0.010356339439470608,0.02079853636445011,-0.08124410672056448, ,0.010583783592699793,0.020679156338493144,-0.08150089798914469, ,0.0003632136961275798, ,0.002016134910594738,0.00031270878969073536,-0.004656804228737506,-0.0016525190134382786,-0.0067332373218362196,0.0007514476618835469, ,0.005084133396131165, ,0.006933058613048389, ,3.885792078358472e-05, ,0.14700222026086354,-0.24803101172146858,0.09113696474,1.6066443469784255,0.1830929096856902,-1.273771206468325, ,0.01719458988194796,0.010613914829778527,0.004818152304900182,0.0,0.010702208483044503,-0.008859391950814071, ,0.6967079639434814
0.010399489320791608,0.020807525515043498,-0.08134931894989207, ,0.010646067145201065,0.02068255580188656,-0.08163323146847774, ,0.00039626300723974716, ,0.002160368010171661,0.0004102844875040134,-0.00501788922374288,-0.0056680215539737745,-0.012130969907912686,-0.0003238613357735617, ,0.005478570576511214, ,0.013389805676771008, ,3.948548422679004e-05, ,0.14734974324020364,-0.2478147752009903,0.09124585310000001,1.6066443469784255,0.18322954618545564,-1.2738826243720214, ,0.01769804952601096,0.010546706929244375,0.0052003955337904025,0.0,0.005694354330965922,-0.004771353501147895, ,0.721843957901001
0.010459540991297788,0.020816770287502267,-0.0814972689981364, ,0.010708434074442571,0.02068564633581371,-0.08176541416111126, ,0.00038864261985859156, ,0.0020151302636803124,0.0004187143107603984,-0.005234544000854972,0.01164363199587213,0.009667102880778607,-0.0008675089423047582, ,0.005624635326003155, ,0.015133639358490065, ,4.003301705738058e-05, ,0.14788261180852513,-0.2474672522216502,0.09139881532000001,1.6068540369219102,0.18391272868428285,-1.2744397138905035, ,0.017784284400013263,0.01115153961892314,0.0054253445231607625,0.005203824515197963,0.026780329305924368,-0.021959169549343505, ,0.7474689483642578
0.01050831801114496,0.020824065591932502,-0.08160910331172806, ,0.010770882544790134,0.020688431389162674,-0.08189744484573597, ,0.00041288934537397025, ,0.002341010355039139,0.0003646009037772132,-0.005694623637704176,0.0010352432900349508,-0.0026412299572058226,-0.0029947028344707383, ,0.006167819847931259, ,0.0028368677036136624, ,4.0658763406306556e-05, ,0.14826874845223637,-0.24721240203680078,0.09151418513000001,1.6068540369219102,0.18391272868428285,-1.2744397138905035, ,0.0196799961755435,0.013132707107455132,0.0058799599557032125,0.004745906708702717,0.016242691230065436,-0.013362517696547468, ,0.7726068496704102
0.010576505849876787,0.02083213107016776,-0.08177511282673991, ,0.010833410730472956,0.020690914397733302,-0.08202932230722383, ,0.0003880267081213594, ,0.002316518719946602,0.0003080449959099384,-0.0055279967690324795,0.01696285608816528,0.0145670926075518,0.0017635313479078167, ,0.0060016580190645425, ,0.022359308319859713, ,4.1130979681544975e-05, ,0.14886339888355166,-0.24680309719446689,0.09168529541,1.6068540369219102,0.18459591118311003,-1.2749968034089856, ,0.021755374039080875,0.013296474927626561,0.0057339134341252715,0.004198105795389327,0.03610397072971412,-0.02955268476787108, ,0.798292875289917
0.010627032724935417,0.020835156472917282,-0.08187945842724959, ,0.010896016815565263,0.02069309878425693,-0.08216104533662102, ,0.000414516604551429, ,0.002484101683278269,-6.779632149770662e-05,-0.005065381123704013,-0.015717062871460262,-0.020462466670176767,-0.0030525715861253015, ,0.005642113384402291, ,0.02580191086332173, ,4.169115555225565e-05, ,0.14929587192450822,-0.2465173560781206,0.09179288748000002,1.6070637268653947,0.18473254768287548,-1.275108221312682, ,0.020629769904015386,0.016103333032151838,0.005164984280155643,0.0006809985616843407,0.0,-0.00010898283383658582, ,0.8230538368225098
0.010701788989227325,0.020836299845520406,-0.0820433836702576, ,0.010958698993967671,0.020694987958415786,-0.08229261273113586, ,0.0003848206397258537, ,0.002599918183340781,0.00012432896345522447,-0.005971347388778221,0.007347677724381565,0.004968996700410546,0.003251155988384544, ,0.006513986635593318, ,0.008870134641479125, ,4.209022229414434e-05, ,0.1499831951503142,-0.24603082390704442,0.09196140518000001,1.6072734168088794,0.18555236668146813,-1.27569504999472, ,0.023413999891061132,0.016561420865352665,0.006143004828384112,0.0004913535908787326,0.028911811595012642,-0.02367997058455435, ,0.8483479022979736
0.010757472540794176,0.020835637504372204,-0.08215488190028654, ,0.011021455469388673,0.0206965853168626,-0.0824240232941324, ,0.0004018203420956013, ,0.002594502930052169,-7.085676145096898e-05,-0.0052599648203570225,-0.006000918278727232,-0.011211826037499931,0.006162192427569013, ,0.005865466396296725, ,0.012716762923666905, ,4.253684223596347e-05, ,0.15044655912276766,-0.24568330092770432,0.0920754787,1.6074831067523636,0.18555236668146813,-1.2756133712545794, ,0.02290536846692512,0.016544097203359618,0.005388637185385657,-0.006011791546838091,0.013457304054567285,-0.011241372946097108, ,0.873553991317749
0.010804991268143152,0.020831365962192178,-0.08224839806988188, ,0.011084284455326325,0.020697894243240356,-0.08255527583511962, ,0.00043588226273180903, ,0.0022956626628348933,-0.0003046489743212334,-0.004462360573559095,0.020061043711852723,0.01929696747610995,0.013068410296806127, ,0.005027478488023974, ,0.02783556047241589, ,4.327123739578472e-05, ,0.15091764582809536,-0.24535122341411267,0.09217140416000001,1.6074831067523636,0.18623554918029533,-1.2762521395132023, ,0.024239320960018077,0.016909647462307692,0.0045772446896551735,-0.006011791546838091,0.046027741460725184,-0.037695980169399304, ,0.8950610160827637
0.01086570019965061,0.020831130225624408,-0.08236559171650745, ,0.011147184175049313,0.020698918108201854,-0.08268636916974324, ,0.00044677896873515974, ,0.0028005149069234765,0.0001326182957423477,-0.006007835120035448,-0.0010002103654229298,-0.006905425115565053,0.007467032277761744, ,0.006629823088574654, ,0.006977485863466277, ,4.401390225435794e-05, ,0.15144279166354263,-0.24499597770189835,0.09229195913,1.6074831067523636,0.18637218568006078,-1.2763635574168986, ,0.024521173529320612,0.016355901681914992,0.006195570408401401,-0.006011791546838091,0.019508976111012467,-0.01606696256410813, ,0.9164948463439941
0.010914881242317804,0.020833725035833653,-0.08247369726866907, ,0.011210152861578998,0.02069966026942865,-0.0828173021197763, ,0.0004724647970344168, ,0.0029824796397936717,0.00021222059998935605,-0.0065896232692757425,-0.006664177709610172,-0.013215986126914166,0.006047415267836451, ,0.007236252981745729, ,0.014801133112936517, ,4.482158203539774e-05, ,0.15187526470449922,-0.24470251385267783,0.09240344007000001,1.6074831067523636,0.1867820951793571,-1.2767794898681284, ,0.02490733374238078,0.017092388609234652,0.006789774731457802,-0.006011791546838091,0.01344566058343923,-0.01112759932959517, ,0.9380319118499756
0.011012999464370808,0.0208410417195076,-0.08268302721823012, ,0.011273188757670454,0.020700124071651577,-0.08294807351310966, ,0.00039724776935108977, ,0.002881939038720207,-9.99269585021539e-05,-0.004990051123291299,-0.003320325097464619,-0.009698081391833493,-0.006465513134117277, ,0.005763346964481299, ,0.01025072379597886, ,4.5307636115468587e-05, ,0.15271704258778968,-0.24416192255148209,0.09261992050000001,1.6074831067523636,0.18732864117841885,-1.2773068402230547, ,0.02670896187967092,0.016313725555865702,0.005168335989617133,0.007645563945569974,0.015515382744777121,-0.01169164459794089, ,0.960507869720459
0.01107044787949,0.02083803383838718,-0.08278306699024471, ,0.011336290115794151,0.02070031284666982,-0.08307868218374387, ,0.00042074637109587923, ,0.002941306545500981,-0.00013427633327474625,-0.005094345435709074,-0.0019103481213880841,-0.007588359259245919,-0.009338442206240756, ,0.005884018163348452, ,0.007825127651425663, ,4.585911965029476e-05, ,0.15327307935473383,-0.2438221223050162,0.09272362370000001,1.607692796695848,0.1878751871774806,-1.2777525118378403, ,0.027363593298290304,0.01704939661488875,0.005272694975173785,0.01095690680835197,0.017527787733728,-0.013332625929005687, ,0.9825668334960938
0.011130238351868552,0.020839664800866433,-0.0828979790738327, ,0.011399455198117435,0.020700229913370345,-0.08320912697177893, ,0.0004344338989438993, ,0.003067353618339342,0.00021435011928294575,-0.006428458410713857,0.004569850013298315,1.3170353609962937e-05,-0.0062385048704881275, ,0.007125986369047712, ,0.004569867790645547, ,4.643621813233147e-05, ,0.1537982251901811,-0.24350549025717302,0.09283899351000001,1.607692796695848,0.18828509667677693,-1.2780867655489296, ,0.02712116077692792,0.01685558464626479,0.006598513471416737,0.00954342232745924,0.02617698280106775,-0.020385464553522078, ,1.0040369033813477
0.011195508105675819,0.02084621477451393,-0.08303557505696116, ,0.011462682276485928,0.02069987857774759,-0.08333940672340584, ,0.0004302441185730011, ,0.003300049054759419,9.072951547451513e-05,-0.0062666125078244105,-0.017200249401816234,-0.025411329218773773,-0.01071991969907307, ,0.007083006983761778, ,0.030685244377150124, ,4.6973901854952086e-05, ,0.15434653922425104,-0.24316569001070715,0.09298547428000001,1.607692796695848,0.1884217331765424,-1.2781981834526261, ,0.02741893717378526,0.017701350785015998,0.0064777598698658,0.008377532995235873,0.0,0.0009601096802957844, ,1.0251648426055908
0.011253662397938263,0.02084850734828518,-0.08316194898760448, ,0.011525969632405141,0.020699262132923325,-0.08346952029089785, ,0.00043706460719324726, ,0.002919373002900581,5.668506071347608e-05,-0.0061963879341071304,0.017664662260138936,0.016407389392190802,-0.0007282563646006803, ,0.006849903309983381, ,0.02410897572061242, ,4.7678414391253435e-05, ,0.15488713052544675,-0.24281816703136702,0.09311639957000001,1.607692796695848,0.18924155217513502,-1.2788666908748045, ,0.027570290981542935,0.017824369188292784,0.006420319032648127,0.007482904780237046,0.04312795704235635,-0.034207847436709106, ,1.0438909530639648
0.011317976096995393,0.020850460204431168,-0.08328727998559786, ,0.011589315557021826,0.020698383859165986,-0.08359946653260061, ,0.00044069576522375834, ,0.0031694341480039408,0.00013700789115716485,-0.006643133718034235,-0.010605164558875882,-0.015704106771107496,-0.007372067916341422, ,0.007361746367300096, ,0.018949629860797974, ,4.837123525860786e-05, ,0.1554277218266425,-0.24247064405202692,0.09324602857000001,1.607692796695848,0.18937818867490044,-1.278978108778501, ,0.025956493861726142,0.018068724592245004,0.006851101729032258,0.006763393109035382,0.008830013013348204,-0.006240173854837749, ,1.0616569519042969
0.011377770633508607,0.0208584873022669,-0.08343887650983567, ,0.011652718351105557,0.020697247023909893,-0.08372924431292302, ,0.00043117065745037586, ,0.0029216901768629616,0.0005002270288347924,-0.00797459928033416,0.029931136220745197,0.032064701801068615,0.0098561479230658, ,0.0085076867744329, ,0.043863629407576064, ,4.900865775408711e-05, ,0.1559374221963413,-0.2421153983398126,0.09340287966000001,1.6079024866393328,0.1901980076734931,-1.2796466162006794, ,0.025850433549024998,0.01753454204701973,0.008266119107420863,0.0,0.05921039685425613,-0.04732199873041022, ,1.0805048942565918
0.011411372528187571,0.020862435334841528,-0.08351797977700694, ,0.01171617632503023,0.020695854881775336,-0.08385885250232862, ,0.0004866709532956231, ,0.003268047284120456,0.0002736522915649294,-0.007665897437651077,0.0029116342345665,0.00032262319331663605,0.0029905246544980973, ,0.008337925530520837, ,0.0029294492941579213, ,4.980874935847514e-05, ,0.15619999511406493,-0.2419300527508312,0.09348454593000001,1.6079024866393328,0.19033464417325854,-1.279758034104376, ,0.027128914110483356,0.019217687638410447,0.00791297144560358,0.0,0.028069411598028123,-0.02192861334476033, ,1.0982170104980469
0.011483507305697502,0.02086802756878584,-0.08367358080929697, ,0.01177968779875538,0.02069421067458821,-0.08398828997732691, ,0.00046580796216746906, ,0.003679305799037293,0.00018766297282372306,-0.007409005659817592,-0.019420467895177703,-0.027946942323633577,-0.008623177257706395, ,0.008274410759770607, ,0.034032133876422004, ,5.0514821721260464e-05, ,0.15677147734675756,-0.24153619337424576,0.09364528589000001,1.6081121765828172,0.19047128067302396,-1.2798694520080725, ,0.02933444870431863,0.01958657204509201,0.007658082461538462,0.005839655024398883,0.0,0.0009601096802957844, ,1.1173899173736572
0.011541423632879987,0.02086652984852163,-0.08380370696895689, ,0.011843251101807799,0.020692317631398872,-0.08411755562046314, ,0.0004689890122875841, ,0.0028829516718664764,-0.00029034781324197223,-0.006287910465319165,0.033019530674540123,0.03732838407994445,0.016827021670786143, ,0.006923404524859312, ,0.04983670990502122, ,5.1208459233059446e-05, ,0.15736612777807282,-0.24113461126478608,0.09378010005000001,1.608321866526302,0.19197428217044385,-1.2810133702085924, ,0.029361677462398136,0.02151370246168007,0.006469866580016247,-0.005719627210014868,0.06957550143824849,-0.055204355820858295, ,1.134943962097168
0.011595083740695802,0.02086285305636497,-0.08390344742265705, ,0.01190686457326312,0.02069017896850248,-0.0842466483203092, ,0.000494783270053418, ,0.003241196775494248,-0.00026040373995122755,-0.005771972986472223,-0.006733374861399444,-0.012217570016393717,0.005870889980823134, ,0.006624865191218608, ,0.01395017375243404, ,5.196158533365289e-05, ,0.15782176901765207,-0.24080253375119443,0.09388250696000001,1.608321866526302,0.19211091867020927,-1.281124788112289, ,0.02903823181103757,0.019708606761883858,0.005950247112439298,-0.005233364318107932,0.018482322300878415,-0.013546823704146619, ,1.1540429592132568
0.011643112274246555,0.020858022030089587,-0.08398805737256707, ,0.01197052656172706,0.020687797889457984,-0.08437556697145612, ,0.0005351075246446201, ,0.0034245549149976647,-0.0002226713187535791,-0.006273067999968246,-0.022637858057545507,-0.029404010923672324,0.001455686852827794, ,0.007150422436070174, ,0.0371088731453675, ,5.29810905776093e-05, ,0.1582387965928602,-0.24050134716909968,0.09396935839000001,1.608321866526302,0.19224755516997472,-1.2811545272758447, ,0.02823473417389788,0.02062080433691238,0.006438484850444625,-0.004846185430393565,0.0,0.001534141798841287, ,1.1680998802185059
0.011712367416098499,0.02085814746741898,-0.08414213589700281, ,0.01203423542531693,0.020685177585108176,-0.08450431047450302, ,0.00051447839617646, ,0.003157066351081401,0.00027916716319683076,-0.00825394776252857,0.06369488900033685,0.06845509260044627,0.0180401857427988, ,0.008841530179594943, ,0.09350475148029228, ,5.3912026066427826e-05, ,0.1588643379556724,-0.24007659686101734,0.09412232061,1.6081121765828172,0.19347728366786368,-1.2820756096689718, ,0.032212132233017915,0.020765195089380916,0.008605516758508914,0.00020944744369543256,0.10458164069905104,-0.08575099681784547, ,1.1855289936065674
0.011750073230602728,0.020859451160997324,-0.08422212077841539, ,0.012097989531643386,0.02068232123359891,-0.08463287773604933, ,0.0005666939579302688, ,0.004241274701601783,0.0002233265283811228,-0.00903622709327584,-0.016417127244175177,-0.016510570921048386,-0.00873135491894604, ,0.009984572395149348, ,0.023283491122324668, ,5.4979034740180286e-05, ,0.15955166118147837,-0.23960551015568965,0.09429861605,1.608321866526302,0.19388719316716,-1.2823281846399206, ,0.03397670660883308,0.02358860093424578,0.009342411448680353,0.008924087563819235,0.015754219210295725,-0.005508746705301052, ,1.2004828453063965
0.01183281531938865,0.02086479424469574,-0.08439628676649955, ,0.012161787257791623,0.02067923200039881,-0.08476126766868494, ,0.0005252303701474132, ,0.0046486888109864835,0.0005206066758858791,-0.009935607096622362,-0.02737988538102305,-0.03237305363209037,-0.015449811178002064, ,0.01098169510370874, ,0.042398969658738246, ,5.589589429329348e-05, ,0.15986829322932158,-0.23939699636808556,0.09439194893000001,1.6085315564697864,0.1940238296669254,-1.2824396025436169, ,0.035290792695600884,0.022833720297995855,0.01030991036893204,0.01258417295321817,0.0,0.0067886075013935, ,1.2152788639068604
0.011878752167346868,0.02086883569157478,-0.08450134439977924, ,0.012225626990302982,0.02067591303831857,-0.08488947919098158, ,0.0005551485468610474, ,0.004526751562059293,0.0003849838691127374,-0.009814538722463097,-0.012079179274534897,-0.017062605516094884,-0.012415549192116458, ,0.010815029478406929, ,0.020905477461173907, ,5.687976660690735e-05, ,0.16024670714015857,-0.23914214618323618,0.09450083729000001,1.6085315564697864,0.19443373916622175,-1.2826921775145657, ,0.035688958841094694,0.023963874130926963,0.010171654865900383,0.01258417295321817,0.016017911190587777,-0.009642492438442627, ,1.2294199466705322
0.011952471449942938,0.02087327830937273,-0.08466748370849381, ,0.01228950712515625,0.02067236748753134,-0.08501751122748313, ,0.0005258112482148892, ,0.004351126949251474,0.00020084285366957412,-0.009151355022288577,0.004225979727269951,0.002856873488858728,-0.006132984050011726, ,0.010135084722109576, ,0.00510103583624002, ,5.775452373824829e-05, ,0.16088769396871921,-0.2387173958751538,0.09467324386,1.6085315564697864,0.19539019466457985,-1.2833087453601597, ,0.03706911779627765,0.024116122378264496,0.00950406415274463,0.010858437262820035,0.038205811856905456,-0.02638411111348962, ,1.2440268993377686
0.012007302841121012,0.020871237303166156,-0.08477295540789823, ,0.012353426067749489,0.020668598475590785,-0.08514536270869727, ,0.0005473125068379655, ,0.004268941477798951,-0.0003787739213442083,-0.007441424638092431,-0.05134818048955383,-0.027737742607733578,-0.011045314739186258, ,0.008587323894483766, ,0.058361099901754115, ,5.867131913501633e-05, ,0.1613510579411727,-0.2383930410944364,0.09478213222000001,1.6085315564697864,0.19566346766411072,-1.2833682236872712, ,0.03590501004860794,0.025752222946667784,0.007661766002886004,0.009849510783609652,0.00629728466079784,0.027484646613830092, ,1.2582638263702393
0.012048103476447816,0.02086574652762169,-0.08484867903259932, ,0.012417382232881214,0.020664609117452423,-0.08527303257108557, ,0.0005974102303680384, ,0.004160106369838998,-0.0004916967176074629,-0.007823507300200825,0.0026859669475024278,0.0025994031231565897,-0.005222473285051717, ,0.008874430525209859, ,0.003737818311571041, ,5.988222796536974e-05, ,0.16172174911913545,-0.2381150227109643,0.09485990962000002,1.6085315564697864,0.19607337716340703,-1.2835391199180795, ,0.037214486885674816,0.028017992783723286,0.008040793296314994,0.00918005921197582,0.03847138176917992,-0.028951530177382674, ,1.2688260078430176
0.012085976513800615,0.020862974805906872,-0.08493288213940312, ,0.012481374044731937,0.020660402515491824,-0.08540051975705501, ,0.0006450268845201136, ,0.004158256384477223,-4.160914508591514e-05,-0.009395323635722385,0.03681495161475543,0.04346771440271398,0.004465593333731171, ,0.010274479728918835, ,0.05696299487021957, ,6.120809748281704e-05, ,0.16208471756422402,-0.23784472706036644,0.09494676105000001,1.6085315564697864,0.19689319616199968,-1.2840442698599768, ,0.03867031033352518,0.027300616098524386,0.009730489627367138,0.008613916604272805,0.08183540358238105,-0.06251782643713917, ,1.2796449661254883
0.012167018719272619,0.020864929670837813,-0.08510427450499876, ,0.01254539993684568,0.020655981759524728,-0.0855278232149487, ,0.0006260112860489533, ,0.005258772735170015,0.00011060660842455674,-0.011073206147823063,-0.027860010346497273,-0.02105631218238674,-0.007828827802018932, ,0.012258989309652782, ,0.03492203162399348, ,6.245777825569982e-05, ,0.16250174513943214,-0.23756670867689436,0.09505305683000001,1.6085315564697864,0.19743974216106144,-1.2844899414747624, ,0.03967263443079882,0.02670144669624952,0.010887772740943269,0.008090519793936983,0.03878619429235254,-0.016936908373233923, ,1.290822982788086
0.012240007067660414,0.02086950677850208,-0.08527096098793481, ,0.01260945835211146,0.020651349926826764,-0.08565494189903676, ,0.0005757846851090237, ,0.005395892849793179,0.000625506431060879,-0.012753861463800566,0.018698422842460604,0.005532895718462547,-0.002145608232599097, ,0.013862463712470623, ,0.0194998362654043, ,6.35457652314475e-05, ,0.1633435230227226,-0.23696433551270485,0.09529675935000001,1.6085315564697864,0.19812292465988865,-1.284965352253104, ,0.04263115074504527,0.0289231763360167,0.013240907331670824,0.007232480759013364,0.047348798275887366,-0.046172917437457786, ,1.3017668724060059
0.012268968160965796,0.020872534489821327,-0.08534216204244792, ,0.012673547742744692,0.020646510082152448,-0.08578187476950636, ,0.0006388418843435527, ,0.005257916415266175,0.00046551264546038323,-0.012513783887615579,0.02933102573250164,0.019903377003894863,0.008165208476898703, ,0.013581501177666492, ,0.03544648332088452, ,6.479077797769532e-05, ,0.16358292774182356,-0.23679443538947192,0.09537064788,1.6087412464132707,0.19853283415918496,-1.2852996059641932, ,0.04319387417317742,0.029860585764150654,0.012981916479217606,0.0,0.06434215340296943,-0.058887158824701746, ,1.3128938674926758
0.012348329926430235,0.020876891065269576,-0.08552362269772981, ,0.012737666570268789,0.02064146527775544,-0.08590862079245458, ,0.000596013302371533, ,0.0057098683250886295,0.0002212795436035735,-0.012353430826319798,0.011177586268490195,-0.0005475804819572701,-0.005519299413371218, ,0.013610981379273725, ,0.01119097812861035, ,6.589722692656156e-05, ,0.16423163730325843,-0.23633107141701845,0.09555860993000001,1.6089509363567556,0.19935265315777762,-1.285886434646231, ,0.04640437240023021,0.03228885388175256,0.012804510868167206,0.0095750961665519,0.04446597283174322,-0.041570394265496406, ,1.3234899044036865
0.012406278111554741,0.020877867271974576,-0.08564633138493928, ,0.01280181330549651,0.02063621855340766,-0.08603517893987742, ,0.0006050162095456212, ,0.005722934685965155,-0.00019922562858943948,-0.011583539363178108,0.0023575541641682254,-0.008033044446695699,-0.0072974434765599285, ,0.012921689380619186, ,0.008371837084618904, ,6.701013547510238e-05, ,0.16470272400858613,-0.2359989939034268,0.09568564635000001,1.6089509363567556,0.19976256265707393,-1.2862206883573206, ,0.04716547791176481,0.0347735220075012,0.01195856720720721,0.009541454056702576,0.03761725279512308,-0.03519266770317675, ,1.334601879119873
0.012463543871960277,0.020876879426768635,-0.08576419879125971, ,0.012865986428511486,0.020630772936418653,-0.08616154818966129, ,0.0006167778857303147, ,0.005912527374797952,-7.306016930323203e-05,-0.01178102484717123,0.011067108711502854,-0.000623990258688758,-0.004432916196775189, ,0.013181648766210533, ,0.011084675553795385, ,6.832197681961354e-05, ,0.16517381071391382,-0.23565919365696092,0.09580749761000001,1.6089509363567556,0.20017247215637027,-1.2865549420684097, ,0.049893239515494625,0.03391599054984659,0.012224721043745205,0.0089430152304852,0.04811013922940186,-0.04316097503744348, ,1.3418128490447998
0.012463543871960277,0.020876879426768635,-0.08576419879125971, ,0.01293018442864973,0.020625131441655672,-0.08628772752557438, ,0.0007451260247830586, ,0.005912527374797952,-7.306016930323203e-05,-0.01178102484717123,0.011067108711502854,-0.000623990258688758,-0.004432916196775189, ,0.013181648766210533, ,0.011084675553795385, ,6.996652295784012e-05, ,0.16517381071391382,-0.23565919365696092,0.09580749761000001,1.6089509363567556,0.20017247215637027,-1.2865549420684097, ,0.049893239515494625,0.03391599054984659,0.012224721043745205,0.0089430152304852,0.04811013922940186,-0.04316097503744348, ,1.3489818572998047
0.012487305191904259,0.020876304249545247,-0.0858116102240952, ,0.012994405804480988,0.020619297071563347,-0.086413715937257, ,0.0008280911849742106, ,0.006052895335331737,-0.00014269043743912882,-0.012132707288108717,0.021183361184542022,0.011441248186135788,-0.0014817346718334562, ,0.01355951653416683, ,0.02407564512599235, ,7.181641042842756e-05, ,0.16538232450151788,-0.23552018446522488,0.09585675663000001,1.6089509363567556,0.20044574515590113,-1.2867777778758027, ,0.05228481628565883,0.03564873837658557,0.01259194586561265,0.008724307807004986,0.0629151598929643,-0.05504042621326809, ,1.3561339378356934
0.012583708946510732,0.02087248744202203,-0.08601618590254691, ,0.013058649063790406,0.02061327281618226,-0.08653951242021239, ,0.0007527489497453748, ,0.00650392806550329,-2.5975427475400585e-05,-0.014132596180150442,0.013789638438688549,0.010486033513122156,-0.0012319258071404266, ,0.015557378628653246, ,0.017323696583811707, ,7.344506317946638e-05, ,0.16620093418618567,-0.23491008856816115,0.0960680519,1.6089509363567556,0.20153883715402465,-1.2877507998455147, ,0.05298545033973801,0.03916506048636846,0.014533587153284672,0.007945385719077203,0.06631483225427447,-0.054075299107009984, ,1.36319899559021
0.012583708946510732,0.02087248744202203,-0.08601618590254691, ,0.013122912723559796,0.02060706165316959,-0.08666511597579825, ,0.0008844782657261327, ,0.00650392806550329,-2.5975427475400585e-05,-0.014132596180150442,0.013789638438688549,0.010486033513122156,-0.0012319258071404266, ,0.015557378628653246, ,0.017323696583811707, ,7.540673376288978e-05, ,0.16620093418618567,-0.23491008856816115,0.0960680519,1.6089509363567556,0.20153883715402465,-1.2877507998455147, ,0.05298545033973801,0.03916506048636846,0.014533587153284672,0.007945385719077203,0.06631483225427447,-0.054075299107009984, ,1.370285987854004
0.012656976085897446,0.02087450688147652,-0.08618405839483667, ,0.013187195309949256,0.020600666547818225,-0.08679052561121708, ,0.0008508369047216966, ,0.007654471464688356,0.0006765240974234616,-0.018712244652267042,0.022537198220159486,0.020568013570708036,0.001677958353433557, ,0.02022861137558432, ,0.03051173858811248, ,7.725864761790544e-05, ,0.16679558461750096,-0.23446989279433034,0.09624175476,1.6089509363567556,0.2023586561526173,-1.2884193072676933, ,0.059125820285651574,0.04399487323063087,0.019378116204379566,0.007515201211835663,0.07950877735285056,-0.06483407664370477, ,1.3776237964630127
0.012733657543869722,0.020885383621408772,-0.0863788688425835, ,0.01325149535827863,0.02059409045307607,-0.08691574033950669, ,0.0008007738233469213, ,0.0075996541517466725,0.0010590938781663286,-0.019814360762631496,0.03721183082276652,0.03733382123728253,0.011109847267161617, ,0.021248183816520425, ,0.052711777689046606, ,7.895932269188205e-05, ,0.1673747895830678,-0.23405286521912222,0.09644397600000001,1.6091606263002398,0.20317847515120993,-1.2890878146898717, ,0.05789929320223964,0.0424025654863587,0.02055330518709678,0.0015383091827144242,0.09677496349769431,-0.07891349369839476, ,1.3850059509277344
0.012815474437029153,0.020892552734339435,-0.08657757112325036, ,0.01331581141300882,0.020587336309566044,-0.08704075917953227, ,0.0007470189629227264, ,0.008372093931477134,0.0006239348920310966,-0.019481113409375125,0.01742227509582857,0.011077950211905541,0.006434103243827955, ,0.021213086319908883, ,0.020645915928667605, ,8.050147011999452e-05, ,0.16801577641162843,-0.23358950124666875,0.09665008611,1.6091606263002398,0.20413493064956803,-1.2898677400157466, ,0.06495341653557206,0.046291191004132086,0.020214227817258887,0.0015043693885825808,0.07718094954404935,-0.06293588915304082, ,1.3920729160308838
0.012815474437029153,0.020892552734339435,-0.08657757112325036, ,0.013380142027723514,0.020580407045605636,-0.08716558115597654, ,0.000872949149471101, ,0.008372093931477134,0.0006239348920310966,-0.019481113409375125,0.01742227509582857,0.011077950211905541,0.006434103243827955, ,0.021213086319908883, ,0.020645915928667605, ,8.235549670653387e-05, ,0.16801577641162843,-0.23358950124666875,0.09665008611,1.6091606263002398,0.20413493064956803,-1.2898677400157466, ,0.06495341653557206,0.046291191004132086,0.020214227817258887,0.0015043693885825808,0.07718094954404935,-0.06293588915304082, ,1.3991789817810059
0.012900455264982617,0.020897916100941598,-0.08677554253008986, ,0.013444485765110417,0.020573305577226125,-0.08729020529933021, ,0.000816222361380944, ,0.008872303624403364,0.000301951490544091,-0.0202647311943343,-0.007199413511036229,-0.013617253116388612,0.0007127687735472826, ,0.02212392995570336, ,0.015403172396373996, ,8.404334999142475e-05, ,0.16864904050731483,-0.23311069180846683,0.09685489993000002,1.6091606263002398,0.20468147664862982,-1.290150054150251, ,0.0663614975933362,0.051658650821159925,0.020931421182654404,0.0014687934923453146,0.0534347339731762,-0.043572442605654974, ,1.4066669940948486
0.012900455264982617,0.020897916100941598,-0.08677554253008986, ,0.01350884119694288,0.020566034808192107,-0.08741463064588383, ,0.000942715362361998, ,0.008872303624403364,0.000301951490544091,-0.0202647311943343,-0.007199413511036229,-0.013617253116388612,0.0007127687735472826, ,0.02212392995570336, ,0.015403172396373996, ,8.626214072106448e-05, ,0.16864904050731483,-0.23311069180846683,0.09685489993000002,1.6091606263002398,0.20468147664862982,-1.290150054150251, ,0.0663614975933362,0.051658650821159925,0.020931421182654404,0.0014687934923453146,0.0534347339731762,-0.043572442605654974, ,1.4104177951812744
0.012985639930265863,0.020899116057010454,-0.08696095623526053, ,0.013573206904061297,0.020558597630021783,-0.0875388562377177, ,0.0008917152912527474, ,0.009125464429565733,-0.00022623971854628322,-0.01802671551387247,-0.008149835253244028,-0.02157871000518088,0.0005486497663387427, ,0.020206131685298098, ,0.023066396261891185, ,8.833805090284716e-05, ,0.16930547280162392,-0.23261643690451644,0.09704675085000002,1.6093703162437245,0.20522802264769155,-1.2905957257650367, ,0.07305384261622076,0.05157442476003847,0.01869578816901409,0.00133378084323865,0.05217504737160176,-0.04254525264760693, ,1.4141778945922852
0.012985639930265863,0.020899116057010454,-0.08696095623526053, ,0.013637581476354592,0.020550996922005734,-0.08766288112269384, ,0.0010192709449755094, ,0.009125464429565733,-0.00022623971854628322,-0.01802671551387247,-0.008149835253244028,-0.02157871000518088,0.0005486497663387427, ,0.020206131685298098, ,0.023066396261891185, ,9.073119458940928e-05, ,0.16930547280162392,-0.23261643690451644,0.09704675085000002,1.6093703162437245,0.20522802264769155,-1.2905957257650367, ,0.07305384261622076,0.05157442476003847,0.01869578816901409,0.00133378084323865,0.05217504737160176,-0.04254525264760693, ,1.4178669452667236
0.013083093155295171,0.020893335113755324,-0.08715350704400211, ,0.013701963512741722,0.02054323555122649,-0.08778670435444565, ,0.0010201515785220464, ,0.009351002232357014,-0.0007708381940112462,-0.019056086855495095,0.03611905766982459,0.03715120233590798,0.012560116388514302, ,0.021240759885537648, ,0.051815013742136644, ,0.0005114730461098909, ,0.17007002335617216,-0.2320681228704465,0.09723341661000001,1.6093703162437245,0.2060478416462842,-1.2911825544470745, ,0.07901493884968425,0.058687038687984396,0.019354570498177404,0.00133378084323865,0.1025701287112478,-0.08176664365110861, ,1.4220538139343262
0.013083093155295171,0.020893335113755324,-0.08715350704400211, ,0.013766351621153073,0.02053531637257887,-0.08791032499236985, ,0.0010806446951573028, ,0.009351002232357014,-0.0007708381940112462,-0.019056086855495095,0.03611905766982459,0.03715120233590798,0.012560116388514302, ,0.021240759885537648, ,0.051815013742136644, ,0.0005193782079022161, ,0.17007002335617216,-0.2320681228704465,0.09723341661000001,1.6093703162437245,0.2060478416462842,-1.2911825544470745, ,0.07901493884968425,0.058687038687984396,0.019354570498177404,0.00133378084323865,0.1025701287112478,-0.08176664365110861, ,1.4256689548492432
0.013083093155295171,0.020893335113755324,-0.08715350704400211, ,0.013830744418512004,0.020527242228788656,-0.08803374210161691, ,0.0012115362844203489, ,0.009351002232357014,-0.0007708381940112462,-0.019056086855495095,0.03611905766982459,0.03715120233590798,0.012560116388514302, ,0.021240759885537648, ,0.051815013742136644, ,0.0005288598253887658, ,0.17007002335617216,-0.2320681228704465,0.09723341661000001,1.6093703162437245,0.2060478416462842,-1.2911825544470745, ,0.07901493884968425,0.058687038687984396,0.019354570498177404,0.00133378084323865,0.1025701287112478,-0.08176664365110861, ,1.4292349815368652
0.013183161981594305,0.02088990947222562,-0.08737882417027733, ,0.013895140530716246,0.02051901595043248,-0.08815695475308145, ,0.0011180172909275564, ,0.010809901874613725,0.0003152375795065791,-0.026541996879613183,0.09208228830487836,0.10019396324358168,0.01737360432044809, ,0.028660616734950184, ,0.13608072941245633, ,0.0005368214127609118, ,0.17097358310245642,-0.23138079964464053,0.09747971171000001,1.609580006187209,0.20782411614323493,-1.2925493084549875, ,0.08860592115636862,0.06783198109969318,0.0275109007253886,0.009352738981056308,0.19022614562855733,-0.1576602256755424, ,1.4328629970550537
0.013183161981594305,0.02088990947222562,-0.08737882417027733, ,0.013959538592619392,0.020510640355957885,-0.08827996202339437, ,0.0012484611067316862, ,0.010809901874613725,0.0003152375795065791,-0.026541996879613183,0.09208228830487836,0.10019396324358168,0.01737360432044809, ,0.028660616734950184, ,0.13608072941245633, ,0.0005463099420138554, ,0.17097358310245642,-0.23138079964464053,0.09747971171000001,1.609580006187209,0.20782411614323493,-1.2925493084549875, ,0.08860592115636862,0.06783198109969318,0.0275109007253886,0.009352738981056308,0.19022614562855733,-0.1576602256755424, ,1.4363999366760254
0.013183161981594305,0.02088990947222562,-0.08737882417027733, ,0.014023937248012494,0.020502118251702013,-0.08840276299491259, ,0.0013804838991930387, ,0.010809901874613725,0.0003152375795065791,-0.026541996879613183,0.09208228830487836,0.10019396324358168,0.01737360432044809, ,0.028660616734950184, ,0.13608072941245633, ,0.0005572859151346341, ,0.17097358310245642,-0.23138079964464053,0.09747971171000001,1.609580006187209,0.20782411614323493,-1.2925493084549875, ,0.08860592115636862,0.06783198109969318,0.0275109007253886,0.009352738981056308,0.19022614562855733,-0.1576602256755424, ,1.4400279521942139
0.013300647290455197,0.020900333019567736,-0.08767326257198074, ,0.014088335149605292,0.0204934524319116,-0.08852535675571, ,0.0012296619348459493, ,0.01265168086615019,0.0017968451438422773,-0.03241560212883894,0.0746527610176756,0.07198955109354568,0.013110395372837518, ,0.03484343471279845, ,0.10370869974833301, ,0.000566018071234781, ,0.17189258831448914,-0.230708921884583,0.09778563615000001,1.609580006187209,0.20960039064018565,-1.2939160624629005, ,0.09489694155847078,0.06678180264494778,0.03374748203389831,0.009052333510251627,0.1679044755023542,-0.1392157171643833, ,1.4437940120697021
0.013300647290455197,0.020900333019567736,-0.08767326257198074, ,0.01415273095900788,0.020484645678762733,-0.08864774239956917, ,0.0013595784191787206, ,0.01265168086615019,0.0017968451438422773,-0.03241560212883894,0.0746527610176756,0.07198955109354568,0.013110395372837518, ,0.03484343471279845, ,0.10370869974833301, ,0.0005761919218494469, ,0.17189258831448914,-0.230708921884583,0.09778563615000001,1.609580006187209,0.20960039064018565,-1.2939160624629005, ,0.09489694155847078,0.06678180264494778,0.03374748203389831,0.009052333510251627,0.1679044755023542,-0.1392157171643833, ,1.4474999904632568
0.013435756172651346,0.02091896397873168,-0.08801214643987271, ,0.01421712334671211,0.02047570076237999,-0.08876991902597169, ,0.0011752600699050768, ,0.01265168086615019,0.0017968451438422773,-0.03241560212883894,0.0746527610176756,0.07198955109354568,0.013110395372837518, ,0.03484343471279845, ,0.10370869974833301, ,0.0005837750629640752, ,0.17189258831448914,-0.230708921884583,0.09778563615000001,1.609580006187209,0.20960039064018565,-1.2939160624629005, ,0.09489694155847078,0.07260668826202814,0.0363671495890411,0.008473090151930726,0.10983912919824648,-0.0811872080059771, ,1.4526338577270508
0.013435756172651346,0.02091896397873168,-0.08801214643987271, ,0.014281510992072973,0.02046662044085635,-0.0888918857400888, ,0.0013014826649545433, ,0.013981827518390735,0.001833577323870576,-0.03501556977279571,0.010898817649143881,0.011642585513250835,0.001415059280116578, ,0.037748425570746195, ,0.015946202832703274, ,0.0005927464079889561, ,0.17287337538951564,-0.2300138759259028,0.09813822703000001,1.609580006187209,0.21096675563784006,-1.2949485627597244, ,0.09803403053561031,0.07260668826202814,0.0363671495890411,0.008473090151930726,0.10983912919824648,-0.0811872080059771, ,1.4563028812408447
0.013435756172651346,0.02091896397873168,-0.08801214643987271, ,0.014345892583290184,0.020457407460272626,-0.08901364165277277, ,0.0014298165501784958, ,0.013981827518390735,0.001833577323870576,-0.03501556977279571,0.010898817649143881,0.011642585513250835,0.001415059280116578, ,0.037748425570746195, ,0.015946202832703274, ,0.0006030806072752467, ,0.17287337538951564,-0.2300138759259028,0.09813822703000001,1.609580006187209,0.21096675563784006,-1.2949485627597244, ,0.09803403053561031,0.07260668826202814,0.0363671495890411,0.008473090151930726,0.10983912919824648,-0.0811872080059771, ,1.4600789546966553
0.013584969964015935,0.020932865736592705,-0.08838130904492329, ,0.014410266817389704,0.020448064554716736,-0.0891351858805471, ,0.0012183913022617754, ,0.015095770232171152,0.0009699621586907051,-0.036932814798267634,-0.00850347379969094,0.005305390145275158,2.2113416168195293e-05, ,0.03991059902350419, ,0.010019356995126192, ,0.000610584396238497, ,0.17391594432753596,-0.22919526624123499,0.09852063258,1.609580006187209,0.21205984763596358,-1.2956765485090145, ,0.10591176513222186,0.08626994687133707,0.038198588776978425,0.007962613372564091,0.11158668071044762,-0.0753143168028071, ,1.4636728763580322
0.013584969964015935,0.020932865736592705,-0.08838130904492329, ,0.014474632400204959,0.020438594446303842,-0.08925651754559864, ,0.001342308935537569, ,0.015095770232171152,0.0009699621586907051,-0.036932814798267634,-0.00850347379969094,0.005305390145275158,2.2113416168195293e-05, ,0.03991059902350419, ,0.010019356995126192, ,0.0006194003545433052, ,0.17391594432753596,-0.22919526624123499,0.09852063258,1.609580006187209,0.21205984763596358,-1.2956765485090145, ,0.10591176513222186,0.08626994687133707,0.038198588776978425,0.007962613372564091,0.11158668071044762,-0.0753143168028071, ,1.4672448635101318
0.013584969964015935,0.020932865736592705,-0.08838130904492329, ,0.01453898804635855,0.020428999845195542,-0.089377635775767, ,0.0014685701524080673, ,0.015095770232171152,0.0009699621586907051,-0.036932814798267634,-0.00850347379969094,0.005305390145275158,2.2113416168195293e-05, ,0.03991059902350419, ,0.010019356995126192, ,0.0006295095188035999, ,0.17391594432753596,-0.22919526624123499,0.09852063258,1.609580006187209,0.21205984763596358,-1.2956765485090145, ,0.10591176513222186,0.08626994687133707,0.038198588776978425,0.007962613372564091,0.11158668071044762,-0.0753143168028071, ,1.4707980155944824
0.013739643032248061,0.020941757487168138,-0.08875577963974512, ,0.014603332479243569,0.02041928344961934,-0.08949853970453668, ,0.0012532482174785258, ,0.01590400585496067,0.0006594378804666819,-0.036801095361688914,0.03691404520080276,0.02725279658871881,0.005581469106544514, ,0.04009604569496771, ,0.04588348455599399, ,0.000636847621140952, ,0.17501257239567583,-0.2283148746935734,0.09890822329000001,1.609580006187209,0.21328957613385255,-1.2964342734218608, ,0.11744670984959255,0.08893808955807946,0.038198588776978425,0.007515519380929764,0.14552327074648377,-0.12350693838712877, ,1.4743850231170654
0.013739643032248061,0.020941757487168138,-0.08875577963974512, ,0.014667664431005296,0.020409447945888556,-0.08961922847102695, ,0.0013748167327067857, ,0.01590400585496067,0.0006594378804666819,-0.036801095361688914,0.03691404520080276,0.02725279658871881,0.005581469106544514, ,0.04009604569496771, ,0.04588348455599399, ,0.0006454286573219501, ,0.17501257239567583,-0.2283148746935734,0.09890822329000001,1.609580006187209,0.21328957613385255,-1.2964342734218608, ,0.11744670984959255,0.08893808955807946,0.038198588776978425,0.007515519380929764,0.14552327074648377,-0.12350693838712877, ,1.4779579639434814
0.013739643032248061,0.020941757487168138,-0.08875577963974512, ,0.01473198264252227,0.020399496008421558,-0.08973970121998323, ,0.0014989620040247336, ,0.01590400585496067,0.0006594378804666819,-0.036801095361688914,0.03691404520080276,0.02725279658871881,0.005581469106544514, ,0.04009604569496771, ,0.04588348455599399, ,0.0006552393854449706, ,0.176255932388426,-0.22738042401579223,0.09928673997000001,1.609580006187209,0.21479257763127238,-1.2975781916223807, ,0.13053224423448526,0.09723047290826925,0.03628430870159454,0.007113772808037703,0.16220278432926938,-0.10069764040519597, ,1.4816617965698242
0.01390441108356244,0.02094302074550324,-0.08912035506891317, ,0.014796285863388109,0.020389430299761282,-0.08985995710176783, ,0.0012841005301410878, ,0.016714073562089673,-0.0005914679769671575,-0.03492776592318036,0.005880190401535806,0.030101990711522707,0.009007510244189028, ,0.03872542991099261, ,0.030670091324101364, ,0.0006623855348165173, ,0.176255932388426,-0.22738042401579223,0.09928673997000001,1.609580006187209,0.21479257763127238,-1.2975781916223807, ,0.13053224423448526,0.09723047290826925,0.03628430870159454,0.007113772808037703,0.16220278432926938,-0.10069764040519597, ,1.485771894454956
0.01390441108356244,0.02094302074550324,-0.08912035506891317, ,0.014860572851892798,0.02037925347059558,-0.08997999527235132, ,0.0014039444956409884, ,0.016714073562089673,-0.0005914679769671575,-0.03492776592318036,0.005880190401535806,0.030101990711522707,0.009007510244189028, ,0.03872542991099261, ,0.030670091324101364, ,0.0006707176579718485, ,0.176255932388426,-0.22738042401579223,0.09928673997000001,1.609580006187209,0.21479257763127238,-1.2975781916223807, ,0.13053224423448526,0.09723047290826925,0.03628430870159454,0.007113772808037703,0.16220278432926938,-0.10069764040519597, ,1.4894587993621826
0.014074305363526562,0.02093151906631443,-0.08945346761642173, ,0.014924842375004261,0.02036896815977547,-0.09009981489330245, ,0.0012073282621856997, ,0.017518296021420462,-0.0018137308778481951,-0.032006879790009934,-0.001212650957372432,-0.026722639348750767,-0.0073716166165455005, ,0.03653246048493754, ,0.0267495118757407, ,0.000676679998018669, ,0.17759196517566683,-0.2263841914750173,0.09963284940000001,1.6099993860741781,0.21615894262892676,-1.2985290131790639, ,0.13894134928033788,0.10259128817131975,0.03325430379958247,0.011015152263456333,0.11161500316896833,-0.09807680780898399, ,1.4931509494781494
0.014074305363526562,0.02093151906631443,-0.08945346761642173, ,0.014989093208349721,0.020358576994335614,-0.0902194151317799, ,0.0013235463781684953, ,0.017518296021420462,-0.0018137308778481951,-0.032006879790009934,-0.001212650957372432,-0.026722639348750767,-0.0073716166165455005, ,0.03653246048493754, ,0.0267495118757407, ,0.0006837884197785572, ,0.17759196517566683,-0.2263841914750173,0.09963284940000001,1.6099993860741781,0.21615894262892676,-1.2985290131790639, ,0.13894134928033788,0.10259128817131975,0.03325430379958247,0.011015152263456333,0.11161500316896833,-0.09807680780898399, ,1.4967749118804932
0.014074305363526562,0.02093151906631443,-0.08945346761642173, ,0.0150533241361972,0.020348082589513893,-0.09033879516052268, ,0.0014431495903220717, ,0.017518296021420462,-0.0018137308778481951,-0.032006879790009934,-0.001212650957372432,-0.026722639348750767,-0.0073716166165455005, ,0.03653246048493754, ,0.0267495118757407, ,0.0006920423455453346, ,0.17759196517566683,-0.2263841914750173,0.09963284940000001,1.6099993860741781,0.21615894262892676,-1.2985290131790639, ,0.13894134928033788,0.10259128817131975,0.03325430379958247,0.011015152263456333,0.11161500316896833,-0.09807680780898399, ,1.5004549026489258
0.01425124688006623,0.02090884829153962,-0.08976432167435112, ,0.015117533951437064,0.020337487548770412,-0.09045795415784114, ,0.0012482116849935976, ,0.017823062214497382,-0.002902207109066636,-0.030465387098379326,-0.037075883863158264,-0.06039333304708121,-0.017865628418152417, ,0.035415027373416764, ,0.07086571524058803, ,0.0006980226610232729, ,0.1789975025587757,-0.22533389980412274,0.09995562561000002,1.6102090760176624,0.21711539812728486,-1.299308938504939, ,0.14100585669906504,0.10970744688840552,0.031542201029702975,0.013935987213266584,0.07882221528948333,-0.06859973852263421, ,1.5042200088500977
0.01425124688006623,0.02090884829153962,-0.08976432167435112, ,0.015181721455563357,0.020326794463807567,-0.09057689130760796, ,0.0013655910818818487, ,0.017823062214497382,-0.002902207109066636,-0.030465387098379326,-0.037075883863158264,-0.06039333304708121,-0.017865628418152417, ,0.035415027373416764, ,0.07086571524058803, ,0.0007051244527345343, ,0.1789975025587757,-0.22533389980412274,0.09995562561000002,1.6102090760176624,0.21711539812728486,-1.299308938504939, ,0.14100585669906504,0.10970744688840552,0.031542201029702975,0.013935987213266584,0.07882221528948333,-0.06859973852263421, ,1.507807970046997
0.014434374215179735,0.020875638616420184,-0.09007633729244967, ,0.015245885458655345,0.020316005914589264,-0.09069560579924865, ,0.001164144639964876, ,0.01792252852984791,-0.0035362658435901563,-0.030628587965287366,-0.01492113757485676,-0.03411271769575948,0.012653614523004066, ,0.03566276217242715, ,0.037232927636637964, ,0.0007099562441790643, ,0.1804570990720041,-0.22417548987298908,0.10027840182000002,1.6104187659611469,0.21807185362564296,-1.3000071850906731, ,0.14422027592472764,0.11558701773260752,0.031667617335984104,-0.012144054366974641,0.1147152283970526,-0.10110715832135769, ,1.5123679637908936
0.014434374215179735,0.020875638616420184,-0.09007633729244967, ,0.015310024779358973,0.020305124469360707,-0.09081409682773277, ,0.0012792730101286265, ,0.01792252852984791,-0.0035362658435901563,-0.030628587965287366,-0.01492113757485676,-0.03411271769575948,0.012653614523004066, ,0.03566276217242715, ,0.037232927636637964, ,0.0007158866271577056, ,0.1804570990720041,-0.22417548987298908,0.10027840182000002,1.6104187659611469,0.21807185362564296,-1.3000071850906731, ,0.14422027592472764,0.11558701773260752,0.031667617335984104,-0.012144054366974641,0.1147152283970526,-0.10110715832135769, ,1.5159869194030762
0.014434374215179735,0.020875638616420184,-0.09007633729244967, ,0.015374138244868335,0.020294152684667992,-0.09093236359356505, ,0.0013978781593985748, ,0.01792252852984791,-0.0035362658435901563,-0.030628587965287366,-0.01492113757485676,-0.03411271769575948,0.012653614523004066, ,0.03566276217242715, ,0.037232927636637964, ,0.0007229174676962713, ,0.1804570990720041,-0.22417548987298908,0.10027840182000002,1.6104187659611469,0.21807185362564296,-1.3000071850906731, ,0.14422027592472764,0.11558701773260752,0.031667617335984104,-0.012144054366974641,0.1147152283970526,-0.10110715832135769, ,1.5195608139038086
0.014614910663013363,0.020837693990993625,-0.0903822943966978, ,0.015438224690907115,0.020283093105377407,-0.09105040530277553, ,0.001196578586501082, ,0.01811997605407111,-0.0038899451658184975,-0.030682110764207016,-0.006628045175549844,-0.021404143170858852,0.014796690562713752, ,0.035844903773622455, ,0.022406274493229357, ,0.0007277507444187693, ,0.18191669558523255,-0.22299391174323271,0.10059469658,1.6104187659611469,0.21930158212353193,-1.301009946223941, ,0.14667224352159317,0.11876963899683453,0.03173070023904383,-0.012144054366974641,0.1301037821865736,-0.11255618364188211, ,1.5232388973236084
0.014614910663013363,0.020837693990993625,-0.0903822943966978, ,0.015502282961710035,0.02027194826469518,-0.0911682211669111, ,0.0013134605861833402, ,0.01811997605407111,-0.0038899451658184975,-0.030682110764207016,-0.006628045175549844,-0.021404143170858852,0.014796690562713752, ,0.035844903773622455, ,0.022406274493229357, ,0.0007336670054466943, ,0.18191669558523255,-0.22299391174323271,0.10059469658,1.6104187659611469,0.21930158212353193,-1.301009946223941, ,0.14667224352159317,0.11876963899683453,0.03173070023904383,-0.012144054366974641,0.1301037821865736,-0.11255618364188211, ,1.5269358158111572
0.014614910663013363,0.020837693990993625,-0.0903822943966978, ,0.015566311910004384,0.020260720684186884,-0.09128581040302576, ,0.0014333191212128578, ,0.01811997605407111,-0.0038899451658184975,-0.030682110764207016,-0.006628045175549844,-0.021404143170858852,0.014796690562713752, ,0.035844903773622455, ,0.022406274493229357, ,0.000740663526604356, ,0.18191669558523255,-0.22299391174323271,0.10059469658,1.6104187659611469,0.21930158212353193,-1.301009946223941, ,0.14667224352159317,0.11876963899683453,0.03173070023904383,-0.012144054366974641,0.1301037821865736,-0.11255618364188211, ,1.530561923980713
0.014792239941661303,0.020794862512572686,-0.09067340534614583, ,0.015630310396991427,0.020249412873797376,-0.09140317223367239, ,0.0012379164376756452, ,0.018881582877634865,-0.004639887285270004,-0.030534642095766187,-0.029119558638144874,-0.04494558093285108,0.009805045617365218, ,0.03619954549302437, ,0.05355396714349219, ,0.0007455868227535768, ,0.18336084663271254,-0.22180461088060213,0.10089543586000001,1.6104187659611469,0.22053131062142087,-1.3020127073572088, ,0.15232253861712805,0.12569131332247785,0.031542201029702975,-0.012144054366974641,0.11186610058150635,-0.09683582923576048, ,1.534188985824585
0.014792239941661303,0.020794862512572686,-0.09067340534614583, ,0.015694277292327898,0.020238027331869753,-0.09152030588689247, ,0.0013568261960851978, ,0.018881582877634865,-0.004639887285270004,-0.030534642095766187,-0.029119558638144874,-0.04494558093285108,0.009805045617365218, ,0.03619954549302437, ,0.05355396714349219, ,0.0007515793656293769, ,0.18336084663271254,-0.22180461088060213,0.10089543586000001,1.6104187659611469,0.22053131062142087,-1.3020127073572088, ,0.15232253861712805,0.12569131332247785,0.031542201029702975,-0.012144054366974641,0.11186610058150635,-0.09683582923576048, ,1.5377609729766846
0.014792239941661303,0.020794862512572686,-0.09067340534614583, ,0.01575821147410736,0.02022656654516559,-0.09163721059620805, ,0.0014781684166950814, ,0.018881582877634865,-0.004639887285270004,-0.030534642095766187,-0.029119558638144874,-0.04494558093285108,0.009805045617365218, ,0.03619954549302437, ,0.05355396714349219, ,0.0007586336282610828, ,0.18336084663271254,-0.22180461088060213,0.10089543586000001,1.6104187659611469,0.22053131062142087,-1.3020127073572088, ,0.15232253861712805,0.12569131332247785,0.031542201029702975,-0.012144054366974641,0.11186610058150635,-0.09683582923576048, ,1.5413010120391846
0.014993401130640169,0.020747730930054373,-0.090995155463064, ,0.015822111828841908,0.020215032988884028,-0.09175388560061175, ,0.0012434628822222103, ,0.019988515164026915,-0.004349878608248349,-0.03194476782259634,-0.029696723823730932,-0.048836622201244,0.010561648378794605, ,0.03793323573871094, ,0.05715660773730165, ,0.000763295448010709, ,0.18497489780342546,-0.2204994690248582,0.10122858239000002,1.6104187659611469,0.22162440261954441,-1.3030674080670615, ,0.16057012108032281,0.1255250549715222,0.033185024,-0.012144054366974641,0.11629812744923991,-0.09609450822644286, ,1.5447838306427002
0.014993401130640169,0.020747730930054373,-0.090995155463064, ,0.015885977251443386,0.020203429126681376,-0.09187033014455857, ,0.0013634101758870467, ,0.019988515164026915,-0.004349878608248349,-0.03194476782259634,-0.029696723823730932,-0.048836622201244,0.010561648378794605, ,0.03793323573871094, ,0.05715660773730165, ,0.0007690108263714361, ,0.18497489780342546,-0.2204994690248582,0.10122858239000002,1.6104187659611469,0.22162440261954441,-1.3030674080670615, ,0.16057012108032281,0.1255250549715222,0.033185024,-0.012144054366974641,0.11629812744923991,-0.09609450822644286, ,1.548367977142334
0.015181545151473356,0.020706642058061824,-0.09129574873466634, ,0.015949806645204945,0.020191757410690795,-0.09198654347795568, ,0.0011543523293194625, ,0.020512321305928154,-0.004764560108168963,-0.03213393868829823,-0.034979017613905164,-0.05419344110995037,0.009233322378656164, ,0.038419348953428384, ,0.06450136797008248, ,0.0007726461235690589, ,0.18648083071389923,-0.21931789089510184,0.10154098828000001,1.6104187659611469,0.22271749461766793,-1.3039587512966326, ,0.1644661032209199,0.12964063054435898,0.033393734842767295,-0.012144054366974641,0.1147705887913958,-0.09484890287674198, ,1.5544099807739258
0.015181545151473356,0.020706642058061824,-0.09129574873466634, ,0.016013598921782533,0.020180020281541724,-0.09210252485615375, ,0.0012730010535711171, ,0.020512321305928154,-0.004764560108168963,-0.03213393868829823,-0.034979017613905164,-0.05419344110995037,0.009233322378656164, ,0.038419348953428384, ,0.06450136797008248, ,0.0007773223378681436, ,0.18648083071389923,-0.21931789089510184,0.10154098828000001,1.6104187659611469,0.22271749461766793,-1.3039587512966326, ,0.1644661032209199,0.12964063054435898,0.033393734842767295,-0.012144054366974641,0.1147705887913958,-0.09484890287674198, ,1.55802583694458
0.015181545151473356,0.020706642058061824,-0.09129574873466634, ,0.016077353001176332,0.02016822016838006,-0.09221827353993849, ,0.0013940666595325946, ,0.020512321305928154,-0.004764560108168963,-0.03213393868829823,-0.034979017613905164,-0.05419344110995037,0.009233322378656164, ,0.038419348953428384, ,0.06450136797008248, ,0.0007830329334391107, ,0.18648083071389923,-0.21931789089510184,0.10154098828000001,1.6104187659611469,0.22271749461766793,-1.3039587512966326, ,0.1644661032209199,0.12964063054435898,0.033393734842767295,-0.012144054366974641,0.1147705887913958,-0.09484890287674198, ,1.5621728897094727
0.015395896921453447,0.02065399681434553,-0.09163163174407163, ,0.0161410678117122,0.020156359488886732,-0.09233378879552061, ,0.0011383967183184998, ,0.019660711503754078,-0.004969208528838099,-0.03000301165353052,-0.04468514872034021,-0.06295550602635194,0.006513905665267357, ,0.03621349635866183, ,0.07720190375239015, ,0.0007862931516490134, ,0.18819527741197709,-0.21793552171061567,0.10188969029000002,1.6104187659611469,0.2239472231155569,-1.305043191170041, ,0.1568544488569765,0.12569131332247785,0.031171842504892373,-0.012144054366974641,0.0980828335640464,-0.08121885042923882, ,1.5660529136657715
0.015395896921453447,0.02065399681434553,-0.09163163174407163, ,0.016204742290023177,0.020144440649297473,-0.09244906989452645, ,0.0012578089860603551, ,0.019660711503754078,-0.004969208528838099,-0.03000301165353052,-0.04468514872034021,-0.06295550602635194,0.006513905665267357, ,0.03621349635866183, ,0.07720190375239015, ,0.000790579659234571, ,0.18819527741197709,-0.21793552171061567,0.10188969029000002,1.6104187659611469,0.2239472231155569,-1.305043191170041, ,0.1568544488569765,0.12569131332247785,0.031171842504892373,-0.012144054366974641,0.0980828335640464,-0.08121885042923882, ,1.5696358680725098
0.015593419489098991,0.020601416076734012,-0.09193028769314747, ,0.016268375381030913,0.020132466044423418,-0.09256411611399082, ,0.0010378911580346457, ,0.01948037132038844,-0.005605287534811385,-0.029481618356633762,-0.060000269114970986,-0.07335297555475866,0.0018450665413914922, ,0.03577806501271875, ,0.0947663919580156, ,0.0007928076907552925, ,0.18975526945257043,-0.2166535480534944,0.1021995036,1.6104187659611469,0.22476704211414955,-1.30579337733236, ,0.15355492161564852,0.13017413108157858,0.030514964597701155,-0.011203307303849752,0.08392179535454306,-0.07009122910769355, ,1.5732338428497314
0.015593419489098991,0.020601416076734012,-0.09193028769314747, ,0.016331966037927134,0.020120438057669027,-0.09267892673634476, ,0.0011563958131232525, ,0.01948037132038844,-0.005605287534811385,-0.029481618356633762,-0.060000269114970986,-0.07335297555475866,0.0018450665413914922, ,0.03577806501271875, ,0.0947663919580156, ,0.0007960540132764349, ,0.18975526945257043,-0.2166535480534944,0.1021995036,1.6104187659611469,0.22476704211414955,-1.30579337733236, ,0.15355492161564852,0.13017413108157858,0.030514964597701155,-0.011203307303849752,0.08392179535454306,-0.07009122910769355, ,1.5767738819122314
0.015593419489098991,0.020601416076734012,-0.09193028769314747, ,0.016395513222155125,0.0201083590610534,-0.09279350104940946, ,0.0012773397651951847, ,0.01948037132038844,-0.005605287534811385,-0.029481618356633762,-0.060000269114970986,-0.07335297555475866,0.0018450665413914922, ,0.03577806501271875, ,0.0947663919580156, ,0.0008003131792226186, ,0.18975526945257043,-0.2166535480534944,0.1021995036,1.6104187659611469,0.22476704211414955,-1.30579337733236, ,0.15355492161564852,0.13017413108157858,0.030514964597701155,-0.011203307303849752,0.08392179535454306,-0.07009122910769355, ,1.5803258419036865
0.01578977029993562,0.020548261940170197,-0.0922353445970522, ,0.016459015903391182,0.020096231415227945,-0.0929078383463848, ,0.0010509372560317735, ,0.019501982201827903,-0.004972742307037339,-0.03091464330198041,-0.03158424621362126,-0.04573430049988108,-0.011411622782986117, ,0.03688862489089684, ,0.0555802358210547, ,0.0008025116360367339, ,0.1912920932945411,-0.2153638516634989,0.10251579836000001,1.6102090760176624,0.22572349761250762,-1.3067366601385162, ,0.1520784319847288,0.12652925541129437,0.03217941721212122,0.007254080130024035,0.10613905545729355,-0.09156091477516551, ,1.583894968032837
0.01578977029993562,0.020548261940170197,-0.0922353445970522, ,0.016522473059526026,0.020084057469497846,-0.09302193792584217, ,0.0011709262100578666, ,0.019501982201827903,-0.004972742307037339,-0.03091464330198041,-0.03158424621362126,-0.04573430049988108,-0.011411622782986117, ,0.03688862489089684, ,0.0555802358210547, ,0.0008057152410282219, ,0.1912920932945411,-0.2153638516634989,0.10251579836000001,1.6102090760176624,0.22572349761250762,-1.3067366601385162, ,0.1520784319847288,0.12652925541129437,0.03217941721212122,0.007254080130024035,0.10613905545729355,-0.09156091477516551, ,1.587601900100708
0.01578977029993562,0.020548261940170197,-0.0922353445970522, ,0.016585883676646374,0.020071839561840207,-0.09313579909171363, ,0.0012929010356973875, ,0.019501982201827903,-0.004972742307037339,-0.03091464330198041,-0.03158424621362126,-0.04573430049988108,-0.011411622782986117, ,0.03688862489089684, ,0.0555802358210547, ,0.0008099151185684734, ,0.1912920932945411,-0.2153638516634989,0.10251579836000001,1.6102090760176624,0.22572349761250762,-1.3067366601385162, ,0.1520784319847288,0.12652925541129437,0.03217941721212122,0.007254080130024035,0.10613905545729355,-0.09156091477516551, ,1.5912690162658691
0.015982312890802815,0.020500033143122032,-0.09254065835922702, ,0.016649246749016303,0.02005958001892398,-0.09324942115328372, ,0.0010682436164501097, ,0.01934898541320587,-0.004848532304737332,-0.030786278641463837,-0.009968206020660536,-0.032168555577648715,-0.008972846093301024, ,0.036683599259347326, ,0.03367719470856103, ,0.0008121230544478037, ,0.19279030347214066,-0.21412821440362298,0.10283338941,1.6102090760176624,0.22681658961063117,-1.3078730395885092, ,0.15063006596582662,0.124210656490145,0.03204992257545272,0.00696045198554352,0.11864268048720064,-0.11095893484087553, ,1.5948679447174072
0.015982312890802815,0.020500033143122032,-0.09254065835922702, ,0.01671256127905875,0.020047281156130217,-0.09336280342518034, ,0.001189188622442554, ,0.01934898541320587,-0.004848532304737332,-0.030786278641463837,-0.009968206020660536,-0.032168555577648715,-0.008972846093301024, ,0.036683599259347326, ,0.03367719470856103, ,0.0008153185253630134, ,0.19279030347214066,-0.21412821440362298,0.10283338941,1.6102090760176624,0.22681658961063117,-1.3078730395885092, ,0.15063006596582662,0.124210656490145,0.03204992257545272,0.00696045198554352,0.11864268048720064,-0.11095893484087553, ,1.598464012145996
0.016190098921369533,0.02044956335296666,-0.09287548420366311, ,0.016775826277336953,0.02003494527757068,-0.09347594522736502, ,0.0009357019423720349, ,0.019397968617758544,-0.004557492133622517,-0.03167413111363415,-0.00601554437832361,-0.04587635395147157,-0.012278114535878635, ,0.03742061601373317, ,0.046268723190334336, ,0.0008163301507160304, ,0.19438890917710513,-0.21280762708213058,0.10318209142000001,1.6102090760176624,0.2280463181085201,-1.309202515682339, ,0.1464458974667759,0.12228987314235924,0.03297890583850932,0.006318115479999624,0.10041978752361416,-0.11307194721981134, ,1.602834939956665
0.016190098921369533,0.02044956335296666,-0.09287548420366311, ,0.016839040762535923,0.02002257467610774,-0.09358884588512471, ,0.0010546704376059297, ,0.019397968617758544,-0.004557492133622517,-0.03167413111363415,-0.00601554437832361,-0.04587635395147157,-0.012278114535878635, ,0.03742061601373317, ,0.046268723190334336, ,0.0008183163197734463, ,0.19438890917710513,-0.21280762708213058,0.10318209142000001,1.6102090760176624,0.2280463181085201,-1.309202515682339, ,0.1464458974667759,0.12228987314235924,0.03297890583850932,0.006318115479999624,0.10041978752361416,-0.11307194721981134, ,1.6065418720245361
0.016190098921369533,0.02044956335296666,-0.09287548420366311, ,0.016902203761444013,0.020010171633374194,-0.09370150472906193, ,0.0011757841191664675, ,0.019397968617758544,-0.004557492133622517,-0.03167413111363415,-0.00601554437832361,-0.04587635395147157,-0.012278114535878635, ,0.03742061601373317, ,0.046268723190334336, ,0.0008212705991072728, ,0.19438890917710513,-0.21280762708213058,0.10318209142000001,1.6102090760176624,0.2280463181085201,-1.309202515682339, ,0.1464458974667759,0.12228987314235924,0.03297890583850932,0.006318115479999624,0.10041978752361416,-0.11307194721981134, ,1.610198974609375
0.016378698091557117,0.020406425684729713,-0.0931876948936825, ,0.01696531430893406,0.019997738419792573,-0.0938139210950853, ,0.0009504226019696727, ,0.018664882273855186,-0.004320502192849218,-0.031687560168839043,0.0057467551830223396,-0.024175862946233258,-0.008560624722153489, ,0.037028989169960926, ,0.02484885503004735, ,0.0008223292220815549, ,0.19580989202596244,-0.21162604895237425,0.10350746021000001,1.6102090760176624,0.22913941010664365,-1.3102572163921917, ,0.13914507559893075,0.11891847313091576,0.03297890583850932,0.005827603264990002,0.11516197909721973,-0.12162296957228612, ,1.6137609481811523
0.016378698091557117,0.020406425684729713,-0.0931876948936825, ,0.01702837144794529,0.019985277294594497,-0.09392609432440155, ,0.0010698949274580032, ,0.018664882273855186,-0.004320502192849218,-0.031687560168839043,0.0057467551830223396,-0.024175862946233258,-0.008560624722153489, ,0.037028989169960926, ,0.02484885503004735, ,0.0008243419513935585, ,0.19580989202596244,-0.21162604895237425,0.10350746021000001,1.6102090760176624,0.22913941010664365,-1.3102572163921917, ,0.13914507559893075,0.11891847313091576,0.03297890583850932,0.005827603264990002,0.11516197909721973,-0.12162296957228612, ,1.6173689365386963
0.016378698091557117,0.020406425684729713,-0.0931876948936825, ,0.017091374229464395,0.01997279050584099,-0.09403802376350591, ,0.0011912203544128335, ,0.018664882273855186,-0.004320502192849218,-0.031687560168839043,0.0057467551830223396,-0.024175862946233258,-0.008560624722153489, ,0.037028989169960926, ,0.02484885503004735, ,0.000827300648192101, ,0.19580989202596244,-0.21162604895237425,0.10350746021000001,1.6102090760176624,0.22913941010664365,-1.3102572163921917, ,0.13914507559893075,0.11891847313091576,0.03297890583850932,0.005827603264990002,0.11516197909721973,-0.12162296957228612, ,1.6211559772491455
0.01655393457522367,0.020364954391195875,-0.09347922481893385, ,0.017154321712507244,0.019960280290441227,-0.09414970876417231, ,0.0009868001637918765, ,0.01835117852194392,-0.004392175206108925,-0.029836729533425355,-0.04412671393204677,-0.07572405843146429,-0.013646420366366985, ,0.035302795716999395, ,0.08764289053802087, ,0.0008285766443168992, ,0.19709958841595793,-0.2105139754184859,0.10381079207,1.6104187659611469,0.22995922910523628,-1.3110074025545106, ,0.133469678703897,0.11460983280008549,0.031050314853801175,0.0011559200333472995,0.058156502134545575,-0.06820905586625067, ,1.6251368522644043
0.01655393457522367,0.020364954391195875,-0.09347922481893385, ,0.017217212964100215,0.0199477488741723,-0.09426114868344508, ,0.0011069794914440613, ,0.01835117852194392,-0.004392175206108925,-0.029836729533425355,-0.04412671393204677,-0.07572405843146429,-0.013646420366366985, ,0.035302795716999395, ,0.08764289053802087, ,0.0008307861907226704, ,0.19709958841595793,-0.2105139754184859,0.10381079207,1.6104187659611469,0.22995922910523628,-1.3110074025545106, ,0.133469678703897,0.11460983280008549,0.031050314853801175,0.0011559200333472995,0.058156502134545575,-0.06820905586625067, ,1.628748893737793
0.01655393457522367,0.020364954391195875,-0.09347922481893385, ,0.017280047059261665,0.0199351984716991,-0.09437234288362961, ,0.0012286534773093048, ,0.01835117852194392,-0.004392175206108925,-0.029836729533425355,-0.04412671393204677,-0.07572405843146429,-0.013646420366366985, ,0.035302795716999395, ,0.08764289053802087, ,0.0008339190040028801, ,0.19709958841595793,-0.2105139754184859,0.10381079207,1.6104187659611469,0.22995922910523628,-1.3110074025545106, ,0.133469678703897,0.11460983280008549,0.031050314853801175,0.0011559200333472995,0.058156502134545575,-0.06820905586625067, ,1.6323139667510986
0.016742530796292097,0.02031834014773477,-0.09378965715618037, ,0.017342823080983408,0.019922631286593665,-0.094483290732283, ,0.0009990314648410316, ,0.017070054601399584,-0.004437464103946647,-0.028483658198652503,-0.029706208750125827,-0.03675947691207313,-0.0069584003228029085, ,0.03350218852771028, ,0.04726202738059642, ,0.0008352089451031782, ,0.19846651213469568,-0.2093169518229811,0.10413356828,1.6104187659611469,0.23064241160406349,-1.3117278495532738, ,0.12502890850918416,0.1111205404665934,0.02960745635687733,0.0011694269232145485,0.08926839994113758,-0.07924839512290309, ,1.6365878582000732
0.016742530796292097,0.02031834014773477,-0.09378965715618037, ,0.01740554012021231,0.0199100495113546,-0.09459399160220489, ,0.0011194804636180217, ,0.017070054601399584,-0.004437464103946647,-0.028483658198652503,-0.029706208750125827,-0.03675947691207313,-0.0069584003228029085, ,0.03350218852771028, ,0.04726202738059642, ,0.0008374126002854637, ,0.19846651213469568,-0.2093169518229811,0.10413356828,1.6104187659611469,0.23064241160406349,-1.3117278495532738, ,0.12502890850918416,0.1111205404665934,0.02960745635687733,0.0011694269232145485,0.08926839994113758,-0.07924839512290309, ,1.6402699947357178
0.016905468857611884,0.0202757380989669,-0.09406743140852884, ,0.017468197275831404,0.019897455327426764,-0.09470444487142889, ,0.0009303479348242965, ,0.01659596034704586,-0.0041206577544732345,-0.027874085451564296,0.022601059815528426,0.010087635337954802,0.002133862528732054, ,0.03270122872204235, ,0.02474977706232025, ,0.0008381274874742241, ,0.19967898119594893,-0.2082434919534639,0.10442264095,1.6104187659611469,0.23187214010195245,-1.3129756469069636, ,0.12502890850918416,0.10603010229996734,0.029120313564899455,0.0011646631594472855,0.13669381837186867,-0.12667742662163162, ,1.6439318656921387
0.016905468857611884,0.0202757380989669,-0.09406743140852884, ,0.01753079365464181,0.01988485090522117,-0.09481464992321287, ,0.001049837801139551, ,0.01659596034704586,-0.0041206577544732345,-0.027874085451564296,0.022601059815528426,0.010087635337954802,0.002133862528732054, ,0.03270122872204235, ,0.02474977706232025, ,0.000839743596738845, ,0.19967898119594893,-0.2082434919534639,0.10442264095,1.6104187659611469,0.23187214010195245,-1.3129756469069636, ,0.12502890850918416,0.10603010229996734,0.029120313564899455,0.0011646631594472855,0.13669381837186867,-0.12667742662163162, ,1.6475579738616943
0.016905468857611884,0.0202757380989669,-0.09406743140852884, ,0.017593328371343767,0.019872238404133668,-0.0949246061460301, ,0.0011707737804427978, ,0.01659596034704586,-0.0041206577544732345,-0.027874085451564296,0.022601059815528426,0.010087635337954802,0.002133862528732054, ,0.03270122872204235, ,0.02474977706232025, ,0.0008422514011608446, ,0.19967898119594893,-0.2082434919534639,0.10442264095,1.6104187659611469,0.23187214010195245,-1.3129756469069636, ,0.12502890850918416,0.10603010229996734,0.029120313564899455,0.0011646631594472855,0.13669381837186867,-0.12667742662163162, ,1.651216983795166
0.01706506124305336,0.020240590841469844,-0.09433991255252383, ,0.017655800548518362,0.019859619972565506,-0.09503431293355971, ,0.000988080775624025, ,0.01693668089799773,-0.0035306011846170547,-0.029560891556078262,0.016339905651658406,0.001317381887493415,0.000542091626358187, ,0.03425146148933852, ,0.016392237151403578, ,0.0008433478626229737, ,0.20086055932570526,-0.2072627048784374,0.10470782475000001,1.6104187659611469,0.23310186859984142,-1.3140600867803718, ,0.12324278124476726,0.10314884952007694,0.03092973110679612,0.00115049148055225,0.1259618889319898,-0.11754756854094023, ,1.6548669338226318
0.01706506124305336,0.020240590841469844,-0.09433991255252383, ,0.017718209316608932,0.019846997747942373,-0.09514376968467844, ,0.0011080181488485263, ,0.01693668089799773,-0.0035306011846170547,-0.029560891556078262,0.016339905651658406,0.001317381887493415,0.000542091626358187, ,0.03425146148933852, ,0.016392237151403578, ,0.0008453230140127167, ,0.20086055932570526,-0.2072627048784374,0.10470782475000001,1.6104187659611469,0.23310186859984142,-1.3140600867803718, ,0.12324278124476726,0.10314884952007694,0.03092973110679612,0.00115049148055225,0.1259618889319898,-0.11754756854094023, ,1.6585078239440918
0.01706506124305336,0.020240590841469844,-0.09433991255252383, ,0.017780553813902346,0.019834373856733697,-0.09525297580345037, ,0.0012290754077031846, ,0.01693668089799773,-0.0035306011846170547,-0.029560891556078262,0.016339905651658406,0.001317381887493415,0.000542091626358187, ,0.03425146148933852, ,0.016392237151403578, ,0.0008481656243363498, ,0.20086055932570526,-0.2072627048784374,0.10470782475000001,1.6104187659611469,0.23310186859984142,-1.3140600867803718, ,0.12324278124476726,0.10314884952007694,0.03092973110679612,0.00115049148055225,0.1259618889319898,-0.11754756854094023, ,1.6622028350830078
0.017250793712784634,0.020202976343559227,-0.09466984214808784, ,0.01784283318651087,0.019821750414473035,-0.09536193069911895, ,0.000987335054541275, ,0.016613777763862195,-0.0031584267095053427,-0.03000667836425127,-0.02660423757125324,-0.017037635922621103,-0.00272906085802355, ,0.03444407085874061, ,0.03159180538557509, ,0.0008491889289702096, ,0.20218114664719766,-0.20613518587880061,0.10505263789000001,1.6104187659611469,0.23433159709773038,-1.3152262053939208, ,0.11572797751033022,0.09947268507177229,0.03135592818897638,0.0011267784401208063,0.09995718360116525,-0.07089446108025615, ,1.6659510135650635
0.017250793712784634,0.020202976343559227,-0.09466984214808784, ,0.0179050465883532,0.019809129525776795,-0.09547063378609673, ,0.0011065393750662688, ,0.016613777763862195,-0.0031584267095053427,-0.03000667836425127,-0.02660423757125324,-0.017037635922621103,-0.00272906085802355, ,0.03444407085874061, ,0.03159180538557509, ,0.0008510673993796699, ,0.20218114664719766,-0.20613518587880061,0.10505263789000001,1.6104187659611469,0.23433159709773038,-1.3152262053939208, ,0.11572797751033022,0.09947268507177229,0.03135592818897638,0.0011267784401208063,0.09995718360116525,-0.07089446108025615, ,1.6697568893432617
0.01741224415243391,0.020172591486839628,-0.09496362611739055, ,0.01796719318113615,0.019796513284364197,-0.09557908448395716, ,0.0009100506798039058, ,0.015876514118333938,-0.002951836781531909,-0.029550610854254842,-0.013729453699470755,-0.0009976016304114373,-0.00043503474725292436, ,0.03367514874197389, ,0.013764831063582955, ,0.0008514948144552079, ,0.20330866564683445,-0.20516984426952256,0.10535985862000001,1.6104187659611469,0.2354246890958539,-1.3161992273636327, ,0.10932827368487416,0.0956622394742649,0.030869789767441865,0.0011019285101732724,0.1097061269090983,-0.08005125475838566, ,1.673360824584961
0.01741224415243391,0.020172591486839628,-0.09496362611739055, ,0.018029272134336007,0.019783903773076872,-0.09568728221742506, ,0.0010273654755720827, ,0.015876514118333938,-0.002951836781531909,-0.029550610854254842,-0.013729453699470755,-0.0009976016304114373,-0.00043503474725292436, ,0.03367514874197389, ,0.013764831063582955, ,0.0008527600710100055, ,0.20330866564683445,-0.20516984426952256,0.10535985862000001,1.6104187659611469,0.2354246890958539,-1.3161992273636327, ,0.10932827368487416,0.0956622394742649,0.030869789767441865,0.0011019285101732724,0.1097061269090983,-0.08005125475838566, ,1.6771109104156494
0.01741224415243391,0.020172591486839628,-0.09496362611739055, ,0.01809128262518016,0.01977130306389802,-0.09579522641636723, ,0.0011461608539444306, ,0.015876514118333938,-0.002951836781531909,-0.029550610854254842,-0.013729453699470755,-0.0009976016304114373,-0.00043503474725292436, ,0.03367514874197389, ,0.013764831063582955, ,0.0008548557908881085, ,0.20330866564683445,-0.20516984426952256,0.10535985862000001,1.6104187659611469,0.2354246890958539,-1.3161992273636327, ,0.10932827368487416,0.0956622394742649,0.030869789767441865,0.0011019285101732724,0.1097061269090983,-0.08005125475838566, ,1.6807148456573486
0.017574528267194627,0.02014366481529443,-0.0952688388979605, ,0.018153223838628302,0.01975871321797283,-0.09590291651578402, ,0.0009408138615593088, ,0.015777465820368295,-0.0027881193732163566,-0.029834189418195028,-0.00934743348658226,-0.00241709251497117,-0.00016593090577837652, ,0.03386415354903964, ,0.009653663199150349, ,0.0008554654225949966, ,0.20441301644784854,-0.20419677992737026,0.10567874596000001,1.6106284559046316,0.23651778109397742,-1.3171722493333444, ,0.10662577703198964,0.09395736787967403,0.031171842504892373,0.0,0.10568991164046897,-0.08293493217104111, ,1.6843109130859375
0.017574528267194627,0.02014366481529443,-0.0952688388979605, ,0.01821509496735416,0.01974613628562686,-0.09601035195579918, ,0.0010574479865214177, ,0.015777465820368295,-0.0027881193732163566,-0.029834189418195028,-0.00934743348658226,-0.00241709251497117,-0.00016593090577837652, ,0.03386415354903964, ,0.009653663199150349, ,0.0008568878350170136, ,0.20441301644784854,-0.20419677992737026,0.10567874596000001,1.6106284559046316,0.23651778109397742,-1.3171722493333444, ,0.10662577703198964,0.09395736787967403,0.031171842504892373,0.0,0.10568991164046897,-0.08293493217104111, ,1.6878619194030762
0.017574528267194627,0.02014366481529443,-0.0952688388979605, ,0.01827689521172673,0.019733574306386652,-0.09611753218165184, ,0.0011754887664501014, ,0.015777465820368295,-0.0027881193732163566,-0.029834189418195028,-0.00934743348658226,-0.00241709251497117,-0.00016593090577837652, ,0.03386415354903964, ,0.009653663199150349, ,0.0008591158135585037, ,0.20441301644784854,-0.20419677992737026,0.10567874596000001,1.6106284559046316,0.23651778109397742,-1.3171722493333444, ,0.10662577703198964,0.09395736787967403,0.031171842504892373,0.0,0.10568991164046897,-0.08293493217104111, ,1.6913998126983643
0.017720517247960574,0.020119366205771722,-0.09554519774694036, ,0.018338623779791882,0.01972102930899872,-0.09622445664368676, ,0.0010010597468844765, ,0.015590446882693709,-0.002579048036195847,-0.02998563001709429,-0.002296949956494306,0.004390373616420826,0.006286599308373298, ,0.0338947124238747, ,0.004952486015841611, ,0.0008601015353177119, ,0.20539380352287506,-0.20333955657833133,0.10596781863000002,1.610838145848116,0.23747423659233552,-1.3179521746592195, ,0.10428235336095688,0.09151103332542987,0.03135592818897638,-0.005393995039746207,0.11130941339909578,-0.08864551455388313, ,1.6951098442077637
0.017720517247960574,0.020119366205771722,-0.09554519774694036, ,0.018400279887253727,0.01970850331144922,-0.09633112479734506, ,0.0011173928996855537, ,0.015590446882693709,-0.002579048036195847,-0.02998563001709429,-0.002296949956494306,0.004390373616420826,0.006286599308373298, ,0.0338947124238747, ,0.004952486015841611, ,0.0008618759585202488, ,0.20539380352287506,-0.20333955657833133,0.10596781863000002,1.610838145848116,0.23747423659233552,-1.3179521746592195, ,0.10428235336095688,0.09151103332542987,0.03135592818897638,-0.005393995039746207,0.11130941339909578,-0.08864551455388313, ,1.698896884918213
0.017720517247960574,0.020119366205771722,-0.09554519774694036, ,0.018461862757456197,0.01969599832098361,-0.09643753610315564, ,0.0012349499067947187, ,0.015590446882693709,-0.002579048036195847,-0.02998563001709429,-0.002296949956494306,0.004390373616420826,0.006286599308373298, ,0.0338947124238747, ,0.004952486015841611, ,0.0008644312595358273, ,0.20539380352287506,-0.20333955657833133,0.10596781863000002,1.610838145848116,0.23747423659233552,-1.3179521746592195, ,0.10428235336095688,0.09151103332542987,0.03135592818897638,-0.005393995039746207,0.11130941339909578,-0.08864551455388313, ,1.703131914138794
0.017754991037976633,0.020113957712765095,-0.09561207110008804, ,0.018523371621364308,0.019683516334126138,-0.09654369002672532, ,0.0012820305479358043, ,0.015619779563842874,-0.002415161268802965,-0.030066757122850424,0.00065282117365576,0.0058585394615646175,0.00683795861385244, ,0.03396793195738955, ,0.005892714869667158, ,0.0008672720710215414, ,0.20562548550910179,-0.2031387655236015,0.10603781829000002,1.610838145848116,0.23774750959186638,-1.3181750104666123, ,0.10439707542186004,0.08994970763836094,0.031479864664031625,-0.005393995039746207,0.11290670714277735,-0.0900688289491102, ,1.7072699069976807
0.017754991037976633,0.020113957712765095,-0.09561207110008804, ,0.018584805717545828,0.019671059336699298,-0.0966495860387305, ,0.001400424443465805, ,0.015619779563842874,-0.002415161268802965,-0.030066757122850424,0.00065282117365576,0.0058585394615646175,0.00683795861385244, ,0.03396793195738955, ,0.005892714869667158, ,0.0008708744519164352, ,0.20562548550910179,-0.2031387655236015,0.10603781829000002,1.610838145848116,0.23774750959186638,-1.3181750104666123, ,0.10439707542186004,0.08994970763836094,0.031479864664031625,-0.005393995039746207,0.11290670714277735,-0.0900688289491102, ,1.7109029293060303
0.018030996004655023,0.020072434651106884,-0.0961414792791229, ,0.018646164292152635,0.019658629303843635,-0.09675522361490724, ,0.0009624702577606066, ,0.014625208687349246,-0.002889049824733825,-0.026569009742855556,0.0006284634642144188,-0.0002594811620427261,0.005088056347077367, ,0.030465646501498436, ,0.0006701172576986171, ,0.0008714891888684094, ,0.20745577320029301,-0.20157105075013393,0.10659263041000001,1.610838145848116,0.23966042058858256,-1.3196531823782216, ,0.09957706354509001,0.08634844545811718,0.027847572587412592,-0.005393995039746207,0.10172200319020945,-0.08647832710358597, ,1.7144949436187744
0.018030996004655023,0.020072434651106884,-0.0961414792791229, ,0.01870744659890211,0.019646228200037107,-0.09686060223604293, ,0.0010753488608633676, ,0.014625208687349246,-0.002889049824733825,-0.026569009742855556,0.0006284634642144188,-0.0002594811620427261,0.005088056347077367, ,0.030465646501498436, ,0.0006701172576986171, ,0.0008728482533483758, ,0.20745577320029301,-0.20157105075013393,0.10659263041000001,1.610838145848116,0.23966042058858256,-1.3196531823782216, ,0.09957706354509001,0.08634844545811718,0.027847572587412592,-0.005393995039746207,0.10172200319020945,-0.08647832710358597, ,1.7180728912353516
0.018030996004655023,0.020072434651106884,-0.0961414792791229, ,0.018768651899058762,0.019633857979114638,-0.09696572138796655, ,0.0011898994788449217, ,0.014625208687349246,-0.002889049824733825,-0.026569009742855556,0.0006284634642144188,-0.0002594811620427261,0.005088056347077367, ,0.030465646501498436, ,0.0006701172576986171, ,0.0008749479303384192, ,0.20745577320029301,-0.20157105075013393,0.10659263041000001,1.610838145848116,0.23966042058858256,-1.3196531823782216, ,0.09957706354509001,0.08634844545811718,0.027847572587412592,-0.005393995039746207,0.10172200319020945,-0.08647832710358597, ,1.7216858863830566
0.018173023635792727,0.020044032998450804,-0.09639977745062889, ,0.018829779461415584,0.0196215205842881,-0.09707058056153961, ,0.0010294764534551821, ,0.01471969448724836,-0.0026173511657940135,-0.02758149723191218,0.02196686049824433,0.024371562435857256,0.009577210583578669, ,0.03137290108480554, ,0.03281006025055495, ,0.0008759645653589242, ,0.2084288375424453,-0.20072927286684344,0.10686355502000001,1.610838145848116,0.24075351258670605,-1.3205445256077932, ,0.10010225902792276,0.08533897622164638,0.028961475490909095,-0.005393995039746207,0.12719373116846647,-0.10688633320820827, ,1.7252860069274902
0.018173023635792727,0.020044032998450804,-0.09639977745062889, ,0.018890828562275426,0.01960921794816502,-0.09717517925264739, ,0.0011426092923704943, ,0.01471969448724836,-0.0026173511657940135,-0.02758149723191218,0.02196686049824433,0.024371562435857256,0.009577210583578669, ,0.03137290108480554, ,0.03281006025055495, ,0.000877707341352464, ,0.2084288375424453,-0.20072927286684344,0.10686355502000001,1.610838145848116,0.24075351258670605,-1.3205445256077932, ,0.10010225902792276,0.08533897622164638,0.028961475490909095,-0.005393995039746207,0.12719373116846647,-0.10688633320820827, ,1.728837013244629
0.018173023635792727,0.020044032998450804,-0.09639977745062889, ,0.0189517984854327,0.019596951992768848,-0.09727951696218913, ,0.001257105126977695, ,0.01471969448724836,-0.0026173511657940135,-0.02758149723191218,0.02196686049824433,0.024371562435857256,0.009577210583578669, ,0.03137290108480554, ,0.03281006025055495, ,0.0008801709633370434, ,0.2084288375424453,-0.20072927286684344,0.10686355502000001,1.610838145848116,0.24075351258670605,-1.3205445256077932, ,0.10010225902792276,0.08533897622164638,0.028961475490909095,-0.005393995039746207,0.12719373116846647,-0.10688633320820827, ,1.7324068546295166
0.01830796243367961,0.02002274279236978,-0.0966534542315954, ,0.019012688522154503,0.019584724629558466,-0.09738359319606966, ,0.0011052609095472804, ,0.014431511358522707,-0.0022498765971215597,-0.02778523839406242,0.038761292815895916,0.043141636803174795,0.01302584115936353, ,0.03139028412436443, ,0.057996742032839714, ,0.0008816231565383996, ,0.20934784275447801,-0.19997244504516945,0.10713059076,1.610838145848116,0.24198324108459504,-1.321547286741061, ,0.09773114475640657,0.08166690323448432,0.029227177100917434,-0.005393995039746207,0.1437801472230262,-0.12012661105690026, ,1.7362618446350098
0.01830796243367961,0.02002274279236978,-0.0966534542315954, ,0.019073497971162486,0.019572537759447704,-0.09748740746519015, ,0.0012182804384215926, ,0.014431511358522707,-0.0022498765971215597,-0.02778523839406242,0.038761292815895916,0.043141636803174795,0.01302584115936353, ,0.03139028412436443, ,0.057996742032839714, ,0.0008837812160376509, ,0.20934784275447801,-0.19997244504516945,0.10713059076,1.610838145848116,0.24198324108459504,-1.321547286741061, ,0.09773114475640657,0.08166690323448432,0.029227177100917434,-0.005393995039746207,0.1437801472230262,-0.12012661105690026, ,1.740097999572754
0.018468129532977565,0.019998592965815798,-0.09696142983211123, ,0.019134226138613895,0.0195603932728241,-0.09759095928543828, ,0.0010158794178368369, ,0.014676870151682673,-0.001986031593401113,-0.028667878806360368,0.02983159339417807,0.03229212031848036,0.01094466867756552, ,0.03226766359988754, ,0.04396232063789404, ,0.0008846226058580279, ,0.21042130262399522,-0.19907660803175942,0.10745466326000001,1.610838145848116,0.24348624258201487,-1.3227728836817216, ,0.09653808907270679,0.08035304111640201,0.030168203636363643,-0.005393995039746207,0.1315441710791617,-0.10987308898190108, ,1.7437489032745361
0.018468129532977565,0.019998592965815798,-0.09696142983211123, ,0.01919487233808332,0.019548293049569978,-0.09769424817767954, ,0.0011260319031650232, ,0.014676870151682673,-0.001986031593401113,-0.028667878806360368,0.02983159339417807,0.03229212031848036,0.01094466867756552, ,0.03226766359988754, ,0.04396232063789404, ,0.0008861505128030089, ,0.21042130262399522,-0.19907660803175942,0.10745466326000001,1.610838145848116,0.24348624258201487,-1.3227728836817216, ,0.09653808907270679,0.08035304111640201,0.030168203636363643,-0.005393995039746207,0.1315441710791617,-0.10987308898190108, ,1.7475919723510742
0.018468129532977565,0.019998592965815798,-0.09696142983211123, ,0.01925543589054406,0.01953623895908072,-0.0977972736677485, ,0.0012378438697111314, ,0.014676870151682673,-0.001986031593401113,-0.028667878806360368,0.02983159339417807,0.03229212031848036,0.01094466867756552, ,0.03226766359988754, ,0.04396232063789404, ,0.0008883624207080914, ,0.21042130262399522,-0.19907660803175942,0.10745466326000001,1.610838145848116,0.24348624258201487,-1.3227728836817216, ,0.09653808907270679,0.08035304111640201,0.030168203636363643,-0.005393995039746207,0.1315441710791617,-0.10987308898190108, ,1.7512218952178955
0.01862622828312849,0.01998052351690533,-0.09727189567168884, ,0.019315916124349523,0.0195242328602851,-0.09790003528643926, ,0.0010384747744966421, ,0.015571816085966857,-0.0016083171295435184,-0.029747731831059398,-0.012384197325451861,-0.0220980351373186,0.0019118651426220205, ,0.033615408510041696, ,0.025331170619876015, ,0.0008893006229192698, ,0.2114252578976444,-0.19824255288134315,0.10778132834000001,1.610838145848116,0.24457933458013842,-1.3236642269112928, ,0.09763059831118392,0.07842722442848825,0.03135592818897638,-0.005393995039746207,0.0775439709868954,-0.06561970968055779, ,1.754814863204956
0.01862622828312849,0.01998052351690533,-0.09727189567168884, ,0.01937631237521478,0.019512276601664075,-0.09800253256949576, ,0.0011470447224370902, ,0.015571816085966857,-0.0016083171295435184,-0.029747731831059398,-0.012384197325451861,-0.0220980351373186,0.0019118651426220205, ,0.033615408510041696, ,0.025331170619876015, ,0.0008909015179473308, ,0.2114252578976444,-0.19824255288134315,0.10778132834000001,1.610838145848116,0.24457933458013842,-1.3236642269112928, ,0.09763059831118392,0.07842722442848825,0.03135592818897638,-0.005393995039746207,0.0775439709868954,-0.06561970968055779, ,1.7584609985351562
0.01862622828312849,0.01998052351690533,-0.09727189567168884, ,0.01943662398619797,0.019500372021271275,-0.09810476505760388, ,0.0012573615503535913, ,0.015571816085966857,-0.0016083171295435184,-0.029747731831059398,-0.012384197325451861,-0.0220980351373186,0.0019118651426220205, ,0.033615408510041696, ,0.025331170619876015, ,0.0008931636169128015, ,0.2114252578976444,-0.19824255288134315,0.10778132834000001,1.610838145848116,0.24457933458013842,-1.3236642269112928, ,0.09763059831118392,0.07842722442848825,0.03135592818897638,-0.005393995039746207,0.0775439709868954,-0.06561970968055779, ,1.7620580196380615
