NicholasDascanio/dvrk_moveit_final/test/execution/third_experiment_notsharpbends/thirdexp_300vel3.0/thirdexp_300vel3.0_23.csv
Current Position (x),Current Position (y),Current Position (z), ,Planned Position (x),Planned Position (y),Planned Position (z), ,Position Error,,Cartesian linear Velocity(x),Cartesian linear Velocity(y),Cartesian linear Velocity(z),Cartesian Angular Velocity(x),Cartesian Angular Velocity(y),Cartesian Angular Velocity(z), ,Total Linear Velocity, ,Total Angular Velocity, ,MSE, ,Joint 1 Position,Joint 2 Position,Joint 3 Position,Joint 4 Position,Joint 5 Position,Joint 6 Position, ,Joint 1 Velocity,Joint 2 Velocity,Joint 3 Velocity,Joint 4 Velocity,Joint 5 Velocity,Joint 6 Velocity, ,Time Stamp
0.08970040112288155,0.07958510170213261,-0.13933813522414282, ,0.010076861357332025,0.020111310837887194,-0.07986252529495386, ,0.115820499312553, ,0.00010079734194777322,9.934431984964523e-05,-5.6344045129035675e-05,0.0008920422640070124,0.0002964264150677858,-0.0009189644264551496, ,0.00015232875451347898, ,0.0009400042661204763, ,0.009651708276046084, ,0.0,0.0,0.0,0.0,0.0,0.0, ,0.0,0.0,0.0,0.0,0.0,0.0, ,0.03623390197753906
0.08970040112288155,0.07958510170213261,-0.13933813522414282, ,0.01009526003873108,0.020154571717100354,-0.07993884572251111, ,0.11574645555967567, ,0.00010079734194777322,9.934431984964523e-05,-5.6344045129035675e-05,0.0008920422640070124,0.0002964264150677858,-0.0009189644264551496, ,0.00015232875451347898, ,0.0009400042661204763, ,0.010525770676010394, ,0.0,0.0,0.0,0.0,0.0,0.0, ,0.0,0.0,0.0,0.0,0.0,0.0, ,0.07256388664245605
0.08970040112288155,0.07958510170213261,-0.13933813522414282, ,0.010114141008428354,0.020197035627637867,-0.08001561142124762, ,0.11567228285729915, ,0.00010079734194777322,9.934431984964523e-05,-5.6344045129035675e-05,0.0008920422640070124,0.0002964264150677858,-0.0009189644264551496, ,0.00015232875451347898, ,0.0009400042661204763, ,0.010851226179047744, ,0.0,0.0,0.0,0.0,0.0,0.0, ,0.0,0.0,0.0,0.0,0.0,0.0, ,0.11089587211608887
0.08970040112288155,0.07958510170213261,-0.13933813522414282, ,0.010133500775170317,0.02023870877529103,-0.08009281821615256, ,0.11559798255915603, ,0.00010079734194777322,9.934431984964523e-05,-5.6344045129035675e-05,0.0008920422640070124,0.0002964264150677858,-0.0009189644264551496, ,0.00015232875451347898, ,0.0009400042661204763, ,0.011019933816397234, ,0.0,0.0,0.0,0.0,0.0,0.0, ,0.0,0.0,0.0,0.0,0.0,0.0, ,0.1466810703277588
0.08970040112288155,0.07958510170213261,-0.13933813522414282, ,0.010153335860852722,0.020279597344515978,-0.08017046194632985, ,0.11552355603954884, ,0.00010079734194777322,9.934431984964523e-05,-5.6344045129035675e-05,0.0008920422640070124,0.0002964264150677858,-0.0009189644264551496, ,0.00015232875451347898, ,0.0009400042661204763, ,0.011122322621696783, ,0.0,0.0,0.0,0.0,0.0,0.0, ,0.0,0.0,0.0,0.0,0.0,0.0, ,0.18311500549316406
0.08970040112288155,0.07958510170213261,-0.13933813522414282, ,0.010173642800500052,0.020319707498464797,-0.08024853846497963, ,0.1154490046927349, ,0.00010079734194777322,9.934431984964523e-05,-5.6344045129035675e-05,0.0008920422640070124,0.0002964264150677858,-0.0009189644264551496, ,0.00015232875451347898, ,0.0009400042661204763, ,0.011190480339047864, ,0.0,0.0,0.0,0.0,0.0,0.0, ,0.0,0.0,0.0,0.0,0.0,0.0, ,0.21912407875061035
0.08970040112288155,0.07958510170213261,-0.13933813522414282, ,0.010194418142244803,0.020359045379015506,-0.0803270436393792, ,0.11537432993231941, ,0.00010079734194777322,9.934431984964523e-05,-5.6344045129035675e-05,0.0008920422640070124,0.0002964264150677858,-0.0009189644264551496, ,0.00015232875451347898, ,0.0009400042661204763, ,0.011238668207684542, ,0.0,0.0,0.0,0.0,0.0,0.0, ,0.0,0.0,0.0,0.0,0.0,0.0, ,0.2586550712585449
0.08970040112288155,0.07958510170213261,-0.13933813522414282, ,0.010215658447307046,0.020397617106802032,-0.08040597335086574, ,0.11529953319065486, ,0.00010079734194777322,9.934431984964523e-05,-5.6344045129035675e-05,0.0008920422640070124,0.0002964264150677858,-0.0009189644264551496, ,0.00015232875451347898, ,0.0009400042661204763, ,0.011413378322764714, ,0.0,0.0,0.0,0.0,0.0,0.0, ,0.0,0.0,0.0,0.0,0.0,0.0, ,0.2909829616546631
0.08970040112288155,0.07958510170213261,-0.13933813522414282, ,0.010237360289973737,0.02043542878124523,-0.08048532349481635, ,0.11522461591824848, ,0.00010079734194777322,9.934431984964523e-05,-5.6344045129035675e-05,0.0008920422640070124,0.0002964264150677858,-0.0009189644264551496, ,0.00015232875451347898, ,0.0009400042661204763, ,0.011552314000691004, ,0.0,0.0,0.0,0.0,0.0,0.0, ,0.0,0.0,0.0,0.0,0.0,0.0, ,0.3233909606933594
0.08970040112288155,0.07958510170213261,-0.13933813522414282, ,0.010259520257578167,0.020472486480582433,-0.08056508998063068, ,0.1151495795831765, ,0.00010079734194777322,9.934431984964523e-05,-5.6344045129035675e-05,0.0008920422640070124,0.0002964264150677858,-0.0009189644264551496, ,0.00015232875451347898, ,0.0009400042661204763, ,0.011665230703488554, ,0.0,0.0,0.0,0.0,0.0,0.0, ,0.0,0.0,0.0,0.0,0.0,0.0, ,0.3560059070587158
0.08970040112288155,0.07958510170213261,-0.13933813522414282, ,0.010282134950479303,0.02050879626189822,-0.08064526873171118, ,0.11507442567050596, ,0.00010079734194777322,9.934431984964523e-05,-5.6344045129035675e-05,0.0008920422640070124,0.0002964264150677858,-0.0009189644264551496, ,0.00015232875451347898, ,0.0009400042661204763, ,0.01175863208625808, ,0.0,0.0,0.0,0.0,0.0,0.0, ,0.0,0.0,0.0,0.0,0.0,0.0, ,0.3888518810272217
0.08970040112288155,0.07958510170213261,-0.13933813522414282, ,0.010305200982041277,0.020544364161154793,-0.08072585568544616, ,0.11499915568172242, ,0.00010079734194777322,9.934431984964523e-05,-5.6344045129035675e-05,0.0008920422640070124,0.0002964264150677858,-0.0009189644264551496, ,0.00015232875451347898, ,0.0009400042661204763, ,0.011837020692287138, ,0.0,0.0,0.0,0.0,0.0,0.0, ,0.0,0.0,0.0,0.0,0.0,0.0, ,0.420957088470459
0.08970040112288155,0.07958510170213261,-0.13933813522414282, ,0.010328714978612714,0.020579196193221582,-0.08080684679318938, ,0.11492377113416666, ,0.00010079734194777322,9.934431984964523e-05,-5.6344045129035675e-05,0.0008920422640070124,0.0002964264150677858,-0.0009189644264551496, ,0.00015232875451347898, ,0.0009400042661204763, ,0.011903612635966364, ,0.0,0.0,0.0,0.0,0.0,0.0, ,0.0,0.0,0.0,0.0,0.0,0.0, ,0.4537019729614258
0.08970040112288155,0.07958510170213261,-0.13933813522414282, ,0.010352673579506064,0.020613298351906582,-0.0808882380202426, ,0.11484827356047622, ,0.00010079734194777322,9.934431984964523e-05,-5.6344045129035675e-05,0.0008920422640070124,0.0002964264150677858,-0.0009189644264551496, ,0.00015232875451347898, ,0.0009400042661204763, ,0.011960766412535098, ,0.0,0.0,0.0,0.0,0.0,0.0, ,0.0,0.0,0.0,0.0,0.0,0.0, ,0.4859809875488281
0.08970040112288155,0.07958510170213261,-0.13933813522414282, ,0.010377073436977174,0.020646676609985648,-0.08097002534583714, ,0.11477266450803496, ,0.00010079734194777322,9.934431984964523e-05,-5.6344045129035675e-05,0.0008920422640070124,0.0002964264150677858,-0.0009189644264551496, ,0.00015232875451347898, ,0.0009400042661204763, ,0.012094238672729182, ,0.0,0.0,0.0,0.0,0.0,0.0, ,0.0,0.0,0.0,0.0,0.0,0.0, ,0.5146338939666748
0.08970040112288155,0.07958510170213261,-0.13933813522414282, ,0.010401911216204507,0.020679336919233356,-0.08105220476311445, ,0.11469694553842943, ,0.00010079734194777322,9.934431984964523e-05,-5.6344045129035675e-05,0.0008920422640070124,0.0002964264150677858,-0.0009189644264551496, ,0.00015232875451347898, ,0.0009400042661204763, ,0.012213066726746375, ,0.0,0.0,0.0,0.0,0.0,0.0, ,0.0,0.0,0.0,0.0,0.0,0.0, ,0.5442230701446533
0.08970040112288155,0.07958510170213261,-0.13933813522414282, ,0.010427183595268579,0.02071128521045317,-0.08113477227910848, ,0.11462111822691133, ,0.00010079734194777322,9.934431984964523e-05,-5.6344045129035675e-05,0.0008920422640070124,0.0002964264150677858,-0.0009189644264551496, ,0.00015232875451347898, ,0.0009400042661204763, ,0.012319460339406375, ,0.0,0.0,0.0,0.0,0.0,0.0, ,0.0,0.0,0.0,0.0,0.0,0.0, ,0.573051929473877
0.08970040112288155,0.07958510170213261,-0.13933813522414282, ,0.010452887265131338,0.020742527393507675,-0.08121772391472631, ,0.11454518416186735, ,0.00010079734194777322,9.934431984964523e-05,-5.6344045129035675e-05,0.0008920422640070124,0.0002964264150677858,-0.0009189644264551496, ,0.00015232875451347898, ,0.0009400042661204763, ,0.012415205857050785, ,0.0,0.0,0.0,0.0,0.0,0.0, ,0.0,0.0,0.0,0.0,0.0,0.0, ,0.601715087890625
0.08970040112288155,0.07958510170213261,-0.13933813522414282, ,0.010479018929615634,0.02077306935734883,-0.08130105570472995, ,0.11446914494429516, ,0.00010079734194777322,9.934431984964523e-05,-5.6344045129035675e-05,0.0008920422640070124,0.0002964264150677858,-0.0009189644264551496, ,0.00015232875451347898, ,0.0009400042661204763, ,0.01250176298898158, ,0.0,0.0,0.0,0.0,0.0,0.0, ,0.0,0.0,0.0,0.0,0.0,0.0, ,0.6307990550994873
0.08970040112288155,0.07958510170213261,-0.13933813522414282, ,0.010505575305384377,0.02080291697004811,-0.08138476369771777, ,0.11439300218728626, ,0.00010079734194777322,9.934431984964523e-05,-5.6344045129035675e-05,0.0008920422640070124,0.0002964264150677858,-0.0009189644264551496, ,0.00015232875451347898, ,0.0009400042661204763, ,0.012580336203601435, ,0.0,0.0,0.0,0.0,0.0,0.0, ,0.0,0.0,0.0,0.0,0.0,0.0, ,0.658919095993042
0.08970040112288155,0.07958510170213261,-0.13933813522414282, ,0.010532553121920155,0.020832076078827356,-0.08146884395610594, ,0.11431675751551468, ,0.00010079734194777322,9.934431984964523e-05,-5.6344045129035675e-05,0.0008920422640070124,0.0002964264150677858,-0.0009189644264551496, ,0.00015232875451347898, ,0.0009400042661204763, ,0.01265192818206585, ,0.0,0.0,0.0,0.0,0.0,0.0, ,0.0,0.0,0.0,0.0,0.0,0.0, ,0.6875190734863281
0.08970040112288155,0.07958510170213261,-0.13933813522414282, ,0.010559949121504486,0.02086055251008831,-0.0815532925561094, ,0.1142404125647333, ,0.00010079734194777322,9.934431984964523e-05,-5.6344045129035675e-05,0.0008920422640070124,0.0002964264150677858,-0.0009189644264551496, ,0.00015232875451347898, ,0.0009400042661204763, ,0.012781609572420761, ,0.0,0.0,0.0,0.0,0.0,0.0, ,0.0,0.0,0.0,0.0,0.0,0.0, ,0.7140309810638428
0.08970040112288155,0.07958510170213261,-0.13933813522414282, ,0.010587760059197185,0.02088835206944323,-0.08163810558772396, ,0.11416396898127532, ,0.00010079734194777322,9.934431984964523e-05,-5.6344045129035675e-05,0.0008920422640070124,0.0002964264150677858,-0.0009189644264551496, ,0.00015232875451347898, ,0.0009400042661204763, ,0.012902061777173589, ,0.0,0.0,0.0,0.0,0.0,0.0, ,0.0,0.0,0.0,0.0,0.0,0.0, ,0.7387199401855469
0.08970040112288155,0.07958510170213261,-0.13933813522414282, ,0.010615982702815783,0.02091548054174551,-0.08172327915470715, ,0.1140874284215626, ,0.00010079734194777322,9.934431984964523e-05,-5.6344045129035675e-05,0.0008920422640070124,0.0002964264150677858,-0.0009189644264551496, ,0.00015232875451347898, ,0.0009400042661204763, ,0.013014198550670512, ,0.0,0.0,0.0,0.0,0.0,0.0, ,0.0,0.0,0.0,0.0,0.0,0.0, ,0.7638990879058838
0.08970040112288155,0.07958510170213261,-0.13933813522414282, ,0.010644613832914818,0.020941943691119094,-0.08180880937455969, ,0.11401079255162064, ,0.00010079734194777322,9.934431984964523e-05,-5.6344045129035675e-05,0.0008920422640070124,0.0002964264150677858,-0.0009189644264551496, ,0.00015232875451347898, ,0.0009400042661204763, ,0.01311881682782543, ,0.0,0.0,0.0,0.0,0.0,0.0, ,0.0,0.0,0.0,0.0,0.0,0.0, ,0.7889828681945801
0.08970040112288155,0.07958510170213261,-0.13933813522414282, ,0.010673650242765332,0.020967747260989565,-0.08189469237850737, ,0.1139340630465987, ,0.00010079734194777322,9.934431984964523e-05,-5.6344045129035675e-05,0.0008920422640070124,0.0002964264150677858,-0.0009189644264551496, ,0.00015232875451347898, ,0.0009400042661204763, ,0.013216614815665344, ,0.0,0.0,0.0,0.0,0.0,0.0, ,0.0,0.0,0.0,0.0,0.0,0.0, ,0.814141035079956
0.08970040112288155,0.07958510170213261,-0.13933813522414282, ,0.010703088738334093,0.020992896974113884,-0.08198092431148174, ,0.1138572415902973, ,0.00010079734194777322,9.934431984964523e-05,-5.6344045129035675e-05,0.0008920422640070124,0.0002964264150677858,-0.0009189644264551496, ,0.00015232875451347898, ,0.0009400042661204763, ,0.01330820682373676, ,0.0,0.0,0.0,0.0,0.0,0.0, ,0.0,0.0,0.0,0.0,0.0,0.0, ,0.838886022567749
0.08970040112288155,0.07958510170213261,-0.13933813522414282, ,0.010732926138263096,0.021017398532611163,-0.08206750133210182, ,0.1137803298747007, ,0.00010079734194777322,9.934431984964523e-05,-5.6344045129035675e-05,0.0008920422640070124,0.0002964264150677858,-0.0009189644264551496, ,0.00015232875451347898, ,0.0009400042661204763, ,0.013394135499189025, ,0.0,0.0,0.0,0.0,0.0,0.0, ,0.0,0.0,0.0,0.0,0.0,0.0, ,0.8637330532073975
0.08970040112288155,0.07958510170213261,-0.13933813522414282, ,0.010763159273848749,0.02104125761799221,-0.08215441961265577, ,0.11370332959951641, ,0.00010079734194777322,9.934431984964523e-05,-5.6344045129035675e-05,0.0008920422640070124,0.0002964264150677858,-0.0009189644264551496, ,0.00015232875451347898, ,0.0009400042661204763, ,0.01352965792441009, ,0.0,0.0,0.0,0.0,0.0,0.0, ,0.0,0.0,0.0,0.0,0.0,0.0, ,0.885814905166626
0.08970040112288155,0.07958510170213261,-0.13933813522414282, ,0.010793784989021473,0.021064479891190695,-0.08224167533908204, ,0.1136262424717195, ,0.00010079734194777322,9.934431984964523e-05,-5.6344045129035675e-05,0.0008920422640070124,0.0002964264150677858,-0.0009189644264551496, ,0.00015232875451347898, ,0.0009400042661204763, ,0.013658420999510324, ,0.0,0.0,0.0,0.0,0.0,0.0, ,0.0,0.0,0.0,0.0,0.0,0.0, ,0.9068119525909424
0.08970040112288155,0.07958510170213261,-0.13933813522414282, ,0.010824800140324772,0.02108707099259244,-0.08232926471094998, ,0.11354907020510474, ,0.00010079734194777322,9.934431984964523e-05,-5.6344045129035675e-05,0.0008920422640070124,0.0002964264150677858,-0.0009189644264551496, ,0.00015232875451347898, ,0.0009400042661204763, ,0.013780895977060878, ,0.0,0.0,0.0,0.0,0.0,0.0, ,0.0,0.0,0.0,0.0,0.0,0.0, ,0.932297945022583
0.08970040112288155,0.07958510170213261,-0.13933813522414282, ,0.010856201596894932,0.021109036542066438,-0.08241718394144297, ,0.11347181451984181, ,0.00010079734194777322,9.934431984964523e-05,-5.6344045129035675e-05,0.0008920422640070124,0.0002964264150677858,-0.0009189644264551496, ,0.00015232875451347898, ,0.0009400042661204763, ,0.013897511275005865, ,0.0,0.0,0.0,0.0,0.0,0.0, ,0.0,0.0,0.0,0.0,0.0,0.0, ,0.9534978866577148
0.08970040112288155,0.07958510170213261,-0.13933813522414282, ,0.010887986240440049,0.021130382138995013,-0.08250542925733802, ,0.11339447714203914, ,0.00010079734194777322,9.934431984964523e-05,-5.6344045129035675e-05,0.0008920422640070124,0.0002964264150677858,-0.0009189644264551496, ,0.00015232875451347898, ,0.0009400042661204763, ,0.014008657236087362, ,0.0,0.0,0.0,0.0,0.0,0.0, ,0.0,0.0,0.0,0.0,0.0,0.0, ,0.9751770496368408
0.08970040112288155,0.07958510170213261,-0.13933813522414282, ,0.010920150965219585,0.021151113362303266,-0.0825939968989886, ,0.1133170598033118, ,0.00010079734194777322,9.934431984964523e-05,-5.6344045129035675e-05,0.0008920422640070124,0.0002964264150677858,-0.0009189644264551496, ,0.00015232875451347898, ,0.0009400042661204763, ,0.014114690266474274, ,0.0,0.0,0.0,0.0,0.0,0.0, ,0.0,0.0,0.0,0.0,0.0,0.0, ,0.9964499473571777
0.08970040112288155,0.07958510170213261,-0.13933813522414282, ,0.010952692678023655,0.021171235770490536,-0.08268288312030463, ,0.11323956424035576, ,0.00010079734194777322,9.934431984964523e-05,-5.6344045129035675e-05,0.0008920422640070124,0.0002964264150677858,-0.0009189644264551496, ,0.00015232875451347898, ,0.0009400042661204763, ,0.014215936446054097, ,0.0,0.0,0.0,0.0,0.0,0.0, ,0.0,0.0,0.0,0.0,0.0,0.0, ,1.0177679061889648
0.08970040112288155,0.07958510170213261,-0.13933813522414282, ,0.010985608298152446,0.021190754901660096,-0.08277208418873491, ,0.11316199219452727, ,0.00010079734194777322,9.934431984964523e-05,-5.6344045129035675e-05,0.0008920422640070124,0.0002964264150677858,-0.0009189644264551496, ,0.00015232875451347898, ,0.0009400042661204763, ,0.014362564703769279, ,0.0,0.0,0.0,0.0,0.0,0.0, ,0.0,0.0,0.0,0.0,0.0,0.0, ,1.0361480712890625
0.08970040112288155,0.07958510170213261,-0.13933813522414282, ,0.011018894757395377,0.021209676273549027,-0.08286159638524822, ,0.1130843454114288, ,0.00010079734194777322,9.934431984964523e-05,-5.6344045129035675e-05,0.0008920422640070124,0.0002964264150677858,-0.0009189644264551496, ,0.00015232875451347898, ,0.0009400042661204763, ,0.014503905532168534, ,0.0,0.0,0.0,0.0,0.0,0.0, ,0.0,0.0,0.0,0.0,0.0,0.0, ,1.0538339614868164
0.08970040112288155,0.07958510170213261,-0.13933813522414282, ,0.01105254900001079,0.02122800538355914,-0.08295141600431452, ,0.11300662564049933, ,0.00010079734194777322,9.934431984964523e-05,-5.6344045129035675e-05,0.0008920422640070124,0.0002964264150677858,-0.0009189644264551496, ,0.00015232875451347898, ,0.0009400042661204763, ,0.014640225727386231, ,0.0,0.0,0.0,0.0,0.0,0.0, ,0.0,0.0,0.0,0.0,0.0,0.0, ,1.072463035583496
0.08970040112288155,0.07958510170213261,-0.13933813522414282, ,0.01108656798270494,0.02124574770878682,-0.0830415393538863, ,0.11292883463461148, ,0.00010079734194777322,9.934431984964523e-05,-5.6344045129035675e-05,0.0008920422640070124,0.0002964264150677858,-0.0009189644264551496, ,0.00015232875451347898, ,0.0009400042661204763, ,0.014771774422742788, ,0.0,0.0,0.0,0.0,0.0,0.0, ,0.0,0.0,0.0,0.0,0.0,0.0, ,1.090583086013794
0.08970040112288155,0.07958510170213261,-0.13933813522414282, ,0.01112094867461157,0.021262908706053484,-0.08313196275537994, ,0.1128509741496729, ,0.00010079734194777322,9.934431984964523e-05,-5.6344045129035675e-05,0.0008920422640070124,0.0002964264150677858,-0.0009189644264551496, ,0.00015232875451347898, ,0.0009400042661204763, ,0.014898784527094446, ,0.0,0.0,0.0,0.0,0.0,0.0, ,0.0,0.0,0.0,0.0,0.0,0.0, ,1.1084709167480469
0.08970040112288155,0.07958510170213261,-0.13933813522414282, ,0.01115568805727123,0.021279493811935852,-0.083222682543658, ,0.11277304594423333, ,0.00010079734194777322,9.934431984964523e-05,-5.6344045129035675e-05,0.0008920422640070124,0.0002964264150677858,-0.0009189644264551496, ,0.00015232875451347898, ,0.0009400042661204763, ,0.015021474024878936, ,0.0,0.0,0.0,0.0,0.0,0.0, ,0.0,0.0,0.0,0.0,0.0,0.0, ,1.126357078552246
0.08970040112288155,0.07958510170213261,-0.13933813522414282, ,0.011190783124610477,0.021295508442795694,-0.08331369506700861, ,0.11269505177909853, ,0.00010079734194777322,9.934431984964523e-05,-5.6344045129035675e-05,0.0008920422640070124,0.0002964264150677858,-0.0009189644264551496, ,0.00015232875451347898, ,0.0009400042661204763, ,0.015140047153127214, ,0.0,0.0,0.0,0.0,0.0,0.0, ,0.0,0.0,0.0,0.0,0.0,0.0, ,1.1447498798370361
0.08970040112288155,0.07958510170213261,-0.13933813522414282, ,0.011226230882921422,0.021310957994810854,-0.08340499668712859, ,0.11261699341694689, ,0.00010079734194777322,9.934431984964523e-05,-5.6344045129035675e-05,0.0008920422640070124,0.0002964264150677858,-0.0009189644264551496, ,0.00015232875451347898, ,0.0009400042661204763, ,0.015302217884605214, ,0.0,0.0,0.0,0.0,0.0,0.0, ,0.0,0.0,0.0,0.0,0.0,0.0, ,1.15903902053833
0.08970040112288155,0.07958510170213261,-0.13933813522414282, ,0.011262028350840978,0.021325847844005076,-0.08349658377910435, ,0.11253887262195326, ,0.00010079734194777322,9.934431984964523e-05,-5.6344045129035675e-05,0.0008920422640070124,0.0002964264150677858,-0.0009189644264551496, ,0.00015232875451347898, ,0.0009400042661204763, ,0.015460156349477621, ,0.0,0.0,0.0,0.0,0.0,0.0, ,0.0,0.0,0.0,0.0,0.0,0.0, ,1.1742730140686035
0.08970040112288155,0.07958510170213261,-0.13933813522414282, ,0.011298172559330182,0.021340183346278074,-0.08358845273139279, ,0.11246069115941779, ,0.00010079734194777322,9.934431984964523e-05,-5.6344045129035675e-05,0.0008920422640070124,0.0002964264150677858,-0.0009189644264551496, ,0.00015232875451347898, ,0.0009400042661204763, ,0.015614016731731444, ,0.0,0.0,0.0,0.0,0.0,0.0, ,0.0,0.0,0.0,0.0,0.0,0.0, ,1.1882939338684082
0.08970040112288155,0.07958510170213261,-0.13933813522414282, ,0.011334660551653596,0.02135396983743636,-0.08368059994580337, ,0.11238245079539887, ,0.00010079734194777322,9.934431984964523e-05,-5.6344045129035675e-05,0.0008920422640070124,0.0002964264150677858,-0.0009189644264551496, ,0.00015232875451347898, ,0.0009400042661204763, ,0.015763945812417548, ,0.0,0.0,0.0,0.0,0.0,0.0, ,0.0,0.0,0.0,0.0,0.0,0.0, ,1.2028110027313232
0.08970040112288155,0.07958510170213261,-0.13933813522414282, ,0.011371489383358623,0.021367212633223002,-0.08377302183747865, ,0.11230415329635268, ,0.00010079734194777322,9.934431984964523e-05,-5.6344045129035675e-05,0.0008920422640070124,0.0002964264150677858,-0.0009189644264551496, ,0.00015232875451347898, ,0.0009400042661204763, ,0.01591008340899524, ,0.0,0.0,0.0,0.0,0.0,0.0, ,0.0,0.0,0.0,0.0,0.0,0.0, ,1.2178590297698975
0.08970040112288155,0.07958510170213261,-0.13933813522414282, ,0.011408656122254805,0.02137991702934787,-0.0838657148348765, ,0.11222580042877674, ,0.00010079734194777322,9.934431984964523e-05,-5.6344045129035675e-05,0.0008920422640070124,0.0002964264150677858,-0.0009189644264551496, ,0.00015232875451347898, ,0.0009400042661204763, ,0.016052562783754172, ,0.0,0.0,0.0,0.0,0.0,0.0, ,0.0,0.0,0.0,0.0,0.0,0.0, ,1.2320690155029297
0.08970040112288155,0.07958510170213261,-0.13933813522414282, ,0.011446157848393281,0.021392088301518297,-0.08395867537975042, ,0.11214739395885906, ,0.00010079734194777322,9.934431984964523e-05,-5.6344045129035675e-05,0.0008920422640070124,0.0002964264150677858,-0.0009189644264551496, ,0.00015232875451347898, ,0.0009400042661204763, ,0.01619151102382328, ,0.0,0.0,0.0,0.0,0.0,0.0, ,0.0,0.0,0.0,0.0,0.0,0.0, ,1.2461280822753906
0.08970040112288155,0.07958510170213261,-0.13933813522414282, ,0.011483991654046002,0.02140373170546881,-0.08405189992713227, ,0.11206893565213177, ,0.00010079734194777322,9.934431984964523e-05,-5.6344045129035675e-05,0.0008920422640070124,0.0002964264150677858,-0.0009189644264551496, ,0.00015232875451347898, ,0.0009400042661204763, ,0.01637396620365277, ,0.0,0.0,0.0,0.0,0.0,0.0, ,0.0,0.0,0.0,0.0,0.0,0.0, ,1.257040023803711
0.08970040112288155,0.07958510170213261,-0.13933813522414282, ,0.01152215464368512,0.021414852476991847,-0.08414538494531242, ,0.11199042727313041, ,0.00010079734194777322,9.934431984964523e-05,-5.6344045129035675e-05,0.0008920422640070124,0.0002964264150677858,-0.0009189644264551496, ,0.00015232875451347898, ,0.0009400042661204763, ,0.016553078820923914, ,0.0,0.0,0.0,0.0,0.0,0.0, ,0.0,0.0,0.0,0.0,0.0,0.0, ,1.2679429054260254
0.08970040112288155,0.07958510170213261,-0.13933813522414282, ,0.01156064393396237,0.021425455831967706,-0.08423912691582144, ,0.11191187058505771, ,0.00010079734194777322,9.934431984964523e-05,-5.6344045129035675e-05,0.0008920422640070124,0.0002964264150677858,-0.0009189644264551496, ,0.00015232875451347898, ,0.0009400042661204763, ,0.016728933719574436, ,0.0,0.0,0.0,0.0,0.0,0.0, ,0.0,0.0,0.0,0.0,0.0,0.0, ,1.2785789966583252
0.08970040112288155,0.07958510170213261,-0.13933813522414282, ,0.011599456653688363,0.02143554696639469,-0.08433312233341207, ,0.11183326734945212, ,0.00010079734194777322,9.934431984964523e-05,-5.6344045129035675e-05,0.0008920422640070124,0.0002964264150677858,-0.0009189644264551496, ,0.00015232875451347898, ,0.0009400042661204763, ,0.01690161289657928, ,0.0,0.0,0.0,0.0,0.0,0.0, ,0.0,0.0,0.0,0.0,0.0,0.0, ,1.2891628742218018
0.08970040112288155,0.07958510170213261,-0.13933813522414282, ,0.011638589943811867,0.021445131056419844,-0.0844273677060394, ,0.11175461932586174, ,0.00010079734194777322,9.934431984964523e-05,-5.6344045129035675e-05,0.0008920422640070124,0.0002964264150677858,-0.0009189644264551496, ,0.00015232875451347898, ,0.0009400042661204763, ,0.017071195620568514, ,0.0,0.0,0.0,0.0,0.0,0.0, ,0.0,0.0,0.0,0.0,0.0,0.0, ,1.301184892654419
0.08970040112288155,0.07958510170213261,-0.13933813522414282, ,0.011678040957399327,0.021454213258368836,-0.08452185955484352, ,0.1116759282715221, ,0.00010079734194777322,9.934431984964523e-05,-5.6344045129035675e-05,0.0008920422640070124,0.0002964264150677858,-0.0009189644264551496, ,0.00015232875451347898, ,0.0009400042661204763, ,0.017237758544562498, ,0.0,0.0,0.0,0.0,0.0,0.0, ,0.0,0.0,0.0,0.0,0.0,0.0, ,1.311927080154419
0.08970040112288155,0.07958510170213261,-0.13933813522414282, ,0.011717806859613985,0.021462798708776,-0.08461659441412968, ,0.11159719594104009, ,0.00010079734194777322,9.934431984964523e-05,-5.6344045129035675e-05,0.0008920422640070124,0.0002964264150677858,-0.0009189644264551496, ,0.00015232875451347898, ,0.0009400042661204763, ,0.017401375813161823, ,0.0,0.0,0.0,0.0,0.0,0.0, ,0.0,0.0,0.0,0.0,0.0,0.0, ,1.3226189613342285
0.08970040112288155,0.07958510170213261,-0.13933813522414282, ,0.01175788482769528,0.02147089252441498,-0.08471156883135043, ,0.11151842408608119, ,0.00010079734194777322,9.934431984964523e-05,-5.6344045129035675e-05,0.0008920422640070124,0.0002964264150677858,-0.0009189644264551496, ,0.00015232875451347898, ,0.0009400042661204763, ,0.01760984231441116, ,0.0,0.0,0.0,0.0,0.0,0.0, ,0.0,0.0,0.0,0.0,0.0,0.0, ,1.3298649787902832
0.08970040112288155,0.07958510170213261,-0.13933813522414282, ,0.011798272050938374,0.02147849980232902,-0.08480677936708686, ,0.11143961445506181, ,0.00010079734194777322,9.934431984964523e-05,-5.6344045129035675e-05,0.0008920422640070124,0.0002964264150677858,-0.0009189644264551496, ,0.00015232875451347898, ,0.0009400042661204763, ,0.01781584212475235, ,0.0,0.0,0.0,0.0,0.0,0.0, ,0.0,0.0,0.0,0.0,0.0,0.0, ,1.3370850086212158
0.08970040112288155,0.07958510170213261,-0.13933813522414282, ,0.01183896573067322,0.02148562561986061,-0.08490222259502975, ,0.11136076879284715, ,0.00010079734194777322,9.934431984964523e-05,-5.6344045129035675e-05,0.0008920422640070124,0.0002964264150677858,-0.0009189644264551496, ,0.00015232875451347898, ,0.0009400042661204763, ,0.01801941493266456, ,0.0,0.0,0.0,0.0,0.0,0.0, ,0.0,0.0,0.0,0.0,0.0,0.0, ,1.3450450897216797
0.08970040112288155,0.07958510170213261,-0.13933813522414282, ,0.011879963080243944,0.02149227503468256,-0.08499789510196051, ,0.1112818888404525, ,0.00010079734194777322,9.934431984964523e-05,-5.6344045129035675e-05,0.0008920422640070124,0.0002964264150677858,-0.0009189644264551496, ,0.00015232875451347898, ,0.0009400042661204763, ,0.018220599582330667, ,0.0,0.0,0.0,0.0,0.0,0.0, ,0.0,0.0,0.0,0.0,0.0,0.0, ,1.3521618843078613
0.08970040112288155,0.07958510170213261,-0.13933813522414282, ,0.011921261324988398,0.021498453084827604,-0.08509379348773376, ,0.11120297633474924, ,0.00010079734194777322,9.934431984964523e-05,-5.6344045129035675e-05,0.0008920422640070124,0.0002964264150677858,-0.0009189644264551496, ,0.00015232875451347898, ,0.0009400042661204763, ,0.018419434096080902, ,0.0,0.0,0.0,0.0,0.0,0.0, ,0.0,0.0,0.0,0.0,0.0,0.0, ,1.3593759536743164
0.08970040112288155,0.07958510170213261,-0.13933813522414282, ,0.01196285770221719,0.02150416478871874,-0.08518991436525726, ,0.11112403300817644, ,0.00010079734194777322,9.934431984964523e-05,-5.6344045129035675e-05,0.0008920422640070124,0.0002964264150677858,-0.0009189644264551496, ,0.00015232875451347898, ,0.0009400042661204763, ,0.01861595569612327, ,0.0,0.0,0.0,0.0,0.0,0.0, ,0.0,0.0,0.0,0.0,0.0,0.0, ,1.3666300773620605
0.08970040112288155,0.07958510170213261,-0.13933813522414282, ,0.012004749461193273,0.021509415145199808,-0.08528625436047427, ,0.11104506058845538, ,0.00010079734194777322,9.934431984964523e-05,-5.6344045129035675e-05,0.0008920422640070124,0.0002964264150677858,-0.0009189644264551496, ,0.00015232875451347898, ,0.0009400042661204763, ,0.018810200825586976, ,0.0,0.0,0.0,0.0,0.0,0.0, ,0.0,0.0,0.0,0.0,0.0,0.0, ,1.373960018157959
0.08970040112288155,0.07958510170213261,-0.13933813522414282, ,0.012046933863111073,0.021514209133565308,-0.08538281011234451, ,0.11096606079830977, ,0.00010079734194777322,9.934431984964523e-05,-5.6344045129035675e-05,0.0008920422640070124,0.0002964264150677858,-0.0009189644264551496, ,0.00015232875451347898, ,0.0009400042661204763, ,0.019002205168904086, ,0.0,0.0,0.0,0.0,0.0,0.0, ,0.0,0.0,0.0,0.0,0.0,0.0, ,1.381397008895874
0.08970040112288155,0.07958510170213261,-0.13933813522414282, ,0.01208940818107599,0.021518551713591173,-0.08547957827282504, ,0.11088703535518982, ,0.00010079734194777322,9.934431984964523e-05,-5.6344045129035675e-05,0.0008920422640070124,0.0002964264150677858,-0.0009189644264551496, ,0.00015232875451347898, ,0.0009400042661204763, ,0.019192003671553517, ,0.0,0.0,0.0,0.0,0.0,0.0, ,0.0,0.0,0.0,0.0,0.0,0.0, ,1.388840913772583
0.08970040112288155,0.07958510170213261,-0.13933813522414282, ,0.012132169700083621,0.021522447825564308,-0.08557655550685292, ,0.1108079859710004, ,0.00010079734194777322,9.934431984964523e-05,-5.6344045129035675e-05,0.0008920422640070124,0.0002964264150677858,-0.0009189644264551496, ,0.00015232875451347898, ,0.0009400042661204763, ,0.019379630559190546, ,0.0,0.0,0.0,0.0,0.0,0.0, ,0.0,0.0,0.0,0.0,0.0,0.0, ,1.396014928817749
0.08970040112288155,0.07958510170213261,-0.13933813522414282, ,0.012175215716999102,0.021525902390313264,-0.08567373849232485, ,0.1107289143518348, ,0.00010079734194777322,9.934431984964523e-05,-5.6344045129035675e-05,0.0008920422640070124,0.0002964264150677858,-0.0009189644264551496, ,0.00015232875451347898, ,0.0009400042661204763, ,0.019565119356183984, ,0.0,0.0,0.0,0.0,0.0,0.0, ,0.0,0.0,0.0,0.0,0.0,0.0, ,1.4033479690551758
0.08970040112288155,0.07958510170213261,-0.13933813522414282, ,0.012218543540536465,0.021528920309238586,-0.08577112392008011, ,0.11064982219771075, ,0.00010079734194777322,9.934431984964523e-05,-5.6344045129035675e-05,0.0008920422640070124,0.0002964264150677858,-0.0009189644264551496, ,0.00015232875451347898, ,0.0009400042661204763, ,0.01979927026323161, ,0.0,0.0,0.0,0.0,0.0,0.0, ,0.0,0.0,0.0,0.0,0.0,0.0, ,1.4070448875427246
0.08970040112288155,0.07958510170213261,-0.13933813522414282, ,0.012262150491238034,0.02153150646434276,-0.08586870849388051, ,0.11057071120231281, ,0.00010079734194777322,9.934431984964523e-05,-5.6344045129035675e-05,0.0008920422640070124,0.0002964264150677858,-0.0009189644264551496, ,0.00015232875451347898, ,0.0009400042661204763, ,0.020032017547690795, ,0.0,0.0,0.0,0.0,0.0,0.0, ,0.0,0.0,0.0,0.0,0.0,0.0, ,1.4107940196990967
0.08970040112288155,0.07958510170213261,-0.13933813522414282, ,0.012306033901453567,0.021533665718260635,-0.08596648893039302, ,0.1104915830527374, ,0.00010079734194777322,9.934431984964523e-05,-5.6344045129035675e-05,0.0008920422640070124,0.0002964264150677858,-0.0009189644264551496, ,0.00015232875451347898, ,0.0009400042661204763, ,0.02026337193517173, ,0.0,0.0,0.0,0.0,0.0,0.0, ,0.0,0.0,0.0,0.0,0.0,0.0, ,1.4143989086151123
0.08970040112288155,0.07958510170213261,-0.13933813522414282, ,0.012350191115319797,0.021535402914289632,-0.08606446195916989, ,0.11041243942924318, ,0.00010079734194777322,9.934431984964523e-05,-5.6344045129035675e-05,0.0008920422640070124,0.0002964264150677858,-0.0009189644264551496, ,0.00015232875451347898, ,0.0009400042661204763, ,0.1115748731400193, ,0.0,0.0,0.0,0.0,0.0,0.0, ,0.0,0.0,0.0,0.0,0.0,0.0, ,1.4179198741912842
0.08970040112288155,0.07958510170213261,-0.13933813522414282, ,0.012394619488739645,0.021536722876419844,-0.08616262432263105, ,0.11033328200500467, ,0.00010079734194777322,9.934431984964523e-05,-5.6344045129035675e-05,0.0008920422640070124,0.0002964264150677858,-0.0009189644264551496, ,0.00015232875451347898, ,0.0009400042661204763, ,0.1115578650422794, ,0.0,0.0,0.0,0.0,0.0,0.0, ,0.0,0.0,0.0,0.0,0.0,0.0, ,1.4217660427093506
0.08970040112288155,0.07958510170213261,-0.13933813522414282, ,0.012439316389361476,0.02153763040936426,-0.08626097277604462, ,0.11025411244587088, ,0.00010079734194777322,9.934431984964523e-05,-5.6344045129035675e-05,0.0008920422640070124,0.0002964264150677858,-0.0009189644264551496, ,0.00015232875451347898, ,0.0009400042661204763, ,0.11154024676394954, ,0.0,0.0,0.0,0.0,0.0,0.0, ,0.0,0.0,0.0,0.0,0.0,0.0, ,1.4254980087280273
0.08970040112288155,0.07958510170213261,-0.13933813522414282, ,0.012484279196558657,0.021538130298589604,-0.08635950408750881, ,0.1101749324101269, ,0.00010079734194777322,9.934431984964523e-05,-5.6344045129035675e-05,0.0008920422640070124,0.0002964264150677858,-0.0009189644264551496, ,0.00015232875451347898, ,0.0009400042661204763, ,0.11152204257256523, ,0.0,0.0,0.0,0.0,0.0,0.0, ,0.0,0.0,0.0,0.0,0.0,0.0, ,1.4291119575500488
0.08970040112288155,0.07958510170213261,-0.13933813522414282, ,0.01252950530140863,0.021538227310345447,-0.08645821503793309, ,0.110095743548261, ,0.00010079734194777322,9.934431984964523e-05,-5.6344045129035675e-05,0.0008920422640070124,0.0002964264150677858,-0.0009189644264551496, ,0.00015232875451347898, ,0.0009400042661204763, ,0.11150327548014018, ,0.0,0.0,0.0,0.0,0.0,0.0, ,0.0,0.0,0.0,0.0,0.0,0.0, ,1.4327619075775146
0.08970040112288155,0.07958510170213261,-0.13933813522414282, ,0.012574992106672414,0.02153792619169567,-0.08655710242101934, ,0.11001654750273442, ,0.00010079734194777322,9.934431984964523e-05,-5.6344045129035675e-05,0.0008920422640070124,0.0002964264150677858,-0.0009189644264551496, ,0.00015232875451347898, ,0.0009400042661204763, ,0.11148396732458946, ,0.0,0.0,0.0,0.0,0.0,0.0, ,0.0,0.0,0.0,0.0,0.0,0.0, ,1.4363770484924316
0.08970040112288155,0.07958510170213261,-0.13933813522414282, ,0.012620737026773894,0.02153723167054764,-0.08665616304324344, ,0.10993734590775613, ,0.00010079734194777322,9.934431984964523e-05,-5.6344045129035675e-05,0.0008920422640070124,0.0002964264150677858,-0.0009189644264551496, ,0.00015232875451347898, ,0.0009400042661204763, ,0.11146413884488646, ,0.0,0.0,0.0,0.0,0.0,0.0, ,0.0,0.0,0.0,0.0,0.0,0.0, ,1.4399449825286865
0.08970040112288155,0.07958510170213261,-0.13933813522414282, ,0.012666737487779064,0.021536148455683385,-0.08675539372383666, ,0.10985814038906073, ,0.00010079734194777322,9.934431984964523e-05,-5.6344045129035675e-05,0.0008920422640070124,0.0002964264150677858,-0.0009189644264551496, ,0.00015232875451347898, ,0.0009400042661204763, ,0.11144380975050892, ,0.0,0.0,0.0,0.0,0.0,0.0, ,0.0,0.0,0.0,0.0,0.0,0.0, ,1.4434900283813477
0.08970040112288155,0.07958510170213261,-0.13933813522414282, ,0.012712990927375496,0.021534681236788998,-0.08685479129476645, ,0.1097789325636914, ,0.00010079734194777322,9.934431984964523e-05,-5.6344045129035675e-05,0.0008920422640070124,0.0002964264150677858,-0.0009189644264551496, ,0.00015232875451347898, ,0.0009400042661204763, ,0.1114229987856737, ,0.0,0.0,0.0,0.0,0.0,0.0, ,0.0,0.0,0.0,0.0,0.0,0.0, ,1.447058916091919
0.08970040112288155,0.07958510170213261,-0.13933813522414282, ,0.012759494794851466,0.02153283468448552,-0.08695435260071865, ,0.1096997240397853, ,0.00010079734194777322,9.934431984964523e-05,-5.6344045129035675e-05,0.0008920422640070124,0.0002964264150677858,-0.0009189644264551496, ,0.00015232875451347898, ,0.0009400042661204763, ,0.11140172378881089, ,0.0,0.0,0.0,0.0,0.0,0.0, ,0.0,0.0,0.0,0.0,0.0,0.0, ,1.4506340026855469
0.08970040112288155,0.07958510170213261,-0.13933813522414282, ,0.012806246551075505,0.021530613450358577,-0.08705407449907795, ,0.1096205164163645, ,0.00010079734194777322,9.934431984964523e-05,-5.6344045129035675e-05,0.0008920422640070124,0.0002964264150677858,-0.0009189644264551496, ,0.00015232875451347898, ,0.0009400042661204763, ,0.11138000174768349, ,0.0,0.0,0.0,0.0,0.0,0.0, ,0.0,0.0,0.0,0.0,0.0,0.0, ,1.454206943511963
0.08970040112288155,0.07958510170213261,-0.13933813522414282, ,0.01285324366847566,0.02152802216698946,-0.08715395385991004, ,0.10954131128312883, ,0.00010079734194777322,9.934431984964523e-05,-5.6344045129035675e-05,0.0008920422640070124,0.0002964264150677858,-0.0009189644264551496, ,0.00015232875451347898, ,0.0009400042661204763, ,0.11135784885052019, ,0.0,0.0,0.0,0.0,0.0,0.0, ,0.0,0.0,0.0,0.0,0.0,0.0, ,1.4577999114990234
0.08970040112288155,0.07958510170213261,-0.13933813522414282, ,0.01290048363101856,0.021525065447984174,-0.08725398756594215, ,0.10946211022025495, ,0.00010079734194777322,9.934431984964523e-05,-5.6344045129035675e-05,0.0008920422640070124,0.0002964264150677858,-0.0009189644264551496, ,0.00015232875451347898, ,0.0009400042661204763, ,0.11133528053349322, ,0.0,0.0,0.0,0.0,0.0,0.0, ,0.0,0.0,0.0,0.0,0.0,0.0, ,1.4621689319610596
0.08970040112288155,0.07958510170213261,-0.13933813522414282, ,0.012947963934189226,0.021521747888004962,-0.08735417251254529, ,0.10938291479819641, ,0.00010079734194777322,9.934431984964523e-05,-5.6344045129035675e-05,0.0008920422640070124,0.0002964264150677858,-0.0009189644264551496, ,0.00015232875451347898, ,0.0009400042661204763, ,0.11131231152484267, ,0.0,0.0,0.0,0.0,0.0,0.0, ,0.0,0.0,0.0,0.0,0.0,0.0, ,1.4657549858093262
0.08970040112288155,0.07958510170213261,-0.13933813522414282, ,0.012995682084969902,0.021518074062799573,-0.0874545056077147, ,0.10930372657749017, ,0.00010079734194777322,9.934431984964523e-05,-5.6344045129035675e-05,0.0008920422640070124,0.0002964264150677858,-0.0009189644264551496, ,0.00015232875451347898, ,0.0009400042661204763, ,0.11128895588591997, ,0.0,0.0,0.0,0.0,0.0,0.0, ,0.0,0.0,0.0,0.0,0.0,0.0, ,1.4693920612335205
0.08970040112288155,0.07958510170213261,-0.13933813522414282, ,0.01304363560181979,0.021514048529231968,-0.08755498377205122, ,0.10922454710856508, ,0.00010079734194777322,9.934431984964523e-05,-5.6344045129035675e-05,0.0008920422640070124,0.0002964264150677858,-0.0009189644264551496, ,0.00015232875451347898, ,0.0009400042661204763, ,0.11126522704939866, ,0.0,0.0,0.0,0.0,0.0,0.0, ,0.0,0.0,0.0,0.0,0.0,0.0, ,1.4730548858642578
0.08970040112288155,0.07958510170213261,-0.13933813522414282, ,0.013091822014654057,0.021509675825312397,-0.087655603938744, ,0.1091453779315543, ,0.00010079734194777322,9.934431984964523e-05,-5.6344045129035675e-05,0.0008920422640070124,0.0002964264150677858,-0.0009189644264551496, ,0.00015232875451347898, ,0.0009400042661204763, ,0.1112411378548777, ,0.0,0.0,0.0,0.0,0.0,0.0, ,0.0,0.0,0.0,0.0,0.0,0.0, ,1.4766600131988525
0.08970040112288155,0.07958510170213261,-0.13933813522414282, ,0.013140238864823387,0.021504960470227766,-0.08775636305355002, ,0.10906622057611215, ,0.00010079734194777322,9.934431984964523e-05,-5.6344045129035675e-05,0.0008920422640070124,0.0002964264150677858,-0.0009189644264551496, ,0.00015232875451347898, ,0.0009400042661204763, ,0.11121670058208258, ,0.0,0.0,0.0,0.0,0.0,0.0, ,0.0,0.0,0.0,0.0,0.0,0.0, ,1.4801969528198242
0.08970040112288155,0.07958510170213261,-0.13933813522414282, ,0.013188883705093121,0.02149990696437158,-0.0878572580747765, ,0.10898707656123413, ,0.00010079734194777322,9.934431984964523e-05,-5.6344045129035675e-05,0.0008920422640070124,0.0002964264150677858,-0.0009189644264551496, ,0.00015232875451347898, ,0.0009400042661204763, ,0.11119192698185094, ,0.0,0.0,0.0,0.0,0.0,0.0, ,0.0,0.0,0.0,0.0,0.0,0.0, ,1.4837329387664795
0.08970040112288155,0.07958510170213261,-0.13933813522414282, ,0.013237754099622731,0.02149451978937459,-0.08795828597326176, ,0.10890794739508032, ,0.00010079734194777322,9.934431984964523e-05,-5.6344045129035675e-05,0.0008920422640070124,0.0002964264150677858,-0.0009189644264551496, ,0.00015232875451347898, ,0.0009400042661204763, ,0.11116682830507324, ,0.0,0.0,0.0,0.0,0.0,0.0, ,0.0,0.0,0.0,0.0,0.0,0.0, ,1.4873108863830566
0.08970040112288155,0.07958510170213261,-0.13933813522414282, ,0.013286847623945058,0.021488803408134576,-0.08805944373235704, ,0.1088288345748027, ,0.00010079734194777322,9.934431984964523e-05,-5.6344045129035675e-05,0.0008920422640070124,0.0002964264150677858,-0.0009189644264551496, ,0.00015232875451347898, ,0.0009400042661204763, ,0.11114141532974421, ,0.0,0.0,0.0,0.0,0.0,0.0, ,0.0,0.0,0.0,0.0,0.0,0.0, ,1.4908559322357178
0.08970040112288155,0.07958510170213261,-0.13933813522414282, ,0.01333616186494565,0.021482762264846897,-0.08816072834790756, ,0.1087497395863759, ,0.00010079734194777322,9.934431984964523e-05,-5.6344045129035675e-05,0.0008920422640070124,0.0002964264150677858,-0.0009189644264551496, ,0.00015232875451347898, ,0.0009400042661204763, ,0.11111569838626713, ,0.0,0.0,0.0,0.0,0.0,0.0, ,0.0,0.0,0.0,0.0,0.0,0.0, ,1.4943959712982178
0.08970040112288155,0.07958510170213261,-0.13933813522414282, ,0.013385694420842134,0.021476400785035033,-0.08826213682823367, ,0.1086706639044315, ,0.00010079734194777322,9.934431984964523e-05,-5.6344045129035675e-05,0.0008920422640070124,0.0002964264150677858,-0.0009189644264551496, ,0.00015232875451347898, ,0.0009400042661204763, ,0.11108968738114122, ,0.0,0.0,0.0,0.0,0.0,0.0, ,0.0,0.0,0.0,0.0,0.0,0.0, ,1.4979889392852783
0.08970040112288155,0.07958510170213261,-0.13933813522414282, ,0.013435442901163415,0.02146972337557981,-0.08836366619411246, ,0.10859160899209616, ,0.00010079734194777322,9.934431984964523e-05,-5.6344045129035675e-05,0.0008920422640070124,0.0002964264150677858,-0.0009189644264551496, ,0.00015232875451347898, ,0.0009400042661204763, ,0.11106339181915129, ,0.0,0.0,0.0,0.0,0.0,0.0, ,0.0,0.0,0.0,0.0,0.0,0.0, ,1.5020229816436768
0.08970040112288155,0.07958510170213261,-0.13933813522414282, ,0.013485404926729172,0.021462734424750583,-0.0884653134787589, ,0.10851257630083261, ,0.00010079734194777322,9.934431984964523e-05,-5.6344045129035675e-05,0.0008920422640070124,0.0002964264150677858,-0.0009189644264551496, ,0.00015232875451347898, ,0.0009400042661204763, ,0.11103682082416878, ,0.0,0.0,0.0,0.0,0.0,0.0, ,0.0,0.0,0.0,0.0,0.0,0.0, ,1.5065109729766846
0.08970040112288155,0.07958510170213261,-0.13933813522414282, ,0.013535578129629034,0.021455438302235095,-0.08856707572780752, ,0.10843356727028439, ,0.00010079734194777322,9.934431984964523e-05,-5.6344045129035675e-05,0.0008920422640070124,0.0002964264150677858,-0.0009189644264551496, ,0.00015232875451347898, ,0.0009400042661204763, ,0.11100998315866482, ,0.0,0.0,0.0,0.0,0.0,0.0, ,0.0,0.0,0.0,0.0,0.0,0.0, ,1.5102200508117676
0.08970040112288155,0.07958510170213261,-0.13933813522414282, ,0.013585960153201954,0.02144783935916972,-0.08866894999929359, ,0.10835458332812418, ,0.00010079734194777322,9.934431984964523e-05,-5.6344045129035675e-05,0.0008920422640070124,0.0002964264150677858,-0.0009189644264551496, ,0.00015232875451347898, ,0.0009400042661204763, ,0.11098288724202665, ,0.0,0.0,0.0,0.0,0.0,0.0, ,0.0,0.0,0.0,0.0,0.0,0.0, ,1.5139050483703613
0.08970040112288155,0.07958510170213261,-0.13933813522414282, ,0.013636548652015554,0.02143994192816981,-0.08877093336363409, ,0.10827562588990546, ,0.00010079734194777322,9.934431984964523e-05,-5.6344045129035675e-05,0.0008920422640070124,0.0002964264150677858,-0.0009189644264551496, ,0.00015232875451347898, ,0.0009400042661204763, ,0.11095554116776281, ,0.0,0.0,0.0,0.0,0.0,0.0, ,0.0,0.0,0.0,0.0,0.0,0.0, ,1.5174789428710938
0.08970040112288155,0.07958510170213261,-0.13933813522414282, ,0.01368734129184541,0.021431750323359786,-0.0888730229036093, ,0.10819669635891736, ,0.00010079734194777322,9.934431984964523e-05,-5.6344045129035675e-05,0.0008920422640070124,0.0002964264150677858,-0.0009189644264551496, ,0.00015232875451347898, ,0.0009400042661204763, ,0.11092795271967434, ,0.0,0.0,0.0,0.0,0.0,0.0, ,0.0,0.0,0.0,0.0,0.0,0.0, ,1.5210158824920654
0.08970040112288155,0.07958510170213261,-0.13933813522414282, ,0.013738335749654374,0.02142326884040328,-0.08897521571434451, ,0.10811779612604301, ,0.00010079734194777322,9.934431984964523e-05,-5.6344045129035675e-05,0.0008920422640070124,0.0002964264150677858,-0.0009189644264551496, ,0.00015232875451347898, ,0.0009400042661204763, ,0.11090012938706413, ,0.0,0.0,0.0,0.0,0.0,0.0, ,0.0,0.0,0.0,0.0,0.0,0.0, ,1.5245530605316162
0.08970040112288155,0.07958510170213261,-0.13933813522414282, ,0.013789529713572021,0.02141450175653393,-0.08907750890329102, ,0.10803892656962079, ,0.00010079734194777322,9.934431984964523e-05,-5.6344045129035675e-05,0.0008920422640070124,0.0002964264150677858,-0.0009189644264551496, ,0.00015232875451347898, ,0.0009400042661204763, ,0.11087207837904998, ,0.0,0.0,0.0,0.0,0.0,0.0, ,0.0,0.0,0.0,0.0,0.0,0.0, ,1.5280978679656982
0.08970040112288155,0.07958510170213261,-0.13933813522414282, ,0.013840920882873675,0.021405453330584755,-0.08917989959020721, ,0.10796008905531018, ,0.00010079734194777322,9.934431984964523e-05,-5.6344045129035675e-05,0.0008920422640070124,0.0002964264150677858,-0.0009189644264551496, ,0.00015232875451347898, ,0.0009400042661204763, ,0.11084380663804282, ,0.0,0.0,0.0,0.0,0.0,0.0, ,0.0,0.0,0.0,0.0,0.0,0.0, ,1.5316600799560547
0.08970040112288155,0.07958510170213261,-0.13933813522414282, ,0.01389250696796005,0.02139612780301906,-0.08928238490714052, ,0.107881284935959, ,0.00010079734194777322,9.934431984964523e-05,-5.6344045129035675e-05,0.0008920422640070124,0.0002964264150677858,-0.0009189644264551496, ,0.00015232875451347898, ,0.0009400042661204763, ,0.11081532085244584, ,0.0,0.0,0.0,0.0,0.0,0.0, ,0.0,0.0,0.0,0.0,0.0,0.0, ,1.5358209609985352
0.08970040112288155,0.07958510170213261,-0.13933813522414282, ,0.013944285690336386,0.021386529395960363,-0.08938496199840783, ,0.10780251555147567, ,0.00010079734194777322,9.934431984964523e-05,-5.6344045129035675e-05,0.0008920422640070124,0.0002964264150677858,-0.0009189644264551496, ,0.00015232875451347898, ,0.0009400042661204763, ,0.11078662746862708, ,0.0,0.0,0.0,0.0,0.0,0.0, ,0.0,0.0,0.0,0.0,0.0,0.0, ,1.5394361019134521
0.08970040112288155,0.07958510170213261,-0.13933813522414282, ,0.013996254782591807,0.021376662313222695,-0.08948762802057829, ,0.10772378222870306, ,0.00010079734194777322,9.934431984964523e-05,-5.6344045129035675e-05,0.0008920422640070124,0.0002964264150677858,-0.0009189644264551496, ,0.00015232875451347898, ,0.0009400042661204763, ,0.1107577327022127, ,0.0,0.0,0.0,0.0,0.0,0.0, ,0.0,0.0,0.0,0.0,0.0,0.0, ,1.5431420803070068
0.08970040112288155,0.07958510170213261,-0.13933813522414282, ,0.014048411988378706,0.021366530740341016,-0.0895903801424531, ,0.10764508628129703, ,0.00010079734194777322,9.934431984964523e-05,-5.6344045129035675e-05,0.0008920422640070124,0.0002964264150677858,-0.0009189644264551496, ,0.00015232875451347898, ,0.0009400042661204763, ,0.11072864254874619, ,0.0,0.0,0.0,0.0,0.0,0.0, ,0.0,0.0,0.0,0.0,0.0,0.0, ,1.547563076019287
0.08970040112288155,0.07958510170213261,-0.13933813522414282, ,0.014100755062391992,0.021356138844601073,-0.08969321554504757, ,0.10756642900960736, ,0.00010079734194777322,9.934431984964523e-05,-5.6344045129035675e-05,0.0008920422640070124,0.0002964264150677858,-0.0009189644264551496, ,0.00015232875451347898, ,0.0009400042661204763, ,0.11069936279375416, ,0.0,0.0,0.0,0.0,0.0,0.0, ,0.0,0.0,0.0,0.0,0.0,0.0, ,1.55116605758667
0.08970040112288155,0.07958510170213261,-0.13933813522414282, ,0.014153281770348396,0.02134549077506984,-0.0897961314215727, ,0.10748781170056171, ,0.00010079734194777322,9.934431984964523e-05,-5.6344045129035675e-05,0.0008920422640070124,0.0002964264150677858,-0.0009189644264551496, ,0.00015232875451347898, ,0.0009400042661204763, ,0.11066989902225699, ,0.0,0.0,0.0,0.0,0.0,0.0, ,0.0,0.0,0.0,0.0,0.0,0.0, ,1.5548169612884521
0.08970040112288155,0.07958510170213261,-0.13933813522414282, ,0.0142059898889658,0.02133459066262569,-0.08989912497741587, ,0.10740923562755333, ,0.00010079734194777322,9.934431984964523e-05,-5.6344045129035675e-05,0.0008920422640070124,0.0002964264150677858,-0.0009189644264551496, ,0.00015232875451347898, ,0.0009400042661204763, ,0.11064025662775968, ,0.0,0.0,0.0,0.0,0.0,0.0, ,0.0,0.0,0.0,0.0,0.0,0.0, ,1.5584330558776855
0.08970040112288155,0.07958510170213261,-0.13933813522414282, ,0.014258877205942763,0.02132344261998901,-0.09000219343012307, ,0.10733070205033077, ,0.00010079734194777322,9.934431984964523e-05,-5.6344045129035675e-05,0.0008920422640070124,0.0002964264150677858,-0.0009189644264551496, ,0.00015232875451347898, ,0.0009400042661204763, ,0.11061044082075581, ,0.0,0.0,0.0,0.0,0.0,0.0, ,0.0,0.0,0.0,0.0,0.0,0.0, ,1.5629370212554932
0.08970040112288155,0.07958510170213261,-0.13933813522414282, ,0.014311941519937412,0.02131205074175163,-0.09010533400937909, ,0.10725221221489252, ,0.00010079734194777322,9.934431984964523e-05,-5.6344045129035675e-05,0.0008920422640070124,0.0002964264150677858,-0.0009189644264551496, ,0.00015232875451347898, ,0.0009400042661204763, ,0.11058045663677488, ,0.0,0.0,0.0,0.0,0.0,0.0, ,0.0,0.0,0.0,0.0,0.0,0.0, ,1.5666460990905762
0.08970040112288155,0.07958510170213261,-0.13933813522414282, ,0.01436518064054715,0.021300419104407792,-0.09020854395698985, ,0.1071737673533826, ,0.00010079734194777322,9.934431984964523e-05,-5.6344045129035675e-05,0.0008920422640070124,0.0002964264150677858,-0.0009189644264551496, ,0.00015232875451347898, ,0.0009400042661204763, ,0.11055030894400149, ,0.0,0.0,0.0,0.0,0.0,0.0, ,0.0,0.0,0.0,0.0,0.0,0.0, ,1.5702619552612305
0.08970040112288155,0.07958510170213261,-0.13933813522414282, ,0.01441859238828787,0.021288551766384042,-0.0903118205268632, ,0.10709536868399057, ,0.00010079734194777322,9.934431984964523e-05,-5.6344045129035675e-05,0.0008920422640070124,0.0002964264150677858,-0.0009189644264551496, ,0.00015232875451347898, ,0.0009400042661204763, ,0.11052000245049264, ,0.0,0.0,0.0,0.0,0.0,0.0, ,0.0,0.0,0.0,0.0,0.0,0.0, ,1.5737779140472412
0.08970040112288155,0.07958510170213261,-0.13933813522414282, ,0.01447217459457314,0.021276452768069512,-0.09041516098499067, ,0.10701701741085409, ,0.00010079734194777322,9.934431984964523e-05,-5.6344045129035675e-05,0.0008920422640070124,0.0002964264150677858,-0.0009189644264551496, ,0.00015232875451347898, ,0.0009400042661204763, ,0.1104895417110175, ,0.0,0.0,0.0,0.0,0.0,0.0, ,0.0,0.0,0.0,0.0,0.0,0.0, ,1.5775179862976074
0.08970040112288155,0.07958510170213261,-0.13933813522414282, ,0.01452592510169371,0.021264126131846247,-0.09051856260942813, ,0.1069387147239646, ,0.00010079734194777322,9.934431984964523e-05,-5.6344045129035675e-05,0.0008920422640070124,0.0002964264150677858,-0.0009189644264551496, ,0.00015232875451347898, ,0.0009400042661204763, ,0.11045893113354292, ,0.0,0.0,0.0,0.0,0.0,0.0, ,0.0,0.0,0.0,0.0,0.0,0.0, ,1.5814909934997559
0.08970040112288155,0.07958510170213261,-0.13933813522414282, ,0.01457984176279673,0.021251575862119173,-0.09062202269027803, ,0.10686046179907571, ,0.00010079734194777322,9.934431984964523e-05,-5.6344045129035675e-05,0.0008920422640070124,0.0002964264150677858,-0.0009189644264551496, ,0.00015232875451347898, ,0.0009400042661204763, ,0.11042817498538508, ,0.0,0.0,0.0,0.0,0.0,0.0, ,0.0,0.0,0.0,0.0,0.0,0.0, ,1.5851120948791504
0.08970040112288155,0.07958510170213261,-0.13933813522414282, ,0.014633922441865071,0.02123880594534681,-0.09072553852966993, ,0.10678225979761478, ,0.00010079734194777322,9.934431984964523e-05,-5.6344045129035675e-05,0.0008920422640070124,0.0002964264150677858,-0.0009189644264551496, ,0.00015232875451347898, ,0.0009400042661204763, ,0.11039727739904806, ,0.0,0.0,0.0,0.0,0.0,0.0, ,0.0,0.0,0.0,0.0,0.0,0.0, ,1.5887079238891602
0.08970040112288155,0.07958510170213261,-0.13933813522414282, ,0.01468816501369658,0.021225820350070694,-0.09082910744174232, ,0.10670410986659765, ,0.00010079734194777322,9.934431984964523e-05,-5.6344045129035675e-05,0.0008920422640070124,0.0002964264150677858,-0.0009189644264551496, ,0.00015232875451347898, ,0.0009400042661204763, ,0.11036624237776696, ,0.0,0.0,0.0,0.0,0.0,0.0, ,0.0,0.0,0.0,0.0,0.0,0.0, ,1.5928149223327637
0.08970040112288155,0.07958510170213261,-0.13933813522414282, ,0.014742567363883607,0.02121262302694651,-0.0909327267526237, ,0.10662601313854533, ,0.00010079734194777322,9.934431984964523e-05,-5.6344045129035675e-05,0.0008920422640070124,0.0002964264150677858,-0.0009189644264551496, ,0.00015232875451347898, ,0.0009400042661204763, ,0.11033507380077344, ,0.0,0.0,0.0,0.0,0.0,0.0, ,0.0,0.0,0.0,0.0,0.0,0.0, ,1.5964610576629639
0.08970040112288155,0.07958510170213261,-0.13933813522414282, ,0.014797127388792115,0.021199217908773858,-0.09103639380041431, ,0.10654797073140461, ,0.00010079734194777322,9.934431984964523e-05,-5.6344045129035675e-05,0.0008920422640070124,0.0002964264150677858,-0.0009189644264551496, ,0.00015232875451347898, ,0.0009400042661204763, ,0.11030377542829933, ,0.0,0.0,0.0,0.0,0.0,0.0, ,0.0,0.0,0.0,0.0,0.0,0.0, ,1.6000380516052246
0.08970040112288155,0.07958510170213261,-0.13933813522414282, ,0.014851842995541164,0.021185608910526527,-0.09114010593516698, ,0.10646998374847098, ,0.00010079734194777322,9.934431984964523e-05,-5.6344045129035675e-05,0.0008920422640070124,0.0002964264150677858,-0.0009189644264551496, ,0.00015232875451347898, ,0.0009400042661204763, ,0.11027235090633353, ,0.0,0.0,0.0,0.0,0.0,0.0, ,0.0,0.0,0.0,0.0,0.0,0.0, ,1.6036179065704346
0.08970040112288155,0.07958510170213261,-0.13933813522414282, ,0.01490671210198212,0.021171799929382833,-0.09124386051886876, ,0.10639205327831448, ,0.00010079734194777322,9.934431984964523e-05,-5.6344045129035675e-05,0.0008920422640070124,0.0002964264150677858,-0.0009189644264551496, ,0.00015232875451347898, ,0.0009400042661204763, ,0.11024080377114638, ,0.0,0.0,0.0,0.0,0.0,0.0, ,0.0,0.0,0.0,0.0,0.0,0.0, ,1.6072440147399902
0.08970040112288155,0.07958510170213261,-0.13933813522414282, ,0.01496173263667785,0.021157794844755308,-0.09134765492542227, ,0.10631418039470873, ,0.00010079734194777322,9.934431984964523e-05,-5.6344045129035675e-05,0.0008920422640070124,0.0002964264150677858,-0.0009189644264551496, ,0.00015232875451347898, ,0.0009400042661204763, ,0.11020913745359447, ,0.0,0.0,0.0,0.0,0.0,0.0, ,0.0,0.0,0.0,0.0,0.0,0.0, ,1.6109859943389893
0.08970040112288155,0.07958510170213261,-0.13933813522414282, ,0.015016902538882352,0.02114359751832181,-0.09145148654062649, ,0.10623636615656194, ,0.00010079734194777322,9.934431984964523e-05,-5.6344045129035675e-05,0.0008920422640070124,0.0002964264150677858,-0.0009189644264551496, ,0.00015232875451347898, ,0.0009400042661204763, ,0.1101773552832182, ,0.0,0.0,0.0,0.0,0.0,0.0, ,0.0,0.0,0.0,0.0,0.0,0.0, ,1.6148080825805664
0.08970040112288155,0.07958510170213261,-0.13933813522414282, ,0.015072219758519936,0.021129211794055254,-0.09155535276215947, ,0.10615861160785088, ,0.00010079734194777322,9.934431984964523e-05,-5.6344045129035675e-05,0.0008920422640070124,0.0002964264150677858,-0.0009189644264551496, ,0.00015232875451347898, ,0.0009400042661204763, ,0.11014546049214387, ,0.0,0.0,0.0,0.0,0.0,0.0, ,0.0,0.0,0.0,0.0,0.0,0.0, ,1.6184029579162598
0.08970040112288155,0.07958510170213261,-0.13933813522414282, ,0.01512768225616442,0.02111464149825394,-0.09165925099955802, ,0.1060809177775586, ,0.00010079734194777322,9.934431984964523e-05,-5.6344045129035675e-05,0.0008920422640070124,0.0002964264150677858,-0.0009189644264551496, ,0.00015232875451347898, ,0.0009400042661204763, ,0.11011345621880068, ,0.0,0.0,0.0,0.0,0.0,0.0, ,0.0,0.0,0.0,0.0,0.0,0.0, ,1.6219990253448486
0.08970040112288155,0.07958510170213261,-0.13933813522414282, ,0.01518328800301856,0.021099890439571542,-0.09176317867419988, ,0.1060032856796138, ,0.00010079734194777322,9.934431984964523e-05,-5.6344045129035675e-05,0.0008920422640070124,0.0002964264150677858,-0.0009189644264551496, ,0.00015232875451347898, ,0.0009400042661204763, ,0.11008134551146329, ,0.0,0.0,0.0,0.0,0.0,0.0, ,0.0,0.0,0.0,0.0,0.0,0.0, ,1.6255130767822266
0.08970040112288155,0.07958510170213261,-0.13933813522414282, ,0.015239034980893419,0.021084962409047704,-0.09186713321928548, ,0.10592571631283275, ,0.00010079734194777322,9.934431984964523e-05,-5.6344045129035675e-05,0.0008920422640070124,0.0002964264150677858,-0.0009189644264551496, ,0.00015232875451347898, ,0.0009400042661204763, ,0.11004913133162894, ,0.0,0.0,0.0,0.0,0.0,0.0, ,0.0,0.0,0.0,0.0,0.0,0.0, ,1.6290838718414307
0.08970040112288155,0.07958510170213261,-0.13933813522414282, ,0.015294921182187567,0.021069861180138056,-0.09197111207981822, ,0.10584821066086508, ,0.00010079734194777322,9.934431984964523e-05,-5.6344045129035675e-05,0.0008920422640070124,0.0002964264150677858,-0.0009189644264551496, ,0.00015232875451347898, ,0.0009400042661204763, ,0.11001681655723844, ,0.0,0.0,0.0,0.0,0.0,0.0, ,0.0,0.0,0.0,0.0,0.0,0.0, ,1.6330039501190186
0.08970040112288155,0.07958510170213261,-0.13933813522414282, ,0.015350944609866506,0.02105459050874459,-0.09207511271258675, ,0.10577076969214079, ,0.00010079734194777322,9.934431984964523e-05,-5.6344045129035675e-05,0.0008920422640070124,0.0002964264150677858,-0.0009189644264551496, ,0.00015232875451347898, ,0.0009400042661204763, ,0.10998440398574914, ,0.0,0.0,0.0,0.0,0.0,0.0, ,0.0,0.0,0.0,0.0,0.0,0.0, ,1.636765956878662
0.08970040112288155,0.07958510170213261,-0.13933813522414282, ,0.015407103277441839,0.021039154133245568,-0.09217913258614577, ,0.10569339435982128, ,0.00010079734194777322,9.934431984964523e-05,-5.6344045129035675e-05,0.0008920422640070124,0.0002964264150677858,-0.0009189644264551496, ,0.00015232875451347898, ,0.0009400042661204763, ,0.10995189633706788, ,0.0,0.0,0.0,0.0,0.0,0.0, ,0.0,0.0,0.0,0.0,0.0,0.0, ,1.6403400897979736
0.08970040112288155,0.07958510170213261,-0.13933813522414282, ,0.015463395208950874,0.021023555774526234,-0.09228316918079763, ,0.1056160856017515, ,0.00010079734194777322,9.934431984964523e-05,-5.6344045129035675e-05,0.0008920422640070124,0.0002964264150677858,-0.0009189644264551496, ,0.00015232875451347898, ,0.0009400042661204763, ,0.1099192962563512, ,0.0,0.0,0.0,0.0,0.0,0.0, ,0.0,0.0,0.0,0.0,0.0,0.0, ,1.644057035446167
0.08970040112288155,0.07958510170213261,-0.13933813522414282, ,0.015519818438935563,0.021007799136008434,-0.0923872199885734, ,0.10553884434041634, ,0.00010079734194777322,9.934431984964523e-05,-5.6344045129035675e-05,0.0008920422640070124,0.0002964264150677858,-0.0009189644264551496, ,0.00015232875451347898, ,0.0009400042661204763, ,0.10988660631668005, ,0.0,0.0,0.0,0.0,0.0,0.0, ,0.0,0.0,0.0,0.0,0.0,0.0, ,1.6476709842681885
0.08970040112288155,0.07958510170213261,-0.13933813522414282, ,0.015576371012422114,0.020991887903681627,-0.09249128251321462, ,0.10546167148289792, ,0.00010079734194777322,9.934431984964523e-05,-5.6344045129035675e-05,0.0008920422640070124,0.0002964264150677858,-0.0009189644264551496, ,0.00015232875451347898, ,0.0009400042661204763, ,0.10985382902161499, ,0.0,0.0,0.0,0.0,0.0,0.0, ,0.0,0.0,0.0,0.0,0.0,0.0, ,1.6512749195098877
0.08970040112288155,0.07958510170213261,-0.13933813522414282, ,0.01563305098490022,0.020975825746132406,-0.0925953542701543, ,0.10538456792083675, ,0.00010079734194777322,9.934431984964523e-05,-5.6344045129035675e-05,0.0008920422640070124,0.0002964264150677858,-0.0009189644264551496, ,0.00015232875451347898, ,0.0009400042661204763, ,0.10982096680763868, ,0.0,0.0,0.0,0.0,0.0,0.0, ,0.0,0.0,0.0,0.0,0.0,0.0, ,1.6548619270324707
0.08970040112288155,0.07958510170213261,-0.13933813522414282, ,0.015689856422302292,0.02095961631457496,-0.09269943278649834, ,0.10530753453039493, ,0.00010079734194777322,9.934431984964523e-05,-5.6344045129035675e-05,0.0008920422640070124,0.0002964264150677858,-0.0009189644264551496, ,0.00015232875451347898, ,0.0009400042661204763, ,0.10978802204649092, ,0.0,0.0,0.0,0.0,0.0,0.0, ,0.0,0.0,0.0,0.0,0.0,0.0, ,1.658492088317871
0.08970040112288155,0.07958510170213261,-0.13933813522414282, ,0.01574678540098296,0.02094326324288144,-0.092803515601007, ,0.10523057217222138, ,0.00010079734194777322,9.934431984964523e-05,-5.6344045129035675e-05,0.0008920422640070124,0.0002964264150677858,-0.0009189644264551496, ,0.00015232875451347898, ,0.0009400042661204763, ,0.109754997047402, ,0.0,0.0,0.0,0.0,0.0,0.0, ,0.0,0.0,0.0,0.0,0.0,0.0, ,1.6621110439300537
0.08970040112288155,0.07958510170213261,-0.13933813522414282, ,0.015803836007698177,0.020926770147612177,-0.09290760026407617, ,0.10515368169142036, ,0.00010079734194777322,9.934431984964523e-05,-5.6344045129035675e-05,0.0008920422640070124,0.0002964264150677858,-0.0009189644264551496, ,0.00015232875451347898, ,0.0009400042661204763, ,0.10972189405922948, ,0.0,0.0,0.0,0.0,0.0,0.0, ,0.0,0.0,0.0,0.0,0.0,0.0, ,1.6656579971313477
0.08970040112288155,0.07958510170213261,-0.13933813522414282, ,0.01586100633958476,0.02091014062804563,-0.09301168433771881, ,0.105076863917522, ,0.00010079734194777322,9.934431984964523e-05,-5.6344045129035675e-05,0.0008920422640070124,0.0002964264150677858,-0.0009189644264551496, ,0.00015232875451347898, ,0.0009400042661204763, ,0.10968871527250301, ,0.0,0.0,0.0,0.0,0.0,0.0, ,0.0,0.0,0.0,0.0,0.0,0.0, ,1.6692218780517578
0.08970040112288155,0.07958510170213261,-0.13933813522414282, ,0.015918294504139507,0.02089337826620895,-0.09311576539554559, ,0.10500011966445555, ,0.00010079734194777322,9.934431984964523e-05,-5.6344045129035675e-05,0.0008920422640070124,0.0002964264150677858,-0.0009189644264551496, ,0.00015232875451347898, ,0.0009400042661204763, ,0.1096554628213821, ,0.0,0.0,0.0,0.0,0.0,0.0, ,0.0,0.0,0.0,0.0,0.0,0.0, ,1.6732850074768066
0.08970040112288155,0.07958510170213261,-0.13933813522414282, ,0.015975698619198616,0.020876486626907803,-0.09321984102274757, ,0.10492344973052455, ,0.00010079734194777322,9.934431984964523e-05,-5.6344045129035675e-05,0.0008920422640070124,0.0002964264150677858,-0.0009189644264551496, ,0.00015232875451347898, ,0.0009400042661204763, ,0.10962213878553098, ,0.0,0.0,0.0,0.0,0.0,0.0, ,0.0,0.0,0.0,0.0,0.0,0.0, ,1.6770999431610107
0.08970040112288155,0.07958510170213261,-0.13933813522414282, ,0.016033216812916997,0.020859469257757255,-0.09332390881607636, ,0.10484685489838481, ,0.00010079734194777322,9.934431984964523e-05,-5.6344045129035675e-05,0.0008920422640070124,0.0002964264150677858,-0.0009189644264551496, ,0.00015232875451347898, ,0.0009400042661204763, ,0.10958874519191458, ,0.0,0.0,0.0,0.0,0.0,0.0, ,0.0,0.0,0.0,0.0,0.0,0.0, ,1.6808340549468994
0.08970040112288155,0.07958510170213261,-0.13933813522414282, ,0.0160908472237476,0.02084232968921112,-0.09342796638382599, ,0.10477033593502494, ,0.00010079734194777322,9.934431984964523e-05,-5.6344045129035675e-05,0.0008920422640070124,0.0002964264150677858,-0.0009189644264551496, ,0.00015232875451347898, ,0.0009400042661204763, ,0.10955528401651951, ,0.0,0.0,0.0,0.0,0.0,0.0, ,0.0,0.0,0.0,0.0,0.0,0.0, ,1.6845099925994873
0.08970040112288155,0.07958510170213261,-0.13933813522414282, ,0.01614858800042072,0.020825071434593244,-0.09353201134581415, ,0.1046938935917484, ,0.00010079734194777322,9.934431984964523e-05,-5.6344045129035675e-05,0.0008920422640070124,0.0002964264150677858,-0.0009189644264551496, ,0.00015232875451347898, ,0.0009400042661204763, ,0.10952175718600385, ,0.0,0.0,0.0,0.0,0.0,0.0, ,0.0,0.0,0.0,0.0,0.0,0.0, ,1.6880888938903809
0.08970040112288155,0.07958510170213261,-0.13933813522414282, ,0.01620643730192325,0.02080769799012655,-0.09363604133336365, ,0.10461752860415918, ,0.00010079734194777322,9.934431984964523e-05,-5.6344045129035675e-05,0.0008920422640070124,0.0002964264150677858,-0.0009189644264551496, ,0.00015232875451347898, ,0.0009400042661204763, ,0.10948816657927889, ,0.0,0.0,0.0,0.0,0.0,0.0, ,0.0,0.0,0.0,0.0,0.0,0.0, ,1.691659927368164
0.08970040112288155,0.07958510170213261,-0.13933813522414282, ,0.0162643932974781,0.02079021283496414,-0.09374005398928327, ,0.10454124169214875, ,0.00010079734194777322,9.934431984964523e-05,-5.6344045129035675e-05,0.0008920422640070124,0.0002964264150677858,-0.0009189644264551496, ,0.00015232875451347898, ,0.0009400042661204763, ,0.1094545140290263, ,0.0,0.0,0.0,0.0,0.0,0.0, ,0.0,0.0,0.0,0.0,0.0,0.0, ,1.6952059268951416
0.08970040112288155,0.07958510170213261,-0.13933813522414282, ,0.016322454166523566,0.02077261943121944,-0.09384404696785012, ,0.10446503355988507, ,0.00010079734194777322,9.934431984964523e-05,-5.6344045129035675e-05,0.0008920422640070124,0.0002964264150677858,-0.0009189644264551496, ,0.00015232875451347898, ,0.0009400042661204763, ,0.10942080132315372, ,0.0,0.0,0.0,0.0,0.0,0.0, ,0.0,0.0,0.0,0.0,0.0,0.0, ,1.6987640857696533
0.08970040112288155,0.07958510170213261,-0.13933813522414282, ,0.01638061809869244,0.020754921223996078,-0.09394801793478988, ,0.10438890489580539, ,0.00010079734194777322,9.934431984964523e-05,-5.6344045129035675e-05,0.0008920422640070124,0.0002964264150677858,-0.0009189644264551496, ,0.00015232875451347898, ,0.0009400042661204763, ,0.10938703020619167, ,0.0,0.0,0.0,0.0,0.0,0.0, ,0.0,0.0,0.0,0.0,0.0,0.0, ,1.7023260593414307
0.08970040112288155,0.07958510170213261,-0.13933813522414282, ,0.016438883293791406,0.02073712164141788,-0.09405196456725842, ,0.10431285637261031, ,0.00010079734194777322,9.934431984964523e-05,-5.6344045129035675e-05,0.0008920422640070124,0.0002964264150677858,-0.0009189644264551496, ,0.00015232875451347898, ,0.0009400042661204763, ,0.10935320238063445, ,0.0,0.0,0.0,0.0,0.0,0.0, ,0.0,0.0,0.0,0.0,0.0,0.0, ,1.7120590209960938
0.08970040112288155,0.07958510170213261,-0.13933813522414282, ,0.01649724796178048,0.020719224094660087,-0.09415588455382383, ,0.10423688864725912, ,0.00010079734194777322,9.934431984964523e-05,-5.6344045129035675e-05,0.0008920422640070124,0.0002964264150677858,-0.0009189644264551496, ,0.00015232875451347898, ,0.0009400042661204763, ,0.109319319508228, ,0.0,0.0,0.0,0.0,0.0,0.0, ,0.0,0.0,0.0,0.0,0.0,0.0, ,1.7157630920410156
0.08970040112288155,0.07958510170213261,-0.13933813522414282, ,0.016555710322752357,0.020701231977978636,-0.09425977559444738, ,0.10416100236096903, ,0.00010079734194777322,9.934431984964523e-05,-5.6344045129035675e-05,0.0008920422640070124,0.0002964264150677858,-0.0009189644264551496, ,0.00015232875451347898, ,0.0009400042661204763, ,0.10928538321120655, ,0.0,0.0,0.0,0.0,0.0,0.0, ,0.0,0.0,0.0,0.0,0.0,0.0, ,1.7193009853363037
0.08970040112288155,0.07958510170213261,-0.13933813522414282, ,0.016614268606911415,0.02068314866874097,-0.09436363540046395, ,0.10408519813921628, ,0.00010079734194777322,9.934431984964523e-05,-5.6344045129035675e-05,0.0008920422640070124,0.0002964264150677858,-0.0009189644264551496, ,0.00015232875451347898, ,0.0009400042661204763, ,0.10925139507348113, ,0.0,0.0,0.0,0.0,0.0,0.0, ,0.0,0.0,0.0,0.0,0.0,0.0, ,1.723567008972168
0.08970040112288155,0.07958510170213261,-0.13933813522414282, ,0.016672921054553317,0.0206649775274557,-0.09446746169456491, ,0.10400947659173844, ,0.00010079734194777322,9.934431984964523e-05,-5.6344045129035675e-05,0.0008920422640070124,0.0002964264150677858,-0.0009189644264551496, ,0.00015232875451347898, ,0.0009400042661204763, ,0.10921735664178149, ,0.0,0.0,0.0,0.0,0.0,0.0, ,0.0,0.0,0.0,0.0,0.0,0.0, ,1.7271158695220947
0.08970040112288155,0.07958510170213261,-0.13933813522414282, ,0.01673166591604433,0.020646721897803505,-0.09457125221077843, ,0.1039338383125396, ,0.00010079734194777322,9.934431984964523e-05,-5.6344045129035675e-05,0.0008920422640070124,0.0002964264150677858,-0.0009189644264551496, ,0.00015232875451347898, ,0.0009400042661204763, ,0.10918326942675413, ,0.0,0.0,0.0,0.0,0.0,0.0, ,0.0,0.0,0.0,0.0,0.0,0.0, ,1.7306549549102783
0.08970040112288155,0.07958510170213261,-0.13933813522414282, ,0.0167905014518004,0.020628385106666796,-0.0946750046944512, ,0.10385828387989793, ,0.00010079734194777322,9.934431984964523e-05,-5.6344045129035675e-05,0.0008920422640070124,0.0002964264150677858,-0.0009189644264551496, ,0.00015232875451347898, ,0.0009400042661204763, ,0.10914913490401787, ,0.0,0.0,0.0,0.0,0.0,0.0, ,0.0,0.0,0.0,0.0,0.0,0.0, ,1.7342479228973389
0.08970040112288155,0.07958510170213261,-0.13933813522414282, ,0.016849425932266772,0.020609970464159976,-0.09477871690222954, ,0.10378281385637474, ,0.00010079734194777322,9.934431984964523e-05,-5.6344045129035675e-05,0.0008920422640070124,0.0002964264150677858,-0.0009189644264551496, ,0.00015232875451347898, ,0.0009400042661204763, ,0.10911495451517937, ,0.0,0.0,0.0,0.0,0.0,0.0, ,0.0,0.0,0.0,0.0,0.0,0.0, ,1.7378649711608887
0.08970040112288155,0.07958510170213261,-0.13933813522414282, ,0.016908437637897067,0.020591481263660255,-0.09488238660204112, ,0.1037074287888257, ,0.00010079734194777322,9.934431984964523e-05,-5.6344045129035675e-05,0.0008920422640070124,0.0002964264150677858,-0.0009189644264551496, ,0.00015232875451347898, ,0.0009400042661204763, ,0.10908072966881005, ,0.0,0.0,0.0,0.0,0.0,0.0, ,0.0,0.0,0.0,0.0,0.0,0.0, ,1.7414889335632324
0.08970040112288155,0.07958510170213261,-0.13933813522414282, ,0.016967534859132858,0.020572920781837374,-0.09498601157307586, ,0.10363212920841462, ,0.00010079734194777322,9.934431984964523e-05,-5.6344045129035675e-05,0.0008920422640070124,0.0002964264150677858,-0.0009189644264551496, ,0.00015232875451347898, ,0.0009400042661204763, ,0.10904646174138617, ,0.0,0.0,0.0,0.0,0.0,0.0, ,0.0,0.0,0.0,0.0,0.0,0.0, ,1.745236873626709
0.08970040112288155,0.07958510170213261,-0.13933813522414282, ,0.017026715896382633,0.020554292278683592,-0.09508958960576788, ,0.10355691563062899, ,0.00010079734194777322,9.934431984964523e-05,-5.6344045129035675e-05,0.0008920422640070124,0.0002964264150677858,-0.0009189644264551496, ,0.00015232875451347898, ,0.0009400042661204763, ,0.10901215207819395, ,0.0,0.0,0.0,0.0,0.0,0.0, ,0.0,0.0,0.0,0.0,0.0,0.0, ,1.7488410472869873
0.08970040112288155,0.07958510170213261,-0.13933813522414282, ,0.017085979060001463,0.02053559899754459,-0.09519311850177585, ,0.10348178855529747, ,0.00010079734194777322,9.934431984964523e-05,-5.6344045129035675e-05,0.0008920422640070124,0.0002964264150677858,-0.0009189644264551496, ,0.00015232875451347898, ,0.0009400042661204763, ,0.10897780199420079, ,0.0,0.0,0.0,0.0,0.0,0.0, ,0.0,0.0,0.0,0.0,0.0,0.0, ,1.7525529861450195
0.08970040112288155,0.07958510170213261,-0.13933813522414282, ,0.0171453226702701,0.020516844165149244,-0.09529659607396533, ,0.10340674846660931, ,0.00010079734194777322,9.934431984964523e-05,-5.6344045129035675e-05,0.0008920422640070124,0.0002964264150677858,-0.0009189644264551496, ,0.00015232875451347898, ,0.0009400042661204763, ,0.10894341277489468, ,0.0,0.0,0.0,0.0,0.0,0.0, ,0.0,0.0,0.0,0.0,0.0,0.0, ,1.756239891052246
0.08970040112288155,0.07958510170213261,-0.13933813522414282, ,0.01720474505737433,0.020498030991639975,-0.09540002014638986, ,0.10333179583313615, ,0.00010079734194777322,9.934431984964523e-05,-5.6344045129035675e-05,0.0008920422640070124,0.0002964264150677858,-0.0009189644264551496, ,0.00015232875451347898, ,0.0009400042661204763, ,0.10890898567709248, ,0.0,0.0,0.0,0.0,0.0,0.0, ,0.0,0.0,0.0,0.0,0.0,0.0, ,1.760077953338623
0.08970040112288155,0.07958510170213261,-0.13933813522414282, ,0.017264244561384506,0.020479162670602964,-0.09550338855427186, ,0.10325693110785529, ,0.00010079734194777322,9.934431984964523e-05,-5.6344045129035675e-05,0.0008920422640070124,0.0002964264150677858,-0.0009189644264551496, ,0.00015232875451347898, ,0.0009400042661204763, ,0.10887452192971907, ,0.0,0.0,0.0,0.0,0.0,0.0, ,0.0,0.0,0.0,0.0,0.0,0.0, ,1.7638330459594727
0.08970040112288155,0.07958510170213261,-0.13933813522414282, ,0.017323819532234483,0.02046024237909832,-0.09560669914398448, ,0.10318215472817556, ,0.00010079734194777322,9.934431984964523e-05,-5.6344045129035675e-05,0.0008920422640070124,0.0002964264150677858,-0.0009189644264551496, ,0.00015232875451347898, ,0.0009400042661204763, ,0.10884002273455821, ,0.0,0.0,0.0,0.0,0.0,0.0, ,0.0,0.0,0.0,0.0,0.0,0.0, ,1.7674150466918945
0.08970040112288155,0.07958510170213261,-0.13933813522414282, ,0.01738346832970121,0.020441273277690408,-0.09570994977303246, ,0.10310746711596447, ,0.00010079734194777322,9.934431984964523e-05,-5.6344045129035675e-05,0.0008920422640070124,0.0002964264150677858,-0.0009189644264551496, ,0.00015232875451347898, ,0.0009400042661204763, ,0.10880548926697632, ,0.0,0.0,0.0,0.0,0.0,0.0, ,0.0,0.0,0.0,0.0,0.0,0.0, ,1.7709760665893555
0.08970040112288155,0.07958510170213261,-0.13933813522414282, ,0.017443189323383908,0.02042225851047777,-0.09581313831003402, ,0.10303286867757776, ,0.00010079734194777322,9.934431984964523e-05,-5.6344045129035675e-05,0.0008920422640070124,0.0002964264150677858,-0.0009189644264551496, ,0.00015232875451347898, ,0.0009400042661204763, ,0.10877092267662064, ,0.0,0.0,0.0,0.0,0.0,0.0, ,0.0,0.0,0.0,0.0,0.0,0.0, ,1.774528980255127
0.08970040112288155,0.07958510170213261,-0.13933813522414282, ,0.017502980892683727,0.020403201205124247,-0.09591626263470208, ,0.10295835980388965, ,0.00010079734194777322,9.934431984964523e-05,-5.6344045129035675e-05,0.0008920422640070124,0.0002964264150677858,-0.0009189644264551496, ,0.00015232875451347898, ,0.0009400042661204763, ,0.10873632408809247, ,0.0,0.0,0.0,0.0,0.0,0.0, ,0.0,0.0,0.0,0.0,0.0,0.0, ,1.7784850597381592
0.08970040112288155,0.07958510170213261,-0.13933813522414282, ,0.017562841426782445,0.02038410447288791,-0.09601932063782523, ,0.10288394087032758, ,0.00010079734194777322,9.934431984964523e-05,-5.6344045129035675e-05,0.0008920422640070124,0.0002964264150677858,-0.0009189644264551496, ,0.00015232875451347898, ,0.0009400042661204763, ,0.10870169460159683, ,0.0,0.0,0.0,0.0,0.0,0.0, ,0.0,0.0,0.0,0.0,0.0,0.0, ,1.7821300029754639
0.08970040112288155,0.07958510170213261,-0.13933813522414282, ,0.017622769324622294,0.02036497140865216,-0.09612231022124931, ,0.10280961223690588, ,0.00010079734194777322,9.934431984964523e-05,-5.6344045129035675e-05,0.0008920422640070124,0.0002964264150677858,-0.0009189644264551496, ,0.00015232875451347898, ,0.0009400042661204763, ,0.10866703529356923, ,0.0,0.0,0.0,0.0,0.0,0.0, ,0.0,0.0,0.0,0.0,0.0,0.0, ,1.7858328819274902
0.08970040112288155,0.07958510170213261,-0.13933813522414282, ,0.017682762994885227,0.02034580509095596,-0.09622522929785875, ,0.10273537424826279, ,0.00010079734194777322,9.934431984964523e-05,-5.6344045129035675e-05,0.0008920422640070124,0.0002964264150677858,-0.0009189644264551496, ,0.00015232875451347898, ,0.0009400042661204763, ,0.10863234721728089, ,0.0,0.0,0.0,0.0,0.0,0.0, ,0.0,0.0,0.0,0.0,0.0,0.0, ,1.7893900871276855
0.08970040112288155,0.07958510170213261,-0.13933813522414282, ,0.01774282085597201,0.020326608582023533,-0.09632807579155817, ,0.10266122723369914, ,0.00010079734194777322,9.934431984964523e-05,-5.6344045129035675e-05,0.0008920422640070124,0.0002964264150677858,-0.0009189644264551496, ,0.00015232875451347898, ,0.0009400042661204763, ,0.10859763140342286, ,0.0,0.0,0.0,0.0,0.0,0.0, ,0.0,0.0,0.0,0.0,0.0,0.0, ,1.792963981628418
0.08970040112288155,0.07958510170213261,-0.13933813522414282, ,0.017802941335981527,0.02030738492779483,-0.09643084763725297, ,0.1025871715072191, ,0.00010079734194777322,9.934431984964523e-05,-5.6344045129035675e-05,0.0008920422640070124,0.0002964264150677858,-0.0009189644264551496, ,0.00015232875451347898, ,0.0009400042661204763, ,0.10856288886067025, ,0.0,0.0,0.0,0.0,0.0,0.0, ,0.0,0.0,0.0,0.0,0.0,0.0, ,1.7973740100860596
0.08970040112288155,0.07958510170213261,-0.13933813522414282, ,0.017863122872690554,0.020288137157956274,-0.09653354278083189, ,0.10251320736757104, ,0.00010079734194777322,9.934431984964523e-05,-5.6344045129035675e-05,0.0008920422640070124,0.0002964264150677858,-0.0009189644264551496, ,0.00015232875451347898, ,0.0009400042661204763, ,0.10852812057622716, ,0.0,0.0,0.0,0.0,0.0,0.0, ,0.0,0.0,0.0,0.0,0.0,0.0, ,1.800935983657837
0.08970040112288155,0.07958510170213261,-0.13933813522414282, ,0.017923363913532536,0.02026886828597015,-0.09663615917914704, ,0.10243933509829285, ,0.00010079734194777322,9.934431984964523e-05,-5.6344045129035675e-05,0.0008920422640070124,0.0002964264150677858,-0.0009189644264551496, ,0.00015232875451347898, ,0.0009400042661204763, ,0.10849332751635324, ,0.0,0.0,0.0,0.0,0.0,0.0, ,0.0,0.0,0.0,0.0,0.0,0.0, ,1.8044459819793701
0.08970040112288155,0.07958510170213261,-0.13933813522414282, ,0.01798366291557704,0.02024958130910502,-0.09673869479999612, ,0.10236555496775693, ,0.00010079734194777322,9.934431984964523e-05,-5.6344045129035675e-05,0.0008920422640070124,0.0002964264150677858,-0.0009189644264551496, ,0.00015232875451347898, ,0.0009400042661204763, ,0.10845851062687259, ,0.0,0.0,0.0,0.0,0.0,0.0, ,0.0,0.0,0.0,0.0,0.0,0.0, ,1.8080120086669922
0.08970040112288155,0.07958510170213261,-0.13933813522414282, ,0.018044018345509557,0.020230279208466876,-0.09684114762210344, ,0.10229186722921677, ,0.00010079734194777322,9.934431984964523e-05,-5.6344045129035675e-05,0.0008920422640070124,0.0002964264150677858,-0.0009189644264551496, ,0.00015232875451347898, ,0.0009400042661204763, ,0.10842367083366548, ,0.0,0.0,0.0,0.0,0.0,0.0, ,0.0,0.0,0.0,0.0,0.0,0.0, ,1.8116590976715088
0.08970040112288155,0.07958510170213261,-0.13933813522414282, ,0.018104428679609888,0.020210964949027795,-0.09694351563510145, ,0.10221827212085731, ,0.00010079734194777322,9.934431984964523e-05,-5.6344045129035675e-05,0.0008920422640070124,0.0002964264150677858,-0.0009189644264551496, ,0.00015232875451347898, ,0.0009400042661204763, ,0.1083888090431441, ,0.0,0.0,0.0,0.0,0.0,0.0, ,0.0,0.0,0.0,0.0,0.0,0.0, ,1.8154230117797852
0.08970040112288155,0.07958510170213261,-0.13933813522414282, ,0.018164892403732355,0.02019164147965738,-0.09704579683951157, ,0.10214476986584468, ,0.00010079734194777322,9.934431984964523e-05,-5.6344045129035675e-05,0.0008920422640070124,0.0002964264150677858,-0.0009189644264551496, ,0.00015232875451347898, ,0.0009400042661204763, ,0.10835392614271226, ,0.0,0.0,0.0,0.0,0.0,0.0, ,0.0,0.0,0.0,0.0,0.0,0.0, ,1.8191819190979004
0.08970040112288155,0.07958510170213261,-0.13933813522414282, ,0.01822540801328472,0.020172311733152825,-0.09714798924672632, ,0.10207136067237829, ,0.00010079734194777322,9.934431984964523e-05,-5.6344045129035675e-05,0.0008920422640070124,0.0002964264150677858,-0.0009189644264551496, ,0.00015232875451347898, ,0.0009400042661204763, ,0.10831902300121041, ,0.0,0.0,0.0,0.0,0.0,0.0, ,0.0,0.0,0.0,0.0,0.0,0.0, ,1.822774887084961
0.08970040112288155,0.07958510170213261,-0.13933813522414282, ,0.01828597401320741,0.020152978626268435,-0.09725009087899017, ,0.10199804473374557, ,0.00010079734194777322,9.934431984964523e-05,-5.6344045129035675e-05,0.0008920422640070124,0.0002964264150677858,-0.0009189644264551496, ,0.00015232875451347898, ,0.0009400042661204763, ,0.10828410046934595, ,0.0,0.0,0.0,0.0,0.0,0.0, ,0.0,0.0,0.0,0.0,0.0,0.0, ,1.8263928890228271
0.08970040112288155,0.07958510170213261,-0.13933813522414282, ,0.018346588917953068,0.020133645059746682,-0.09735209976938103, ,0.10192482222837677, ,0.00010079734194777322,9.934431984964523e-05,-5.6344045129035675e-05,0.0008920422640070124,0.0002964264150677858,-0.0009189644264551496, ,0.00015232875451347898, ,0.0009400042661204763, ,0.10824915938010986, ,0.0,0.0,0.0,0.0,0.0,0.0, ,0.0,0.0,0.0,0.0,0.0,0.0, ,1.8299860954284668
0.08970040112288155,0.07958510170213261,-0.13933813522414282, ,0.018407251251465778,0.020114313918347948,-0.09745401396179108, ,0.10185169331990257, ,0.00010079734194777322,9.934431984964523e-05,-5.6344045129035675e-05,0.0008920422640070124,0.0002964264150677858,-0.0009189644264551496, ,0.00015232875451347898, ,0.0009400042661204763, ,0.10821420054917975, ,0.0,0.0,0.0,0.0,0.0,0.0, ,0.0,0.0,0.0,0.0,0.0,0.0, ,1.8336188793182373
0.08970040112288155,0.07958510170213261,-0.13933813522414282, ,0.01846795954716032,0.020094988070880847,-0.09755583151090924, ,0.10177865815721229, ,0.00010079734194777322,9.934431984964523e-05,-5.6344045129035675e-05,0.0008920422640070124,0.0002964264150677858,-0.0009189644264551496, ,0.00015232875451347898, ,0.0009400042661204763, ,0.10817922477531036, ,0.0,0.0,0.0,0.0,0.0,0.0, ,0.0,0.0,0.0,0.0,0.0,0.0, ,1.837697982788086
0.08970040112288155,0.07958510170213261,-0.13933813522414282, ,0.01852871234790153,0.02007567037023253,-0.09765755048220139, ,0.10170571687451452, ,0.00010079734194777322,9.934431984964523e-05,-5.6344045129035675e-05,0.0008920422640070124,0.0002964264150677858,-0.0009189644264551496, ,0.00015232875451347898, ,0.0009400042661204763, ,0.10814423284071148, ,0.0,0.0,0.0,0.0,0.0,0.0, ,0.0,0.0,0.0,0.0,0.0,0.0, ,1.8412609100341797
0.08970040112288155,0.07958510170213261,-0.13933813522414282, ,0.018589508205983724,0.020056363653398954,-0.09775916895189245, ,0.10163286959139839, ,0.00010079734194777322,9.934431984964523e-05,-5.6344045129035675e-05,0.0008920422640070124,0.0002964264150677858,-0.0009189644264551496, ,0.00015232875451347898, ,0.0009400042661204763, ,0.1081092255114141, ,0.0,0.0,0.0,0.0,0.0,0.0, ,0.0,0.0,0.0,0.0,0.0,0.0, ,1.8447859287261963
0.08970040112288155,0.07958510170213261,-0.13933813522414282, ,0.018650345683109932,0.020037070741515003,-0.09786068500694747, ,0.10156011641289711, ,0.00010079734194777322,9.934431984964523e-05,-5.6344045129035675e-05,0.0008920422640070124,0.0002964264150677858,-0.0009189644264551496, ,0.00015232875451347898, ,0.0009400042661204763, ,0.10807420353762523, ,0.0,0.0,0.0,0.0,0.0,0.0, ,0.0,0.0,0.0,0.0,0.0,0.0, ,1.8484210968017578
0.08970040112288155,0.07958510170213261,-0.13933813522414282, ,0.018711223350371144,0.020017794439884596,-0.09796209674505259, ,0.10148745742955287, ,0.00010079734194777322,9.934431984964523e-05,-5.6344045129035675e-05,0.0008920422640070124,0.0002964264150677858,-0.0009189644264551496, ,0.00015232875451347898, ,0.0009400042661204763, ,0.10803916765407166, ,0.0,0.0,0.0,0.0,0.0,0.0, ,0.0,0.0,0.0,0.0,0.0,0.0, ,1.8521130084991455
0.08970040112288155,0.07958510170213261,-0.13933813522414282, ,0.01877213978822556,0.01999853753801104,-0.09806340227459709, ,0.1014148927174828, ,0.00010079734194777322,9.934431984964523e-05,-5.6344045129035675e-05,0.0008920422640070124,0.0002964264150677858,-0.0009189644264551496, ,0.00015232875451347898, ,0.0009400042661204763, ,0.10800411858033308, ,0.0,0.0,0.0,0.0,0.0,0.0, ,0.0,0.0,0.0,0.0,0.0,0.0, ,1.8557960987091064
0.08970040112288155,0.07958510170213261,-0.13933813522414282, ,0.01883309358647835,0.019979302809627418,-0.09816459971465429, ,0.10134242233844638, ,0.00010079734194777322,9.934431984964523e-05,-5.6344045129035675e-05,0.0008920422640070124,0.0002964264150677858,-0.0009189644264551496, ,0.00015232875451347898, ,0.0009400042661204763, ,0.10796905702116527, ,0.0,0.0,0.0,0.0,0.0,0.0, ,0.0,0.0,0.0,0.0,0.0,0.0, ,1.8594930171966553
0.08970040112288155,0.07958510170213261,-0.13933813522414282, ,0.01889408334426046,0.01996009301272658,-0.09826568719496293, ,0.10127004633991485, ,0.00010079734194777322,9.934431984964523e-05,-5.6344045129035675e-05,0.0008920422640070124,0.0002964264150677858,-0.0009189644264551496, ,0.00015232875451347898, ,0.0009400042661204763, ,0.10793398366681319, ,0.0,0.0,0.0,0.0,0.0,0.0, ,0.0,0.0,0.0,0.0,0.0,0.0, ,1.8631129264831543
0.08970040112288155,0.07958510170213261,-0.13933813522414282, ,0.018955107670008284,0.019940910889591736,-0.09836666285590906, ,0.10119776475514111, ,0.00010079734194777322,9.934431984964523e-05,-5.6344045129035675e-05,0.0008920422640070124,0.0002964264150677858,-0.0009189644264551496, ,0.00015232875451347898, ,0.0009400042661204763, ,0.1078988991933149, ,0.0,0.0,0.0,0.0,0.0,0.0, ,0.0,0.0,0.0,0.0,0.0,0.0, ,1.8666939735412598
0.08970040112288155,0.07958510170213261,-0.13933813522414282, ,0.01901616518144248,0.019921759166825512,-0.09846752484850596, ,0.10112557760323314, ,0.00010079734194777322,9.934431984964523e-05,-5.6344045129035675e-05,0.0008920422640070124,0.0002964264150677858,-0.0009189644264551496, ,0.00015232875451347898, ,0.0009400042661204763, ,0.10786380426279635, ,0.0,0.0,0.0,0.0,0.0,0.0, ,0.0,0.0,0.0,0.0,0.0,0.0, ,1.8703229427337646
0.08970040112288155,0.07958510170213261,-0.13933813522414282, ,0.019077254505548154,0.019902640555382153,-0.09856827133437736, ,0.10105348488922462, ,0.00010079734194777322,9.934431984964523e-05,-5.6344045129035675e-05,0.0008920422640070124,0.0002964264150677858,-0.0009189644264551496, ,0.00015232875451347898, ,0.0009400042661204763, ,0.10782869952375732, ,0.0,0.0,0.0,0.0,0.0,0.0, ,0.0,0.0,0.0,0.0,0.0,0.0, ,1.874202013015747
0.08970040112288155,0.07958510170213261,-0.13933813522414282, ,0.01913837427855326,0.01988355775059595,-0.09866890048573725, ,0.10098148660415186, ,0.00010079734194777322,9.934431984964523e-05,-5.6344045129035675e-05,0.0008920422640070124,0.0002964264150677858,-0.0009189644264551496, ,0.00015232875451347898, ,0.0009400042661204763, ,0.10779358561134908, ,0.0,0.0,0.0,0.0,0.0,0.0, ,0.0,0.0,0.0,0.0,0.0,0.0, ,1.8777639865875244
0.08970040112288155,0.07958510170213261,-0.13933813522414282, ,0.019199523145908528,0.01986451343221237,-0.09876941048537238, ,0.10090958272512823, ,0.00010079734194777322,9.934431984964523e-05,-5.6344045129035675e-05,0.0008920422640070124,0.0002964264150677858,-0.0009189644264551496, ,0.00015232875451347898, ,0.0009400042661204763, ,0.10775846314764385, ,0.0,0.0,0.0,0.0,0.0,0.0, ,0.0,0.0,0.0,0.0,0.0,0.0, ,1.8812899589538574
0.08970040112288155,0.07958510170213261,-0.13933813522414282, ,0.019260699762266575,0.01984551026441826,-0.09886979952662261, ,0.10083777321542182, ,0.00010079734194777322,9.934431984964523e-05,-5.6344045129035675e-05,0.0008920422640070124,0.0002964264150677858,-0.0009189644264551496, ,0.00015232875451347898, ,0.0009400042661204763, ,0.10772333274189654, ,0.0,0.0,0.0,0.0,0.0,0.0, ,0.0,0.0,0.0,0.0,0.0,0.0, ,1.8848419189453125
0.08970040112288155,0.07958510170213261,-0.13933813522414282, ,0.019321902791461086,0.019826550895871344,-0.09897006581336293, ,0.10076605802453426, ,0.00010079734194777322,9.934431984964523e-05,-5.6344045129035675e-05,0.0008920422640070124,0.0002964264150677858,-0.0009189644264551496, ,0.00015232875451347898, ,0.0009400042661204763, ,0.10768819499079874, ,0.0,0.0,0.0,0.0,0.0,0.0, ,0.0,0.0,0.0,0.0,0.0,0.0, ,1.8884658813476562
0.08970040112288155,0.07958510170213261,-0.13933813522414282, ,0.019383130906486523,0.019807637959731738,-0.09907020755998439, ,0.10069443708827941, ,0.00010079734194777322,9.934431984964523e-05,-5.6344045129035675e-05,0.0008920422640070124,0.0002964264150677858,-0.0009189644264551496, ,0.00015232875451347898, ,0.0009400042661204763, ,0.10765305047872577, ,0.0,0.0,0.0,0.0,0.0,0.0, ,0.0,0.0,0.0,0.0,0.0,0.0, ,1.8921759128570557
0.08970040112288155,0.07958510170213261,-0.13933813522414282, ,0.019444382789476928,0.019788774073690868,-0.09917022299137604, ,0.1006229103288654, ,0.00010079734194777322,9.934431984964523e-05,-5.6344045129035675e-05,0.0008920422640070124,0.0002964264150677858,-0.0009189644264551496, ,0.00015232875451347898, ,0.0009400042661204763, ,0.10761789977797648, ,0.0,0.0,0.0,0.0,0.0,0.0, ,0.0,0.0,0.0,0.0,0.0,0.0, ,1.8957509994506836
0.08970040112288155,0.07958510170213261,-0.13933813522414282, ,0.01950565713168559,0.019769961840002334,-0.09927011034290527, ,0.1005514776549764, ,0.00010079734194777322,9.934431984964523e-05,-5.6344045129035675e-05,0.0008920422640070124,0.0002964264150677858,-0.0009189644264551496, ,0.00015232875451347898, ,0.0009400042661204763, ,0.10758274344900634, ,0.0,0.0,0.0,0.0,0.0,0.0, ,0.0,0.0,0.0,0.0,0.0,0.0, ,1.899332046508789
0.08970040112288155,0.07958510170213261,-0.13933813522414282, ,0.019566952633464498,0.019751203845512395,-0.09936986786040049, ,0.10048013896185537, ,0.00010079734194777322,9.934431984964523e-05,-5.6344045129035675e-05,0.0008920422640070124,0.0002964264150677858,-0.0009189644264551496, ,0.00015232875451347898, ,0.0009400042661204763, ,0.10754758204065411, ,0.0,0.0,0.0,0.0,0.0,0.0, ,0.0,0.0,0.0,0.0,0.0,0.0, ,1.9029159545898438
0.08970040112288155,0.07958510170213261,-0.13933813522414282, ,0.01962826800424309,0.01973250266168948,-0.09946949380013102, ,0.10040889413138994, ,0.00010079734194777322,9.934431984964523e-05,-5.6344045129035675e-05,0.0008920422640070124,0.0002964264150677858,-0.0009189644264551496, ,0.00015232875451347898, ,0.0009400042661204763, ,0.10751241609036218, ,0.0,0.0,0.0,0.0,0.0,0.0, ,0.0,0.0,0.0,0.0,0.0,0.0, ,1.9065139293670654
0.08970040112288155,0.07958510170213261,-0.13933813522414282, ,0.019689601962508272,0.019713860844655012,-0.09956898642878967, ,0.10033774303219681, ,0.00010079734194777322,9.934431984964523e-05,-5.6344045129035675e-05,0.0008920422640070124,0.0002964264150677858,-0.0009189644264551496, ,0.00015232875451347898, ,0.0009400042661204763, ,0.10747724612439076, ,0.0,0.0,0.0,0.0,0.0,0.0, ,0.0,0.0,0.0,0.0,0.0,0.0, ,1.9100570678710938
0.08970040112288155,0.07958510170213261,-0.13933813522414282, ,0.01975095323578311,0.019695280935213194,-0.09966834402347328, ,0.10026668551970964, ,0.00010079734194777322,9.934431984964523e-05,-5.6344045129035675e-05,0.0008920422640070124,0.0002964264150677858,-0.0009189644264551496, ,0.00015232875451347898, ,0.0009400042661204763, ,0.10744207265802647, ,0.0,0.0,0.0,0.0,0.0,0.0, ,0.0,0.0,0.0,0.0,0.0,0.0, ,1.9136300086975098
0.08970040112288155,0.07958510170213261,-0.13933813522414282, ,0.01981232056060658,0.019676765458881834,-0.09976756487166447, ,0.10019572143626627, ,0.00010079734194777322,9.934431984964523e-05,-5.6344045129035675e-05,0.0008920422640070124,0.0002964264150677858,-0.0009189644264551496, ,0.00015232875451347898, ,0.0009400042661204763, ,0.1074068961957849, ,0.0,0.0,0.0,0.0,0.0,0.0, ,0.0,0.0,0.0,0.0,0.0,0.0, ,1.917975902557373
0.08970040112288155,0.07958510170213261,-0.13933813522414282, ,0.019873702682512654,0.01965831692592164,-0.09986664727121293, ,0.1001248506111985, ,0.00010079734194777322,9.934431984964523e-05,-5.6344045129035675e-05,0.0008920422640070124,0.0002964264150677858,-0.0009189644264551496, ,0.00015232875451347898, ,0.0009400042661204763, ,0.10737171723160815, ,0.0,0.0,0.0,0.0,0.0,0.0, ,0.0,0.0,0.0,0.0,0.0,0.0, ,1.9215259552001953
0.08970040112288155,0.07958510170213261,-0.13933813522414282, ,0.01993509835600994,0.01963993783136778,-0.09996558953031673, ,0.10005407286092124, ,0.00010079734194777322,9.934431984964523e-05,-5.6344045129035675e-05,0.0008920422640070124,0.0002964264150677858,-0.0009189644264551496, ,0.00015232875451347898, ,0.0009400042661204763, ,0.10733653624905679, ,0.0,0.0,0.0,0.0,0.0,0.0, ,0.0,0.0,0.0,0.0,0.0,0.0, ,1.9251210689544678
0.08970040112288155,0.07958510170213261,-0.13933813522414282, ,0.019996506344560346,0.01962163065505834,-0.10006438996750353, ,0.09998338798902538, ,0.00010079734194777322,9.934431984964523e-05,-5.6344045129035675e-05,0.0008920422640070124,0.0002964264150677858,-0.0009189644264551496, ,0.00015232875451347898, ,0.0009400042661204763, ,0.10730135372149681, ,0.0,0.0,0.0,0.0,0.0,0.0, ,0.0,0.0,0.0,0.0,0.0,0.0, ,1.928847074508667
0.08970040112288155,0.07958510170213261,-0.13933813522414282, ,0.02005792542055908,0.0196033978616662,-0.10016304691161199, ,0.09991279578636857, ,0.00010079734194777322,9.934431984964523e-05,-5.6344045129035675e-05,0.0008920422640070124,0.0002964264150677858,-0.0009189644264551496, ,0.00015232875451347898, ,0.0009400042661204763, ,0.10726617011228193, ,0.0,0.0,0.0,0.0,0.0,0.0, ,0.0,0.0,0.0,0.0,0.0,0.0, ,1.9324700832366943
0.08970040112288155,0.07958510170213261,-0.13933813522414282, ,0.020119354365313712,0.019585241900728516,-0.10026155870177333, ,0.09984229603116901, ,0.00010079734194777322,9.934431984964523e-05,-5.6344045129035675e-05,0.0008920422640070124,0.0002964264150677858,-0.0009189644264551496, ,0.00015232875451347898, ,0.0009400042661204763, ,0.10723098587493068, ,0.0,0.0,0.0,0.0,0.0,0.0, ,0.0,0.0,0.0,0.0,0.0,0.0, ,1.936065912246704
0.08970040112288155,0.07958510170213261,-0.13933813522414282, ,0.020180791969023525,0.019567165206676923,-0.10035992368739241, ,0.09977188848909994, ,0.00010079734194777322,9.934431984964523e-05,-5.6344045129035675e-05,0.0008920422640070124,0.0002964264150677858,-0.0009189644264551496, ,0.00015232875451347898, ,0.0009400042661204763, ,0.1071958014532994, ,0.0,0.0,0.0,0.0,0.0,0.0, ,0.0,0.0,0.0,0.0,0.0,0.0, ,1.9395639896392822
0.08970040112288155,0.07958510170213261,-0.13933813522414282, ,0.020242237030758517,0.01954917019886787,-0.1004581402281293, ,0.09970157291338498, ,0.00010079734194777322,9.934431984964523e-05,-5.6344045129035675e-05,0.0008920422640070124,0.0002964264150677858,-0.0009189644264551496, ,0.00015232875451347898, ,0.0009400042661204763, ,0.10716061728175053, ,0.0,0.0,0.0,0.0,0.0,0.0, ,0.0,0.0,0.0,0.0,0.0,0.0, ,1.9431159496307373
0.08970040112288155,0.07958510170213261,-0.13933813522414282, ,0.020303688358439313,0.019531259281612718,-0.1005562066938802, ,0.09963134904489415, ,0.00010079734194777322,9.934431984964523e-05,-5.6344045129035675e-05,0.0008920422640070124,0.0002964264150677858,-0.0009189644264551496, ,0.00015232875451347898, ,0.0009400042661204763, ,0.10712543378531661, ,0.0,0.0,0.0,0.0,0.0,0.0, ,0.0,0.0,0.0,0.0,0.0,0.0, ,1.946686029434204
0.08970040112288155,0.07958510170213261,-0.13933813522414282, ,0.020365144768815936,0.01951343484420815,-0.10065412146475956, ,0.09956121661224118, ,0.00010079734194777322,9.934431984964523e-05,-5.6344045129035675e-05,0.0008920422640070124,0.0002964264150677858,-0.0009189644264551496, ,0.00015232875451347898, ,0.0009400042661204763, ,0.10709025137986045, ,0.0,0.0,0.0,0.0,0.0,0.0, ,0.0,0.0,0.0,0.0,0.0,0.0, ,1.950227975845337
0.08970040112288155,0.07958510170213261,-0.13933813522414282, ,0.020426605087447484,0.019495699260966486,-0.10075188293108066, ,0.0994911753318815, ,0.00010079734194777322,9.934431984964523e-05,-5.6344045129035675e-05,0.0008920422640070124,0.0002964264150677858,-0.0009189644264551496, ,0.00015232875451347898, ,0.0009400042661204763, ,0.10705507047223091, ,0.0,0.0,0.0,0.0,0.0,0.0, ,0.0,0.0,0.0,0.0,0.0,0.0, ,1.9537460803985596
0.08970040112288155,0.07958510170213261,-0.13933813522414282, ,0.020488068148681357,0.019478054891245652,-0.10084948949333723, ,0.0994212249082115, ,0.00010079734194777322,9.934431984964523e-05,-5.6344045129035675e-05,0.0008920422640070124,0.0002964264150677858,-0.0009189644264551496, ,0.00015232875451347898, ,0.0009400042661204763, ,0.10701989146041516, ,0.0,0.0,0.0,0.0,0.0,0.0, ,0.0,0.0,0.0,0.0,0.0,0.0, ,1.9573519229888916
0.08970040112288155,0.07958510170213261,-0.13933813522414282, ,0.02054953279563244,0.01946050407947932,-0.1009469395621849, ,0.0993513650336685, ,0.00010079734194777322,9.934431984964523e-05,-5.6344045129035675e-05,0.0008920422640070124,0.0002964264150677858,-0.0009189644264551496, ,0.00015232875451347898, ,0.0009400042661204763, ,0.10698471473368697, ,0.0,0.0,0.0,0.0,0.0,0.0, ,0.0,0.0,0.0,0.0,0.0,0.0, ,1.9609038829803467
0.08970040112288155,0.07958510170213261,-0.13933813522414282, ,0.020610997880162484,0.019443049155207472,-0.10104423155842213, ,0.09928159538883145, ,0.00010079734194777322,9.934431984964523e-05,-5.6344045129035675e-05,0.0008920422640070124,0.0002964264150677858,-0.0009189644264551496, ,0.00015232875451347898, ,0.0009400042661204763, ,0.10694954067275156, ,0.0,0.0,0.0,0.0,0.0,0.0, ,0.0,0.0,0.0,0.0,0.0,0.0, ,1.9655120372772217
0.08970040112288155,0.07958510170213261,-0.13933813522414282, ,0.02067246226285956,0.019425692433106562,-0.1011413639129726, ,0.09921191564252223, ,0.00010079734194777322,9.934431984964523e-05,-5.6344045129035675e-05,0.0008920422640070124,0.0002964264150677858,-0.0009189644264551496, ,0.00015232875451347898, ,0.0009400042661204763, ,0.10691436964988689, ,0.0,0.0,0.0,0.0,0.0,0.0, ,0.0,0.0,0.0,0.0,0.0,0.0, ,1.9693429470062256
0.08970040112288155,0.07958510170213261,-0.13933813522414282, ,0.020733924813017227,0.019408436213019326,-0.10123833506686528, ,0.09914232545190879, ,0.00010079734194777322,9.934431984964523e-05,-5.6344045129035675e-05,0.0008920422640070124,0.0002964264150677858,-0.0009189644264551496, ,0.00015232875451347898, ,0.0009400042661204763, ,0.10687920202908155, ,0.0,0.0,0.0,0.0,0.0,0.0, ,0.0,0.0,0.0,0.0,0.0,0.0, ,1.9733619689941406
0.08970040112288155,0.07958510170213261,-0.13933813522414282, ,0.020795384408614014,0.019391282779985773,-0.10133514347121637, ,0.09907282446260775, ,0.00010079734194777322,9.934431984964523e-05,-5.6344045129035675e-05,0.0008920422640070124,0.0002964264150677858,-0.0009189644264551496, ,0.00015232875451347898, ,0.0009400042661204763, ,0.1068440381661695, ,0.0,0.0,0.0,0.0,0.0,0.0, ,0.0,0.0,0.0,0.0,0.0,0.0, ,1.9769110679626465
0.08970040112288155,0.07958510170213261,-0.13933813522414282, ,0.02085683993629242,0.01937423440427258,-0.10143178758721083, ,0.09900341230878909, ,0.00010079734194777322,9.934431984964523e-05,-5.6344045129035675e-05,0.0008920422640070124,0.0002964264150677858,-0.0009189644264551496, ,0.00015232875451347898, ,0.0009400042661204763, ,0.10680887840896151, ,0.0,0.0,0.0,0.0,0.0,0.0, ,0.0,0.0,0.0,0.0,0.0,0.0, ,1.980513095855713
0.08970040112288155,0.07958510170213261,-0.13933813522414282, ,0.020918290291338605,0.019357293341403858,-0.10152826588608341, ,0.09893408861328057, ,0.00010079734194777322,9.934431984964523e-05,-5.6344045129035675e-05,0.0008920422640070124,0.0002964264150677858,-0.0009189644264551496, ,0.00015232875451347898, ,0.0009400042661204763, ,0.10677372309737365, ,0.0,0.0,0.0,0.0,0.0,0.0, ,0.0,0.0,0.0,0.0,0.0,0.0, ,1.9841039180755615
0.08970040112288155,0.07958510170213261,-0.13933813522414282, ,0.020979734377661437,0.019340461832191087,-0.10162457684909992, ,0.09886485298767363, ,0.00010079734194777322,9.934431984964523e-05,-5.6344045129035675e-05,0.0008920422640070124,0.0002964264150677858,-0.0009189644264551496, ,0.00015232875451347898, ,0.0009400042661204763, ,0.10673857256355276, ,0.0,0.0,0.0,0.0,0.0,0.0, ,0.0,0.0,0.0,0.0,0.0,0.0, ,1.9876470565795898
0.08970040112288155,0.07958510170213261,-0.13933813522414282, ,0.02104117110777205,0.019323742102763775,-0.10172071896753913, ,0.09879570503242915, ,0.00010079734194777322,9.934431984964523e-05,-5.6344045129035675e-05,0.0008920422640070124,0.0002964264150677858,-0.0009189644264551496, ,0.00015232875451347898, ,0.0009400042661204763, ,0.10670342713199912, ,0.0,0.0,0.0,0.0,0.0,0.0, ,0.0,0.0,0.0,0.0,0.0,0.0, ,1.991175889968872
0.08970040112288155,0.07958510170213261,-0.13933813522414282, ,0.021102599402762934,0.019307136364599034,-0.10181669074267337, ,0.09872664433698536, ,0.00010079734194777322,9.934431984964523e-05,-5.6344045129035675e-05,0.0008920422640070124,0.0002964264150677858,-0.0009189644264551496, ,0.00015232875451347898, ,0.0009400042661204763, ,0.10666828711968629, ,0.0,0.0,0.0,0.0,0.0,0.0, ,0.0,0.0,0.0,0.0,0.0,0.0, ,1.995527982711792
0.08970040112288155,0.07958510170213261,-0.13933813522414282, ,0.02116401819228739,0.019290646814552496,-0.1019124906857504, ,0.09865767047986473, ,0.00010079734194777322,9.934431984964523e-05,-5.6344045129035675e-05,0.0008920422640070124,0.0002964264150677858,-0.0009189644264551496, ,0.00015232875451347898, ,0.0009400042661204763, ,0.10663315283617829, ,0.0,0.0,0.0,0.0,0.0,0.0, ,0.0,0.0,0.0,0.0,0.0,0.0, ,1.9990670680999756
0.08970040112288155,0.07958510170213261,-0.13933813522414282, ,0.021225426414538565,0.01927427563488752,-0.1020081173179744, ,0.09858878302878352, ,0.00010079734194777322,9.934431984964523e-05,-5.6344045129035675e-05,0.0008920422640070124,0.0002964264150677858,-0.0009189644264551496, ,0.00015232875451347898, ,0.0009400042661204763, ,0.10659802458374425, ,0.0,0.0,0.0,0.0,0.0,0.0, ,0.0,0.0,0.0,0.0,0.0,0.0, ,2.0026869773864746
0.08970040112288155,0.07958510170213261,-0.13933813522414282, ,0.021286823016229625,0.019258024993307334,-0.10210356917048811, ,0.09851998154075867, ,0.00010079734194777322,9.934431984964523e-05,-5.6344045129035675e-05,0.0008920422640070124,0.0002964264150677858,-0.0009189644264551496, ,0.00015232875451347898, ,0.0009400042661204763, ,0.1065629026574704, ,0.0,0.0,0.0,0.0,0.0,0.0, ,0.0,0.0,0.0,0.0,0.0,0.0, ,2.0066208839416504
0.08970040112288155,0.07958510170213261,-0.13933813522414282, ,0.021348206952571773,0.019241897042982636,-0.10219884478435265, ,0.09845126556222056, ,0.00010079734194777322,9.934431984964523e-05,-5.6344045129035675e-05,0.0008920422640070124,0.0002964264150677858,-0.0009189644264551496, ,0.00015232875451347898, ,0.0009400042661204763, ,0.10652778734536976, ,0.0,0.0,0.0,0.0,0.0,0.0, ,0.0,0.0,0.0,0.0,0.0,0.0, ,2.010309934616089
0.08970040112288155,0.07958510170213261,-0.13933813522414282, ,0.021409577187254628,0.019225893922583996,-0.1022939427105307, ,0.09838263462912077, ,0.00010079734194777322,9.934431984964523e-05,-5.6344045129035675e-05,0.0008920422640070124,0.0002964264150677858,-0.0009189644264551496, ,0.00015232875451347898, ,0.0009400042661204763, ,0.10649267892848938, ,0.0,0.0,0.0,0.0,0.0,0.0, ,0.0,0.0,0.0,0.0,0.0,0.0, ,2.0139000415802
