NicholasDascanio/dvrk_moveit_final/test/execution/third_experiment_notsharpbends/thirdexp_300vel3.0/thirdexp_300vel3.0_13.csv
Current Position (x),Current Position (y),Current Position (z), ,Planned Position (x),Planned Position (y),Planned Position (z), ,Position Error,,Cartesian linear Velocity(x),Cartesian linear Velocity(y),Cartesian linear Velocity(z),Cartesian Angular Velocity(x),Cartesian Angular Velocity(y),Cartesian Angular Velocity(z), ,Total Linear Velocity, ,Total Angular Velocity, ,MSE, ,Joint 1 Position,Joint 2 Position,Joint 3 Position,Joint 4 Position,Joint 5 Position,Joint 6 Position, ,Joint 1 Velocity,Joint 2 Velocity,Joint 3 Velocity,Joint 4 Velocity,Joint 5 Velocity,Joint 6 Velocity, ,Time Stamp
0.008518721209910134,0.021102816814596085,-0.07525112085939016, ,0.008740700472570072,0.02102483623024408,-0.07543901822833889, ,0.00030109995988837884, ,0.00018424811663261958,-0.0001832533980815534,-0.0006797104506764156,0.31386973964511106,0.002598224962957435,-0.017942029702961996, ,0.0007276918806403159, ,0.3138804935606031, ,2.509166332403157e-05, ,0.13439099747725491,-0.2710447556866576,0.08524921556000001,1.607692796695848,0.18145327168850492,-1.2439283113149116, ,0.0011025809364061535,0.004638437877260594,0.0006202245860346597,0.0011213417605416966,-0.0008902936773492337,-0.31875298010477016, ,0.035887956619262695
0.008589499834982525,0.021117309912130646,-0.07536615249605287, ,0.008820489330143528,0.021002362648764775,-0.07570126340448007, ,0.0004229282931856623, ,0.002110679244860421,0.0006788767527520875,-0.005266056685806154,0.10169000305893545,-0.11696508115395254,-0.03830362279848745, ,0.00571377226867115, ,0.15498931230064628, ,3.2910375139729144e-05, ,0.13448367027174563,-0.2708207964333051,0.08536328908,1.6079024866393328,0.17612444819765274,-1.2506913217298679, ,0.004295904576038183,0.009863660723433821,0.005286694829074013,0.0,-0.11836679583371638,-0.11169423292357705, ,0.0721900463104248
0.008681379923422793,0.021141559159722823,-0.07565132672988888, ,0.008900284758415852,0.02098001912853075,-0.07596247301231025, ,0.0004133116469753991, ,0.0022852068113085253,0.0002779111403129545,-0.007478227713703017,-0.07073990093777995,-0.059178119511723436,-0.016162611082386046, ,0.007824531584085834, ,0.09222897261838453, ,3.5541871876545005e-05, ,0.13480802505246303,-0.27014119594037334,0.08564847288,1.6074831067523636,0.1729818087030476,-1.2567049776596093, ,0.010618528962303198,0.022444877379013902,0.007415647821229051,0.0017018878995853307,-0.05033017661378047,0.0487391154689344, ,0.10793304443359375
0.008740642087633059,0.02112751439725565,-0.07595347954150417, ,0.008980085369319957,0.020957805607973643,-0.076222648477356, ,0.00039822867090676405, ,0.0018265581370848312,-0.0008596271178160277,-0.006981674119519268,-0.021157221943556254,0.006148705122473036,-0.0013822997394996376, ,0.007267671354773869, ,0.022032580385962005, ,3.65611564513382e-05, ,0.1353331708879103,-0.2689287268791201,0.085944027,1.6074831067523636,0.1754412656988255,-1.253564739297289, ,0.013695618640275764,0.0344954349540061,0.006687158488664989,0.0016040776299746122,0.02000192185036959,-0.012816754619173257, ,0.1438610553741455
0.008817151204886426,0.02107838974384897,-0.07619083826978047, ,0.009059889780803698,0.02093572202520499,-0.0764817912268811, ,0.0004048823501055894, ,0.0022396842019350356,-0.0012424380594644043,-0.006437729264862507,-0.031044945280568625,-0.01709492025177914,-0.006737181012974632, ,0.006928506025375904, ,0.03544044179790259, ,3.731636386657295e-05, ,0.13592009858635137,-0.26751546676313703,0.08616698888,1.6074831067523636,0.17557790219859098,-1.255473089484078, ,0.017560499918295853,0.037214486885674816,0.00608666852120749,0.0015195629709573216,0.0,-0.005633292630482673, ,0.1849229335784912
0.008886047793982032,0.0210458330713528,-0.07639632086701598, ,0.009139696616820873,0.02091376831801737,-0.07673990268988286, ,0.0004470204619540437, ,0.0021879088311319078,-0.0008819967812120835,-0.007275835901778356,-0.01423446810717521,-0.014704036517919359,-0.00708868893751521, ,0.007648702598808528, ,0.020465306052552045, ,3.850760295186834e-05, ,0.13642979895605017,-0.26641883869499716,0.08636272867000001,1.6074831067523636,0.1754412656988255,-1.2559334227613654, ,0.015318311793134911,0.035409306551668206,0.006983258009644893,0.0014606159566922208,0.0,-0.02067401560735099, ,0.22185611724853516
0.008974872388407964,0.021021145384133674,-0.07669355521979303, ,0.009219504507322339,0.02089194442388471,-0.07699698429708572, ,0.0004106177866099891, ,0.002390789184678312,-0.0003662851895054861,-0.008026969094919343,0.003987293414191325,0.0006545107655800253,-0.0020210500765255597, ,0.008383452189666027, ,0.004040650911554979, ,3.886234957813648e-05, ,0.13710939944898196,-0.2651136968392532,0.08665180134000001,1.6074831067523636,0.1759878116978873,-1.2567874880768541, ,0.0187025899799903,0.03153770075057188,0.007893365470763133,0.0013903806241421701,0.019292784596854122,-0.0350685727148363, ,0.25869202613830566
0.00903722479905054,0.02100547774346109,-0.07690587791914819, ,0.009299312088247197,0.020870250279962997,-0.07725303748093783, ,0.0004555172613464352, ,0.0017348804921440667,-0.0004750744527061994,-0.006510804557035546,0.03147959862251983,0.025275565558309884,0.0032857640632332156, ,0.006754708138591258, ,0.040371020943589124, ,3.9678127206978805e-05, ,0.13761137708580654,-0.2642101370929689,0.08685920774000001,1.6074831067523636,0.1766709941967145,-1.2578346500361794, ,0.015417862154097607,0.027602368108921114,0.006371524608000002,0.0013412589652343448,0.041149914649218695,-0.05867798257821054, ,0.294187068939209
0.009128746695045075,0.020992898514164016,-0.07719534116752769, ,0.009379118001513819,0.020848685823091285,-0.07750806367560426, ,0.0004257680805638253, ,0.002186993278105216,-0.0003644799471575004,-0.006954230379308082,-0.010554146187997986,-0.004396065376285101,-0.002448188915392239, ,0.007299116754707295, ,0.01143308253646106, ,4.0432686939957e-05, ,0.13831414577736098,-0.26309034082620636,0.08714439154,1.6074831067523636,0.17708090369601082,-1.2585772974479716, ,0.016973160715162007,0.02758632022048569,0.006839335130957493,0.0012816939958062734,0.012500175242709053,-0.01660763339898727, ,0.3267199993133545
0.00918045197853607,0.02098749026037117,-0.077371003990866, ,0.00945892089501104,0.020827250989792028,-0.07776206431696364, ,0.0005061123787520685, ,0.002097311436380374,-0.000245333164052715,-0.006951774874889151,0.02511796272323545,0.00962368362292802,0.00015897995098362145, ,0.007265402778490405, ,0.026898463182941867, ,4.1854868902881554e-05, ,0.13872345061969488,-0.2624416312647715,0.0873180944,1.6074831067523636,0.17762744969507258,-1.2594313627634601, ,0.01744108464592369,0.02605627170743294,0.006880696120950325,0.0012495322737683323,0.02712967878679379,-0.05079262260747691, ,0.36044812202453613
0.009267175607775114,0.02097121329447659,-0.07763883262794379, ,0.009538719422589222,0.020805945716271968,-0.07801504084260207, ,0.0004925261785385526, ,0.002380440199449994,-0.0006222113414965933,-0.00695579052461362,-0.010133465463103885,-0.010187658823671862,-0.004043305410331575, ,0.007378120649525131, ,0.014369255315308844, ,4.2917551090153284e-05, ,0.1393953283797524,-0.26136044866238006,0.08758124127000001,1.6074831067523636,0.17803735919436892,-1.260174010175252, ,0.018743223693160338,0.030435196138059905,0.006795568054607509,0.0012014959388182318,0.008316713114230758,-0.01986024142791177, ,0.3934309482574463
0.009350974693784092,0.020953103543062932,-0.07790487002231347, ,0.00961851224405147,0.020784769938422626,-0.07826699469180835, ,0.0004806732981049033, ,0.0023958065196933507,-0.0005627558705807765,-0.00790736206268205,0.013432793868803241,0.00021918813689661437,-0.0027957984424918495, ,0.008281482828577356, ,0.013434580888397905, ,4.371768107569163e-05, ,0.14001314700969036,-0.26027154332711444,0.08784179556,1.6074831067523636,0.17831063219389978,-1.2609685971636289, ,0.01826346065405519,0.032577048252135525,0.007743710024307245,0.0011609264696192023,0.018322476234303938,-0.045568813523303886, ,0.42726993560791016
0.009443253320933953,0.020917995650115734,-0.07818948188065435, ,0.009698298025144644,0.020763723591821184,-0.07851792730556853, ,0.00044353586806865423, ,0.00277359681883227,-0.0006234079046504879,-0.007593918353769053,-0.010770270475313896,-0.032859634960960844,-0.008944101933000983, ,0.008108580189695831, ,0.03457968060328277, ,4.41119861023643e-05, ,0.14077769756423858,-0.2589200650741251,0.08811790533000001,1.607692796695848,0.17926708769225788,-1.2628920248514717, ,0.019778437173503707,0.03209230353685181,0.007429482985074627,0.0,-0.013771552956273678,-0.021032714116465928, ,0.46007513999938965
0.00952041309625058,0.020899913503705448,-0.07844272176631391, ,0.009778075437550741,0.020742806611730707,-0.07876784012656124, ,0.00044359261242739025, ,0.002477359366538909,-0.0005302181564589721,-0.008377240891136322,0.007125357352991171,-0.004260595938748745,9.903239888338182e-05, ,0.008751948678582576, ,0.00830200902814536, ,4.445452093696807e-05, ,0.14131056613256007,-0.2578929416018533,0.08836549672,1.6074831067523636,0.1794037241920233,-1.263411836455871, ,0.017727805260315855,0.03315756169059077,0.008214962104177412,-0.0028946084930155753,0.014257697557308808,-0.04037764548810126, ,0.49332404136657715
0.009592592010026144,0.020876822907194857,-0.0786676646940494, ,0.009857843158877734,0.020722018933101546,-0.07901673459915234, ,0.00046494326644306796, ,0.002263787101530103,-0.0006707679861855655,-0.0071827405756865964,0.004986359790319453,0.0054985832866421645,0.0032674128947430417, ,0.0075608480946227265, ,0.007422815032067236, ,4.490178009566017e-05, ,0.14185888016663,-0.2568967090610783,0.08858456973,1.6074831067523636,0.1798136336913196,-1.2639911263873818, ,0.01828809819974384,0.03091105588223804,0.007026383555359507,-0.0028406996462822603,0.024964640094916966,-0.03599782782036548, ,0.5272610187530518
0.009679561561751236,0.02085159602352716,-0.07894192325839651, ,0.009937599872651004,0.020701360490571287,-0.0792646121693892, ,0.00043963919130599104, ,0.0020569474190746248,-0.0006370150948422381,-0.006989144667756649,0.016545701854080535,0.015976005276202923,0.005149413405416725, ,0.007313341514159299, ,0.022999847341934738, ,4.5132450033615036e-05, ,0.142546203392436,-0.25572285366419617,0.08885290176,1.6074831067523636,0.18063345268991227,-1.2652313849905443, ,0.016976197058760422,0.029683122164050918,0.006842272989690722,-0.0026433712623552493,0.0342696950457844,-0.046319852435574765, ,0.5612709522247314
0.00976085237402898,0.020834880315378574,-0.0791831334016561, ,0.010017344268304352,0.020680831218465725,-0.07951147428499639, ,0.0004442149837199465, ,0.002643167748121076,-0.00024587341131453795,-0.008208918522894234,-0.0009945757256454822,-0.017975559029270505,-0.004660461142020239, ,0.008627463868056183, ,0.018003051575019035, ,4.536571956378321e-05, ,0.14314085382375127,-0.25476523478779234,0.08909012283000001,1.6072734168088794,0.1807700891896777,-1.2659962328153653, ,0.01811701824331248,0.028774087798202178,0.008135245924412667,-0.0005984249943833021,0.0,-0.02759248317711075, ,0.5946459770202637
0.009831275665608413,0.020825020506829228,-0.07942004083040463, ,0.010097075041171293,0.020660431050799233,-0.07975732239536978, ,0.00045988895523942417, ,0.0027625061449315404,-0.00024454173421264807,-0.008325537137836174,-0.0348065477016359,-0.0307359665705916,-0.008226102237431181, ,0.008775295407793723, ,0.04643485074741447, ,4.5932755813661325e-05, ,0.14368144512494702,-0.2539080114387534,0.08932475132,1.6070637268653947,0.18158990818827037,-1.267399848898809, ,0.017751017874760713,0.028976165361365123,0.00824472645962733,0.0009255575484123362,-0.013594039168019975,0.006263732108442214, ,0.624765157699585
0.009908526229111302,0.020813386360090287,-0.07966789363955404, ,0.010176790892476091,0.020640159921275974,-0.08000215795157162, ,0.0004622834184816693, ,0.0024899931572310006,-0.000377845492520046,-0.008739085616728051,0.004806976597434784,0.013810943971839323,0.0014245168120264843, ,0.009094748515257474, ,0.014623581860466696, ,4.6462484148702543e-05, ,0.14423748189189117,-0.25299672895959496,0.08956975013000001,1.6070637268653947,0.18199981768756668,-1.2678974600901793, ,0.018724731957077894,0.03165341613024376,0.008647563257328992,0.0009255575484123362,0.032986656231450924,-0.036037649050908775, ,0.653771162033081
0.00999026650395695,0.020798218983935246,-0.07991870336133526, ,0.010256490529325028,0.02062001776328987,-0.08024598240632459, ,0.00045797650596052854, ,0.002766206365638637,-0.0007383921817163837,-0.008216039472153361,-0.014141602334947519,-0.0058039202149620895,-0.002784622112834166, ,0.008700599133352926, ,0.015286280418186872, ,4.692385651646141e-05, ,0.14483985505608069,-0.2520391100831911,0.08981734152000001,1.6070637268653947,0.182409727186863,-1.2683133925414092, ,0.02095317764594188,0.034147873896535,0.008065221022784811,0.0009255575484123362,0.015199165296342004,-0.019538086253615305, ,0.683056116104126
0.01007217546211663,0.02077565180809813,-0.08016797005591468, ,0.010336172664697574,0.020600004509925926,-0.08048879721400737, ,0.00045108376350251053, ,0.0026668439352577245,-0.000948058805790313,-0.008105739490104468,-0.005679935590637452,0.003516663823579449,-0.0011692778606455904, ,0.008585679050354521, ,0.006680460895051339, ,4.731202529272202e-05, ,0.14548856461751553,-0.25100426387804503,0.09006234033,1.6070637268653947,0.18322954618545564,-1.2695536511445717, ,0.02083815141819736,0.03605506898118191,0.00791297144560358,0.0009255575484123362,0.024590730984258354,-0.029893694003370337, ,0.7119660377502441
0.010131649634534362,0.020761851367945717,-0.08033668040107733, ,0.01041583601743763,0.020580120093959837,-0.08073060383064935, ,0.0005186172235261353, ,0.0030331709004860546,-0.0007712432552748583,-0.008659257598030089,-0.013177039907456762,-0.010434017423020392,-0.0038533518958728994, ,0.009207479786532477, ,0.016807827093966984, ,4.800227662860557e-05, ,0.1459133149255979,-0.2503246633851133,0.09022826545000001,1.6070637268653947,0.18322954618545564,-1.2697170086248528, ,0.0228832750321849,0.0355952518974009,0.00851808102673797,0.0009255575484123362,0.012381444182812135,-0.02193029368117889, ,0.740502119064331
0.010218349426911704,0.020737864214019623,-0.08060145922315426, ,0.010495479312244581,0.020560364447859886,-0.08097140371392408, ,0.0004951424709942787, ,0.002717403992505122,-0.0008937509375528156,-0.008142112635272057,0.010618244761046863,0.004262199133093626,-0.0014938518021980923, ,0.008630010044160795, ,0.011441740578772081, ,4.8528931879626586e-05, ,0.14660063815140387,-0.2492357580498476,0.09048881974,1.6070637268653947,0.18418600168381372,-1.2711503638718522, ,0.021272571521737452,0.03521222321279064,0.007976370315473212,0.0009255575484123362,0.02563257902939763,-0.04536554472312304, ,0.7696969509124756
0.010304424606647409,0.020714902165655996,-0.08085214278659636, ,0.010575101279664748,0.020540737503786495,-0.08121119832314565, ,0.0004822033482738898, ,0.0030196907775731714,-0.0006313466280619983,-0.00887977170009473,-0.012134296761145533,-0.012603984735263186,-0.004575107685073658, ,0.009400397672584335, ,0.017495757596783464, ,4.89580272825347e-05, ,0.14722617951421604,-0.24820863457757575,0.09073511484,1.6070637268653947,0.1844592746833446,-1.271536557159526, ,0.021641263753357075,0.034184777218469305,0.00876654458998349,0.0009255575484123362,0.008860462513094365,-0.021569158329810045, ,0.7979171276092529
0.01038644276503546,0.020696446482803065,-0.08110682180213831, ,0.010654700656082264,0.02052123919359347,-0.08144998911926185, ,0.0004694930221449759, ,0.0027243353557521483,-0.0006202278211475063,-0.008472806907175539,0.011409078237048379,0.0023861857006014097,-0.0018785348564939405, ,0.008921610984962754, ,0.011655938604485518, ,4.9300885449427645e-05, ,0.14782855267840556,-0.24724329296829767,0.09098270623000002,1.6070637268653947,0.18514245718217182,-1.2727470765991327, ,0.020152249216069396,0.032543532770394644,0.008379174918463968,0.0009255575484123362,0.022886013569186108,-0.04422786377748453, ,0.8270299434661865
0.010466100839784715,0.02067784107903259,-0.08135271844449948, ,0.010734276183710631,0.020501869448828296,-0.08168777756484973, ,0.00046384118387268904, ,0.0028957855961214154,-0.0005155875193650714,-0.008803724152946401,-0.008709376720588708,-0.011155097021079913,-0.004450080776102189, ,0.00928207755138908, ,0.014152363036817715, ,4.9596349705926656e-05, ,0.14840003491109818,-0.24627795135901961,0.09122900133,1.6070637268653947,0.18555236668146813,-1.2734897240109249, ,0.01999092933610086,0.03220120175041425,0.008713791859956238,0.0009255575484123362,0.008636448700310074,-0.023026544162815684, ,0.8554689884185791
0.010518068827857696,0.020664330070465198,-0.08151051500860654, ,0.010813826610583624,0.02048262820073319,-0.08192456512410957, ,0.000540301521055737, ,0.002282722769361848,-0.0007223417533500479,-0.007411749166913999,-0.005732116523765204,0.014517680283212825,0.0016758626080465807, ,0.007788878389321931, ,0.015608336819815985, ,5.039439546259711e-05, ,0.14878617155480942,-0.24565240999620744,0.09138455613,1.6070637268653947,0.18596227618076444,-1.2743957289029981, ,0.017658530249064157,0.030337896917669686,0.007286739030192132,0.0009255575484123362,0.03270249230416228,-0.024163987408084463, ,0.8804800510406494
0.010600657612297313,0.02064806031417733,-0.08177660333636697, ,0.01089335069054682,0.020463515380244796,-0.08216035326286046, ,0.0005167108251034606, ,0.002714977419098238,-0.0003406643293802883,-0.009712083041228397,0.022748415780873728,0.016023848799111437,0.0006744937521085911, ,0.01009017896626426, ,0.027825421191182382, ,5.1052829425911496e-05, ,0.14935765378750201,-0.24467934565405514,0.09164770300000001,1.6070637268653947,0.1865088221798262,-1.2751681154783459, ,0.01884371357396163,0.03247670826778603,0.009653825163636366,0.0009255575484123362,0.0351456147961913,-0.05478329621549123, ,0.9064691066741943
0.010664304548183845,0.02064368642418537,-0.08198859799135566, ,0.010972847183248468,0.020444530917996022,-0.08239514344853366, ,0.0005478509670067429, ,0.003034651691213084,-0.00023715031201999848,-0.010234386378281128,-0.010677509117792383,0.005325061450714192,-0.00019913300230069668, ,0.010677453614856865, ,0.011931695945367745, ,5.179689646116682e-05, ,0.1497669586298359,-0.2440074678939976,0.09185899827,1.6070637268653947,0.1867820951793571,-1.2757993449864418, ,0.020674714936486007,0.03270053120553783,0.010210776615384616,0.0009255575484123362,0.026351906322577466,-0.021545994144431615, ,0.9314019680023193
0.010759698365502286,0.020630096372156605,-0.0822923376136008, ,0.011052314854131103,0.020425674744315628,-0.0826289371501683, ,0.000490623949032315, ,0.003068290770991729,-0.0006698141685433452,-0.009408940094524289,0.044187598841977295,0.013634190357079915,-0.0002492607687650158, ,0.009919234495568757, ,0.04624321533341447, ,5.2283762141030496e-05, ,0.15043111365701922,-0.2429648989559773,0.09216103384,1.6070637268653947,0.1874652776781843,-1.2769281856859078, ,0.023582738955882403,0.035120999836591706,0.009336935240328255,0.0009255575484123362,0.037304844564676094,-0.07885192762014713, ,0.9569220542907715
0.010821971683084674,0.02061093154145651,-0.08246227886433793, ,0.01113175247442248,0.020406946789229174,-0.08286173583840499, ,0.0005451053035459609, ,0.002924703242673919,-0.0011163355191268864,-0.008261396711108314,-0.012557705000141271,-0.0015038171289195024,0.0002713044728641373, ,0.008834634665184684, ,0.012647425917748666, ,5.294716572828512e-05, ,0.1508944776294727,-0.24224668479867442,0.09232825525,1.6072734168088794,0.18773855067771517,-1.2776410939341438, ,0.022141143620735132,0.036696419782857995,0.008085691126903554,-0.0016174516479077058,0.021425255530654972,-0.02397781345856479, ,0.9818630218505859
0.010912055982314105,0.020584140431361597,-0.0827226469651019, ,0.011211158821126959,0.020388346982460028,-0.08309354098548137, ,0.0005151310097168751, ,0.0029691807606201347,-0.0005673672075217078,-0.009558083124552058,0.03423603500204021,0.022889173771717237,0.006760840171907846, ,0.010024714108305263, ,0.041182766891506226, ,5.346882944532079e-05, ,0.15156635538953023,-0.24119639312777988,0.09258492067000001,1.6068540369219102,0.1884217331765424,-1.2785248984131883, ,0.022955235016562842,0.03392811639559198,0.009515419068100361,-0.0033197375707357374,0.047329745804669275,-0.06833935312438943, ,1.007310152053833
0.010978560820570233,0.020566762083895886,-0.08290488778556697, ,0.011290532677016654,0.02036987525342915,-0.08332435406522576, ,0.0005586079331665898, ,0.003295977917114897,-0.0007385223794941233,-0.009318091031308874,-0.008755387841204908,-0.007821941393115022,-0.005139551606585846, ,0.009911392747887736, ,0.01174050736378623, ,5.411786510394524e-05, ,0.15205288756060636,-0.24047817897047702,0.09276510498000001,1.6066443469784255,0.18869500617607327,-1.2789110917008624, ,0.02373610344133836,0.03518611107099398,0.009239449837587009,0.0026212210501054913,0.015475748152503107,-0.02567043117462079, ,1.0321171283721924
0.011086340671109836,0.020544738797474156,-0.0832223121304196, ,0.01136987283062285,0.020351531531256364,-0.08355417655305258, ,0.00047734005510431475, ,0.0034220270391023496,-0.0006523372311417214,-0.009531252644401278,-0.026805587559830066,-0.00548872784696168,-0.003410936164041148, ,0.010147935252596342, ,0.027361753948649925, ,5.445640462070365e-05, ,0.15289466544389685,-0.23931976903934332,0.09308139974000001,1.6066443469784255,0.19006137117372765,-1.2805153431786698, ,0.02506522492299809,0.034608658482301526,0.009492736305125149,0.0026212210501054913,0.0194471080796698,-0.007030330599365638, ,1.0575590133666992
0.011157122941555835,0.02053150703742712,-0.08340860275289147, ,0.01144917807622697,0.0203333157447608,-0.0837830099259559, ,0.000514545159746568, ,0.0030682529864654302,-0.0005291989038918791,-0.00802503314746167,-0.01831058815891841,-0.013100643031101965,-0.005202755695289623, ,0.008607867615541782, ,0.0225145387087985, ,5.490388894084339e-05, ,0.1533889203478472,-0.23864016854641157,0.09326676921,1.6066443469784255,0.19006137117372765,-1.2805153431786698, ,0.02240248856432266,0.028844055184945525,0.00801248064386318,0.0026212210501054913,0.008835435695971507,-0.009819877876685732, ,1.0842809677124023
0.01121782303988345,0.02051588419949875,-0.0835806486565462, ,0.011528447213852126,0.020315227822461278,-0.08401085566250516, ,0.0005672992394457232, ,0.00266769880987907,-0.000642195252878491,-0.008986007833181124,0.04570535114252885,0.062273906565732964,0.010228470359540658, ,0.009395603677307934, ,0.07724647890634298, ,5.568637547308242e-05, ,0.15387545251892334,-0.23797601351922826,0.09343787949000001,1.6066443469784255,0.1908811901723203,-1.28142888682127, ,0.02420222942067605,0.032689266813114286,0.008984101252115061,0.0026212210501054913,0.08756229207129775,-0.07774508047458627, ,1.1055870056152344
0.011324081135230835,0.0205064656973048,-0.08389186732448761, ,0.011607679049254166,0.020297267692576983,-0.0842377152428386, ,0.0004937634703460719, ,0.0038712909834158382,-0.00014803828877150613,-0.011190797915165595,-0.02271885542435821,-0.02411384214602393,-0.007980860071399436, ,0.011842413908966946, ,0.03313040294540464, ,5.6201360045687505e-05, ,0.15462455760772315,-0.23699522644420176,0.09375028538,1.6066443469784255,0.1915643726711475,-1.2820676550798926, ,0.024829131752608785,0.033007631846424614,0.011249160677966103,0.0026212210501054913,0.0,-0.009510648537078926, ,1.1275930404663086
0.011390491105642157,0.020502521679968695,-0.08410588566213853, ,0.01168687239391307,0.02027943528302809,-0.08446359014865876, ,0.0005153269915439777, ,0.002872914093540767,-0.0005386855560353841,-0.009826781993556123,0.047702427989424465,0.054040822042222776,0.007690672759370893, ,0.010252290566796532, ,0.0720828134263045, ,5.676502723325033e-05, ,0.15509564431305084,-0.23635423961564112,0.09396546952000001,1.6066443469784255,0.19238419166974016,-1.2833079136830552, ,0.02383147703628096,0.033461544978304225,0.009838672958616432,0.0026212210501054913,0.07864327355676698,-0.0804965757298681, ,1.1496939659118652
0.011459918169370932,0.020491423548404507,-0.08430569609499629, ,0.011766026065024023,0.020261730521436535,-0.0846884818632259, ,0.0005412816963264235, ,0.003378874110712744,-0.000616542369226779,-0.009577008120061148,0.01388896971743216,-0.001202164875466939,-0.004279298183300071, ,0.010174281266055789, ,0.013940896658178848, ,5.738829286345817e-05, ,0.15558217648412698,-0.23567463912270936,0.09416509818,1.6066443469784255,0.19279410116903647,-1.283887203614566, ,0.024152950256673654,0.033520643432875585,0.009561111356542617,0.0026212210501054913,0.02248264879157328,-0.04666695191502551, ,1.172502040863037
0.011527354551002207,0.020475194757369062,-0.08448856900992395, ,0.011845138885489001,0.02024415333512611,-0.0849123918713537, ,0.0005779211364085603, ,0.00345257191165534,-0.0009132954107839668,-0.009185246468360667,-0.017137360774805044,-0.022464658845094687,-0.008753465310801309, ,0.009855105986088764, ,0.028255087435202518, ,5.810046170256735e-05, ,0.15604554045658045,-0.2349873158969034,0.09434657878000001,1.6066443469784255,0.1929307376688019,-1.2839986215182624, ,0.023259054303546762,0.0355952518974009,0.009091787397260276,0.0026212210501054913,0.0,-0.017644166564955977, ,1.193817138671875
0.011589094752701768,0.02046085647536922,-0.08468897149654923, ,0.011924209683907647,0.020226703651123643,-0.0851353216594029, ,0.0006052751689098015, ,0.0030161340351455065,-0.0005697150130852621,-0.01026149987399458,0.031472402817146666,0.04509136399858308,0.005675787508854225, ,0.010710743175806645, ,0.05498857274525793, ,5.886894193817932e-05, ,0.15650890442903392,-0.23427682447247472,0.09454620744000002,1.6066443469784255,0.1940238296669254,-1.2852983584485367, ,0.023356372522390048,0.034520531669141784,0.010263409484536084,0.0026212210501054913,0.06908076264219488,-0.06528313453347614, ,1.2162461280822754
0.011705082580325208,0.02044594345894885,-0.08502723441351287, ,0.01200323729456886,0.020209381396159236,-0.08535727271527618, ,0.0006107594449837466, ,0.00409605674720563,-0.0004143106168861111,-0.011185578033448685,-0.03952448704109312,-0.04023041469568623,-0.011574747935630743, ,0.011919164824179715, ,0.05639743936869829, ,5.9626429565693056e-05, ,0.1572580095178337,-0.23318791913720907,0.09488453913000001,1.6066443469784255,0.19429710266645633,-1.2859295879566324, ,0.02502556475698069,0.03665389785958701,0.01126507179632249,0.0026212210501054913,0.0009637943609809653,-0.022526118695529826, ,1.2380540370941162
0.011771030294860993,0.020432013468777568,-0.08523530594304884, ,0.01208222055744195,0.020192186496666494,-0.0855782465284125, ,0.0005215022542297785, ,0.003200488970178484,-0.0009137145861673836,-0.009578347055573172,0.027083076808153205,0.018733625611721167,-0.0008578069110937155, ,0.01014015464922584, ,0.03293086238370619, ,6.0099677186605255e-05, ,0.15772137349028717,-0.23246970497990618,0.09509194553000001,1.6066443469784255,0.19511692166504896,-1.2870064890795136, ,0.023635601882558102,0.036109947320574876,0.009515419068100361,0.0026212210501054913,0.04227649541161118,-0.06243083418081802, ,1.2596030235290527
0.011846290551853256,0.02041681132719269,-0.08543291709225677, ,0.012161158318167874,0.02017511887878405,-0.08579824458978205, ,0.0005394637432949548, ,0.003529911014208339,-0.0008569245789136594,-0.009673270267411202,0.006501657109227086,-0.0051425829853713155,-0.005347686614906263, ,0.010332799677171588, ,0.008289609172371771, ,6.060781832346697e-05, ,0.15822335112711175,-0.23176693628835177,0.09528898161,1.6066443469784255,0.19511692166504896,-1.2872515252999353, ,0.024719182484623802,0.03562197505948603,0.009630478548972188,0.0026212210501054913,0.01907010630895066,-0.04132650126124245, ,1.2824549674987793
0.011913591397713683,0.020398507375171824,-0.08562154014181529, ,0.012240049428050565,0.0201581784683555,-0.08601726839188013, ,0.0005665100854551033, ,0.003224436372218403,-0.0006478732523388511,-0.010564120337253357,0.06347487070461647,0.0542689611007286,0.006608603000933334, ,0.011064238255277725, ,0.08351155140665988, ,6.134583231180806e-05, ,0.15873305149681058,-0.2310564448639231,0.09547694366000001,1.6066443469784255,0.1959367406636416,-1.2883284264228165, ,0.02584339367060751,0.03554192567732988,0.010598011656686628,0.0026212210501054913,0.08068798154901004,-0.09831458132017545, ,1.30007004737854
0.011949077747293303,0.020392858038487574,-0.08573377638392655, ,0.012318892744048255,0.020141365190929603,-0.08623531942872172, ,0.0006719800666538277, ,0.003750032855114838,-0.0006715192334442455,-0.011065117454184042,0.030950726613625943,0.022803766787362335,0.0005937121665379921, ,0.011702585559192234, ,0.03844423353025947, ,6.235481271262239e-05, ,0.15900334714740844,-0.23069347641883456,0.09558972089000001,1.6066443469784255,0.19661992316246882,-1.2888855159412986, ,0.027755759449684343,0.037083603578925664,0.011100217087108016,0.0026212210501054913,0.0506302990447303,-0.06726158211510416, ,1.3178131580352783
0.012031695228958313,0.0203797141636629,-0.08596038717887217, ,0.0123976871287647,0.02012467897176183,-0.08645239919583607, ,0.0006641301413644699, ,0.004302604475861501,-0.00042452466684635766,-0.01258157836920455,0.007811937175626146,-0.016399822664545368,-0.008144061019706782, ,0.013303711539600529, ,0.018165357981596603, ,6.331491101725824e-05, ,0.15954393844860415,-0.22994437133003479,0.09581657164000001,1.6066443469784255,0.19675655966223426,-1.289405327545698, ,0.02691348314193726,0.038111221509426016,0.012631888596352102,0.0026212210501054913,0.009712124002750913,-0.045080152892890725, ,1.3357789516448975
0.01211798341401296,0.02037694619061617,-0.08622605147224895, ,0.012476431450440436,0.020108119735814254,-0.08666850919026187, ,0.0006296995234628022, ,0.0042927678598520345,6.335093298716907e-05,-0.014341166196682206,0.06149223085722124,0.036943944693595354,0.0028565214403306967, ,0.014970000571815264, ,0.07173666355981002, ,6.41566448032166e-05, ,0.16010769794842253,-0.22921071170698346,0.09608490367000001,1.6066443469784255,0.19743974216106144,-1.290370810764883, ,0.02920804603215475,0.03718532192730046,0.014533587153284672,0.0026212210501054913,0.06631943600814513,-0.09793382118353856, ,1.3536500930786133
0.012211688530717729,0.020373160298582136,-0.08650941503261822, ,0.012555124582944272,0.02009168740775628,-0.08688365091054027, ,0.0005807131844231782, ,0.00464000140636492,-0.0002012029472250537,-0.01295621235299197,-0.022396871194197355,-0.007140406762685234,-0.0033906788306674466, ,0.01376348554011164, ,0.02350754948828526, ,6.484611419421686e-05, ,0.16073323931123473,-0.22842299295381255,0.09637138376000001,1.6066443469784255,0.1982595611596541,-1.2914477118877643, ,0.03113416717797598,0.0363450561311646,0.013120932059308074,0.0026212210501054913,0.02390004398696585,-0.013102551377863944, ,1.3716270923614502
0.012303120893132156,0.02035551835771741,-0.08674610677083966, ,0.012633765405764288,0.020075381911965215,-0.08709782585671087, ,0.0005581294987173634, ,0.004406182169588852,-0.001256935356661166,-0.010315634635765479,-0.01803437084107432,-0.03026393103479292,-0.005302133149560414, ,0.01128745523760923, ,0.03522987278577891, ,6.545841505219141e-05, ,0.1613587806740469,-0.22760438326914476,0.09660860483000001,1.6068540369219102,0.19853283415918496,-1.291915583915579, ,0.030810695311191814,0.040763291047453076,0.01027002676982592,-0.00204648021128054,0.0008027029545501229,-0.0225394946584892, ,1.391132116317749
0.012379910694030459,0.020329400884225034,-0.08694104382855698, ,0.012712352803999358,0.020059203172526893,-0.08731103553030506, ,0.0005660551379944562, ,0.004099750968577455,-0.0012837752820474661,-0.010004624335049225,0.024688922238011484,0.005490343972588402,0.0019649735939977994, ,0.010888000048889006, ,0.02529202755772034, ,6.607537387062422e-05, ,0.16197659930398486,-0.22681666451597385,0.09680304833000002,1.606434657034941,0.19962592615730848,-1.2931336421057127, ,0.03155867693996368,0.040108597446521885,0.009986715686520379,-0.0025214191674216434,0.03792669614378715,-0.06476634444824732, ,1.4094841480255127
0.012427526834811449,0.02031683894853112,-0.08705140320450476, ,0.012790885668350386,0.020043151113236114,-0.08752328143434078, ,0.0006554416350007212, ,0.004446898432571748,-0.0011248279100103432,-0.010871898275114023,-0.023168403485426182,-0.01286465886281851,-0.0002807496308444516, ,0.011799928626952562, ,0.026500456898532913, ,6.690462072176606e-05, ,0.16230867681757652,-0.2263919142078915,0.09691323298000001,1.606434657034941,0.19962592615730848,-1.293215320845853, ,0.03196259399072778,0.04050232247480613,0.010880335737704918,-0.0025089948225079073,0.02000335192831618,-0.017233286058804052, ,1.4276950359344482
0.012520780366731519,0.020295450415835595,-0.08728957032214839, ,0.012869362895111525,0.020027225657597496,-0.08773456507331762, ,0.0006256793336780811, ,0.004716184344467856,-0.0007800009542028193,-0.01258233605335016,-0.02056232503756784,-0.016984633954124088,-0.0017725908518221108, ,0.013459791113497873, ,0.02666995849539934, ,6.780881478942015e-05, ,0.1629573863790114,-0.2255424135917268,0.09715175034000001,1.606434657034941,0.20003583565660482,-1.2937129320372234, ,0.03113416717797598,0.04085102951290176,0.012641913904761905,-0.002387894218891798,0.014859436804524982,-0.02015859423265692, ,1.441789150238037
0.012546228034484295,0.020290883112155798,-0.0873693518799742, ,0.01294778338616169,0.020011426728825676,-0.08794488795321054, ,0.0007553703344989189, ,0.004234497079447337,-0.0006644038098168589,-0.013898458684104097,0.06522045976638792,0.07162566524200313,0.014975927358218179, ,0.014544399325241857, ,0.09687075810014958, ,6.901915247777324e-05, ,0.163150454700867,-0.2252875634068774,0.09723212032,1.606434657034941,0.20058238165566658,-1.2943219611322903, ,0.03249895258851739,0.0428622138927149,0.014021841126760566,-0.0023539470371706033,0.10626962504887182,-0.1080970790084498, ,1.457016944885254
0.012664033183628551,0.02028156640782749,-0.08771943848036065, ,0.013026146048955613,0.01999575424984601,-0.08815425158146402, ,0.0006339374967428048, ,0.005493289509255394,-9.481896934529282e-05,-0.01610985842928464,-0.006636562319103253,-0.01543725971827176,-0.001961554397462258, ,0.01702095058688076, ,0.01680332889497078, ,6.990494675210916e-05, ,0.16393045072116366,-0.22429133086610242,0.09758600749000002,1.606434657034941,0.2016754736537901,-1.2955400193224238, ,0.0333556912332059,0.04197122581091144,0.01632050360655738,-0.002230296185444429,0.01851985150296516,-0.03517848112279944, ,1.4712610244750977
0.012718823645124994,0.02028080578282174,-0.08787423187269049, ,0.01310444979651535,0.019980208143295253,-0.08836265746698782, ,0.0006911049346443262, ,0.005637124869307106,-0.00017023795547454947,-0.016450096983959182,-0.014438298749906129,-0.021791290133968085,-0.00340865268956198, ,0.017389992769846336, ,0.026140458907521646, ,7.09134887806285e-05, ,0.1642548055018811,-0.22388974875664275,0.09774285858000001,1.606434657034941,0.2016754736537901,-1.2955400193224238, ,0.033579951011490014,0.043490807313689636,0.016644526144200627,-0.0021855432110135602,0.012287062044810417,-0.028854407115260897, ,1.4858739376068115
0.012822829540314943,0.02027318391258629,-0.08818677007762596, ,0.013182693547421489,0.01996478833152229,-0.08857010712015026, ,0.0006095549410855935, ,0.0045327692632510415,-0.0010995407120946502,-0.013337226997585983,0.03657685472292556,0.04485396224179689,0.00915357807745927, ,0.014129282039670786, ,0.05787697131153039, ,7.170451059121849e-05, ,0.16494212872768707,-0.22301707994185538,0.09805915334000001,1.606434657034941,0.20276856565191362,-1.296839756252698, ,0.033615636400450156,0.045470503861270134,0.01339681372582002,-0.0020916916260470555,0.0801051813069307,-0.08192910208666684, ,1.5006589889526367
0.012868496796943097,0.020262928645207876,-0.08831450564593521, ,0.013260876225804503,0.019949494736587844,-0.08877660205277305, ,0.0006824481815338605, ,0.0049114988367061916,-0.0010256926504537307,-0.013080284252374806,0.008832160833619939,0.004177142808356267,0.0013441312371379925, ,0.014009593226039271, ,0.00977011791801172, ,7.265554457960548e-05, ,0.1652664835084045,-0.22258460690089882,0.09818748605000001,1.606434657034941,0.20331511165097538,-1.2974487853477648, ,0.03408654510002543,0.04395411836890726,0.013153436432700248,-0.0020513433297358868,0.03915233700794471,-0.052608311423724984, ,1.5184450149536133
0.012972433182468308,0.020241240827511078,-0.08857533617931651, ,0.013338996761336026,0.019934327280266263,-0.08898214377812566, ,0.0006277397592024669, ,0.004902555696585096,-0.0011303705584098202,-0.011941524922612079,-0.007856171727812835,-0.024179009231705125,-0.004408330053010042, ,0.012958117434056697, ,0.025423290086368924, ,7.345820548647225e-05, ,0.16594608400133626,-0.221696492620363,0.09844933663000001,1.606434657034941,0.20345174815074082,-1.2977235607317423, ,0.03288182313183326,0.042026989175584936,0.011985561715575624,-0.0019706689740574975,0.009009616738753695,-0.03395084327024901, ,1.5327601432800293
0.013020798659828947,0.02022676433227036,-0.08869865284528149, ,0.013417054089220276,0.019919285884045092,-0.08918673381092003, ,0.0006998459762431854, ,0.004955244197020836,-0.0016813568915963624,-0.012177251861994916,-0.0202664114447264,-0.023315977874768384,-0.005011296937751334, ,0.01325393786613948, ,0.03089274978604474, ,7.441578368056966e-05, ,0.1662781615149279,-0.22123312864790953,0.09857248418,1.606434657034941,0.20372502115027172,-1.2981097540194164, ,0.03304211057049818,0.048342812816337635,0.01210396012158055,-0.0019324084216566632,0.010115651984956292,-0.02775732345185456, ,1.5476651191711426
0.013111389543982513,0.02020226003779195,-0.08894390587463084, ,0.013495047150185274,0.01990437046912606,-0.0893903736673048, ,0.000659746044938764, ,0.0049141395549597835,-0.0011991532313787568,-0.013018956287541492,-0.027285585303842064,0.007889739737086638,0.003179913170303369, ,0.013967102736604417, ,0.028403358683160112, ,7.52617717885521e-05, ,0.16694231654211122,-0.22036045983312216,0.09881877928,1.606434657034941,0.20495474964816068,-1.299684266333668, ,0.03413559048865855,0.04506027614362336,0.013077841970443352,-0.0018631132748308653,0.04332413761917169,-0.01751627314044055, ,1.5620689392089844
0.013170830130350326,0.020190201428394578,-0.08909472200380693, ,0.013572974890474146,0.019889580956425845,-0.08959306486485943, ,0.0007074169092011765, ,0.005739709663551199,-0.0008933518181215073,-0.014868663198302177,-0.04218960403744537,-0.02542502030988978,-0.0034933225446833888, ,0.01596306642839494, ,0.04925843704267597, ,7.637924648422616e-05, ,0.16732845318582246,-0.21985848219629756,0.09897044521000001,1.606434657034941,0.2050913861479261,-1.2999590417176456, ,0.036512867086752894,0.04620104262827205,0.014998880903954804,-0.0018272661325179232,0.011738034636691947,-0.003680071139324813, ,1.5729279518127441
0.01323080909725325,0.020183314826678622,-0.08925633259762918, ,0.013650836261836576,0.019874917266576107,-0.0897948089225895, ,0.0007493254477247275, ,0.006237421615040229,-0.0005939612112939009,-0.01677891105540514,-0.03218638998937002,-0.037363974738791876,-0.006797905601385806, ,0.017910613460445448, ,0.04931560583556978, ,7.75778356737931e-05, ,0.16769914436378522,-0.21938739549096986,0.09913377775000001,1.606434657034941,0.20522802264769155,-1.3001521383614825, ,0.03712712893523896,0.04747220688267672,0.016963590543130992,-0.0017949224651608534,0.0,-0.014925152486346882, ,1.5843701362609863
0.013278438867692782,0.0201816472332991,-0.08940687393560995, ,0.01372863022152005,0.019860379319924213,-0.08999560736091997, ,0.0008077700002490477, ,0.005837895927824691,-8.009549950069577e-05,-0.018909629108198645,0.046673933419173655,0.0549762928867647,0.010888620426577499, ,0.01979044004469799, ,0.07211689415538086, ,7.889370865600744e-05, ,0.1680080536787542,-0.21900125884725866,0.09928673997000001,1.606434657034941,0.20591120514651876,-1.3007909066201053, ,0.03803484631602035,0.047001952233021685,0.019237695072463774,-0.0017688553406956858,0.09474728681660413,-0.0934967346851027, ,1.5954551696777344
0.013346547755209536,0.02018258991899302,-0.0896282128362958, ,0.013806355732261159,0.01984596703653436,-0.09019546170169065, ,0.0008040582168268901, ,0.006089592351276673,0.00023309635110375525,-0.01945205481061389,0.044918967170197735,0.04929136780276909,0.008460372090297848, ,0.0203843053663536, ,0.06668845302217546, ,8.018320204432306e-05, ,0.168448249452585,-0.21847611301181138,0.09951229443000001,1.6062249670914566,0.2070042971446423,-1.3017639285898173, ,0.03906831682110777,0.04484732587829433,0.01986136099750624,0.0,0.08958781105572723,-0.089337679217731, ,1.6061179637908936
0.013412761178177371,0.020180838905122428,-0.08982608516885696, ,0.013884011762276976,0.019831680336187284,-0.0903943734681503, ,0.0008166641968329294, ,0.006764218912694749,-0.00027818374160675766,-0.01988294805216383,-0.013801048871581798,-0.010586261834922544,-0.008836624273950145, ,0.02100389647036942, ,0.017393527018554594, ,8.148368644770897e-05, ,0.16884210882917045,-0.217981858107861,0.09971321938000001,1.6060152771479719,0.20741420664393861,-1.3020981823009063, ,0.03937632429812066,0.05115738089405433,0.02016305255696203,0.0050795264260519645,0.02797987143831666,-0.035873046265354154, ,1.616987943649292
0.01348445339578955,0.020177893405647383,-0.09002384495197849, ,0.013961597285256434,0.019817519138381215,-0.09059234418495046, ,0.0008250619865518811, ,0.007124666697173367,-0.0002599785925808132,-0.01912822953993423,-0.0356404275885771,-0.03942296003296942,-0.013366507629251836, ,0.020413662820445135, ,0.05314515307785135, ,8.278550467015013e-05, ,0.1692668591372528,-0.2174721577381622,0.09991414433000001,1.6060152771479719,0.20755084314370403,-1.3022096002046029, ,0.04187861498608596,0.04906770504574497,0.01944909831501832,0.0050795264260519645,0.0012613952368942846,-0.011903143804935208, ,1.6283040046691895
0.013550359057355917,0.020171088466824305,-0.09020536306086123, ,0.014039111280351525,0.01980348336233274,-0.090789375378141, ,0.0008456255879914504, ,0.006594147987648809,-0.0008157260527253152,-0.017742310818627014,-0.02542515196532033,-0.01509440434660148,-0.009025511437899175, ,0.01894565358758776, ,0.029568186229605165, ,8.411572532489622e-05, ,0.16968388671246093,-0.21696245736846337,0.10009821751,1.6060152771479719,0.20796075264300035,-1.3026255326558327, ,0.04085102951290176,0.05140679391033087,0.01795807386696731,0.004983906521282392,0.025021113499234148,-0.0244839649683496, ,1.6391849517822266
0.013611918600747978,0.02016140060403871,-0.09037801744211124, ,0.014116552732168795,0.0197895729269767,-0.09098546857516349, ,0.0008728735916904754, ,0.006248542768937192,-0.0009211183186335493,-0.017437791221573982,0.037706206815458776,0.052356898698511664,0.004124147892912024, ,0.0185464095818938, ,0.0645213240827683, ,8.548857137736478e-05, ,0.17010863702054327,-0.21644503426589035,0.10027321666000001,1.6060152771479719,0.208780571641593,-1.3034573975582924, ,0.04455255472228675,0.05171495452777699,0.01771836654060067,0.0048135863387576755,0.09724591325496469,-0.08811782195580134, ,1.6497859954833984
0.013682048906645441,0.020150785848681466,-0.09056320122195796, ,0.01419392063076055,0.019775787750967316,-0.09118062530484636, ,0.0008853523216033165, ,0.00675736280193351,-0.0012948339156503108,-0.01746772716083239,-0.010126835719692515,0.0021585961162599405,-0.005589292789331132, ,0.01877391911858988, ,0.010354260604053707, ,8.687073974543341e-05, ,0.17103536496545022,-0.21532523799912778,0.10063877044000001,1.6060152771479719,0.2097370271399511,-1.3044823591045889, ,0.04620104262827205,0.056285255965878286,0.017679036093229746,0.004496748887277129,0.017901406680095756,-0.024868090746005614, ,1.6608481407165527
0.013751588208161511,0.020137077337192506,-0.09073910037384456, ,0.014271213971616306,0.019762127752678514,-0.09137484709739854, ,0.000902647229809533, ,0.007161980493706649,-0.0013804828198135475,-0.01749172485316342,-0.029900347757866236,-0.027493484539273708,-0.011061884554144025, ,0.018951520671091533, ,0.040619217751219044, ,8.846571950543048e-05, ,0.17103536496545022,-0.21532523799912778,0.10063877044000001,1.6060152771479719,0.2097370271399511,-1.3044823591045889, ,0.04620104262827205,0.056285255965878286,0.017679036093229746,0.004496748887277129,0.017901406680095756,-0.024868090746005614, ,1.6692421436309814
0.013820372628012358,0.020123482180672402,-0.090909670115639, ,0.014348431755653979,0.01974859285020437,-0.09156813548440504, ,0.0009235610939448446, ,0.007080254176466292,-0.0015297567673110799,-0.01696684516457785,-0.03224874125597732,-0.030173672291635957,-0.011557370341386397, ,0.018448414289831554, ,0.0441636774520956, ,9.009236363382697e-05, ,0.17148328347215525,-0.21477692396505785,0.10081117701000002,1.6060152771479719,0.21001030013948196,-1.3047868736521222, ,0.04582179698622442,0.05641910913107657,0.017127754322580648,0.004360584791498411,0.014823947693523545,-0.022660786204300072, ,1.6764590740203857
0.013888697974707036,0.020107201829425426,-0.09108548988737325, ,0.0144255729892115,0.01973518296135995,-0.09176049199882017, ,0.0009392873201814662, ,0.007442442271694809,-0.0016373011964104128,-0.01956945406992075,0.010719756928959349,0.027549537664566325,-0.0010243754845382289, ,0.0210008150977531, ,0.02956158561495493, ,9.173900700240356e-05, ,0.17195437017748294,-0.21418999626661678,0.10098876874000001,1.6060152771479719,0.21069348263830917,-1.305425641910745, ,0.05082857073297846,0.06343378446421843,0.019787343503105594,0.004233108064165799,0.07853480987903412,-0.07270667893686478, ,1.6835379600524902
0.013888697974707036,0.020107201829425426,-0.09108548988737325, ,0.014502636684037845,0.019721898003681536,-0.09195191817496272, ,0.0011296361159607443, ,0.008510877949767829,-0.0007442909341821575,-0.024555142053464662,0.030264532295178115,0.04994489835848049,0.0036096204079843065, ,0.025998923318791084, ,0.05839885152934688, ,9.378254501958702e-05, ,0.17250268421155288,-0.21351811850655925,0.10122210094,1.6060152771479719,0.21164993813666727,-1.3063689247169012, ,0.05533349362009957,0.06540106241107566,0.025005983547880698,0.004107359666377791,0.1058512582387536,-0.09426944072194376, ,1.6911699771881104
0.013971401281915985,0.020094654904781642,-0.09131543917891703, ,0.014579621857284559,0.01970873789442746,-0.09214241554850984, ,0.0010967014739879258, ,0.008510877949767829,-0.0007442909341821575,-0.024555142053464662,0.030264532295178115,0.04994489835848049,0.0036096204079843065, ,0.025998923318791084, ,0.05839885152934688, ,9.573767702807895e-05, ,0.17250268421155288,-0.21351811850655925,0.10122210094,1.6060152771479719,0.21164993813666727,-1.3063689247169012, ,0.05533349362009957,0.06540106241107566,0.025005983547880698,0.004107359666377791,0.1058512582387536,-0.09426944072194376, ,1.6986219882965088
0.014062898927749312,0.020093585286989006,-0.09158169453679015, ,0.014656527531497071,0.019695702550578655,-0.09233198565649212, ,0.0010361671464703655, ,0.009464846287672704,0.00013834571392254457,-0.027413837655314344,0.0041647943871293185,0.014664044475556297,-0.0020890784860606803, ,0.029002085266024633, ,0.015243497954196784, ,9.754643889620359e-05, ,0.17307416644424548,-0.21288485441087285,0.10149432184000001,1.6060152771479719,0.21260639363502531,-1.3072305287829167, ,0.056519917545247635,0.06247329924849953,0.02804368225352113,0.003992022905126825,0.07127942309902224,-0.065214052854298, ,1.7060561180114746
0.014163509087820372,0.020094613453689097,-0.09186578212997278, ,0.014733352734606107,0.019682791888838952,-0.09252063003728742, ,0.0009608041240398853, ,0.010496780788523228,0.00011556154520995393,-0.029893916435877233,-0.03945962064968072,-0.03270356043211426,-0.011322767929547159, ,0.03168346573953444, ,0.05124998198403892, ,9.917908547668863e-05, ,0.17365337140981232,-0.21223614484943798,0.10178469080000001,1.6060152771479719,0.21301630313432166,-1.3075647824940058, ,0.05804094284921761,0.06797775183271546,0.030514964597701155,0.0038862981703775374,0.02479719310492141,-0.02690650009482594, ,1.7132530212402344
0.014163509087820372,0.020094613453689097,-0.09186578212997278, ,0.0148100964999189,0.019670005825635897,-0.09270835023061536, ,0.0011438041456060912, ,0.010496780788523228,0.00011556154520995393,-0.029893916435877233,-0.03945962064968072,-0.03270356043211426,-0.011322767929547159, ,0.03168346573953444, ,0.05124998198403892, ,0.00010118640177106805, ,0.17365337140981232,-0.21223614484943798,0.10178469080000001,1.6060152771479719,0.21301630313432166,-1.3075647824940058, ,0.05804094284921761,0.06797775183271546,0.030514964597701155,0.0038862981703775374,0.02479719310492141,-0.02690650009482594, ,1.720438003540039
0.014269844261686348,0.020095762061775522,-0.09216925067908202, ,0.014886757866110632,0.019657344277121118,-0.09289514777753233, ,0.0010486749480957435, ,0.010387640952943767,5.2912032171041016e-05,-0.0294387919628609,-0.03574556140145233,-0.031685685909907835,-0.011175735736601435, ,0.031217757070023888, ,0.04776720361207204, ,0.00010297562406399321, ,0.1742402991082534,-0.211548821623632,0.10209450411000001,1.6060152771479719,0.21328957613385255,-1.3080326545218204, ,0.05737420892289647,0.06715990202298003,0.03005436135849057,0.0037828716771594367,0.025147969773717364,-0.029826563400811166, ,1.7276520729064941
0.014374349027032846,0.02008939724615847,-0.09246039440548857, ,0.014963335877215808,0.019644807159171048,-0.09308102422042457, ,0.000964234008072425, ,0.010036358159150717,-0.0012188373824833965,-0.027386414644164466,0.005566459657720321,0.013323227426213878,-0.0039923855800941144, ,0.029192974441221233, ,0.014438783074350873, ,0.00010457200882177099, ,0.17486584047106557,-0.21081516200058067,0.10239135452,1.6060152771479719,0.21397275863267975,-1.3089164590008648, ,0.061862413010737145,0.07531503298291331,0.027847572587412592,0.003684548252210704,0.07527122473835786,-0.07930819852083247, ,1.7349281311035156
0.014374349027032846,0.02008939724615847,-0.09246039440548857, ,0.015039829582619603,0.019632394387387318,-0.09326598110300421, ,0.0011404761768678989, ,0.010036358159150717,-0.0012188373824833965,-0.027386414644164466,0.005566459657720321,0.013323227426213878,-0.0039923855800941144, ,0.029192974441221233, ,0.014438783074350873, ,0.00010652448714299605, ,0.17486584047106557,-0.21081516200058067,0.10239135452,1.6060152771479719,0.21397275863267975,-1.3089164590008648, ,0.061862413010737145,0.07531503298291331,0.027847572587412592,0.003684548252210704,0.07527122473835786,-0.07930819852083247, ,1.7422120571136475
0.014459883558240174,0.020079944884431548,-0.09268800244305674, ,0.015116238037049149,0.019620105877097543,-0.09345001997030286, ,0.0011058588636660754, ,0.01007713574820421,-0.001223246810765868,-0.025588876191882267,0.04056940726305268,0.004798408524087538,-0.0058698099916637105, ,0.027528813676060637, ,0.04085205697135255, ,0.00010838839087865385, ,0.17540643177226128,-0.2101973433706427,0.10262339043000002,1.6060152771479719,0.21465594113150693,-1.3098819422200498, ,0.06473188373701963,0.07113713760005305,0.026112805770491805,0.003606556200464018,0.06915150441634603,-0.110221014082465, ,1.7494771480560303
0.014585727255525139,0.020053274025584798,-0.09295954413202771, ,0.015192560300564949,0.01960794154335555,-0.09363314236866518, ,0.0010100999696474912, ,0.009730165100481851,-0.0030450125799921955,-0.01918444163844406,-0.02100526437275367,-0.042361714879802254,-0.013392697324772824, ,0.021725354208247376, ,0.0472835428060201, ,0.00011003771143559809, ,0.1762327641898033,-0.20930150635723266,0.10289950020000001,1.6060152771479719,0.21479257763127238,-1.3100750388638867, ,0.06846821180264846,0.07531503298291331,0.019425379902439026,0.0035009575841659837,0.02538880844657596,-0.05263441952456911, ,1.7568180561065674
0.014585727255525139,0.020053274025584798,-0.09295954413202771, ,0.01526879543855225,0.01959590130094223,-0.09381534984574508, ,0.001186665652802934, ,0.009730165100481851,-0.0030450125799921955,-0.01918444163844406,-0.02100526437275367,-0.042361714879802254,-0.013392697324772824, ,0.021725354208247376, ,0.0472835428060201, ,0.00011227137936374609, ,0.1762327641898033,-0.20930150635723266,0.10289950020000001,1.6060152771479719,0.21479257763127238,-1.3100750388638867, ,0.06846821180264846,0.07531503298291331,0.019425379902439026,0.0035009575841659837,0.02538880844657596,-0.05263441952456911, ,1.7605750560760498
0.014681513617299288,0.020024292759944468,-0.09315410302572485, ,0.015344942521712344,0.019583985064365997,-0.093996643950499, ,0.0011592601036504312, ,0.010913624826293771,-0.0029255380313948226,-0.023079354650327028,-0.0574506811350429,-0.054639256447036766,-0.015121235485671626, ,0.025696742803277717, ,0.07928444084320817, ,0.00011443905788193798, ,0.1768969192169866,-0.2085601240013071,0.10309653628000001,1.6060152771479719,0.21506585063080325,-1.31037955341142, ,0.0724957536733925,0.08244738623672526,0.02339032528634362,0.0034239611005325208,0.01728864927879251,-0.0231713341346955, ,1.7641849517822266
0.014681513617299288,0.020024292759944468,-0.09315410302572485, ,0.015421000626054025,0.01957219274786338,-0.09417702623318025, ,0.0013407488002573713, ,0.010913624826293771,-0.0029255380313948226,-0.023079354650327028,-0.0574506811350429,-0.054639256447036766,-0.015121235485671626, ,0.025696742803277717, ,0.07928444084320817, ,0.00011697275569676325, ,0.1768969192169866,-0.2085601240013071,0.10309653628000001,1.6060152771479719,0.21506585063080325,-1.31037955341142, ,0.0724957536733925,0.08244738623672526,0.02339032528634362,0.0034239611005325208,0.01728864927879251,-0.0231713341346955, ,1.7678179740905762
0.014681513617299288,0.020024292759944468,-0.09315410302572485, ,0.015496968832884914,0.019560524265399212,-0.09435649824533396, ,0.0015250582576732587, ,0.010913624826293771,-0.0029255380313948226,-0.023079354650327028,-0.0574506811350429,-0.054639256447036766,-0.015121235485671626, ,0.025696742803277717, ,0.07928444084320817, ,0.00011987602477300345, ,0.1768969192169866,-0.2085601240013071,0.10309653628000001,1.6060152771479719,0.21506585063080325,-1.31037955341142, ,0.0724957536733925,0.08244738623672526,0.02339032528634362,0.0034239611005325208,0.01728864927879251,-0.0231713341346955, ,1.771557092666626
0.014796993429343918,0.020000824180561004,-0.09344151032062045, ,0.015572846228802685,0.0195489795306678,-0.09453506153979095, ,0.0014149082737104919, ,0.011676086393008565,-0.001509461063170493,-0.03198319128706941,0.08193603640779085,0.10039220564575342,0.012213737556310281, ,0.03408128505592916, ,0.12958424113386474, ,0.0006691548347035637, ,0.17769236070303174,-0.2076720097207713,0.10338949782000001,1.6060152771479719,0.21643221562845769,-1.3119838048892278, ,0.078687347892596,0.08714136047609806,0.03270803186858317,0.003342051910384651,0.18059978436388507,-0.16759837792551074, ,1.775270938873291
0.014796993429343918,0.020000824180561004,-0.09344151032062045, ,0.015648631905686675,0.01953755845709308,-0.09471271767066239, ,0.0015987092768006055, ,0.011676086393008565,-0.001509461063170493,-0.03198319128706941,0.08193603640779085,0.10039220564575342,0.012213737556310281, ,0.03408128505592916, ,0.12958424113386474, ,0.0006794832173935308, ,0.17769236070303174,-0.2076720097207713,0.10338949782000001,1.6060152771479719,0.21643221562845769,-1.3119838048892278, ,0.078687347892596,0.08714136047609806,0.03270803186858317,0.003342051910384651,0.18059978436388507,-0.16759837792551074, ,1.7790441513061523
0.014927528897985053,0.019993637658424115,-0.09381091195099438, ,0.01572432496068906,0.019526260957829444,-0.09488946819333437, ,0.0014200734184153748, ,0.013761690280437158,0.0002668330161767049,-0.040233256504431957,0.05470427692001752,0.03632071918219779,-0.0004533263713751251, ,0.042522585154063916, ,0.06566313375514164, ,0.0006876215712509138, ,0.17851097038769953,-0.20677617270736123,0.1037680145,1.6060152771479719,0.21807185362564296,-1.313647534694147, ,0.07810447864894715,0.08634844545811718,0.04126635108808291,0.0032670989498286397,0.11476680206375019,-0.13944872651845322, ,1.7828640937805176
0.014927528897985053,0.019993637658424115,-0.09381091195099438, ,0.01579992449622637,0.019515086945761737,-0.09506531466446214, ,0.0016011280498372917, ,0.013761690280437158,0.0002668330161767049,-0.040233256504431957,0.05470427692001752,0.03632071918219779,-0.0004533263713751251, ,0.042522585154063916, ,0.06566313375514164, ,0.0006975509894964179, ,0.17851097038769953,-0.20677617270736123,0.1037680145,1.6060152771479719,0.21807185362564296,-1.313647534694147, ,0.07810447864894715,0.08634844545811718,0.04126635108808291,0.0032670989498286397,0.11476680206375019,-0.13944872651845322, ,1.7865190505981445
0.014927528897985053,0.019993637658424115,-0.09381091195099438, ,0.015875429619970658,0.019504036333506503,-0.09524025864196393, ,0.0017836079162998621, ,0.013761690280437158,0.0002668330161767049,-0.040233256504431957,0.05470427692001752,0.03632071918219779,-0.0004533263713751251, ,0.042522585154063916, ,0.06566313375514164, ,0.0007092290209674227, ,0.17851097038769953,-0.20677617270736123,0.1037680145,1.6060152771479719,0.21807185362564296,-1.313647534694147, ,0.07810447864894715,0.08634844545811718,0.04126635108808291,0.0032670989498286397,0.11476680206375019,-0.13944872651845322, ,1.790132999420166
0.015075929903419626,0.020002270905152515,-0.09424008942700343, ,0.015950839444841124,0.01949310903341213,-0.09541430168501676, ,0.0015503183363984653, ,0.01744046250142305,0.0015635093173800136,-0.050442152444771605,-0.005540365911162793,-0.0307215926056376,-0.011182371197111851, ,0.05339499074735996, ,0.031211942311371515, ,0.000718176779642221, ,0.17930641187374466,-0.20591894935832233,0.10420875310000001,1.6060152771479719,0.21875503612447017,-1.3144496604330507, ,0.09115940591591815,0.09480213941905173,0.05188537954397395,0.0032001780471095464,0.0601537080570406,-0.08737317078331382, ,1.7938029766082764
0.015075929903419626,0.020002270905152515,-0.09424008942700343, ,0.01602615308899521,0.019482304957559534,-0.09558744535404928, ,0.0017287731728619748, ,0.01744046250142305,0.0015635093173800136,-0.050442152444771605,-0.005540365911162793,-0.0307215926056376,-0.011182371197111851, ,0.05339499074735996, ,0.031211942311371515, ,0.0007288146364129553, ,0.17930641187374466,-0.20591894935832233,0.10420875310000001,1.6060152771479719,0.21875503612447017,-1.3144496604330507, ,0.09115940591591815,0.09480213941905173,0.05188537954397395,0.0032001780471095464,0.0601537080570406,-0.08737317078331382, ,1.7973880767822266
0.015075929903419626,0.020002270905152515,-0.09424008942700343, ,0.016101369675820227,0.019471624017762784,-0.09575969121073745, ,0.001908481707285929, ,0.01744046250142305,0.0015635093173800136,-0.050442152444771605,-0.005540365911162793,-0.0307215926056376,-0.011182371197111851, ,0.05339499074735996, ,0.031211942311371515, ,0.000741102835067882, ,0.17930641187374466,-0.20591894935832233,0.10420875310000001,1.6060152771479719,0.21875503612447017,-1.3144496604330507, ,0.09115940591591815,0.09480213941905173,0.05188537954397395,0.0032001780471095464,0.0601537080570406,-0.08737317078331382, ,1.801037073135376
0.015261420860980946,0.020023383415943896,-0.09479704129395344, ,0.016176488333924544,0.019461066125569408,-0.09593104081799761, ,0.0015618912047981712, ,0.019230573554987133,0.0024277391449410114,-0.05841241628850387,-0.019422760683942268,-0.011787008786081056,-0.004135562041171021, ,0.06154444941073989, ,0.022704563025431345, ,0.0007495645708382974, ,0.18024858528440005,-0.20491499408467315,0.10478171328000001,1.6062249670914566,0.2195748551230628,-1.3153632040756509, ,0.09585549652370785,0.10203972210588257,0.06010872271698114,0.0,0.0850499264879301,-0.08117633704386307, ,1.8046140670776367
0.015261420860980946,0.020023383415943896,-0.09479704129395344, ,0.01625150819712913,0.01945063119226122,-0.09610149573998238, ,0.0017349119414826527, ,0.019230573554987133,0.0024277391449410114,-0.05841241628850387,-0.019422760683942268,-0.011787008786081056,-0.004135562041171021, ,0.06154444941073989, ,0.022704563025431345, ,0.0007596191358448724, ,0.18024858528440005,-0.20491499408467315,0.10478171328000001,1.6062249670914566,0.2195748551230628,-1.3153632040756509, ,0.09585549652370785,0.10203972210588257,0.06010872271698114,0.0,0.0850499264879301,-0.08117633704386307, ,1.808197021484375
0.015261420860980946,0.020023383415943896,-0.09479704129395344, ,0.016326428404458734,0.019440319128854525,-0.09627105754207371, ,0.0019096934126362232, ,0.019230573554987133,0.0024277391449410114,-0.05841241628850387,-0.019422760683942268,-0.011787008786081056,-0.004135562041171021, ,0.06154444941073989, ,0.022704563025431345, ,0.0007712360477316537, ,0.18024858528440005,-0.20491499408467315,0.10478171328000001,1.6062249670914566,0.2195748551230628,-1.3153632040756509, ,0.09585549652370785,0.10203972210588257,0.06010872271698114,0.0,0.0850499264879301,-0.08117633704386307, ,1.8126251697540283
0.015449916263147309,0.02004602684469439,-0.09537232874621232, ,0.01640124810013333,0.019430129846101506,-0.09643972779087816, ,0.0015568243630841789, ,0.019814613431515336,0.002008182384857541,-0.05873932754112589,0.07190972495200071,0.03999520627447249,0.00951611922995788, ,0.0620238688080235, ,0.08227955880826265, ,0.0007790919308851789, ,0.18121392689367813,-0.20391103881102396,0.10537411781000001,1.6058055872044876,0.22080458362095176,-1.3168560376497622, ,0.10579369181546351,0.10591176513222186,0.060565823269961974,-0.005845956965709855,0.14819527586438833,-0.17758951816864244, ,1.816715955734253
0.015449916263147309,0.02004602684469439,-0.09537232874621232, ,0.01647596643355969,0.01942006325448944,-0.09660750805422111, ,0.0017234492424781798, ,0.019814613431515336,0.002008182384857541,-0.05873932754112589,0.07190972495200071,0.03999520627447249,0.00951611922995788, ,0.0620238688080235, ,0.08227955880826265, ,0.0007884420032771888, ,0.18121392689367813,-0.20391103881102396,0.10537411781000001,1.6058055872044876,0.22080458362095176,-1.3168560376497622, ,0.10579369181546351,0.10591176513222186,0.060565823269961974,-0.005845956965709855,0.14819527586438833,-0.17758951816864244, ,1.8203959465026855
0.015668825322800194,0.020058062157754727,-0.09598865188925859, ,0.016550582559322437,0.019410119264242527,-0.09677439990114045, ,0.0013471175730383003, ,0.019869356203281095,0.00013957577655580216,-0.05221123753470135,0.03183056865224616,-0.025048911946746442,0.026111468808859787, ,0.055864336765375396, ,0.04049993951815261, ,0.000793919214745435, ,0.18241095048918293,-0.20272173794839338,0.10600929991000001,1.6053862073175185,0.22217094861860617,-1.3185419678677102, ,0.1121713257192326,0.10920246439409755,0.05381355243243244,-0.03404715116623262,0.09431519233140287,-0.14564456153795058, ,1.824092149734497
0.015668825322800194,0.020058062157754727,-0.09598865188925859, ,0.01662509563717562,0.019400297785321687,-0.09694040490188222, ,0.0015009799068728584, ,0.019869356203281095,0.00013957577655580216,-0.05221123753470135,0.03183056865224616,-0.025048911946746442,0.026111468808859787, ,0.055864336765375396, ,0.04049993951815261, ,0.0008007838816592934, ,0.18241095048918293,-0.20272173794839338,0.10600929991000001,1.6053862073175185,0.22217094861860617,-1.3185419678677102, ,0.1121713257192326,0.10920246439409755,0.05381355243243244,-0.03404715116623262,0.09431519233140287,-0.14564456153795058, ,1.8277029991149902
0.015668825322800194,0.020058062157754727,-0.09598865188925859, ,0.01669950483203405,0.01939059872742537,-0.0971055246278941, ,0.0016598832476679647, ,0.019869356203281095,0.00013957577655580216,-0.05221123753470135,0.03183056865224616,-0.025048911946746442,0.026111468808859787, ,0.055864336765375396, ,0.04049993951815261, ,0.0008090444524863, ,0.18241095048918293,-0.20272173794839338,0.10600929991000001,1.6053862073175185,0.22217094861860617,-1.3185419678677102, ,0.1121713257192326,0.10920246439409755,0.05381355243243244,-0.03404715116623262,0.09431519233140287,-0.14564456153795058, ,1.8313541412353516
0.01585906241598073,0.02004874532369239,-0.09645180506393684, ,0.016773809313964737,0.019381021999990363,-0.09726976065182004, ,0.0013970209977435517, ,0.020234653011499775,-0.0019372450073319846,-0.0463042326240535,-0.022850477825177642,-0.06010618459538553,-0.0606340077857946, ,0.05056951709890742, ,0.06430151552527344, ,0.0008146442291077976, ,0.18351530129019702,-0.20164827807887617,0.10648633463000001,1.605176517374034,0.22271749461766793,-1.3192326757029176, ,0.12181892369508443,0.11847308559109959,0.047691052455089825,0.04784155346194134,0.052247671683835685,-0.08530122075665524, ,1.8350520133972168
0.01585906241598073,0.02004874532369239,-0.09645180506393684, ,0.01684800825817814,0.019371567512191667,-0.09743311454749436, ,0.0015490487305789855, ,0.020234653011499775,-0.0019372450073319846,-0.0463042326240535,-0.022850477825177642,-0.06010618459538553,-0.0606340077857946, ,0.05056951709890742, ,0.06430151552527344, ,0.0008215725734612994, ,0.18351530129019702,-0.20164827807887617,0.10648633463000001,1.605176517374034,0.22271749461766793,-1.3192326757029176, ,0.12181892369508443,0.11847308559109959,0.047691052455089825,0.04784155346194134,0.052247671683835685,-0.08530122075665524, ,1.8387210369110107
0.01585906241598073,0.02004874532369239,-0.09645180506393684, ,0.016922100845019647,0.01936223517294374,-0.09759558788993704, ,0.0017057508732952339, ,0.020234653011499775,-0.0019372450073319846,-0.0463042326240535,-0.022850477825177642,-0.06010618459538553,-0.0606340077857946, ,0.05056951709890742, ,0.06430151552527344, ,0.0008298359220578782, ,0.18351530129019702,-0.20164827807887617,0.10648633463000001,1.605176517374034,0.22271749461766793,-1.3192326757029176, ,0.12181892369508443,0.11847308559109959,0.047691052455089825,0.04784155346194134,0.052247671683835685,-0.08530122075665524, ,1.8423020839691162
0.016069045738190516,0.02001981099885408,-0.09691470835930832, ,0.016996086259960987,0.01935302489090069,-0.09775718225534706, ,0.001419073679648378, ,0.019483902562199555,-0.0033263848156621246,-0.04106317365148061,-0.005191362843603737,-0.012469944054233146,-0.0362739290187382, ,0.04557270592500302, ,0.013503073774723831, ,0.0008352918272207531, ,0.18484361134456365,-0.20038174988750335,0.10696336935,1.605176517374034,0.223673950116026,-1.3203393159893548, ,0.12806604798714005,0.12027495761529881,0.04236386042553192,0.03318052362753201,0.1100425486895136,-0.1074612668738581, ,1.8460850715637207
0.016069045738190516,0.02001981099885408,-0.09691470835930832, ,0.017069963693591466,0.019343936574457005,-0.09791789922109714, ,0.0015700429599774307, ,0.019483902562199555,-0.0033263848156621246,-0.04106317365148061,-0.005191362843603737,-0.012469944054233146,-0.0362739290187382, ,0.04557270592500302, ,0.013503073774723831, ,0.0008420326633010896, ,0.18484361134456365,-0.20038174988750335,0.10696336935,1.605176517374034,0.223673950116026,-1.3203393159893548, ,0.12806604798714005,0.12027495761529881,0.04236386042553192,0.03318052362753201,0.1100425486895136,-0.1074612668738581, ,1.8497669696807861
0.016069045738190516,0.02001981099885408,-0.09691470835930832, ,0.017143732341609506,0.01933497013174785,-0.09807774036572856, ,0.0017252830946789378, ,0.019483902562199555,-0.0033263848156621246,-0.04106317365148061,-0.005191362843603737,-0.012469944054233146,-0.0362739290187382, ,0.04557270592500302, ,0.013503073774723831, ,0.0008500622126772518, ,0.18484361134456365,-0.20038174988750335,0.10696336935,1.605176517374034,0.223673950116026,-1.3203393159893548, ,0.12806604798714005,0.12027495761529881,0.04236386042553192,0.03318052362753201,0.1100425486895136,-0.1074612668738581, ,1.8536670207977295
0.016069045738190516,0.02001981099885408,-0.09691470835930832, ,0.017217391404814004,0.01932612547065006,-0.09823670726894537, ,0.0018835016589252534, ,0.019483902562199555,-0.0033263848156621246,-0.04106317365148061,-0.005191362843603737,-0.012469944054233146,-0.0362739290187382, ,0.04557270592500302, ,0.013503073774723831, ,0.0008593724779587654, ,0.18484361134456365,-0.20038174988750335,0.10696336935,1.605176517374034,0.223673950116026,-1.3203393159893548, ,0.12806604798714005,0.12027495761529881,0.04236386042553192,0.03318052362753201,0.1100425486895136,-0.1074612668738581, ,1.857485055923462
0.016231692774407436,0.019986586657131492,-0.09724259564914838, ,0.017290940089095586,0.019317402498782388,-0.0983948015116081, ,0.001702172335853805, ,0.019413108170833474,-0.004554594665826781,-0.037743456286448554,0.020711230805798207,-0.008057188058958512,-0.029764970991124875, ,0.04268701903236524, ,0.02222153830211334, ,0.0008668974766899712, ,0.18594023941270352,-0.19936234914810572,0.10730170104000002,1.605176517374034,0.2246304056143841,-1.3213642775356516, ,0.13365766416686023,0.12486439678746157,0.03894574943765281,0.026312191699449195,0.12129465704266264,-0.1391217819766713, ,1.8613510131835938
0.016231692774407436,0.019986586657131492,-0.09724259564914838, ,0.017364377605428152,0.019308801123505883,-0.09855202467572892, ,0.0018592935571523533, ,0.019413108170833474,-0.004554594665826781,-0.037743456286448554,0.020711230805798207,-0.008057188058958512,-0.029764970991124875, ,0.04268701903236524, ,0.02222153830211334, ,0.0008756797428887532, ,0.18594023941270352,-0.19936234914810572,0.10730170104000002,1.605176517374034,0.2246304056143841,-1.3213642775356516, ,0.13365766416686023,0.12486439678746157,0.03894574943765281,0.026312191699449195,0.12129465704266264,-0.1391217819766713, ,1.8650529384613037
0.016442822303528636,0.019925393001915724,-0.09764880003956022, ,0.017437703169860156,0.01930032125192489,-0.09870837834446597, ,0.0015821532211060005, ,0.019413108170833474,-0.004554594665826781,-0.037743456286448554,-0.037329723137771754,-0.01731442400393243,-0.026301786671021437, ,0.04268701903236524, ,0.02222153830211334, ,0.0008818768786625887, ,0.18739983592593196,-0.1979104753677515,0.10771910642000002,1.605176517374034,0.22599677061203852,-1.3226418140528968, ,0.13071204071414708,0.13290888173455292,0.03756795169811321,0.020677039705311057,0.11054632793041881,-0.08986960842925189, ,1.8691041469573975
0.016442822303528636,0.019925393001915724,-0.09764880003956022, ,0.01751091600350606,0.0192919627908874,-0.09886386410211728, ,0.0017373654366000602, ,0.019114675251306966,-0.005741497012790477,-0.03659275975410892,-0.037329723137771754,-0.01731442400393243,-0.026301786671021437, ,0.04168171858660272, ,0.041148899101395506, ,0.0008893159096011755, ,0.18739983592593196,-0.1979104753677515,0.10771910642000002,1.605176517374034,0.22599677061203852,-1.3226418140528968, ,0.13071204071414708,0.13290888173455292,0.03756795169811321,0.020677039705311057,0.11054632793041881,-0.08986960842925189, ,1.8726820945739746
0.016442822303528636,0.019925393001915724,-0.09764880003956022, ,0.017584015332537728,0.019283725646985682,-0.09901848353411546, ,0.0018947536512958405, ,0.019114675251306966,-0.005741497012790477,-0.03659275975410892,-0.037329723137771754,-0.01731442400393243,-0.026301786671021437, ,0.04168171858660272, ,0.041148899101395506, ,0.0008979834763399226, ,0.18739983592593196,-0.1979104753677515,0.10771910642000002,1.605176517374034,0.22599677061203852,-1.3226418140528968, ,0.13071204071414708,0.13290888173455292,0.03756795169811321,0.020677039705311057,0.11054632793041881,-0.08986960842925189, ,1.8763401508331299
0.01674995473093375,0.019834328058735258,-0.09821853972837753, ,0.017657000388175734,0.019275609726556467,-0.09917223822702238, ,0.001429838741030483, ,0.020248504421976857,-0.0061899589708326415,-0.03661753147081297,-0.07630282950946907,-0.07082382570869943,-0.030641972713669766, ,0.042298476738570456, ,0.10410605287837021, ,0.0009025292478330043, ,0.18948497380197257,-0.19584078295745935,0.10830502950000001,1.605176517374034,0.2273631356096929,-1.3240010293102826, ,0.1359555036654309,0.1359555036654309,0.03765676482269504,0.015804508795760716,0.0626903824226088,-0.054526573737436024, ,1.8799140453338623
0.01674995473093375,0.019834328058735258,-0.09821853972837753, ,0.017729870406680774,0.019267614935682104,-0.09932512976852284, ,0.0015830161124777615, ,0.020248504421976857,-0.0061899589708326415,-0.03661753147081297,-0.07630282950946907,-0.07082382570869943,-0.030641972713669766, ,0.042298476738570456, ,0.10410605287837021, ,0.0009082960856689767, ,0.18948497380197257,-0.19584078295745935,0.10830502950000001,1.605176517374034,0.2273631356096929,-1.3240010293102826, ,0.1359555036654309,0.1359555036654309,0.03765676482269504,0.015804508795760716,0.0626903824226088,-0.054526573737436024, ,1.883484125137329
0.01674995473093375,0.019834328058735258,-0.09821853972837753, ,0.017802624629345155,0.019259741180191005,-0.09947715974741995, ,0.0017385017539108373, ,0.020248504421976857,-0.0061899589708326415,-0.03661753147081297,-0.07630282950946907,-0.07082382570869943,-0.030641972713669766, ,0.042298476738570456, ,0.10410605287837021, ,0.0009152726038894966, ,0.18948497380197257,-0.19584078295745935,0.10830502950000001,1.605176517374034,0.2273631356096929,-1.3240010293102826, ,0.1359555036654309,0.1359555036654309,0.03765676482269504,0.015804508795760716,0.0626903824226088,-0.054526573737436024, ,1.8870611190795898
0.016964669927174658,0.01977224742495556,-0.09862645796228053, ,0.01787526230248404,0.019251988365657464,-0.0996283297536282, ,0.0014503775539670735, ,0.02144768169607333,-0.005276507720963164,-0.04295889108185244,-0.005865100010510638,0.00903091225797309,-0.015170098783153962, ,0.04830435701722904, ,0.010761527181362954, ,0.0009197318118068097, ,0.19092140211657832,-0.19440435464285358,0.10872502746000001,1.605176517374034,0.22845622760781642,-1.3248106937997135, ,0.1422742752001061,0.13853568110725661,0.044369948523676886,0.013732002468168853,0.15017144914125802,-0.12813953672613632, ,1.8907029628753662
0.016964669927174658,0.01977224742495556,-0.09862645796228053, ,0.017947782677426964,0.019244356397403194,-0.09977864137816904, ,0.0016039657853356628, ,0.02144768169607333,-0.005276507720963164,-0.04295889108185244,-0.005865100010510638,0.00903091225797309,-0.015170098783153962, ,0.04830435701722904, ,0.010761527181362954, ,0.0009253866380343208, ,0.19092140211657832,-0.19440435464285358,0.10872502746000001,1.605176517374034,0.22845622760781642,-1.3248106937997135, ,0.1422742752001061,0.13853568110725661,0.044369948523676886,0.013732002468168853,0.15017144914125802,-0.12813953672613632, ,1.8945050239562988
0.016964669927174658,0.01977224742495556,-0.09862645796228053, ,0.01802018501050906,0.019236845180497335,-0.0999280962131647, ,0.0017592696753716104, ,0.02144768169607333,-0.005276507720963164,-0.04295889108185244,-0.005865100010510638,0.00903091225797309,-0.015170098783153962, ,0.04830435701722904, ,0.010761527181362954, ,0.0009322217448977414, ,0.19092140211657832,-0.19440435464285358,0.10872502746000001,1.605176517374034,0.22845622760781642,-1.3248106937997135, ,0.1422742752001061,0.13853568110725661,0.044369948523676886,0.013732002468168853,0.15017144914125802,-0.12813953672613632, ,1.8982369899749756
0.017179596712595405,0.019724661483758156,-0.09905407914277697, ,0.01809246856306272,0.019229454619757346,-0.10007669585183271, ,0.001457501213436584, ,0.021903415343662212,-0.004700836783795656,-0.04166408619185217,-0.0375443105997001,-0.027806239211526418,-0.005198698527593978, ,0.04730489983486859, ,0.046718697002785955, ,0.00093649230968261, ,0.1923578304311841,-0.19307604458848696,0.10916835864,1.6053862073175185,0.2300958656050017,-1.3263927448644925, ,0.145102357123044,0.12928738631944245,0.043284813913043486,0.0,0.11860786376293617,-0.08975767976019564, ,1.9019501209259033
0.017179596712595405,0.019724661483758156,-0.09905407914277697, ,0.018164632601408683,0.01922218461974903,-0.10022444188848031, ,0.0016101328074556067, ,0.021903415343662212,-0.004700836783795656,-0.04166408619185217,-0.0375443105997001,-0.027806239211526418,-0.005198698527593978, ,0.04730489983486859, ,0.046718697002785955, ,0.0009419248943420696, ,0.1923578304311841,-0.19307604458848696,0.10916835864,1.6053862073175185,0.2300958656050017,-1.3263927448644925, ,0.145102357123044,0.12928738631944245,0.043284813913043486,0.0,0.11860786376293617,-0.08975767976019564, ,1.9055609703063965
0.01742341703194659,0.01967455823871891,-0.09950302207233312, ,0.018236676396847628,0.019215035084787918,-0.10037133591849884, ,0.0012753514257023528, ,0.023836502925809886,-0.004760184214548167,-0.04365344253141881,-0.11844231670821487,-0.12921146783350304,-0.02193448129639394, ,0.04996460017184628, ,0.1752827067449087, ,0.0009445923065929519, ,0.19392554520465166,-0.19169367540400079,0.10963502304000002,1.6053862073175185,0.23064241160406349,-1.3268384164792781, ,0.15015338854188412,0.1327229951866724,0.045381229401709404,0.0,0.021218473557881135,-0.011860985248210783, ,1.9120421409606934
0.01742341703194659,0.01967455823871891,-0.09950302207233312, ,0.018308599225651485,0.019208005918938724,-0.10051737953835764, ,0.0014248296922875253, ,0.023836502925809886,-0.004760184214548167,-0.04365344253141881,-0.11844231670821487,-0.12921146783350304,-0.02193448129639394, ,0.04996460017184628, ,0.1752827067449087, ,0.0009484037144159246, ,0.19392554520465166,-0.19169367540400079,0.10963502304000002,1.6053862073175185,0.23064241160406349,-1.3268384164792781, ,0.15015338854188412,0.1327229951866724,0.045381229401709404,0.0,0.021218473557881135,-0.011860985248210783, ,1.9156110286712646
0.01742341703194659,0.01967455823871891,-0.09950302207233312, ,0.01838040036905491,0.019201097026017307,-0.10066257434559965, ,0.0015762436683055769, ,0.02327118291600217,-0.0037585164909251373,-0.04544495653492877,-0.04394334957431459,-0.04377065529680723,-0.007294384702608044, ,0.05119490672893303, ,0.06202172525486596, ,0.0009533473361000952, ,0.1953851417178801,-0.19041170174687952,0.11010298373,1.6053862073175185,0.23146223060265614,-1.327588602641597, ,0.14712704117592368,0.12535923587644754,0.04740717714285715,0.0,0.10448338980868739,-0.07938570281254216, ,1.9192280769348145
0.017655270341495694,0.019633561123802566,-0.09995262202596232, ,0.018452079113246516,0.019194308309589528,-0.10080692193883395, ,0.0012480687459693878, ,0.02327118291600217,-0.0037585164909251373,-0.04544495653492877,-0.04394334957431459,-0.04377065529680723,-0.007294384702608044, ,0.05119490672893303, ,0.06202172525486596, ,0.0009556498471146991, ,0.1953851417178801,-0.19041170174687952,0.11010298373,1.6053862073175185,0.23146223060265614,-1.327588602641597, ,0.14712704117592368,0.12535923587644754,0.04740717714285715,0.0,0.10448338980868739,-0.07938570281254216, ,1.9231691360473633
0.017655270341495694,0.019633561123802566,-0.09995262202596232, ,0.01852363474936041,0.019187639672973582,-0.10095042391773244, ,0.0013958908626306367, ,0.02327118291600217,-0.0037585164909251373,-0.04544495653492877,-0.04394334957431459,-0.04377065529680723,-0.007294384702608044, ,0.05119490672893303, ,0.06202172525486596, ,0.0009590625681652102, ,0.1953851417178801,-0.19041170174687952,0.11010298373,1.6053862073175185,0.23146223060265614,-1.327588602641597, ,0.14712704117592368,0.12535923587644754,0.04740717714285715,0.0,0.10448338980868739,-0.07938570281254216, ,1.9268670082092285
0.017655270341495694,0.019633561123802566,-0.09995262202596232, ,0.018595066573467642,0.019181091019239493,-0.10109308188302227, ,0.0015455079549187658, ,0.02327118291600217,-0.0037585164909251373,-0.04544495653492877,-0.04394334957431459,-0.04377065529680723,-0.007294384702608044, ,0.05119490672893303, ,0.06202172525486596, ,0.0009635736865248528, ,0.19684473823110854,-0.18919150995275205,0.11055927781000001,1.6053862073175185,0.2326919591005451,-1.3286730425150055, ,0.14554745637802266,0.11936722208612675,0.0434027561852861,0.0,0.11635422706856215,-0.09623547509321355, ,1.9306299686431885
0.017882279947258214,0.019595423728941044,-0.10038924329812993, ,0.018666373886567278,0.019174662251209545,-0.10123489743648083, ,0.0012275888760142812, ,0.022348092059855818,-0.0040174724303847316,-0.04145582872080378,-0.021232626013451782,-0.03034496025389611,-0.004779904479984533, ,0.04726693387954534, ,0.037034019210944735, ,0.0009655890696507264, ,0.19684473823110854,-0.18919150995275205,0.11055927781000001,1.6053862073175185,0.2326919591005451,-1.3286730425150055, ,0.14554745637802266,0.11936722208612675,0.0434027561852861,0.0,0.11635422706856215,-0.09623547509321355, ,1.9342739582061768
0.017882279947258214,0.019595423728941044,-0.10038924329812993, ,0.018737555994578284,0.019168353271459423,-0.1013758721809304, ,0.001373798691639032, ,0.022348092059855818,-0.0040174724303847316,-0.04145582872080378,-0.021232626013451782,-0.03034496025389611,-0.004779904479984533, ,0.04726693387954534, ,0.037034019210944735, ,0.0009686815667870014, ,0.19684473823110854,-0.18919150995275205,0.11055927781000001,1.6053862073175185,0.2326919591005451,-1.3286730425150055, ,0.14554745637802266,0.11936722208612675,0.0434027561852861,0.0,0.11635422706856215,-0.09623547509321355, ,1.9379589557647705
0.018096883219496245,0.019553605384042688,-0.10077507015456769, ,0.018808612208330446,0.01916216398231883,-0.10151600772023298, ,0.0010994421316033408, ,0.02049087344150801,-0.004083888261247228,-0.03616346000124589,-0.03567812442368079,-0.04962297722456188,-0.007996688465147332, ,0.0417654148427615, ,0.06111715454413793, ,0.0009696647289284778, ,0.19825799834709162,-0.18804082275449258,0.11096372029000001,1.6053862073175185,0.23378505109866862,-1.329564385744577, ,0.1340352281899305,0.10907694432008136,0.03792574171428572,0.0,0.08523082095295068,-0.07156348973124392, ,1.941697120666504
0.018096883219496245,0.019553605384042688,-0.10077507015456769, ,0.018879541843556103,0.019156094285871395,-0.10165530565928327, ,0.001243134803127365, ,0.02049087344150801,-0.004083888261247228,-0.03616346000124589,-0.03567812442368079,-0.04962297722456188,-0.007996688465147332, ,0.0417654148427615, ,0.06111715454413793, ,0.0009717055503777232, ,0.19825799834709162,-0.18804082275449258,0.11096372029000001,1.6053862073175185,0.23378505109866862,-1.329564385744577, ,0.1340352281899305,0.10907694432008136,0.03792574171428572,0.0,0.08523082095295068,-0.07156348973124392, ,1.9456350803375244
0.01830446584349711,0.01950923242693153,-0.10113604058621385, ,0.018950344220881342,0.01915014408395578,-0.10179376760400413, ,0.0009892967938717131, ,0.020600921299798184,-0.004476247295570376,-0.036083820595848165,-0.030893517186910097,-0.045517986679659006,-0.008155089789311516, ,0.04179087049876966, ,0.05501122923689138, ,0.0009718358558850862, ,0.19961719933295513,-0.18692102648773004,0.11134223697000001,1.6053862073175185,0.23460487009726125,-1.3301512144266148, ,0.1346055908630791,0.11190677070574384,0.03783565681710214,0.0,0.08990358470434416,-0.07911364980943406, ,1.9500010013580322
0.01830446584349711,0.01950923242693153,-0.10113604058621385, ,0.019021018665817502,0.01914431327816588,-0.10193139516134112, ,0.0011310184934328151, ,0.020600921299798184,-0.004476247295570376,-0.036083820595848165,-0.030893517186910097,-0.045517986679659006,-0.008155089789311516, ,0.04179087049876966, ,0.05501122923689138, ,0.00097300631645529, ,0.19961719933295513,-0.18692102648773004,0.11134223697000001,1.6053862073175185,0.23460487009726125,-1.3301512144266148, ,0.1346055908630791,0.11190677070574384,0.03783565681710214,0.0,0.08990358470434416,-0.07911364980943406, ,1.9537200927734375
0.01830446584349711,0.01950923242693153,-0.10113604058621385, ,0.019091564508752594,0.0191386017698521,-0.10206818993925604, ,0.0012750661979642696, ,0.020600921299798184,-0.004476247295570376,-0.036083820595848165,-0.030893517186910097,-0.045517986679659006,-0.008155089789311516, ,0.04179087049876966, ,0.05501122923689138, ,0.0009752111331086402, ,0.19961719933295513,-0.18692102648773004,0.11134223697000001,1.6053862073175185,0.23460487009726125,-1.3301512144266148, ,0.1346055908630791,0.11190677070574384,0.03783565681710214,0.0,0.08990358470434416,-0.07911364980943406, ,1.9573371410369873
0.01851221418460139,0.019469639385078147,-0.1015045642774348, ,0.01916198108494249,0.019133009460120632,-0.10220415354672137, ,0.0010123941311844383, ,0.019358617969410165,-0.003089185709050182,-0.03520957060725634,0.015034910435020771,-0.0018773743357465016,0.0003326487164599087, ,0.04029904490652278, ,0.015149882934611463, ,0.0009754805751236823, ,0.20097640031881864,-0.1858398438853386,0.11172982768,1.6053862073175185,0.23569796209538477,-1.331124236396327, ,0.12652925541129437,0.0963420726481937,0.03713009678321679,0.0,0.12578170313644174,-0.10989304247467926, ,1.9609200954437256
0.01851221418460139,0.019469639385078147,-0.1015045642774348, ,0.019232267734502637,0.01912753624983565,-0.10233928759371616, ,0.0011542420390073665, ,0.019358617969410165,-0.003089185709050182,-0.03520957060725634,0.015034910435020771,-0.0018773743357465016,0.0003326487164599087, ,0.04029904490652278, ,0.015149882934611463, ,0.0009767666288206871, ,0.20097640031881864,-0.1858398438853386,0.11172982768,1.6053862073175185,0.23569796209538477,-1.331124236396327, ,0.12652925541129437,0.0963420726481937,0.03713009678321679,0.0,0.12578170313644174,-0.10989304247467926, ,1.964548110961914
0.01851221418460139,0.019469639385078147,-0.1015045642774348, ,0.019302423802399174,0.01912218203961817,-0.10247359369121839, ,0.0012977580097044198, ,0.019358617969410165,-0.003089185709050182,-0.03520957060725634,0.015034910435020771,-0.0018773743357465016,0.0003326487164599087, ,0.04029904490652278, ,0.015149882934611463, ,0.000979059424398428, ,0.20097640031881864,-0.1858398438853386,0.11172982768,1.6053862073175185,0.23569796209538477,-1.331124236396327, ,0.12652925541129437,0.0963420726481937,0.03713009678321679,0.0,0.12578170313644174,-0.10989304247467926, ,1.9683029651641846
0.0186603113412993,0.01944619872117684,-0.10176962650659283, ,0.019372448638440478,0.019116946729848087,-0.10260707345120033, ,0.0011475468569108374, ,0.018842255493447296,-0.003105511226884348,-0.033435887855327084,0.008976985590859441,-0.009869437752628123,-0.0008744265258056495, ,0.038504978752554306, ,0.013339800696718541, ,0.0009802543707283034, ,0.20194946466097094,-0.1851139069951615,0.11200982632,1.6053862073175185,0.23665441759374287,-1.3319041617222016, ,0.12340304493949386,0.09276338373262051,0.03531887254988914,0.0,0.11454438679408911,-0.1002743355698462, ,1.9721660614013672
0.0186603113412993,0.01944619872117684,-0.10176962650659283, ,0.019442341597268573,0.019111830220663813,-0.10273972848662312, ,0.0012901439714409367, ,0.018842255493447296,-0.003105511226884348,-0.033435887855327084,0.008976985590859441,-0.009869437752628123,-0.0008744265258056495, ,0.038504978752554306, ,0.013339800696718541, ,0.0009824366918600826, ,0.20194946466097094,-0.1851139069951615,0.11200982632,1.6053862073175185,0.23665441759374287,-1.3319041617222016, ,0.12340304493949386,0.09276338373262051,0.03531887254988914,0.0,0.11454438679408911,-0.1002743355698462, ,1.976168155670166
0.018890980896005792,0.01940823248563707,-0.1021864070005648, ,0.019512102038350486,0.019106832411963103,-0.10287156041143057, ,0.0009726606161962367, ,0.01846887951611421,-0.002693856529929913,-0.03402792159679641,-0.010702817438139535,-0.0293386979720699,-0.004671026426919214, ,0.03881051174337067, ,0.031229215128091764, ,0.0009823683276946012, ,0.20342450663994782,-0.18397094252977628,0.11244926863000002,1.6053862073175185,0.23788414609163183,-1.3329069228554697, ,0.11530612583046268,0.08902152116179247,0.035875701621621625,0.0,0.08670854350035243,-0.0768045755668258, ,1.9804630279541016
0.018890980896005792,0.01940823248563707,-0.1021864070005648, ,0.019581729325969535,0.019101953203403972,-0.10300257084054426, ,0.001112233701122479, ,0.01846887951611421,-0.002693856529929913,-0.03402792159679641,-0.010702817438139535,-0.0293386979720699,-0.004671026426919214, ,0.03881051174337067, ,0.031229215128091764, ,0.000983270170565628, ,0.20342450663994782,-0.18397094252977628,0.11244926863000002,1.6053862073175185,0.23788414609163183,-1.3329069228554697, ,0.11530612583046268,0.08902152116179247,0.035875701621621625,0.0,0.08670854350035243,-0.0768045755668258, ,1.9843440055847168
0.018890980896005792,0.01940823248563707,-0.1021864070005648, ,0.01965122282921692,0.01909719249440437,-0.10313276138985727, ,0.0012531162369436263, ,0.01846887951611421,-0.002693856529929913,-0.03402792159679641,-0.010702817438139535,-0.0293386979720699,-0.004671026426919214, ,0.03881051174337067, ,0.031229215128091764, ,0.0009851311779199591, ,0.20342450663994782,-0.18397094252977628,0.11244926863000002,1.6053862073175185,0.23788414609163183,-1.3329069228554697, ,0.11530612583046268,0.08902152116179247,0.035875701621621625,0.0,0.08670854350035243,-0.0768045755668258, ,1.9879541397094727
0.019074568601704523,0.01938598822584365,-0.10253033213340972, ,0.01972058192198307,0.01909255018414386,-0.10326213367622859, ,0.001019300050213876, ,0.01808709002131069,-0.001705657856456805,-0.03391151951620745,-0.010180678440277079,-0.03497064434979799,-0.004433368596152214, ,0.03847133023512975, ,0.036421797490645995, ,0.0009853652112918356, ,0.20455202563958458,-0.18312144191361157,0.11281222983000001,1.6053862073175185,0.23870396509022446,-1.3335754302776481, ,0.11021712143840974,0.07894920262767952,0.035875701621621625,0.0,0.07588481247473523,-0.0674063038070055, ,1.991542100906372
0.019074568601704523,0.01938598822584365,-0.10253033213340972, ,0.01978980598294898,0.019088026171563435,-0.10339068931747808, ,0.0011578257129198498, ,0.01808709002131069,-0.001705657856456805,-0.03391151951620745,-0.010180678440277079,-0.03497064434979799,-0.004433368596152214, ,0.03847133023512975, ,0.036421797490645995, ,0.0009865384119831825, ,0.20455202563958458,-0.18312144191361157,0.11281222983000001,1.6053862073175185,0.23870396509022446,-1.3335754302776481, ,0.11021712143840974,0.07894920262767952,0.035875701621621625,0.0,0.07588481247473523,-0.0674063038070055, ,1.9951131343841553
0.019074568601704523,0.01938598822584365,-0.10253033213340972, ,0.019858894395577604,0.01908362035536622,-0.10351842993238018, ,0.0012972781276048605, ,0.01808709002131069,-0.001705657856456805,-0.03391151951620745,-0.010180678440277079,-0.03497064434979799,-0.004433368596152214, ,0.03847133023512975, ,0.036421797490645995, ,0.000988638004656302, ,0.20455202563958458,-0.18312144191361157,0.11281222983000001,1.6053862073175185,0.23870396509022446,-1.3335754302776481, ,0.11021712143840974,0.07894920262767952,0.035875701621621625,0.0,0.07588481247473523,-0.0674063038070055, ,1.9986650943756104
0.01925763196442025,0.01937294243163849,-0.1028774877597087, ,0.019927846548105362,0.01907933263401805,-0.10364535714065899, ,0.0010606685097823473, ,0.01799289026353646,-0.0010625470715365328,-0.03475938253070024,0.017672213801327084,-0.0054587848715377295,0.0009459648586368945, ,0.0391546648591256, ,0.018494721727247587, ,0.0009891214308652015, ,0.20567182190634714,-0.18235689135906336,0.11318037619000001,1.6053862073175185,0.23966042058858256,-1.334355355603523, ,0.10932827368487416,0.07396488040410817,0.036872248888888896,0.0,0.1047626422927699,-0.09047314820822352, ,2.0022671222686768
0.01925763196442025,0.01937294243163849,-0.1028774877597087, ,0.019996661833533436,0.019075162905748504,-0.10377147256298193, ,0.0011975168566513738, ,0.01799289026353646,-0.0010625470715365328,-0.03475938253070024,0.017672213801327084,-0.0054587848715377295,0.0009459648586368945, ,0.0391546648591256, ,0.018494721727247587, ,0.0009905107337037761, ,0.20567182190634714,-0.18235689135906336,0.11318037619000001,1.6053862073175185,0.23966042058858256,-1.334355355603523, ,0.10932827368487416,0.07396488040410817,0.036872248888888896,0.0,0.1047626422927699,-0.09047314820822352, ,2.0059001445770264
0.01925763196442025,0.01937294243163849,-0.1028774877597087, ,0.020065339649619172,0.019071111068550493,-0.10389677782095447, ,0.0013350828084532265, ,0.01799289026353646,-0.0010625470715365328,-0.03475938253070024,0.017672213801327084,-0.0054587848715377295,0.0009459648586368945, ,0.0391546648591256, ,0.018494721727247587, ,0.00099279266797364, ,0.20567182190634714,-0.18235689135906336,0.11318037619000001,1.6053862073175185,0.23966042058858256,-1.334355355603523, ,0.10932827368487416,0.07396488040410817,0.036872248888888896,0.0,0.1047626422927699,-0.09047314820822352, ,2.009780168533325
0.01943070494455479,0.01936589622900598,-0.10321820949897895, ,0.020133879398867613,0.01906717702018155,-0.10402127453711463, ,0.0011084227236910545, ,0.01827122589874395,-0.0004132228231591556,-0.036290208411879195,0.03340254489999216,0.009520796568306903,0.003938586849951941, ,0.040632347649651485, ,0.034732011604706424, ,0.0009935533920244124, ,0.20671439084436746,-0.18166184540038313,0.1135420411,1.6055958972610032,0.24075351258670605,-1.3352466988330944, ,0.10945437319316122,0.0701900455314133,0.038568550895883784,0.0,0.12001224345028841,-0.10253165758237039, ,2.0142171382904053
0.01943070494455479,0.01936589622900598,-0.10321820949897895, ,0.020202280488522708,0.019063360658164663,-0.10414496433492734, ,0.0012432743533216677, ,0.01827122589874395,-0.0004132228231591556,-0.036290208411879195,0.03340254489999216,0.009520796568306903,0.003938586849951941, ,0.040632347649651485, ,0.034732011604706424, ,0.0009951855551701462, ,0.20671439084436746,-0.18166184540038313,0.1135420411,1.6055958972610032,0.24075351258670605,-1.3352466988330944, ,0.10945437319316122,0.0701900455314133,0.038568550895883784,0.0,0.12001224345028841,-0.10253165758237039, ,2.017850160598755
0.019621970792735068,0.01936861243791277,-0.10359612009738145, ,0.02027054233055886,0.01905966187978764,-0.10426784883877838, ,0.0009835217278025162, ,0.018655698041384276,0.0009203367627282533,-0.03686155043960928,0.032310021055120354,-0.0025339749576933366,0.004534938400952487, ,0.0413237944770322, ,0.03240818466718437, ,0.0009951098160313953, ,0.2078573553097527,-0.18099769037319982,0.11394518729000001,1.6055958972610032,0.24198324108459504,-1.3363311387065027, ,0.11008925934857398,0.05850612919757755,0.03942775128712872,0.0,0.10850102262213189,-0.08995517269462963, ,2.02146315574646
0.019621970792735068,0.01936861243791277,-0.10359612009738145, ,0.02033866434167225,0.01905608058210527,-0.10438992967396953, ,0.0011142079912949785, ,0.018655698041384276,0.0009203367627282533,-0.03686155043960928,0.032310021055120354,-0.0025339749576933366,0.004534938400952487, ,0.0413237944770322, ,0.03240818466718437, ,0.0009958781913556765, ,0.2078573553097527,-0.18099769037319982,0.11394518729000001,1.6055958972610032,0.24198324108459504,-1.3363311387065027, ,0.11008925934857398,0.05850612919757755,0.03942775128712872,0.0,0.10850102262213189,-0.08995517269462963, ,2.025099039077759
0.019621970792735068,0.01936861243791277,-0.10359612009738145, ,0.02040664594327228,0.019052616661938405,-0.1045112084667119, ,0.0012461762098467857, ,0.018655698041384276,0.0009203367627282533,-0.03686155043960928,0.032310021055120354,-0.0025339749576933366,0.004534938400952487, ,0.0413237944770322, ,0.03240818466718437, ,0.0009974826658331836, ,0.2078573553097527,-0.18099769037319982,0.11394518729000001,1.6055958972610032,0.24198324108459504,-1.3363311387065027, ,0.11008925934857398,0.05850612919757755,0.03942775128712872,0.0,0.10850102262213189,-0.08995517269462963, ,2.0286641120910645
0.019804485518137415,0.019378186352296753,-0.1039560150995372, ,0.02047448656147298,0.019049270015875426,-0.10463168684412154, ,0.0010067868001047786, ,0.01836957750034472,0.0007758304631566067,-0.03647033826313989,0.015269596108683092,-0.01862944845250192,0.001229059068318434, ,0.04084273330075472, ,0.024086352863885014, ,0.0009975419278349135, ,0.20892309244639565,-0.18043393087338144,0.11433018542000001,1.6055958972610032,0.2429396965829531,-1.3371110640323776, ,0.10567588146823026,0.05865076734145289,0.03894574943765281,0.0,0.08779822593418954,-0.07297421477496856, ,2.032231092453003
0.019804485518137415,0.019378186352296753,-0.1039560150995372, ,0.020542185627084285,0.019046040540272754,-0.10475136643421303, ,0.0011345069575617096, ,0.01836957750034472,0.0007758304631566067,-0.03647033826313989,0.015269596108683092,-0.01862944845250192,0.001229059068318434, ,0.04084273330075472, ,0.024086352863885014, ,0.0009984087951116654, ,0.20892309244639565,-0.18043393087338144,0.11433018542000001,1.6055958972610032,0.2429396965829531,-1.3371110640323776, ,0.10567588146823026,0.05865076734145289,0.03894574943765281,0.0,0.08779822593418954,-0.07297421477496856, ,2.035783052444458
0.019804485518137415,0.019378186352296753,-0.1039560150995372, ,0.020609742575603645,0.019042928131254834,-0.10487024886589368, ,0.0012635902749395136, ,0.01836957750034472,0.0007758304631566067,-0.03647033826313989,0.015269596108683092,-0.01862944845250192,0.001229059068318434, ,0.04084273330075472, ,0.024086352863885014, ,0.0010000766031608972, ,0.20892309244639565,-0.18043393087338144,0.11433018542000001,1.6055958972610032,0.2429396965829531,-1.3371110640323776, ,0.10567588146823026,0.05865076734145289,0.03894574943765281,0.0,0.08779822593418954,-0.07297421477496856, ,2.039391040802002
0.01997295713496266,0.019383290020976374,-0.10429138293345279, ,0.020677156847207327,0.019039932684715676,-0.10498833576895913, ,0.0010485870254823163, ,0.017834411402958054,0.0005393051488751693,-0.03554643912966343,0.01490889893818618,-0.014982000207416446,0.0010846202369671377, ,0.03977318713571281, ,0.021134778112169746, ,0.001000379793300406, ,0.20988843405567373,-0.17987789410643729,0.11468796146000002,1.6055958972610032,0.24375951558154577,-1.337779571454556, ,0.10182075274514032,0.058759716135276016,0.03792574171428572,0.0,0.08757972092911862,-0.0727125025659691, ,2.0430941581726074
0.01997295713496266,0.019383290020976374,-0.10429138293345279, ,0.020744427886741728,0.019037054096318104,-0.10510562877408577, ,0.0011739006454392323, ,0.017834411402958054,0.0005393051488751693,-0.03554643912966343,0.01490889893818618,-0.014982000207416446,0.0010846202369671377, ,0.03977318713571281, ,0.021134778112169746, ,0.0010014575625683492, ,0.20988843405567373,-0.17987789410643729,0.11468796146000002,1.6055958972610032,0.24375951558154577,-1.337779571454556, ,0.10182075274514032,0.058759716135276016,0.03792574171428572,0.0,0.08757972092911862,-0.0727125025659691, ,2.046873092651367
0.020156040570394718,0.019389881694653534,-0.10465811321411156, ,0.02081155514371493,0.01903429226149559,-0.10522212951282718, ,0.000935017425519781, ,0.01623977192712749,0.0007072984444597592,-0.03214461961892603,0.028983298291233046,0.0009248565779101717,0.003843904050418968, ,0.03602092494342833, ,0.028997458853985338, ,0.0010010474382655802, ,0.21093100299369402,-0.179283243675122,0.11507944104000001,1.6055958972610032,0.24471597107990384,-1.338559496780431, ,0.09377168138188813,0.050855810052771046,0.03440348060475163,0.0,0.09549407528514645,-0.07908156820533165, ,2.0510261058807373
0.020156040570394718,0.019389881694653534,-0.10465811321411156, ,0.020878538072287987,0.01903164707545224,-0.10533783961760695, ,0.0010546860510337163, ,0.01623977192712749,0.0007072984444597592,-0.03214461961892603,0.028983298291233046,0.0009248565779101717,0.003843904050418968, ,0.03602092494342833, ,0.028997458853985338, ,0.0010013765095095563, ,0.21093100299369402,-0.179283243675122,0.11507944104000001,1.6055958972610032,0.24471597107990384,-1.338559496780431, ,0.09377168138188813,0.050855810052771046,0.03440348060475163,0.0,0.09549407528514645,-0.07908156820533165, ,2.0548620223999023
