NicholasDascanio/dvrk_moveit_final/test/execution/third_experiment_notsharpbends/thirdexp_300vel3.0/thirdexp_300vel3.0_15.csv
Current Position (x),Current Position (y),Current Position (z), ,Planned Position (x),Planned Position (y),Planned Position (z), ,Position Error,,Cartesian linear Velocity(x),Cartesian linear Velocity(y),Cartesian linear Velocity(z),Cartesian Angular Velocity(x),Cartesian Angular Velocity(y),Cartesian Angular Velocity(z), ,Total Linear Velocity, ,Total Angular Velocity, ,MSE, ,Joint 1 Position,Joint 2 Position,Joint 3 Position,Joint 4 Position,Joint 5 Position,Joint 6 Position, ,Joint 1 Velocity,Joint 2 Velocity,Joint 3 Velocity,Joint 4 Velocity,Joint 5 Velocity,Joint 6 Velocity, ,Time Stamp
0.009882385342665643,0.020032397482193744,-0.07990591046146243, ,0.010057738171133687,0.0199926787161167,-0.07993609513029938, ,0.00018231102287909635, ,9.753119716311945e-06,2.5506303408450825e-05,9.923413492129892e-05,0.22338241288516475,0.0023647771474278115,-0.010130548926070026, ,0.00010292282735789579, ,0.22339492956948512, ,1.5192585239924696e-05, ,0.14455411393973439,-0.2431811354764556,0.08961771286,1.6053862073175185,0.1915643726711475,-1.2708776676806357, ,0.0002981519893833173,-0.0005995588488577215,-8.826939526366345e-05,-0.0008931498110969507,0.0,-0.2232074759159559, ,0.03644108772277832
0.009932700043729616,0.020040732113503337,-0.07993342463890384, ,0.010088822891617959,0.020033627939642737,-0.08002381226303444, ,0.00018054012162116177, ,0.0007495573516715376,0.0006701639952415287,-0.002138374783904587,0.25432372879250775,-0.03707144175688109,-0.02008467223708527, ,0.002362964815735081, ,0.25701138266779966, ,1.6493233840920822e-05, ,0.1445927276041055,-0.24319658094220403,0.08964493495,1.6053862073175185,0.1867820951793571,-1.277187883568831, ,0.00093456418547276,-0.0015555543870911606,0.0022507858584145824,-0.0008542177344933833,-0.04010562803908802,-0.2531588465738599, ,0.07461404800415039
0.009971738098386982,0.02004764851934681,-0.07995521881937569, ,0.01012018444145226,0.020073853784393664,-0.0801116504779898, ,0.00021724156255742183, ,0.0014480219349535576,0.00020673446169885946,-0.0006932480706691309,-0.1969545613637843,-0.1383950635393916,-0.02479577318721077, ,0.0016186721561968732, ,0.24071620812498845, ,1.8127897095552497e-05, ,0.14463906400135085,-0.24321202640795248,0.08966697188000002,1.6053862073175185,0.18322954618545564,-1.2825405708269209, ,0.0011044732612559578,-0.00036183424236706224,0.0006857575574185929,-0.0008268869058273424,-0.13911939355303324,0.1974436910212411, ,0.11379313468933105
0.009970978222169066,0.020070209408318128,-0.08003376086289421, ,0.010151820817082564,0.020113361765574357,-0.08019960862155412, ,0.0002491418253211053, ,0.0001591027727755802,0.0007917517568830517,-0.002743038264390978,-0.04492777346761379,0.045423065408294695,0.015152518614215469, ,0.0028594481035237105, ,0.06388865078938624, ,1.974367934235203e-05, ,0.14473173679584153,-0.2432429173394494,0.08975123073,1.6053862073175185,0.18541573018170268,-1.2768088131931319, ,0.002618902304248275,-0.0011551904755086229,0.002927552199963243,-0.0007940137702885799,0.05026694974629209,0.045981262816380195, ,0.15055012702941895
0.00999108065392313,0.020098314769680423,-0.08011955236945266, ,0.010183730022851594,0.02015215737985854,-0.08028768554194, ,0.00026130742375598013, ,0.0006737168679898437,0.0007927141364926669,-0.0021767785502069177,0.038383962747683784,-0.0035700748522727523,-0.002730618326227091, ,0.002412603360905039, ,0.03854963074554066, ,2.0971960694899334e-05, ,0.14483985505608069,-0.2433124219353174,0.08984326732,1.6055958972610032,0.18555236668146813,-1.2773286247975313, ,0.004365256704838442,-0.0027168125529596046,0.002368948768590125,0.0016415298392142713,0.0,-0.035501585615011606, ,0.1864790916442871
0.010014342160762028,0.020122981271910124,-0.08019256365972631, ,0.010215910070985965,0.02019024610541468,-0.08037588008918582, ,0.00028064050592924964, ,0.0006998815839580703,0.0008117985072418881,-0.0024318628985987223,7.983089432978323e-05,-0.0038629982590901598,-0.0011139607517056736, ,0.002657594439621063, ,0.00386382303378001, ,2.211584616232282e-05, ,0.14499430971356517,-0.24338192653118543,0.08992234101,1.6055958972610032,0.18555236668146813,-1.2774919822778124, ,0.0042211815976412655,-0.0021933225894431065,0.0026224582680276593,0.001594645624985732,0.0,0.0023164255346813678, ,0.22165799140930176
0.010038216943446806,0.020147346597958703,-0.08026960908959602, ,0.010248358981583394,0.02022763340193201,-0.08046419111515622, ,0.0002974353908928117, ,0.0008520744800332063,0.0008790209625659654,-0.002577608445402031,0.0011121853059637532,-0.005458332515885206,-0.001056501422190133, ,0.002853554637633934, ,0.005570489197098087, ,2.3175247957733702e-05, ,0.14514876437104965,-0.243435985661305,0.09000530357000001,1.6055958972610032,0.18555236668146813,-1.2774919822778124, ,0.005813609011905014,-0.002499970122626281,0.002797473045310854,0.0015478855082609886,0.0,0.0015803635863461227, ,0.2575240135192871
0.010074079057221446,0.020182064733328342,-0.08037216441549128, ,0.010281074782599688,0.020264324710646084,-0.0805526174735442, ,0.00028666572929778435, ,0.0009557179479075335,0.0008506928474147323,-0.0027354046638885013,0.002324078280080208,-0.006756121102766641,0.00014211458753880633, ,0.0030198532732267206, ,0.007144684181546622, ,2.4139303484624825e-05, ,0.14540361455589906,-0.2435286584557957,0.09011678451,1.6058055872044876,0.18555236668146813,-1.2774103035376718, ,0.006782598897888021,-0.0017034848065793024,0.002955252601113173,8.090795970488005e-05,0.0,-0.0006278135775349876, ,0.28966212272644043
0.010105448249713352,0.020213333593855798,-0.08046537395389512, ,0.010314055509836035,0.020300325454365015,-0.08064115801987196, ,0.00028632954898524836, ,0.0008433000907218021,0.000790397256622719,-0.0023050611870133885,-0.0016319380192895581,-0.006189073047251374,0.0004186146948110101, ,0.0025786023233844513, ,0.006400613003294404, ,2.490681256933177e-05, ,0.14561985107637734,-0.24361360851741215,0.09021789513,1.6058055872044876,0.18555236668146813,-1.2766751948764068, ,0.006165305218966306,-0.0022710228779764495,0.0025128271840984388,8.090795970488005e-05,0.0,0.0038941302123887585, ,0.3223991394042969
0.01013403423219658,0.020240278391265288,-0.08054811154581865, ,0.010347299206925979,0.02033564103749483,-0.08072981161149223, ,0.0002959575942732629, ,0.0008890840862014277,0.0009519984099605151,-0.002914962201922759,0.006210260604562124,-0.00426326355426697,-0.005049613187569211, ,0.0031927693501946483, ,0.007532778551056691, ,2.5632027530435577e-05, ,0.14580519666535874,-0.24367539038040595,0.09030733914000001,1.6060152771479719,0.18541573018170268,-1.2764820982325698, ,0.005615718429007757,-0.002271073833995983,0.0031448788785784798,0.005461142288851954,0.0,-0.0031963479927349632, ,0.3567850589752197
0.010162300973320318,0.020269070587573663,-0.0806369394441467, ,0.010380803925322675,0.02037027684606589,-0.08081857710758925, ,0.00030162640397121893, ,0.0008937191426549592,0.0009747656718730093,-0.0026436599474874128,0.005461153537715997,-0.004907075123964425,-0.004441303550556275, ,0.002955983751470753, ,0.007341906026748652, ,2.6288862310040196e-05, ,0.14599054225434013,-0.24374489497627397,0.0904032646,1.6060152771479719,0.18541573018170268,-1.2764820982325698, ,0.006144948929907083,-0.003311550194618744,0.002889842438316401,0.005062625146854529,0.0,-0.001471520788935058, ,0.3893699645996094
0.01019801774836635,0.02030070604621274,-0.08072006848334976, ,0.010414567724285863,0.020404238247758517,-0.0809074533691809, ,0.00030450928436684453, ,0.0010342540798822407,0.0010833630541627803,-0.0025360011326657586,0.0025084404013342686,-0.00701304657686658,-0.0033486509008072486, ,0.002945277364487083, ,0.007448160540123508, ,2.686928558847167e-05, ,0.1462685606378122,-0.24385301323651312,0.09049400490000001,1.6060152771479719,0.18541573018170268,-1.2764004194924292, ,0.008205344854740391,-0.0043334626735182,0.002760625913344888,0.004358846394123298,0.0,0.002910892422825387, ,0.42196011543273926
0.01022972353760576,0.020336128758480256,-0.08082272771521257, ,0.010448588670869074,0.020437530591928696,-0.08099643925911859, ,0.0002972540645160095, ,0.0011431245517772586,0.0012065600901167675,-0.003677727326487835,0.0038048407054783327,-0.0071790873312465395,-1.0118920940089854e-05, ,0.004035864130509587, ,0.008125029663386551, ,2.730921014577139e-05, ,0.1464925198911647,-0.24396113149675225,0.09060678213000001,1.6062249670914566,0.18555236668146813,-1.2764301586559852, ,0.0072928685631825415,-0.0030243959760095592,0.003972272199501248,0.00043749935557542294,0.0,-0.0007515767347594876, ,0.45490193367004395
0.010264047085885433,0.020367194617024496,-0.08091289397957599, ,0.010482864839906732,0.020470159209633933,-0.08108553364209005, ,0.0002971319065316312, ,0.0011296665978656824,0.0009322513834772576,-0.002827423067096853,0.0016963840248472302,-0.008549787559990073,-1.6837358567974156e-06, ,0.0031842676496613882, ,0.0087164548929034, ,2.768957322147279e-05, ,0.14674737007601413,-0.24404608155836874,0.09070530017,1.606434657034941,0.18555236668146813,-1.2764301586559852, ,0.008634132778645092,-0.0022810751644844435,0.003085782936846184,0.0003759919171841779,0.0,0.0006140952192347688, ,0.48812294006347656
0.010296712293814353,0.020396375921931838,-0.08099161912662078, ,0.010517394314001118,0.020502129413659715,-0.08117473538461917, ,0.00030564017895178745, ,0.0010860633552477743,0.0009999447116270832,-0.0027661647103342014,-0.0007092908316340383,-0.008149021439590174,0.00027988495994864075, ,0.003135456943193658, ,0.008179831523007487, ,2.827785009685744e-05, ,0.14700222026086354,-0.24414647708573364,0.09079215160000001,1.606434657034941,0.18555236668146813,-1.2762668011757041, ,0.008197693247498415,-0.003245582921194484,0.0030381101506770933,0.0003759919171841779,0.0,0.003976972688771296, ,0.5171091556549072
0.010330828557889362,0.02042805598330855,-0.08108816341120448, ,0.010552175183509654,0.020533446498544435,-0.08126404335506858, ,0.0003017204733338706, ,0.0013014862890624848,0.0010995854743844665,-0.00351414937171184,-0.0020376699853480455,-0.009396845283764731,0.00013476001823577166, ,0.0039054065835451334, ,0.009615237892027341, ,2.8777834683340958e-05, ,0.14725707044571296,-0.24422370441447588,0.09089715109,1.606434657034941,0.18568900318123358,-1.2762148615991191, ,0.009588980703511357,-0.002177392779390589,0.00381711275341481,0.0003759919171841779,0.0,0.00426783823691828, ,0.5495879650115967
0.01036529216595281,0.02045475719011661,-0.0811740040365318, ,0.010587205546531848,0.02056411574060548,-0.08135345642363923, ,0.0003056272243822482, ,0.001029994311805794,0.000714806184643937,-0.0023018921073516617,-0.00735475430542508,-0.0075155788023487415,-0.0029916419046047745, ,0.0026211721496012786, ,0.010515528306407333, ,2.9252077116771906e-05, ,0.1475196433634366,-0.24427004081172124,0.09099048397000001,1.6066443469784255,0.18568900318123358,-1.275888146638557, ,0.008314176803497017,-0.0012269174276447587,0.0025156051042324705,0.003696207144751403,0.0,0.00910376590935626, ,0.578603982925415
0.010397784371403955,0.02048110969219057,-0.08125436390416321, ,0.010622483508896472,0.0205941423979659,-0.08144297346237361, ,0.00031438775487142634, ,0.0011265457563495482,0.0008682528067307087,-0.0027998167622623853,0.00340007459254128,-0.004801942416063782,-0.0025674251814603714, ,0.003140372936418596, ,0.00588380472398514, ,2.9733341415797358e-05, ,0.14779766174690867,-0.24433182267471504,0.09107863169000001,1.6066443469784255,0.18596227618076444,-1.2757025887452471, ,0.008930526902068341,-0.0015252097595583058,0.003049159938744258,0.003696207144751403,0.0033207281893615328,-0.0013650865894704184, ,0.6071670055389404
0.010434370795212077,0.020511899695275424,-0.08135349000003451, ,0.010658007184148575,0.020623531710579,-0.08153259334515496, ,0.000307494633336304, ,0.0013699127124604897,0.0011163595729587585,-0.003705133557799433,-0.005566744113913344,-0.006140399137605357,-0.0014870488320131874, ,0.004104988942375972, ,0.008288132533968673, ,3.013121514156836e-05, ,0.14807568013038075,-0.24438588180483461,0.09118622376,1.6068540369219102,0.1860989126805299,-1.2758140066489434, ,0.010241386146178708,-0.0017210439807958011,0.004011284694031731,0.0030494221367912493,0.0035510586222776254,0.0077123665901766055, ,0.6364200115203857
0.01047246867392351,0.020539548203116414,-0.08144129791399267, ,0.010693774693536554,0.02065228890025495,-0.08162231494771016, ,0.00030733367144543855, ,0.0011584267574159452,0.0007770947761788935,-0.0023984619350029485,0.002324838237741005,-0.0058366352498111255,-0.0018319396050983626, ,0.0027746078096047796, ,0.006282609632280925, ,3.0493422520327327e-05, ,0.1483768667124755,-0.2444399409349542,0.09128214922000001,1.6068540369219102,0.1860989126805299,-1.2757323279088029, ,0.010020974446656788,-0.0016101851316419956,0.0026455425211758844,0.0030494221367912493,0.0035510586222776254,-0.00029555597034967894, ,0.6646461486816406
0.010507373222400893,0.020566281158599497,-0.08152413748155314, ,0.010729784165999371,0.020680419170686474,-0.08171213714761014, ,0.00031279064575698897, ,0.001130647019247344,0.0008891390534052902,-0.0027438331348637207,0.006008841545121329,-0.003911609761072874,-0.0024897798415640274, ,0.003097991480039839, ,0.0071698582609264925, ,3.085385846584759e-05, ,0.14866260782882182,-0.24449400006507374,0.09137288952000001,1.6070637268653947,0.18623554918029533,-1.2757620670723586, ,0.00913506170011213,-0.0019016067299195102,0.003003169592760181,0.0038547181749444535,0.004386955408865215,-0.0035772679782087643, ,0.6964240074157715
0.010531895927765681,0.02058544753709736,-0.08158462467602709, ,0.0107660337381534,0.020707927707474566,-0.08180205882427094, ,0.00034219806430094515, ,0.0013191738150086004,0.0010758799066419142,-0.0033504908966688726,0.00407564755709409,-0.004114550841409603,-0.0020673428490701265, ,0.0037581280415096485, ,0.005791410123101988, ,3.1491338541807246e-05, ,0.14886339888355166,-0.24453261372944488,0.09143900031,1.6070637268653947,0.18637218568006078,-1.275710127495774, ,0.010417453782695638,-0.0022441484693252614,0.0036575916234213553,0.0038547181749444535,0.005524114263305092,-0.001302899713186095, ,0.7211470603942871
0.01057858962498396,0.020620970172071346,-0.08170681628299299, ,0.010802521554279685,0.02073481967815437,-0.08189207885895568, ,0.000312136894720545, ,0.0014658002081344862,0.0011905801456863218,-0.004046141019002342,-0.006064477408026391,-0.008244137307176345,-0.0016751152769346256, ,0.004465121328600476, ,0.01023443623692094, ,3.193864354145551e-05, ,0.14921864459576598,-0.244571227393816,0.09157122189000001,1.6072734168088794,0.1865088221798262,-1.275494830438908, ,0.010476567667547012,-0.0015615043279366917,0.004367647798190294,0.0027589548948020763,0.0016971442575543498,0.008013728586631881, ,0.747204065322876
0.010607232600945172,0.02064452627672339,-0.08178990068965515, ,0.010839245766310932,0.020761100232221,-0.08198219613477467, ,0.00032310545370995016, ,0.0013990172765489012,0.0011146001310629425,-0.004075342132377139,0.013944721482609074,-0.0025439133957746766,-0.001352825566627096, ,0.004450617517623378, ,0.014174863366840646, ,3.240814801749212e-05, ,0.14942715838337003,-0.24459439559243867,0.09166066590000001,1.6072734168088794,0.18664545867959165,-1.2754428908623234, ,0.010181718294052977,-0.000615017708658239,0.004377249661995055,0.0027589548948020763,0.007052491314922372,-0.012949055277216372, ,0.7725479602813721
0.010647834078428512,0.02067216764991446,-0.08188790995817516, ,0.01087620453381853,0.020786774501155333,-0.08207240953668805, ,0.000315163274697144, ,0.001433424903315319,0.0009269066879280762,-0.003186015428507449,-0.0030745080697940344,-0.005370103107877454,-0.0007843786533255153, ,0.003614492671490403, ,0.006187940443490673, ,3.281137285116655e-05, ,0.14975151316408747,-0.24461756379106134,0.09176696168000001,1.6072734168088794,0.1867820951793571,-1.27555430876602, ,0.012088782364136404,-0.0009725296969828713,0.0034794258453473134,0.0027589548948020763,0.006287020270855816,0.004439041617786124, ,0.797537088394165
0.010680565699974257,0.020692624367813845,-0.08195932290459101, ,0.01091339602399964,0.02081184759844954,-0.08216271795150519, ,0.00033135129940622986, ,0.0014128704977430138,0.000961236253220832,-0.0034244198422906744,-0.003872277078579587,-0.005021733826452813,-0.001760818953202819, ,0.0038271176404929995, ,0.006341320046025623, ,3.326124758323763e-05, ,0.1500140860818111,-0.24463300925680978,0.09184473908000002,1.6074831067523636,0.1867820951793571,-1.2753909512857389, ,0.011320534702001714,-0.0006818599809382128,0.0037138753835392873,0.003595257029990151,0.005650721804351632,0.005072649674984284, ,0.8230431079864502
0.010726455278686072,0.020725296551469093,-0.08207400199659863, ,0.010950818411664311,0.020836324619633792,-0.08225312026788807, ,0.0003078139088311541, ,0.0016552649359228469,0.0011856412476491747,-0.004168126400686017,0.002499505665545354,-0.0041524785570939415,-0.0012868443629480825, ,0.004638849519904534, ,0.0048467107899223235, ,3.358307237185776e-05, ,0.15038477725977387,-0.2446639001883067,0.09196918292,1.6074831067523636,0.18705536817888796,-1.2755321083529911, ,0.013129073264868675,-0.0010379995266730899,0.0045188117787234045,0.003595257029990151,0.008350249682051678,-0.0009514465163048456, ,0.8481969833374023
0.010759969399222307,0.020747958435969018,-0.08215417247622946, ,0.010988469879222496,0.02086021064230108,-0.08234361537635038, ,0.0003173352164398989, ,0.0015311567407527134,0.0009766167732255635,-0.0033941890085763225,5.005631159502816e-05,-0.00523999987411254,-0.0015107935051908552, ,0.003849511697921998, ,0.005240238912926123, ,3.3925796162844824e-05, ,0.15063962744462328,-0.24467934565405514,0.09205603435000001,1.607692796695848,0.18705536817888796,-1.2752870721325693, ,0.012877858808314666,-0.0008886168930232486,0.0037060985388552826,0.0035575320833304293,0.007002582631760024,0.0013485962396865467, ,0.87369704246521
0.010789808747969174,0.020766473469848352,-0.08222196039289315, ,0.011026348616671035,0.020883510726133432,-0.08243420216926028, ,0.0003386670938838199, ,0.0014905893423731824,0.00091778495322206,-0.0032304045223190206,-8.017326567567606e-06,-0.0049526462749150514,-0.0015231158202513055, ,0.0036741936783158988, ,0.004952652728605587, ,3.447503322344137e-05, ,0.15090220036234692,-0.24468706838692936,0.09212992288,1.607692796695848,0.18732864117841885,-1.2755099079399623, ,0.012678282105340116,-0.0006938727481322434,0.00352953944604476,0.0035575320833304293,0.0070918199781471085,0.0012144359820120353, ,0.894860029220581
0.010837136151432177,0.020795692436536086,-0.08232807604234596, ,0.011064452821580808,0.020906229912927704,-0.08252487954084071, ,0.0003203482780260633, ,0.001629790370558159,0.0011346201130264784,-0.004147022442091342,0.004440755927496837,-0.0034683159167642765,-0.0013341994592737532, ,0.004597975053005133, ,0.005634671887478287, ,3.4925422424573973e-05, ,0.15128833700605815,-0.24470251385267783,0.09224529269000001,1.607692796695848,0.1874652776781843,-1.2754579683633778, ,0.012813521679512661,-0.0005192202603354221,0.004484462702702703,0.0035575320833304293,0.00871462886461224,-0.0034102860344148874, ,0.9173071384429932
0.010873593993100806,0.020820521231088605,-0.08242189769802287, ,0.011102780699083685,0.020928373226621517,-0.0826156463871705, ,0.0003188999117060727, ,0.001833172556466542,0.0012071123850425055,-0.004478459183338609,-0.00683859647349117,-0.012690345296306194,-0.00264292239003735, ,0.004987408003034743, ,0.014415660361745138, ,3.534924946782447e-05, ,0.15156635538953023,-0.24470251385267783,0.09234640331,1.6079024866393328,0.18760191417794975,-1.2753243500466525, ,0.013697595490541394,-0.0003706816427294621,0.004877162131047153,0.0032092883342047943,0.00031475403865614484,0.007679755392135619, ,0.9385581016540527
0.010906031720513682,0.020843410333726865,-0.08250956275246081, ,0.011141330461859668,0.020949945673318673,-0.08270650160618695, ,0.00032480792534652345, ,0.0017724855679869152,0.0012283763845626298,-0.004585679717791611,0.0032954835880195372,-0.00153198550268429,-0.00018434502449002262, ,0.005067452230168372, ,0.003634169730704859, ,3.577619048501984e-05, ,0.15183665104012808,-0.24470251385267783,0.09244103248,1.6079024866393328,0.18801182367724606,-1.2756586037577415, ,0.01401106475099229,-0.0002908891725256762,0.0049529886567164175,0.0032092883342047943,0.012043199300928523,-0.002538468232932277, ,0.9606051445007324
0.010944158445230315,0.020866682042341732,-0.0825970209355142, ,0.011180100330123843,0.02097095224131567,-0.08279744409768502, ,0.00032666541196724175, ,0.0016843151998187712,0.001026838185449159,-0.0037832066614218217,0.007281368894140016,-0.001564100673971184,-0.0015708451143935742, ,0.004266610715130162, ,0.00744746554982763, ,3.6191035925972144e-05, ,0.1521301148893486,-0.24470251385267783,0.09253566165,1.6081121765828172,0.18801182367724606,-1.2754135675373197, ,0.014391407576352863,-0.00026432491416761864,0.004121296641655886,0.00449564977422869,0.012043199300928523,-0.006362048080244016, ,0.9819560050964355
0.010981489249262451,0.020886797297337802,-0.08267054817778179, ,0.011219088531613507,0.020991397901126342,-0.08288847276331977, ,0.0003389481232704605, ,0.0018011848600469396,0.0009690800934041776,-0.0037593438285753993,-0.00024349799721820115,-0.003366036790233168,-0.0014899270316739632, ,0.004279725359055474, ,0.003374832469470194, ,3.663234718580775e-05, ,0.1524390242043176,-0.24471023658555205,0.09261603163000001,1.6081121765828172,0.18801182367724606,-1.2752502100570386, ,0.01575052971924826,0.00036470012672961246,0.004099025095213588,0.00449564977422869,0.011655748548777043,0.0005470816556434731, ,1.0031659603118896
0.011002584270658129,0.020900265567947572,-0.08272164727022915, ,0.011258293301575132,0.021011287605508973,-0.08297958650660775, ,0.00037979685488478065, ,0.0018993261989189722,0.0010578625433201156,-0.0040937654538948254,-0.0024288574394607776,-0.007113366682195634,-0.0023026133025285116, ,0.004635237724428209, ,0.007516603812016089, ,3.719973290130397e-05, ,0.15263981525904743,-0.24471023658555205,0.09267177210000001,1.6081121765828172,0.1884217331765424,-1.2755844637681277, ,0.01588765135752064,0.0003217910138920032,0.00444938869273743,0.00449564977422869,0.007954736502314333,0.0027767520017696794, ,1.0269439220428467
0.011058559502706502,0.0209291594140203,-0.08283089223569928, ,0.011297712882751389,0.021030626289491105,-0.08307078423292678, ,0.00035360717800760386, ,0.001950242652886818,0.0009569190124210721,-0.0036596704781249553,-0.002533068369900883,-0.010387615770672992,-0.002541127249169834, ,0.00425585812850138, ,0.01069200617794734, ,3.7783734690506356e-05, ,0.1531031792315009,-0.24471023658555205,0.09279103078,1.6081121765828172,0.1884217331765424,-1.2754211062878467, ,0.01700662035098043,0.00025575138274876457,0.004011284694031731,0.00420957158478506,0.005804514372956673,0.0029051843458572212, ,1.044935941696167
0.011097892953770554,0.020951134518541293,-0.08291535164178973, ,0.011337345525368307,0.02104941887039597,-0.083162064849519, ,0.00035758181543856356, ,0.0021525992483432967,0.0013148480739803962,-0.004988351898365783,0.008317805053500207,-0.003968786273102688,0.0004995848195521185, ,0.005589826799065209, ,0.00921613488946603, ,3.836134819045852e-05, ,0.15344297947796678,-0.24470251385267783,0.09288306737,1.608321866526302,0.18869500617607327,-1.2755622633550991, ,0.017757661219773724,0.0,0.005414279918422842,0.0026064016750544663,0.01349165840359325,-0.007936627236254854, ,1.063452959060669
0.011144322611965768,0.020983524794108116,-0.08303665814492994, ,0.011377189487122161,0.02106767024786759,-0.0832534272654906, ,0.00032908401748206354, ,0.0022503162836520025,0.0014879491704752694,-0.0057599112116599885,-0.0025935323884644303,-0.011315492816346029,0.010160536991979378, ,0.0063603846799225785, ,0.011608909577860581, ,3.882356124274731e-05, ,0.1537982251901811,-0.24470251385267783,0.09301399266,1.6087412464132707,0.18896827917560413,-1.2757034204223514, ,0.016858579065281716,0.0,0.006202808224299066,-0.008534339264360593,0.007862889074665577,0.0013292481056900742, ,1.0811150074005127
0.011165057962438243,0.020996684194764244,-0.0830896449488423, ,0.011417243033166536,0.021085385303897364,-0.08334487039181382, ,0.0003696014385790288, ,0.0022794946656578613,0.001508596916373076,-0.005933451640139282,0.003425302068569413,-0.005235607673739422,0.011583645571746992, ,0.006532825495352263, ,0.006256538549392783, ,3.9404632873095954e-05, ,0.15408396630652743,-0.24468706838692936,0.09311639957000001,1.6087412464132707,0.18910491567536958,-1.2758148383260477, ,0.01744108464592369,0.0002753056691356684,0.006098319877488516,-0.008534339264360593,0.014843904475171634,-0.005396230578634788, ,1.1022131443023682
0.011215727878932333,0.021026184185347054,-0.08320478931659378, ,0.011457504436099435,0.021102568902849454,-0.08343639314132775, ,0.0003434106292689595, ,0.002043001647224978,0.0010612680909833606,-0.004153235211256973,0.0026945287707073676,-0.00829438617168441,0.010870597555132415, ,0.004748632267456409, ,0.00872108514036204, ,3.9881465006332044e-05, ,0.15453188481323243,-0.24468706838692936,0.09323825083000001,1.6087412464132707,0.18924155217513502,-1.2756812200093224, ,0.018817557318752877,0.00024439382956216064,0.00442712938299055,-0.008534339264360593,0.003428600566267852,-0.0011371069358232938, ,1.12021803855896
0.011255360300695473,0.02104686619110881,-0.08328545332259482, ,0.011497971975950195,0.02111922589148642,-0.08352799442873937, ,0.00035060310805590765, ,0.0019717597055693616,0.0010916469528205654,-0.0042346763477126405,0.0033697383892961723,-0.010612514864206639,0.009448975598705852, ,0.004797083819987542, ,0.01113465792889667, ,4.03660668749995e-05, ,0.15469406220359116,-0.24467934565405514,0.09328362098000001,1.6087412464132707,0.18937818867490044,-1.275792637913019, ,0.016255043089837405,0.00011713361239982426,0.004605033686036427,-0.008071071976506364,0.007790853689580606,-0.0046942318565218735, ,1.1385650634765625
0.011289184451927003,0.021065348610791092,-0.08335801172419746, ,0.011538643940166637,0.021135361098995258,-0.08361967317062531, ,0.00036823701243089685, ,0.0019107587861719897,0.001071378689786333,-0.004253183078239025,0.0027379090178246343,-0.00440555844041282,0.010222224064280768, ,0.0047841841240571555, ,0.005187011622311902, ,4.0891009077068584e-05, ,0.15498752605281169,-0.24467162292118091,0.09336269467000001,1.6087412464132707,0.18965146167443137,-1.2758521162401306, ,0.01611974546602187,0.0004076164842786995,0.004619724918793504,-0.007351080327446926,0.013877547565368981,-0.004243348892105122, ,1.1567199230194092
0.011343229681941026,0.02109671579839517,-0.0834800604461363, ,0.011579518623601931,0.021150979337013015,-0.08371142828543236, ,0.00033512396607089727, ,0.0023879346259803934,0.0015053353393148228,-0.0059566243126692635,0.001523254912968978,-0.008249929528451685,0.00904675688707282, ,0.006591634051130931, ,0.00838937633291909, ,4.142546368692099e-05, ,0.15541227636089402,-0.2446639001883067,0.09349491625,1.6087412464132707,0.18978809817419678,-1.2758818554036866, ,0.01834111742529393,0.0004577009341949204,0.006422907870967743,-0.006557180701058714,0.012017564906281725,-0.0029623403939933726, ,1.1710541248321533
0.011364307896424652,0.021110763769629788,-0.08353792703301229, ,0.01162059432850174,0.021166085399653013,-0.08380325869347952, ,0.00037302025154343506, ,0.0025546575647257016,0.0016888809530131613,-0.00655559524141177,0.004194945097472431,-0.006178296302788032,0.001181806963808148, ,0.007235635640058276, ,0.00746785762238274, ,4.2063366446292534e-05, ,0.15558217648412698,-0.24465617745543247,0.09355713817000001,1.6085315564697864,0.19006137117372765,-1.2761046912110794, ,0.01926450295543459,0.0002950595988118993,0.007066908393966283,0.0018721695558348253,0.012987106270575957,-0.004211285154148122, ,1.1860921382904053
0.011390940853942095,0.02112921787940581,-0.08361414656099767, ,0.011661869364491222,0.02118068406352982,-0.08389516331695784, ,0.00039372762548116607, ,0.002401957358828132,0.001725533075329886,-0.006954901747593776,0.014956241016982676,0.00810599495795717,0.003935401652919317, ,0.007557613503373204, ,0.01701165139967238, ,4.274869823868158e-05, ,0.15578296753885681,-0.24464073198968403,0.09363880444000001,1.6085315564697864,0.19033464417325854,-1.2763275270184722, ,0.018130863882015815,0.0009755455831269675,0.007460801648711945,0.0018721695558348253,0.026434062586638614,-0.015657707969576905, ,1.2007761001586914
0.01144527196355697,0.02116253340705385,-0.08374529242535324, ,0.011703342048562004,0.02119478008778588,-0.08398714107993323, ,0.0003551489672164204, ,0.002582293700229102,0.0015846724256376155,-0.006443576352983977,0.014017839137829752,-0.0005551053506950426,-0.0036266260771159976, ,0.007120330306071019, ,0.014028825500962893, ,4.330171377700499e-05, ,0.15617682691544227,-0.24461756379106134,0.09378010005000001,1.6091606263002398,0.19033464417325854,-1.2761641695381911, ,0.02028579340711218,0.0012901731176691474,0.006898575799047208,0.0076857678277427975,0.018408842960769778,-0.014263475195335858, ,1.2156131267547607
0.011490991939660154,0.021187560278508984,-0.08384959044094933, ,0.011745010705059261,0.021208378214116873,-0.08407919090834598, ,0.00034303832766415307, ,0.002229848810535736,0.0008812112176868215,-0.0041267652254164885,-0.002088590865122241,-0.014619098774156333,0.025580691897329158, ,0.004772729842944343, ,0.014767540742233834, ,4.380566473414485e-05, ,0.15654751809340503,-0.24458667285956445,0.09389287728000001,1.6093703162437245,0.1906079171727894,-1.2763053266054434, ,0.01962708201829799,0.001950673474518729,0.0044920506260575305,-0.024284051137650337,0.011197871861415522,-0.003510269750025074, ,1.2323060035705566
0.011514033444897013,0.021197179141951267,-0.0838932351525744, ,0.011786873665668647,0.021221483166797294,-0.08417131173001326, ,0.0003903319800048951, ,0.002191039236798636,0.0008859633863888634,-0.004121362194188231,0.02333256210000457,0.01507215542162853,0.030378743573243945, ,0.004750916795198249, ,0.027777298681031525, ,4.4436483857512345e-05, ,0.15677920007963178,-0.24456350466094176,0.09394084001000001,1.6093703162437245,0.19101782667208575,-1.2765579015763922, ,0.022626833943364517,0.002026537609418766,0.004534247514944492,-0.02189113170648148,0.04407847454307356,-0.028658604386650875, ,1.2469520568847656
0.011542108629198475,0.021207393228279844,-0.0839445655872464, ,0.011828929269403437,0.02123409965270667,-0.08426350247462971, ,0.0004297674381418457, ,0.002224739910541282,0.0008664823970042777,-0.004382930162871726,0.008881786817881404,0.0010848783602665283,0.023009170608388904, ,0.004991025568606545, ,0.008947798417345278, ,4.51669809668219e-05, ,0.15702632753160695,-0.24452489099657065,0.09399658048000001,1.6093703162437245,0.1911544631718512,-1.276587640739948, ,0.020692747832200344,0.002985495708944042,0.004759131018822828,-0.018203205195346458,0.026868107984028843,-0.01459666875570394, ,1.2611489295959473
0.011568018619829628,0.02121766873891958,-0.08399099951792907, ,0.011871175862591326,0.021246232361355165,-0.08435576207376849, ,0.0004751546237889559, ,0.002672521856713625,0.001199613405898403,-0.00521733662680564,0.006550250293477297,-0.00920488416956768,0.019176110545813196, ,0.005983481166982216, ,0.011297595656444488, ,4.6142997291214115e-05, ,0.15724256405208525,-0.244501722797948,0.09404713579000001,1.6093703162437245,0.1911544631718512,-1.2765059619998071, ,0.023471912332048178,0.0017601431457470893,0.005688861257142857,-0.015963604468581506,0.018598838758723774,-0.010718333772206315, ,1.2719199657440186
0.011622315873794893,0.021246526092343697,-0.08412660597489008, ,0.011913611798861768,0.02125788596490918,-0.08444808946088282, ,0.0004339746472218355, ,0.003255397479247538,0.0019422845550024716,-0.008523971754687677,0.0012212755934346096,-0.011661061951794048,0.0023502276866426792, ,0.0086012401968353, ,0.029549756990325752, ,4.698500770531153e-05, ,0.1576673143601676,-0.24443221820207994,0.09419232027,1.6091606263002398,0.1915643726711475,-1.276758536970756, ,0.023571023735338002,0.0031003486504965964,0.009117808540354896,0.0,0.012241685110361935,-0.00428749871524595, ,1.2832860946655273
0.011661723544578258,0.02127111592556872,-0.08423409337142841, ,0.011956235439132606,0.021269065118217623,-0.08454048357130672, ,0.0004249899015579719, ,0.0032973921327394337,0.00209208669923299,-0.009173807768488446,0.021466405315464017,0.010322003107746712,0.007442025528699219, ,0.009970374647290765, ,0.023819115020269583, ,4.77873661189896e-05, ,0.1579839464080108,-0.24439360453770884,0.09430769008,1.6091606263002398,0.19211091867020927,-1.2771225298454012, ,0.02513826266449557,0.0033050300279634246,0.00982047565967941,0.0,0.036326353561266914,-0.024754929741660596, ,1.2951409816741943
0.011701495609018703,0.02129383298965103,-0.0843374869283151, ,0.01199904515159745,0.021279774458836977,-0.08463294334225666, ,0.00041955674838653034, ,0.0037271408062398374,0.0021881909328133613,-0.010274377936766225,0.007056441404288661,-0.0034012280798698656,0.004550901054616483, ,0.011146416470574447, ,0.00783336474644097, ,4.856102060086513e-05, ,0.15825424205860866,-0.24434726814046348,0.09441787473,1.6091606263002398,0.19211091867020927,-1.2770408511052607, ,0.026724004944655246,0.005361486574977662,0.010940117802197802,0.0,0.023931307621934367,-0.012365482591026121, ,1.3057680130004883
0.011729022053240506,0.021308458399599696,-0.08440550303643544, ,0.012042039311712391,0.021290018607057634,-0.08472546771283233, ,0.00044799243765047524, ,0.003880755593359664,0.001984447256404719,-0.009506762161842264,0.0008565026240903196,-0.011058474728044903,0.0017127210079113356, ,0.010458337424786041, ,0.011091590616408638, ,4.9400768867109236e-05, ,0.15844731038046428,-0.24430865447609237,0.09449046697,1.6093703162437245,0.19211091867020927,-1.2769591723651201, ,0.029289179493355175,0.00558387875464086,0.010165163701340142,0.0017332114048620346,0.018310671099479602,-0.006110632216808845, ,1.3173320293426514
0.01178838788488846,0.021340146651521456,-0.08454885999675023, ,0.012085216302183156,0.021299802165929582,-0.08481805562401842, ,0.0004027419429009901, ,0.003802149850309502,0.0017323561035691105,-0.008490976612588373,0.00609686245604529,-0.008703696515015721,-0.0004672589033149479, ,0.009463302013002885, ,0.010626665549358082, ,5.010197998639206e-05, ,0.1589261198186662,-0.24423914988022435,0.09464472548000001,1.609580006187209,0.19265746466927103,-1.2773231652397654, ,0.030454730923771108,0.005620023441190788,0.009123030652920965,0.004546299158974772,0.021193427849602993,-0.010955106044219294, ,1.3302230834960938
0.011824830325290418,0.021354862673998835,-0.0846284156550619, ,0.012128574512952128,0.02130912972128792,-0.08491070601868432, ,0.00041718087671417317, ,0.0034613763227659103,0.0013634292705762352,-0.0074049079636895965,0.02139013759341717,0.010759108035149807,0.003729180464184396, ,0.00828690095116275, ,0.023943608118109375, ,5.083114648025817e-05, ,0.15924275186650938,-0.24416964528435633,0.09473028062000001,1.609580006187209,0.19306737416856737,-1.2776574189508545, ,0.030562622080022795,0.006659165868865124,0.007976370315473212,0.004470576846965809,0.04123596345370472,-0.02729844992088029, ,1.3409819602966309
0.011862746798563528,0.0213687715213247,-0.0846978378465758, ,0.012172112341185285,0.021318005841778776,-0.08500341784158721, ,0.00043779370316690677, ,0.003684636544346956,0.0014044597488192694,-0.006970508230677808,0.005268692388293173,-0.01127031098907878,0.010227512877190554, ,0.008008560335287337, ,0.012441021373548324, ,5.1744547051471184e-05, ,0.15955166118147837,-0.24411558615423676,0.09480546544000001,1.6097896961306934,0.19306737416856737,-1.2774940614705734, ,0.031973363058783955,0.004832059441021039,0.007570727908745247,-0.006089362896215814,0.022765029560145332,-0.010983565318531233, ,1.3480899333953857
0.011862746798563528,0.0213687715213247,-0.0846978378465758, ,0.012215828191259187,0.02132643507888523,-0.0850961900393722, ,0.0005339881213398325, ,0.003684636544346956,0.0014044597488192694,-0.006970508230677808,0.005268692388293173,-0.01127031098907878,0.010227512877190554, ,0.008008560335287337, ,0.012441021373548324, ,5.290805793589521e-05, ,0.15955166118147837,-0.24411558615423676,0.09480546544000001,1.6097896961306934,0.19306737416856737,-1.2774940614705734, ,0.031973363058783955,0.004832059441021039,0.007570727908745247,-0.006089362896215814,0.022765029560145332,-0.010983565318531233, ,1.355215072631836
0.011899317432399314,0.021380670859357746,-0.08476637428445548, ,0.012259720474748138,0.02133442196695308,-0.08518902156057336, ,0.0005573688482439684, ,0.004326187476855641,0.0013162296611248616,-0.008213619640103876,-0.017405000799001497,-0.03617256968862911,0.00461593926342832, ,0.009376134928531456, ,0.04014210773376351, ,5.4121909367003214e-05, ,0.15986057049644736,-0.24404608155836874,0.09487935397000001,1.6097896961306934,0.19320401066833282,-1.27760547937427, ,0.034633920276814154,0.009333644956050293,0.008795588912203204,-0.006089362896215814,0.0,0.007255032096013489, ,1.3624799251556396
0.011932897426091936,0.021393139601618087,-0.0848403512130256, ,0.012303787610410927,0.02134197102321604,-0.0852819113556147, ,0.000578924098447429, ,0.004601895458761113,0.0018108401480286746,-0.010284719703588527,-0.0031922879422595562,-0.020736506464170964,0.008137835515111737, ,0.011411925483303016, ,0.02098078376931735, ,5.538041278869686e-05, ,0.16013858887991944,-0.2439688542296265,0.09495842766000001,1.6097896961306934,0.19347728366786368,-1.2777466364415222, ,0.03564873837658557,0.00965904240923064,0.010970255867768596,-0.006089362896215814,0.016825909838939064,-0.007290784640757318, ,1.3706109523773193
0.01199448737954989,0.021420900095404514,-0.08499330476149936, ,0.012348028024178137,0.02134908674782245,-0.08537485837681304, ,0.000525101233719785, ,0.004895994822296866,0.0023224842732618733,-0.012407833823756138,0.03425236951493039,0.01999533265656049,0.0009283718342616035, ,0.013539536133023661, ,0.03966154121241544, ,5.648238195928833e-05, ,0.16064828924961824,-0.24383756777076468,0.09512176020000002,1.609580006187209,0.19429710266645633,-1.27833346512356, ,0.039213612214244124,0.010335493201993645,0.013240907331670824,0.010442908153298043,0.05803096486213185,-0.042883743497525, ,1.3778531551361084
0.01199448737954989,0.021420900095404514,-0.08499330476149936, ,0.012392440149138848,0.021355773623860173,-0.08546786157837642, ,0.0006227455632630654, ,0.004895994822296866,0.0023224842732618733,-0.012407833823756138,0.03425236951493039,0.01999533265656049,0.0009283718342616035, ,0.013539536133023661, ,0.03966154121241544, ,5.7831008412580625e-05, ,0.16064828924961824,-0.24383756777076468,0.09512176020000002,1.609580006187209,0.19429710266645633,-1.27833346512356, ,0.039213612214244124,0.010335493201993645,0.013240907331670824,0.010442908153298043,0.05803096486213185,-0.042883743497525, ,1.3849780559539795
0.012045263873791907,0.021443556201209107,-0.08511509921903916, ,0.012437022425527864,0.021362036117383056,-0.08556091991640796, ,0.0005990629191726563, ,0.005662456432876515,0.0025282559226540153,-0.0138220535922501,-0.0027111333943924828,-0.019645016535452847,-0.007415786318631495, ,0.015149411089929987, ,0.019831198008653947, ,5.910311605033719e-05, ,0.16101898042758103,-0.24373717224339975,0.09525138920000001,1.609580006187209,0.19443373916622175,-1.2783632042871158, ,0.0412774865413096,0.01203207069335245,0.014694475571955721,0.010442908153298043,0.01963355555967115,-0.00755368242754891, ,1.392214059829712
0.012088924711603943,0.021461814737961177,-0.08522145848248133, ,0.012481773300712673,0.02136787867743629,-0.08565403234890495, ,0.0005918396297514504, ,0.006074341905028323,0.002348158043423582,-0.01423059959423212,-0.021404362460960766,-0.04047422463032935,-0.01285605464953185, ,0.01564996615291667, ,0.0457854672159801, ,6.0342994054658594e-05, ,0.16133561247542424,-0.24362905398316062,0.09536416643000001,1.6097896961306934,0.1945703756659872,-1.2783929434506718, ,0.043095795439814163,0.015178653480241647,0.015069831144749293,0.011190127658270172,0.0,0.008173242973792119, ,1.399703025817871
0.012155018598018097,0.02148746244463044,-0.08538009146088955, ,0.012526691229180228,0.021373305736082135,-0.08574719783576124, ,0.0005347330075215026, ,0.005287742180068177,0.0020770544754678856,-0.012656215383923617,0.030748996072678687,0.022386433095082356,-0.002021734308894507, ,0.013872784886287185, ,0.038034889528833216, ,6.14212415010445e-05, ,0.16185303557799727,-0.24345143112705345,0.09553268413,1.6099993860741781,0.19511692166504896,-1.2787569363253168, ,0.04347088481835583,0.013841444217979983,0.013487562675698563,0.01444122261071826,0.06391105809524093,-0.042190202491499615, ,1.4073951244354248
0.012155018598018097,0.02148746244463044,-0.08538009146088955, ,0.012571774672524327,0.021378321708425938,-0.08584041533876809, ,0.0006304723613944015, ,0.005287742180068177,0.0020770544754678856,-0.012656215383923617,0.030748996072678687,0.022386433095082356,-0.002021734308894507, ,0.013872784886287185, ,0.038034889528833216, ,6.273634481294167e-05, ,0.16185303557799727,-0.24345143112705345,0.09553268413,1.6099993860741781,0.19511692166504896,-1.2787569363253168, ,0.04347088481835583,0.013841444217979983,0.013487562675698563,0.01444122261071826,0.06391105809524093,-0.042190202491499615, ,1.414607048034668
0.01221965591909719,0.02150609847762157,-0.08551638380147207, ,0.012617022099432237,0.021382930992641904,-0.08593368382161509, ,0.000589244785672005, ,0.005967123395744827,0.0014241565639256828,-0.012102575563232368,0.01479255262544867,-0.00021812630999156672,-0.009667954683140908, ,0.013568607843193315, ,0.014794151973444369, ,6.393163372027704e-05, ,0.16239362687919298,-0.24325836280519783,0.09567786861000001,1.6102090760176624,0.19566346766411072,-1.2791209291999621, ,0.05036992651723502,0.01969633490213175,0.012866568271405495,0.017536772828785685,0.047055148034144956,-0.031502073361623174, ,1.4218080043792725
0.01221965591909719,0.02150609847762157,-0.08551638380147207, ,0.01266243198567197,0.02138713796999859,-0.08602700224989157, ,0.0006862459088196361, ,0.005967123395744827,0.0014241565639256828,-0.012102575563232368,0.01479255262544867,-0.00021812630999156672,-0.009667954683140908, ,0.013568607843193315, ,0.014794151973444369, ,6.553141334778182e-05, ,0.16239362687919298,-0.24325836280519783,0.09567786861000001,1.6102090760176624,0.19566346766411072,-1.2791209291999621, ,0.05036992651723502,0.01969633490213175,0.012866568271405495,0.017536772828785685,0.047055148034144956,-0.031502073361623174, ,1.4254140853881836
0.012279240185826401,0.021519663654421692,-0.08563486154684, ,0.01270800281407909,0.021390947004884864,-0.08612036959108746, ,0.0006603964175274846, ,0.006435146371079049,0.0015170572757845463,-0.012764749036208025,-0.01010621827932851,-0.030064617353291634,-0.016137309332678307, ,0.014375374414344706, ,0.03171776356581924, ,6.705670823029389e-05, ,0.16288015905026915,-0.24306529448334221,0.09580360874,1.6102090760176624,0.1959367406636416,-1.279343765007355, ,0.05126793169015169,0.02048282787793455,0.013544907755102044,0.017536772828785685,0.01743961922758337,-0.007352595424523173, ,1.4290030002593994
0.012279240185826401,0.021519663654421692,-0.08563486154684, ,0.012753733074543784,0.02139436244483568,-0.08621378481459493, ,0.0007589440325314775, ,0.006435146371079049,0.0015170572757845463,-0.012764749036208025,-0.01010621827932851,-0.030064617353291634,-0.016137309332678307, ,0.014375374414344706, ,0.03171776356581924, ,6.882624102901814e-05, ,0.16288015905026915,-0.24306529448334221,0.09580360874,1.6102090760176624,0.1959367406636416,-1.279343765007355, ,0.05126793169015169,0.02048282787793455,0.013544907755102044,0.017536772828785685,0.01743961922758337,-0.007352595424523173, ,1.4325881004333496
0.012279240185826401,0.021519663654421692,-0.08563486154684, ,0.01279962126399797,0.02139738862055769,-0.08630724689170952, ,0.000858981782356733, ,0.006435146371079049,0.0015170572757845463,-0.012764749036208025,-0.01010621827932851,-0.030064617353291634,-0.016137309332678307, ,0.014375374414344706, ,0.03171776356581924, ,0.0003856950281208726, ,0.16288015905026915,-0.24306529448334221,0.09580360874,1.6102090760176624,0.1959367406636416,-1.279343765007355, ,0.05126793169015169,0.02048282787793455,0.013544907755102044,0.017536772828785685,0.01743961922758337,-0.007352595424523173, ,1.4361701011657715
0.012353620323547337,0.021537467969584743,-0.08579149163362257, ,0.012845665886402034,0.02140002984595545,-0.08640075479563045, ,0.0007951098504807839, ,0.007300543834850289,0.0020610433530221847,-0.01653174434026791,0.02006605915681941,0.0038704262401909727,-0.007997172960229492, ,0.01818912892140763, ,0.02043589231168746, ,0.00039130345034498094, ,0.16345164128296175,-0.2428336124971155,0.09595657096000001,1.6102090760176624,0.19648328666270337,-1.2797894366221407, ,0.05832633162782469,0.024521173529320612,0.01707268115755627,0.017536772828785685,0.05918629959207082,-0.04198767996953558, ,1.4398460388183594
0.012353620323547337,0.021537467969584743,-0.08579149163362257, ,0.01289186545273203,0.021402290418156427,-0.08649430750146286, ,0.0008955059651332918, ,0.007300543834850289,0.0020610433530221847,-0.01653174434026791,0.02006605915681941,0.0038704262401909727,-0.007997172960229492, ,0.01818912892140763, ,0.02043589231168746, ,0.0003981169978421203, ,0.16345164128296175,-0.2428336124971155,0.09595657096000001,1.6102090760176624,0.19648328666270337,-1.2797894366221407, ,0.05832633162782469,0.024521173529320612,0.01707268115755627,0.017536772828785685,0.05918629959207082,-0.04198767996953558, ,1.4436421394348145
0.012353620323547337,0.021537467969584743,-0.08579149163362257, ,0.012938218480966622,0.021404174617537415,-0.08658790398621831, ,0.0009968925512436723, ,0.007300543834850289,0.0020610433530221847,-0.01653174434026791,0.02006605915681941,0.0038704262401909727,-0.007997172960229492, ,0.01818912892140763, ,0.02043589231168746, ,0.0004061006718874743, ,0.16345164128296175,-0.2428336124971155,0.09595657096000001,1.6102090760176624,0.19648328666270337,-1.2797894366221407, ,0.05832633162782469,0.024521173529320612,0.01707268115755627,0.017536772828785685,0.05918629959207082,-0.04198767996953558, ,1.4475860595703125
0.012353620323547337,0.021537467969584743,-0.08579149163362257, ,0.012984723496074085,0.021405686707750032,-0.08668154322881606, ,0.0010990220004397356, ,0.007300543834850289,0.0020610433530221847,-0.01653174434026791,0.02006605915681941,0.0038704262401909727,-0.007997172960229492, ,0.01818912892140763, ,0.02043589231168746, ,0.0004152180577894777, ,0.16345164128296175,-0.2428336124971155,0.09595657096000001,1.6102090760176624,0.19648328666270337,-1.2797894366221407, ,0.05832633162782469,0.024521173529320612,0.01707268115755627,0.017536772828785685,0.05918629959207082,-0.04198767996953558, ,1.4513061046600342
0.012356659192344403,0.021538357050687615,-0.08579757691533935, ,0.013031379029999235,0.02140683093574675,-0.08677522421008477, ,0.0011951318802372562, ,0.007372355122698308,0.0020993767236202896,-0.016713625329941608,0.019992415429377835,0.0034036005044328285,-0.008012911674757657, ,0.018387611980692883, ,0.02028003616533326, ,0.0004253468087303579, ,0.16351342314595554,-0.24280272156561858,0.09597601531000001,1.6102090760176624,0.19648328666270337,-1.2797894366221407, ,0.05861454080202025,0.02511165428908991,0.017679036093229746,0.017536772828785685,0.05918629959207082,-0.04204178892418689, ,1.4549379348754883
0.01250706265954362,0.021593889483410567,-0.0861925014878198, ,0.013078183621650462,0.021407611531805974,-0.08686894591276266, ,0.0009046854086632103, ,0.00806120901249989,0.0028101227544085963,-0.019746123586513533,-0.002748520450344127,-0.023104767878975464,-0.011184081740328089, ,0.021512537677640928, ,0.023267609705709062, ,0.0004314921753961637, ,0.1646332194127181,-0.24229302119591978,0.09639212440000001,1.6102090760176624,0.1979862881601232,-1.2807699973423796, ,0.05737420892289647,0.02535995231386178,0.020821975843137257,0.014565948212949322,0.031525674872504315,-0.01997889249322864, ,1.4585819244384766
0.01250706265954362,0.021593889483410567,-0.0861925014878198, ,0.013125135816886778,0.02140803270955869,-0.08696270732149944, ,0.0010048752133717447, ,0.00806120901249989,0.0028101227544085963,-0.019746123586513533,-0.002748520450344127,-0.023104767878975464,-0.011184081740328089, ,0.021512537677640928, ,0.023267609705709062, ,0.0004387501885350951, ,0.1646332194127181,-0.24229302119591978,0.09639212440000001,1.6102090760176624,0.1979862881601232,-1.2807699973423796, ,0.05737420892289647,0.02535995231386178,0.020821975843137257,0.014565948212949322,0.031525674872504315,-0.01997889249322864, ,1.4621551036834717
0.01250706265954362,0.021593889483410567,-0.0861925014878198, ,0.013172234168504722,0.021408098666013516,-0.08705650742285712, ,0.0011061092260452193, ,0.00806120901249989,0.0028101227544085963,-0.019746123586513533,-0.002748520450344127,-0.023104767878975464,-0.011184081740328089, ,0.021512537677640928, ,0.023267609705709062, ,0.00044709217650397166, ,0.1646332194127181,-0.24229302119591978,0.09639212440000001,1.6102090760176624,0.1979862881601232,-1.2807699973423796, ,0.05737420892289647,0.02535995231386178,0.020821975843137257,0.014565948212949322,0.031525674872504315,-0.01997889249322864, ,1.465743064880371
0.01259489549833928,0.021617441242721067,-0.0864027469014893, ,0.013219477236225326,0.021407813581582832,-0.08715034520531137, ,0.00099646842774504, ,0.010512924457576844,0.002520027691055475,-0.02551356015583821,-0.029989016282112608,-0.043694793292802514,-0.006986123728025053, ,0.027709454560492147, ,0.05299589840480192, ,0.0004538745993587997, ,0.16525876077553028,-0.2419532209494539,0.09661249370000001,1.6104187659611469,0.1982595611596541,-1.2808294756694911, ,0.07367774965719781,0.044344365214238686,0.026636808561872914,0.006579349849345236,0.029157405538698757,-0.012718585713763733, ,1.469360113143921
0.01259489549833928,0.021617441242721067,-0.0864027469014893, ,0.013266863586681304,0.02140718162010889,-0.08724421965925253, ,0.001097190331122497, ,0.010512924457576844,0.002520027691055475,-0.02551356015583821,-0.029989016282112608,-0.043694793292802514,-0.006986123728025053, ,0.027709454560492147, ,0.05299589840480192, ,0.000461719913160796, ,0.16525876077553028,-0.2419532209494539,0.09661249370000001,1.6104187659611469,0.1982595611596541,-1.2808294756694911, ,0.07367774965719781,0.044344365214238686,0.026636808561872914,0.006579349849345236,0.029157405538698757,-0.012718585713763733, ,1.4728920459747314
0.01259489549833928,0.021617441242721067,-0.0864027469014893, ,0.013314391793403744,0.021406206928888213,-0.08733812977698659, ,0.001198847770872305, ,0.010512924457576844,0.002520027691055475,-0.02551356015583821,-0.029989016282112608,-0.043694793292802514,-0.006986123728025053, ,0.027709454560492147, ,0.05299589840480192, ,0.0004706009716874407, ,0.16525876077553028,-0.2419532209494539,0.09661249370000001,1.6104187659611469,0.1982595611596541,-1.2808294756694911, ,0.07367774965719781,0.044344365214238686,0.026636808561872914,0.006579349849345236,0.029157405538698757,-0.012718585713763733, ,1.4766271114349365
0.012698597610531362,0.02165303806160358,-0.08669863459803635, ,0.01336206043680932,0.02140489363869909,-0.0874320745527371, ,0.0010196532467573363, ,0.011131422986819193,0.004337370973549289,-0.03229302310819522,0.07874051854691745,0.07808977014923951,0.013763421785774412, ,0.034431972150025116, ,0.11089655695235656, ,0.00047713730829541565, ,0.16525876077553028,-0.2419532209494539,0.09661249370000001,1.6104187659611469,0.1982595611596541,-1.2808294756694911, ,0.07367774965719781,0.044344365214238686,0.026636808561872914,0.006579349849345236,0.029157405538698757,-0.012718585713763733, ,1.4804749488830566
0.012698597610531362,0.02165303806160358,-0.08669863459803635, ,0.013409868104187199,0.021403245863826137,-0.08752605298264515, ,0.0011193404488378583, ,0.011131422986819193,0.004337370973549289,-0.03229302310819522,0.07874051854691745,0.07808977014923951,0.013763421785774412, ,0.034431972150025116, ,0.11089655695235656, ,0.00048469263936062087, ,0.1660233113300785,-0.24150530244274887,0.09692230701000001,1.610838145848116,0.19976256265707393,-1.2820550726101518, ,0.08055767534674939,0.043134973435668536,0.03389108834042554,0.013752029267500104,0.15898034349546236,-0.11916650949196095, ,1.4844629764556885
0.01280399116573386,0.021693789452813982,-0.08699267539095253, ,0.013457813389686062,0.021401267702086786,-0.08762006406477173, ,0.00095219169457569, ,0.011375879125774679,0.004285071897672758,-0.030216035427023887,0.1223784318159232,0.11442275103252385,-0.019775890324416907, ,0.032569637148418214, ,0.16753811906530316, ,0.0004901286748863774, ,0.16681875281612363,-0.24111916579903764,0.09723212032,1.6112575257350852,0.20140220065425923,-1.2833104087143683, ,0.09029204715363537,0.039100511560968595,0.031985565301204825,0.05719278286816535,0.19545859244676742,-0.15177940895893519, ,1.4892330169677734
0.01280399116573386,0.021693789452813982,-0.08699267539095253, ,0.013505894894301103,0.021398963234856416,-0.08771410679909818, ,0.0010488348867342169, ,0.011375879125774679,0.004285071897672758,-0.030216035427023887,0.1223784318159232,0.11442275103252385,-0.019775890324416907, ,0.032569637148418214, ,0.16753811906530316, ,0.0004965505853673872, ,0.16681875281612363,-0.24111916579903764,0.09723212032,1.6112575257350852,0.20140220065425923,-1.2833104087143683, ,0.09029204715363537,0.039100511560968595,0.031985565301204825,0.05719278286816535,0.19545859244676742,-0.15177940895893519, ,1.4933891296386719
0.01280399116573386,0.021693789452813982,-0.08699267539095253, ,0.013554111225860853,0.021396336527094374,-0.08780818018752715, ,0.0011472603980179445, ,0.011375879125774679,0.004285071897672758,-0.030216035427023887,0.1223784318159232,0.11442275103252385,-0.019775890324416907, ,0.032569637148418214, ,0.16753811906530316, ,0.000503945015056598, ,0.16783043082264704,-0.24061718816221306,0.09757045201,1.6114672156785694,0.20276856565191362,-1.2840978727907704, ,0.09195440073495231,0.05466413684243708,0.028804360795660042,-0.022355790965009715,0.04867355080170049,-0.021724727879508562, ,1.4970130920410156
0.012936275246136771,0.021730540369852183,-0.08731380555876651, ,0.013602460999014476,0.021393391627370167,-0.08790228323388448, ,0.0009506727649442177, ,0.012457796143726229,0.0019963669451237742,-0.027555839040074793,-0.03580018192799624,-0.04984746332960038,0.023191825377308045, ,0.030306871018644155, ,0.06137105782460768, ,0.0005089644279766836, ,0.16783043082264704,-0.24061718816221306,0.09757045201,1.6114672156785694,0.20276856565191362,-1.2840978727907704, ,0.09195440073495231,0.05466413684243708,0.028804360795660042,-0.022355790965009715,0.04867355080170049,-0.021724727879508562, ,1.5011651515960693
0.012936275246136771,0.021730540369852183,-0.08731380555876651, ,0.013650942835218421,0.021390132567888246,-0.08799641494391965, ,0.0010452668593334598, ,0.012457796143726229,0.0019963669451237742,-0.027555839040074793,-0.03580018192799624,-0.04984746332960038,0.023191825377308045, ,0.030306871018644155, ,0.06137105782460768, ,0.0005149233438806478, ,0.16783043082264704,-0.24061718816221306,0.09757045201,1.6114672156785694,0.20276856565191362,-1.2840978727907704, ,0.09195440073495231,0.05466413684243708,0.028804360795660042,-0.022355790965009715,0.04867355080170049,-0.021724727879508562, ,1.5047791004180908
0.013065282297666935,0.021746235441251115,-0.087597658749208, ,0.013699555362723576,0.021386563364514787,-0.08809057432530754, ,0.0008801318588721286, ,0.012947100422262006,0.0013045114579304721,-0.027634692183300752,-0.08706515774225175,-0.07652749630468912,0.011339693613679059, ,0.030545136626864065, ,0.11591713965914363, ,0.0005189366242651695, ,0.16877260423330243,-0.23999936953227508,0.09786600613000002,1.6114672156785694,0.20317847515120993,-1.2841054115412973, ,0.09395736787967403,0.0621053282450725,0.02875236736462094,-0.01623630886102151,0.02215772220758945,0.023215171793461036, ,1.508410930633545
0.013065282297666935,0.021746235441251115,-0.087597658749208, ,0.01374829721656239,0.021382688016802875,-0.08818476038764919, ,0.0009712695007653888, ,0.012947100422262006,0.0013045114579304721,-0.027634692183300752,-0.08706515774225175,-0.07652749630468912,0.011339693613679059, ,0.030545136626864065, ,0.11591713965914363, ,0.0005238532859662589, ,0.16877260423330243,-0.23999936953227508,0.09786600613000002,1.6114672156785694,0.20317847515120993,-1.2841054115412973, ,0.09395736787967403,0.0621053282450725,0.02875236736462094,-0.01623630886102151,0.02215772220758945,0.023215171793461036, ,1.5119659900665283
0.013065282297666935,0.021746235441251115,-0.087597658749208, ,0.01379716703853558,0.02137851050801848,-0.08827897214247307, ,0.0010653942182496017, ,0.012947100422262006,0.0013045114579304721,-0.027634692183300752,-0.08706515774225175,-0.07652749630468912,0.011339693613679059, ,0.030545136626864065, ,0.11591713965914363, ,0.0005296763067434992, ,0.16877260423330243,-0.23999936953227508,0.09786600613000002,1.6114672156785694,0.20317847515120993,-1.2841054115412973, ,0.09395736787967403,0.0621053282450725,0.02875236736462094,-0.01623630886102151,0.02215772220758945,0.023215171793461036, ,1.5155820846557617
0.013182517496681645,0.021754051131396474,-0.08784233528914381, ,0.013846163477199282,0.021374034805165924,-0.08837320860323618, ,0.0009309483719704275, ,0.01184881895167212,0.0001845218841354968,-0.023265208705504928,0.008286076671681953,0.02268032659628648,0.030054312377470062, ,0.026109356464415808, ,0.024146417229930356, ,0.0005339451585012324, ,0.1697070549110836,-0.2394047191009598,0.09812137526,1.6114672156785694,0.20413493064956803,-1.2848853368671724, ,0.10020796363090896,0.06247329924849953,0.024318796213740463,-0.012878085624518282,0.1290501436649448,-0.07202299119840627, ,1.5192899703979492
0.013182517496681645,0.021754051131396474,-0.08784233528914381, ,0.013895285187851977,0.02136926485901389,-0.08846746878532537, ,0.0010231764975010631, ,0.01184881895167212,0.0001845218841354968,-0.023265208705504928,0.008286076671681953,0.02268032659628648,0.030054312377470062, ,0.026109356464415808, ,0.024146417229930356, ,0.0005390949620696516, ,0.1697070549110836,-0.2394047191009598,0.09812137526,1.6114672156785694,0.20413493064956803,-1.2848853368671724, ,0.10020796363090896,0.06247329924849953,0.024318796213740463,-0.012878085624518282,0.1290501436649448,-0.07202299119840627, ,1.5231959819793701
0.013182517496681645,0.021754051131396474,-0.08784233528914381, ,0.013944530832521512,0.021364204604121285,-0.088561751706058, ,0.0011181254937402908, ,0.01184881895167212,0.0001845218841354968,-0.023265208705504928,0.008286076671681953,0.02268032659628648,0.030054312377470062, ,0.026109356464415808, ,0.024146417229930356, ,0.0005451265301078875, ,0.1697070549110836,-0.2394047191009598,0.09812137526,1.6114672156785694,0.20413493064956803,-1.2848853368671724, ,0.10020796363090896,0.06247329924849953,0.024318796213740463,-0.012878085624518282,0.1290501436649448,-0.07202299119840627, ,1.5269689559936523
0.013257089043126781,0.02175298166385442,-0.08798219143074064, ,0.013993899079952127,0.021358857958862762,-0.08865605638468407, ,0.0010734600604382569, ,0.011867477536533187,-0.0006009300300698704,-0.02185212258377357,0.02578201660992529,0.03907120710605523,0.03187356166049553, ,0.024873950257195306, ,0.046810966903704385, ,0.0005505732675339738, ,0.17036348720539268,-0.23900313699150014,0.09826785603,1.6114672156785694,0.2050913861479261,-1.285665262193047, ,0.10485849895963623,0.06711240562833859,0.022820646876790834,-0.011314583257654937,0.15010058017759673,-0.0938652181998512, ,1.530703067779541
0.013257089043126781,0.02175298166385442,-0.08798219143074064, ,0.014043388605591334,0.021353228825454706,-0.08875038184238634, ,0.0011696947645796205, ,0.011867477536533187,-0.0006009300300698704,-0.02185212258377357,0.02578201660992529,0.03907120710605523,0.03187356166049553, ,0.024873950257195306, ,0.046810966903704385, ,0.0005568908338303579, ,0.17036348720539268,-0.23900313699150014,0.09826785603,1.6114672156785694,0.2050913861479261,-1.285665262193047, ,0.10485849895963623,0.06711240562833859,0.022820646876790834,-0.011314583257654937,0.15010058017759673,-0.0938652181998512, ,1.5342791080474854
0.01343149470938136,0.0217359517158744,-0.08827688776380246, ,0.014092998091576827,0.021347321089980213,-0.08884472710228195, ,0.0009544956795940803, ,0.013157300597300026,-0.0019308243414981256,-0.02110531416074179,-0.018332775798110813,-0.02034983178911544,0.01618670266710336, ,0.024945479098807486, ,0.027389818085700495, ,0.0005609070443936279, ,0.171853974650118,-0.23803007264934783,0.09856729902000001,1.6114672156785694,0.20673102414511138,-1.2869205982972636, ,0.11433366452827805,0.07842722442848825,0.021880235604395604,-0.008945669114734059,0.09862162006924982,-0.061114034091604846, ,1.5379230976104736
0.01343149470938136,0.0217359517158744,-0.08827688776380246, ,0.014142726226723827,0.021341138622416295,-0.08893909118942375, ,0.0010489237469577077, ,0.013157300597300026,-0.0019308243414981256,-0.02110531416074179,-0.018332775798110813,-0.02034983178911544,0.01618670266710336, ,0.024945479098807486, ,0.027389818085700495, ,0.0005657872114192687, ,0.171853974650118,-0.23803007264934783,0.09856729902000001,1.6114672156785694,0.20673102414511138,-1.2869205982972636, ,0.11433366452827805,0.07842722442848825,0.021880235604395604,-0.008945669114734059,0.09862162006924982,-0.061114034091604846, ,1.5414879322052002
0.01343149470938136,0.0217359517158744,-0.08827688776380246, ,0.01419257170651169,0.021334685276658535,-0.08903347313080098, ,0.0011457200218020918, ,0.013157300597300026,-0.0019308243414981256,-0.02110531416074179,-0.018332775798110813,-0.02034983178911544,0.01618670266710336, ,0.024945479098807486, ,0.027389818085700495, ,0.00057152912043296, ,0.171853974650118,-0.23803007264934783,0.09856729902000001,1.6114672156785694,0.20673102414511138,-1.2869205982972636, ,0.11433366452827805,0.07842722442848825,0.021880235604395604,-0.008945669114734059,0.09862162006924982,-0.061114034091604846, ,1.5450091361999512
0.013570358208066785,0.02171714130822707,-0.08850417243860946, ,0.014242533233070983,0.021327964890546777,-0.08912787195534097, ,0.0009961318363996704, ,0.014189381538768189,-0.0014000132095751188,-0.02385900653053131,-0.01463681149536703,-0.02420602018051558,0.006937188563541481, ,0.0277947976798475, ,0.028287098335914283, ,0.0005756918921581239, ,0.1730432755127486,-0.23720374023180582,0.0988032238,1.6112575257350852,0.20768747964346948,-1.287618844882998, ,0.12027495761529881,0.08124738147129348,0.024772646220839814,0.0,0.09793582068843365,-0.06493758808266316, ,1.548577070236206
0.013570358208066785,0.02171714130822707,-0.08850417243860946, ,0.014292609515170687,0.021320981285891903,-0.08922228669390958, ,0.0010928301778296303, ,0.014189381538768189,-0.0014000132095751188,-0.02385900653053131,-0.01463681149536703,-0.02420602018051558,0.006937188563541481, ,0.0277947976798475, ,0.028287098335914283, ,0.000580712652213187, ,0.1730432755127486,-0.23720374023180582,0.0988032238,1.6112575257350852,0.20768747964346948,-1.287618844882998, ,0.12027495761529881,0.08124738147129348,0.024772646220839814,0.0,0.09793582068843365,-0.06493758808266316, ,1.5526700019836426
0.013570358208066785,0.02171714130822707,-0.08850417243860946, ,0.01434279926820474,0.021313738268500325,-0.08931671637931346, ,0.001191480952186232, ,0.014189381538768189,-0.0014000132095751188,-0.02385900653053131,-0.01463681149536703,-0.02420602018051558,0.006937188563541481, ,0.0277947976798475, ,0.028287098335914283, ,0.0005865854243283124, ,0.1730432755127486,-0.23720374023180582,0.0988032238,1.6112575257350852,0.20768747964346948,-1.287618844882998, ,0.12027495761529881,0.08124738147129348,0.024772646220839814,0.0,0.09793582068843365,-0.06493758808266316, ,1.556394100189209
0.013570358208066785,0.02171714130822707,-0.08850417243860946, ,0.014393101214179518,0.021306239628200472,-0.0894111600462999, ,0.0012916550488656486, ,0.014189381538768189,-0.0014000132095751188,-0.02385900653053131,-0.01463681149536703,-0.02420602018051558,0.006937188563541481, ,0.0277947976798475, ,0.028287098335914283, ,0.0005933003731334299, ,0.1730432755127486,-0.23720374023180582,0.0988032238,1.6112575257350852,0.20768747964346948,-1.287618844882998, ,0.12027495761529881,0.08124738147129348,0.024772646220839814,0.0,0.09793582068843365,-0.06493758808266316, ,1.560197114944458
0.013686343614878858,0.02170828509361454,-0.08870292153929235, ,0.014443514081700453,0.02129848913886869,-0.08950561673155873, ,0.0011770978770010794, ,0.01452585521219182,-0.0012242529920280668,-0.025063520707323147,-0.005331440126368957,-0.025200890528112235,0.006165011565749345, ,0.028994470770829155, ,0.025758479126493834, ,0.0005988078967548229, ,0.174054953519272,-0.2365318624717483,0.09901840794000001,1.6112575257350852,0.20850729864206213,-1.2882056735650362, ,0.12073402233902134,0.08173724509773538,0.026112805770491805,0.0,0.09757201306646088,-0.07529834549668056, ,1.564229965209961
0.013686343614878858,0.02170828509361454,-0.08870292153929235, ,0.014494036605959151,0.021290490558454347,-0.08960008547372375, ,0.0012774284194014087, ,0.01452585521219182,-0.0012242529920280668,-0.025063520707323147,-0.005331440126368957,-0.025200890528112235,0.006165011565749345, ,0.028994470770829155, ,0.025758479126493834, ,0.0006051501446300247, ,0.17486584047106557,-0.23595265750618144,0.09919340709,1.6112575257350852,0.2091904811408893,-1.2887627630835183, ,0.11601093100057551,0.08770512158823549,0.024318796213740463,0.0,0.09663897314640746,-0.07496858851619471, ,1.5680720806121826
0.013783842468534988,0.02169715568485685,-0.08887148297390356, ,0.014544667528720405,0.02128224762900626,-0.0896945653133728, ,0.0011951853431840724, ,0.013876140227461744,-0.0022097222878512965,-0.02352587950758387,-0.011534423490177081,-0.021371345695028233,0.0048092797907989555, ,0.02740250256467397, ,0.02428518345586456, ,0.0006106134335055251, ,0.17486584047106557,-0.23595265750618144,0.09919340709,1.6112575257350852,0.2091904811408893,-1.2887627630835183, ,0.11601093100057551,0.08770512158823549,0.024318796213740463,0.0,0.09663897314640746,-0.07496858851619471, ,1.5716979503631592
0.013783842468534988,0.02169715568485685,-0.08887148297390356, ,0.014595405598309113,0.021273764076698058,-0.08978905529303033, ,0.001296084151703023, ,0.013876140227461744,-0.0022097222878512965,-0.02352587950758387,-0.011534423490177081,-0.021371345695028233,0.0048092797907989555, ,0.02740250256467397, ,0.02428518345586456, ,0.0006169021556908232, ,0.17486584047106557,-0.23595265750618144,0.09919340709,1.6112575257350852,0.2091904811408893,-1.2887627630835183, ,0.11601093100057551,0.08770512158823549,0.024318796213740463,0.0,0.09663897314640746,-0.07496858851619471, ,1.575303077697754
0.01400223713257178,0.021649182523471408,-0.08919569222096825, ,0.014646249569597229,0.021265043611853704,-0.08988355445716736, ,0.0010175800599712711, ,0.015202745383449163,-0.0037410921699068678,-0.021722713826935226,-0.0814778454784894,-0.09797522317106414,-0.017177779960838732, ,0.026776772281674393, ,0.12742754342095633, ,0.0006205446820933727, ,0.176703850895131,-0.23454712012307258,0.09952784991000001,1.6116769056220543,0.21001030013948196,-1.289186234285275, ,0.12619274143413667,0.09905735026980249,0.022340549116409536,0.005937226169437041,0.027468049590247446,-0.015048955561714934, ,1.5788719654083252
0.01400223713257178,0.021649182523471408,-0.08919569222096825, ,0.014697198203990944,0.021256089928974226,-0.0899780618522031, ,0.0011178528161234589, ,0.015202745383449163,-0.0037410921699068678,-0.021722713826935226,-0.0814778454784894,-0.09797522317106414,-0.017177779960838732, ,0.026776772281674393, ,0.12742754342095633, ,0.0006250249355531033, ,0.176703850895131,-0.23454712012307258,0.09952784991000001,1.6116769056220543,0.21001030013948196,-1.289186234285275, ,0.12619274143413667,0.09905735026980249,0.022340549116409536,0.005937226169437041,0.027468049590247446,-0.015048955561714934, ,1.5824410915374756
0.01400223713257178,0.021649182523471408,-0.08919569222096825, ,0.014748250269417335,0.021246906706762228,-0.09007257652650628, ,0.0012195439796719514, ,0.015202745383449163,-0.0037410921699068678,-0.021722713826935226,-0.0814778454784894,-0.09797522317106414,-0.017177779960838732, ,0.026776772281674393, ,0.12742754342095633, ,0.0006303331413041645, ,0.176703850895131,-0.23454712012307258,0.09952784991000001,1.6116769056220543,0.21001030013948196,-1.289186234285275, ,0.12619274143413667,0.09905735026980249,0.022340549116409536,0.005937226169437041,0.027468049590247446,-0.015048955561714934, ,1.5860280990600586
0.014149993014908898,0.02162211490802724,-0.08945172211669826, ,0.01479940454031161,0.02123749760814851,-0.09016709753039624, ,0.0010399171982496693, ,0.01558897320895374,-0.0017924990511378153,-0.029651726451284242,0.08506819089942562,0.07655025461660786,0.01653022789475548, ,0.033547787111814054, ,0.11444000901304129, ,0.0006339577789762485, ,0.17794721088788115,-0.23356633304804608,0.09979229307000001,1.6118865955655386,0.21137666513713638,-1.2902187345820986, ,0.13216844228199273,0.09854303380941928,0.03081008030947776,0.009217496768941989,0.21076740054398513,-0.1807068742100574, ,1.5896029472351074
0.014149993014908898,0.02162211490802724,-0.08945172211669826, ,0.014850659797604063,0.021227866280317486,-0.09026162391614359, ,0.0011411865954208383, ,0.01558897320895374,-0.0017924990511378153,-0.029651726451284242,0.08506819089942562,0.07655025461660786,0.01653022789475548, ,0.033547787111814054, ,0.11444000901304129, ,0.0006384071545590959, ,0.17794721088788115,-0.23356633304804608,0.09979229307000001,1.6118865955655386,0.21137666513713638,-1.2902187345820986, ,0.13216844228199273,0.09854303380941928,0.03081008030947776,0.009217496768941989,0.21076740054398513,-0.1807068742100574, ,1.5932159423828125
0.014149993014908898,0.02162211490802724,-0.08945172211669826, ,0.014902014828706935,0.021218016354733065,-0.09035615473797194, ,0.0012437165334699535, ,0.01558897320895374,-0.0017924990511378153,-0.029651726451284242,0.08506819089942562,0.07655025461660786,0.01653022789475548, ,0.033547787111814054, ,0.11444000901304129, ,0.0006436707143757121, ,0.17794721088788115,-0.23356633304804608,0.09979229307000001,1.6118865955655386,0.21137666513713638,-1.2902187345820986, ,0.13216844228199273,0.09854303380941928,0.03081008030947776,0.009217496768941989,0.21076740054398513,-0.1807068742100574, ,1.5969500541687012
0.014209801757598358,0.02161722466420337,-0.08957120985855886, ,0.014953468427501396,0.021207951447164246,-0.09045068905205877, ,0.0012223045176671342, ,0.01558897320895374,-0.0017924990511378153,-0.029651726451284242,0.08506819089942562,0.07655025461660786,0.01653022789475548, ,0.033547787111814054, ,0.11444000901304129, ,0.0006486589368178794, ,0.17845691125757998,-0.2331956418700833,0.09991673691000001,1.6118865955655386,0.21233312063549445,-1.2909986599079737, ,0.12858664167814468,0.0916878662400684,0.031857623040000005,0.009217496768941989,0.2295269048691363,-0.19611690439627913, ,1.6006309986114502
0.014209801757598358,0.02161722466420337,-0.08957120985855886, ,0.015005019394324685,0.021197675157711107,-0.0905452259165368, ,0.0013255565470236962, ,0.015284490926348319,-0.0009543480572044049,-0.030543877642723174,0.107201102185216,0.0985577124261321,0.02136764510175531, ,0.03416803922594269, ,0.14562167559935899, ,0.0006544443864777582, ,0.17845691125757998,-0.2331956418700833,0.09991673691000001,1.6118865955655386,0.21233312063549445,-1.2909986599079737, ,0.12858664167814468,0.0916878662400684,0.031857623040000005,0.009217496768941989,0.2295269048691363,-0.19611690439627913, ,1.604315996170044
0.014209801757598358,0.02161722466420337,-0.08957120985855886, ,0.015056666535956992,0.02118719107083023,-0.09063976439149485, ,0.0014296564741614944, ,0.015284490926348319,-0.0009543480572044049,-0.030543877642723174,0.107201102185216,0.0985577124261321,0.02136764510175531, ,0.03416803922594269, ,0.14562167559935899, ,0.0006610139804411797, ,0.17845691125757998,-0.2331956418700833,0.09991673691000001,1.6118865955655386,0.21233312063549445,-1.2909986599079737, ,0.12858664167814468,0.0916878662400684,0.031857623040000005,0.009217496768941989,0.2295269048691363,-0.19611690439627913, ,1.6079270839691162
0.014471786715604083,0.021595019255933257,-0.09006588776268332, ,0.015108408665608372,0.02117650275536071,-0.09073430353897939, ,0.0010135202111848768, ,0.01588972161133707,-0.0014842820883299002,-0.030039048305660978,-0.020896705070634576,-0.020985450949504367,0.028483579125027157, ,0.03401515499469851, ,0.029614810075455092, ,0.00066397621767432, ,0.18062699919523706,-0.23164337256236417,0.10043266033,1.6120962855090233,0.2154757601300996,-1.29339791421271, ,0.12292349942807097,0.09414379122864167,0.031171842504892373,-0.02377130152671827,0.10966873433177576,-0.07599680066162105, ,1.611618995666504
0.014471786715604083,0.021595019255933257,-0.09006588776268332, ,0.015160244602905751,0.021165613764550065,-0.09082884242299494, ,0.0011137608146766242, ,0.01588972161133707,-0.0014842820883299002,-0.030039048305660978,-0.020896705070634576,-0.020985450949504367,0.028483579125027157, ,0.03401515499469851, ,0.029614810075455092, ,0.0006677244226493392, ,0.18062699919523706,-0.23164337256236417,0.10043266033,1.6120962855090233,0.2154757601300996,-1.29339791421271, ,0.12292349942807097,0.09414379122864167,0.031171842504892373,-0.02377130152671827,0.10966873433177576,-0.07599680066162105, ,1.615278959274292
0.014631495647637851,0.02157953588505875,-0.09037330798074471, ,0.015212173173880107,0.021154527636079414,-0.09092338010950636, ,0.0009057581067943486, ,0.01668994762222691,-0.002066341107115317,-0.0315386165441465,-0.13190494443947356,-0.11762031801811443,0.004917892742393241, ,0.035742250219066275, ,0.17672980046967973, ,0.0006696916431794633, ,0.18179313185924495,-0.23067803095308612,0.10075025138000002,1.6120962855090233,0.21602230612916135,-1.293598549607074, ,0.11759224480603565,0.10314884952007694,0.032441571323828924,-0.02223889657960258,0.005464818616255603,0.026558221000165718, ,1.6189210414886475
0.014631495647637851,0.02157953588505875,-0.09037330798074471, ,0.015264193210953134,0.021143247892089784,-0.09101791566643894, ,0.0010030814961358094, ,0.01668994762222691,-0.002066341107115317,-0.0315386165441465,-0.13190494443947356,-0.11762031801811443,0.004917892742393241, ,0.035742250219066275, ,0.17672980046967973, ,0.0006724243468922203, ,0.18179313185924495,-0.23067803095308612,0.10075025138000002,1.6120962855090233,0.21602230612916135,-1.293598549607074, ,0.11759224480603565,0.10314884952007694,0.032441571323828924,-0.02223889657960258,0.005464818616255603,0.026558221000165718, ,1.6225171089172363
0.014631495647637851,0.02157953588505875,-0.09037330798074471, ,0.015316303552924345,0.021131778039207672,-0.09111244816367997, ,0.0011026228574148311, ,0.01668994762222691,-0.002066341107115317,-0.0315386165441465,-0.13190494443947356,-0.11762031801811443,0.004917892742393241, ,0.035742250219066275, ,0.17672980046967973, ,0.0006759218957582577, ,0.18179313185924495,-0.23067803095308612,0.10075025138000002,1.6120962855090233,0.21602230612916135,-1.293598549607074, ,0.11759224480603565,0.10314884952007694,0.032441571323828924,-0.02223889657960258,0.005464818616255603,0.026558221000165718, ,1.6260809898376465
0.014796524825500609,0.021553373880563526,-0.0906846209144012, ,0.015368503044958244,0.021120121568570793,-0.09120697667308043, ,0.0008875371473951562, ,0.015117569479335386,-0.002759940290067349,-0.028071455992748972,-0.012848319358001247,-0.015741505968544133,0.021161968094801614, ,0.03200257519200778, ,0.020318880121377322, ,0.0006776284703682328, ,0.18301332365337242,-0.22959684835069466,0.10107043501000001,1.6120962855090233,0.21670548862798855,-1.2940739603854157, ,0.11658100928559063,0.10116944729048058,0.02890891382940109,-0.018971587844513204,0.10718745678632353,-0.09014493160070733, ,1.629612922668457
0.014796524825500609,0.021553373880563526,-0.0906846209144012, ,0.015420790538570988,0.021108281955853708,-0.09130150026845477, ,0.000984050120377363, ,0.015117569479335386,-0.002759940290067349,-0.028071455992748972,-0.012848319358001247,-0.015741505968544133,0.021161968094801614, ,0.03200257519200778, ,0.020318880121377322, ,0.0006800798435683058, ,0.18301332365337242,-0.22959684835069466,0.10107043501000001,1.6120962855090233,0.21670548862798855,-1.2940739603854157, ,0.11658100928559063,0.10116944729048058,0.02890891382940109,-0.018971587844513204,0.10718745678632353,-0.09014493160070733, ,1.6340129375457764
0.014796524825500609,0.021553373880563526,-0.0906846209144012, ,0.01547316489161755,0.0210962626612938,-0.0913960180255838, ,0.0010829950580016207, ,0.015117569479335386,-0.002759940290067349,-0.028071455992748972,-0.012848319358001247,-0.015741505968544133,0.021161968094801614, ,0.03200257519200778, ,0.020318880121377322, ,0.0006832775833653955, ,0.18301332365337242,-0.22959684835069466,0.10107043501000001,1.6120962855090233,0.21670548862798855,-1.2940739603854157, ,0.11658100928559063,0.10116944729048058,0.02890891382940109,-0.018971587844513204,0.10718745678632353,-0.09014493160070733, ,1.6377480030059814
0.014939940905525789,0.021522783808412906,-0.09093966528919047, ,0.01552562496827867,0.02108406712971697,-0.09149052902221415, ,0.0009159415908722023, ,0.01383707341429367,-0.003781755822371031,-0.023470582213433604,0.03246160692545621,0.03831281329550435,0.029829296098541444, ,0.02750699015178025, ,0.05021573921107359, ,0.0006851095834245043, ,0.18417173358450611,-0.22861606127566816,0.10133358188000001,1.6120962855090233,0.21807185362564296,-1.2951881394223799, ,0.11658100928559063,0.09999677719543813,0.024171185918057666,-0.016653325998818223,0.1617008682970978,-0.13398042888462205, ,1.6416270732879639
0.014939940905525789,0.021522783808412906,-0.09093966528919047, ,0.01557816963904787,0.02107169879056324,-0.091585032338061, ,0.001013564125938514, ,0.01383707341429367,-0.003781755822371031,-0.023470582213433604,0.03246160692545621,0.03831281329550435,0.029829296098541444, ,0.02750699015178025, ,0.05021573921107359, ,0.000687675634537895, ,0.18417173358450611,-0.22861606127566816,0.10133358188000001,1.6120962855090233,0.21807185362564296,-1.2951881394223799, ,0.11658100928559063,0.09999677719543813,0.024171185918057666,-0.016653325998818223,0.1617008682970978,-0.13398042888462205, ,1.645277976989746
0.014939940905525789,0.021522783808412906,-0.09093966528919047, ,0.015630797780718284,0.021059161057912786,-0.09167952705480772, ,0.0011133843491824029, ,0.013829064237163187,-0.004594186265438336,-0.019319073636706874,-0.022710984405967673,-0.03332428379995303,0.01364217130925079, ,0.024198681189222495, ,0.040327335795433794, ,0.0006909757020932787, ,0.18417173358450611,-0.22861606127566816,0.10133358188000001,1.6120962855090233,0.21807185362564296,-1.2951881394223799, ,0.11658100928559063,0.09999677719543813,0.024171185918057666,-0.016653325998818223,0.1617008682970978,-0.13398042888462205, ,1.6490681171417236
0.015076036541880104,0.021481560917781597,-0.09114830515079689, ,0.01568350827636986,0.021046457330511307,-0.09177401225610833, ,0.0009746006471866787, ,0.013829064237163187,-0.004594186265438336,-0.019319073636706874,-0.022710984405967673,-0.03332428379995303,0.01364217130925079, ,0.024198681189222495, ,0.040327335795433794, ,0.0006931574324401511, ,0.185337866248514,-0.22764299693351586,0.10154876602000001,1.6120962855090233,0.21943821862329735,-1.2962206397192035, ,0.1171567179734207,0.09793286022546002,0.01988615670411985,-0.014840466961432878,0.08879283971829174,-0.07635319362553702, ,1.6528959274291992
0.015076036541880104,0.021481560917781597,-0.09114830515079689, ,0.015736300015356065,0.021033590991796143,-0.09186848702758779, ,0.0010748427069353095, ,0.013829064237163187,-0.004594186265438336,-0.019319073636706874,-0.022710984405967673,-0.03332428379995303,0.01364217130925079, ,0.024198681189222495, ,0.040327335795433794, ,0.0006960710604897325, ,0.185337866248514,-0.22764299693351586,0.10154876602000001,1.6120962855090233,0.21943821862329735,-1.2962206397192035, ,0.1171567179734207,0.09793286022546002,0.01988615670411985,-0.014840466961432878,0.08879283971829174,-0.07635319362553702, ,1.656477928161621
0.015221777125563097,0.02142920826671599,-0.09135201365095634, ,0.01578917189329112,0.021020565409921765,-0.09196295045684333, ,0.0009285308759763883, ,0.014640993806046255,-0.004904263453698114,-0.02191212876311901,-0.035321248599604525,-0.033406517871732815,0.011141682488704778, ,0.026805818147996735, ,0.04861667396501326, ,0.0006978321196979647, ,0.18655805804264147,-0.22656953706399866,0.10175746871,1.6120962855090233,0.22025803762189,-1.2968074684012416, ,0.12027495761529881,0.10710715751520403,0.02246658888575459,-0.013377190444415583,0.09157840286036413,-0.07249596643411789, ,1.6600329875946045
0.015221777125563097,0.02142920826671599,-0.09135201365095634, ,0.015842122812036875,0.02100738393778578,-0.09205740163344614, ,0.00102972653702091, ,0.014640993806046255,-0.004904263453698114,-0.02191212876311901,-0.035321248599604525,-0.033406517871732815,0.011141682488704778, ,0.026805818147996735, ,0.04861667396501326, ,0.0007003275664447538, ,0.18655805804264147,-0.22656953706399866,0.10175746871,1.6120962855090233,0.22025803762189,-1.2968074684012416, ,0.12027495761529881,0.10710715751520403,0.02246658888575459,-0.013377190444415583,0.09157840286036413,-0.07249596643411789, ,1.663604974746704
0.015221777125563097,0.02142920826671599,-0.09135201365095634, ,0.01589515167968973,0.020994049913054334,-0.09215183964894165, ,0.0011324829844019573, ,0.014640993806046255,-0.004904263453698114,-0.02191212876311901,-0.035321248599604525,-0.033406517871732815,0.011141682488704778, ,0.026805818147996735, ,0.04861667396501326, ,0.0007035526068772702, ,0.18655805804264147,-0.22656953706399866,0.10175746871,1.6120962855090233,0.22025803762189,-1.2968074684012416, ,0.12027495761529881,0.10710715751520403,0.02246658888575459,-0.013377190444415583,0.09157840286036413,-0.07249596643411789, ,1.6671719551086426
0.015359900663546144,0.021390320986141135,-0.0915808920805877, ,0.015948257410567677,0.02098056665818831,-0.09224626359685145, ,0.0009781520974250155, ,0.013814124738083312,-0.0037333102040416318,-0.023761239940189555,0.034417034946655524,0.03378278014555133,0.022807254253121502, ,0.027737414638970698, ,0.048226558601352665, ,0.0007055866771776239, ,0.18769329977515248,-0.22558102725609794,0.10199339349000001,1.6120962855090233,0.22162440261954441,-1.2978399686980653, ,0.11297254947436998,0.09885098079007372,0.024505863876923082,-0.012214532875251548,0.15214056560390474,-0.1340271476215357, ,1.670820951461792
0.015359900663546144,0.021390320986141135,-0.0915808920805877, ,0.01600143892519733,0.02096693748046873,-0.09234067257267406, ,0.0010807827395887084, ,0.013814124738083312,-0.0037333102040416318,-0.023761239940189555,0.034417034946655524,0.03378278014555133,0.022807254253121502, ,0.027737414638970698, ,0.048226558601352665, ,0.000708345471754176, ,0.18769329977515248,-0.22558102725609794,0.10199339349000001,1.6120962855090233,0.22162440261954441,-1.2978399686980653, ,0.11297254947436998,0.09885098079007372,0.024505863876923082,-0.012214532875251548,0.15214056560390474,-0.1340271476215357, ,1.674617052078247
0.015359900663546144,0.021390320986141135,-0.0915808920805877, ,0.01605469515030071,0.020953165672022517,-0.09243506567388593, ,0.0011846757678684483, ,0.013814124738083312,-0.0037333102040416318,-0.023761239940189555,0.034417034946655524,0.03378278014555133,0.022807254253121502, ,0.027737414638970698, ,0.048226558601352665, ,0.0007118223352294627, ,0.1887976505761666,-0.22454618105095184,0.10224357746000001,1.6120962855090233,0.22312740411696425,-1.2990655656387258, ,0.10674571603877478,0.10614870420410602,0.025942689771986976,-0.011224913362646357,0.1614166386783242,-0.1411512651813771, ,1.678844928741455
0.015497282714503898,0.021349809115039677,-0.0918246285193804, ,0.016108025018782425,0.020939254509848498,-0.09252944199994308, ,0.0010189814956425838, ,0.013506209369792839,-0.004142734473192647,-0.02536322701406872,0.03453316022609027,0.04939881681414223,0.022012197161475514, ,0.029032279018761927, ,0.06027247930746571, ,0.000714048126246949, ,0.1887976505761666,-0.22454618105095184,0.10224357746000001,1.6120962855090233,0.22312740411696425,-1.2990655656387258, ,0.10674571603877478,0.10614870420410602,0.025942689771986976,-0.011224913362646357,0.1614166386783242,-0.1411512651813771, ,1.6836681365966797
0.015497282714503898,0.021349809115039677,-0.0918246285193804, ,0.016161427469716622,0.020925207255843098,-0.0926238006522817, ,0.001122519974305916, ,0.013506209369792839,-0.004142734473192647,-0.02536322701406872,0.03453316022609027,0.04939881681414223,0.022012197161475514, ,0.029032279018761927, ,0.06027247930746571, ,0.0007169867726358625, ,0.1887976505761666,-0.22454618105095184,0.10224357746000001,1.6120962855090233,0.22312740411696425,-1.2990655656387258, ,0.10674571603877478,0.10614870420410602,0.025942689771986976,-0.011224913362646357,0.1614166386783242,-0.1411512651813771, ,1.688349962234497
0.015608221099391117,0.021321374014098234,-0.09203825556925208, ,0.01621490144833383,0.020911027156825728,-0.09271814073431985, ,0.0009993444985318632, ,0.014272609236384364,-0.0029311007197732274,-0.027164497459206054,-0.020301569745550023,-0.022390485828852096,0.00786170043781964, ,0.030825454547422193, ,0.030223712518754785, ,0.0007190036135351196, ,0.18963942845945705,-0.22371984863340982,0.10246265047000001,1.6120962855090233,0.22422049611508776,-1.2999569088682972, ,0.10337357468243004,0.09753025853902444,0.02794528336842106,-0.01054297664650733,0.08472217856260594,-0.0775831531849226, ,1.6919691562652588
0.015608221099391117,0.021321374014098234,-0.09203825556925208, ,0.016268445906008032,0.020896717444565012,-0.09281246135145822, ,0.0011025536678645166, ,0.014272609236384364,-0.0029311007197732274,-0.027164497459206054,-0.020301569745550023,-0.022390485828852096,0.00786170043781964, ,0.030825454547422193, ,0.030223712518754785, ,0.0007217238266863919, ,0.18963942845945705,-0.22371984863340982,0.10246265047000001,1.6120962855090233,0.22422049611508776,-1.2999569088682972, ,0.10337357468243004,0.09753025853902444,0.02794528336842106,-0.01054297664650733,0.08472217856260594,-0.0775831531849226, ,1.6956639289855957
0.01577958747265353,0.021291371126778244,-0.09236310376929871, ,0.016322059800243618,0.02088228133580419,-0.09290676161108143, ,0.0008701692549223086, ,0.015001651552464492,-0.0027341208562635735,-0.028179477637944397,-0.08516067387451898,-0.09705677788860775,-0.008303039663199993, ,0.03204072293356728, ,0.12912141859432535, ,0.0007227692170260815, ,0.19082100658921342,-0.22260777509952148,0.10279709329000002,1.6120962855090233,0.2246304056143841,-1.3002911625793865, ,0.10073985303447004,0.09723047290826925,0.028961475490909095,-0.009687658959567589,0.005850982519287579,-0.012113615983648489, ,1.7001500129699707
0.01577958747265353,0.021291371126778244,-0.09236310376929871, ,0.016375742094662395,0.020867722032287078,-0.09300104062255889, ,0.0009704856090397298, ,0.015001651552464492,-0.0027341208562635735,-0.028179477637944397,-0.08516067387451898,-0.09705677788860775,-0.008303039663199993, ,0.03204072293356728, ,0.12912141859432535, ,0.0007245014994877154, ,0.19082100658921342,-0.22260777509952148,0.10279709329000002,1.6120962855090233,0.2246304056143841,-1.3002911625793865, ,0.10073985303447004,0.09723047290826925,0.028961475490909095,-0.009687658959567589,0.005850982519287579,-0.012113615983648489, ,1.7037739753723145
0.01577958747265353,0.021291371126778244,-0.09236310376929871, ,0.016429491758990673,0.020853042720784126,-0.09309529749724663, ,0.001072667249498653, ,0.015001651552464492,-0.0027341208562635735,-0.028179477637944397,-0.08516067387451898,-0.09705677788860775,-0.008303039663199993, ,0.03204072293356728, ,0.12912141859432535, ,0.0007269193171961248, ,0.19082100658921342,-0.22260777509952148,0.10279709329000002,1.6120962855090233,0.2246304056143841,-1.3002911625793865, ,0.10073985303447004,0.09723047290826925,0.028961475490909095,-0.009687658959567589,0.005850982519287579,-0.012113615983648489, ,1.7073280811309814
0.015924577528221507,0.021260697331636862,-0.09263414074013918, ,0.01648330776904585,0.020838246573117232,-0.093189531348488, ,0.0008939255300233407, ,0.014441138302496282,-0.0032422765306149995,-0.026367263693962684,-0.04510418044491986,-0.04485396267779003,0.0018105395300518036, ,0.030237252310349974, ,0.06361015891298173, ,0.00072807108418114, ,0.19184040732861105,-0.221626988024495,0.10307579564000001,1.6120962855090233,0.22517695161344586,-1.3008185129343128, ,0.10314884952007694,0.09773114475640657,0.027135965110732543,-0.009062376646381607,0.061321012292113515,-0.052640451460904944, ,1.7110509872436523
0.015924577528221507,0.021260697331636862,-0.09263414074013918, ,0.01653718910672374,0.020823336746186135,-0.09328374129161442, ,0.0009942625932306513, ,0.014441138302496282,-0.0032422765306149995,-0.026367263693962684,-0.04510418044491986,-0.04485396267779003,0.0018105395300518036, ,0.030237252310349974, ,0.06361015891298173, ,0.0007298943136951777, ,0.19184040732861105,-0.221626988024495,0.10307579564000001,1.6120962855090233,0.22517695161344586,-1.3008185129343128, ,0.10314884952007694,0.09773114475640657,0.027135965110732543,-0.009062376646381607,0.061321012292113515,-0.052640451460904944, ,1.7147960662841797
0.015924577528221507,0.021260697331636862,-0.09263414074013918, ,0.01659113475998564,0.02080831638199464,-0.09337792644394763, ,0.0010964325059054474, ,0.014441138302496282,-0.0032422765306149995,-0.026367263693962684,-0.04510418044491986,-0.04485396267779003,0.0018105395300518036, ,0.030237252310349974, ,0.06361015891298173, ,0.0007323877707850436, ,0.19184040732861105,-0.221626988024495,0.10307579564000001,1.6120962855090233,0.22517695161344586,-1.3008185129343128, ,0.10314884952007694,0.09773114475640657,0.027135965110732543,-0.009062376646381607,0.061321012292113515,-0.052640451460904944, ,1.718522071838379
0.016069078928374045,0.021223217729515086,-0.09289316734434211, ,0.016645143722844858,0.020793188607675227,-0.09347208592479939, ,0.0009229964332854866, ,0.013071059924104766,-0.0038692190666465903,-0.02283663699757002,0.015366481777080655,0.026625338437704787,0.015313766621008976, ,0.026595778858383205, ,0.030741359731458178, ,0.0007336756671532898, ,0.19293703539675092,-0.22060758728509736,0.10334283138000001,1.6120962855090233,0.22640668011133483,-1.3018212740675805, ,0.10214956034281031,0.09537381061152843,0.023528525140324965,-0.008488501880793442,0.13287033457147543,-0.11082588769512886, ,1.7221839427947998
0.016069078928374045,0.021223217729515086,-0.09289316734434211, ,0.016699214995354122,0.020777956535515636,-0.09356621885547409, ,0.001023878572110959, ,0.013071059924104766,-0.0038692190666465903,-0.02283663699757002,0.015366481777080655,0.026625338437704787,0.015313766621008976, ,0.026595778858383205, ,0.030741359731458178, ,0.0007356233376563614, ,0.19293703539675092,-0.22060758728509736,0.10334283138000001,1.6120962855090233,0.22640668011133483,-1.3018212740675805, ,0.10214956034281031,0.09537381061152843,0.023528525140324965,-0.008488501880793442,0.13287033457147543,-0.11082588769512886, ,1.7257230281829834
0.01620388020042999,0.021181506467896207,-0.09311983794384768, ,0.01675334758359237,0.020762623262984538,-0.09366032435926902, ,0.0011264549439122834, ,0.013051967677561985,-0.004015879694510946,-0.022134223477021504,-0.01951446543439035,-0.012741513645300873,0.006390547811289269, ,0.02600778727434608, ,0.02330569068678405, ,0.0007382288816980676, ,0.19397960433477124,-0.21962680021007083,0.10357616358,1.6120962855090233,0.22749977210945835,-1.302712617297152, ,0.09874811816698312,0.09470752650545987,0.02275544502857143,-0.00799230894967181,0.08922344094151462,-0.07510461919853909, ,1.729759931564331
0.01620388020042999,0.021181506467896207,-0.09311983794384768, ,0.016807540499651722,0.020747191872756945,-0.09375440156147558, ,0.000977602122146049, ,0.013051967677561985,-0.004015879694510946,-0.022134223477021504,-0.01951446543439035,-0.012741513645300873,0.006390547811289269, ,0.02600778727434608, ,0.02330569068678405, ,0.0007398141349460674, ,0.19397960433477124,-0.21962680021007083,0.10357616358,1.6120962855090233,0.22749977210945835,-1.302712617297152, ,0.09874811816698312,0.09470752650545987,0.02275544502857143,-0.00799230894967181,0.08922344094151462,-0.07510461919853909, ,1.7333719730377197
0.01620388020042999,0.021181506467896207,-0.09311983794384768, ,0.01686179276162446,0.020731665432740187,-0.09384844958938104, ,0.0010798522237299632, ,0.013051967677561985,-0.004015879694510946,-0.022134223477021504,-0.01951446543439035,-0.012741513645300873,0.006390547811289269, ,0.02600778727434608, ,0.02330569068678405, ,0.0007420512276354351, ,0.19397960433477124,-0.21962680021007083,0.10357616358,1.6120962855090233,0.22749977210945835,-1.302712617297152, ,0.09874811816698312,0.09470752650545987,0.02275544502857143,-0.00799230894967181,0.08922344094151462,-0.07510461919853909, ,1.736983060836792
0.016335012736955982,0.02114283161403486,-0.09334922350188982, ,0.016916103393590003,0.02071604699609965,-0.09394246757226853, ,0.000933675526279317, ,0.01318608690943569,-0.0036616308760814217,-0.023787031909518627,-0.01669792531231948,-0.007333744522718119,0.006467271009015312, ,0.02744272792053154, ,0.018237239454211893, ,0.0007433036740318004, ,0.19496039140979773,-0.21867690406654122,0.10381208836000001,1.6120962855090233,0.22845622760781642,-1.3034925426230268, ,0.09653808907270679,0.09442481747111521,0.0244682204608295,-0.0075650023023550415,0.09235609967210705,-0.07756258539857717, ,1.740584135055542
0.016335012736955982,0.02114283161403486,-0.09334922350188982, ,0.01697047142560202,0.020700339601284447,-0.09403645464141962, ,0.0010353229281065308, ,0.01318608690943569,-0.0036616308760814217,-0.023787031909518627,-0.01669792531231948,-0.007333744522718119,0.006467271009015312, ,0.02744272792053154, ,0.018237239454211893, ,0.0007451999029543636, ,0.19496039140979773,-0.21867690406654122,0.10381208836000001,1.6120962855090233,0.22845622760781642,-1.3034925426230268, ,0.09653808907270679,0.09442481747111521,0.0244682204608295,-0.0075650023023550415,0.09235609967210705,-0.07756258539857717, ,1.7441871166229248
0.016335012736955982,0.02114283161403486,-0.09334922350188982, ,0.017024895893675115,0.020684546272053215,-0.09413040993011401, ,0.001138515024161589, ,0.01318608690943569,-0.0036616308760814217,-0.023787031909518627,-0.01669792531231948,-0.007333744522718119,0.006467271009015312, ,0.02744272792053154, ,0.018237239454211893, ,0.0007477374198653779, ,0.19496039140979773,-0.21867690406654122,0.10381208836000001,1.6120962855090233,0.22845622760781642,-1.3034925426230268, ,0.09653808907270679,0.09442481747111521,0.0244682204608295,-0.0075650023023550415,0.09235609967210705,-0.07756258539857717, ,1.7478320598602295
0.016466508971045637,0.02110970487485382,-0.09359166937329705, ,0.017079375839772107,0.020668670017500057,-0.09422433257363236, ,0.0009850788137210943, ,0.013115309269685259,-0.003529135093710927,-0.024075560762947597,6.637456559558985e-05,0.009549866123988114,0.009235310487756814, ,0.027642336330338215, ,0.009549673282738789, ,0.0007492588390567606, ,0.19592573301907582,-0.2177578988545085,0.10406227233000001,1.6120962855090233,0.22954931960593997,-1.3044655645927388, ,0.0962443626353659,0.09331066033281296,0.024811232897196264,-0.007180097310639194,0.10908981427162853,-0.09319135754576763, ,1.7515110969543457
0.016466508971045637,0.02110970487485382,-0.09359166937329705, ,0.017133910311790925,0.02065271383208011,-0.09431822170925569, ,0.001087264300752568, ,0.013115309269685259,-0.003529135093710927,-0.024075560762947597,6.637456559558985e-05,0.009549866123988114,0.009235310487756814, ,0.027642336330338215, ,0.009549673282738789, ,0.0007514117400866702, ,0.19592573301907582,-0.2177578988545085,0.10406227233000001,1.6120962855090233,0.22954931960593997,-1.3044655645927388, ,0.0962443626353659,0.09331066033281296,0.024811232897196264,-0.007180097310639194,0.10908981427162853,-0.09319135754576763, ,1.755263090133667
0.016466508971045637,0.02110970487485382,-0.09359166937329705, ,0.017188498363551293,0.020636680695634915,-0.09441207647626763, ,0.0011908351571989276, ,0.013115309269685259,-0.003529135093710927,-0.024075560762947597,6.637456559558985e-05,0.009549866123988114,0.009235310487756814, ,0.027642336330338215, ,0.009549673282738789, ,0.0007541929009544693, ,0.19592573301907582,-0.2177578988545085,0.10406227233000001,1.6120962855090233,0.22954931960593997,-1.3044655645927388, ,0.0962443626353659,0.09331066033281296,0.024811232897196264,-0.007180097310639194,0.10908981427162853,-0.09319135754576763, ,1.758876085281372
0.01659961010596737,0.02107550292633399,-0.093838476353251, ,0.017243139054782284,0.02062057357341906,-0.09450589601595538, ,0.0010327338622660026, ,0.013982794273613045,-0.003258580495497619,-0.025828722865620244,-0.03801356607698255,-0.03459151528382941,0.0002636718515050822, ,0.029550969652666854, ,0.05139642633851117, ,0.0007559447308998249, ,0.1968679064297312,-0.21682344817672733,0.10431634517,1.6120962855090233,0.23036913860453262,-1.3052974294951984, ,0.09693252457453604,0.09414379122864167,0.026636808561872914,-0.006833935542927426,0.06483318184831252,-0.05575851236793454, ,1.7624759674072266
0.01659961010596737,0.02107550292633399,-0.093838476353251, ,0.017297831451108657,0.020604395416125153,-0.09459967947161074, ,0.0011352909408546654, ,0.013982794273613045,-0.003258580495497619,-0.025828722865620244,-0.03801356607698255,-0.03459151528382941,0.0002636718515050822, ,0.029550969652666854, ,0.05139642633851117, ,0.0007583156447120426, ,0.1968679064297312,-0.21682344817672733,0.10431634517,1.6120962855090233,0.23036913860453262,-1.3052974294951984, ,0.09693252457453604,0.09414379122864167,0.026636808561872914,-0.006833935542927426,0.06483318184831252,-0.05575851236793454, ,1.7660579681396484
0.01659961010596737,0.02107550292633399,-0.093838476353251, ,0.01735257462403827,0.020588149159909874,-0.09469342598853114, ,0.00123911586947596, ,0.014437231938073926,-0.002615216726540479,-0.028621258283406132,-0.013526992800215805,-0.008965359205458096,0.0048978951108106595, ,0.03216285824185971, ,0.016227692183552786, ,0.0007613019815118186, ,0.1968679064297312,-0.21682344817672733,0.10431634517,1.6120962855090233,0.23036913860453262,-1.3052974294951984, ,0.09693252457453604,0.09414379122864167,0.026636808561872914,-0.006833935542927426,0.06483318184831252,-0.05575851236793454, ,1.7696559429168701
0.016744370474968153,0.021046104132417375,-0.09411835083500343, ,0.017407367650948944,0.020571837726419816,-0.09478713471402134, ,0.001054403033024177, ,0.014437231938073926,-0.002615216726540479,-0.028621258283406132,-0.013526992800215805,-0.008965359205458096,0.0048978951108106595, ,0.03216285824185971, ,0.016227692183552786, ,0.0007631112472618948, ,0.19785641623763195,-0.2158658293003235,0.10460541784,1.6120962855090233,0.23118895760312522,-1.3062109731377984, ,0.09773114475640657,0.09349452370292687,0.02960745635687733,-0.006512945509566515,0.09158084369855603,-0.07959672681042654, ,1.7736830711364746
