NicholasDascanio/dvrk_moveit_final/test/execution/third_experiment_notsharpbends/thirdexp_300vel3.0/thirdexp_300vel3.0_16.csv
Current Position (x),Current Position (y),Current Position (z), ,Planned Position (x),Planned Position (y),Planned Position (z), ,Position Error,,Cartesian linear Velocity(x),Cartesian linear Velocity(y),Cartesian linear Velocity(z),Cartesian Angular Velocity(x),Cartesian Angular Velocity(y),Cartesian Angular Velocity(z), ,Total Linear Velocity, ,Total Angular Velocity, ,MSE, ,Joint 1 Position,Joint 2 Position,Joint 3 Position,Joint 4 Position,Joint 5 Position,Joint 6 Position, ,Joint 1 Velocity,Joint 2 Velocity,Joint 3 Velocity,Joint 4 Velocity,Joint 5 Velocity,Joint 6 Velocity, ,Time Stamp
0.010466741475924402,0.01923333035963108,-0.08015699240442294, ,0.010619047576323827,0.01919457998612633,-0.08017012258827654, ,0.0001577058698770172, ,0.0011208655713979062,0.00018507981672623668,-0.0004098651392186707,0.12612221689413172,-0.11563192521605899,-0.03358548639747191, ,0.0012077183446695312, ,0.17110685469455233, ,1.3142155823084766e-05, ,0.15206061029348059,-0.2328867325551143,0.08975382331000001,1.6053862073175185,0.19880610715871586,-1.282336970906104, ,-0.0003824854203977979,-0.0010306318352234854,0.00038578431816275083,-0.0006238152330148033,-0.12077890675053926,-0.12526632414501027, ,0.03530097007751465
0.010506216136505115,0.019245177730350036,-0.08017341970223493, ,0.010627802824876319,0.019267730215348937,-0.08024589253969541, ,0.00014333265342647848, ,0.0008502322922171501,0.0005934501589796244,-0.0011369675965091678,0.1637558435238691,-0.07484327123758297,-0.02455200904208896, ,0.0015387570820092444, ,0.18004858104898916, ,1.3683569241067987e-05, ,0.15204516482773214,-0.232979405349605,0.08977067508000001,1.6053862073175185,0.1945703756659872,-1.2864791387245873, ,-0.0004785933697477892,-0.0037734917930088564,0.0012174577788599302,-0.0006238152330148033,-0.07922722645328513,-0.1602316111284099, ,0.07243990898132324
0.0105435489771961,0.019274246111449626,-0.08020376607548863, ,0.010637059693107095,0.019339817114558542,-0.0803219170367155, ,0.0001643272955954989, ,0.0005117030476536437,0.0008577991516467063,-0.0009421176033155361,-0.14398354248783782,-0.03739547886619676,-0.00041997840743694605, ,0.0013730422324243511, ,0.14876048651096307, ,1.4542681840593581e-05, ,0.15203744209485792,-0.23323425553445443,0.08980567491000001,1.6053862073175185,0.1908811901723203,-1.2899234757958884, ,0.0005033585134544822,-0.007383365119112582,0.0011169520388639006,-0.0006238152330148033,-0.03610984038099822,0.15135858418746848, ,0.10885286331176758
0.01054420059354379,0.019317907621230788,-0.0802561503016272, ,0.010646815044041403,0.0194108480995446,-0.0803981940988515, ,0.00019835346805646638, ,-0.00012305163246105347,0.0013387073094654287,-0.0016364715734132086,0.021989827298299267,0.036746242479834816,0.010541316325929105, ,0.0021178569770541637, ,0.04282334457961111, ,1.5802840165606213e-05, ,0.15205288756060636,-0.23359722397954297,0.08986789683000002,1.6053862073175185,0.1918376456706784,-1.2860477129337515, ,-0.0004441479305773206,-0.01107655971254668,0.0019316399770054897,-0.0006238152330148033,0.03735879441026039,-0.01117583913079976, ,0.1491248607635498
0.010554710278566828,0.019377309026977013,-0.08033700008010491, ,0.010657065751570598,0.01948083056181054,-0.08047472175022775, ,0.00020040112137794752, ,0.0002846643729238423,0.0015512123906064644,-0.0019548502795114593,0.020807401888613037,0.0005883730070368829,0.00026320082268706544, ,0.002511719192363903, ,0.020815718967192066, ,1.6617700160257856e-05, ,0.15204516482773214,-0.23406831068487066,0.08996122971,1.605176517374034,0.19197428217044385,-1.286322488317729, ,-0.0001825601269065051,-0.012585801267701695,0.0022823916778908155,0.0013466811142521028,0.0,-0.008176348590004621, ,0.18716096878051758
0.0105632468451327,0.019426899998932073,-0.0803926732518261, ,0.010667808700436347,0.01954977186860728,-0.08055149801957498, ,0.00022639784626296154, ,0.00030453636382387424,0.0016262521477242563,-0.0018002126956115267,0.014185929495050162,0.000491712838792727,-0.0013804022423808174, ,0.0024450366447785078, ,0.014194448814077314, ,1.7589004106393066e-05, ,0.1520297193619837,-0.23447761552720456,0.09002734050000001,1.6058055872044876,0.1918376456706784,-1.2863744278943137, ,0.00034743602094862463,-0.01381323749031598,0.002153706262844781,0.0036117512143333543,0.0,0.0, ,0.2236030101776123
0.010574380868914745,0.01949352579200832,-0.0804611206152415, ,0.010679040786214601,0.019617679362967107,-0.08062852094022874, ,0.00023321808737073897, ,0.0003121198717810822,0.0017032247053196067,-0.0019459879772462086,0.015369286926632638,-0.003091817371291601,0.014239024205724059, ,0.002604853627127346, ,0.01567719092384459, ,1.8385226971765402e-05, ,0.15203744209485792,-0.2350568204927714,0.09011030306000001,1.6060152771479719,0.1918376456706784,-1.2856393192330486, ,0.00017944904707236362,-0.014613018410605293,0.002313888948285881,-0.01263388377889021,0.0,-0.0027884015149034717, ,0.26032495498657227
0.010586259843074885,0.01955080263428611,-0.08053036642054472, ,0.010690758915299674,0.019684560363736912,-0.08070578855012507, ,0.00024409856580935284, ,0.0003144727897650347,0.0019080833348325914,-0.0023375291801260097,-0.021047566597978313,-0.002330556490443476,0.014081485414299053, ,0.0030337629795534524, ,0.021176202520322002, ,1.935598651575879e-05, ,0.15205288756060636,-0.2355279071980991,0.09019196933000001,1.6060152771479719,0.1918376456706784,-1.2849858893119241, ,-0.0005243178864860549,-0.015842561195070246,0.0027402049750559097,-0.010593390362002554,0.0,0.03518110390648492, ,0.29241299629211426
0.01059454648935404,0.019604722656934314,-0.08059281404485975, ,0.010702960004888181,0.019750422165611913,-0.0807832988917995, ,0.00026318494275513456, ,0.0002742060262013552,0.0018496887885851804,-0.002140030961633541,0.01159917452545539,0.0013907691438039315,-0.0007019892143491849, ,0.002841877913664313, ,0.011682255280486104, ,2.0344665005906624e-05, ,0.15203744209485792,-0.23598354843767835,0.09026585786,1.6058055872044876,0.1918376456706784,-1.2843324593907997, ,-0.0006556196195157217,-0.015407848929772816,0.0025315975079465993,0.003341463626394927,0.0,0.004126990056268306, ,0.32547688484191895
0.010610031703808006,0.019684188679247504,-0.0806937925673014, ,0.010715640982963093,0.019815272039169635,-0.08086105001238372, ,0.00023729985256547913, ,0.00039564249265451135,0.0020537932222511033,-0.0028140503082688655,0.005061870511531842,0.0003135035126395294,0.0028609542675119694, ,0.003506205743995429, ,0.005071569515592551, ,2.089211821310177e-05, ,0.15203744209485792,-0.23661681253336475,0.09038382025000001,1.6060152771479719,0.1918376456706784,-1.2840874231703778, ,-0.00043168915810295675,-0.015890311714412388,0.0032454791198044015,0.0,0.0,0.010655474371074046, ,0.3576350212097168
0.010620145311602268,0.01973925843866893,-0.08075589626069611, ,0.010728798788277732,0.019879117230903087,-0.08093903996360298, ,0.00025476984843835425, ,0.00031852341425086644,0.0017903726534644149,-0.002078921518297012,0.011247529653199964,-3.855660717734337e-05,0.002399652562806385, ,0.0027620293414331414, ,0.011247595737433731, ,2.1510088440142866e-05, ,0.1520297193619837,-0.23708017650581822,0.09045770878,1.6060152771479719,0.19170100917091293,-1.2837309690462597, ,0.0,-0.014874128770920186,0.002465760297213622,0.0,0.0,0.003458368806820824, ,0.3895139694213867
0.010632478918738114,0.019795281872848413,-0.0808279974248826, ,0.01074243037033964,0.01994196496325431,-0.08101726680177333, ,0.00026349221572735925, ,0.00045890678396711944,0.0018774770825641302,-0.0029027597827961282,-0.006763930796444139,-0.000393370859009737,0.0029031951445370845, ,0.0034873385250851667, ,0.006775359787178404, ,2.210753647233153e-05, ,0.15204516482773214,-0.23751264954677478,0.09054067134,1.6062249670914566,0.19170100917091293,-1.2832408966054163, ,0.00017114966302600495,-0.0134586500579309,0.0032661085749436133,0.0,0.0,0.020139796257328552, ,0.4224700927734375
0.010646139807010633,0.019852815855411134,-0.08091298921843607, ,0.01075653268939468,0.02000382243464818,-0.08109572858779868, ,0.0002615019169508649, ,0.0003622764246761407,0.0018131163881367838,-0.002515859617337483,0.006878231845985494,0.00020592797843890602,0.002387311547218666, ,0.003122208330485941, ,0.006881313795972363, ,2.2603838763600428e-05, ,0.15205288756060636,-0.23794512258773137,0.09063918938000001,1.6062249670914566,0.19170100917091293,-1.2829958603849947, ,-0.00028169594986913354,-0.013847503510648005,0.002898782806187444,0.0,0.0,0.006816080000586677, ,0.4556999206542969
0.01066069723854454,0.019923947921509894,-0.08100817824279756, ,0.010771102716410881,0.020064696819525767,-0.08117442338716903, ,0.0002442070225498607, ,0.0003118921041605991,0.0017346223328370178,-0.002250293686885895,-0.009692832385717248,0.0009890335449382296,-0.0003861656036456578, ,0.0028583234595568746, ,0.009743161034947514, ,2.2905857087137145e-05, ,0.15203744209485792,-0.2384934366218013,0.09074937403000001,1.606434657034941,0.1915643726711475,-1.2822310125601737, ,-0.00040089066155517375,-0.013587763682484362,0.002618578254150913,0.003590896071035076,0.0,0.023675082624272925, ,0.48857593536376953
0.010668060521585913,0.01995984132695278,-0.0810562340441255, ,0.010786137433062485,0.020124595268378172,-0.08125334926995678, ,0.00028273738785941453, ,0.00037068187675857686,0.0018563163692465958,-0.0026073674657952277,0.005189208409550301,0.0010640718371523195,-0.0008020469635167266, ,0.0032220615478568302, ,0.005297181578147154, ,2.360159506729321e-05, ,0.15203744209485792,-0.2387714550052734,0.0908051145,1.606434657034941,0.1915643726711475,-1.2821493338200332, ,-0.00035122644125875225,-0.01396159210805808,0.0029992113575597816,0.0034401140512244984,0.0,0.009126346797343756, ,0.5167689323425293
0.010682470574127313,0.020018820097804937,-0.08114610754898828, ,0.01080163383171372,0.020183524907779686,-0.08133250431081458, ,0.00027581027755824037, ,0.0005564469848567787,0.002034642516458771,-0.0032280057498639625,-0.0007707004117573686,-0.00019834930373649164,-0.00010396668521717864, ,0.0038560892803321716, ,0.0007958148154495895, ,2.4177737564113706e-05, ,0.15204516482773214,-0.23919620531335573,0.09090752141000001,1.606434657034941,0.1915643726711475,-1.2815775826390494, ,0.0007444293666430523,-0.014195503598873716,0.003663480110395585,0.003021513454548395,0.0,0.015261736384155237, ,0.5457499027252197
0.01069754627167309,0.02007767560269513,-0.08123209019157715, ,0.010817588915402925,0.020241492840421257,-0.08141188658897218, ,0.0002712435588287724, ,0.00042708270978199085,0.001875908246082861,-0.0026207670147203772,0.002944354006470448,0.0001622938036299396,-0.002779446084351071, ,0.003251130747011378, ,0.0029488234383360547, ,2.466718195603737e-05, ,0.15205288756060636,-0.2396209556214381,0.09100603945,1.6068540369219102,0.19142773617138206,-1.28105777103465, ,0.00021538191659367076,-0.014027633637615784,0.0030236923917995448,0.0054236486930079476,-0.0008067203323096533,0.0117309364576805, ,0.5752489566802979
0.010710883190764086,0.020133760027769954,-0.08131067577118063, ,0.010833999697826209,0.020298506145144606,-0.08149149418823418, ,0.00027385079413240633, ,0.00035349380081523175,0.0018283659935003024,-0.0025279322396856746,-0.0010838647029079726,-0.0021135736462946984,0.009383698839002273, ,0.0031397964077062987, ,0.002375280225423142, ,2.512534565953502e-05, ,0.1520683330263548,-0.2400379831966462,0.09109677975000001,1.6070637268653947,0.19142773617138206,-1.2808127348142282, ,-0.00048815425155714423,-0.013994534959219995,0.002914162371020857,-0.007146972944038506,-0.0007774846697090571,0.013878659088962996, ,0.6034939289093018
0.010724242642310523,0.020193345701813425,-0.08139397858668661, ,0.010850863203321614,0.020354571876974786,-0.08157132519697645, ,0.0002710691170333173, ,0.00046044342945843577,0.002076899080924693,-0.003049284577618946,0.010684943986166373,-0.0025108069257597674,0.009089478138057498, ,0.0037180175334957785, ,0.01097598192155623, ,2.5525724812432377e-05, ,0.15206061029348059,-0.24048590170335124,0.09119270521,1.6070637268653947,0.19129109967161662,-1.2804562806901103, ,-0.00018420899646420588,-0.015323258769331627,0.0034893343964950713,-0.007146972944038506,-0.0009851878017859393,0.0034134920237855783, ,0.632256031036377
0.01073691345323743,0.02024985948528466,-0.08146869378169273, ,0.010868176466852826,0.020409697067154824,-0.08165137770814472, ,0.0002759555187080191, ,0.0004392414462132481,0.0018767186699269395,-0.002376903219514417,0.0009290995816265399,-0.002828138398028914,-0.001487405961953714, ,0.003060175636962991, ,0.002976842749477433, ,2.5917799786249644e-05, ,0.15206061029348059,-0.24092609747718202,0.09127955664000001,1.6068540369219102,0.1911544631718512,-1.2798547903455704, ,0.0005641368935598831,-0.014664957743543622,0.002788657478991597,0.0037082187236935856,-0.0030850047193743475,0.014126997100651177, ,0.6607270240783691
0.010750324752810878,0.020309019639630943,-0.08155184157596762, ,0.01088593653399311,0.02046388872317799,-0.08173164981925038, ,0.0002733239700182759, ,0.0005552341801197758,0.0019596071613821983,-0.0029573744587236502,0.00230477822605675,-0.0016951820270632552,-0.007424787679409669, ,0.0035908785708827135, ,0.0028610565443491815, ,2.626325304137152e-05, ,0.1520683330263548,-0.2413585705181386,0.0913754821,1.6072734168088794,0.1911544631718512,-1.2796914328652893, ,0.0008836249687083597,-0.013795165221466898,0.0033826314546612874,0.009697592822175203,-0.0030850047193743475,0.012770166975614724, ,0.689532995223999
0.010760442752845248,0.02034736228562964,-0.0816136664459412, ,0.010904140460909291,0.02051715382882217,-0.08181213963236836, ,0.0002981103909177084, ,0.0005392921404017647,0.0018869663654328124,-0.0031217635173448463,0.0016476246440875223,-0.001364481063825557,-0.006955445603326352, ,0.0036873954948173243, ,0.002139269792443187, ,2.684036223141247e-05, ,0.15207605575922906,-0.24162114343586225,0.09144548176,1.6072734168088794,0.1911544631718512,-1.279364717904727, ,0.00038916630769358343,-0.012501929021914878,0.0035217359097943846,0.008972218442064965,-0.0030850047193743475,0.012041712731063942, ,0.7144169807434082
0.010778113293743053,0.020406789528346264,-0.08171635944133838, ,0.010922785314345465,0.02056949934418306,-0.08189284525413487, ,0.0002802707973251316, ,0.0006080551217562208,0.0018731268333656444,-0.0033159912190865843,-0.0033455213729010674,-0.0021301487548936295,-0.005313998624871036, ,0.0038566997459003353, ,0.003966112274455211, ,2.7291036678755123e-05, ,0.15209922395785172,-0.24200728007957345,0.09156085157,1.6072734168088794,0.1911544631718512,-1.2788746454638837, ,0.000872875105273645,-0.011773814089140295,0.0037147414925373136,0.007361574203891464,-0.0029357507078643114,0.016082228911655456, ,0.7408699989318848
0.010792270942132096,0.020456238873177136,-0.08180066837519637, ,0.010941868171606941,0.020620932205707484,-0.08197376479574334, ,0.0002818964271725956, ,0.000571088266286218,0.0018813883426914899,-0.0032664768764748037,-0.005853878747917586,-0.0008564600101770568,-0.00384900391569821, ,0.003812562797968031, ,0.0059161997745578055, ,2.771961767130847e-05, ,0.15209922395785172,-0.24233163486029088,0.09165548074,1.6072734168088794,0.19101782667208575,-1.278436512599625, ,0.0006707156016539601,-0.012009545121124458,0.0036668534806629837,0.006333189185131403,-0.0015501343661290209,0.018674338406939134, ,0.7701370716094971
0.010807010934268758,0.020498490727539828,-0.08187569831292099, ,0.010961386120544127,0.02067145932622683,-0.08205489637294254, ,0.00029302180632981284, ,0.0006743313175970095,0.0017621589399900368,-0.0031283891944469825,0.003232178760577242,-0.0037490768610494414,0.0016319063947564114, ,0.0036533198337418485, ,0.004950005712192678, ,2.8171601610261227e-05, ,0.15213783762222285,-0.24259420777801452,0.09173973959000001,1.6074831067523636,0.19101782667208575,-1.2783548338594843, ,0.0021628023360063843,-0.011102953265294348,0.0035186241484426776,0.0,-0.0015501343661290209,0.007750004986108505, ,0.7950558662414551
0.01082117762607544,0.020549012415030682,-0.08195545949743385, ,0.010981336259536338,0.0207210875949909,-0.0821362381060337, ,0.00029654942380267623, ,0.0004914795432527534,0.0017391452660261199,-0.002701962062847962,0.0004506659427168165,-0.002381854018187153,0.0019363591422060463, ,0.003250657992906454, ,0.0024241139024121644, ,2.8611195471017188e-05, ,0.15216100582084552,-0.24294173075735462,0.09183047989000001,1.6074831067523636,0.19101782667208575,-1.2777830826785006, ,0.0007550250812215297,-0.012076475128336827,0.0030798166125290028,0.0,-0.0015501343661290209,0.011497357424576686, ,0.820404052734375
0.010835841390675125,0.020588829075729412,-0.08202570734954585, ,0.011001715697475633,0.020769823877700846,-0.08221778811986738, ,0.00031171850494402583, ,0.0008385099753324731,0.0020555316989683877,-0.003843704138301376,-0.0018854068517104737,-0.002979049008862205,-0.0037457018181022064, ,0.004438735298144174, ,0.003525548348087608, ,2.9089479319287168e-05, ,0.15220734221809087,-0.2431888582093298,0.09190955358000001,1.607692796695848,0.19101782667208575,-1.2776197251982193, ,0.0028040453021038734,-0.01220853487179606,0.00429927436437247,0.006095817430657957,-0.0015319301562365167,0.014863844204668457, ,0.8455159664154053
0.010857913721458947,0.020647568846136628,-0.0821400630183638, ,0.011022521553750692,0.02081767501654297,-0.08229954454384099, ,0.0002854228523272636, ,0.0007228948231423433,0.0019462167042650963,-0.0036711583287190696,0.003807993866793387,-0.0019110978826066345,-0.0033414112653543156, ,0.004217551405710414, ,0.004260646868681906, ,2.943029805717156e-05, ,0.15226140134821042,-0.2435286584557957,0.09203659000000002,1.607692796695848,0.19101782667208575,-1.2772930102376572, ,0.0017492996563303331,-0.011472067403103333,0.004092705940390545,0.005306486243052957,-0.0013949885710899067,0.008320379118102341, ,0.871042013168335
0.010870984811180987,0.02068521929753644,-0.08220835805185284, ,0.011043750958230666,0.020864647830222006,-0.08238150551189548, ,0.0003033525718158727, ,0.0006877723651378357,0.0019297302803611117,-0.0036502707365164717,0.001897911396605149,-0.0015960725453914562,-0.0027995562175203562, ,0.004185853106722496, ,0.0024798214837848504, ,2.994562644527255e-05, ,0.15229229227970734,-0.2437603404420224,0.09211307111000001,1.607692796695848,0.19101782667208575,-1.2770479740172354, ,0.0013747619654196801,-0.011344586829343688,0.004064509191120184,0.004816348246724918,-0.0013164322602589945,0.010033998513394666, ,0.8925008773803711
0.010887015665007388,0.020722954236347325,-0.08227510752307751, ,0.01106540105124892,0.02091074911399463,-0.08246366916251295, ,0.000320380639180471, ,0.0007827493410856242,0.0018993403383087263,-0.003540534300318512,-0.012288934906160504,-0.0037364320592664885,0.001494098275643552, ,0.004093357226461988, ,0.012844409099099098, ,3.0503987082212373e-05, ,0.1523463514098269,-0.24399202242824916,0.09218825593,1.6079024866393328,0.1908811901723203,-1.2764464836726956, ,0.0027376924574914635,-0.011326920692106801,0.00396436324539572,0.0010036468527546102,-0.0010241333476812763,0.02365437003652754, ,0.9143600463867188
0.010904442602636026,0.020762261349759868,-0.08235048349225164, ,0.011087468983586977,0.020955985639702433,-0.08254603363871377, ,0.0003305565253010618, ,0.000728037561921621,0.0019287716013928985,-0.0034527617187096807,-0.0021748776685457695,-0.0029451826580643384,0.00042043685562324565, ,0.004021412944239317, ,0.0036611737560218057, ,3.107581887604101e-05, ,0.15241585600569493,-0.24421598168160166,0.09227251478000001,1.6081121765828172,0.1908811901723203,-1.276364804932555, ,0.0022408316373418577,-0.011888982301985986,0.003880343853836785,0.0018008893953317883,-0.0010241333476812763,0.014204288528577299, ,0.9355158805847168
0.01091813139701216,0.020796541115686375,-0.08241414176601074, ,0.01110995191645819,0.021000364155806344,-0.0826285970880532, ,0.0003526046348484777, ,0.0008720379584700232,0.0018727979217559021,-0.0037237235316848983,-0.002429172701984618,-0.00651679127635187,0.00955009654309337, ,0.004258396317531947, ,0.006954814723603048, ,3.170517388207219e-05, ,0.15246219240294026,-0.2444167727363315,0.09234381073,1.608321866526302,0.1908811901723203,-1.2762831261924146, ,0.0034620667084371,-0.010621720620238096,0.00414596864133264,-0.008025687992896543,-0.0010241333476812763,0.011755489947164915, ,0.9582769870758057
0.010939273098064101,0.02084191634085262,-0.08250095995047936, ,0.011132847021491699,0.021043891387418853,-0.08271135766261942, ,0.0003500456835048184, ,0.0011553973362208782,0.0020725458234555623,-0.0044584889230843356,0.003144347201681495,-0.008475007963096276,0.009331723376207458, ,0.0050505952789879245, ,0.009039506487499257, ,3.229707995693287e-05, ,0.15255486519743097,-0.24467934565405514,0.09244103248,1.608321866526302,0.1908811901723203,-1.2759564112318524, ,0.005478642310515331,-0.01069343003641897,0.004937635313081216,-0.008025687992896543,-0.0010193578883134354,0.0062470172236490686, ,0.9794690608978271
0.010971264692019297,0.02090223309415358,-0.08262433529977307, ,0.011156151480716152,0.021086574036338374,-0.08279431351902994, ,0.0003115402102810283, ,0.0008420279733011624,0.001772569262523139,-0.0031482882636823246,-0.0020352793093975697,-0.006934991163670337,0.008855849870050002, ,0.0037098156139494794, ,0.0072274797819262574, ,3.272373840091632e-05, ,0.15270931985491545,-0.24500370043477257,0.09257843922,1.608321866526302,0.1908811901723203,-1.27562969627129, ,0.004143813034486959,-0.01103772890564412,0.003565087627573859,-0.007212863520679775,-0.0009482840156517479,0.011890769994409758, ,1.001389980316162
0.01098754803903062,0.020936265654876173,-0.08268365137414821, ,0.011179862486543598,0.0211284187810821,-0.08287746281842924, ,0.00033387205119211763, ,0.0009086319742852538,0.0018392052347800329,-0.0032158266604441223,2.762655207200661e-05,-0.004961550327393586,-0.0013328507655626506, ,0.0038144238189219337, ,0.0049616272062413405, ,3.321143209164901e-05, ,0.15279426991653192,-0.24521993695525085,0.09264584630000001,1.6081121765828172,0.1908811901723203,-1.2753029813107277, ,0.004799705827078436,-0.011343533856548356,0.0036550737769619097,0.003463539222660236,-0.0009072463473793329,0.01170584886930012, ,1.0260329246520996
0.01100970521219022,0.020975155993060896,-0.08276004298678308, ,0.011203977241753135,0.0211694322769195,-0.0829608037264854, ,0.00034027895989353516, ,0.001002340288884635,0.001939735770861634,-0.0038935417561178696,0.00024303924869074504,-0.001902466744802741,-0.006647460440535139, ,0.004463958817251223, ,0.001917927761071358, ,3.3818476688984517e-05, ,0.15290238817677107,-0.2454284507428549,0.09273140144000001,1.6085315564697864,0.19074455367255488,-1.275109884666891, ,0.004844647528261239,-0.010401870601492955,0.004346196867667122,0.009288960647393712,0.0008262431132084802,0.011420421817889357, ,1.0443940162658691
0.011031336545072047,0.02101557217574363,-0.08284532916844242, ,0.011228492959474815,0.02120962115590592,-0.08304433441338747, ,0.0003407766804783173, ,0.0011285657621445734,0.0020531852613001563,-0.004346152832668066,0.010674250196995626,-0.00264553931774405,-0.006362188518702017, ,0.0049374360594962455, ,0.010997203917319206, ,3.440643661033176e-05, ,0.15300278370413598,-0.24563696453045897,0.09282603061000001,1.6085315564697864,0.19074455367255488,-1.2749465271866096, ,0.005501653873449939,-0.010358665725406157,0.004825450324144199,0.008528109456072788,0.000815711064283909,0.0008250957361319474, ,1.0629658699035645
0.011054068433155841,0.021059215778566013,-0.08294177852886714, ,0.011253406863173566,0.021248992026915804,-0.08312805305384305, ,0.0003323387319808722, ,0.0012185459353851239,0.002360393393082745,-0.005400520137216263,-0.0028452185774757396,-0.004927713232100677,0.0060311761392351495, ,0.0060184656615478544, ,0.005690133729322284, ,3.494618930032911e-05, ,0.1530954564986267,-0.24584547831806305,0.09293232639000001,1.6087412464132707,0.19074455367255488,-1.274701490966188, ,0.0046372257476919535,-0.011051233441070313,0.005925897142857144,-0.003766196593424565,0.0007826123033906233,0.013222239254016863, ,1.0814878940582275
0.011066194994492901,0.021082463763573655,-0.08299493083675699, ,0.011278716186632638,0.021287551475676122,-0.08321195782707423, ,0.0003665064000670092, ,0.0010868615603507057,0.0021278227545259943,-0.004790380066436293,-0.00027095165951859107,-0.004458737446802951,0.005752868945712621, ,0.005353189601252392, ,0.0044669622674374885, ,3.558120735849256e-05, ,0.15314179289587201,-0.24595359657830218,0.09299065944000001,1.6087412464132707,0.19074455367255488,-1.274538133485907, ,0.00418666084162277,-0.010178581805532343,0.0052657228165289265,-0.003766196593424565,0.0007667051584634625,0.009782184904195409, ,1.09912109375
0.011089592511997929,0.02112582126025052,-0.08309135638612972, ,0.011304418173937705,0.021325306064799713,-0.08329604691681615, ,0.0003575506476383262, ,0.0011712089325570019,0.0020266011710065638,-0.0045723217609796776,-0.006737371473994306,-0.005926263268591894,0.005897566652856296, ,0.005136630116716093, ,0.008972890766572764, ,3.6166368957339025e-05, ,0.15324218842323695,-0.24616211036590624,0.09309695522000001,1.6087412464132707,0.19074455367255488,-1.2742114185253446, ,0.00556442350465675,-0.009595564228029435,0.005042358822412157,-0.003766196593424565,0.00073659749906789,0.015677077049480296, ,1.117400884628296
0.011114015510049492,0.02116698896005649,-0.08317740903862827, ,0.011330510079460539,0.021362262333818688,-0.08338031851131324, ,0.00035520957643373705, ,0.001214555185773692,0.002107511210412012,-0.0044224884056289215,-0.0021375045629090372,-0.003649240831858883,-0.006000092969319538, ,0.00504729150131279, ,0.004229170452183675, ,3.6725271943387234e-05, ,0.15337347488209876,-0.24637834688638452,0.09319288068,1.6085315564697864,0.19074455367255488,-1.274129739785204, ,0.006321996721738745,-0.010632522139969217,0.004923898460587326,0.008730710417528183,0.0007091904529317321,0.01395113099727312, ,1.1357619762420654
0.011140790965144585,0.021212396113209166,-0.08327824447737549, ,0.011356989167842748,0.021398426799218065,-0.08346477080331637, ,0.00034079487856459955, ,0.0013565722528001843,0.0023381691597099763,-0.00537546571144726,0.0060399273889167925,-0.003616889969050647,-0.0059190373886823435, ,0.006016889139034508, ,0.007040071833676192, ,3.722107168738617e-05, ,0.15350476134096058,-0.2465868606739886,0.09330436162000001,1.6089509363567556,0.19074455367255488,-1.273966382304923, ,0.0062407689118048814,-0.010483031708826073,0.005914894734496844,0.008260766194814228,0.0006838648540214696,0.005549892235773628, ,1.153817892074585
0.01115509895333281,0.02123539074708502,-0.08333250848084808, ,0.011383852713979573,0.02143380595446852,-0.0835494019900801, ,0.0003724777468226136, ,0.0014359171814512304,0.0022603889879023284,-0.005230802639694096,0.006823263079762255,-0.004801079151550785,-0.00605163716771022, ,0.0058764370824546126, ,0.00834309751585773, ,3.791762452250477e-05, ,0.1535742659368286,-0.2466872562013535,0.09336399096,1.6089509363567556,0.19074455367255488,-1.2737213460845014, ,0.007426885435200225,-0.00997318536112079,0.00576712944243302,0.008260766194814228,0.0006718919737621773,0.004261950075851872, ,1.1688289642333984
0.011185995406207518,0.021279830195077676,-0.08343437787023229, ,0.011411098003003764,0.021468406270060605,-0.08363421027335996, ,0.0003551972754402247, ,0.0016074004766295892,0.002267780889061091,-0.005044942822061683,0.0017556167204721088,-0.0072825940144643775,-0.005452125549903139, ,0.005760035983475402, ,0.007491219018338717, ,3.85438607605054e-05, ,0.15375188879293578,-0.24688804725608335,0.09347676819,1.6089509363567556,0.19074455367255488,-1.273394631123939, ,0.009755750665384423,-0.010489889075354772,0.005612689048625793,0.007947413875030737,0.0006491678275566176,0.009799467252958775, ,1.1835780143737793
0.011202500254232452,0.021303162815804563,-0.08348938490756368, ,0.011438722330269172,0.021502234193537396,-0.08371919385940908, ,0.0003850226447727852, ,0.0017814084831930556,0.002308895254866768,-0.005620903881697749,-0.008722334251467649,-0.009042540504699222,-0.0047985290082816125, ,0.0063323750622671805, ,0.012563703592594589, ,3.924552398765058e-05, ,0.1538600070531749,-0.24698844278344828,0.09353769382,1.6089509363567556,0.1908811901723203,-1.2734243702874948, ,0.010671554394702283,-0.00927745351787442,0.006197981136186771,0.007303194564611815,3.580045506025066e-05,0.018992022084951644, ,1.1976850032806396
0.01122066964974663,0.021326502798418277,-0.08354708251665723, ,0.011466723001334665,0.02153529614952809,-0.0838043509589759, ,0.00041270324291002, ,0.0017500598458083814,0.002388167255246416,-0.005774668518276891,-0.007269747007283996,-0.008498814586243039,-0.004264602475025244, ,0.006489441331803554, ,0.011183875200473654, ,4.001345535990108e-05, ,0.15396812531341406,-0.24708111557793896,0.09360121203,1.6089509363567556,0.1908811901723203,-1.2732610128072137, ,0.010009576926471855,-0.009741286692289242,0.006361346453674121,0.006774147932008306,3.580045506025066e-05,0.017918674413826243, ,1.2124838829040527
0.011257858472007573,0.021374536287080317,-0.08366336047378248, ,0.01149509733194781,0.02156759853978176,-0.08388967978730076, ,0.00038049407584782053, ,0.0017583956056354338,0.0022356887725476222,-0.005475818706776967,-0.005724717693911696,-0.010170748451330912,-0.0002390191661410641, ,0.0061704821451084415, ,0.011671182965409308, ,4.066758074390173e-05, ,0.15419208456676656,-0.24727418389979458,0.09372954474,1.6091606263002398,0.1908811901723203,-1.2730976553269326, ,0.01062435479752418,-0.008932146464279037,0.006038215132676271,0.0023159981159955488,3.580045506025066e-05,0.014908563658899959, ,1.2279279232025146
0.011298123255739353,0.021421946556390264,-0.08378207238271632, ,0.011523842648028696,0.021599147743200087,-0.08397517856411305, ,0.0003458894360282003, ,0.002033137652102456,0.0022575829168188,-0.005703587445068265,0.00202387442497262,-0.010903722617436638,-0.008267638724014766, ,0.006462293639432451, ,0.011089960710939357, ,4.120488019566887e-05, ,0.15444693475161597,-0.24745180675590173,0.09386047003,1.6093703162437245,0.1908811901723203,-1.2729342978466516, ,0.013382730441188942,-0.008254006449648292,0.0062984624436536185,0.010285060647981244,3.580045506025066e-05,0.007672424742043401, ,1.2425899505615234
0.011317162964638056,0.021442784233648315,-0.08383218697121718, ,0.011552956285653641,0.021629950115871138,-0.08406084551362877, ,0.00037804005967833774, ,0.0019353194148142277,0.0020851348353376166,-0.004830856219274958,-5.041907191332318e-06,-0.011356559818970664,-0.008082172154837128, ,0.005606284003705383, ,0.011356560822347973, ,4.1822910743192525e-05, ,0.1545782212104778,-0.24753675681751822,0.09391621050000001,1.6093703162437245,0.1908811901723203,-1.2727709403663703, ,0.013811227122467002,-0.008791940320990056,0.005405093831014592,0.010285060647981244,3.580045506025066e-05,0.01023607285513466, ,1.2570948600769043
0.011335024311408202,0.02146231163529106,-0.08388257318297358, ,0.011582435591039004,0.021660011991102696,-0.08414667886454702, ,0.0004123706864169278, ,0.0019221642868911758,0.0019768541228899978,-0.005191675959318767,-0.011118019021792378,-0.009597172764620384,-0.007339813396654056, ,0.0058784493733939295, ,0.014687275726669051, ,4.264734164602974e-05, ,0.1547095076693396,-0.24760626141338624,0.09397195097000001,1.6093703162437245,0.19101782667208575,-1.2726373220496452, ,0.013121811609301821,-0.006583880936560788,0.005725669130122214,0.009862556924214082,0.0013369344937599378,0.019113291225997083, ,1.2676589488983154
0.011355539008043886,0.021483783786848606,-0.08393771834281212, ,0.011612277920524846,0.021689339679455476,-0.08423267685004743, ,0.0004417789211334034, ,0.002058800548784087,0.0022476162286808087,-0.005635683038400115,-0.015534100707494315,-0.010596508553771108,-0.0061632999334007565, ,0.006407133658697449, ,0.01880410254799971, ,4.35414638574124e-05, ,0.15484851686107565,-0.24768348874212848,0.09403287660000001,1.6093703162437245,0.19101782667208575,-1.2724739645693641, ,0.013890067558324176,-0.00830579470663871,0.006236809522317934,0.009159752865016918,0.0013369344937599378,0.02513161227521473, ,1.2784669399261475
0.011379086650868543,0.021508780548288736,-0.08400369155189537, ,0.011642480640558797,0.021717939468776447,-0.08431883770778673, ,0.00046091316687379877, ,0.002438574770957068,0.0025891344950138375,-0.007286494037685034,-0.027392180436001938,-0.012256262376825233,-0.005278890855866679, ,0.00810822173525357, ,0.03000912354515569, ,4.4474482996682344e-05, ,0.15500297151856013,-0.24776843880374494,0.09410546884000001,1.6093703162437245,0.19101782667208575,-1.2722289283489423, ,0.015288696883916672,-0.00735902971214469,0.007956449310689312,0.008529210816579012,0.0013369344937599378,0.03596982292500259, ,1.2898728847503662
0.011404208012246874,0.02153626345029976,-0.08408748190939681, ,0.01167304112767979,0.021745817624232524,-0.08440515967989701, ,0.00046594351764563146, ,0.002719930821326971,0.0028543764364514393,-0.008819440018950965,0.0070705366704717785,-0.011808292348525366,-0.006213956173770534, ,0.009660642357609944, ,0.01376329188958992, ,4.540591176042348e-05, ,0.1551574261760446,-0.24783022066673874,0.09419620914000001,1.6093703162437245,0.1911544631718512,-1.2722586675124983, ,0.01582670806512188,-0.005926626012060875,0.009532502405745064,0.007993504841013915,0.002123825792511008,-1.7089207338777737e-05, ,1.3004860877990723
0.01143286956081216,0.021565359731130166,-0.0841773434646621, ,0.011703956768501705,0.0217729803883436,-0.08449164101298152, ,0.00046408787999068944, ,0.002794426148642422,0.0030632619584531028,-0.009131458881568199,0.007748685811130087,-0.012189844435941222,-0.005529037535179219, ,0.010028755288274472, ,0.014444181378074425, ,4.631666216239409e-05, ,0.15532732629927756,-0.24789200252973254,0.09429343089000002,1.6093703162437245,0.1911544631718512,-1.2722586675124983, ,0.0160896815121178,-0.007338506167964714,0.009893671751552797,0.007534644714126136,0.002123825792511008,0.0006323770228089855, ,1.311034917831421
0.011488959476375429,0.02162522338029365,-0.08436467203199942, ,0.011735224959697239,0.021799433981015862,-0.08457827995811217, ,0.00036962733635096263, ,0.0027124195347741136,0.0026312405079171155,-0.008620938914694608,0.009007288912701751,-0.010236870156015756,-0.010657463251099883, ,0.009412822855765638, ,0.013635421391721666, ,4.6952136955407254e-05, ,0.155651681079995,-0.2480001207899717,0.09449565213000001,1.6099993860741781,0.19129109967161662,-1.2722067279359135, ,0.01606788715856261,-0.0038867503573305033,0.009287936746355686,0.012362089181639151,0.0028549657296854753,-0.0033104248181296068, ,1.3236479759216309
0.011515392529862585,0.021650819139147116,-0.08444335765938282, ,0.011766843107981581,0.021825184599575657,-0.08466507477082699, ,0.0003778745619037895, ,0.0027565410860316635,0.0025903201379980792,-0.007749163448153025,0.012590306298031947,-0.010220775225262482,-0.009829089233209666, ,0.008623097548009643, ,0.01621665905606124, ,4.759972753201264e-05, ,0.15582930393610217,-0.24805417992009124,0.09458120727000001,1.6099993860741781,0.19142773617138206,-1.27231814583961, ,0.018383754660687868,-0.005812947314106983,0.008450297888594166,0.012362089181639151,0.005245321384459021,-0.004988595809280561, ,1.3343029022216797
0.011515392529862585,0.021650819139147116,-0.08444335765938282, ,0.011798808630096204,0.02185023841880186,-0.08475202371112675, ,0.00046407700489125073, ,0.0027565410860316635,0.0025903201379980792,-0.007749163448153025,0.012590306298031947,-0.010220775225262482,-0.009829089233209666, ,0.008623097548009643, ,0.01621665905606124, ,4.860211217828227e-05, ,0.15582930393610217,-0.24805417992009124,0.09458120727000001,1.6099993860741781,0.19142773617138206,-1.27231814583961, ,0.018383754660687868,-0.005812947314106983,0.008450297888594166,0.012362089181639151,0.005245321384459021,-0.004988595809280561, ,1.3413879871368408
0.011543122158408362,0.02167612846196924,-0.08452215775264108, ,0.011831118952792562,0.021874601590960507,-0.08483912504347235, ,0.0004720190673734253, ,0.0028280568108870036,0.002431668450275687,-0.008139224422874158,0.00914979817025161,-0.015543929114159088,0.010151738835500275, ,0.008953093933584172, ,0.018036975997712052, ,4.9615125267517034e-05, ,0.15600692679220932,-0.2481005163173366,0.09466676241000001,1.6102090760176624,0.19142773617138206,-1.2722364670994692, ,0.018484016665070272,-0.003368264618283091,0.008795588912203204,-0.008986837995583188,0.005245321384459021,-0.007177669775158657, ,1.3485159873962402
0.011562108508439271,0.021692396513241802,-0.08457860358373921, ,0.011863771512815844,0.021898280245836906,-0.08492637703678134, ,0.000504316422692774, ,0.003010535603362738,0.0024828862331527195,-0.00854126173923132,0.0108303598818892,-0.014172600429849028,0.010741264802481694, ,0.009390484586215494, ,0.0178370191640142, ,5.070406659052171e-05, ,0.15613821325107113,-0.24811596178308504,0.09472768804000001,1.6102090760176624,0.1915643726711475,-1.2723478850031658, ,0.020165095953776194,-0.002736760542990402,0.009223399837869139,-0.008986837995583188,0.008374456080010455,-0.009482911764256625, ,1.3570060729980469
0.011604555664209596,0.021730113699050015,-0.08470326727211902, ,0.011896763756888754,0.021921280490769985,-0.0850137779644255, ,0.0004672763654630363, ,0.003483895058732707,0.0030319619775808627,-0.010262165359797385,0.009837618600494076,-0.014916159968269308,0.011439597942615719, ,0.011253548599689949, ,0.017868140757055725, ,5.168232389608854e-05, ,0.1564162316345432,-0.24817002091320461,0.0948625022,1.6102090760176624,0.19170100917091293,-1.2724593029068623, ,0.022626833943364517,-0.0038257378310926236,0.011077059471488179,-0.008986837995583188,0.010168348182461642,-0.007414683458634262, ,1.3641929626464844
0.011604555664209596,0.021730113699050015,-0.08470326727211902, ,0.011930093141695165,0.021943608410684753,-0.08510132610422794, ,0.0005567813529237326, ,0.003483895058732707,0.0030319619775808627,-0.010262165359797385,0.009837618600494076,-0.014916159968269308,0.011439597942615719, ,0.011253548599689949, ,0.017868140757055725, ,5.2888219388459696e-05, ,0.1564162316345432,-0.24817002091320461,0.0948625022,1.6102090760176624,0.19170100917091293,-1.2724593029068623, ,0.022626833943364517,-0.0038257378310926236,0.011077059471488179,-0.008986837995583188,0.010168348182461642,-0.007414683458634262, ,1.3713428974151611
0.011643117624162426,0.021763926648293304,-0.08482405904728445, ,0.011963757133863974,0.02196527006812651,-0.08518901973846002, ,0.0005258756259755069, ,0.0036860052827545125,0.003328595451793235,-0.012180086494342605,0.010430401016556734,-0.010805038786952367,0.011826655985445782, ,0.01315373291639525, ,0.015018051154576663, ,5.3999592899567064e-05, ,0.15665563635364418,-0.2481931891118273,0.09499213120000001,1.6102090760176624,0.1918376456706784,-1.2725707208105588, ,0.021745403656844818,-0.001697645206540361,0.013024375731807033,-0.008986837995583188,0.01347667865452516,-0.010112405125722382, ,1.3785290718078613
0.011682285995521974,0.02179864143979368,-0.08495262930687594, ,0.011997753209952717,0.021986271503293426,-0.08527685715383791, ,0.0004897430967917814, ,0.0038917771771464823,0.0034767609656012285,-0.012688852380076542,0.014157046848286618,-0.005500259108247793,-0.008586709034433114, ,0.013720086411238843, ,0.015187972109080405, ,5.50041821390214e-05, ,0.15685642740837402,-0.24820863457757575,0.09510750101000001,1.6099993860741781,0.19197428217044385,-1.2726004599741145, ,0.023287593020483624,-0.00144679739417766,0.01352191130730051,0.012659133183756286,0.015022124679983213,-0.010852770287983862, ,1.3891410827636719
0.011722015716560532,0.021833101849086364,-0.08507578241820345, ,0.012032078856431327,0.022006618734070817,-0.08536483664152089, ,0.0004580388674543842, ,0.0038937849958318787,0.0033121517315783198,-0.011918941837351003,0.012048601907077178,-0.004839796956317489,-0.007040802344622244, ,0.012968927681536312, ,0.012984305986572464, ,5.591525675466627e-05, ,0.15711900032609766,-0.2482240800433242,0.09525268549,1.6099993860741781,0.19211091867020927,-1.2725485203975297, ,0.024992610365675735,-0.0014373887688054168,0.01292923012987013,0.011962611949292882,0.01760410999968211,-0.008551453252861404, ,1.3968758583068848
0.011760771662242146,0.021863062623618656,-0.08518806903187953, ,0.01206673156966597,0.022026317756062862,-0.0854529564971068, ,0.0004363817966582648, ,0.004090609873573337,0.0029085306058086883,-0.010504941806298088,0.0030888557419088566,-0.018455741099861183,-0.0014640697733181184, ,0.01164244140102972, ,0.018712436543931142, ,5.676044238786661e-05, ,0.15738929597669551,-0.2482318027761984,0.09538231449000001,1.6102090760176624,0.19224755516997472,-1.2725782595610857, ,0.02883529065890938,-0.0012891932208626859,0.011361491811697575,0.004196722400144223,0.009640087712274368,-0.00117468954910659, ,1.4040069580078125
0.011760771662242146,0.021863062623618656,-0.08518806903187953, ,0.012101708855902647,0.022045374542627928,-0.08554121502063032, ,0.0005236295400421115, ,0.004090609873573337,0.0029085306058086883,-0.010504941806298088,0.0030888557419088566,-0.018455741099861183,-0.0014640697733181184, ,0.01164244140102972, ,0.018712436543931142, ,5.7822900043997126e-05, ,0.15738929597669551,-0.2482318027761984,0.09538231449000001,1.6102090760176624,0.19224755516997472,-1.2725782595610857, ,0.02883529065890938,-0.0012891932208626859,0.011361491811697575,0.004196722400144223,0.009640087712274368,-0.00117468954910659, ,1.4111149311065674
0.011800418330107955,0.021890822234822565,-0.08528864090423594, ,0.012137008231250976,0.02206379504491037,-0.0856296105165596, ,0.000509384561121839, ,0.004183798690443932,0.002891290702728331,-0.010914022269878382,0.00832224946920023,-0.012004381260848336,-0.005215607946761392, ,0.012040748129466247, ,0.01460701375465862, ,5.8837690665218376e-05, ,0.15767503709304181,-0.24823952550907263,0.09549120285000001,1.6104187659611469,0.19238419166974016,-1.2726079987246415, ,0.02972961828272894,0.00018125932184590956,0.011772957516629714,0.009259611863113153,0.015883280123355437,-0.0070883375900864225, ,1.4183690547943115
0.011800418330107955,0.021890822234822565,-0.08528864090423594, ,0.012172627221667927,0.0220815851918749,-0.08571814129379357, ,0.0005995002496828624, ,0.004183798690443932,0.002891290702728331,-0.010914022269878382,0.00832224946920023,-0.012004381260848336,-0.005215607946761392, ,0.012040748129466247, ,0.01460701375465862, ,6.022756870896554e-05, ,0.15767503709304181,-0.24823952550907263,0.09549120285000001,1.6104187659611469,0.19238419166974016,-1.2726079987246415, ,0.02972961828272894,0.00018125932184590956,0.011772957516629714,0.009259611863113153,0.015883280123355437,-0.0070883375900864225, ,1.4221749305725098
0.011845115895774187,0.021921399041327408,-0.0854021861249231, ,0.012208563362941495,0.02209875089033922,-0.08580680566565835, ,0.0005720705485191828, ,0.004363632621253215,0.0029219862049762054,-0.010971448366910634,0.020994128195376584,0.006595204823006981,-0.003019459482981043, ,0.012163550974247712, ,0.022005680774964013, ,6.153998660591481e-05, ,0.1580225600723819,-0.24823952550907263,0.0956143504,1.6106284559046316,0.19279410116903647,-1.2727788949554495, ,0.03394025091504678,0.00021493741267740327,0.011896050425690816,0.012352719258170318,0.038533764751824906,-0.01931062169944888, ,1.4258620738983154
0.011845115895774187,0.021921399041327408,-0.0854021861249231, ,0.012244814200674532,0.022115298025007585,-0.08589560194990507, ,0.0006639387977479937, ,0.004363632621253215,0.0029219862049762054,-0.010971448366910634,0.020994128195376584,0.006595204823006981,-0.003019459482981043, ,0.012163550974247712, ,0.022005680774964013, ,6.30806485269943e-05, ,0.1580225600723819,-0.24823952550907263,0.0956143504,1.6106284559046316,0.19279410116903647,-1.2727788949554495, ,0.03394025091504678,0.00021493741267740327,0.011896050425690816,0.012352719258170318,0.038533764751824906,-0.01931062169944888, ,1.4296519756317139
0.011894083329861617,0.021951904247332357,-0.08552234261962215, ,0.012281377290268446,0.02213123245850441,-0.0859845284687063, ,0.0006291033128059451, ,0.005236196317070354,0.0036213827525916707,-0.013795099404770781,0.015251359273458661,-0.003839807195167935,-0.0045031276699964646, ,0.012163550974247712, ,0.015727287731270558, ,0.00035130051231750995, ,0.15837780578459623,-0.2482240800433242,0.09574397940000001,1.6106284559046316,0.1929307376688019,-1.272890312859146, ,0.03798916795775452,0.000628742858425333,0.01488673973831776,0.012352719258170318,0.03199073085552305,-0.013975216285873069, ,1.4333999156951904
0.011894083329861617,0.021951904247332357,-0.08552234261962215, ,0.012318250196906789,0.022146560031406935,-0.08607358354865371, ,0.0007222707021693403, ,0.005236196317070354,0.0036213827525916707,-0.013795099404770781,0.015251359273458661,-0.003839807195167935,-0.0045031276699964646, ,0.015193318679576781, ,0.015727287731270558, ,0.0003563822957401378, ,0.15837780578459623,-0.2482240800433242,0.09574397940000001,1.6106284559046316,0.1929307376688019,-1.272890312859146, ,0.03798916795775452,0.000628742858425333,0.01488673973831776,0.012352719258170318,0.03199073085552305,-0.013975216285873069, ,1.4369828701019287
0.011894083329861617,0.021951904247332357,-0.08552234261962215, ,0.012355430495539136,0.022161286562279486,-0.08616276552075439, ,0.0008165927096086112, ,0.005236196317070354,0.0036213827525916707,-0.013795099404770781,0.015251359273458661,-0.003839807195167935,-0.0045031276699964646, ,0.015193318679576781, ,0.015727287731270558, ,0.0003626013553870091, ,0.15837780578459623,-0.2482240800433242,0.09574397940000001,1.6106284559046316,0.1929307376688019,-1.272890312859146, ,0.03798916795775452,0.000628742858425333,0.01488673973831776,0.012352719258170318,0.03199073085552305,-0.013975216285873069, ,1.4405720233917236
0.01195230419240761,0.02199575781981328,-0.0856940314236845, ,0.012392915770864682,0.02217541784770618,-0.0862520727204285, ,0.000733366468803036, ,0.006543036654918818,0.005173988497231521,-0.020073624761253323,0.012704850823950392,-0.010510126854708333,-0.0055154586208071505, ,0.02173779880053861, ,0.01648856396493756, ,0.0003675448902325561, ,0.15877166516118169,-0.24820863457757575,0.09592805258,1.6106284559046316,0.19334064716809823,-1.2731428878300948, ,0.04088623074470952,0.00136954931268297,0.021467400970350405,0.012352719258170318,0.028111204066811106,-0.012159124012243514, ,1.4441490173339844
0.01195230419240761,0.02199575781981328,-0.0856940314236845, ,0.012430703617316161,0.022188959662323995,-0.08634150348750622, ,0.0008278967539083167, ,0.006543036654918818,0.005173988497231521,-0.020073624761253323,0.012704850823950392,-0.010510126854708333,-0.0055154586208071505, ,0.02173779880053861, ,0.01648856396493756, ,0.00037360215159671083, ,0.15877166516118169,-0.24820863457757575,0.09592805258,1.6106284559046316,0.19334064716809823,-1.2731428878300948, ,0.04088623074470952,0.00136954931268297,0.021467400970350405,0.012352719258170318,0.028111204066811106,-0.012159124012243514, ,1.4477388858795166
0.01195230419240761,0.02199575781981328,-0.0856940314236845, ,0.012468791639043337,0.022201917758857007,-0.08643105616622425, ,0.0009232912184758384, ,0.006543036654918818,0.005173988497231521,-0.020073624761253323,0.012704850823950392,-0.010510126854708333,-0.0055154586208071505, ,0.02173779880053861, ,0.01648856396493756, ,0.00038074097064708914, ,0.15877166516118169,-0.24820863457757575,0.09592805258,1.6106284559046316,0.19334064716809823,-1.2731428878300948, ,0.04088623074470952,0.00136954931268297,0.021467400970350405,0.012352719258170318,0.028111204066811106,-0.012159124012243514, ,1.4514439105987549
0.012022371871873777,0.022052310237845638,-0.08591750019436771, ,0.012507177449896838,0.02221429786814894,-0.08652072910522388, ,0.000790671587795002, ,0.007492567273818634,0.006401842336255878,-0.02514105327207879,0.04215526603014727,0.01708860522666271,0.0013971165631882349, ,0.027003605486684176, ,0.045487106287597556, ,0.0003859964913797547, ,0.15920413820213827,-0.24818546637895306,0.09616656994000002,1.6106284559046316,0.19375055666739455,-1.2733954628010435, ,0.04562352959541864,0.0023201661738571364,0.026816181010101015,0.012352719258170318,0.06119920577551786,-0.04255610630876802, ,1.4551160335540771
0.012022371871873777,0.022052310237845638,-0.08591750019436771, ,0.012545858673411913,0.022226105699197,-0.0866105206575472, ,0.0008857317066451139, ,0.007492567273818634,0.006401842336255878,-0.02514105327207879,0.04215526603014727,0.01708860522666271,0.0013971165631882349, ,0.027003605486684176, ,0.045487106287597556, ,0.00039232225359830356, ,0.15920413820213827,-0.24818546637895306,0.09616656994000002,1.6106284559046316,0.19375055666739455,-1.2733954628010435, ,0.04562352959541864,0.0023201661738571364,0.026816181010101015,0.012352719258170318,0.06119920577551786,-0.04255610630876802, ,1.4589409828186035
0.012022371871873777,0.022052310237845638,-0.08591750019436771, ,0.01258483294279197,0.022237346939184506,-0.08670042918063388, ,0.0009816205145964404, ,0.007492567273818634,0.006401842336255878,-0.02514105327207879,0.04215526603014727,0.01708860522666271,0.0013971165631882349, ,0.027003605486684176, ,0.045487106287597556, ,0.0003996884818607802, ,0.15920413820213827,-0.24818546637895306,0.09616656994000002,1.6106284559046316,0.19375055666739455,-1.2733954628010435, ,0.04562352959541864,0.0023201661738571364,0.026816181010101015,0.012352719258170318,0.06119920577551786,-0.04255610630876802, ,1.462609052658081
0.012102593065924537,0.02211959828258521,-0.08618920831804588, ,0.012624097900892578,0.022248027253515257,-0.08679045303631953, ,0.000806198799751746, ,0.0085533355690911,0.007005534906867745,-0.028650630163123407,0.025789129751347076,-0.000880932301240264,-0.0013208898760825219, ,0.030709862869001844, ,0.025803797201242734, ,0.00040470712776066866, ,0.15967522490746597,-0.24813912998170773,0.09645564261,1.610838145848116,0.19429710266645633,-1.2737594556756888, ,0.049502838580318606,0.005634013550738905,0.030456618585086043,0.011469043994729824,0.047004886259018615,-0.02958327861330106, ,1.4672389030456543
0.012102593065924537,0.02211959828258521,-0.08618920831804588, ,0.012663651200204929,0.022258152285845982,-0.08688059059083142, ,0.0009011064803805774, ,0.0085533355690911,0.007005534906867745,-0.028650630163123407,0.025789129751347076,-0.000880932301240264,-0.0013208898760825219, ,0.030709862869001844, ,0.025803797201242734, ,0.00041076077840237487, ,0.15967522490746597,-0.24813912998170773,0.09645564261,1.610838145848116,0.19429710266645633,-1.2737594556756888, ,0.049502838580318606,0.005634013550738905,0.030456618585086043,0.011469043994729824,0.047004886259018615,-0.02958327861330106, ,1.4709229469299316
0.01219762411373543,0.022193126146284818,-0.08649254198356746, ,0.012703490502839612,0.022267727658119844,-0.08697084021478618, ,0.0007001681135129889, ,0.009358247968981942,0.006857904105858053,-0.02846653856748154,0.018381407594069733,-0.016892757214659968,-0.00805106467954926, ,0.030740062976318275, ,0.02496442866756641, ,0.00041424761376515336, ,0.16023898440728435,-0.2480696253858397,0.09677841882,1.6110478357916007,0.19470701216575265,-1.2740120306466372, ,0.05761805801971511,0.007055431143970509,0.030340593371428574,0.016126763914393247,0.037739561612453426,-0.022847939153188546, ,1.4745769500732422
0.01219762411373543,0.022193126146284818,-0.08649254198356746, ,0.012743613480510488,0.02227675897060026,-0.08706120028318685, ,0.0007927616915949158, ,0.009358247968981942,0.006857904105858053,-0.02846653856748154,0.018381407594069733,-0.016892757214659968,-0.00805106467954926, ,0.030740062976318275, ,0.02496442866756641, ,0.0004187537337393172, ,0.16023898440728435,-0.2480696253858397,0.09677841882,1.6110478357916007,0.19470701216575265,-1.2740120306466372, ,0.05761805801971511,0.007055431143970509,0.030340593371428574,0.016126763914393247,0.037739561612453426,-0.022847939153188546, ,1.4782359600067139
0.01219762411373543,0.022193126146284818,-0.08649254198356746, ,0.012784017814518165,0.022285251801903584,-0.08715166917541937, ,0.0008870137337039688, ,0.009358247968981942,0.006857904105858053,-0.02846653856748154,0.018381407594069733,-0.016892757214659968,-0.00805106467954926, ,0.030740062976318275, ,0.02496442866756641, ,0.000424262674915372, ,0.16023898440728435,-0.2480696253858397,0.09677841882,1.6110478357916007,0.19470701216575265,-1.2740120306466372, ,0.05761805801971511,0.007055431143970509,0.030340593371428574,0.016126763914393247,0.037739561612453426,-0.022847939153188546, ,1.4818248748779297
0.012289733158906788,0.0222566556959774,-0.08676213045850005, ,0.01282470119573384,0.022293211709032788,-0.08724224527525015, ,0.0007197481363505428, ,0.009613513743483086,0.006190970334886285,-0.026919784990358707,0.028882867442449448,-0.011288249827290122,0.0002144560420348113, ,0.02924760817760526, ,0.03101016734620133, ,0.00042769855237392043, ,0.16084135757147386,-0.24798467532422322,0.09706619520000001,1.6112575257350852,0.19525355816481438,-1.2743760235212824, ,0.06438055736666945,0.010037091794363408,0.02875236736462094,0.010089750105691105,0.05190407764327532,-0.03721903895483494, ,1.4854209423065186
0.012289733158906788,0.0222566556959774,-0.08676213045850005, ,0.012865661324583052,0.02230064422741095,-0.08733292697082326, ,0.0008120572032789606, ,0.009613513743483086,0.006190970334886285,-0.026919784990358707,0.028882867442449448,-0.011288249827290122,0.0002144560420348113, ,0.02924760817760526, ,0.03101016734620133, ,0.0004321164679015646, ,0.16084135757147386,-0.24798467532422322,0.09706619520000001,1.6112575257350852,0.19525355816481438,-1.2743760235212824, ,0.06438055736666945,0.010037091794363408,0.02875236736462094,0.010089750105691105,0.05190407764327532,-0.03721903895483494, ,1.4890289306640625
0.012289733158906788,0.0222566556959774,-0.08676213045850005, ,0.012906895911029299,0.022307554870913952,-0.08742371265465708, ,0.000906185185758745, ,0.009613513743483086,0.006190970334886285,-0.026919784990358707,0.028882867442449448,-0.011288249827290122,0.0002144560420348113, ,0.02924760817760526, ,0.03101016734620133, ,0.0004375036124226689, ,0.16084135757147386,-0.24798467532422322,0.09706619520000001,1.6112575257350852,0.19525355816481438,-1.2743760235212824, ,0.06438055736666945,0.010037091794363408,0.02875236736462094,0.010089750105691105,0.05190407764327532,-0.03721903895483494, ,1.492661952972412
0.012390948995847358,0.022316056236577817,-0.08702986747867365, ,0.012948402674557777,0.022313949131904393,-0.08751460072364099, ,0.0007387322671810472, ,0.009929672841717755,0.005360175251274607,-0.024660996198774036,0.0425442878564895,-0.0010883766915329774,0.004898682536716687, ,0.02712000396356666, ,0.04255809995541804, ,0.00044088820404916755, ,0.16150551259865717,-0.2478765570639841,0.09733323094000002,1.6112575257350852,0.1959367406636416,-1.2749331130397645, ,0.07299764735266984,0.012813631804194295,0.026548019200000002,0.009346144893573233,0.07207647576513768,-0.05390526944096956, ,1.496330976486206
0.012390948995847358,0.022316056236577817,-0.08702986747867365, ,0.012990179344159126,0.02231983248126487,-0.0876055895790334, ,0.0008309917010442521, ,0.009929672841717755,0.005360175251274607,-0.024660996198774036,0.0425442878564895,-0.0010883766915329774,0.004898682536716687, ,0.02712000396356666, ,0.04255809995541804, ,0.00044522268734911296, ,0.16150551259865717,-0.2478765570639841,0.09733323094000002,1.6112575257350852,0.1959367406636416,-1.2749331130397645, ,0.07299764735266984,0.012813631804194295,0.026548019200000002,0.009346144893573233,0.07207647576513768,-0.05390526944096956, ,1.4998998641967773
0.012489851618353864,0.02236354790581192,-0.08725659126500446, ,0.013032223658313075,0.02232521036843077,-0.08769667762645789, ,0.000699509258008273, ,0.010324049285688957,0.004560848460987506,-0.022332553899384107,0.027133229464697525,-0.023944009510573377,0.0019288567335811412, ,0.025022595708805332, ,0.036187320673482126, ,0.0004480170452684444, ,0.16230867681757652,-0.24772210240649958,0.09759637781000001,1.6112575257350852,0.19648328666270337,-1.2753787846545501, ,0.08028506054016141,0.015301022502172005,0.02406164882175227,0.008224606526123899,0.05568315208179312,-0.040957841229906776, ,1.5035550594329834
0.012489851618353864,0.02236354790581192,-0.08725659126500446, ,0.013074533364972279,0.02233008822142448,-0.08778786327590091, ,0.0007907099625463338, ,0.010324049285688957,0.004560848460987506,-0.022332553899384107,0.027133229464697525,-0.023944009510573377,0.0019288567335811412, ,0.025022595708805332, ,0.036187320673482126, ,0.0004517419682823345, ,0.16230867681757652,-0.24772210240649958,0.09759637781000001,1.6112575257350852,0.19648328666270337,-1.2753787846545501, ,0.08028506054016141,0.015301022502172005,0.02406164882175227,0.008224606526123899,0.05568315208179312,-0.040957841229906776, ,1.5072989463806152
0.012489851618353864,0.02236354790581192,-0.08725659126500446, ,0.013117106221545848,0.02233447144688765,-0.08787914494170826, ,0.0008842323552474932, ,0.010324049285688957,0.004560848460987506,-0.022332553899384107,0.027133229464697525,-0.023944009510573377,0.0019288567335811412, ,0.025022595708805332, ,0.036187320673482126, ,0.000456392402550777, ,0.16230867681757652,-0.24772210240649958,0.09759637781000001,1.6112575257350852,0.19648328666270337,-1.2753787846545501, ,0.08028506054016141,0.015301022502172005,0.02406164882175227,0.008224606526123899,0.05568315208179312,-0.040957841229906776, ,1.5108630657196045
0.012596471547814108,0.022407605110147964,-0.08748167891855718, ,0.013159939994883157,0.022338365430115633,-0.08797052104258234, ,0.0007491711729336696, ,0.01086748432928915,0.0042911035719373665,-0.02274399315530771,0.022040904327957047,-0.0318820069989996,0.0058739067158949665, ,0.025569611067850113, ,0.03875896990188912, ,0.0004595070703208078, ,0.16314273196799275,-0.24754447955039244,0.09783878404000002,1.6114672156785694,0.19702983266176513,-1.2756610987890546, ,0.0849569754328297,0.019291917373139008,0.0244682204608295,0.002902709884185349,0.053664473721745744,-0.04063126490532841, ,1.5144500732421875
0.012596471547814108,0.022407605110147964,-0.08748167891855718, ,0.013203032461257605,0.02234177553508985,-0.08806199000157923, ,0.0008420276882311908, ,0.01086748432928915,0.0042911035719373665,-0.02274399315530771,0.022040904327957047,-0.0318820069989996,0.0058739067158949665, ,0.025569611067850113, ,0.03875896990188912, ,0.00046353360314091706, ,0.16314273196799275,-0.24754447955039244,0.09783878404000002,1.6114672156785694,0.19702983266176513,-1.2756610987890546, ,0.0849569754328297,0.019291917373139008,0.0244682204608295,0.002902709884185349,0.053664473721745744,-0.04063126490532841, ,1.518078088760376
0.012596471547814108,0.022407605110147964,-0.08748167891855718, ,0.013246381406350196,0.022344707104511623,-0.0881535502461061, ,0.0009368831646036659, ,0.01086748432928915,0.0042911035719373665,-0.02274399315530771,0.022040904327957047,-0.0318820069989996,0.0058739067158949665, ,0.025569611067850113, ,0.03875896990188912, ,0.00046846432773948733, ,0.16314273196799275,-0.24754447955039244,0.09783878404000002,1.6114672156785694,0.19702983266176513,-1.2756610987890546, ,0.0849569754328297,0.019291917373139008,0.0244682204608295,0.002902709884185349,0.053664473721745744,-0.04063126490532841, ,1.5217649936676025
0.012692760409500698,0.022445744922744523,-0.0876903374922519, ,0.01328998462523334,0.022347165459835467,-0.0882452002079172, ,0.0008211378127941574, ,0.010677193909824561,0.00394500444894633,-0.022955759429803695,0.04737432325195272,0.0044324705476145605,-0.004886864368627873, ,0.025622888613293045, ,0.047581161440815284, ,0.0004721001368637623, ,0.16391500525541522,-0.24735141122853682,0.09806304221,1.6116769056220543,0.19784965166035778,-1.2763296062112333, ,0.08533897622164638,0.023837463340484998,0.024619492302936634,0.020860868170175885,0.08674750157193979,-0.0676082558069298, ,1.5281269550323486
0.012692760409500698,0.022445744922744523,-0.0876903374922519, ,0.013333839922354577,0.02234915590130235,-0.08833693832311214, ,0.0009156445900748137, ,0.010677193909824561,0.00394500444894633,-0.022955759429803695,0.04737432325195272,0.0044324705476145605,-0.004886864368627873, ,0.025622888613293045, ,0.047581161440815284, ,0.0004766261006720384, ,0.16391500525541522,-0.24735141122853682,0.09806304221,1.6116769056220543,0.19784965166035778,-1.2763296062112333, ,0.08533897622164638,0.023837463340484998,0.024619492302936634,0.020860868170175885,0.08674750157193979,-0.0676082558069298, ,1.5319240093231201
0.012812206161464695,0.02248277087695532,-0.08793255859916622, ,0.013377945111520127,0.02235068370797268,-0.08842876303213199, ,0.0007640199075381103, ,0.010873768283572777,0.003145287504279344,-0.021496871432759967,0.02201420056785991,-0.023349170877110737,-0.004585670859636656, ,0.024295002604774928, ,0.03209056273451975, ,0.0004795290684181603, ,0.16486490139894483,-0.24705022464644205,0.09832230021,1.6118865955655386,0.19853283415918496,-1.2768866957297154, ,0.08722145363830036,0.028176051531612463,0.023018513757225436,0.014127288293428016,0.06191113670325195,-0.04756963591356718, ,1.5355920791625977
0.012812206161464695,0.02248277087695532,-0.08793255859916622, ,0.013422298015878818,0.02235175413776038,-0.08852067277975668, ,0.0008574705512047199, ,0.010873768283572777,0.003145287504279344,-0.021496871432759967,0.02201420056785991,-0.023349170877110737,-0.004585670859636656, ,0.024295002604774928, ,0.03209056273451975, ,0.0004833084832460259, ,0.16486490139894483,-0.24705022464644205,0.09832230021,1.6118865955655386,0.19853283415918496,-1.2768866957297154, ,0.08722145363830036,0.028176051531612463,0.023018513757225436,0.014127288293428016,0.06191113670325195,-0.04756963591356718, ,1.53922700881958
0.012812206161464695,0.02248277087695532,-0.08793255859916622, ,0.013466896467905663,0.022352372427465485,-0.0886126660151022, ,0.0009529791446764384, ,0.010873768283572777,0.003145287504279344,-0.021496871432759967,0.02201420056785991,-0.023349170877110737,-0.004585670859636656, ,0.024295002604774928, ,0.03209056273451975, ,0.0004879586878146438, ,0.16486490139894483,-0.24705022464644205,0.09832230021,1.6118865955655386,0.19853283415918496,-1.2768866957297154, ,0.08722145363830036,0.028176051531612463,0.023018513757225436,0.014127288293428016,0.06191113670325195,-0.04756963591356718, ,1.5428199768066406
0.012924098749410327,0.022511315315400283,-0.08814846967346353, ,0.013511738309385471,0.022352543792807947,-0.0887047411916173, ,0.0008246009039184748, ,0.011500984887760102,0.00260234070486377,-0.0218500999860127,-0.004906955111523173,-0.0540565847366318,0.01844742608619619, ,0.02482884813944113, ,0.054278794951819684, ,0.0004912591016980148, ,0.16576073841235486,-0.24673359259859887,0.09855303983000001,1.6120962855090233,0.19907938015824675,-1.2772506886043606, ,0.09107192088144989,0.03429596731422869,0.02328773614035088,-0.015601611853177244,0.04184323779461075,-0.03141938561733466, ,1.5463600158691406
0.012924098749410327,0.022511315315400283,-0.08814846967346353, ,0.01355682139139679,0.02235227342846046,-0.08879689676708043, ,0.0009198314841427029, ,0.011500984887760102,0.00260234070486377,-0.0218500999860127,-0.004906955111523173,-0.0540565847366318,0.01844742608619619, ,0.02482884813944113, ,0.054278794951819684, ,0.0004954199986149534, ,0.16576073841235486,-0.24673359259859887,0.09855303983000001,1.6120962855090233,0.19907938015824675,-1.2772506886043606, ,0.09107192088144989,0.03429596731422869,0.02328773614035088,-0.015601611853177244,0.04184323779461075,-0.03141938561733466, ,1.5498878955841064
0.013043219973774903,0.022536092855402527,-0.08837071471351578, ,0.013602143574295424,0.022351566508082323,-0.0888891312035976, ,0.00078434764056693, ,0.012335724518603599,0.002268428785229754,-0.022620687007795823,0.020307702008110405,-0.028027933224285234,0.025683635525508106, ,0.02586525370564147, ,0.03461158590485979, ,0.0004981981490183379, ,0.16673380275450717,-0.24636290142063608,0.09879026090000001,1.6120962855090233,0.19976256265707393,-1.2778077781228427, ,0.10214956034281031,0.04012555668434282,0.024134562909090912,-0.015601611853177244,0.07983213393957145,-0.06241134876994121, ,1.5538330078125
0.013043219973774903,0.022536092855402527,-0.08837071471351578, ,0.01364770272769821,0.022350428184352362,-0.08898144296759829, ,0.0008791244338553801, ,0.012335724518603599,0.002268428785229754,-0.022620687007795823,0.020307702008110405,-0.028027933224285234,0.025683635525508106, ,0.02586525370564147, ,0.03461158590485979, ,0.0005018260183977382, ,0.16673380275450717,-0.24636290142063608,0.09879026090000001,1.6120962855090233,0.19976256265707393,-1.2778077781228427, ,0.10214956034281031,0.04012555668434282,0.024134562909090912,-0.015601611853177244,0.07983213393957145,-0.06241134876994121, ,1.5575330257415771
0.013043219973774903,0.022536092855402527,-0.08837071471351578, ,0.013693496730466714,0.022348863589002708,-0.08907383052983316, ,0.0009758516842460694, ,0.012335724518603599,0.002268428785229754,-0.022620687007795823,0.020307702008110405,-0.028027933224285234,0.025683635525508106, ,0.02586525370564147, ,0.03461158590485979, ,0.0005062979586415904, ,0.16673380275450717,-0.24636290142063608,0.09879026090000001,1.6120962855090233,0.19976256265707393,-1.2778077781228427, ,0.10214956034281031,0.04012555668434282,0.024134562909090912,-0.015601611853177244,0.07983213393957145,-0.06241134876994121, ,1.5612900257110596
0.013170118183164561,0.022556738258394864,-0.08859792778403416, ,0.013739523470690905,0.02234687783285144,-0.08916629236537107, ,0.0008314457751354, ,0.01297531161682332,0.0019678943044448213,-0.02296689872204616,0.02589946742525071,-0.020480003450011677,-0.004451423227917533, ,0.026452027454542348, ,0.03301827621278047, ,0.0005093367232817194, ,0.16779181715827593,-0.24593815111255374,0.09903266713000002,1.6118865955655386,0.20058238165566658,-1.2784762855450211, ,0.10857773633692308,0.044889754758027804,0.024505863876923082,0.016441910121308728,0.08611716717462324,-0.06755471575484055, ,1.5650599002838135
0.013170118183164561,0.022556738258394864,-0.08859792778403416, ,0.01378578084567287,0.022344476005836344,-0.08925882695359592, ,0.0009278380732624955, ,0.01297531161682332,0.0019678943044448213,-0.02296689872204616,0.02589946742525071,-0.020480003450011677,-0.004451423227917533, ,0.026452027454542348, ,0.03301827621278047, ,0.0005132117357815415, ,0.16779181715827593,-0.24593815111255374,0.09903266713000002,1.6118865955655386,0.20058238165566658,-1.2784762855450211, ,0.10857773633692308,0.044889754758027804,0.024505863876923082,0.016441910121308728,0.08611716717462324,-0.06755471575484055, ,1.5686719417572021
0.013170118183164561,0.022556738258394864,-0.08859792778403416, ,0.01383226676191059,0.022341663177048384,-0.08935143277820357, ,0.0010258985364985224, ,0.01297531161682332,0.0019678943044448213,-0.02296689872204616,0.02589946742525071,-0.020480003450011677,-0.004451423227917533, ,0.026452027454542348, ,0.03301827621278047, ,0.0005179152844119725, ,0.16779181715827593,-0.24593815111255374,0.09903266713000002,1.6118865955655386,0.20058238165566658,-1.2784762855450211, ,0.10857773633692308,0.044889754758027804,0.024505863876923082,0.016441910121308728,0.08611716717462324,-0.06755471575484055, ,1.572403907775879
0.013298197282501293,0.02257237719439508,-0.08882476571443698, ,0.013878979135081475,0.022338444394764536,-0.08944410832719916, ,0.0008806914255359485, ,0.013303947663311612,0.0014675495467663159,-0.023612843649289155,0.01047590194528245,-0.031966132167162445,-0.006738376705311683, ,0.02714249639045981, ,0.03363882855463859, ,0.0005212132493312814, ,0.16885755429491892,-0.24545934167435182,0.09927377707000001,1.6118865955655386,0.20140220065425923,-1.2791447929671995, ,0.10932827368487416,0.051658650821159925,0.025045301132075475,0.015149234107162644,0.07543934918313996,-0.0589953684146513, ,1.5760838985443115
0.013298197282501293,0.02257237719439508,-0.08882476571443698, ,0.013925915890026255,0.02233482468648142,-0.08953685209289425, ,0.0009785340334569524, ,0.013303947663311612,0.0014675495467663159,-0.023612843649289155,0.01047590194528245,-0.031966132167162445,-0.006738376705311683, ,0.02714249639045981, ,0.03363882855463859, ,0.0005253332563954766, ,0.16885755429491892,-0.24545934167435182,0.09927377707000001,1.6118865955655386,0.20140220065425923,-1.2791447929671995, ,0.10932827368487416,0.051658650821159925,0.025045301132075475,0.015149234107162644,0.07543934918313996,-0.0589953684146513, ,1.5797410011291504
0.013298197282501293,0.02257237719439508,-0.08882476571443698, ,0.013973074960732601,0.022330809058948815,-0.08962966257190327, ,0.0010778098142979493, ,0.013303947663311612,0.0014675495467663159,-0.023612843649289155,0.01047590194528245,-0.031966132167162445,-0.006738376705311683, ,0.02714249639045981, ,0.03363882855463859, ,0.0005302660828053202, ,0.16885755429491892,-0.24545934167435182,0.09927377707000001,1.6118865955655386,0.20140220065425923,-1.2791447929671995, ,0.10932827368487416,0.051658650821159925,0.025045301132075475,0.015149234107162644,0.07543934918313996,-0.0589953684146513, ,1.5832359790802002
0.013445735016234832,0.022587707113580394,-0.08909591588834956, ,0.014020454290318729,0.022326402498202332,-0.0897225382651408, ,0.0008895155699125827, ,0.013558404269626576,0.0012506022947402359,-0.025605882600765566,0.002418538820578038,-0.031287573717438316,-0.011859371427692124, ,0.029000957849740522, ,0.03138073599194107, ,0.0005334452818062693, ,0.16996962782880723,-0.24489558217453342,0.09954081281,1.6123059754525078,0.20222201965285186,-1.2798133003893781, ,0.10759290426130474,0.058398117882135864,0.026816181010101015,0.018657452854895763,0.07337898772022851,-0.05748242972982164, ,1.5868048667907715
0.013445735016234832,0.022587707113580394,-0.08909591588834956, ,0.014068051831017269,0.02232160996959732,-0.08981547767781932, ,0.000987853773015942, ,0.013558404269626576,0.0012506022947402359,-0.025605882600765566,0.002418538820578038,-0.031287573717438316,-0.011859371427692124, ,0.029000957849740522, ,0.03138073599194107, ,0.0005374313212028454, ,0.16996962782880723,-0.24489558217453342,0.09954081281,1.6123059754525078,0.20222201965285186,-1.2798133003893781, ,0.10759290426130474,0.058398117882135864,0.026816181010101015,0.018657452854895763,0.07337898772022851,-0.05748242972982164, ,1.5904090404510498
0.01357214177165825,0.022599310831427494,-0.08934021142761134, ,0.014115865544158893,0.022316436417842166,-0.08990847931944501, ,0.0008358121030068072, ,0.013703255786333628,0.0010276831194267859,-0.026150379909945138,0.0038993517979865333,-0.02596626949297776,-0.012852393527700186, ,0.02954111915913314, ,0.026257186956196336, ,0.0005400259366967929, ,0.17103536496545022,-0.24428548627746968,0.09981692258000001,1.6125156653959922,0.20290520215167906,-1.2803703899078602, ,0.10796011553864708,0.06247329924849953,0.02746346813793104,0.02023761904621801,0.07894386380008984,-0.062163874352865425, ,1.5948829650878906
0.01357214177165825,0.022599310831427494,-0.08934021142761134, ,0.014163893400155936,0.022310886767031055,-0.09000154170381584, ,0.000933121731060504, ,0.013703255786333628,0.0010276831194267859,-0.026150379909945138,0.0038993517979865333,-0.02596626949297776,-0.012852393527700186, ,0.02954111915913314, ,0.026257186956196336, ,0.000543414693544756, ,0.17103536496545022,-0.24428548627746968,0.09981692258000001,1.6125156653959922,0.20290520215167906,-1.2803703899078602, ,0.10796011553864708,0.06247329924849953,0.02746346813793104,0.02023761904621801,0.07894386380008984,-0.062163874352865425, ,1.5984470844268799
0.01357214177165825,0.022599310831427494,-0.08934021142761134, ,0.0142121333784863,0.02230496592067806,-0.09009466334901753, ,0.001032194693363579, ,0.013703255786333628,0.0010276831194267859,-0.026150379909945138,0.0038993517979865333,-0.02596626949297776,-0.012852393527700186, ,0.02954111915913314, ,0.026257186956196336, ,0.0005475923003808143, ,0.17103536496545022,-0.24428548627746968,0.09981692258000001,1.6125156653959922,0.20290520215167906,-1.2803703899078602, ,0.10796011553864708,0.06247329924849953,0.02746346813793104,0.02023761904621801,0.07894386380008984,-0.062163874352865425, ,1.6021389961242676
0.013713442347894445,0.022608253365985726,-0.08961608615833024, ,0.014260583467676894,0.022298678761749752,-0.09018784277742217, ,0.000849767893027322, ,0.013705118467069455,0.0006855969210448015,-0.02668906877533592,0.015574089099708983,-0.006902917903418527,-0.009502028377560189, ,0.030010110086921792, ,0.017034934263351894, ,0.0005501531104879881, ,0.17214743849933856,-0.24361360851741215,0.10010599525000001,1.6125156653959922,0.20386165765003716,-1.2811503152337353, ,0.10820631876678537,0.06711240562833859,0.02794528336842106,0.02023761904621801,0.09869853022692889,-0.07840242739384541, ,1.605700969696045
0.013713442347894445,0.022608253365985726,-0.08961608615833024, ,0.014309241665287504,0.02229203015269883,-0.09028107851568343, ,0.0009472004975535433, ,0.013705118467069455,0.0006855969210448015,-0.02668906877533592,0.015574089099708983,-0.006902917903418527,-0.009502028377560189, ,0.030010110086921792, ,0.017034934263351894, ,0.0005534896431524045, ,0.17214743849933856,-0.24361360851741215,0.10010599525000001,1.6125156653959922,0.20386165765003716,-1.2811503152337353, ,0.10820631876678537,0.06711240562833859,0.02794528336842106,0.02023761904621801,0.09869853022692889,-0.07840242739384541, ,1.6092629432678223
0.013713442347894445,0.022608253365985726,-0.08961608615833024, ,0.014358105977894497,0.022285024935497763,-0.09037436909473467, ,0.0010464515400928488, ,0.013705118467069455,0.0006855969210448015,-0.02668906877533592,0.015574089099708983,-0.006902917903418527,-0.009502028377560189, ,0.030010110086921792, ,0.017034934263351894, ,0.0005575976589602416, ,0.17214743849933856,-0.24361360851741215,0.10010599525000001,1.6125156653959922,0.20386165765003716,-1.2811503152337353, ,0.10820631876678537,0.06711240562833859,0.02794528336842106,0.02023761904621801,0.09869853022692889,-0.07840242739384541, ,1.6128320693969727
0.013851268242687233,0.022610413033733574,-0.0898845848909736, ,0.014407174421074424,0.022277667931671557,-0.09046771304978625, ,0.0008716590111480174, ,0.01400832589687671,-0.00015068699558365558,-0.02631117720424702,-0.003602269360852009,-0.023251927680128407,-0.013473058063997076, ,0.029808286547150488, ,0.023529043239951586, ,0.0005601932073254298, ,0.17322862110172998,-0.2428953943601093,0.10038599389000001,1.6125156653959922,0.20481811314839524,-1.2819302405596102, ,0.11008925934857398,0.07448739525782637,0.027416198829604135,0.019627767062180973,0.08403665727632581,-0.06655967809882805, ,1.6164028644561768
0.013851268242687233,0.022610413033733574,-0.0898845848909736, ,0.014456445019387813,0.02226996394233122,-0.09056110892032126, ,0.0009694479239129797, ,0.01400832589687671,-0.00015068699558365558,-0.02631117720424702,-0.003602269360852009,-0.023251927680128407,-0.013473058063997076, ,0.029808286547150488, ,0.023529043239951586, ,0.0005635477541827049, ,0.17322862110172998,-0.2428953943601093,0.10038599389000001,1.6125156653959922,0.20481811314839524,-1.2819302405596102, ,0.11008925934857398,0.07448739525782637,0.027416198829604135,0.019627767062180973,0.08403665727632581,-0.06655967809882805, ,1.6200659275054932
0.013851268242687233,0.022610413033733574,-0.0898845848909736, ,0.014505915806362814,0.022261917748207242,-0.0906545552500939, ,0.0010690494612431618, ,0.01400832589687671,-0.00015068699558365558,-0.02631117720424702,-0.003602269360852009,-0.023251927680128407,-0.013473058063997076, ,0.029808286547150488, ,0.023529043239951586, ,0.0005676575241588062, ,0.17431752643699563,-0.24213084380556105,0.10065562221,1.6125156653959922,0.20563793214698786,-1.2825987479817886, ,0.10734948140098505,0.07810447864894715,0.026070067954173493,0.016592491073634988,0.0880835807477647,-0.06996140505744429, ,1.6242249011993408
0.01399007397252555,0.02260546976629374,-0.09014398333370907, ,0.014555584824478867,0.02225353410968282,-0.09074805058712565, ,0.000899198797108501, ,0.013571772076663569,-0.0008500647737619874,-0.025127248923176262,-0.004253848995176433,-0.017279212406736424,-0.010456278203446828, ,0.028570863582813848, ,0.01779484183604532, ,0.0005703312441019487, ,0.17431752643699563,-0.24213084380556105,0.10065562221,1.6125156653959922,0.20563793214698786,-1.2825987479817886, ,0.10734948140098505,0.07810447864894715,0.026070067954173493,0.016592491073634988,0.0880835807477647,-0.06996140505744429, ,1.6280879974365234
0.01399007397252555,0.02260546976629374,-0.09014398333370907, ,0.014605450125150504,0.0222448177668272,-0.09084159348370316, ,0.0009977061668214131, ,0.013571772076663569,-0.0008500647737619874,-0.025127248923176262,-0.004253848995176433,-0.017279212406736424,-0.010456278203446828, ,0.028570863582813848, ,0.01779484183604532, ,0.0005737502434837045, ,0.17431752643699563,-0.24213084380556105,0.10065562221,1.6125156653959922,0.20563793214698786,-1.2825987479817886, ,0.10734948140098505,0.07810447864894715,0.026070067954173493,0.016592491073634988,0.0880835807477647,-0.06996140505744429, ,1.6321260929107666
0.014119331691177992,0.022590251748507095,-0.09038198915219382, ,0.014655509768710986,0.022235773439428973,-0.09093518249637388, ,0.0008480357766503561, ,0.012536929156447512,-0.002052220696634982,-0.022627717431956917,0.045059685007380904,0.0470215111645268,0.004481376237405001, ,0.025949947950660086, ,0.06512596865402241, ,0.0005759271127945509, ,0.17539098630651284,-0.24131995685376748,0.10090191731,1.6125156653959922,0.2070042971446423,-1.2835495695384718, ,0.10674571603877478,0.08360964013962183,0.02335602862170088,0.01438208612338856,0.15372791372797495,-0.12512620200075136, ,1.6358048915863037
0.014119331691177992,0.022590251748507095,-0.09038198915219382, ,0.014705761824395947,0.02222640582702935,-0.09102881618594469, ,0.0009458696354746578, ,0.012536929156447512,-0.002052220696634982,-0.022627717431956917,0.045059685007380904,0.0470215111645268,0.004481376237405001, ,0.025949947950660086, ,0.06512596865402241, ,0.0005788400460440006, ,0.17539098630651284,-0.24131995685376748,0.10090191731,1.6125156653959922,0.2070042971446423,-1.2835495695384718, ,0.10674571603877478,0.08360964013962183,0.02335602862170088,0.01438208612338856,0.15372791372797495,-0.12512620200075136, ,1.6395509243011475
0.014119331691177992,0.022590251748507095,-0.09038198915219382, ,0.014756204370327137,0.022216719608955392,-0.09112249311747771, ,0.0010456955538424358, ,0.012536929156447512,-0.002052220696634982,-0.022627717431956917,0.045059685007380904,0.0470215111645268,0.004481376237405001, ,0.025949947950660086, ,0.06512596865402241, ,0.0005824873546986758, ,0.17539098630651284,-0.24131995685376748,0.10090191731,1.6125156653959922,0.2070042971446423,-1.2835495695384718, ,0.10674571603877478,0.08360964013962183,0.02335602862170088,0.01438208612338856,0.15372791372797495,-0.12512620200075136, ,1.6432390213012695
0.014249186769122513,0.02256615830121255,-0.09061088796481054, ,0.014806835493496255,0.02220671944435378,-0.09121621186028815, ,0.0008981010021438543, ,0.012675748809922558,-0.002526476640417859,-0.021914883496506707,0.00655332807020389,0.007700626364093422,0.0050484453751649646, ,0.025442480436708454, ,0.01011141436644259, ,0.0005849339721207315, ,0.17649533710752693,-0.24043956530610588,0.10113784209000001,1.612725355339477,0.20850729864206213,-1.2848568452192728, ,0.10520725228211839,0.08603530513007324,0.02253014359264498,0.004419812920795649,0.11438604259597304,-0.09061913064036846, ,1.6468160152435303
0.014249186769122513,0.02256615830121255,-0.09061088796481054, ,0.014857653289748366,0.022196409972223413,-0.09130997098794068, ,0.0009978288464168427, ,0.012675748809922558,-0.002526476640417859,-0.021914883496506707,0.00655332807020389,0.007700626364093422,0.0050484453751649646, ,0.025442480436708454, ,0.01011141436644259, ,0.0005881100865383938, ,0.17649533710752693,-0.24043956530610588,0.10113784209000001,1.612725355339477,0.20850729864206213,-1.2848568452192728, ,0.10520725228211839,0.08603530513007324,0.02253014359264498,0.004419812920795649,0.11438604259597304,-0.09061913064036846, ,1.6504030227661133
0.014377974694241657,0.022539489225093644,-0.09083376475455497, ,0.014908655863765859,0.022185795811449346,-0.09140376907824702, ,0.000855351660763312, ,0.01367122199053881,-0.0027968403238626616,-0.023818246316157126,-0.05315293567506236,-0.0523081321105466,-0.009136833121417927, ,0.027604953977301044, ,0.07457457737140079, ,0.000590150098555378, ,0.1775147378469246,-0.2395591737584443,0.10136598913000001,1.612725355339477,0.2091904811408893,-1.2852505772574738, ,0.10579369181546351,0.09331066033281296,0.024355980917431196,0.004419812920795649,0.05365625025372288,-0.03799134979308003, ,1.6544668674468994
0.014377974694241657,0.022539489225093644,-0.09083376475455497, ,0.01495984132905198,0.022174881560835576,-0.09149760471326263, ,0.000955086917677231, ,0.01367122199053881,-0.0027968403238626616,-0.023818246316157126,-0.05315293567506236,-0.0523081321105466,-0.009136833121417927, ,0.027604953977301044, ,0.07457457737140079, ,0.0005929147714275133, ,0.1775147378469246,-0.2395591737584443,0.10136598913000001,1.612725355339477,0.2091904811408893,-1.2852505772574738, ,0.10579369181546351,0.09331066033281296,0.024355980917431196,0.004419812920795649,0.05365625025372288,-0.03799134979308003, ,1.6581449508666992
0.014377974694241657,0.022539489225093644,-0.09083376475455497, ,0.015011207807914647,0.022163671799139254,-0.09159147647928383, ,0.0010565746408534272, ,0.01367122199053881,-0.0027968403238626616,-0.023818246316157126,-0.05315293567506236,-0.0523081321105466,-0.009136833121417927, ,0.027604953977301044, ,0.07457457737140079, ,0.0005964009358592871, ,0.1775147378469246,-0.2395591737584443,0.10136598913000001,1.612725355339477,0.2091904811408893,-1.2852505772574738, ,0.10579369181546351,0.09331066033281296,0.024355980917431196,0.004419812920795649,0.05365625025372288,-0.03799134979308003, ,1.6616909503936768
0.014519183476272547,0.022512922453962008,-0.09108934193991496, ,0.015062753431449997,0.022152171085102652,-0.09168538296684466, ,0.0008836711787135106, ,0.0135977337163468,-0.0023724033771018436,-0.02533118775906278,-0.018941812028662523,-0.011772881085740386,-0.004478027110003917, ,0.028847802919620254, ,0.022302074839467174, ,0.0005985447436417812, ,0.17861136591506446,-0.23859383214916624,0.10162783971000001,1.6129350452829614,0.21001030013948196,-1.2859190846796524, ,0.10532401948775891,0.0924020852565441,0.025985010636215337,0.00839698322998645,0.09364804493411559,-0.07063417707838691, ,1.6652569770812988
0.014519183476272547,0.022512922453962008,-0.09108934193991496, ,0.015114476339526256,0.022140383957487686,-0.09177932277071425, ,0.0009844958462414332, ,0.0135977337163468,-0.0023724033771018436,-0.02533118775906278,-0.018941812028662523,-0.011772881085740386,-0.004478027110003917, ,0.028847802919620254, ,0.022302074839467174, ,0.000601403640698075, ,0.17861136591506446,-0.23859383214916624,0.10162783971000001,1.6129350452829614,0.21001030013948196,-1.2859190846796524, ,0.10532401948775891,0.0924020852565441,0.025985010636215337,0.00839698322998645,0.09364804493411559,-0.07063417707838691, ,1.6688408851623535
0.014519183476272547,0.022512922453962008,-0.09108934193991496, ,0.015166374680767246,0.02212831493510835,-0.09187329448989373, ,0.0010869043193180758, ,0.0135977337163468,-0.0023724033771018436,-0.02533118775906278,-0.018941812028662523,-0.011772881085740386,-0.004478027110003917, ,0.028847802919620254, ,0.022302074839467174, ,0.0006049734986291043, ,0.17861136591506446,-0.23859383214916624,0.10162783971000001,1.6129350452829614,0.21001030013948196,-1.2859190846796524, ,0.10532401948775891,0.0924020852565441,0.025985010636215337,0.00839698322998645,0.09364804493411559,-0.07063417707838691, ,1.6724638938903809
0.014533597006962424,0.022510083428629542,-0.09111586947591854, ,0.01521844661253642,0.022115968516865113,-0.09196729672761329, ,0.0011615825028203617, ,0.013559709480409441,-0.0023899691931098094,-0.025670116403817306,-0.0074264528076764084,0.0028768667682824833,-0.0014430341410652191, ,0.029129582045107513, ,0.007963505333074269, ,0.000609036338075756, ,0.17872720690817784,-0.2384934366218013,0.10165506180000002,1.6129350452829614,0.2101469366392474,-1.286030502583349, ,0.10567588146823026,0.09340250153392793,0.02632861408264463,0.00839698322998645,0.10897890870794362,-0.08314829832215923, ,1.676285982131958
0.014533597006962424,0.022510083428629542,-0.09111586947591854, ,0.015270690300920067,0.022103349181776918,-0.09206132809132898, ,0.0012659507356188576, ,0.013559709480409441,-0.0023899691931098094,-0.025670116403817306,-0.0074264528076764084,0.0028768667682824833,-0.0014430341410652191, ,0.029129582045107513, ,0.007963505333074269, ,0.0006137965873333146, ,0.17872720690817784,-0.2384934366218013,0.10165506180000002,1.6129350452829614,0.2101469366392474,-1.286030502583349, ,0.10567588146823026,0.09340250153392793,0.02632861408264463,0.00839698322998645,0.10897890870794362,-0.08314829832215923, ,1.6801090240478516
0.014533597006962424,0.022510083428629542,-0.09111586947591854, ,0.015323103920711328,0.02209046138901518,-0.0921553871927197, ,0.0013711312506579888, ,0.013559709480409441,-0.0023899691931098094,-0.025670116403817306,-0.0074264528076764084,0.0028768667682824833,-0.0014430341410652191, ,0.029129582045107513, ,0.007963505333074269, ,0.0006192450381486001, ,0.17872720690817784,-0.2384934366218013,0.10165506180000002,1.6129350452829614,0.2101469366392474,-1.286030502583349, ,0.10567588146823026,0.09340250153392793,0.02632861408264463,0.00839698322998645,0.10897890870794362,-0.08314829832215923, ,1.6837120056152344
0.014784941994958223,0.022463300183112253,-0.09161324001593785, ,0.015375685655394006,0.022077309577937607,-0.09224947264768489, ,0.0009501361909368191, ,0.013096003235821432,-0.0025095446088390315,-0.025362585100183997,-0.017452339153571663,-0.004870799086518449,-0.003621412960088313, ,0.028654211520481133, ,0.018119004692077705, ,0.0006216085463828016, ,0.18068878105823086,-0.236694039862107,0.10216450377000001,1.6129350452829614,0.21274303013479076,-1.2880657640134405, ,0.09874811816698312,0.09267279449069411,0.025942689771986976,0.007102702219229698,0.09423227056449261,-0.07258341536042685, ,1.6873250007629395
0.014784941994958223,0.022463300183112253,-0.09161324001593785, ,0.015428433697125845,0.02206389816812028,-0.09234358307634047, ,0.0010521428259587667, ,0.013096003235821432,-0.0025095446088390315,-0.025362585100183997,-0.017452339153571663,-0.004870799086518449,-0.003621412960088313, ,0.028654211520481133, ,0.018119004692077705, ,0.0006246619809897234, ,0.18068878105823086,-0.236694039862107,0.10216450377000001,1.6129350452829614,0.21274303013479076,-1.2880657640134405, ,0.09874811816698312,0.09267279449069411,0.025942689771986976,0.007102702219229698,0.09423227056449261,-0.07258341536042685, ,1.6908988952636719
0.014919317196606332,0.02242963004201505,-0.09185755838074303, ,0.015481346246722611,0.022050231559392022,-0.09243771710301715, ,0.0008924147045079494, ,0.01402712145644562,-0.00366998059478427,-0.02603431910465483,-0.04097008698336962,-0.02249712949928592,-0.007769793993274178, ,0.029799574915809885, ,0.0467403134685059, ,0.0006265475635497108, ,0.1817159045305027,-0.23570553005420625,0.10241339145000002,1.6129350452829614,0.21356284913338341,-1.2886525926954784, ,0.10567588146823026,0.10591176513222186,0.026459819800664457,0.006481390939775677,0.08345653069143583,-0.06216248705189551, ,1.6947789192199707
0.014919317196606332,0.02242963004201505,-0.09185755838074303, ,0.015534421513641641,0.02203631413186739,-0.09253187335625652, ,0.0009938568368797022, ,0.01402712145644562,-0.00366998059478427,-0.02603431910465483,-0.04097008698336962,-0.02249712949928592,-0.007769793993274178, ,0.029799574915809885, ,0.0467403134685059, ,0.0006291161598667037, ,0.1817159045305027,-0.23570553005420625,0.10241339145000002,1.6129350452829614,0.21356284913338341,-1.2886525926954784, ,0.10567588146823026,0.10591176513222186,0.026459819800664457,0.006481390939775677,0.08345653069143583,-0.06216248705189551, ,1.698340892791748
0.014919317196606332,0.02242963004201505,-0.09185755838074303, ,0.01558765771596551,0.02202215024597961,-0.0926260504688082, ,0.0010969498272086812, ,0.01402712145644562,-0.00366998059478427,-0.02603431910465483,-0.04097008698336962,-0.02249712949928592,-0.007769793993274178, ,0.029799574915809885, ,0.0467403134685059, ,0.0006323650047788008, ,0.1817159045305027,-0.23570553005420625,0.10241339145000002,1.6129350452829614,0.21356284913338341,-1.2886525926954784, ,0.10567588146823026,0.10591176513222186,0.026459819800664457,0.006481390939775677,0.08345653069143583,-0.06216248705189551, ,1.701880931854248
0.015060006559952625,0.022396162361561056,-0.092132007881722, ,0.015641053080385797,0.022007744242514515,-0.0927202470776274, ,0.000913514666390515, ,0.013406670236316306,-0.0028898579882349097,-0.0265117829514124,0.026926057442343897,0.04182872110815003,0.006701673632443594, ,0.029849032166559368, ,0.04974576747063697, ,0.0006343039679623299, ,0.18279708713289414,-0.2346475156504375,0.10269339009000002,1.6129350452829614,0.21492921413103783,-1.2896850929923018, ,0.10359928117736984,0.09854303380941928,0.027135965110732543,0.0059349775054106735,0.14702883339756626,-0.12298112149999944, ,1.7054920196533203
0.015060006559952625,0.022396162361561056,-0.092132007881722, ,0.015694605842186654,0.021993100442643288,-0.09281446182387111, ,0.0010153415891454838, ,0.013406670236316306,-0.0028898579882349097,-0.0265117829514124,0.026926057442343897,0.04182872110815003,0.006701673632443594, ,0.029849032166559368, ,0.04974576747063697, ,0.0006369138146827625, ,0.18279708713289414,-0.2346475156504375,0.10269339009000002,1.6129350452829614,0.21492921413103783,-1.2896850929923018, ,0.10359928117736984,0.09854303380941928,0.027135965110732543,0.0059349775054106735,0.14702883339756626,-0.12298112149999944, ,1.7092440128326416
0.015060006559952625,0.022396162361561056,-0.092132007881722, ,0.015748314245228694,0.021978223147956447,-0.09290869335289606, ,0.0011187854919560794, ,0.013406670236316306,-0.0028898579882349097,-0.0265117829514124,0.026926057442343897,0.04182872110815003,0.006701673632443594, ,0.029849032166559368, ,0.04974576747063697, ,0.0006401918533036694, ,0.18279708713289414,-0.2346475156504375,0.10269339009000002,1.6129350452829614,0.21492921413103783,-1.2896850929923018, ,0.10359928117736984,0.09854303380941928,0.027135965110732543,0.0059349775054106735,0.14702883339756626,-0.12298112149999944, ,1.7129440307617188
0.015195886403127927,0.02236384305434356,-0.09239163928408367, ,0.015802176541932583,0.021963116640496393,-0.09300294031425495, ,0.0009496622245067153, ,0.013658607302657793,-0.0034287725847807742,-0.025583600173317605,0.03302284025518861,0.04757751352505825,0.008551368412420216, ,0.029203332561790574, ,0.05791473743188165, ,0.0006422828693253116, ,0.18376242874217222,-0.233736233171279,0.10293450003000001,1.6129350452829614,0.21629557912869224,-1.290799272029266, ,0.10771503014582383,0.10095419314730934,0.026155683940886704,0.005523289562232072,0.15764057993012848,-0.13178591391828567, ,1.7166190147399902
0.015195886403127927,0.02236384305434356,-0.09239163928408367, ,0.015856190993262628,0.021947785182791002,-0.09309720136169417, ,0.001052104628635306, ,0.013658607302657793,-0.0034287725847807742,-0.025583600173317605,0.03302284025518861,0.04757751352505825,0.008551368412420216, ,0.029203332561790574, ,0.05791473743188165, ,0.000645033350931419, ,0.18376242874217222,-0.233736233171279,0.10293450003000001,1.6129350452829614,0.21629557912869224,-1.290799272029266, ,0.10771503014582383,0.10095419314730934,0.026155683940886704,0.005523289562232072,0.15764057993012848,-0.13178591391828567, ,1.720318078994751
0.015195886403127927,0.02236384305434356,-0.09239163928408367, ,0.01591035586871067,0.021932233017887316,-0.09319147515314988, ,0.0011560671512783087, ,0.013658607302657793,-0.0034287725847807742,-0.025583600173317605,0.03302284025518861,0.04757751352505825,0.008551368412420216, ,0.029203332561790574, ,0.05791473743188165, ,0.0006484402429337315, ,0.18376242874217222,-0.233736233171279,0.10293450003000001,1.6129350452829614,0.21629557912869224,-1.290799272029266, ,0.10771503014582383,0.10095419314730934,0.026155683940886704,0.005523289562232072,0.15764057993012848,-0.13178591391828567, ,1.724052906036377
0.01532359447117844,0.022335097048911245,-0.09263450410962742, ,0.015964669446279722,0.02191646436938462,-0.09328576035074655, ,0.0010051692074796994, ,0.013964708181153102,-0.0031176337308414116,-0.026618857046717275,0.0077947919902357984,0.018773177499608894,0.002355522073748256, ,0.03022079193432916, ,0.02032677080301096, ,0.0006508026864075458, ,0.18484361134456365,-0.2327245551647556,0.10320801722,1.6129350452829614,0.21766194412634665,-1.2919134510662302, ,0.10603010229996734,0.10020796363090896,0.027275362191780828,0.005126917162022926,0.12609668440346597,-0.10557334691749935, ,1.7286500930786133
0.01532359447117844,0.022335097048911245,-0.09263450410962742, ,0.016019130012467523,0.02190048344146734,-0.09338005562079221, ,0.0011083797782221589, ,0.013964708181153102,-0.0031176337308414116,-0.026618857046717275,0.0077947919902357984,0.018773177499608894,0.002355522073748256, ,0.03022079193432916, ,0.02032677080301096, ,0.0006538130620115894, ,0.18484361134456365,-0.2327245551647556,0.10320801722,1.6129350452829614,0.21766194412634665,-1.2919134510662302, ,0.10603010229996734,0.10020796363090896,0.027275362191780828,0.005126917162022926,0.12609668440346597,-0.10557334691749935, ,1.7322030067443848
0.015473171815056589,0.022298260762946668,-0.09292004915631147, ,0.016073735862250412,0.021884294418938938,-0.09347435963377687, ,0.0009161361329960051, ,0.013995667575346569,-0.003702079069390793,-0.025793284310016568,-0.01682023211800608,-0.005354157203948872,-0.00337993342200481, ,0.029578330172830507, ,0.01765150960574635, ,0.0006555275918873045, ,0.18588618028258394,-0.23169743169248375,0.10348023812000001,1.6129350452829614,0.21889167262423562,-1.2929162121994981, ,0.10462727845476381,0.10337357468243004,0.026503846123128123,0.0047898586506136395,0.10034936281042586,-0.08420806203996503, ,1.735771894454956
0.015473171815056589,0.022298260762946668,-0.09292004915631147, ,0.01612848529906696,0.021867901467254865,-0.09356867106436882, ,0.0010175240858702644, ,0.013995667575346569,-0.003702079069390793,-0.025793284310016568,-0.01682023211800608,-0.005354157203948872,-0.00337993342200481, ,0.029578330172830507, ,0.01765150960574635, ,0.0006578782184716094, ,0.18588618028258394,-0.23169743169248375,0.10348023812000001,1.6129350452829614,0.21889167262423562,-1.2929162121994981, ,0.10462727845476381,0.10337357468243004,0.026503846123128123,0.0047898586506136395,0.10034936281042586,-0.08420806203996503, ,1.739367961883545
0.015473171815056589,0.022298260762946668,-0.09292004915631147, ,0.0161833766348016,0.021851308732556234,-0.09366298859141224, ,0.0011207658130434875, ,0.013995667575346569,-0.003702079069390793,-0.025793284310016568,-0.01682023211800608,-0.005354157203948872,-0.00337993342200481, ,0.029578330172830507, ,0.01765150960574635, ,0.0006608645900494925, ,0.18588618028258394,-0.23169743169248375,0.10348023812000001,1.6129350452829614,0.21889167262423562,-1.2929162121994981, ,0.10462727845476381,0.10337357468243004,0.026503846123128123,0.0047898586506136395,0.10034936281042586,-0.08420806203996503, ,1.7429559230804443
0.015638901871574924,0.022255402793480854,-0.09322432986194196, ,0.01623840818976845,0.021834520341702565,-0.09375731089792311, ,0.000905880040890847, ,0.014054211255208879,-0.0036306564849980954,-0.025812524205305748,-0.008200070271469979,0.0029347401756377157,0.0033026865091060143, ,0.02961399882433296, ,0.00870875382624617, ,0.0006624352019138602, ,0.18720676760407634,-0.23040773530248826,0.10381079207,1.613144735226446,0.22012140112212455,-1.293918973332766, ,0.10567588146823026,0.10214956034281031,0.02641593950248757,0.0,0.11074367865807942,-0.09232752445526138, ,1.7480969429016113
0.015638901871574924,0.022255402793480854,-0.09322432986194196, ,0.016293578292694903,0.02181754040230582,-0.0938516366710879, ,0.0010068954875143905, ,0.014054211255208879,-0.0036306564849980954,-0.025812524205305748,-0.008200070271469979,0.0029347401756377157,0.0033026865091060143, ,0.02961399882433296, ,0.00870875382624617, ,0.0006646292164718253, ,0.18720676760407634,-0.23040773530248826,0.10381079207,1.613144735226446,0.22012140112212455,-1.293918973332766, ,0.10567588146823026,0.10214956034281031,0.02641593950248757,0.0,0.11074367865807942,-0.09232752445526138, ,1.7516839504241943
0.015638901871574924,0.022255402793480854,-0.09322432986194196, ,0.01634888528070533,0.021800373002762868,-0.0939459646022589, ,0.0011099032616014766, ,0.014054211255208879,-0.0036306564849980954,-0.025812524205305748,-0.008200070271469979,0.0029347401756377157,0.0033026865091060143, ,0.02961399882433296, ,0.00870875382624617, ,0.0006674474066308737, ,0.18720676760407634,-0.23040773530248826,0.10381079207,1.613144735226446,0.22012140112212455,-1.293918973332766, ,0.10567588146823026,0.10214956034281031,0.02641593950248757,0.0,0.11074367865807942,-0.09232752445526138, ,1.7552640438079834
0.01577267602920836,0.02221905518103633,-0.0934700645815366, ,0.01640432749930488,0.021783022212289622,-0.09404029338695254, ,0.0009561742623785909, ,0.013851345497609538,-0.003937107893571187,-0.024847977732569054,0.008553132382145195,0.022596560758757718,0.007293104556027717, ,0.028719028327191296, ,0.02416094284946378, ,0.0006692632988053876, ,0.18822616834347397,-0.22941922549458751,0.10406227233000001,1.613144735226446,0.22135112962001352,-1.2949217344660338, ,0.10686592517845808,0.10248049844327299,0.025445385814696485,0.0,0.13197349114779006,-0.1094254676779164, ,1.7588410377502441
0.01577267602920836,0.02221905518103633,-0.0934700645815366, ,0.01645990330236299,0.021765492080953894,-0.09413462172484584, ,0.0010581290126668247, ,0.013851345497609538,-0.003937107893571187,-0.024847977732569054,0.008553132382145195,0.022596560758757718,0.007293104556027717, ,0.028719028327191296, ,0.02416094284946378, ,0.0006716937095170216, ,0.18822616834347397,-0.22941922549458751,0.10406227233000001,1.613144735226446,0.22135112962001352,-1.2949217344660338, ,0.10686592517845808,0.10248049844327299,0.025445385814696485,0.0,0.13197349114779006,-0.1094254676779164, ,1.762382984161377
0.01577267602920836,0.02221905518103633,-0.0934700645815366, ,0.016515611052097208,0.02174778663970868,-0.09422894831977331, ,0.0011618739236423483, ,0.013851345497609538,-0.003937107893571187,-0.024847977732569054,0.008553132382145195,0.022596560758757718,0.007293104556027717, ,0.028719028327191296, ,0.02416094284946378, ,0.0006747383071202845, ,0.18822616834347397,-0.22941922549458751,0.10406227233000001,1.613144735226446,0.22135112962001352,-1.2949217344660338, ,0.10686592517845808,0.10248049844327299,0.025445385814696485,0.0,0.13197349114779006,-0.1094254676779164, ,1.765923023223877
