NicholasDascanio/dvrk_moveit_final/test/execution/third_experiment_notsharpbends/thirdexp_300vel3.0/thirdexp_300vel3.0_25.csv
Current Position (x),Current Position (y),Current Position (z), ,Planned Position (x),Planned Position (y),Planned Position (z), ,Position Error,,Cartesian linear Velocity(x),Cartesian linear Velocity(y),Cartesian linear Velocity(z),Cartesian Angular Velocity(x),Cartesian Angular Velocity(y),Cartesian Angular Velocity(z), ,Total Linear Velocity, ,Total Angular Velocity, ,MSE, ,Joint 1 Position,Joint 2 Position,Joint 3 Position,Joint 4 Position,Joint 5 Position,Joint 6 Position, ,Joint 1 Velocity,Joint 2 Velocity,Joint 3 Velocity,Joint 4 Velocity,Joint 5 Velocity,Joint 6 Velocity, ,Time Stamp
0.009640108305643554,0.02050474555367569,-0.07857760525877304, ,0.009796142078102357,0.020500071129391687,-0.0786551152247966, ,0.00017428764506724324, ,-0.0001331666371658504,-0.00020021272632355893,0.0007626424044264732,0.16656284805320462,9.170701581456699e-05,-0.052298159958714, ,0.0007996511277209368, ,0.16656287329945993, ,1.452397042227027e-05, ,0.17286565265664142,-0.24754447955039244,0.08913030782,1.6961819528463176,0.4614214597078924,-1.284525851145867, ,0.0,5.4036958394586066e-05,-0.0007996663258285882,0.0,0.0,-0.1746283247496052, ,0.035607099533081055
0.009671489198702542,0.02051081975387346,-0.078622921226766, ,0.00983523289708913,0.020511866000209444,-0.0787888099419538, ,0.00023309259795062677, ,0.0007833761361829974,0.0005093355264931224,-0.002277210539191947,0.2048901860545616,-0.03578338300117889,-0.07672543129517813, ,0.0024614606820130007, ,0.2079914393440766, ,1.8517283773539544e-05, ,0.1728810981223899,-0.24752131135176977,0.08916919652000001,1.6957625729593484,0.45868872971258356,-1.289158507243746, ,0.0010242354071205732,0.0007344065393632811,0.0022778223251823256,0.002403652992829439,-0.03677509965572604,-0.21801457481599562, ,0.07121610641479492
0.009707393877408885,0.02052268390468451,-0.07868849905155392, ,0.00987464789232922,0.020523303215710484,-0.07892258022696326, ,0.0002876947787745463, ,0.0017646244183475816,0.0008938370061795699,-0.004221434654505774,-0.07245777192125806,-0.10410527038780171,-0.011160704251654554, ,0.004661904597233504, ,0.12683862200832108, ,2.1721094431013008e-05, ,0.172919711786761,-0.24748269768739864,0.08923012215000001,1.6957625729593484,0.4560926362170402,-1.29226900644251, ,0.0018119659109584114,0.0015319574539322334,0.004108540500386898,0.002403652992829439,-0.10699007398055453,0.0655942922678766, ,0.10732793807983398
0.009738309363363973,0.02055758948236724,-0.07885493500794327, ,0.009914384221542654,0.020534386074418466,-0.07905642245245695, ,0.00026858507799155853, ,0.00037153540545660523,0.0006281282975642832,-0.00301594902615502,0.01399994779379513,0.04215631594082548,0.005585298944703607, ,0.0031029876319563737, ,0.04442019261194347, ,2.2944288090094636e-05, ,0.17301238458125168,-0.2473823021600337,0.08940512130000002,1.6957625729593484,0.4567758187158674,-1.2897223038356507, ,0.002760068794758373,0.002292732538163493,0.003269460492610838,0.002403652992829439,0.04608505364820908,-0.012690984713125141, ,0.14315199851989746
0.009767422777698173,0.020575110676519733,-0.07896804775744838, ,0.009954439054008998,0.02054511786338977,-0.07919033300725932, ,0.00029203662223790857, ,0.000816578911399349,0.0006946970154165645,-0.003843433795312991,0.018803285432827412,0.010162649765139158,-0.005983111667882924, ,0.003990161450458471, ,0.021373885759931, ,2.414801388503622e-05, ,0.17312822557436505,-0.24724329296829767,0.08952178740000001,1.6957625729593484,0.4567758187158674,-1.2897223038356507, ,0.00312203179620277,0.003744655630389249,0.004016341785173979,0.002403652992829439,0.013209436027427588,-0.0219989724708664, ,0.18074297904968262
0.009803750001018631,0.020594619955428925,-0.07910297257667906, ,0.00999480957054854,0.020555501858230674,-0.07932430829636188, ,0.00029499743294624756, ,0.0008690362897809633,0.0004516149004229756,-0.0030929537268733908,-0.001372117072093557,-0.0010070411073718436,-0.002977169535910452, ,0.0032443093021196846, ,0.0017020096264165863, ,2.501119604787308e-05, ,0.17331357116334645,-0.2470579473793163,0.08966178672000001,1.6957625729593484,0.45704909171539826,-1.2901084971233248, ,0.004326780218623645,0.004281635187115465,0.0032024148612786497,0.002403652992829439,0.0028408823572718873,-0.0023165490731887196, ,0.21653008460998535
0.00983365067911821,0.020609606318401388,-0.07921663710167472, ,0.010035492963503454,0.020565541323112158,-0.07945834474089832, ,0.00031796951809055297, ,0.001072268301527416,0.000624082996980913,-0.004466648815944253,-0.007099772184136896,-0.0011023283629164199,-0.002388637747579042, ,0.0046357513460665006, ,0.007184837583997775, ,2.5953662125815053e-05, ,0.17342941215645982,-0.24688804725608335,0.08977715653000001,1.6957625729593484,0.45704909171539826,-1.2902718546036058, ,0.0039498357556032575,0.006356268185265852,0.004574615600229753,0.002403652992829439,0.0021840495367048012,0.001484292864507218, ,0.25312304496765137
0.009863635629468293,0.02062229731057178,-0.0793335773601694, ,0.010076486436719137,0.020575239510786967,-0.07959243877811828, ,0.0003384215365050372, ,0.0009118899599097758,9.100806692785121e-05,-0.0033231657352966603,-0.009852347791251664,-0.0029112437225681,0.0005275030470806193, ,0.0034472099256471155, ,0.010273465657055033, ,2.7247965550169395e-05, ,0.17355297588244742,-0.24667181073560507,0.0898977115,1.6959722629028329,0.45704909171539826,-1.2903535333437464, ,0.004248015292146005,0.00899169385306048,0.003335178291457287,-0.0014111468010186768,0.001746635322743072,0.0009430269371602077, ,0.2943758964538574
0.00990350128163375,0.020628567561732987,-0.07948495088596491, ,0.010117787205525272,0.020584599662605205,-0.0797265868613628, ,0.0003259441331551227, ,0.0009322185224148097,0.0002819852699706662,-0.003696338539391453,-0.0033723011572154645,-0.0027051585216083347,-0.0015663102331054549, ,0.003822494691141404, ,0.004323227617414063, ,2.814477047465382e-05, ,0.173746044204303,-0.24629339682476806,0.09005067372000002,1.6957625729593484,0.4573223647149292,-1.2908214053715608, ,0.003613778726830315,0.007839125203160534,0.003742671879699249,-0.0008816171285441014,0.0011714846892089657,-0.004606389394179589, ,0.32883501052856445
0.009937373973327453,0.020641305608393737,-0.07961350217265915, ,0.010159392496717098,0.020593625008530445,-0.07986078546003851, ,0.0003357300828769796, ,0.0011963892208357349,0.00027557663642900274,-0.003620487282588982,-0.0124704429925406,-0.006094829313256712,0.0012727068099117535, ,0.0038229854582075003, ,0.013880161820593958, ,2.897736793531135e-05, ,0.17388505339603905,-0.2460539921056671,0.09018159901,1.6957625729593484,0.4573223647149292,-1.2909030841117013, ,0.007011975568459854,0.007765871012825779,0.003700072362369338,-0.0008816171285441014,0.0011714846892089657,0.004990020340487896, ,0.3633849620819092
0.009981253681603701,0.020651885179520428,-0.07975783714780069, ,0.010201299548536645,0.02060231876715583,-0.07999503105959248, ,0.00032731936175554985, ,0.001382330094824327,0.0005118957447018433,-0.00455470762404748,-0.005938437796891935,-0.004010088316683286,1.1859865774440237e-05, ,0.004787299372825678, ,0.00716560184596834, ,2.959332210510531e-05, ,0.17413990358088846,-0.2457373600578239,0.09032937607000001,1.6957625729593484,0.4575956377144601,-1.2912892773993754, ,0.007524762284306658,0.007795138925919107,0.004690462756183746,-0.0008816171285441014,0.0038765504328465584,-0.0016462836771275937, ,0.3964369297027588
0.01002118570852716,0.020664305272259435,-0.07988786955609092, ,0.010243505610653911,0.020610684145719888,-0.08012932016148697, ,0.00033256542054028044, ,0.001059705980965399,7.591009161071748e-05,-0.002910028692416688,-0.0010394673592230906,-0.0032111021986474266,0.0005899535811107295, ,0.0030979035005613987, ,0.0033751547390254433, ,3.015935220420217e-05, ,0.174363862834241,-0.24549795533872293,0.09046289394000001,1.695552883015864,0.45773227421422547,-1.2913190165629311, ,0.00708777525384133,0.007876095212311309,0.003030595799086758,-0.002918983271178748,0.0048991201678618935,-0.007130404908007965, ,0.4295039176940918
0.01005934882837362,0.020671178651621297,-0.07999260174701739, ,0.01028600794414803,0.020618724340122803,-0.08026364928317353, ,0.00035720103081421026, ,0.0014024406365950692,0.00040618920321531464,-0.004149402828368558,-0.002296019434998334,-0.005831423119557359,0.0004920434209110181, ,0.004398792247885192, ,0.00626715243273477, ,3.084004157703067e-05, ,0.17461871301909038,-0.24525855061962198,0.09057048601,1.695552883015864,0.45786891071399094,-1.2914304344666276, ,0.008572021136869485,0.0077193531251130865,0.0042761910120805375,-0.00272608057086833,0.0035405912586443,-0.0057337266519888845, ,0.4619719982147217
0.010098374564505682,0.020682717877692047,-0.08011621514450681, ,0.010328803821488564,0.020626442534942713,-0.08039801495806856, ,0.00036834181353556953, ,0.0012203735552522293,0.0002684739154448832,-0.003863499718761683,-0.001143275973810799,-0.0017092822448024258,0.0004414229305109816, ,0.004060544290425223, ,0.002056386365420068, ,3.1512496683269884e-05, ,0.1748426722724429,-0.245019145900521,0.09069752243000001,1.695552883015864,0.45800554721375636,-1.2916235311104645, ,0.007224278881503573,0.008446227670484585,0.003955503233176062,-0.0025574001933125643,0.006381641534863677,-0.00741947197811313, ,0.49474096298217773
0.010153615982806704,0.020700981937195544,-0.08030505144415959, ,0.010371890526516615,0.020633841903451106,-0.08053241373552711, ,0.0003222501700524987, ,0.0013692563674497673,0.0005247151701282644,-0.004780027039812672,0.0003624689407167008,0.001955358986715624,-0.0013336536573886721, ,0.0049998847497622146, ,0.0019886704112163003, ,3.2003057498558966e-05, ,0.17515158158741187,-0.24467162292118091,0.09089196593000001,1.6953431930723792,0.45841545671305267,-1.2920394635616943, ,0.006222995857015569,0.009422661412156957,0.004687702036492054,0.0,0.009675408160194214,-0.008121814276975007, ,0.5262100696563721
0.010174679722156847,0.020707632327059352,-0.08037745661111959, ,0.010415265354426065,0.02064092560762926,-0.08066684218081795, ,0.00038219790792356405, ,0.0012761724017260375,0.00045099135742067106,-0.0045470007255707665,-0.0003754303624359438,0.0019707498501799372,-0.0013737794743799517, ,0.004744177990098645, ,0.0020061906652513004, ,3.283864324647349e-05, ,0.1752519771147768,-0.24453261372944488,0.09096585446000001,1.6953431930723792,0.45841545671305267,-1.2920394635616943, ,0.006625949688123794,0.008415818595000383,0.00467531890813032,0.0,0.008936869677879565,-0.0075256758056616605, ,0.554987907409668
0.0102188444410193,0.02071943615614842,-0.08052083486311917, ,0.010458925611744841,0.020647696798184404,-0.0808012968750983, ,0.0003760910051854637, ,0.0012393107152989895,0.0002534192119927947,-0.004092167171592577,-0.00011584384557858376,0.0014191759978656642,0.0019409408421145774, ,0.004283216607448418, ,0.0014238957693381473, ,3.3551736700647546e-05, ,0.17552227276537466,-0.24424687261309858,0.09111363152000002,1.695133503128895,0.45882536621234904,-1.292537074753065, ,0.007059469508323555,0.009138662911358224,0.004081171283627979,-0.003843335151960984,0.010307069305591547,-0.009447045289210832, ,0.5855269432067871
0.0102626309227728,0.02073071433120893,-0.0806627186357414, ,0.01050286861631601,0.020654158614565588,-0.0809357744153881, ,0.00037166434581246304, ,0.0014528706686755852,0.00015147600162254403,-0.003931790823052046,-0.007701923105846703,-0.008897911408547766,0.0014952952858408937, ,0.0041943720906950635, ,0.01176828135383924, ,3.417000288152948e-05, ,0.1757616774844756,-0.24395340876387803,0.091258816,1.695133503128895,0.45896200271211446,-1.2927301713969017, ,0.00930998741639577,0.009861827806504003,0.004004226123680242,-0.0038152629225911127,0.0013874594735875645,-0.002661855906269852, ,0.6139199733734131
0.010306400166159784,0.020738156605542568,-0.08078889332829214, ,0.010547091697279038,0.020660314184979697,-0.08107027141454493, ,0.0003783721488361629, ,0.0013861239965431323,0.00029810438052249897,-0.004326715806740787,-0.0034549977543326285,-0.0034658672029263637,0.001363615815451924, ,0.004553095170077163, ,0.00489379642347745, ,3.477007217172335e-05, ,0.17604741860082193,-0.2436599449146575,0.09138844500000001,1.695133503128895,0.4592352757116453,-1.2930346859444353, ,0.008043109698304463,0.009302864792274452,0.004428360166805671,-0.0034973858963052926,0.005635481962735003,-0.006117331546092506, ,0.6439530849456787
0.010352387390203183,0.020748139181537516,-0.08093214248349077, ,0.010591592195050972,0.020666166626407533,-0.0812047845012388, ,0.00037184957751559074, ,0.0015361136519228208,0.00026259559878873806,-0.0043444016981013045,-0.00569259978891503,-0.006084100584063846,-0.000893964357163995, ,0.004615455309565068, ,0.0083319848011259, ,3.528203392113211e-05, ,0.17630999151854557,-0.24335875833256274,0.09153492577000001,1.6949238131854105,0.45937191221141077,-1.2932277825882723, ,0.00960344306691794,0.00988301487119559,0.00444938869273743,-0.0010791608803198747,0.003927990648375859,-0.004087469409683472, ,0.6762430667877197
0.010418325254249378,0.02075872638025443,-0.08112062715375436, ,0.01063636746130765,0.020671719044619816,-0.08133931031992618, ,0.0003208348604500618, ,0.001237418571322113,4.698902941081736e-05,-0.003605054639944195,-0.0018155606317037658,-0.0005114475892104681,-0.0010774056662363907, ,0.0038118016273831724, ,0.0018862233258506674, ,3.548401606291748e-05, ,0.17658800990201765,-0.24308073994909066,0.09165807332,1.6949238131854105,0.45950854871117625,-1.2934208792321091, ,0.01023616788299203,0.010232625820700452,0.004736488706512043,-0.0010791608803198747,0.005672117067382628,-0.0061883740565953724, ,0.7112610340118408
0.010443859238503854,0.02075882913274712,-0.08119087606115008, ,0.010681414858964964,0.020676974534193485,-0.0814738455308258, ,0.0003784237953480188, ,0.001443118373696056,0.0001022153709574603,-0.0036848030804574896,-0.003389171257837554,-0.006106814753708363,-0.0014840182629776663, ,0.003958637690457177, ,0.006984244237692937, ,3.6140761936188164e-05, ,0.1768969192169866,-0.2427100487711279,0.09179936893000001,1.6949238131854105,0.45978182171070714,-1.2937253937796427, ,0.009863857386411195,0.009768155233566101,0.003765676482269504,-0.0010791608803198747,0.004176694883702341,-0.006357681762693752, ,0.7362809181213379
0.01049353134880917,0.02077199485518635,-0.08134169071183531, ,0.010726731762159894,0.020681936178527403,-0.08160838680989195, ,0.00036554043107041973, ,0.0018203163188014407,0.0008070984704114683,-0.006479590626289918,0.006146597053868898,0.0021975303699964034,-0.0005088192008090921, ,0.0067786469244045695, ,0.006527616996102007, ,3.668981119236916e-05, ,0.17719810579908138,-0.2424243076547816,0.09195492373000001,1.6947141232419258,0.460055094710238,-1.294193265807457, ,0.009183429273135021,0.009671961822769507,0.006706868008421054,-0.0027632690697887525,0.012518222846424851,-0.015841208603311296, ,0.7613840103149414
0.010511877372904448,0.020779956781898652,-0.08140462787747743, ,0.010772315556231881,0.020686607049858665,-0.08174293084878992, ,0.00043702530842697055, ,0.0017703816714151463,0.0008475136931394275,-0.0065496997322120505,0.005759896618541287,0.002268467358760105,-0.00046855167798694116, ,0.006837477407983161, ,0.00619050411200219, ,3.7539795296521924e-05, ,0.17728305586069784,-0.24233163486029088,0.09201973823000001,1.6947141232419258,0.460055094710238,-1.294193265807457, ,0.008339633657747432,0.009364355721586521,0.006775334547001277,-0.0027632690697887525,0.011715444228578389,-0.015186596469025735, ,0.7865509986877441
0.010572787902240147,0.020799718477892845,-0.08160562963629647, ,0.010818163637703897,0.020690990209278278,-0.08187747435487056, ,0.0003820086896484419, ,0.0018305557120837492,0.0002548173962117087,-0.0048777954825719875,0.0013989766360250446,-0.0030912278805693676,0.00019246621180392417, ,0.005216201193421727, ,0.003393055065339453, ,3.808422507995931e-05, ,0.17762285610716372,-0.24197638914807656,0.09222714463000001,1.6945044332984414,0.4604650042095343,-1.294772555738968, ,0.012502890850918416,0.011388088510556914,0.005024861678233439,-0.003430355737481361,0.010633207570641682,-0.012921238434126046, ,0.8114221096038818
0.010615132726831017,0.020804482987816928,-0.08171825878202404, ,0.01086427341426377,0.02069508870674776,-0.08201201405114487, ,0.00040041272332601475, ,0.001549478420206032,0.00012711610946900716,-0.004488918732608759,-0.0007251330555822354,-0.005413897491563888,-0.0008252513330490135, ,0.004750519262979211, ,0.00546224332804636, ,3.867636290193409e-05, ,0.1779008744906358,-0.2416983707646045,0.09234251444000001,1.6945044332984414,0.46060164070929976,-1.2950473311229458, ,0.009387537789047995,0.01152781117085408,0.0044920506260575305,-0.003430355737481361,0.004987263385587196,-0.011351282180118293, ,0.8369760513305664
0.010663636502970482,0.020812440228384552,-0.08186830983485605, ,0.010910642304745206,0.020698905581114542,-0.08214654667625874, ,0.0003889957868086114, ,0.0018382913858075553,0.0004033703220094976,-0.005849503770338762,0.0030308481633520316,-0.0014270805797105947,-0.0008993164081454193, ,0.006144812218043746, ,0.0033500138390440684, ,3.918392189976702e-05, ,0.17817117014123365,-0.2413508477852644,0.09249547666,1.6945044332984414,0.46073827720906524,-1.2952404277667828, ,0.010385278904823941,0.012330683674437471,0.005997293493975904,-0.003430355737481361,0.010164640423502657,-0.015637547296508278, ,0.8645110130310059
0.010704504199734023,0.020813710444416027,-0.08197877186074504, ,0.010957267739109206,0.02070244386012884,-0.08228106898446719, ,0.00040945477238285127, ,0.0019018414190672618,-3.1835203587693134e-05,-0.004597772259884405,-0.005525159234089952,-0.00890431099676121,-0.0009334480616273117, ,0.004975693320254956, ,0.010479224056887266, ,3.974711906261903e-05, ,0.17844918852470573,-0.24104966120316962,0.09260825389,1.6942947433549567,0.4610115502085961,-1.2955449423143162, ,0.013315131409915923,0.013775140304611813,0.004676691579565473,-0.0027725424408021862,0.005272056601139297,-0.008463920769478451, ,0.8894848823547363
0.010761982469611603,0.020817603201503207,-0.08213350389428682, ,0.011004147158425084,0.020705706560458774,-0.08241557774560981, ,0.0003882399417697031, ,0.0018794323036769019,0.0002961358699806371,-0.0060224693162884224,0.0049470390111600055,0.001728900987803087,-0.0019317004833348651, ,0.006315860899610518, ,0.005240447087879971, ,4.035588827966776e-05, ,0.17882760243554274,-0.24064035636083572,0.09276640127,1.6942947433549567,0.46128482320812697,-1.2960128143421306, ,0.010757442883651712,0.014027633637615784,0.006157252230382684,-0.0027725424408021862,0.01366181878922859,-0.018982724757848436, ,0.9109609127044678
0.010800602377617683,0.020824355707740903,-0.08225681667650361, ,0.011051278014851708,0.020708696687706862,-0.08255006974508428, ,0.00040275631124774903, ,0.0020513455601398715,0.00038527482521074594,-0.006516851736913895,-0.000852444575951341,-0.004473885698793341,-0.0006580661846555382, ,0.006842938832034405, ,0.004554371882800225, ,4.0993273127166736e-05, ,0.1790361162231468,-0.24037006071023787,0.0928921414,1.6940850534114722,0.4614214597078924,-1.2961242322458268, ,0.011155906153990876,0.01428095433536054,0.006656419356456332,-0.004113222626421624,0.007962178941460441,-0.013893121466609554, ,0.9323298931121826
0.010862133313036234,0.02083262222729458,-0.08243274557283918, ,0.011098657771618708,0.020711417236426454,-0.08268454178382235, ,0.00036610900178028717, ,0.0018807890240238037,7.954097999747778e-05,-0.005165717556027437,0.0025679482577693046,-0.002448466935389696,-0.0006321136320410673, ,0.005498029827950868, ,0.0035481466866414983, ,4.14589683326601e-05, ,0.1794145301339838,-0.23995303313502975,0.09307232571000001,1.6940850534114722,0.4616947327074232,-1.296673783013782, ,0.01230376979892847,0.013939033718929314,0.005272694975173785,-0.004113222626421624,0.011256519282400021,-0.016847030208567843, ,0.9618558883666992
0.010898430889278391,0.020832586873922018,-0.08253111714384505, ,0.011146283903007715,0.02071387119013686,-0.08281899067826351, ,0.00039798957500148643, ,0.0017754242704404418,2.867220149939893e-05,-0.004691384624054188,-0.009316163680063142,-0.008004153310056175,0.0015519107169605442, ,0.005016178139382597, ,0.01228240097261541, ,4.2024255321317395e-05, ,0.17964621212021054,-0.23966729201868345,0.09317214004,1.6940850534114722,0.4618313692071887,-1.2970302371379, ,0.011392189862961678,0.013069403878043076,0.004766251202872532,-0.004113222626421624,0.004532192060145732,-0.004078050884502263, ,0.9834210872650146
0.01092852228071758,0.02083466743421925,-0.08261981711105346, ,0.01119415389433349,0.020716061521340173,-0.08295341326032962, ,0.00044262163021474267, ,0.0019495871877312503,0.0002832079927082017,-0.006104702696491092,0.007248630863065912,-0.0008946805479540042,-0.00275842969804952, ,0.006414709033326864, ,0.007303635683227176, ,4.272972235200939e-05, ,0.17983928044206615,-0.23944333276533092,0.09326288034,1.693875363467988,0.4621046422067196,-1.2971713942051524, ,0.011053506005625765,0.01420612897581898,0.006236809522317934,-0.003452677256772044,0.011409405803797266,-0.021887542222306086, ,1.005357027053833
0.010976339374826068,0.020842462382594414,-0.08276716850748432, ,0.011242265241925143,0.02071799119153708,-0.08308780637740076, ,0.000434762334868351, ,0.002173371313205764,0.00027722907908684795,-0.006478369590419531,-0.008178317330376411,-0.009410153805981515,0.0017558444245964135, ,0.0068388355278826245, ,0.012467391772036155, ,4.33760411953293e-05, ,0.1801018533597898,-0.23911897798461348,0.09341324998000002,1.6936656735245033,0.46224127870648507,-1.2973644908489894, ,0.01217876799355891,0.015139907715135733,0.006598513471416737,-0.005898770106131754,0.004327968488963487,-0.007742765617011119, ,1.0272119045257568
0.011021480303096999,0.020851516377382563,-0.08290811120593282, ,0.011290615453107347,0.020719663151242868,-0.08322216689228808, ,0.00043410825417931214, ,0.0024621790918549023,0.000645652572863594,-0.007333920937915357,0.003246796444162028,-0.0007600375327162141,-0.01186109670712076, ,0.007763091487854957, ,0.003334564886773105, ,4.399253767407872e-05, ,0.18037214901038764,-0.23882551413539296,0.09355843446,1.6934559835810188,0.4626511882057813,-1.2979437807805003, ,0.014367440054272639,0.01411736708694894,0.007577931265461467,0.008236438414496098,0.012103162672300376,-0.015428426848808425, ,1.0495829582214355
0.011071033635382099,0.02086001103033952,-0.08305015464300963, ,0.011339202046181404,0.020721080340003306,-0.08335649168321015, ,0.0004301841645931808, ,0.0021336252833721674,0.00017809758747199076,-0.006398993028371297,-0.007533136091754632,0.0004192504453613334,-0.010023496614157409, ,0.006747680147847316, ,0.007544792878791181, ,4.4725016685307944e-05, ,0.1806424446609855,-0.23853205028617244,0.09369843378,1.6934559835810188,0.4626511882057813,-1.2981888170009221, ,0.01224920877105458,0.016561420865352665,0.006485672442996744,0.008236438414496098,0.011468657068216476,-0.007011163021058602, ,1.0675239562988281
0.011113323898479414,0.020865055702361215,-0.08317764045396658, ,0.011388022550406714,0.020722245686410963,-0.0834907776437662, ,0.00044035093920870137, ,0.0023695330406283332,0.0003399265021499569,-0.006943960685114092,0.005626414140743795,-0.000775685460836172,-0.013240982698859028, ,0.0073449865114854655, ,0.005679630962692967, ,4.5467228520178356e-05, ,0.18091274031158336,-0.238207695505455,0.09383454423000001,1.6934559835810188,0.4630610977050777,-1.298441391971871, ,0.013998663749590025,0.016341818763297877,0.007117431420911529,0.007684139350805695,0.011850757652397226,-0.020320500810775213, ,1.0857069492340088
0.011166718322727986,0.02086966295521623,-0.0833190604634864, ,0.011437074505981665,0.02072316210812114,-0.08362502168291205, ,0.0004337824706180592, ,0.002209973712145976,-5.129820386297337e-05,-0.005742421886146514,0.009458987237285268,0.007374857202558323,-0.0011446318229979132, ,0.006153212529450801, ,0.011994204936929792, ,4.6162334001717644e-05, ,0.18126026329092346,-0.23784472706036644,0.09397972871000002,1.6936656735245033,0.46333437070460853,-1.2987459065194042, ,0.015992069693035182,0.017000526972137366,0.005895193012583273,-0.003333885016525048,0.0250744776198161,-0.025934238621602945, ,1.1052711009979248
0.011191621203084113,0.02087000805009312,-0.08338293822427163, ,0.01148635546402498,0.020723832511867726,-0.08375922072493347, ,0.0004998240618979523, ,0.002384268688232263,0.00015694900423173267,-0.006721663299801217,0.003645016298344214,0.002317155485834009,-0.0011409897104194468, ,0.0071337316800892305, ,0.004319182751376537, ,4.705310351128507e-05, ,0.18141471794840797,-0.2376671042042593,0.09404454321000001,1.6936656735245033,0.46333437070460853,-1.2987459065194042, ,0.015335640200140721,0.01728226945155177,0.006889624359861593,-0.003333885016525048,0.019143607142881734,-0.020629470743740025, ,1.1230969429016113
0.011255212410111348,0.02087728506672029,-0.08356834385507599, ,0.011535862986556967,0.020724259793479863,-0.08389337170942222, ,0.0004558778196079353, ,0.002751516063975683,0.00039684082345129617,-0.007951150632016065,0.001279257223941604,-0.0014112022849914207,0.004161481125267077, ,0.008423130039509256, ,0.0019047202299717308, ,4.77717103583584e-05, ,0.18181630005786764,-0.23725007662905115,0.09423509784,1.6930366036940496,0.4638809167036703,-1.2994366143546114, ,0.016858579065281716,0.017691450700684334,0.008177007967145792,-0.008934582344413407,0.018205835840473,-0.019694848033693074, ,1.140944004058838
0.011284610880204238,0.02087964171737027,-0.08365210458617625, ,0.01158559464648052,0.020724446837897047,-0.08402747159124944, ,0.0005055463051731094, ,0.0028331965603834745,0.0004532041874924713,-0.008153245649967488,0.02074122789722272,0.01927114798241136,-0.030485601018249157, ,0.008643368059619076, ,0.028312111246169756, ,4.8626478798683134e-05, ,0.1819939229139748,-0.2370492855743213,0.09432065298,1.6928269137505652,0.46401755320343574,-1.2996297109984485, ,0.01853093957400328,0.01939442909431244,0.008450297888594166,0.026400132913610756,0.03278029240268931,-0.03411969772799299, ,1.1588530540466309
0.01135652991552309,0.02088801639036931,-0.0838470474143017, ,0.011635548027562467,0.02072439651918611,-0.08416151734054138, ,0.00045112515292456757, ,0.002973222452834423,0.0003838782929979973,-0.007771024730537261,-0.007693005955316063,-0.013132914622950296,-0.02452817197573634, ,0.008329240040993868, ,0.015220241745214746, ,4.928260737575301e-05, ,0.18242639595493138,-0.2365936443347421,0.09452028164000001,1.6928269137505652,0.4641541897032012,-1.2998228076422855, ,0.01779762594870045,0.01847322202812357,0.007964405760000001,0.019928493259172796,0.0,-0.007276165640280371, ,1.1770219802856445
0.01138500343858744,0.02089087401423332,-0.08392352872048725, ,0.011685720724414778,0.02072411170055652,-0.08429550594265268, ,0.0005065645161952361, ,0.002993799696967497,0.0003102436665572523,-0.007918330536030721,-0.0025646787219676358,-0.00347428619709791,-0.02112562902945257, ,0.008471071138648176, ,0.004318357372548754, ,5.024657649317427e-05, ,0.182619464276787,-0.2364082987457607,0.09459935533000001,1.6928269137505652,0.4644274627027321,-1.3001273221898189, ,0.018817557318752877,0.01966368453345851,0.008135245924412667,0.017341010172460786,0.011703945902780446,-0.013387337420975809, ,1.1913120746612549
0.011443705917435555,0.020893131657026345,-0.08408299709230262, ,0.011736110342475565,0.020723595234376824,-0.08442943439814289, ,0.0004840059434197515, ,0.002874610019518377,0.00021036302557193542,-0.008003990603830426,0.012315719821290759,0.013597485026079277,-0.018058300999799996, ,0.008507144112629629, ,0.0183458039044675, ,5.111740614685751e-05, ,0.18299787818762397,-0.23598354843767835,0.09476268787000001,1.6928269137505652,0.46483737220202836,-1.3006249333811892, ,0.018979388311694156,0.020920842495253698,0.0082489961263594,0.01390289250369434,0.030418360775085668,-0.029351259707433797, ,1.2063000202178955
0.011477512635838792,0.020895916020853285,-0.08416787070755817, ,0.01178671449799049,0.020722849962190506,-0.0845632997227494, ,0.0005309630479367173, ,0.003309738719385934,0.0002705862925705915,-0.008960653480794379,0.00043439093578677456,-0.001007233873064832,-0.005112971228270875, ,0.009556196844728658, ,0.0010968854956961934, ,5.2109787372843186e-05, ,0.18320639197522803,-0.23576731191720005,0.09484953930000001,1.6930366036940496,0.46483737220202836,-1.3006249333811892, ,0.021097585940077986,0.02216182661337477,0.009207405502890174,0.0,0.02084564806937366,-0.021545354373284573, ,1.2208991050720215
0.01151193982711194,0.02090025933259153,-0.08426250471193976, ,0.011837530817993817,0.020721878714732418,-0.08469709894736319, ,0.0005715778928847012, ,0.0037160487491743614,0.0005848785894979755,-0.009867066638081217,-0.013394148749023041,-0.021835469542115928,-0.006021362193303126, ,0.010559834530475789, ,0.02561622254173938, ,5.3200294109760084e-05, ,0.18363886501618462,-0.23531939341049504,0.09505305683000001,1.6928269137505652,0.4653839182010902,-1.3013156412163966, ,0.020195135466795227,0.022551554552868527,0.01027002676982592,-0.0040564659623659365,0.016708869406810198,-0.021943184905360076, ,1.2354509830474854
0.01158035820169964,0.020907445785077246,-0.08446136353548554, ,0.011888556940289723,0.020720684311944144,-0.08483082911800292, ,0.0005161115450949263, ,0.0031535819376602506,0.00033316372961900186,-0.00914717823045784,0.022493194256703583,0.017756508247371586,0.003460410224935484, ,0.00968126782441393, ,0.028657238334687467, ,5.410032487728497e-05, ,0.18384737880378868,-0.23510315689001676,0.09515157487,1.6924075338635962,0.46565719120062105,-1.3017018345040707, ,0.020856470672191377,0.02151370246168007,0.0094645344741533,-0.010112737894573422,0.04247850901657811,-0.044092925960618166, ,1.2511439323425293
0.011650087294550584,0.020910537005112945,-0.08463807286032445, ,0.011939790513433307,0.020719269562990538,-0.08496448729578979, ,0.0004765055856201654, ,0.0032539620473498554,-1.1141607404537109e-05,-0.00836475121907546,0.0013249207222844007,-0.005958381601377353,0.00263150919116255, ,0.00897538055449646, ,0.0061039073778122715, ,5.4863094044765986e-05, ,0.18427212911187102,-0.2346475156504375,0.09533175918,1.6924075338635962,0.46565719120062105,-1.301783513244211, ,0.021320364313293816,0.022971905484984453,0.008554678582169711,-0.010112737894573422,0.018374916161015425,-0.02539942045549095, ,1.265760898590088
0.011684549747759908,0.02091033900209161,-0.0847197895785257, ,0.011991229196712019,0.020717637266275856,-0.08509807055692231, ,0.0005237200989199009, ,0.0035019191206380747,-0.00011198581260834934,-0.007853311296875594,-0.006743393929332407,-0.018139005286059332,0.0026222443313987723, ,0.008599446300509697, ,0.019351920953276494, ,5.5745029473000296e-05, ,0.1845192565638462,-0.23441583366421076,0.09541601803000001,1.6924075338635962,0.46593046420015194,-1.302006349051604, ,0.024326311601761283,0.022697187648522073,0.008036736387487387,-0.010112737894573422,0.00886086254531532,-0.017449638848367238, ,1.2829649448394775
0.011715466704245107,0.02090884163209862,-0.08479908684781519, ,0.012042870660126555,0.020715790209459236,-0.08523157599265067, ,0.0005757682368023095, ,0.003046616804297202,-9.555816240193232e-05,-0.008394910180132633,0.023268486289464988,0.021121268665271746,0.003036291754648675, ,0.0089311545864531, ,0.03142499646044477, ,5.691897530168796e-05, ,0.18495172960480277,-0.23392930149313462,0.09558194315000001,1.6924075338635962,0.46675028319874456,-1.302756535213923, ,0.021286886845776305,0.024732067124959806,0.008499899423692638,-0.010112737894573422,0.029899552715868576,-0.03127055180528855, ,1.2936220169067383
0.011745603463933014,0.020907245433827337,-0.08488119627964916, ,0.012094712584372395,0.020713731169471266,-0.08536500070925183, ,0.000627209434388866, ,0.0031591068226999603,-0.00018627668106044787,-0.00831645281082516,0.006089167471263708,0.005205610721999807,0.003421900866288687, ,0.00889820444099921, ,0.008011011403045606, ,5.8219409798792806e-05, ,0.18495172960480277,-0.23392930149313462,0.09558194315000001,1.6924075338635962,0.46675028319874456,-1.302756535213923, ,0.021286886845776305,0.024732067124959806,0.008499899423692638,-0.010112737894573422,0.029899552715868576,-0.03127055180528855, ,1.3042728900909424
0.011819867713604038,0.020910757241434035,-0.08507754020943165, ,0.012146752660820657,0.020711462912529937,-0.08549834182800366, ,0.0005688989369325373, ,0.004163589877332131,0.0004719161634832978,-0.01160346770460743,-0.013541251220493261,-0.013882179682926862,0.0039915848897209725, ,0.012336881628022822, ,0.019392786984270362, ,5.93330841138667e-05, ,0.18540737084438202,-0.23342732385631004,0.09578286810000002,1.6924075338635962,0.46702355619827546,-1.3030610497614565, ,0.02403671265412127,0.026113632789892892,0.011896050425690816,-0.009978280397735226,0.012922736228878084,-0.013508272612426299, ,1.3152120113372803
0.011859432003893493,0.020916158165606952,-0.08519776755179857, ,0.012198988591499494,0.020708988194156265,-0.08563159648516, ,0.0005885793206348864, ,0.00410567924782214,0.0006926166796200199,-0.012954792422073175,0.03494327784270176,0.04195990204970086,0.002489591478120055, ,0.01360745996319261, ,0.05460463058689131, ,6.0483168338777864e-05, ,0.18565449829635722,-0.2331647509385864,0.09590731194,1.6921978439201113,0.46757010219733725,-1.3035884001163827, ,0.025956493861726142,0.027796409361004918,0.013464760371935757,-0.007802097163310371,0.07225486222173182,-0.060770311465312775, ,1.325916051864624
0.011902477523701969,0.02092428769399662,-0.08533729374776199, ,0.012251418089075304,0.020706309759191105,-0.08576476183192502, ,0.0005932982902412232, ,0.004353351857252475,0.001107623370016727,-0.014644950888641957,0.04771358878919639,0.04973781216995085,0.0024222216909219212, ,0.01531839053078311, ,0.06892340561042846, ,6.162719274218034e-05, ,0.18592479394695507,-0.23287900982224008,0.09605249642000001,1.691988153976627,0.46838992119592987,-1.3044202650188423, ,0.025857477263888495,0.0276103990568725,0.015257482298850577,-0.009521375047612636,0.08060083940768446,-0.07361548011788346, ,1.3363909721374512
0.011952104150429235,0.020935547924003848,-0.08549472273159063, ,0.012304038876833664,0.02070343034181029,-0.08589783503442834, ,0.0005832976532713514, ,0.004920484510470989,0.0009873065733365235,-0.015175763996446788,-0.004263613032340957,-0.005475629155439631,-0.0015036345820695718, ,0.015984046889426628, ,0.0069397482531615975, ,6.272475768720736e-05, ,0.1861796441318045,-0.23258554597301956,0.09621453267,1.6917784640331426,0.46866319419546076,-1.3046431008262354, ,0.025627043359025322,0.029964301092033716,0.015601186601371206,-0.006310632917518482,0.02238499298367723,-0.025737444469338084, ,1.3473279476165771
0.012000293657347604,0.020944033616495206,-0.08563523831491959, ,0.01235684868866088,0.020700352665541363,-0.08603081327369896, ,0.0005856547141668731, ,0.004672167838134819,0.0006862919518149959,-0.01367767944653982,-0.011540928985892377,-0.013375961076243371,-0.0017766690416009554, ,0.014469936558020055, ,0.017666604027714118, ,6.381076982137471e-05, ,0.18642677158377965,-0.23229980485667326,0.09635842086000002,1.6917784640331426,0.46866319419546076,-1.3046431008262354, ,0.025098371213560112,0.029163165813912345,0.014021841126760566,-0.005772997921499624,0.013525192012682596,-0.017908349721115886, ,1.3582830429077148
0.012049615884665,0.0209474526031493,-0.08576336228246358, ,0.012409845269024848,0.020697079443279323,-0.0861636937456407, ,0.0005938999991152466, ,0.004668426406823928,-7.139055316913236e-05,-0.011680031984113794,-0.018417596247327743,-0.020927306385748048,-0.0026823707933677564, ,0.012578650518912353, ,0.027877585740380458, ,6.507783085254997e-05, ,0.18671251270012598,-0.23199089554170427,0.09648934615000002,1.6917784640331426,0.46866319419546076,-1.3046431008262354, ,0.028879166633740346,0.03222307013869975,0.01190494134529148,-0.005299030515831571,0.009505693986381044,-0.014091784277035384, ,1.3655529022216797
0.012049615884665,0.0209474526031493,-0.08576336228246358, ,0.012463026372956456,0.020693613377302664,-0.08629647366100665, ,0.000720798395073058, ,0.004668426406823928,-7.139055316913236e-05,-0.011680031984113794,-0.018417596247327743,-0.020927306385748048,-0.0026823707933677564, ,0.012578650518912353, ,0.027877585740380458, ,6.667416256435527e-05, ,0.18671251270012598,-0.23199089554170427,0.09648934615000002,1.6917784640331426,0.46866319419546076,-1.3046431008262354, ,0.028879166633740346,0.03222307013869975,0.01190494134529148,-0.005299030515831571,0.009505693986381044,-0.014091784277035384, ,1.372844934463501
0.012093342080660492,0.02094663255738142,-0.08588391115978183, ,0.012516389766030717,0.02068995715928963,-0.08642915024537315, ,0.0007362997110817966, ,0.004814423645077363,4.412123199901937e-05,-0.013187442744253946,0.034073435056519635,0.04023266258103358,-0.0023076834664457896, ,0.014038848522951203, ,0.05272253518246517, ,6.829499962336894e-05, ,0.18701369928222072,-0.2316510952952384,0.09661378999,1.6917784640331426,0.46934637669428797,-1.305281869084858, ,0.033544341307342095,0.03547549217139095,0.01366107334476844,-0.004912801297901781,0.07759093602083657,-0.06682296352451829, ,1.3803529739379883
0.012144937256845002,0.0209477090395226,-0.0860327419861823, ,0.01256993322434785,0.020686113470333705,-0.08656172073911521, ,0.0007272360932100383, ,0.0052702530809142336,0.00026774715417956336,-0.014786914701077306,0.02617038746066632,0.035557072307896086,-0.006612046408045368, ,0.015700321730856136, ,0.044149675695318, ,6.987426725428686e-05, ,0.18736894499443504,-0.23126495865152716,0.09676804850000001,1.691568774089658,0.470302832192646,-1.3061434731508734, ,0.0346718821916225,0.03733160564849362,0.015301451988472626,0.0,0.0727208951623939,-0.05994863153291538, ,1.3886020183563232
0.012203174587519303,0.020952236806776197,-0.08618645777826758, ,0.012623654534514705,0.020682084980960497,-0.0866941823973815, ,0.0007124392491091303, ,0.00612805771782347,0.0006995312014823329,-0.016920815772408747,-0.01962401257022645,-0.017328521786295948,0.00892668041802024, ,0.018009898436654764, ,0.02617972783583985, ,7.139738085694792e-05, ,0.1877241907066494,-0.23090971293931284,0.09692619588000001,1.6913590841461734,0.4705761051921769,-1.3063663089582662, ,0.03508204863529419,0.036968033330140544,0.017389532227074237,-0.01658166962485975,0.02230934037748435,-0.018841388842609205, ,1.3957281112670898
0.012203174587519303,0.020952236806776197,-0.08618645777826758, ,0.012677551493625643,0.02067787435114279,-0.08682653249006757, ,0.0008426172575932971, ,0.00612805771782347,0.0006995312014823329,-0.016920815772408747,-0.01962401257022645,-0.017328521786295948,0.00892668041802024, ,0.018009898436654764, ,0.02617972783583985, ,7.324876312117914e-05, ,0.1877241907066494,-0.23090971293931284,0.09692619588000001,1.6913590841461734,0.4705761051921769,-1.3063663089582662, ,0.03508204863529419,0.036968033330140544,0.017389532227074237,-0.01658166962485975,0.02230934037748435,-0.018841388842609205, ,1.4029710292816162
0.012262878194768066,0.02095789215082712,-0.08635445999830348, ,0.012731621909244083,0.02067348423031786,-0.08695876830179235, ,0.0008159638844794372, ,0.006958879091412451,0.0006161411381141588,-0.018988884646881945,-0.04338257142120505,-0.040296572477258465,0.00796323847548675, ,0.020233224365967053, ,0.05921029291994975, ,7.501051669548725e-05, ,0.18806399095311527,-0.23053129902847583,0.09709860245000002,1.6911493942026892,0.4708493781917078,-1.3065891447656592, ,0.03795877662338831,0.04303716170452189,0.019401719269183923,-0.016927288399405216,0.0015841199896472337,-0.0019419994750265492, ,1.4103329181671143
0.012332694839912998,0.0209658385285265,-0.08656538311216815, ,0.012785863599383262,0.020668917257401814,-0.08709088713187109, ,0.0007547705880133837, ,0.006179572185542931,0.0006379084141921104,-0.01920130989692225,0.0513248067440656,0.057468873519706254,0.0032776506305703867, ,0.020181286908888575, ,0.07705131148044708, ,7.659363071282339e-05, ,0.18847329579544916,-0.2300524895902739,0.09731637917000001,1.6911493942026892,0.4716691971903004,-1.3075843671484, ,0.037792489668845394,0.04395411836890726,0.01988615670411985,-0.014555789238117971,0.10203656614793928,-0.09355069270267057, ,1.417943000793457
0.012332694839912998,0.0209658385285265,-0.08656538311216815, ,0.012840274392487857,0.0206641760608073,-0.08722288629429144, ,0.0008837124425540171, ,0.006179572185542931,0.0006379084141921104,-0.01920130989692225,0.0513248067440656,0.057468873519706254,0.0032776506305703867, ,0.020181286908888575, ,0.07705131148044708, ,7.849604003867852e-05, ,0.18891349156927995,-0.22955823468632355,0.09753026702,1.6911493942026892,0.4724890161888931,-1.3084162320508597, ,0.04131342688657849,0.04683955654416129,0.020086773669609086,-0.0127868647950705,0.07142989784646928,-0.07206204386760137, ,1.4251430034637451
0.012404723370507718,0.0209713414652177,-0.0867725004214986, ,0.012894852127414825,0.020659263258458335,-0.08735476311768713, ,0.0008225866840972904, ,0.006817132830010882,0.00041873773401032526,-0.019486531926783304,0.025944496008029522,0.024790477196767146,-0.0002322972262599701, ,0.020648815168077837, ,0.03588428378790888, ,8.022037839106176e-05, ,0.18891349156927995,-0.22955823468632355,0.09753026702,1.6911493942026892,0.4724890161888931,-1.3084162320508597, ,0.04131342688657849,0.04683955654416129,0.020086773669609086,-0.0127868647950705,0.07142989784646928,-0.07206204386760137, ,1.4323210716247559
0.012479866567743138,0.02097567656227025,-0.0869742839074274, ,0.012949594653414852,0.02065418145780708,-0.08748651494531312, ,0.0007657572806288444, ,0.00791441845325243,0.0002863389914829561,-0.020052849749647113,-0.02298052152109265,-0.031045536768986675,-0.010738701983400172, ,0.021560074038675013, ,0.038625464141574625, ,8.178047252468733e-05, ,0.18936141007598498,-0.22907942524812164,0.09773767342,1.6909397042592043,0.47289892568818936,-1.3088321645020893, ,0.047142047470676005,0.04981466748476156,0.02055330518709678,-0.0022233320262576477,0.017183637285544492,-0.026208492016382697, ,1.4394290447235107
0.012479866567743138,0.02097567656227025,-0.0869742839074274, ,0.013004499830113387,0.02064893325584959,-0.08761813913502033, ,0.000892496948103857, ,0.00791441845325243,0.0002863389914829561,-0.020052849749647113,-0.02298052152109265,-0.031045536768986675,-0.010738701983400172, ,0.021560074038675013, ,0.038625464141574625, ,8.386457657501939e-05, ,0.18936141007598498,-0.22907942524812164,0.09773767342,1.6909397042592043,0.47289892568818936,-1.3088321645020893, ,0.047142047470676005,0.04981466748476156,0.02055330518709678,-0.0022233320262576477,0.017183637285544492,-0.026208492016382697, ,1.4431018829345703
0.012558684101144189,0.02097562619344937,-0.08717035632748128, ,0.01305956552749181,0.02064352123914178,-0.0877496330592297, ,0.00083470799437935, ,0.008382676540903054,-6.314424593254786e-05,-0.020202534134316635,-0.029217979230074236,-0.03945113249925746,0.004028396314145263, ,0.021872714477938707, ,0.04909255341108979, ,8.578981610785099e-05, ,0.1898479422470611,-0.2285697248784228,0.09793859837,1.69073001431572,0.47317219868772026,-1.3090550003094823, ,0.051912987723452285,0.05316355269382116,0.02068676820779221,-0.01834921295938178,0.017199648499727754,-0.026221548087952122, ,1.4473659992218018
0.012558684101144189,0.02097562619344937,-0.08717035632748128, ,0.013114789625868739,0.02063794798381545,-0.08788099410490767, ,0.0009634759875556064, ,0.008382676540903054,-6.314424593254786e-05,-0.020202534134316635,-0.029217979230074236,-0.03945113249925746,0.004028396314145263, ,0.021872714477938707, ,0.04909255341108979, ,8.803453777395779e-05, ,0.1898479422470611,-0.2285697248784228,0.09793859837,1.69073001431572,0.47317219868772026,-1.3090550003094823, ,0.051912987723452285,0.05316355269382116,0.02068676820779221,-0.01834921295938178,0.017199648499727754,-0.026221548087952122, ,1.454035997390747
0.012640557939671275,0.02097480270040395,-0.087380647923117, ,0.01317017001588122,0.02063221605559486,-0.08801221967354067, ,0.0008926014992157311, ,0.008158181306376985,-0.0001597972470276301,-0.021925580037462047,0.05325130455362581,0.05112617462070242,-0.0033764048026755193, ,0.023394711311897624, ,0.07382128487744201, ,0.0004904736912337948, ,0.19037308808250838,-0.22801368811147865,0.0981550788,1.6905203243722353,0.47385538118654746,-1.3097754473082455, ,0.05407233137234802,0.059273542509975505,0.02265833786628734,-0.013560402302423065,0.11198501697314317,-0.110418036428956, ,1.4579520225524902
0.012640557939671275,0.02097480270040395,-0.087380647923117, ,0.013225704598465665,0.020626328009811686,-0.08814330718110862, ,0.00102248734274901, ,0.008158181306376985,-0.0001597972470276301,-0.021925580037462047,0.05325130455362581,0.05112617462070242,-0.0033764048026755193, ,0.023394711311897624, ,0.07382128487744201, ,0.0004977615494737293, ,0.19037308808250838,-0.22801368811147865,0.0981550788,1.6905203243722353,0.47385538118654746,-1.3097754473082455, ,0.05407233137234802,0.059273542509975505,0.02265833786628734,-0.013560402302423065,0.11198501697314317,-0.110418036428956, ,1.4616000652313232
0.012731045446846204,0.020974410283831905,-0.0876250253484948, ,0.013281391284839388,0.02062028639142218,-0.08827425405806197, ,0.0011553705526906454, ,0.008158181306376985,-0.0001597972470276301,-0.021925580037462047,0.05325130455362581,0.05112617462070242,-0.0033764048026755193, ,0.023394711311897624, ,0.07382128487744201, ,0.0005066481576253092, ,0.19096773851382368,-0.227372701282918,0.09840785535,1.6903106344287508,0.4750851096844364,-1.3109415659217944, ,0.057029411994273305,0.062432198393730785,0.02556791576243981,-0.012427294932956287,0.11006205583969587,-0.10450031513423469, ,1.465728998184204
0.012731045446846204,0.020974410283831905,-0.0876250253484948, ,0.01333722799648161,0.02061409373502261,-0.08840505774929353, ,0.001051539749664343, ,0.009012622830466891,0.0001916886244778213,-0.024735267551534625,0.0445138181723286,0.04661400889598764,-0.003948506348572313, ,0.0263267463933356, ,0.06445414318901264, ,0.0005139133788524963, ,0.19096773851382368,-0.227372701282918,0.09840785535,1.6903106344287508,0.4750851096844364,-1.3109415659217944, ,0.057029411994273305,0.062432198393730785,0.02556791576243981,-0.012427294932956287,0.11006205583969587,-0.10450031513423469, ,1.4692699909210205
0.012731045446846204,0.020974410283831905,-0.0876250253484948, ,0.013393212665114628,0.020607752564865377,-0.08853571571411573, ,0.0011841707013188006, ,0.009012622830466891,0.0001916886244778213,-0.024735267551534625,0.0445138181723286,0.04661400889598764,-0.003948506348572313, ,0.0263267463933356, ,0.06445414318901264, ,0.0005227325541481056, ,0.19096773851382368,-0.227372701282918,0.09840785535,1.6903106344287508,0.4750851096844364,-1.3109415659217944, ,0.057029411994273305,0.062432198393730785,0.02556791576243981,-0.012427294932956287,0.11006205583969587,-0.10450031513423469, ,1.472973108291626
0.01282908716157124,0.020978149985689983,-0.08789519806923428, ,0.013449343232685044,0.020601265394874925,-0.08866622542623347, ,0.001058887517061429, ,0.010601564339438235,0.000553273154318683,-0.029496172531485485,-0.0014161123850911165,0.01935043193960266,0.013960889082141999, ,0.0313484205604317, ,0.019401604666668158, ,0.0005296956056145124, ,0.19156238894513897,-0.22671626898860894,0.09868655770000001,1.6901009444852664,0.4760415651827945,-1.3118848487279506, ,0.06235015871121602,0.06957253779946537,0.030398495267175574,-0.02643917324398921,0.09059448272913563,-0.06805410551428405, ,1.4765739440917969
0.01282908716157124,0.020978149985689983,-0.08789519806923428, ,0.01350561765134501,0.02059463472866427,-0.08879658437372002, ,0.001190493479981939, ,0.010601564339438235,0.000553273154318683,-0.029496172531485485,-0.0014161123850911165,0.01935043193960266,0.013960889082141999, ,0.0313484205604317, ,0.019401604666668158, ,0.0005381673732346076, ,0.19156238894513897,-0.22671626898860894,0.09868655770000001,1.6901009444852664,0.4760415651827945,-1.3118848487279506, ,0.06235015871121602,0.06957253779946537,0.030398495267175574,-0.02643917324398921,0.09059448272913563,-0.06805410551428405, ,1.4801740646362305
0.01282908716157124,0.020978149985689983,-0.08789519806923428, ,0.013562033883433319,0.02058786305955049,-0.08892679005899048, ,0.0013242797344718935, ,0.010601564339438235,0.000553273154318683,-0.029496172531485485,-0.0014161123850911165,0.01935043193960266,0.013960889082141999, ,0.0313484205604317, ,0.019401604666668158, ,0.000548118162617358, ,0.19156238894513897,-0.22671626898860894,0.09868655770000001,1.6901009444852664,0.4760415651827945,-1.3118848487279506, ,0.06235015871121602,0.06957253779946537,0.030398495267175574,-0.02643917324398921,0.09059448272913563,-0.06805410551428405, ,1.4837911128997803
0.01282908716157124,0.020978149985689983,-0.08789519806923428, ,0.013618589901456587,0.020580952870570896,-0.08905683999877709, ,0.0014596205318565965, ,0.010601564339438235,0.000553273154318683,-0.029496172531485485,-0.0014161123850911165,0.01935043193960266,0.013960889082141999, ,0.0313484205604317, ,0.019401604666668158, ,0.0005595119422328484, ,0.19156238894513897,-0.22671626898860894,0.09868655770000001,1.6901009444852664,0.4760415651827945,-1.3118848487279506, ,0.06235015871121602,0.06957253779946537,0.030398495267175574,-0.02643917324398921,0.09059448272913563,-0.06805410551428405, ,1.488029956817627
0.012916213835898315,0.02098647204231995,-0.08814078420637396, ,0.01367528368807058,0.02057390663449922,-0.08918673172410466, ,0.0013566147080339777, ,0.010601564339438235,0.000553273154318683,-0.029496172531485485,-0.0014161123850911165,0.01935043193960266,0.013960889082141999, ,0.0313484205604317, ,0.019401604666668158, ,0.0005693527171192821, ,0.19207208931483777,-0.22616795495453898,0.09894063054,1.6901009444852664,0.4768613841813871,-1.3125533561501288, ,0.06678180264494778,0.06972589387102922,0.03524073345132744,-0.02643917324398921,0.11229918762810852,-0.10506436365051149, ,1.4920809268951416
0.012916213835898315,0.02098647204231995,-0.08814078420637396, ,0.01373211323606126,0.02056672681386172,-0.08931646278026409, ,0.0014913410063107735, ,0.011736573528663759,0.0015913498449203838,-0.034011722340364516,0.03540733694035162,0.035937540645441295,0.008192842825530006, ,0.03601495257640512, ,0.0504493887281836, ,0.0005805964767435686, ,0.19294475812962514,-0.2252566724753805,0.09939951720000001,1.6896815645982974,0.47850102217857243,-1.314053728474767, ,0.07221989464114975,0.07573578735711954,0.03783565681710214,-0.020207357475637146,0.12947859839852122,-0.12739811898844994, ,1.4957289695739746
0.013068164764392947,0.02100617382105851,-0.08858324311332447, ,0.013789076548325964,0.0205594158609527,-0.08944603072678707, ,0.001209838394611398, ,0.012642122007326855,0.0015945605070249573,-0.036486320222944665,0.05320442605740192,0.04861130088677123,-0.0015881654038881112, ,0.03864734706897697, ,0.07206736337499804, ,0.000588177704669687, ,0.19294475812962514,-0.2252566724753805,0.09939951720000001,1.6896815645982974,0.47850102217857243,-1.314053728474767, ,0.07221989464114975,0.07573578735711954,0.03783565681710214,-0.020207357475637146,0.12947859839852122,-0.12739811898844994, ,1.4998409748077393
0.013068164764392947,0.02100617382105851,-0.08858324311332447, ,0.013846171637854744,0.02055197621785115,-0.08957543313742171, ,0.0013401608865472817, ,0.012642122007326855,0.0015945605070249573,-0.036486320222944665,0.05320442605740192,0.04861130088677123,-0.0015881654038881112, ,0.03864734706897697, ,0.07206736337499804, ,0.000597129885406325, ,0.19294475812962514,-0.2252566724753805,0.09939951720000001,1.6896815645982974,0.47850102217857243,-1.314053728474767, ,0.07221989464114975,0.07573578735711954,0.03783565681710214,-0.020207357475637146,0.12947859839852122,-0.12739811898844994, ,1.503485918045044
0.013202647750205248,0.021014922015730124,-0.08895140139431718, ,0.013903396527711503,0.020544410316436744,-0.0897046676001062, ,0.0011313001746363568, ,0.013872550590977256,0.0004345395711872614,-0.036404405741969,-0.042684174436142266,-0.022283861251971782,0.055114361393163724, ,0.03896045741471802, ,0.04815023655205975, ,0.0006034142417502078, ,0.1937170314170476,-0.2244380627907127,0.09977933017000001,1.6890524947678438,0.47945747767693053,-1.3149970112809233, ,0.08076335451784747,0.0848051309727174,0.03747955651764706,-0.0710115277812961,0.07669892709946667,-0.05048578255342316, ,1.5073449611663818
0.013202647750205248,0.021014922015730124,-0.08895140139431718, ,0.013960749251015002,0.020536720578405207,-0.0898337317169442, ,0.0012577365775140372, ,0.013872550590977256,0.0004345395711872614,-0.036404405741969,-0.042684174436142266,-0.022283861251971782,0.055114361393163724, ,0.03896045741471802, ,0.04815023655205975, ,0.0006110226410032755, ,0.1937170314170476,-0.2244380627907127,0.09977933017000001,1.6890524947678438,0.47945747767693053,-1.3149970112809233, ,0.08076335451784747,0.0848051309727174,0.03747955651764706,-0.0710115277812961,0.07669892709946667,-0.05048578255342316, ,1.5109970569610596
0.013202647750205248,0.021014922015730124,-0.08895140139431718, ,0.014018227850920266,0.020528909415285058,-0.08996262310417923, ,0.0013870647046803632, ,0.013872550590977256,0.0004345395711872614,-0.036404405741969,-0.042684174436142266,-0.022283861251971782,0.055114361393163724, ,0.03896045741471802, ,0.04815023655205975, ,0.0006199426647237018, ,0.1937170314170476,-0.2244380627907127,0.09977933017000001,1.6890524947678438,0.47945747767693053,-1.3149970112809233, ,0.08076335451784747,0.0848051309727174,0.03747955651764706,-0.0710115277812961,0.07669892709946667,-0.05048578255342316, ,1.5149359703063965
0.013339598309324484,0.02101687915678173,-0.08930988804031456, ,0.014075830380599692,0.020520979228453355,-0.09009133939216893, ,0.0011826329172677748, ,0.014560842083730449,-7.592661967159407e-05,-0.03707766933915436,-0.02448919167423185,-0.008591102863142562,0.04007831686321554, ,0.039834375238763035, ,0.025951059369880347, ,0.0006263368721389754, ,0.19452791836884117,-0.22355767124305112,0.10014877282000001,1.6888428048243591,0.48041393317528863,-1.3158586153469387, ,0.08770512158823549,0.09204359026039842,0.038198588776978425,-0.059293934018923175,0.09523066434256196,-0.07329740545086601, ,1.5186309814453125
0.013339598309324484,0.02101687915678173,-0.08930988804031456, ,0.014133554903224196,0.02051293240915177,-0.09021987822536061, ,0.0013085914313962883, ,0.014560842083730449,-7.592661967159407e-05,-0.03707766933915436,-0.02448919167423185,-0.008591102863142562,0.04007831686321554, ,0.039834375238763035, ,0.025951059369880347, ,0.0006340026537036643, ,0.19452791836884117,-0.22355767124305112,0.10014877282000001,1.6888428048243591,0.48041393317528863,-1.3158586153469387, ,0.08770512158823549,0.09204359026039842,0.038198588776978425,-0.059293934018923175,0.09523066434256196,-0.07329740545086601, ,1.5222620964050293
0.013339598309324484,0.02101687915678173,-0.08930988804031456, ,0.014191399491944538,0.020504771338502564,-0.09034823726226537, ,0.0014373547853544812, ,0.014560842083730449,-7.592661967159407e-05,-0.03707766933915436,-0.02448919167423185,-0.008591102863142562,0.04007831686321554, ,0.039834375238763035, ,0.025951059369880347, ,0.0006429287884997844, ,0.19452791836884117,-0.22355767124305112,0.10014877282000001,1.6888428048243591,0.48041393317528863,-1.3158586153469387, ,0.08770512158823549,0.09204359026039842,0.038198588776978425,-0.059293934018923175,0.09523066434256196,-0.07329740545086601, ,1.525974988937378
0.013440790412637328,0.021018877198074423,-0.08955905990091724, ,0.014249362229872258,0.020496498387524605,-0.09047641417543255, ,0.0013297393993973211, ,0.0145899719208368,-4.2558631342085424e-05,-0.03624603371525121,0.008419867234796418,0.007062358271207105,0.020349768383501995, ,0.03907229263781478, ,0.010986742364318146, ,0.0006504761578503069, ,0.19515345973165335,-0.22294757534598736,0.10040673453000001,1.6888428048243591,0.48109711567411584,-1.3164157048654208, ,0.09055051675426601,0.09012055228724672,0.03747955651764706,-0.04323530885185351,0.11061051637159516,-0.10144032530296444, ,1.5299549102783203
0.013440790412637328,0.021018877198074423,-0.08955905990091724, ,0.01430744121006132,0.02048811591714992,-0.0906044066514253, ,0.0014579235133579617, ,0.0145899719208368,-4.2558631342085424e-05,-0.03624603371525121,0.008419867234796418,0.007062358271207105,0.020349768383501995, ,0.03907229263781478, ,0.010986742364318146, ,0.0006592527595406074, ,0.19515345973165335,-0.22294757534598736,0.10040673453000001,1.6888428048243591,0.48109711567411584,-1.3164157048654208, ,0.09055051675426601,0.09012055228724672,0.03747955651764706,-0.04323530885185351,0.11061051637159516,-0.10144032530296444, ,1.5335869789123535
0.013640771564313281,0.021007956764214637,-0.09003705198546182, ,0.014365634535488635,0.020479626278238613,-0.09073221239079397, ,0.001134816028497303, ,0.014952534507554021,-0.0014575395993536681,-0.0342409689199073,0.007111246526836738,0.006409244741219072,0.0027996198965349515, ,0.037391799401169976, ,0.009570850371439716, ,0.0006643663430777763, ,0.19643543338877462,-0.221626988024495,0.10090062102000001,1.6888428048243591,0.48273675367130114,-1.317916077190059, ,0.09793286022546002,0.10010225902792276,0.03531887254988914,-0.028098460597398373,0.1140529800553892,-0.10708795655980274, ,1.5372099876403809
0.013640771564313281,0.021007956764214637,-0.09003705198546182, ,0.014423940319035884,0.020471031811595958,-0.09085982910805206, ,0.001256425046143302, ,0.014952534507554021,-0.0014575395993536681,-0.0342409689199073,0.007111246526836738,0.006409244741219072,0.0027996198965349515, ,0.037391799401169976, ,0.009570850371439716, ,0.0006706648399188988, ,0.19643543338877462,-0.221626988024495,0.10090062102000001,1.6888428048243591,0.48273675367130114,-1.317916077190059, ,0.09793286022546002,0.10010225902792276,0.03531887254988914,-0.028098460597398373,0.1140529800553892,-0.10708795655980274, ,1.5408849716186523
0.013640771564313281,0.021007956764214637,-0.09003705198546182, ,0.014482356683470393,0.020462334847988043,-0.09098725453165007, ,0.001381612705151527, ,0.014952534507554021,-0.0014575395993536681,-0.0342409689199073,0.007111246526836738,0.006409244741219072,0.0027996198965349515, ,0.037391799401169976, ,0.009570850371439716, ,0.0006781485016581897, ,0.19643543338877462,-0.221626988024495,0.10090062102000001,1.6888428048243591,0.48273675367130114,-1.317916077190059, ,0.09793286022546002,0.10010225902792276,0.03531887254988914,-0.028098460597398373,0.1140529800553892,-0.10708795655980274, ,1.5444769859313965
0.013788302261694148,0.020987383691298753,-0.09036180573681522, ,0.014540881761426226,0.020453537708157565,-0.09111448640395038, ,0.0011907542247718435, ,0.015576488022968514,-0.0020883347831147196,-0.03444734800449227,0.01245478653546951,0.0016311944714493122,-0.018041129535854374, ,0.03786301501252437, ,0.012559219676819507, ,0.0006834881446072901, ,0.19742394319667536,-0.22061531001797158,0.10123506384000001,1.68842342493739,0.4838298456694246,-1.319052456640052, ,0.10303685294079346,0.10734948140098505,0.035476194922048995,-0.011970096597224157,0.11066598283053163,-0.11720593740166425, ,1.548058032989502
0.013788302261694148,0.020987383691298753,-0.09036180573681522, ,0.01459951369538572,0.020444642702840295,-0.09124152248120225, ,0.0013139761493496402, ,0.015576488022968514,-0.0020883347831147196,-0.03444734800449227,0.01245478653546951,0.0016311944714493122,-0.018041129535854374, ,0.03786301501252437, ,0.012559219676819507, ,0.0006899880209448401, ,0.19742394319667536,-0.22061531001797158,0.10123506384000001,1.68842342493739,0.4838298456694246,-1.319052456640052, ,0.10303685294079346,0.10734948140098505,0.035476194922048995,-0.011970096597224157,0.11066598283053163,-0.11720593740166425, ,1.5516619682312012
0.013788302261694148,0.020987383691298753,-0.09036180573681522, ,0.014658250637660413,0.020435652132780965,-0.09136836053351584, ,0.001440267491916632, ,0.015576488022968514,-0.0020883347831147196,-0.03444734800449227,0.01245478653546951,0.0016311944714493122,-0.018041129535854374, ,0.03786301501252437, ,0.012559219676819507, ,0.00069764393391394, ,0.19742394319667536,-0.22061531001797158,0.10123506384000001,1.68842342493739,0.4838298456694246,-1.319052456640052, ,0.10303685294079346,0.10734948140098505,0.035476194922048995,-0.011970096597224157,0.11066598283053163,-0.11720593740166425, ,1.555345058441162
0.01394561873051136,0.020961133788210008,-0.09070765305548527, ,0.01471709075037224,0.02042656828874894,-0.09149499834483756, ,0.0012250885499862953, ,0.01565017131707541,-0.0029160068806631397,-0.0342420469732633,-0.0024930591909083167,-0.012872928652367577,0.07594734649484086, ,0.0377617364444626, ,0.013110322662789551, ,0.0007029716573086103, ,0.19846651213469568,-0.21951868194983168,0.1015902473,1.687584665163452,0.4849229376675481,-1.3201071573499046, ,0.10474276110206487,0.11034528088194276,0.03516293933774835,-0.11093628152321855,0.11958190791484063,-0.12398245546598025, ,1.558980941772461
0.01394561873051136,0.020961133788210008,-0.09070765305548527, ,0.014776032205434834,0.020417393451554848,-0.09162143371292453, ,0.001349160918108166, ,0.01565017131707541,-0.0029160068806631397,-0.0342420469732633,-0.0024930591909083167,-0.012872928652367577,0.07594734649484086, ,0.0377617364444626, ,0.013110322662789551, ,0.0007094335499166057, ,0.19846651213469568,-0.21951868194983168,0.1015902473,1.687584665163452,0.4849229376675481,-1.3201071573499046, ,0.10474276110206487,0.11034528088194276,0.03516293933774835,-0.11093628152321855,0.11958190791484063,-0.12398245546598025, ,1.5627849102020264
0.01394561873051136,0.020961133788210008,-0.09070765305548527, ,0.014835073184534569,0.020408129892066043,-0.09174766444931864, ,0.001475996691810443, ,0.01565017131707541,-0.0029160068806631397,-0.0342420469732633,-0.0024930591909083167,-0.012872928652367577,0.07594734649484086, ,0.0377617364444626, ,0.013110322662789551, ,0.0007170232839947626, ,0.19846651213469568,-0.21951868194983168,0.1015902473,1.687584665163452,0.4849229376675481,-1.3201071573499046, ,0.10474276110206487,0.11034528088194276,0.03516293933774835,-0.11093628152321855,0.11958190791484063,-0.12398245546598025, ,1.5702879428863525
0.01399507150160135,0.020951936702655678,-0.09081609181600667, ,0.014894211879112006,0.020398779871223224,-0.09187368837932255, ,0.0014943046507884439, ,0.015417751538958871,-0.0032169807047467635,-0.03354491516436505,-0.001475476323822237,-0.008283372622135646,0.06802707060059751, ,0.03705829678703853, ,0.008411231620241266, ,0.0007246436895515634, ,0.19879858964828734,-0.21916343623761736,0.10170172824000001,1.6873749752199676,0.48533284716684444,-1.3205230898011344, ,0.10359928117736984,0.11190677070574384,0.03440348060475163,-0.10295185294849978,0.12127864212566337,-0.12497060910748295, ,1.574692964553833
0.01426188446644331,0.02089614996316889,-0.09137187057303937, ,0.01495344649034274,0.020389345640055866,-0.09199950334197282, ,0.0010625589618769376, ,0.01618804286349716,-0.0035025299089941632,-0.03249174640630142,-0.0014302901720182671,-0.012949336430024758,-0.039551697109270034, ,0.03646963164120555, ,0.013026696852614539, ,0.0007279244203508389, ,0.20062115460660432,-0.21723275301906123,0.10227339213000002,1.6869555953329984,0.4873823946633261,-1.3224393945770025, ,0.11008925934857398,0.11615292724415029,0.033393734842767295,0.007561605737117756,0.09836721680843337,-0.10878282728660993, ,1.5783369541168213
0.01426188446644331,0.02089614996316889,-0.09137187057303937, ,0.015012775229118865,0.02037982943969877,-0.09212510719001611, ,0.0011822813631206823, ,0.01618804286349716,-0.0035025299089941632,-0.03249174640630142,-0.0014302901720182671,-0.012949336430024758,-0.039551697109270034, ,0.03646963164120555, ,0.013026696852614539, ,0.0007322932371082412, ,0.20062115460660432,-0.21723275301906123,0.10227339213000002,1.6869555953329984,0.4873823946633261,-1.3224393945770025, ,0.11008925934857398,0.11615292724415029,0.033393734842767295,0.007561605737117756,0.09836721680843337,-0.10878282728660993, ,1.5819590091705322
0.01426188446644331,0.02089614996316889,-0.09137187057303937, ,0.015072196316030155,0.020370233501407726,-0.09225049778988263, ,0.0013058251048704674, ,0.01618804286349716,-0.0035025299089941632,-0.03249174640630142,-0.0014302901720182671,-0.012949336430024758,-0.039551697109270034, ,0.03646963164120555, ,0.013026696852614539, ,0.0007377554453726434, ,0.20062115460660432,-0.21723275301906123,0.10227339213000002,1.6869555953329984,0.4873823946633261,-1.3224393945770025, ,0.11008925934857398,0.11615292724415029,0.033393734842767295,0.007561605737117756,0.09836721680843337,-0.10878282728660993, ,1.585561990737915
0.014428898054234173,0.020855170756552757,-0.0916881907391207, ,0.01513170798134495,0.020360560046575795,-0.09237567302166128, ,0.0011005514240036995, ,0.015933320000852985,-0.004430782539797939,-0.02872214774838076,-0.04085329298899727,-0.05386015811251908,-0.030499665104834362, ,0.0331430881398275, ,0.06760095141897245, ,0.0007411780489446345, ,0.20176411907198954,-0.2160280066906822,0.10259746463000001,1.687165285276483,0.48806557716215326,-1.3230781628356252, ,0.11138138680571688,0.11572797751033022,0.029388951143911442,0.0,0.05926545620805776,-0.07148332217654993, ,1.5891649723052979
0.014428898054234173,0.020855170756552757,-0.0916881907391207, ,0.015191308464991636,0.020350811286748923,-0.09250063077907446, ,0.0012229909761450552, ,0.015933320000852985,-0.004430782539797939,-0.02872214774838076,-0.04085329298899727,-0.05386015811251908,-0.030499665104834362, ,0.0331430881398275, ,0.06760095141897245, ,0.0007456809734979094, ,0.20176411907198954,-0.2160280066906822,0.10259746463000001,1.687165285276483,0.48806557716215326,-1.3230781628356252, ,0.11138138680571688,0.11572797751033022,0.029388951143911442,0.0,0.05926545620805776,-0.07148332217654993, ,1.5927410125732422
0.014589388151257987,0.02080520197247109,-0.09197180240275986, ,0.015250996016539876,0.020340989423642604,-0.09262536896945263, ,0.0013485290275513319, ,0.016362516767347565,-0.0050253168065812915,-0.029226915402153962,-0.022061852181077424,-0.03357776284675343,-0.03268653045649809, ,0.033870316619318795, ,0.040176736467538936, ,0.0007512628999243301, ,0.202914806270249,-0.2148309830951774,0.10288783359,1.6869555953329984,0.48888539616074594,-1.3239100277380849, ,0.11629527151773382,0.12260586764660306,0.029941375037593993,-0.000692536430372619,0.08537535736419616,-0.09637776471217716, ,1.5970189571380615
0.014589388151257987,0.02080520197247109,-0.09197180240275986, ,0.015310768895181506,0.020331096649157412,-0.09274988551370897, ,0.0011621442951898274, ,0.016362516767347565,-0.0050253168065812915,-0.029226915402153962,-0.022061852181077424,-0.03357776284675343,-0.03268653045649809, ,0.033870316619318795, ,0.040176736467538936, ,0.0007550324540093346, ,0.202914806270249,-0.2148309830951774,0.10288783359,1.6869555953329984,0.48888539616074594,-1.3239100277380849, ,0.11629527151773382,0.12260586764660306,0.029941375037593993,-0.000692536430372619,0.08537535736419616,-0.09637776471217716, ,1.6006770133972168
0.014589388151257987,0.02080520197247109,-0.09197180240275986, ,0.015370625369712143,0.02032113514539547,-0.09287417834631419, ,0.00128799636182662, ,0.016362516767347565,-0.0050253168065812915,-0.029226915402153962,-0.022061852181077424,-0.03357776284675343,-0.03268653045649809, ,0.033870316619318795, ,0.040176736467538936, ,0.0007598775804440373, ,0.202914806270249,-0.2148309830951774,0.10288783359,1.6869555953329984,0.48888539616074594,-1.3239100277380849, ,0.11629527151773382,0.12260586764660306,0.029941375037593993,-0.000692536430372619,0.08537535736419616,-0.09637776471217716, ,1.604374885559082
0.014753200156573425,0.02075374886647558,-0.09227262242235916, ,0.015430563718511814,0.02031110708467573,-0.0929982454152711, ,0.0010868679174027048, ,0.01630228727905479,-0.005213413412512067,-0.030461097944129725,0.00934981977854313,0.0004091742352835341,0.015330501514015502, ,0.03494027386699275, ,0.009357367562793208, ,0.0007628234393355567, ,0.20408093893425688,-0.2136030685681757,0.10319635061000001,1.686326525502545,0.48997848815886946,-1.3250464071880779, ,0.11643796510241813,0.12453666871190391,0.03129432518664047,-0.05333409124986533,0.13196180584998787,-0.13872558040697747, ,1.6080000400543213
0.014753200156573425,0.02075374886647558,-0.09227262242235916, ,0.015490582229526723,0.020301014629550897,-0.09312208468208899, ,0.0012125538097346395, ,0.01630228727905479,-0.005213413412512067,-0.030461097944129725,0.00934981977854313,0.0004091742352835341,0.015330501514015502, ,0.03494027386699275, ,0.009357367562793208, ,0.0007668388890712628, ,0.20408093893425688,-0.2136030685681757,0.10319635061000001,1.686326525502545,0.48997848815886946,-1.3250464071880779, ,0.11643796510241813,0.12453666871190391,0.03129432518664047,-0.05333409124986533,0.13196180584998787,-0.13872558040697747, ,1.6115989685058594
0.014753200156573425,0.02075374886647558,-0.09227262242235916, ,0.015550679200250122,0.020290859932822862,-0.0932456941217587, ,0.001340562390257897, ,0.01630228727905479,-0.005213413412512067,-0.030461097944129725,0.00934981977854313,0.0004091742352835341,0.015330501514015502, ,0.03494027386699275, ,0.009357367562793208, ,0.0007719160881968084, ,0.20408093893425688,-0.2136030685681757,0.10319635061000001,1.686326525502545,0.48997848815886946,-1.3250464071880779, ,0.11643796510241813,0.12453666871190391,0.03129432518664047,-0.05333409124986533,0.13196180584998787,-0.13872558040697747, ,1.6152029037475586
0.014926393871374729,0.020704622695958387,-0.09258990803394102, ,0.015610852937703545,0.02028064513755908,-0.09336907172272754, ,0.0011204183314411549, ,0.016954590786103237,-0.0043098185779820875,-0.031655641898985204,-0.06716303835892143,-0.05298637195274161,0.05114986616107053, ,0.03616783583428961, ,0.0855476332043805, ,0.00077497312541825, ,0.20530113072838438,-0.2123674313082998,0.10352301569000001,1.6856974556720912,0.491071580156993,-1.3261827866380709, ,0.11558701773260752,0.11586928151217434,0.03257425668711657,-0.07672786997394403,0.0810843346643849,-0.058501552718723974, ,1.6188499927520752
0.014926393871374729,0.020704622695958387,-0.09258990803394102, ,0.01567110175841802,0.02027037237710832,-0.09349221548687334, ,0.001247927047572526, ,0.016954590786103237,-0.0043098185779820875,-0.031655641898985204,-0.06716303835892143,-0.05298637195274161,0.05114986616107053, ,0.03616783583428961, ,0.0855476332043805, ,0.0007790857682195915, ,0.20530113072838438,-0.2123674313082998,0.10352301569000001,1.6856974556720912,0.491071580156993,-1.3261827866380709, ,0.11558701773260752,0.11586928151217434,0.03257425668711657,-0.07672786997394403,0.0810843346643849,-0.058501552718723974, ,1.6224339008331299
0.014926393871374729,0.020704622695958387,-0.09258990803394102, ,0.015731423988415292,0.02026004377511668,-0.09361512342947942, ,0.0013772401800151214, ,0.016954590786103237,-0.0043098185779820875,-0.031655641898985204,-0.06716303835892143,-0.05298637195274161,0.05114986616107053, ,0.03616783583428961, ,0.0855476332043805, ,0.0007842422717695529, ,0.20530113072838438,-0.2123674313082998,0.10352301569000001,1.6856974556720912,0.491071580156993,-1.3261827866380709, ,0.11558701773260752,0.11586928151217434,0.03257425668711657,-0.07672786997394403,0.0810843346643849,-0.058501552718723974, ,1.6260509490966797
0.015098490379548106,0.020667946690138012,-0.09292341298579923, ,0.0157918179631889,0.020249661445544083,-0.09373779357920961, ,0.001148425633206447, ,0.017903717661021407,-0.0033579337527928953,-0.0358975724638109,-0.06829810496211404,-0.055616712086816324,-0.029117754328456383, ,0.0402548696926008, ,0.08807831852335427, ,0.0007873549500724323, ,0.20642864972802114,-0.21121674411004035,0.10386653254000001,1.6854877657286067,0.49175476265582013,-1.326903233636834, ,0.11297254947436998,0.11832536353924038,0.036957799350348035,0.005238133722203428,0.057900660474372395,-0.04440130042308333, ,1.6296379566192627
0.015098490379548106,0.020667946690138012,-0.09292341298579923, ,0.015852282027685575,0.0202392274926797,-0.09386022397808204, ,0.001276564465404313, ,0.017903717661021407,-0.0033579337527928953,-0.0358975724638109,-0.06829810496211404,-0.055616712086816324,-0.029117754328456383, ,0.0402548696926008, ,0.08807831852335427, ,0.0007915007934227023, ,0.20642864972802114,-0.21121674411004035,0.10386653254000001,1.6854877657286067,0.49175476265582013,-1.326903233636834, ,0.11297254947436998,0.11832536353924038,0.036957799350348035,0.005238133722203428,0.057900660474372395,-0.04440130042308333, ,1.6334609985351562
0.015098490379548106,0.020667946690138012,-0.09292341298579923, ,0.015912814536286155,0.020228744011158484,-0.09398241268144486, ,0.0014062372420212267, ,0.017903717661021407,-0.0033579337527928953,-0.0358975724638109,-0.06829810496211404,-0.055616712086816324,-0.029117754328456383, ,0.0402548696926008, ,0.08807831852335427, ,0.0007966666459319337, ,0.20642864972802114,-0.21121674411004035,0.10386653254000001,1.6854877657286067,0.49175476265582013,-1.326903233636834, ,0.11297254947436998,0.11832536353924038,0.036957799350348035,0.005238133722203428,0.057900660474372395,-0.04440130042308333, ,1.6377251148223877
0.015098490379548106,0.020667946690138012,-0.09292341298579923, ,0.01597341385278712,0.0202182130859768,-0.09410435775795001, ,0.001537004213919632, ,0.017903717661021407,-0.0033579337527928953,-0.0358975724638109,-0.06829810496211404,-0.055616712086816324,-0.029117754328456383, ,0.0402548696926008, ,0.08807831852335427, ,0.0008028361256651645, ,0.20642864972802114,-0.21121674411004035,0.10386653254000001,1.6854877657286067,0.49175476265582013,-1.326903233636834, ,0.11297254947436998,0.11832536353924038,0.036957799350348035,0.005238133722203428,0.057900660474372395,-0.04440130042308333, ,1.6414299011230469
0.015277425961666525,0.0206357313218215,-0.09329023347508168, ,0.01603407835038137,0.020207636792508532,-0.09422605728952871, ,0.001277322972102888, ,0.017317526229456946,-0.002966300600156027,-0.03554366310423523,-0.012366681506088384,-0.01480585926352187,-0.036439984023575234, ,0.039649055989087405, ,0.019289674705597573, ,0.000806757504561344, ,0.20755616872765792,-0.210035165980284,0.10424504922000001,1.6854877657286067,0.4925745816544128,-1.3276534197991534, ,0.10996169357876104,0.11297254947436998,0.036787093579676675,0.007735814569252543,0.09627962794412118,-0.09407154371197568, ,1.645143985748291
0.015446079646738994,0.020605637720780973,-0.09362844199642822, ,0.01609480641163987,0.02019701719652163,-0.09434750937136575, ,0.001051130362059953, ,0.01649456017124703,-0.003313154821363346,-0.032454587154315775,-0.019127289611970594,-0.03460224949044877,-0.03102127684655794, ,0.036556090292457294, ,0.03953647519997021, ,0.0008087605607703488, ,0.20862962859717513,-0.20893853791214412,0.10459504752000001,1.6856974556720912,0.49339440065300544,-1.3285669634417534, ,0.10544104617607865,0.10832984196172464,0.033534340042105266,0.0,0.07294180612131787,-0.08552673350655057, ,1.648766040802002
0.015446079646738994,0.020605637720780973,-0.09362844199642822, ,0.01615559642849248,0.020186356354193496,-0.09446871211187388, ,0.0011769727247767224, ,0.01649456017124703,-0.003313154821363346,-0.032454587154315775,-0.019127289611970594,-0.03460224949044877,-0.03102127684655794, ,0.036556090292457294, ,0.03953647519997021, ,0.000811754155599669, ,0.20862962859717513,-0.20893853791214412,0.10459504752000001,1.6856974556720912,0.49339440065300544,-1.3285669634417534, ,0.10544104617607865,0.10832984196172464,0.033534340042105266,0.0,0.07294180612131787,-0.08552673350655057, ,1.6524829864501953
0.015446079646738994,0.020605637720780973,-0.09362844199642822, ,0.016216446802209173,0.020175656312126963,-0.09458966363266907, ,0.00130472088968976, ,0.01649456017124703,-0.003313154821363346,-0.032454587154315775,-0.019127289611970594,-0.03460224949044877,-0.03102127684655794, ,0.036556090292457294, ,0.03953647519997021, ,0.0008157296937778149, ,0.20862962859717513,-0.20893853791214412,0.10459504752000001,1.6856974556720912,0.49339440065300544,-1.3285669634417534, ,0.10544104617607865,0.10832984196172464,0.033534340042105266,0.0,0.07294180612131787,-0.08552673350655057, ,1.6560850143432617
0.015620216858148971,0.020568063963253586,-0.09397249148996885, ,0.016277355943381637,0.02016491910736717,-0.09471036206854487, ,0.00106715066550896, ,0.017016302195441903,-0.003599493758604489,-0.03315149282262878,0.005074325924648859,-0.02472510785818278,-0.020736223498616417, ,0.03743704545091187, ,0.025239645405932695, ,0.000817741061551664, ,0.20974170213106347,-0.20778785071388467,0.10495023098000002,1.6852780757851225,0.49421421965159806,-1.3294805070843536, ,0.11008925934857398,0.11151226975143451,0.034329335172413794,-0.0166760882786209,0.09141985010610236,-0.11630122484803763, ,1.6597208976745605
0.015620216858148971,0.020568063963253586,-0.09397249148996885, ,0.016338322271903776,0.02015414676741635,-0.09483080556744672, ,0.001193191470749941, ,0.017016302195441903,-0.003599493758604489,-0.03315149282262878,0.005074325924648859,-0.02472510785818278,-0.020736223498616417, ,0.03743704545091187, ,0.025239645405932695, ,0.0008207208267040312, ,0.20974170213106347,-0.20778785071388467,0.10495023098000002,1.6852780757851225,0.49421421965159806,-1.3294805070843536, ,0.11008925934857398,0.11151226975143451,0.034329335172413794,-0.0166760882786209,0.09141985010610236,-0.11630122484803763, ,1.6632630825042725
0.015620216858148971,0.020568063963253586,-0.09397249148996885, ,0.01639934421695359,0.020143341310251167,-0.09495099229044761, ,0.001320943825357024, ,0.017016302195441903,-0.003599493758604489,-0.03315149282262878,0.005074325924648859,-0.02472510785818278,-0.020736223498616417, ,0.03743704545091187, ,0.025239645405932695, ,0.0008246595904729525, ,0.20974170213106347,-0.20778785071388467,0.10495023098000002,1.6852780757851225,0.49421421965159806,-1.3294805070843536, ,0.11008925934857398,0.11151226975143451,0.034329335172413794,-0.0166760882786209,0.09141985010610236,-0.11630122484803763, ,1.6669580936431885
0.015758680523588347,0.02053780722369519,-0.0942502342857666, ,0.01646042021697399,0.020132504744337875,-0.095070920411722, ,0.0011533578865130583, ,0.017016302195441903,-0.003599493758604489,-0.03315149282262878,0.005074325924648859,-0.02472510785818278,-0.020736223498616417, ,0.03743704545091187, ,0.025239645405932695, ,0.0008272275459107659, ,0.2106375391444735,-0.20687656823472617,0.10523800736000001,1.6846490059546686,0.49517067514995616,-1.3305871473707909, ,0.10579369181546351,0.10759290426130474,0.03508548792951543,-0.08783648355191953,0.11534129346384193,-0.12455850979852046, ,1.6709730625152588
0.015758680523588347,0.02053780722369519,-0.0942502342857666, ,0.016521548719653906,0.020121639068648382,-0.09519058811852078, ,0.0012804019480689955, ,0.016582764852680582,-0.0034332758856440364,-0.03385036657368597,0.0038312946039652514,-0.011712965755062725,0.0509462430930588, ,0.03785000383935462, ,0.01232184810565089, ,0.0008307405257724575, ,0.2106375391444735,-0.20687656823472617,0.10523800736000001,1.6846490059546686,0.49517067514995616,-1.3305871473707909, ,0.10579369181546351,0.10759290426130474,0.03508548792951543,-0.08783648355191953,0.11534129346384193,-0.12455850979852046, ,1.6750741004943848
0.015758680523588347,0.02053780722369519,-0.0942502342857666, ,0.016582728181909954,0.0201107462726769,-0.09530999361114549, ,0.0014087318505654315, ,0.016582764852680582,-0.0034332758856440364,-0.03385036657368597,0.0038312946039652514,-0.011712965755062725,0.0509462430930588, ,0.03785000383935462, ,0.01232184810565089, ,0.0008351866128862497, ,0.2106375391444735,-0.20687656823472617,0.10523800736000001,1.6846490059546686,0.49517067514995616,-1.3305871473707909, ,0.10579369181546351,0.10759290426130474,0.03508548792951543,-0.08783648355191953,0.11534129346384193,-0.12455850979852046, ,1.679811954498291
0.016039102958421356,0.020484209169475003,-0.09477713682787335, ,0.01664395706986693,0.020099828336455225,-0.0954291351029239, ,0.0009688647333836075, ,0.016531567929412454,-0.00362426458271564,-0.03048090505141124,-0.038393015447976055,-0.05650769212414972,0.009559398764137004, ,0.034864216680193065, ,0.06831629815255605, ,0.0008362070565541684, ,0.21246010410279048,-0.2051543988037741,0.10578633803000001,1.6844393160111841,0.4965370401476106,-1.3321913988485985, ,0.10650610724856428,0.10303685294079346,0.03160478476190477,-0.04001161045568002,0.05982120183422795,-0.06953011734767733, ,1.683574914932251
0.016039102958421356,0.020484209169475003,-0.09477713682787335, ,0.016705233858839708,0.020088887230569306,-0.09554801082018372, ,0.0010928204444888663, ,0.016531567929412454,-0.00362426458271564,-0.03048090505141124,-0.038393015447976055,-0.05650769212414972,0.009559398764137004, ,0.034864216680193065, ,0.06831629815255605, ,0.0008381510973718556, ,0.21246010410279048,-0.2051543988037741,0.10578633803000001,1.6844393160111841,0.4965370401476106,-1.3321913988485985, ,0.10650610724856428,0.10303685294079346,0.03160478476190477,-0.04001161045568002,0.05982120183422795,-0.06953011734767733, ,1.6871769428253174
0.016039102958421356,0.020484209169475003,-0.09477713682787335, ,0.016766557033313898,0.020077924916174824,-0.09566661900222805, ,0.0012187841745166384, ,0.016531567929412454,-0.00362426458271564,-0.03048090505141124,-0.038393015447976055,-0.05650769212414972,0.009559398764137004, ,0.034864216680193065, ,0.06831629815255605, ,0.0008410130002075307, ,0.21246010410279048,-0.2051543988037741,0.10578633803000001,1.6844393160111841,0.4965370401476106,-1.3321913988485985, ,0.10650610724856428,0.10303685294079346,0.03160478476190477,-0.04001161045568002,0.05982120183422795,-0.06953011734767733, ,1.6907649040222168
0.016199173442711347,0.020452754862135863,-0.09508964802670539, ,0.016827925086927376,0.020066943345013792,-0.09578495790130963, ,0.0010137233244680514, ,0.01569244389337443,-0.003118291947023954,-0.03151017398753516,0.00579858431789061,-0.030859665474534195,-0.009434911338498948, ,0.03533932094336727, ,0.031399227212353546, ,0.0008423018832244002, ,0.21345633664356545,-0.20414272079725068,0.10611041053,1.6844393160111841,0.4972202226464378,-1.3330752033276427, ,0.09604953599035504,0.09978647903098925,0.03264100721311476,-0.028535728784089463,0.07305130117924788,-0.10898534914932859, ,1.6943979263305664
0.016199173442711347,0.020452754862135863,-0.09508964802670539, ,0.016889336522451316,0.020055944459430097,-0.09590302578260564, ,0.0011381418831257356, ,0.01569244389337443,-0.003118291947023954,-0.03151017398753516,0.00579858431789061,-0.030859665474534195,-0.009434911338498948, ,0.03533932094336727, ,0.031399227212353546, ,0.0008444932906310768, ,0.21345633664356545,-0.20414272079725068,0.10611041053,1.6844393160111841,0.4972202226464378,-1.3330752033276427, ,0.09604953599035504,0.09978647903098925,0.03264100721311476,-0.028535728784089463,0.07305130117924788,-0.10898534914932859, ,1.6979460716247559
0.016199173442711347,0.020452754862135863,-0.09508964802670539, ,0.016950789851771304,0.02004493019238553,-0.0960208209241925, ,0.0012642512221230733, ,0.01569244389337443,-0.003118291947023954,-0.03151017398753516,0.00579858431789061,-0.030859665474534195,-0.009434911338498948, ,0.03533932094336727, ,0.031399227212353546, ,0.0008475797460096944, ,0.21345633664356545,-0.20414272079725068,0.10611041053,1.6844393160111841,0.4972202226464378,-1.3330752033276427, ,0.09604953599035504,0.09978647903098925,0.03264100721311476,-0.028535728784089463,0.07305130117924788,-0.10898534914932859, ,1.7015531063079834
0.016357246126285037,0.020422819880876956,-0.0954094427583268, ,0.01701228359586881,0.020033902467476262,-0.09613834161702003, ,0.0010543359935093252, ,0.015457383517822122,-0.00267865937264673,-0.030858124105008135,0.008983215611090197,-0.01661546838205423,-0.03165383107272953, ,0.03461689969555031, ,0.018887667200505207, ,0.0008490889156994727, ,0.2144216782528435,-0.20314648825647572,0.10644226077,1.6842296260676997,0.4980400416450304,-1.3339887469702432, ,0.09489694155847078,0.09470752650545987,0.03211453935483872,0.0,0.08054687641465434,-0.10039498840497307, ,1.7051780223846436
0.016357246126285037,0.020422819880876956,-0.0954094427583268, ,0.01707381628480225,0.020022863198948786,-0.09625558616488715, ,0.0011787267723955058, ,0.015457383517822122,-0.00267865937264673,-0.030858124105008135,0.008983215611090197,-0.01661546838205423,-0.03165383107272953, ,0.03461689969555031, ,0.018887667200505207, ,0.0008514775958204584, ,0.2144216782528435,-0.20314648825647572,0.10644226077,1.6842296260676997,0.4980400416450304,-1.3339887469702432, ,0.09489694155847078,0.09470752650545987,0.03211453935483872,0.0,0.08054687641465434,-0.10039498840497307, ,1.7095301151275635
0.016491555643202947,0.020401404536185264,-0.09567949756798452, ,0.017135386457687814,0.020011814291715037,-0.09637255288441536, ,0.001023046601040083, ,0.01601975427443962,-0.0022157689020884472,-0.0323357186620062,-0.006772286506068923,-0.021269483967648512,-0.012375442932521625, ,0.03615440305452857, ,0.022320830201503463, ,0.0008527119052105277, ,0.21524028793751132,-0.20235876950330484,0.10672355570000001,1.6838102461807307,0.49872322414385767,-1.3347091939690063, ,0.09683361383517426,0.0921329529693891,0.03374748203389831,-0.014819946146142283,0.08077044792098484,-0.08453530737211941, ,1.7133820056915283
0.016491555643202947,0.020401404536185264,-0.09567949756798452, ,0.017196992662681453,0.020000757641369847,-0.0964892401050245, ,0.0011462296013748307, ,0.01601975427443962,-0.0022157689020884472,-0.0323357186620062,-0.006772286506068923,-0.021269483967648512,-0.012375442932521625, ,0.03615440305452857, ,0.022320830201503463, ,0.0008548084601831299, ,0.21524028793751132,-0.20235876950330484,0.10672355570000001,1.6838102461807307,0.49872322414385767,-1.3347091939690063, ,0.09683361383517426,0.0921329529693891,0.03374748203389831,-0.014819946146142283,0.08077044792098484,-0.08453530737211941, ,1.717087984085083
0.016491555643202947,0.020401404536185264,-0.09567949756798452, ,0.017258633456959237,0.019989695134205884,-0.09660564616890656, ,0.0012710878156229773, ,0.01601975427443962,-0.0022157689020884472,-0.0323357186620062,-0.006772286506068923,-0.021269483967648512,-0.012375442932521625, ,0.03615440305452857, ,0.022320830201503463, ,0.0008577607960373132, ,0.21524028793751132,-0.20235876950330484,0.10672355570000001,1.6838102461807307,0.49872322414385767,-1.3347091939690063, ,0.09683361383517426,0.0921329529693891,0.03374748203389831,-0.014819946146142283,0.08077044792098484,-0.08453530737211941, ,1.7208850383758545
0.016671407504784772,0.020370647612140927,-0.0960411531995412, ,0.017320307406699074,0.01997862864723008,-0.09672176943100093, ,0.001018817160279809, ,0.01578387646945761,-0.002739042630399862,-0.03131260942563631,0.012980572275370464,-0.017755496245082956,0.0446018714956474, ,0.03517261178781998, ,0.021993699130414778, ,0.0008588949957854998, ,0.2163446387385254,-0.20130075509953607,0.10710077609000002,1.6829714864067924,0.49981631614198113,-1.3359272521591399, ,0.09773114475640657,0.09177653922482666,0.03270803186858317,-0.08054828700811939,0.09873432263091383,-0.1180713085434763, ,1.724458932876587
0.016671407504784772,0.020370647612140927,-0.0960411531995412, ,0.0173820130870618,0.01996756004818,-0.09683760825896895, ,0.0011409559761319883, ,0.01578387646945761,-0.002739042630399862,-0.03131260942563631,0.012980572275370464,-0.017755496245082956,0.0446018714956474, ,0.03517261178781998, ,0.021993699130414778, ,0.0008608674501935172, ,0.2163446387385254,-0.20130075509953607,0.10710077609000002,1.6829714864067924,0.49981631614198113,-1.3359272521591399, ,0.09773114475640657,0.09177653922482666,0.03270803186858317,-0.08054828700811939,0.09873432263091383,-0.1180713085434763, ,1.7279798984527588
0.016671407504784772,0.020370647612140927,-0.0960411531995412, ,0.017443749082172222,0.019956491195539106,-0.09695316103316848, ,0.0012648301617890555, ,0.01578387646945761,-0.002739042630399862,-0.03131260942563631,0.012980572275370464,-0.017755496245082956,0.0446018714956474, ,0.03517261178781998, ,0.021993699130414778, ,0.0008636727468018195, ,0.2163446387385254,-0.20130075509953607,0.10710077609000002,1.6829714864067924,0.49981631614198113,-1.3359272521591399, ,0.09773114475640657,0.09177653922482666,0.03270803186858317,-0.08054828700811939,0.09873432263091383,-0.1180713085434763, ,1.7315130233764648
0.01683351991664101,0.02034782314802517,-0.09635753319569647, ,0.01750551398510044,0.01994542393855334,-0.09706842614662851, ,0.0010577664862875362, ,0.01584556104887808,-0.0019477179456010144,-0.03108633543851402,0.011063588522134434,-0.0106543496808021,-0.026570901391570655, ,0.03494618235437386, ,0.015358682497766635, ,0.0008650113243155141, ,0.2173485940121746,-0.2003971953532518,0.10743262633000002,1.682761796463308,0.5007727716403392,-1.3367888562251553, ,0.09693252457453604,0.08642708702957265,0.03264100721311476,0.0,0.08864112876078177,-0.0936038975945622, ,1.735050916671753
0.01683351991664101,0.02034782314802517,-0.09635753319569647, ,0.017567306397842937,0.01993436011724702,-0.09718340200502416, ,0.0011795989013369346, ,0.01584556104887808,-0.0019477179456010144,-0.03108633543851402,0.011063588522134434,-0.0106543496808021,-0.026570901391570655, ,0.03494618235437386, ,0.015358682497766635, ,0.0008671660337471677, ,0.2173485940121746,-0.2003971953532518,0.10743262633000002,1.682761796463308,0.5007727716403392,-1.3367888562251553, ,0.09693252457453604,0.08642708702957265,0.03264100721311476,0.0,0.08864112876078177,-0.0936038975945622, ,1.7385690212249756
0.01683351991664101,0.02034782314802517,-0.09635753319569647, ,0.0176291249313041,0.01992330156243889,-0.09729808702665106, ,0.0013030147447013415, ,0.01584556104887808,-0.0019477179456010144,-0.03108633543851402,0.011063588522134434,-0.0106543496808021,-0.026570901391570655, ,0.03494618235437386, ,0.015358682497766635, ,0.000870130990964543, ,0.2173485940121746,-0.2003971953532518,0.10743262633000002,1.682761796463308,0.5007727716403392,-1.3367888562251553, ,0.09693252457453604,0.08642708702957265,0.03264100721311476,0.0,0.08864112876078177,-0.0936038975945622, ,1.7421109676361084
0.01698772965924381,0.02032917281834779,-0.09666213012243818, ,0.017690968205276877,0.019912250095758196,-0.09741247964240014, ,0.001109681671176633, ,0.015828247496013248,-0.0021017673742337924,-0.031903125445658646,0.028141398936809357,0.0007992686642551985,-0.01988224838500393, ,0.03567576569734524, ,0.028152160040076896, ,0.0008717495766416518, ,0.21829076742283,-0.1995476947370871,0.10775280996000001,1.6829714864067924,0.5017292271386973,-1.337813817771452, ,0.09537381061152843,0.08860592115636862,0.03346388974789917,-0.011386693873822915,0.1011600381179898,-0.11529476333757363, ,1.7457060813903809
0.01698772965924381,0.02032917281834779,-0.09666213012243818, ,0.017752834848424402,0.019901207529660462,-0.09752657829573264, ,0.0012311827172050511, ,0.015828247496013248,-0.0021017673742337924,-0.031903125445658646,0.028141398936809357,0.0007992686642551985,-0.01988224838500393, ,0.03567576569734524, ,0.028152160040076896, ,0.000874161879598453, ,0.21829076742283,-0.1995476947370871,0.10775280996000001,1.6829714864067924,0.5017292271386973,-1.337813817771452, ,0.09537381061152843,0.08860592115636862,0.03346388974789917,-0.011386693873822915,0.1011600381179898,-0.11529476333757363, ,1.7493879795074463
0.01714420528909135,0.020308985505764564,-0.09698143632591169, ,0.01781472349826095,0.0198901756674437,-0.09764038144265397, ,0.001029176863508332, ,0.015002971340408683,-0.0019994308918564784,-0.030845623918066677,0.059265547169155525,0.04542551940684849,-0.024066829847013957, ,0.03435897827100278, ,0.07467164770696853, ,0.0008751953128245189, ,0.2192406635663596,-0.19867502592229974,0.10808854907000001,1.682761796463308,0.5029589556365863,-1.3390616151251415, ,0.0921329529693891,0.08533897622164638,0.0325077786122449,-0.004755079780764695,0.1422860013973871,-0.14018264889023885, ,1.7537779808044434
0.01714420528909135,0.020308985505764564,-0.09698143632591169, ,0.017876632801133448,0.01987915630326478,-0.09775388755168943, ,0.0011479913326864907, ,0.015002971340408683,-0.0019994308918564784,-0.030845623918066677,0.059265547169155525,0.04542551940684849,-0.024066829847013957, ,0.03435897827100278, ,0.07467164770696853, ,0.0008770019089825453, ,0.2192406635663596,-0.19867502592229974,0.10808854907000001,1.682761796463308,0.5029589556365863,-1.3390616151251415, ,0.0921329529693891,0.08533897622164638,0.0325077786122449,-0.004755079780764695,0.1422860013973871,-0.14018264889023885, ,1.7573630809783936
0.01714420528909135,0.020308985505764564,-0.09698143632591169, ,0.01793856141220213,0.019868151222154604,-0.0978670951038577, ,0.001268750561332807, ,0.015002971340408683,-0.0019994308918564784,-0.030845623918066677,0.059265547169155525,0.04542551940684849,-0.024066829847013957, ,0.03435897827100278, ,0.07467164770696853, ,0.0008795792027480075, ,0.2192406635663596,-0.19867502592229974,0.10808854907000001,1.682761796463308,0.5029589556365863,-1.3390616151251415, ,0.0921329529693891,0.08533897622164638,0.0325077786122449,-0.004755079780764695,0.1422860013973871,-0.14018264889023885, ,1.7610180377960205
0.017307126180434534,0.02028934505684162,-0.0973031198315336, ,0.01800050799542229,0.019857162200035017,-0.09798000259264703, ,0.0010610045406904546, ,0.016121270506033528,-0.00197723485683127,-0.030329555673336346,-0.03339550505793751,-0.03986345762494252,0.01863878307191407, ,0.034404749203413534, ,0.052003166706865694, ,0.0008807649892705071, ,0.22022145064138612,-0.19781780257326081,0.10842688076000001,1.6823424165763388,0.5039154111349443,-1.340086576671438, ,0.0978318985138874,0.08187829297538463,0.03192146597194389,-0.039038055245814156,0.06740183149331624,-0.05269487763024994, ,1.764657974243164
0.017307126180434534,0.02028934505684162,-0.0973031198315336, ,0.018062471223525115,0.019846191003734436,-0.09809260852398834, ,0.0011790776244254345, ,0.016121270506033528,-0.00197723485683127,-0.030329555673336346,-0.03339550505793751,-0.03986345762494252,0.01863878307191407, ,0.034404749203413534, ,0.052003166706865694, ,0.0008827020843039806, ,0.22022145064138612,-0.19781780257326081,0.10842688076000001,1.6823424165763388,0.5039154111349443,-1.340086576671438, ,0.0978318985138874,0.08187829297538463,0.03192146597194389,-0.039038055245814156,0.06740183149331624,-0.05269487763024994, ,1.7682719230651855
0.017307126180434534,0.02028934505684162,-0.0973031198315336, ,0.018124449777998965,0.019835239391003595,-0.098204911416231, ,0.0012990218940082982, ,0.016121270506033528,-0.00197723485683127,-0.030329555673336346,-0.03339550505793751,-0.03986345762494252,0.01863878307191407, ,0.034404749203413534, ,0.052003166706865694, ,0.0008853880185601376, ,0.22022145064138612,-0.19781780257326081,0.10842688076000001,1.6823424165763388,0.5039154111349443,-1.340086576671438, ,0.0978318985138874,0.08187829297538463,0.03192146597194389,-0.039038055245814156,0.06740183149331624,-0.05269487763024994, ,1.7718911170959473
0.017473478377503886,0.02026810595082422,-0.09761721653708655, ,0.01818644234907068,0.019824309110532356,-0.09831690980011705, ,0.0010930891649520668, ,0.017060196999279457,-0.002167437623672714,-0.032389427080778674,-0.05396848868906108,-0.08324006298260365,0.02934528000160451, ,0.03667182970793542, ,0.09920418443934428, ,0.000886719436165214, ,0.22120223771641262,-0.1969683019570961,0.10875613842000001,1.6819230366893698,0.5043253206342407,-1.3405025091226679, ,0.09874811816698312,0.08634844545811718,0.03389108834042554,-0.05725227338520806,0.027436514378458947,-0.0426281631536793, ,1.7754631042480469
0.017473478377503886,0.02026810595082422,-0.09761721653708655, ,0.018248447635686737,0.019813401901964914,-0.09842860221875596, ,0.0012106526535698263, ,0.017060196999279457,-0.002167437623672714,-0.032389427080778674,-0.05396848868906108,-0.08324006298260365,0.02934528000160451, ,0.03667182970793542, ,0.09920418443934428, ,0.0008887827050658803, ,0.22120223771641262,-0.1969683019570961,0.10875613842000001,1.6819230366893698,0.5043253206342407,-1.3405025091226679, ,0.09874811816698312,0.08634844545811718,0.03389108834042554,-0.05725227338520806,0.027436514378458947,-0.0426281631536793, ,1.7790589332580566
0.017473478377503886,0.02026810595082422,-0.09761721653708655, ,0.018310464345494392,0.019802519495916646,-0.09853998722759971, ,0.0013299706782017968, ,0.017060196999279457,-0.002167437623672714,-0.032389427080778674,-0.05396848868906108,-0.08324006298260365,0.02934528000160451, ,0.03667182970793542, ,0.09920418443934428, ,0.0008915750340097784, ,0.22120223771641262,-0.1969683019570961,0.10875613842000001,1.6819230366893698,0.5043253206342407,-1.3405025091226679, ,0.09874811816698312,0.08634844545811718,0.03389108834042554,-0.05725227338520806,0.027436514378458947,-0.0426281631536793, ,1.782641887664795
0.017642281014208686,0.020249610021762544,-0.09794104138221896, ,0.018372491194822656,0.019791663613988916,-0.09865106339441634, ,0.0011167153075291316, ,0.01669203352313709,-0.0018514283933841684,-0.03217329507208784,0.004677769373093468,-0.01920054301970569,0.017454882331547118, ,0.03629287376371556, ,0.019761272875705622, ,0.0008929910105727932, ,0.22219847025718759,-0.1961110786080572,0.10909706269000001,1.6819230366893698,0.5050085031330679,-1.3412229561214313, ,0.09999677719543813,0.08324293119164104,0.033963350788912584,-0.04524946989571158,0.09202025220306286,-0.09364214976153665, ,1.7864270210266113
0.017642281014208686,0.020249610021762544,-0.09794104138221896, ,0.018434526908663953,0.01978083596878649,-0.09876182929926633, ,0.0012333269942702899, ,0.01669203352313709,-0.0018514283933841684,-0.03217329507208784,0.004677769373093468,-0.01920054301970569,0.017454882331547118, ,0.03629287376371556, ,0.019761272875705622, ,0.0008951181104709025, ,0.22219847025718759,-0.1961110786080572,0.10909706269000001,1.6819230366893698,0.5050085031330679,-1.3412229561214313, ,0.09999677719543813,0.08324293119164104,0.033963350788912584,-0.04524946989571158,0.09202025220306286,-0.09364214976153665, ,1.7902390956878662
0.017642281014208686,0.020249610021762544,-0.09794104138221896, ,0.018496570220655165,0.01977003826393305,-0.09887228353447568, ,0.0013516697323304812, ,0.01669203352313709,-0.0018514283933841684,-0.03217329507208784,0.004677769373093468,-0.01920054301970569,0.017454882331547118, ,0.03629287376371556, ,0.019761272875705622, ,0.0008979538348302787, ,0.22219847025718759,-0.1961110786080572,0.10909706269000001,1.6819230366893698,0.5050085031330679,-1.3412229561214313, ,0.09999677719543813,0.08324293119164104,0.033963350788912584,-0.04524946989571158,0.09202025220306286,-0.09364214976153665, ,1.7940020561218262
0.017642281014208686,0.020249610021762544,-0.09794104138221896, ,0.018558619873058402,0.01975927219408644,-0.09898242470461162, ,0.0014712536537408152, ,0.01669203352313709,-0.0018514283933841684,-0.03217329507208784,0.004677769373093468,-0.01920054301970569,0.017454882331547118, ,0.03629287376371556, ,0.019761272875705622, ,0.0009014927226013315, ,0.22219847025718759,-0.1961110786080572,0.10909706269000001,1.6819230366893698,0.5050085031330679,-1.3412229561214313, ,0.09999677719543813,0.08324293119164104,0.033963350788912584,-0.04524946989571158,0.09202025220306286,-0.09364214976153665, ,1.7979578971862793
