NicholasDascanio/dvrk_moveit_final/test/execution/third_experiment_notsharpbends/thirdexp_300vel3.0/thirdexp_300vel3.0_30.csv
Current Position (x),Current Position (y),Current Position (z), ,Planned Position (x),Planned Position (y),Planned Position (z), ,Position Error,,Cartesian linear Velocity(x),Cartesian linear Velocity(y),Cartesian linear Velocity(z),Cartesian Angular Velocity(x),Cartesian Angular Velocity(y),Cartesian Angular Velocity(z), ,Total Linear Velocity, ,Total Angular Velocity, ,MSE, ,Joint 1 Position,Joint 2 Position,Joint 3 Position,Joint 4 Position,Joint 5 Position,Joint 6 Position, ,Joint 1 Velocity,Joint 2 Velocity,Joint 3 Velocity,Joint 4 Velocity,Joint 5 Velocity,Joint 6 Velocity, ,Time Stamp
0.008190884300843793,0.021585340241639897,-0.07870021862283048, ,0.00837176424327876,0.02150847787572167,-0.07884101000827254, ,0.00024175936607403136, ,0.00027752651294811584,2.7449189506692996e-05,-0.0003243935441851337,0.22035524248223484,-0.000865425837880021,-0.1476330644568708, ,0.0004277915320605439, ,0.22035694191762004, ,2.0146613839502614e-05, ,0.17983928044206615,-0.2501470405290061,0.09070011501000001,1.796623435775405,0.7458986522195394,-1.2414856085885435, ,0.0027551171248638502,0.0006162348011489175,0.0003472020012841086,-0.0016946472533430615,0.0,-0.26683596140958477, ,0.03722691535949707
0.008227656489029966,0.021586076626978694,-0.07875697340180289, ,0.008444830506212668,0.021490116028667534,-0.07897042939192692, ,0.0003192748813911557, ,0.0014897951593394354,0.00030596114165986797,-0.0035347446824470757,0.14055449416470903,-0.0639458220501084,-0.12347517696857602, ,0.003848054288479426, ,0.15441707802898466, ,2.5501556702963044e-05, ,0.17992423050368261,-0.25003892226876695,0.09074159629,1.79641374583192,0.7428926492246997,-1.2472022887212784, ,0.005336763491087107,0.006351201769832349,0.0032741647523124363,-0.0012374357611697996,-0.06329873183783206,-0.19042963507220545, ,0.07285404205322266
0.008274211322222672,0.021584270399396865,-0.07883411826134334, ,0.008518037776882184,0.021471605577012658,-0.07909961461079755, ,0.00037766786170946815, ,0.0023354870834485487,0.00027464051308279927,-0.004839468434409401,-0.0837370479899863,-0.0975353207822186,0.012048896622551984, ,0.005380555924439999, ,0.12854972580100288, ,2.9334440911707973e-05, ,0.18014818975703514,-0.24980724028254023,0.09080770708000001,1.79641374583192,0.7407064652284527,-1.2519539014733807, ,0.010560788717730698,0.010429384170209194,0.004450631886001677,-0.0012061728483187977,-0.09128079171745204,0.0686416820695619, ,0.1101369857788086
0.00833431096886315,0.021580444847468547,-0.07898218310687437, ,0.008591383338625963,0.021452949118997127,-0.07922856597347744, ,0.0003782140677307931, ,0.0011203478720739147,-0.0002831563283975701,-0.0030795418856955628,0.04041250338790928,0.06881508038025833,-0.003922200386031093, ,0.0032892149650829336, ,0.07980404574670524, ,3.135514706917734e-05, ,0.1806424446609855,-0.2492975399128414,0.0909606693,1.7962040558884358,0.7416629207268107,-1.2486498897922274, ,0.01417853601650542,0.014363090897301466,0.0034977627404479583,-0.0005372352335628235,0.08765739211806607,-0.04705960324433663, ,0.14615702629089355
0.008407662446853023,0.021563796041025124,-0.07912067388275265, ,0.00866486448639725,0.02143414924283685,-0.0793572837876884, ,0.00037275384443340837, ,0.0018133783685184732,-0.0005393124386116085,-0.003343852361816191,0.0047708309173525145,-0.009592748572036618,-0.014277518359494479, ,0.0038419458131883693, ,0.010713619948001712, ,3.249365425651647e-05, ,0.18127570875667193,-0.24867199855002922,0.09109937233000001,1.7959943659449509,0.742072830226107,-1.2496375734244412, ,0.015405347655595907,0.01696405819779599,0.003297207932105155,-0.0007766144936712695,0.0061772039557146515,-0.024640570959422518, ,0.184096097946167
0.00846552211321662,0.021544446609198555,-0.07921674551976754, ,0.008738478526746285,0.021415208526737596,-0.07948576836028184, ,0.00040445144870991374, ,0.0020951131610111484,-0.0005365440570864817,-0.002929747012255214,-0.018952409552892582,-0.015748765167502444,0.0014754574829837887, ,0.003641537620079642, ,0.02464178223964052, ,3.37761527427221e-05, ,0.1817776863934965,-0.24815457544745617,0.09119270521,1.7957846760014666,0.742072830226107,-1.250045967125144, ,0.017921990851458125,0.018003593541732265,0.002722873764102565,-0.0004134720786124631,0.0036741181861780297,0.00826671563691619, ,0.2208850383758545
0.008544423997538552,0.021524965783696427,-0.07934746769258198, ,0.008812222777802772,0.021396129538909757,-0.07961401999724138, ,0.00039920558087402913, ,0.002081914697002823,-0.0003892376339992879,-0.00376905916258058,-0.0032728004375465187,-0.0010310606152590953,0.0022131973312504794, ,0.004323387758731611, ,0.0034313711451442186, ,3.462954237392777e-05, ,0.18252679148229628,-0.24751358861889552,0.09132622308,1.7955749860579822,0.7428926492246997,-1.250796153287463, ,0.018933946839279885,0.016268976780125285,0.003858723720930233,-0.006651666874035668,0.020580702084725608,-0.012347033301002699, ,0.25785207748413086
0.008625520353668974,0.021512832353804228,-0.07949443657634371, ,0.008886094569258197,0.021376914837581393,-0.07974203900368482, ,0.0003842908469783418, ,0.001955411271815505,-0.0005416212942456899,-0.002911870150475913,-0.01158061631538105,-0.012333526973621157,0.004112256146287469, ,0.00354908081643066, ,0.016918231634652798, ,3.5092901193916355e-05, ,0.18322956017385073,-0.24691893818758026,0.09147529643,1.7953652961144975,0.743302558723996,-1.251212085738693, ,0.018242395532193537,0.01519323431931969,0.002912031356489946,-0.007124328544526753,0.008066567655713385,-0.0038445807477064907, ,0.2944788932800293
0.008690165938016546,0.02149746137345867,-0.0795922823287833, ,0.00896009124234828,0.02135756697101356,-0.07986982568386583, ,0.0004116557150150083, ,0.0020714267903074414,-0.00029675681371179246,-0.003893264866196533,-0.001174771030484602,-0.001788718218442599,0.005377943489367822, ,0.004419998288738138, ,0.0021399997534056244, ,3.614586387819945e-05, ,0.18383193333804024,-0.2464555742151268,0.09157381447000001,1.7949459162275283,0.7435758317235269,-1.2514349215460858, ,0.01845167053441003,0.015127840197428789,0.004004226123680242,-0.011103145678561497,0.02038832490496466,-0.01452549545794032, ,0.3276491165161133
0.008780200452215949,0.021486685623283992,-0.07976440887568659, ,0.009034210149835364,0.02133808847751377,-0.07999738034117666, ,0.00037533683798470516, ,0.0020785966233928376,-0.0004075146224152969,-0.0041117985149667,0.009882638950399822,0.010205697652265318,0.00020144357739344872, ,0.004625312867033402, ,0.01420643572533538, ,3.664610450900855e-05, ,0.18460420662546267,-0.2457991419208177,0.09175010991,1.794736226284044,0.7442590142223542,-1.251992011064568, ,0.020531575412910164,0.0176782678015035,0.003821691823416507,-0.0033505744193053732,0.027487235684114087,-0.02274543241798385, ,0.360476016998291
0.008845959948404633,0.02146862005031275,-0.07987457226520914, ,0.009108448655990807,0.02131848188545017,-0.08012470327814897, ,0.0003924376559313205, ,0.0021689552931084487,-0.0006373006369411237,-0.0039035116424470597,-0.0033724600118944076,-0.0062231917069581946,0.0005377347298359321, ,0.004510867134827678, ,0.0070782484165977655, ,3.722062483332271e-05, ,0.1852065797896522,-0.24525082788674776,0.09186159085000001,1.7945265363405596,0.7448055602214159,-1.2526827188997753, ,0.019097794638452563,0.019101638800014246,0.003915637050147493,-0.009658138325166135,0.01597480311753735,-0.017215249633792288, ,0.39391493797302246
0.008914762248243013,0.021450470629107283,-0.07999753744529695, ,0.009182804136577374,0.02129874971326564,-0.0802517947964574, ,0.00039939014863264754, ,0.0023581327293865236,-0.0006354094986294003,-0.004244849064649615,0.014261986691823943,-0.005285606711902405,-0.011172857606352022, ,0.004897272586043083, ,0.015209927722789288, ,3.7766425893769684e-05, ,0.18577806202234481,-0.24465617745543247,0.09198344211000001,1.7945265363405596,0.7449421967211813,-1.253120851764034, ,0.020774286680926176,0.02013514567334411,0.004281938580645162,-0.009492328811751794,0.018556469364653886,-0.039021383964849464, ,0.4259650707244873
0.00898508458966878,0.021430976776057743,-0.08012816953332108, ,0.009257273978831776,0.021278894469492618,-0.08037865519691997, ,0.00039994894575641943, ,0.0022175300702407777,-0.0005691184999132817,-0.003984986960774682,0.02886680128547048,0.012845561084524379,-0.006817743279715228, ,0.00459580858575614, ,0.031595896173809666, ,3.823926930095466e-05, ,0.186403603385157,-0.24406152702411718,0.09211566369000002,1.7938974665101057,0.7456253792200086,-1.254086334983219, ,0.02138281693521198,0.01845884877620517,0.004155703501174016,-0.014876603252897176,0.03963203590158607,-0.05135436305126123, ,0.45911097526550293
0.00907881202370222,0.021404765901305793,-0.08027697980060167, ,0.009331855581446884,0.02125891865276607,-0.08050528477950145, ,0.00037070962411719785, ,0.0022723616658068472,-0.0006097346442408714,-0.003716092282902785,-0.017246811865851936,-0.013953167349935222,0.009656236075444257, ,0.004398266218825964, ,0.02218430521613734, ,3.84345354804297e-05, ,0.18723765853557323,-0.24328925373669472,0.09226473704,1.7938974665101057,0.7460352887193048,-1.2545839461745891, ,0.02007975911097562,0.017864635082543445,0.003723424852734923,-0.01145531197678908,0.009383012355839472,-0.000894645934222827, ,0.49146008491516113
0.009149416976170947,0.02138211924484857,-0.08038886184872288, ,0.009406546354554329,0.021238824751838706,-0.08063168384331433, ,0.00038159055283399127, ,0.0023113199893553217,-0.0006420415014793541,-0.0035894138768409133,-0.019701989625834228,-0.006272088616592147,0.015009418874355553, ,0.00431721083132078, ,0.020676254260262924, ,3.8680602608085735e-05, ,0.18789409082988232,-0.24271777150400212,0.09237751427,1.793268396679652,0.7465818347183666,-1.255356332749937, ,0.021572389533637368,0.01799335258977451,0.0036550737769619097,-0.011573189026399979,0.019123239387210948,0.0038796860346242993, ,0.523374080657959
0.009218193304026812,0.021370172917388314,-0.08050853312880046, ,0.009481343719706796,0.021218615245594392,-0.08075785268662194, ,0.00039290980016339826, ,0.001926002497188183,-0.0003784959338480717,-0.0037497063758126906,0.022555462534770792,0.030277687216029185,-9.282773416219439e-05, ,0.004232380263625302, ,0.037755625177817664, ,3.8971410248933955e-05, ,0.18851963219269452,-0.24220034840142907,0.09250195811,1.793268396679652,0.7474016537169593,-1.2560248401721157, ,0.019237166340658987,0.015992069693035182,0.004036698307146478,-0.008781015794690313,0.05428791088749246,-0.036557065708624985, ,0.5572431087493896
0.00926664675119388,0.021358867299337326,-0.08058402039577259, ,0.009556245109860488,0.02119829260306261,-0.080883791606839, ,0.00044667014833133645, ,0.0023308745583422927,-0.00048144084872751966,-0.0035582024231953185,-0.00232361732851538,-0.0005363350839579638,-0.003955823349827126, ,0.004280837065573028, ,0.0023847121925497923, ,3.9804119300414606e-05, ,0.18893665976790264,-0.24185282542208897,0.09257714293000001,1.7930587067361679,0.7474016537169593,-1.2560248401721157, ,0.02184552061659088,0.01686457109622726,0.003690642150139018,0.0,0.02242502129693305,-0.012434729800572426, ,0.5862181186676025
0.009361463591735196,0.021340363979693654,-0.0807445493206401, ,0.009631247969357597,0.02117785928343269,-0.08100950090053538, ,0.00041157104660675655, ,0.0023249212181729005,-0.0005076319043024201,-0.004534021314701194,-0.006557858500302442,-0.0027291730159237876,0.006131588797143126, ,0.005120575954240012, ,0.007103090281330882, ,4.035199043102307e-05, ,0.18979388311694156,-0.24115005673053455,0.09274306805000002,1.7928490167926832,0.7483581092153173,-1.2568047654979906, ,0.0194620470792598,0.01899458397887726,0.004615708930744713,-0.011793937969882075,0.020560375586688624,-0.012846940757022522, ,0.6146221160888672
0.009434863100585665,0.021327110417405166,-0.08088212654674783, ,0.009706349753908624,0.021157317736067643,-0.08113498086343646, ,0.00040800718503031377, ,0.0024030154953407832,-0.0003768462818806845,-0.004816207438118658,0.021143414474817764,0.02411674982869404,0.0057393626889584185, ,0.005395586221904409, ,0.03207275472051627, ,4.0830593024181106e-05, ,0.19042714721262796,-0.24061718816221306,0.09288436366000001,1.7922199469622295,0.7490412917141446,-1.2574435337566132, ,0.022391916365849644,0.018348209891428997,0.0051185126992287925,-0.01766176577847264,0.0532735227490773,-0.03988426203849968, ,0.6432840824127197
0.009488226335600916,0.021315161751677813,-0.08097563192653166, ,0.009781547930574886,0.021136670400518434,-0.0812602317904264, ,0.0004459751148278045, ,0.0023656510270450145,-0.0003857754747712648,-0.0037009304319069233,0.004978395522539293,0.0086468053659564,-0.03793985890386838, ,0.004409309873495952, ,0.009977558033971025, ,4.147215415662388e-05, ,0.19110674770555972,-0.24002253773089777,0.09302047411000001,1.7918005670752608,0.7493145647136754,-1.2576663695640062, ,0.021557687768848425,0.020643232881981895,0.00412556630924631,0.02748620698808685,0.01606355897697101,-0.010113892584326135, ,0.6720728874206543
0.009564345975039044,0.021296582669753965,-0.08110258805652204, ,0.00985683997775094,0.021115919706538165,-0.08138525397554947, ,0.0004450751281300258, ,0.002512698923241683,-0.000502658916348246,-0.00424256764421821,0.0272740488087173,0.032111841275818835,-0.030905660463405937, ,0.004956379937092349, ,0.042131272081070356, ,4.205616392403127e-05, ,0.1915701116780132,-0.23961323288856387,0.09310991812000001,1.7918005670752608,0.750134383712268,-1.2583348769861846, ,0.02438883103533045,0.020824433082833174,0.004557599862660945,0.01949014297682377,0.054467712950792946,-0.041713198635033234, ,0.7008669376373291
0.009651112640097822,0.021274684356762583,-0.0812430698238347, ,0.009932223385146958,0.021095068074096366,-0.0815100477120124, ,0.0004272732764364456, ,0.00297738273088366,-0.0008046989899293333,-0.004414391712930497,-0.025809190079836727,-0.029129323652880804,0.010873977139304672, ,0.005385090768570849, ,0.03891827061130946, ,4.250578751335897e-05, ,0.19231149403393874,-0.23894907786138056,0.09325121373,1.7915908771317761,0.750407656711799,-1.2585577127935774, ,0.025717328335628935,0.021567486717834268,0.004391731877584782,-0.014358083067980913,0.0,0.002364622812752206, ,0.7303450107574463
0.009732057456309,0.021253176900551847,-0.08137836575715636, ,0.010007695653771222,0.021074117913392715,-0.08163461329218608, ,0.0004167749224599321, ,0.002847226510200656,-0.0007906288185607697,-0.004482709773433022,-0.007485825352674376,-0.008290435034651853,0.005658385700111973, ,0.0053690296741552975, ,0.011169999662686792, ,4.2871161905516395e-05, ,0.19306832185561273,-0.23829264556707147,0.09339250934000001,1.7913811871882916,0.7516373852096879,-1.2597238314071264, ,0.025585586831617897,0.02191109248637053,0.004571989529276694,-0.013208187590440896,0.021433328142905925,-0.01537504082264798, ,0.7587540149688721
0.009812763207302268,0.021230726593506274,-0.08150203618141244, ,0.010083254295912508,0.021053071624871487,-0.08175895100760813, ,0.00041319722266412, ,0.0029585225406237765,-0.0007322034582566858,-0.004558351725144469,-0.009537578343613125,-0.011462856731886364,0.000713277165016186, ,0.005483388366492891, ,0.014911823602371605, ,4.319330836157139e-05, ,0.19377109054716718,-0.23767482693713352,0.09351695318000001,1.791171497244807,0.7519106582092188,-1.26002834595466, ,0.02623636758597478,0.02178034004096185,0.0046521061682242995,-0.0073899519594745585,0.017338974204592107,-0.012302650817248385, ,0.7874670028686523
0.009898424005867884,0.021203222223058066,-0.08163624765281839, ,0.01015889683512257,0.0210319315992357,-0.0818830611489843, ,0.0003976222761353261, ,0.0029408324559649602,-0.000657429309215847,-0.004630480249279141,-0.0130011102858953,-0.010323749786677298,0.00393068707540259, ,0.005524677019486039, ,0.01660146608571529, ,4.3616726662035066e-05, ,0.19457425476608653,-0.23697205824557907,0.09365565621000001,1.7907521173578382,0.7530037502073423,-1.2610830466645124, ,0.02582229702271314,0.021055456303188547,0.0047463681525625745,-0.007453585926078922,0.01813862103171394,-0.007165240191765922, ,0.8138411045074463
0.00995336032375829,0.021192411200567904,-0.08172998741637517, ,0.010234620806198498,0.021010700217460865,-0.08200694400619087, ,0.0004345472275904678, ,0.00289809549190283,-0.00044869611785797615,-0.005427090924196411,-0.013504090986489567,-0.00926502100641821,0.002556068811174272, ,0.006168760133597625, ,0.016376845939092482, ,4.4173753131673954e-05, ,0.19505306420428845,-0.23656275340324517,0.09375287796000001,1.7907521173578382,0.7535502962064041,-1.2615287182792982, ,0.023190845933155128,0.020861055519558316,0.0055520430533286865,-0.006125665281535031,0.016153143347389886,-0.006441048607061165, ,0.8387370109558105
0.010032892926667049,0.02117629718722903,-0.08187530684533334, ,0.010310423755165287,0.020989379850809918,-0.0821305998682766, ,0.00042087525347119604, ,0.002627733623445929,-0.0007530227711173974,-0.004102971591899428,-0.012245309287225134,-0.010154616089719957,0.009995419448262943, ,0.004930152449320743, ,0.01590797995682151, ,4.464094552309437e-05, ,0.1957017737657233,-0.23599127117055257,0.09390065502000002,1.7901230475273844,0.7539602057057003,-1.2618629719903873, ,0.02324196462367641,0.01996149380699848,0.004177501054287963,-0.014674023755083788,0.017353268140300228,-0.008598515140243245, ,0.8641700744628906
0.010084673995158017,0.02116228731771284,-0.08195321324833879, ,0.010386303239258132,0.020967972860846312,-0.0822540290234651, ,0.0004682183674404293, ,0.0026053902090540366,-0.0007155091829456144,-0.003894945846346007,0.01947563809706285,0.020288640984209294,-0.00011914954619642699, ,0.004740317993371558, ,0.028123467627188013, ,4.527400141243896e-05, ,0.19618830593679945,-0.2355896890610929,0.09398232129,1.7901230475273844,0.7546433882045276,-1.262338382768729, ,0.02605627170743294,0.019655538848067686,0.004181888033604621,-0.011893689777688565,0.051521070283316935,-0.03870914366884522, ,0.8900160789489746
0.010178895016443838,0.021140528951532688,-0.08211359172682103, ,0.010462256826904947,0.02094648159944901,-0.0823772317591556, ,0.0004329599948353804, ,0.0030854844945078517,-0.000555629158153117,-0.005369336333343814,-0.02491044612359599,-0.027182082753135925,0.013624657207592683, ,0.0062176129654236524, ,0.03686998704111724, ,4.573266538456666e-05, ,0.19701463835434146,-0.23490236583528692,0.09414824641000001,1.7894939776969307,0.7555998437028857,-1.263118308094604, ,0.024307618227067312,0.020769739890232168,0.005414279918422842,-0.017197015402338995,0.0011995137473019524,0.0017621785288124434, ,0.9153389930725098
0.010234243457702727,0.021125828729131487,-0.08220696928309427, ,0.010538282097708853,0.020924908408826368,-0.0825002083619269, ,0.00046775808606895386, ,0.0027466492469465755,-0.00042447477199142265,-0.004331383636659316,0.037473506393426795,0.04210322665482648,-0.051399105943921226, ,0.005146372035301125, ,0.05636439811300542, ,4.630047087832431e-05, ,0.19753206145691452,-0.23447761552720456,0.09424676445,1.7890745978099616,0.7565562992012438,-1.2638982334204787, ,0.02655945747508278,0.021272571521737452,0.004760553353257622,0.03886621254562114,0.062478230588185864,-0.04845469664251756, ,0.9410610198974609
0.01033346355240751,0.021107154095296808,-0.08236415230700385, ,0.010614376642430463,0.020903255621529854,-0.08262295911753785, ,0.0004329754230086501, ,0.003128354519741473,-0.0006316146218503646,-0.005058587429754944,-0.011675433790324008,-0.016840901228836122,-0.006494829377576129, ,0.005981207722207682, ,0.02049223523872461, ,4.670823165308228e-05, ,0.19808809822385867,-0.23401425155475108,0.09435435652000002,1.7892842877534463,0.7568295722007747,-1.2639577117475906, ,0.027538288322249208,0.023506797512625906,0.005113583152487962,0.0,0.017567190323393777,-0.01665041046741067, ,0.9657449722290039
0.010391285222049506,0.021088980798968607,-0.08245985583896619, ,0.010690538062970576,0.020881525560468954,-0.08274548431092989, ,0.00046278889655716423, ,0.002983704488331637,-0.0009670000432452215,-0.004556520141596984,0.010422817763606715,0.008085734930010531,0.00010314457478970937, ,0.005531677626010541, ,0.013191445619326, ,4.7203966233321654e-05, ,0.1989221533742749,-0.23331148286319667,0.09450991132000001,1.7888649078664773,0.758195937198429,-1.2650718907845548, ,0.02785351968255673,0.02387945182648988,0.004754869110447762,-0.01425843081018348,0.041076336152225605,-0.03559179778340155, ,0.9905478954315186
0.01048933802998804,0.021065519070098997,-0.08261820920432306, ,0.010766763972352345,0.020859720538924525,-0.08286778422622951, ,0.00042615241462403797, ,0.0031884618184578246,-0.0009115461855226269,-0.004909282784034796,-0.01500262273212256,-0.017707106700315067,0.008658435821523782, ,0.00592437867372813, ,0.023208194968310926, ,4.75446233542853e-05, ,0.19974848579181695,-0.23259326870589378,0.09467194757000001,1.7886552179229929,0.7587424831974907,-1.2656809198796215, ,0.02724574836591179,0.023617954593944942,0.004980866641651032,-0.016353576258852774,0.013940178882559315,-0.01075249455195611, ,1.0158910751342773
0.010536210441706901,0.02105056137849047,-0.08269635492806504, ,0.010843051994703954,0.020837842860563595,-0.08298985914674935, ,0.0004749164483360575, ,0.0029208795763013625,-0.000946171110175178,-0.004970001133345004,0.01672626260182201,0.02152370550180867,-0.0012880797741981875, ,0.0058418908355459005, ,0.027258718900955832, ,4.820542024700428e-05, ,0.20018868156564773,-0.23218396386355988,0.09475491013000001,1.7886552179229929,0.7596989386958489,-1.2665425239456372, ,0.026928757536455957,0.024894265886272502,0.005231136788177341,-0.012973867453098411,0.053875085667589806,-0.041510772319934414, ,1.0373051166534424
0.010612337226180903,0.02102913548921925,-0.08281947510386821, ,0.010919399765240926,0.020815894819452965,-0.0831117093549911, ,0.0004745101091291069, ,0.0035923650636665145,-0.0008542797905058023,-0.006256632345746107,-0.025386030300419075,-0.030248629621378562,0.004213952720116339, ,0.007265007159043602, ,0.03948962039318287, ,4.883776696252333e-05, ,0.20082194566133416,-0.23162792709661573,0.09487935397000001,1.7880261480925392,0.7599722116953798,-1.2666020022727487, ,0.02748246207890842,0.02667142820642799,0.0062687176387249115,-0.012148437118962956,0.0,-0.003724372086213716, ,1.0594871044158936
0.010674611794605202,0.021016056848913913,-0.08294047473183486, ,0.010995804930248676,0.020793878700073747,-0.08323333513264707, ,0.0004881550722571855, ,0.0029637759783160667,-0.0005539508146428394,-0.005759666972079862,0.0434182512455066,0.04370214345551634,-0.010608737596582403, ,0.006501122455695972, ,0.06160374889149166, ,4.949037054273084e-05, ,0.20136253696252987,-0.23113367219266534,0.09500768668000001,1.7878164581490545,0.7612019401932687,-1.2676047634060166, ,0.027097927343937973,0.02292750460460758,0.006231929389671363,-0.010905300146081936,0.07667246924543604,-0.0662456296507721, ,1.0808849334716797
0.01074517375322195,0.021003207188649974,-0.08306387248226753, ,0.011072265147064888,0.020771796777335202,-0.08335473676060241, ,0.0004951177504415093, ,0.0036360152654327836,-0.0007272647867934512,-0.006092312109681467,-0.012205075087811485,-0.018979032088790516,0.000831686448860118, ,0.007132025513298547, ,0.02256474038258766, ,5.0140126369567315e-05, ,0.20192629646234825,-0.23063169455584076,0.09513472310000001,1.7878164581490545,0.7616118496925651,-1.2679390171171059, ,0.02921703865716465,0.024966309276103864,0.006229492186155652,-0.010905300146081936,0.013298531571148197,-0.01459153312803675, ,1.1028950214385986
0.010811639412818175,0.020987515627037226,-0.08317927368620612, ,0.011148778084062021,0.02074965131658915,-0.08347591451893703, ,0.0005081709333248935, ,0.0029751949876174687,-0.0009932444873904827,-0.004973659020877427,0.0351677839263648,0.03599441820122396,-0.006976220845963957, ,0.005880102370029887, ,0.050322670486496815, ,5.080678288116695e-05, ,0.20249777869504088,-0.23014516238476462,0.09525527807,1.7873970782620854,0.7624316686911576,-1.2686075245392843, ,0.028549019722764975,0.025387089769521344,0.005339863064029502,-0.013993229804288188,0.07083286344632377,-0.06118176630522636, ,1.1240589618682861
0.010913971709022596,0.020953208180638536,-0.08332551596989389, ,0.011225341420629715,0.020727444573643818,-0.08359686868692734, ,0.0004706937439471673, ,0.0035210540623391334,-0.000975777989740977,-0.005064232017788019,-0.01644794927410342,-0.023032936540958945,-0.0005505803044801715, ,0.0062447105877828455, ,0.0283028478724734, ,5.132997861195612e-05, ,0.20340906117419935,-0.22934199816584527,0.09540564771000001,1.7871873883186011,0.7632514876897504,-1.2692760319614629, ,0.02974825754184037,0.02502556475698069,0.005144964961240311,-0.007938089357191876,0.008895606569670969,-0.00977063888262473, ,1.1463840007781982
0.010979840273496765,0.020931493673089125,-0.08343532922411946, ,0.011301952847157288,0.020705178794778165,-0.08371759954304926, ,0.00048440836822235216, ,0.003404343856747165,-0.0009925246774670068,-0.005985488392061356,0.038482370236617366,0.04043181364981849,-0.0025284009713109315, ,0.006957063577534302, ,0.055817778228440126, ,5.187619686753078e-05, ,0.20400371160551464,-0.22880140686464956,0.09552101752000001,1.786768008431632,0.7643445796878738,-1.2701673751910343, ,0.03173810754463906,0.02769904890790157,0.006433284135702748,-0.02041382873028714,0.08028201921107983,-0.06760609456784752, ,1.1674540042877197
0.01105544524466219,0.02090902436615186,-0.08354644979717714, ,0.011378610065016184,0.020682856216756047,-0.08383810736497893, ,0.0004905626053539074, ,0.004082000708952755,-0.0011402905014675558,-0.005834647900721023,-0.02882591396513399,-0.03711057958553962,0.009403111255437626, ,0.007211526075735715, ,0.046990727024999374, ,5.2421198156736616e-05, ,0.20467558936557217,-0.2282530928305796,0.09563638733,1.7863486285446628,0.765027762186701,-1.2706427859693759, ,0.03375913965082561,0.02816768820376099,0.005877790228782289,-0.01714310369509833,0.0005379220354265869,-0.002468718491431411, ,1.1891241073608398
0.011130054370464795,0.02089076232551739,-0.08366194919349193, ,0.011455310786542418,0.020660479066839967,-0.0839583924295958, ,0.0004966897499027799, ,0.0038081639392566935,-0.0009212976465054507,-0.006047586634928606,0.021183420778158164,0.017153948791229848,-0.0015505652955355995, ,0.007205845269548788, ,0.027257939520575418, ,5.312354474092553e-05, ,0.20531657619413282,-0.22771250152938388,0.09575694230000001,1.7863486285446628,0.7657109446855282,-1.2711181967477172, ,0.03432077452385923,0.0269517016638656,0.006438484850444625,-0.01714310369509833,0.05783091310793695,-0.04970787402969322, ,1.2070119380950928
0.011169736055583987,0.02088275448940762,-0.08372925630621124, ,0.011532052735019123,0.02063804956280606,-0.08407845501298436, ,0.0005595476870759072, ,0.00390581488982767,-0.000874484533942963,-0.006847106077974812,0.017702593276475623,0.016249449451774207,-0.00332851023951945, ,0.007931139564825763, ,0.02402969831579513, ,5.399059478036883e-05, ,0.2056563764405987,-0.22742676041303758,0.09582823825,1.7863486285446628,0.76625749068459,-1.2715638683625028, ,0.03326215967699642,0.028549019722764975,0.007204347137042063,-0.015164174434205787,0.055249875698722646,-0.04749246806545143, ,1.2250940799713135
0.011252740565658486,0.02086402573719141,-0.08387185030048351, ,0.01160883364465881,0.020615569912957227,-0.08419829539043533, ,0.0005432301301119707, ,0.004339918206775062,-0.0008464806196209316,-0.007691272597773474,-0.007776441166305375,-0.009745045604989809,0.0023204005345272964, ,0.008871701846554168, ,0.01246751475401367, ,5.478500511818897e-05, ,0.20633597693353045,-0.22685527818034498,0.09597601531000001,1.7857195587142094,0.7669406731834172,-1.2722026366211256, ,0.03403764044421476,0.02959056487635509,0.007866079762962965,-0.013100598325065342,0.02668156817686257,-0.022097198577221734, ,1.2436261177062988
0.011337993987292329,0.020847803013955602,-0.08402200931001659, ,0.011685651260586086,0.020593042316137955,-0.08431791383644932, ,0.0005228078821038977, ,0.004030219132180119,-0.0007028750765881466,-0.006465763628388243,0.014006487412457937,0.01348933673890211,-0.03705941585585729, ,0.00765132661208942, ,0.01944592204011676, ,5.5498136512208895e-05, ,0.20703102289221065,-0.22629151868052658,0.0961328664,1.7850904888837558,0.7677604921820099,-1.2727894653031635, ,0.03385549110184473,0.028176051531612463,0.006851101729032258,0.024119216835002802,0.04378675891748021,-0.035495664753267965, ,1.2639400959014893
0.01141950840529802,0.020827169192881582,-0.0841436088734622, ,0.01176250333881994,0.02057046896174813,-0.08443731062473753, ,0.0005194239615072335, ,0.004090529135984514,-0.001147429392703613,-0.006203323572067285,-0.0008060588071336528,-0.0019523507826651274,-0.00903370365958744, ,0.007518659864852514, ,0.0021122015039340097, ,5.618156385386479e-05, ,0.20772606885089087,-0.22569686824921129,0.09625990282,1.7853001788272402,0.7684436746808371,-1.2733465548216456, ,0.03488858145532014,0.03028948022932358,0.006454137568881686,-0.004073715001362175,0.03535173048303688,-0.02862928360372042, ,1.281641960144043
0.011498380914710475,0.020804246124195555,-0.08426221922124029, ,0.01183938764625623,0.020547852029757466,-0.08455648602822413, ,0.0005182822361558545, ,0.004028315598377452,-0.0012201515426721668,-0.005548178268859409,0.010241295541420996,0.006777519264984395,0.0009710188191645249, ,0.006964077717132409, ,0.012280834519559086, ,5.684277392875764e-05, ,0.2084365602753195,-0.22512538601651869,0.09638564295,1.7848807989402715,0.7695367666789606,-1.274237898051217, ,0.03693925323412642,0.028617895524267425,0.0058843042186922795,-0.017150701729146945,0.04963706178679929,-0.04031253157930786, ,1.3018479347229004
0.011581494819291245,0.020779081940745004,-0.08438940626950836, ,0.011916301960650268,0.020525193690719118,-0.08467544031904853, ,0.0005083016259098085, ,0.004407635620151756,-0.0011609292553334647,-0.006764924712286208,-0.02875531038472375,-0.03538554523925882,0.02747059380643795, ,0.008157157278048542, ,0.045596103704518755, ,5.745839963278517e-05, ,0.20913160623399973,-0.22451529011945495,0.09651656824,1.7844614190533024,0.7700833126780223,-1.2746835696660026, ,0.035448988254938654,0.029091643641468663,0.0068866457068741905,-0.036805253196192794,0.008619557125696458,-0.006896987445819458, ,1.319443941116333
0.011665529056546862,0.020758270122863763,-0.08452138629908375, ,0.01199324407059907,0.020502496105784338,-0.08479417376856732, ,0.0004972227687419762, ,0.004084162877500306,-0.001286969600455361,-0.00628656746458846,0.019050808766043273,0.019410742246748183,0.005206493754895583, ,0.00760641884524314, ,0.027197614222409863, ,5.802731771023245e-05, ,0.20985754312417682,-0.22390519422239122,0.09665656756,1.7844614190533024,0.7711764046761459,-1.275574912895574, ,0.03678176029398092,0.030730874857017743,0.006684352295425935,-0.025193146272393937,0.06448488323084131,-0.05247636640107377, ,1.337656021118164
0.01170552814826516,0.020748961012659158,-0.08458281033880957, ,0.012070211775524104,0.020479761426716696,-0.0849126866473557, ,0.0005606076560325878, ,0.004158128841174597,-0.0010316315191827676,-0.006702847520096167,0.001883395137405333,0.0007130677693289819,0.006599957801483144, ,0.007955027588188408, ,0.002013859319141244, ,5.8908010431925905e-05, ,0.2101973433706427,-0.22362717583891914,0.09672138206000001,1.7844614190533024,0.7715863141754422,-1.2759908453468038, ,0.03491425370068829,0.02906491318789304,0.007017097585903085,-0.021330065470535082,0.0441953273033061,-0.03494198947310855, ,1.3519210815429688
0.011750746611187213,0.020738585697860485,-0.08465718317548825, ,0.012147202885653479,0.02045699179590535,-0.08503097922521112, ,0.0006133483430893206, ,0.004497440869778759,-0.0010036582782993661,-0.007336305564744742,-0.010285705008045104,-0.011262878882189246,-0.009735966282970078, ,0.008663468338723229, ,0.015252807839083674, ,5.990991043553762e-05, ,0.21056803454860548,-0.22331826652395015,0.09679915946,1.7842517291098179,0.7719962236747385,-1.2763250990578934, ,0.03554192567732988,0.0314020322827501,0.007595999771101576,-0.0012598468533968935,0.025633664018436652,-0.01981881328777967, ,1.3661808967590332
0.01183841741944787,0.020710849209657746,-0.08480762343941539, ,0.012224215222004656,0.020434189346380468,-0.08514905177115292, ,0.0005847682704450723, ,0.0046195023282172495,-0.0011960484352779995,-0.008313077693856545,0.014363650530847056,0.016241584007101822,0.030782619071148612, ,0.009585280087928093, ,0.021681869567229207, ,6.0815759854705395e-05, ,0.2112708032401599,-0.22268500242826375,0.09695082539000001,1.7832032793923953,0.7729526791730965,-1.277105024383768, ,0.038342198609483145,0.033134406968739795,0.008680551237057221,-0.05303264693656482,0.06942888728284745,-0.055552303319966925, ,1.3807830810546875
0.011859699538594764,0.0207075508858231,-0.08484491536022437, ,0.012301246616366694,0.02041135620182607,-0.08526690455342666, ,0.0006788004065235583, ,0.004741542477960193,-0.0010008956147496526,-0.008676878596617784,0.014952116734620007,0.015691045242243896,0.02528365384230598, ,0.009938422373916787, ,0.02167428537360702, ,6.194702574328913e-05, ,0.21146387156201552,-0.22252282503790502,0.09699489925000002,1.7832032793923953,0.7732259521726275,-1.277327860191161, ,0.038701852185346976,0.03204895020549503,0.00917558267281106,-0.046735239608659315,0.0674724674742648,-0.053962084570139096, ,1.3965609073638916
0.011986227806154257,0.020684059215578504,-0.08506309588915957, ,0.012378294911282917,0.020388494476595066,-0.08538453783950455, ,0.0005868560788608205, ,0.005212763607971603,-0.0011577390770354608,-0.00838525371878312,-0.020312060134332486,-0.02123723168607042,-0.024776775161555197, ,0.009941113827507167, ,0.029387067821291378, ,6.281866578413145e-05, ,0.2124678268356647,-0.22167332442174031,0.09722434258000001,1.7829935894489106,0.7744556806705164,-1.2781672638441477, ,0.039772397970859505,0.03671061568993066,0.008624153502977802,0.015222797952960533,0.01584053591249215,-0.011869871747213094, ,1.411458969116211
0.012032074159858526,0.02067364530214461,-0.08513588992423599, ,0.01245535796003329,0.020365606275723272,-0.0855019518960882, ,0.0006387946340768077, ,0.004916940594436704,-0.0013135793321547306,-0.007657300044098652,-0.0006924372457634332,-0.00019279497994195032,-0.015161566138875515, ,0.009194348233367977, ,0.000718757899440747, ,6.38047216898319e-05, ,0.2128385180136275,-0.22134124690814866,0.09730082369000001,1.7832032793923953,0.7748655901698127,-1.2785015175552368, ,0.040278837673374694,0.03576967265679261,0.008000407594173784,0.0,0.04180305467326942,-0.03304056493659224, ,1.4255290031433105
0.012132118631269208,0.020640197545507354,-0.08529469845231044, ,0.012532433626616886,0.020342693694942994,-0.08561914698911068, ,0.0005950020921245951, ,0.0053691813674858965,-0.0017698094479575157,-0.008413580290688621,-0.03712204313375773,-0.04135476804898085,0.06013763488246216, ,0.010136501731213853, ,0.05557214126384933, ,6.466059878143208e-05, ,0.21370346409554064,-0.2205998645522231,0.09746804510000001,1.7821548296749725,0.7762319551674671,-1.2794523391119201, ,0.04282352958414746,0.03709810068743971,0.008554678582169711,-0.07443875709201046,0.018507228954585817,-0.013891958417677309, ,1.4404098987579346
0.012191737900091128,0.020623950364740115,-0.08538278892597231, ,0.01260951978573443,0.020319758820697902,-0.08573612338373837, ,0.0006260346943127779, ,0.005882440043939574,-0.0013721870633328804,-0.008741019619040695,-0.02704002214905891,-0.03198214840503414,-0.017926662804006767, ,0.010625037514652654, ,0.04188102868119404, ,6.5576789053719e-05, ,0.2141668280679941,-0.22019828244276343,0.09755748911,1.7819451397314878,0.7762319551674671,-1.2794523391119201, ,0.04604412496771994,0.03937632429812066,0.00900441578292821,0.008073654717769751,0.01282029005930671,-0.009254641073853605, ,1.4547309875488281
0.012303020327764341,0.020598586123234324,-0.08556232093281653, ,0.01268661432277062,0.020296803730156607,-0.08585288134437272, ,0.0005680161252467144, ,0.00544124508908148,-0.001528258368827908,-0.008521778213051391,0.022478888997854857,0.02511271233634347,-0.013040110170521417, ,0.010225625930659855, ,0.03370383845386083, ,6.633162601429143e-05, ,0.2150472196156557,-0.21943373188821522,0.09774285858000001,1.7821548296749725,0.7771884106658253,-1.280232264437795, ,0.04649531678514002,0.04022761405615548,0.009154489379310347,-0.010605366202306,0.08404664052432378,-0.06740473888093389, ,1.472825050354004
0.01235904276735237,0.02058336681794076,-0.08564301382543449, ,0.012763715133776797,0.020273830491226996,-0.08596942113465272, ,0.0006050737089099838, ,0.005220510172928349,-0.0016554969649853282,-0.007356331757020224,-0.011177406368799854,-0.012392992540008125,-0.01108339197321409, ,0.009171151159263938, ,0.016688938123408784, ,6.73269172664167e-05, ,0.21551058358810918,-0.21903987251162976,0.09782971001000001,1.7819451397314878,0.7774616836653562,-1.2804551002451878, ,0.04333193678468985,0.03817254286342348,0.007639717755395685,-0.003138045734552498,0.03295159356715625,-0.025797364891269173, ,1.4834020137786865
0.01241773037294611,0.020559958606349626,-0.08572122006688823, ,0.01284082012545326,0.020250841162570605,-0.08608574301745668, ,0.0006383067555777287, ,0.005904073509451631,-0.002075988620406199,-0.007484707562529058,-0.04701839835103727,-0.0550356138803021,0.019873065987032274, ,0.00975646760121942, ,0.07238541673009145, ,6.838853771356627e-05, ,0.21599711575918532,-0.21859967673779898,0.09790878370000002,1.7815257598445187,0.7775983201651215,-1.2805665181488843, ,0.04864015456610496,0.04095681551940906,0.007570727908745247,-0.029459150668279522,0.0,0.00101844331681417, ,1.4940741062164307
0.01247362933737093,0.020540955752747114,-0.08579806393746414, ,0.012917927215131958,0.020227837793616463,-0.08620184725490472, ,0.0006771147819656703, ,0.005512814701483553,-0.001980114217959537,-0.00791845495799914,0.030268501210902157,0.03138819271329324,0.002847399952710634, ,0.009849563806124608, ,0.043605054480295766, ,6.952851155130775e-05, ,0.21649137066313567,-0.21819037189546509,0.09799044997,1.7813160699010344,0.7782815026639488,-1.281041928927226, ,0.04981466748476156,0.04186014184317194,0.008504437544046985,-0.0320705207665524,0.09179235159360226,-0.07589301884444809, ,1.5060269832611084
0.012532059797335227,0.020522336351537815,-0.08587977462195645, ,0.012995034330758637,0.020204822424575063,-0.08631773410835983, ,0.0007120175729184227, ,0.005954077028385131,-0.0018039331394217612,-0.0086053848937276,0.006862799485554577,0.0027686878155108643,0.01030346462839325, ,0.010618750265480526, ,0.007400243361438942, ,7.073578262628257e-05, ,0.2170010710328345,-0.21777334432025694,0.09807730140000001,1.78110637995755,0.7789646851627761,-1.281599018445708, ,0.050937703466704655,0.04113434831316461,0.009107382229845628,-0.033913875672462374,0.06354584035179972,-0.05285988293492403, ,1.5166668891906738
0.012594269413658769,0.020507736038656375,-0.08597503318890168, ,0.01307213941087561,0.02018179708645303,-0.08643340383843069, ,0.0007380376597119472, ,0.006577510976701963,-0.0014550896189277286,-0.01077782480573518,-0.02521229506692273,-0.030747346248959608,0.007298810325754686, ,0.012709934853919065, ,0.03976253234471432, ,7.198775955921853e-05, ,0.21749532593678486,-0.21735631674504882,0.09817711573000001,1.78110637995755,0.7793745946620723,-1.2819332721567973, ,0.04942549039503686,0.042881582267722894,0.011146824016794963,-0.023091427356951306,0.024628754905934917,-0.02112560925405292, ,1.5271859169006348
0.012730607655772788,0.020479581357234152,-0.08621543304286773, ,0.013149240404604152,0.020158763801066997,-0.08654885670497348, ,0.0006239780614662466, ,0.006706975656850155,-0.001388656756381512,-0.011842922074943306,0.005426929420377985,0.003175726437720054,0.02823952600219728, ,0.01368088788499504, ,0.006287811095605877, ,7.295233351380148e-05, ,0.2185224494090567,-0.216468202464513,0.09842859599,1.7802676201836118,0.7804676866601958,-1.2828246153863685, ,0.051658650821159925,0.04293979256039402,0.012483394608150471,-0.054453133013318285,0.06923225818810858,-0.05749677539009596, ,1.5426549911499023
0.012796287783557733,0.02046960482321565,-0.08632907930658985, ,0.013226335271626794,0.020135724581057415,-0.08666409296709389, ,0.0006392581722766362, ,0.0066037026606132875,-0.001549323802803061,-0.011554589230838137,-0.02268713946765514,-0.02655085191088666,0.047715822157970544, ,0.013398426227326992, ,0.034923542610445, ,7.393919072444756e-05, ,0.21900898158013288,-0.21607434308792756,0.09854785467,1.7800579302401274,0.7808775961594921,-1.2831588690974578, ,0.04906770504574497,0.04245948168164241,0.011976550015037595,-0.06842045955060469,0.038688942021800135,-0.032590749071879005, ,1.5532848834991455
0.012868810047607114,0.020452470208360603,-0.08644285570610619, ,0.013303421982170192,0.020112681429903412,-0.08677911288314914, ,0.000646074946691937, ,0.006982689847895721,-0.0020555198285388066,-0.010269480833685622,-0.04254202911888155,-0.05070131757549036,0.027779729115297098, ,0.012587507929326539, ,0.06618495094220754, ,7.492813565339533e-05, ,0.2195572956142028,-0.21558781091685142,0.09866581706000001,1.7800579302401274,0.781150869159023,-1.2833817049048506, ,0.05413402256615561,0.046381691866310255,0.010527965313945805,-0.04309136211054502,0.01315931067686736,-0.011773046543800113, ,1.5637800693511963
0.012932716316101734,0.02043549523426943,-0.08653466029136822, ,0.013380498516987261,0.020089636341936314,-0.08689391671074993, ,0.0006702182090205749, ,0.006457801034406554,-0.002134617441186761,-0.009339104967240169,0.0034160471875342743,-4.153689470199724e-05,0.006400385326743552, ,0.011553296819926815, ,0.0034162893111189907, ,7.61354719357939e-05, ,0.22008244144965008,-0.21515533787589483,0.09876303881000001,1.7800579302401274,0.7816974151580848,-1.2839907339999175, ,0.05391871679458567,0.04622354678931845,0.009838672958616432,-0.03224976615204841,0.06322051388455707,-0.05447869178416562, ,1.570965051651001
0.012932716316101734,0.02043549523426943,-0.08653466029136822, ,0.013457562867339717,0.020066591302353918,-0.08700850470676277, ,0.0007975478313742297, ,0.006457801034406554,-0.002134617441186761,-0.009339104967240169,0.0034160471875342743,-4.153689470199724e-05,0.006400385326743552, ,0.011553296819926815, ,0.0034162893111189907, ,7.762571878914873e-05, ,0.22008244144965008,-0.21515533787589483,0.09876303881000001,1.7800579302401274,0.7816974151580848,-1.2839907339999175, ,0.05391871679458567,0.04622354678931845,0.009838672958616432,-0.03224976615204841,0.06322051388455707,-0.05447869178416562, ,1.5782780647277832
0.012999593858000917,0.020411890914607475,-0.08662987550515042, ,0.013534613034980741,0.02004354828723494,-0.08712287712731141, ,0.0008154584050270409, ,0.006901514421137525,-0.002184510283182277,-0.00973858009219931,0.021370343616335472,0.018602493957775572,-0.029240282025628547, ,0.012134369727953696, ,0.028332742192286153, ,7.914343595569755e-05, ,0.22065392368234268,-0.21465336023907025,0.09886414943,1.7798482402966427,0.7825172341566774,-1.2847409201622364, ,0.05847008105882364,0.050263210571223925,0.010383840625814865,0.0,0.08017495370986202,-0.06930422770838468, ,1.5861849784851074
0.013072291310609782,0.020389731833415005,-0.08673892399506965, ,0.013611647032137245,0.020020509263552734,-0.08723703422777937, ,0.0008217929814559403, ,0.00808123265860403,-0.0017710280818993911,-0.012503087660090291,-0.016521018354600566,-0.02731810459587534,-0.002050988248241124, ,0.014992333466984607, ,0.03192526555302798, ,8.066175657250429e-05, ,0.22124085138078375,-0.2141668280679941,0.09897822295000001,1.779219170466189,0.7830637801557392,-1.2851865917770222, ,0.06198363263126765,0.05058472364524029,0.013088587937551356,-0.02029710515548962,0.04051679386299074,-0.036965657544619425, ,1.593475103378296
0.013154407287631658,0.020368971140161334,-0.0868788707100805, ,0.013688662881492477,0.019997476189189685,-0.08735097626281198, ,0.0008039410370723047, ,0.008301858880755937,-0.0018694777164544527,-0.014651181904733175,0.005849811914983662,0.004232525902200122,0.020114479885220145, ,0.016943226936268273, ,0.007220380866751425, ,8.212557781151863e-05, ,0.22186639274359593,-0.21363395949967262,0.09912470372000001,1.7783804106922512,0.7837469626545664,-1.2859070387757856, ,0.06222750266129232,0.05485372344420276,0.01541995306873185,-0.05306785220421167,0.08075194485778835,-0.0697529765490402, ,1.6005620956420898
0.013154407287631658,0.020368971140161334,-0.0868788707100805, ,0.013765658616168472,0.019974451012951408,-0.08746470348631777, ,0.0009340633592672478, ,0.008301858880755937,-0.0018694777164544527,-0.014651181904733175,0.005849811914983662,0.004232525902200122,0.020114479885220145, ,0.016943226936268273, ,0.007220380866751425, ,8.387118371547375e-05, ,0.22186639274359593,-0.21363395949967262,0.09912470372000001,1.7783804106922512,0.7837469626545664,-1.2859070387757856, ,0.06222750266129232,0.05485372344420276,0.01541995306873185,-0.05306785220421167,0.08075194485778835,-0.0697529765490402, ,1.6077609062194824
0.01324421164281882,0.02035703930245995,-0.08703932027398392, ,0.013842632279708573,0.01995143567458068,-0.0875782161514715, ,0.0009016819441341124, ,0.009242801571328584,-0.0011084960844156546,-0.01725230726242153,0.02902909269007189,0.023414152924590963,-0.0039619365552969275, ,0.01960357748813011, ,0.037294895779299536, ,8.552793219561635e-05, ,0.22253054777077924,-0.21308564546560266,0.09929581400000001,1.7783804106922512,0.7847034181529245,-1.2868503215819418, ,0.06706497636641044,0.054475856233335694,0.018372331626297582,-0.03311780829920699,0.10129103980176699,-0.08815447977177583, ,1.6166059970855713
0.013338672041635195,0.02034604041745113,-0.08721839580690169, ,0.013919581926059766,0.019928432104771604,-0.08769151451071511, ,0.0008577262410229137, ,0.00942581586496544,-0.001365051124895708,-0.017613160657680815,0.016168721586412155,-0.004293484201893833,-0.01935894809551916, ,0.020023306361515038, ,0.016729012800082693, ,8.707101169366506e-05, ,0.22318698006508833,-0.21250644050003584,0.09948507234000001,1.7783804106922512,0.7855232371515171,-1.287682186484401, ,0.06535602035707354,0.05825472164424235,0.018500361811846694,-0.022097291277266264,0.06814518965939405,-0.0804994946249502, ,1.6237239837646484
0.013434651063481504,0.020330012803214233,-0.0873834088874876, ,0.013996505619555429,0.01990544222518406,-0.0878045988157608, ,0.0008205739903193875, ,0.010139748495661077,-0.0017501582906923473,-0.016896328032621134,-0.03240695860587901,-0.03524876254048563,-0.018765941607164407, ,0.019782908142729646, ,0.04788198878107297, ,8.851716821924014e-05, ,0.22386658055802008,-0.211927235534469,0.09965747891000001,1.7781707207487665,0.7859331466508135,-1.2883431551560527, ,0.07232998594395638,0.061943173341038375,0.01765943627494457,0.0,0.03857939195842835,-0.02636770736563259, ,1.6307799816131592
0.013434651063481504,0.020330012803214233,-0.0873834088874876, ,0.014073401434897556,0.019882467948457373,-0.08791746931759203, ,0.0009452613273623386, ,0.010139748495661077,-0.0017501582906923473,-0.016896328032621134,-0.03240695860587901,-0.03524876254048563,-0.018765941607164407, ,0.019782908142729646, ,0.04788198878107297, ,9.022814147296811e-05, ,0.22386658055802008,-0.211927235534469,0.09965747891000001,1.7781707207487665,0.7859331466508135,-1.2883431551560527, ,0.07232998594395638,0.061943173341038375,0.01765943627494457,0.0,0.03857939195842835,-0.02636770736563259, ,1.6380109786987305
0.013536681211994086,0.020303265554380077,-0.08755892699981818, ,0.014150267457139315,0.01985951117822476,-0.08803012626646607, ,0.0008918715016626134, ,0.009766942939425479,-0.002928002358444627,-0.01642734154342442,-0.006067456634347961,-0.03314125690472779,0.08191588630661956, ,0.019334526691320072, ,0.03369207240501788, ,9.180555880936874e-05, ,0.2245925174481972,-0.21128624870590837,0.09983377435000002,1.777122271031344,0.7866163291496406,-1.2890636021548159, ,0.07305384261622076,0.06368922252246362,0.017090999484978543,-0.13452189973389575,0.07087885651072184,-0.08977660720579267, ,1.6454660892486572
0.013639992139621589,0.020275863186826903,-0.08771866639725348, ,0.014227101781667644,0.01983657380912747,-0.088142569911916, ,0.0008469752528180761, ,0.010291408957988215,-0.0027494109685961624,-0.014952579637673593,-6.824490934180259e-05,-0.012689735537884266,0.010601065496052546, ,0.018358975920126044, ,0.012689889595332158, ,9.326993879877126e-05, ,0.2254188498657392,-0.21059892548010237,0.10000877350000001,1.7764932012008903,0.7874361481482333,-1.289977145797416, ,0.08209077989487092,0.06513173751439313,0.015865350119521913,-0.047531432248558825,0.08232807834282639,-0.0732773294866523, ,1.6528329849243164
0.013639992139621589,0.020275863186826903,-0.08771866639725348, ,0.014303902514185693,0.019813657726828898,-0.08825480050275288, ,0.000970489902979651, ,0.010291408957988215,-0.0027494109685961624,-0.014952579637673593,-6.824490934180259e-05,-0.012689735537884266,0.010601065496052546, ,0.018358975920126044, ,0.012689889595332158, ,9.520214136304632e-05, ,0.2254188498657392,-0.21059892548010237,0.10000877350000001,1.7764932012008903,0.7874361481482333,-1.289977145797416, ,0.08209077989487092,0.06513173751439313,0.015865350119521913,-0.047531432248558825,0.08232807834282639,-0.0732773294866523, ,1.6564359664916992
0.013743209323741302,0.020246326326161877,-0.08786586178889018, ,0.014380667770695157,0.019790764808028584,-0.08836681828706727, ,0.0009299714949731457, ,0.010380973555874407,-0.002944248225873077,-0.014814063259274873,0.03606844321012888,0.006582615590245295,-0.056352642398677405, ,0.01832729330351643, ,0.036664188387976394, ,9.703679928306852e-05, ,0.22625290501615547,-0.2099116022542964,0.10016562459000002,1.776283511257406,0.7883926036465915,-1.2909204286035723, ,0.08302444580793594,0.07045058764548684,0.015771100514851488,0.004042894586456403,0.09191068545373857,-0.10751794595852714, ,1.6600680351257324
0.013743209323741302,0.020246326326161877,-0.08786586178889018, ,0.014457395677478974,0.019767896920476636,-0.08847862351223196, ,0.0010556674541171713, ,0.010380973555874407,-0.002944248225873077,-0.014814063259274873,0.03606844321012888,0.006582615590245295,-0.056352642398677405, ,0.01832729330351643, ,0.036664188387976394, ,9.913905949103805e-05, ,0.22625290501615547,-0.2099116022542964,0.10016562459000002,1.776283511257406,0.7883926036465915,-1.2909204286035723, ,0.08302444580793594,0.07045058764548684,0.015771100514851488,0.004042894586456403,0.09191068545373857,-0.10751794595852714, ,1.6636710166931152
0.013743209323741302,0.020246326326161877,-0.08786586178889018, ,0.014534084371083679,0.01974505592298744,-0.08859021642490285, ,0.0011838264215333746, ,0.010380973555874407,-0.002944248225873077,-0.014814063259274873,0.03606844321012888,0.006582615590245295,-0.056352642398677405, ,0.01832729330351643, ,0.036664188387976394, ,0.00010151255481279372, ,0.22625290501615547,-0.2099116022542964,0.10016562459000002,1.776283511257406,0.7883926036465915,-1.2909204286035723, ,0.08302444580793594,0.07045058764548684,0.015771100514851488,0.004042894586456403,0.09191068545373857,-0.10751794595852714, ,1.667267084121704
0.01385277686205624,0.020218279036374492,-0.08802769731087466, ,0.014610731998301924,0.019722243665454373,-0.08870159727102236, ,0.0011290209183412638, ,0.01230412879236368,-0.0030313223603107365,-0.019343095363002036,0.040065721893506774,0.02243434380443646,-0.05587959802767083, ,0.0231243559653752, ,0.04591904991287035, ,0.0005657173627117618, ,0.22711012836519437,-0.20917794263124506,0.10033803116000001,1.7764932012008903,0.7893490591449495,-1.2917003539294472, ,0.09442481747111521,0.08216185416317816,0.020606483208279434,0.0,0.1211853087945234,-0.12163745690695095, ,1.6708309650421143
0.01385277686205624,0.020218279036374492,-0.08802769731087466, ,0.014687336716154999,0.019699461988863316,-0.08881276629582058, ,0.001257773664053103, ,0.01230412879236368,-0.0030313223603107365,-0.019343095363002036,0.040065721893506774,0.02243434380443646,-0.05587959802767083, ,0.0231243559653752, ,0.04591904991287035, ,0.0005738592015510716, ,0.22711012836519437,-0.20917794263124506,0.10033803116000001,1.7764932012008903,0.7893490591449495,-1.2917003539294472, ,0.09442481747111521,0.08216185416317816,0.020606483208279434,0.0,0.1211853087945234,-0.12163745690695095, ,1.6744329929351807
0.01385277686205624,0.020218279036374492,-0.08802769731087466, ,0.014763896691875293,0.019676712725307605,-0.08892372374381725, ,0.0013879109417048075, ,0.01230412879236368,-0.0030313223603107365,-0.019343095363002036,0.040065721893506774,0.02243434380443646,-0.05587959802767083, ,0.0231243559653752, ,0.04591904991287035, ,0.000583324919459836, ,0.22711012836519437,-0.20917794263124506,0.10033803116000001,1.7764932012008903,0.7893490591449495,-1.2917003539294472, ,0.09442481747111521,0.08216185416317816,0.020606483208279434,0.0,0.1211853087945234,-0.12163745690695095, ,1.6782019138336182
0.013989640396905229,0.02018416887514324,-0.08826810658059668, ,0.01484041010288864,0.019653997698001056,-0.08903446985882413, ,0.0012618253618892558, ,0.013951656236935795,-0.0025547714450220613,-0.026548513545427276,0.06700647574401801,0.05948111808726889,0.06248953538658334, ,0.030099819606796068, ,0.08959831478255521, ,0.0005911237751199444, ,0.22812952910459203,-0.2082743828849608,0.10059340029000001,1.7754447514834677,0.7909886971421347,-1.2932007262540854, ,0.10095419314730934,0.0846538283304824,0.028393603422459897,-0.13979191039617356,0.19628836926663243,-0.1803507212080228, ,1.681962013244629
0.013989640396905229,0.02018416887514324,-0.08826810658059668, ,0.014916875136797179,0.0196313187212933,-0.08914500488394701, ,0.0013908120613127736, ,0.013951656236935795,-0.0025547714450220613,-0.026548513545427276,0.06700647574401801,0.05948111808726889,0.06248953538658334, ,0.030099819606796068, ,0.08959831478255521, ,0.0006002111420084993, ,0.22812952910459203,-0.2082743828849608,0.10059340029000001,1.7754447514834677,0.7909886971421347,-1.2932007262540854, ,0.10095419314730934,0.0846538283304824,0.028393603422459897,-0.13979191039617356,0.19628836926663243,-0.1803507212080228, ,1.6856820583343506
0.01413397974159403,0.02016300344161544,-0.08854454489395866, ,0.014993289991361571,0.019608677600683317,-0.08925532906158753, ,0.001520891495934416, ,0.015636279802111474,-0.0020768872645287994,-0.03023006819240404,0.0849178646418609,0.07498745025028201,0.022810681232632458, ,0.034097855206403814, ,0.11328784658644658, ,0.0006105558650863185, ,0.2291643753097381,-0.20744032773454454,0.1008902507,1.7741866118225607,0.7930382446386164,-1.2949536735496723, ,0.10996169357876104,0.09046419595659749,0.032441571323828924,-0.1048817065105591,0.21386696499574245,-0.1966532456273931, ,1.6895439624786377
0.01413397974159403,0.02016300344161544,-0.08854454489395866, ,0.01506965287448328,0.019586076132833197,-0.08936544263344502, ,0.0013719338285512626, ,0.015636279802111474,-0.0020768872645287994,-0.03023006819240404,0.0849178646418609,0.07498745025028201,0.022810681232632458, ,0.034097855206403814, ,0.11328784658644658, ,0.000619015620235929, ,0.2291643753097381,-0.20744032773454454,0.1008902507,1.7741866118225607,0.7930382446386164,-1.2949536735496723, ,0.10996169357876104,0.09046419595659749,0.032441571323828924,-0.1048817065105591,0.21386696499574245,-0.1966532456273931, ,1.6931118965148926
0.01413397974159403,0.02016300344161544,-0.08854454489395866, ,0.015145962004187543,0.019563516105583177,-0.08947534584051903, ,0.0014999611888261047, ,0.015636279802111474,-0.0020768872645287994,-0.03023006819240404,0.0849178646418609,0.07498745025028201,0.022810681232632458, ,0.034097855206403814, ,0.11328784658644658, ,0.0006286963407698869, ,0.2291643753097381,-0.20744032773454454,0.1008902507,1.7741866118225607,0.7930382446386164,-1.2949536735496723, ,0.10996169357876104,0.09046419595659749,0.032441571323828924,-0.1048817065105591,0.21386696499574245,-0.1966532456273931, ,1.696669101715088
0.01430323427407372,0.020146091833102654,-0.08887032816764696, ,0.01522221560860557,0.01954099929796523,-0.08958503892311098, ,0.001312049973618735, ,0.018230408742865918,-0.0015927068681231915,-0.03451555156242094,0.02741418326517917,0.02791833807652722,-0.03229139872678005, ,0.03906670984044942, ,0.03912699910309985, ,0.0006361240976486788, ,0.23031506250799755,-0.2064827088581407,0.10123895271000001,1.7737672319355915,0.7949511556353326,-1.2965952029415628, ,0.12135158767067875,0.09999677719543813,0.036787093579676675,-0.023189128350966655,0.15958144196439356,-0.1270462437485631, ,1.7002201080322266
0.01430323427407372,0.020146091833102654,-0.08887032816764696, ,0.015298411925957014,0.019518527480217183,-0.08969452212082613, ,0.001436492689949239, ,0.018230408742865918,-0.0015927068681231915,-0.03451555156242094,0.02741418326517917,0.02791833807652722,-0.03229139872678005, ,0.03906670984044942, ,0.03912699910309985, ,0.0006447302115443837, ,0.23031506250799755,-0.2064827088581407,0.10123895271000001,1.7737672319355915,0.7949511556353326,-1.2965952029415628, ,0.12135158767067875,0.09999677719543813,0.036787093579676675,-0.023189128350966655,0.15958144196439356,-0.1270462437485631, ,1.7038140296936035
0.01430323427407372,0.020146091833102654,-0.08887032816764696, ,0.015374549204532705,0.019496102413797296,-0.08980379567257593, ,0.00156255032181097, ,0.018230408742865918,-0.0015927068681231915,-0.03451555156242094,0.02741418326517917,0.02791833807652722,-0.03229139872678005, ,0.03906670984044942, ,0.03912699910309985, ,0.000654494255270624, ,0.23031506250799755,-0.2064827088581407,0.10123895271000001,1.7737672319355915,0.7949511556353326,-1.2965952029415628, ,0.12135158767067875,0.09999677719543813,0.036787093579676675,-0.023189128350966655,0.15958144196439356,-0.1270462437485631, ,1.7074310779571533
0.014498423312432698,0.02012875777290786,-0.08924212738936638, ,0.015450625702676685,0.019473725851397634,-0.08991285981657962, ,0.00133627774025429, ,0.0198757163340797,-0.0018288485729877327,-0.03676482108123146,0.0004848721188002702,-0.005934985194396169,-0.029453504440610963, ,0.04183348964682104, ,0.005949116089794935, ,0.00066167092353361, ,0.23158159069937037,-0.20542469445437195,0.10163302487,1.7733478520486223,0.796317520632987,-1.297709381978527, ,0.13053224423448526,0.10686592517845808,0.03904120470588236,-0.023233892100041828,0.13396651956511285,-0.10747798890595636, ,1.7119579315185547
0.014498423312432698,0.02012875777290786,-0.08924212738936638, ,0.015526639688769309,0.019451399536959346,-0.0900217147903667, ,0.001457326185921505, ,0.0198757163340797,-0.0018288485729877327,-0.03676482108123146,0.0004848721188002702,-0.005934985194396169,-0.029453504440610963, ,0.04183348964682104, ,0.005949116089794935, ,0.0006699589991834839, ,0.23158159069937037,-0.20542469445437195,0.10163302487,1.7733478520486223,0.796317520632987,-1.297709381978527, ,0.13053224423448526,0.10686592517845808,0.03904120470588236,-0.023233892100041828,0.13396651956511285,-0.10747798890595636, ,1.7157580852508545
0.014632496046716285,0.020109544591592844,-0.08948836418979161, ,0.01560258944120913,0.0194291252056854,-0.09013036083077823, ,0.0013476688843315375, ,0.019792146420201762,-0.0033090337110359873,-0.03551262484948792,-0.02280555875608542,-0.025176325160117207,0.0763597593380297, ,0.040790014558957255, ,0.033968873638241755, ,0.0006769456990303711, ,0.2324774277127804,-0.2046833120984464,0.10189357916000001,1.7725090922746845,0.797273976131345,-1.298489307304402, ,0.13422481125667718,0.11138138680571688,0.03756795169811321,-0.13764136730421428,0.1418442734581369,-0.11448395608940326, ,1.7197740077972412
0.014632496046716285,0.020109544591592844,-0.08948836418979161, ,0.01567847324839575,0.019406904584056042,-0.09023879817396953, ,0.0014666023493891108, ,0.019792146420201762,-0.0033090337110359873,-0.03551262484948792,-0.02280555875608542,-0.025176325160117207,0.0763597593380297, ,0.040790014558957255, ,0.033968873638241755, ,0.000685003419952399, ,0.2324774277127804,-0.2046833120984464,0.10189357916000001,1.7725090922746845,0.797273976131345,-1.298489307304402, ,0.13422481125667718,0.11138138680571688,0.03756795169811321,-0.13764136730421428,0.1418442734581369,-0.11448395608940326, ,1.7234270572662354
0.014632496046716285,0.020109544591592844,-0.08948836418979161, ,0.015754289408712305,0.0193847393898423,-0.09034702705541232, ,0.0015877861456439753, ,0.019792146420201762,-0.0033090337110359873,-0.03551262484948792,-0.02280555875608542,-0.025176325160117207,0.0763597593380297, ,0.040790014558957255, ,0.033968873638241755, ,0.0006941224373836271, ,0.2324774277127804,-0.2046833120984464,0.10189357916000001,1.7725090922746845,0.797273976131345,-1.298489307304402, ,0.13422481125667718,0.11138138680571688,0.03756795169811321,-0.13764136730421428,0.1418442734581369,-0.11448395608940326, ,1.726996898651123
0.014885475114586254,0.020057842981833763,-0.08990078140437255, ,0.0158300362305078,0.019362631332120035,-0.09045504770989561, ,0.0012971993204773209, ,0.019611978189850922,-0.005283441816090803,-0.028977983974748833,-0.015141168731407811,-0.01521129265281945,-0.012580089757051695, ,0.03538739890390371, ,0.02146201251777515, ,0.0007001532062145641, ,0.23427682447247472,-0.20320827011946951,0.10233172518000001,1.7714606425572619,0.7990502506282957,-1.300019418792596, ,0.1464458974667759,0.12340304493949386,0.030869789767441865,-0.04550594459467202,0.1453094524942199,-0.11236809598002419, ,1.7305629253387451
0.014885475114586254,0.020057842981833763,-0.08990078140437255, ,0.015905712032079668,0.019340582111284373,-0.09056286037152907, ,0.0014119826780059214, ,0.019611978189850922,-0.005283441816090803,-0.028977983974748833,-0.015141168731407811,-0.01521129265281945,-0.012580089757051695, ,0.03538739890390371, ,0.02146201251777515, ,0.0007072010227669538, ,0.23427682447247472,-0.20320827011946951,0.10233172518000001,1.7714606425572619,0.7990502506282957,-1.300019418792596, ,0.1464458974667759,0.12340304493949386,0.030869789767441865,-0.04550594459467202,0.1453094524942199,-0.11236809598002419, ,1.734178066253662
0.014885475114586254,0.020057842981833763,-0.08990078140437255, ,0.015981315141656186,0.019318593419063612,-0.09067046527374382, ,0.001529630197059024, ,0.019611978189850922,-0.005283441816090803,-0.028977983974748833,-0.015141168731407811,-0.01521129265281945,-0.012580089757051695, ,0.03538739890390371, ,0.02146201251777515, ,0.0007152640538874642, ,0.23427682447247472,-0.20320827011946951,0.10233172518000001,1.7714606425572619,0.7990502506282957,-1.300019418792596, ,0.1464458974667759,0.12340304493949386,0.030869789767441865,-0.04550594459467202,0.1453094524942199,-0.11236809598002419, ,1.7377641201019287
0.015088890187017489,0.01999669706546822,-0.09019057737164851, ,0.016056843897379304,0.019296666938533845,-0.09077786264929583, ,0.001331120040176784, ,0.020158314650259964,-0.005976712261216959,-0.02816409407502924,0.030093510241931142,0.032963907986263474,-0.05271285485024498, ,0.03514676278207374, ,0.04463430147081158, ,0.0007212432382203703, ,0.23584453924594231,-0.20187996006510292,0.10264283478000001,1.7710412626702927,0.8009631616250119,-1.3016609481844865, ,0.15659561313279005,0.13089233318409763,0.030398495267175574,-0.018641730410529495,0.19995109076071602,-0.15842499987433661, ,1.7413818836212158
0.015088890187017489,0.01999669706546822,-0.09019057737164851, ,0.016132296647286524,0.019274804344132354,-0.09088505273026641, ,0.0014464170097784098, ,0.020158314650259964,-0.005976712261216959,-0.02816409407502924,0.030093510241931142,0.032963907986263474,-0.05271285485024498, ,0.03514676278207374, ,0.04463430147081158, ,0.0007282160629468898, ,0.23584453924594231,-0.20187996006510292,0.10264283478000001,1.7710412626702927,0.8009631616250119,-1.3016609481844865, ,0.15659561313279005,0.13089233318409763,0.030398495267175574,-0.018641730410529495,0.19995109076071602,-0.15842499987433661, ,1.7451469898223877
0.015290460716252584,0.01992835032041201,-0.09046397413692148, ,0.016207671749294005,0.019253007301672415,-0.09099203574806532, ,0.0015643152425240897, ,0.020158314650259964,-0.005976712261216959,-0.02816409407502924,0.030093510241931142,0.032963907986263474,-0.05271285485024498, ,0.03514676278207374, ,0.04463430147081158, ,0.0007361789122761965, ,0.237450867683781,-0.20055937274361052,0.10293838890000001,1.7699928129528701,0.803149345621259,-1.3034436346436293, ,0.16138935639195712,0.13216844228199273,0.0287005612972973,-0.12839225500425036,0.2185330351578462,-0.17422582186879607, ,1.7495369911193848
0.015290460716252584,0.01992835032041201,-0.09046397413692148, ,0.016282967571178704,0.01923127746835719,-0.09109881193343239, ,0.0013689409943551285, ,0.02005393203678779,-0.0072034245850050435,-0.026529644448841566,0.01922589131148661,0.024463058786191007,0.046707255949291496, ,0.034027511670263355, ,0.03111371080453606, ,0.0007421483658807147, ,0.237450867683781,-0.20055937274361052,0.10293838890000001,1.7699928129528701,0.803149345621259,-1.3034436346436293, ,0.16138935639195712,0.13216844228199273,0.0287005612972973,-0.12839225500425036,0.2185330351578462,-0.17422582186879607, ,1.7534229755401611
0.015290460716252584,0.01992835032041201,-0.09046397413692148, ,0.016358182490560903,0.01920961649279387,-0.09120538151643952, ,0.0014853595540132824, ,0.02005393203678779,-0.0072034245850050435,-0.026529644448841566,0.01922589131148661,0.024463058786191007,0.046707255949291496, ,0.034027511670263355, ,0.03111371080453606, ,0.0007490942648352248, ,0.237450867683781,-0.20055937274361052,0.10293838890000001,1.7699928129528701,0.803149345621259,-1.3034436346436293, ,0.16138935639195712,0.13216844228199273,0.0287005612972973,-0.12839225500425036,0.2185330351578462,-0.17422582186879607, ,1.7570610046386719
0.015499591760157388,0.019857163390690595,-0.09072483031526637, ,0.0164333148948868,0.01918802601500759,-0.09131174472649242, ,0.0012899814905531313, ,0.021578485436652983,-0.007671308761590704,-0.026025284790010178,-0.08102194290211641,-0.09699944037576333,0.012320800378507546, ,0.03466692170148134, ,0.1263860543160672, ,0.0007541024798881684, ,0.2390880870531166,-0.19922333995636968,0.10321709125,1.7693637431224165,0.804379074119148,-1.304446395776897, ,0.16795918859906334,0.13853568110725661,0.027606259133448878,-0.06486583729352365,0.08661043348376747,-0.06714063500958166, ,1.760632038116455
0.015499591760157388,0.019857163390690595,-0.09072483031526637, ,0.016508363181410978,0.01916650766645619,-0.09141790179233336, ,0.0014053373908352223, ,0.021578485436652983,-0.007671308761590704,-0.026025284790010178,-0.08102194290211641,-0.09699944037576333,0.012320800378507546, ,0.03466692170148134, ,0.1263860543160672, ,0.0007600771120986917, ,0.2390880870531166,-0.19922333995636968,0.10321709125,1.7693637431224165,0.804379074119148,-1.304446395776897, ,0.16795918859906334,0.13853568110725661,0.027606259133448878,-0.06486583729352365,0.08661043348376747,-0.06714063500958166, ,1.7641890048980713
0.015499591760157388,0.019857163390690595,-0.09072483031526637, ,0.016583325757178816,0.019145063070043867,-0.0915238529420424, ,0.0015231557376267468, ,0.021578485436652983,-0.007671308761590704,-0.026025284790010178,-0.08102194290211641,-0.09699944037576333,0.012320800378507546, ,0.03466692170148134, ,0.1263860543160672, ,0.0007670141905125831, ,0.2390880870531166,-0.19922333995636968,0.10321709125,1.7693637431224165,0.804379074119148,-1.304446395776897, ,0.16795918859906334,0.13853568110725661,0.027606259133448878,-0.06486583729352365,0.08661043348376747,-0.06714063500958166, ,1.7677760124206543
0.015717257534293167,0.019780365792380166,-0.09099204414464326, ,0.016658201039008978,0.019123693840135295,-0.09162959840303954, ,0.0013126569103658376, ,0.02202219696637354,-0.007872066926010632,-0.027642102686183372,-0.053118049526108504,-0.058944694399386696,-0.03736665204550144, ,0.03620818191827434, ,0.07934726236666617, ,0.0007719298906914413, ,0.24076392008682332,-0.19779463437463815,0.10350097876000001,1.7691540531789318,0.805335529617506,-1.3053079998429125, ,0.16885576789763485,0.14667224352159317,0.029443274528650653,-0.022014059296315697,0.11808555332078052,-0.09260679041416078, ,1.771333932876587
0.015717257534293167,0.019780365792380166,-0.09099204414464326, ,0.016732987453476164,0.01910240158257019,-0.09173513840208779, ,0.001429521533224942, ,0.02202219696637354,-0.007872066926010632,-0.027642102686183372,-0.053118049526108504,-0.058944694399386696,-0.03736665204550144, ,0.03620818191827434, ,0.07934726236666617, ,0.0007778012446426332, ,0.24076392008682332,-0.19779463437463815,0.10350097876000001,1.7691540531789318,0.805335529617506,-1.3053079998429125, ,0.16885576789763485,0.14667224352159317,0.029443274528650653,-0.022014059296315697,0.11808555332078052,-0.09260679041416078, ,1.7749109268188477
0.015717257534293167,0.019780365792380166,-0.09099204414464326, ,0.01680768343689313,0.019081187894677016,-0.09184047316529322, ,0.0015484541274376118, ,0.02202219696637354,-0.007872066926010632,-0.027642102686183372,-0.053118049526108504,-0.058944694399386696,-0.03736665204550144, ,0.03620818191827434, ,0.07934726236666617, ,0.000784621181658518, ,0.24076392008682332,-0.19779463437463815,0.10350097876000001,1.7691540531789318,0.805335529617506,-1.3053079998429125, ,0.16885576789763485,0.14667224352159317,0.029443274528650653,-0.022014059296315697,0.11808555332078052,-0.09260679041416078, ,1.778554916381836
0.015942541548543587,0.01969710497192174,-0.09127995727486497, ,0.016882287435293665,0.019060054365287394,-0.0919456029181083, ,0.0013160698801529126, ,0.022253794043555236,-0.008144165864281728,-0.02850580807601386,-0.01109274840980797,-0.011441361412770822,-0.012432168208272254, ,0.037069392779278745, ,0.015935337969963295, ,0.0007892830123470653, ,0.24250925771639806,-0.19629642419703858,0.10380949578000001,1.768315293404994,0.8069751676146913,-1.3065633359471291, ,0.17253989374267414,0.1482764711851106,0.030691351676300584,-0.06508204658365135,0.17953221849628692,-0.14639648604262315, ,1.7823009490966797
0.015942541548543587,0.01969710497192174,-0.09127995727486497, ,0.016956797904414646,0.019039002574750098,-0.09205052788533419, ,0.0014337342104821257, ,0.022253794043555236,-0.008144165864281728,-0.02850580807601386,-0.01109274840980797,-0.011441361412770822,-0.012432168208272254, ,0.037069392779278745, ,0.015935337969963295, ,0.0007948869358091093, ,0.24250925771639806,-0.19629642419703858,0.10380949578000001,1.768315293404994,0.8069751676146913,-1.3065633359471291, ,0.17253989374267414,0.1482764711851106,0.030691351676300584,-0.06508204658365135,0.17953221849628692,-0.14639648604262315, ,1.785991907119751
0.01611403466387023,0.019631170516596495,-0.09149877016804984, ,0.017031213309678994,0.01901803409494535,-0.09215524829112175, ,0.001283789883880839, ,0.022536164616184108,-0.008500119702024255,-0.028288628691426374,-0.0213787780955577,-0.023162276067889523,0.04047330986726256, ,0.03715342869504618, ,0.03152023270254377, ,0.0007991016163959345, ,0.24385301323651312,-0.19516118246452757,0.10404542056,1.7672668436875714,0.8084781691121111,-1.3077889328877896, ,0.1760611160639532,0.14712704117592368,0.030514964597701155,-0.12136002338057474,0.18214070046271374,-0.14852352818017872, ,1.7900340557098389
0.01611403466387023,0.019631170516596495,-0.09149877016804984, ,0.017105532126177696,0.018997150489298946,-0.09225976435897376, ,0.0014014852019898314, ,0.022536164616184108,-0.008500119702024255,-0.028288628691426374,-0.0213787780955577,-0.023162276067889523,0.04047330986726256, ,0.03715342869504618, ,0.03152023270254377, ,0.0008042501940505833, ,0.24385301323651312,-0.19516118246452757,0.10404542056,1.7672668436875714,0.8084781691121111,-1.3077889328877896, ,0.1760611160639532,0.14712704117592368,0.030514964597701155,-0.12136002338057474,0.18214070046271374,-0.14852352818017872, ,1.7936890125274658
0.01611403466387023,0.019631170516596495,-0.09149877016804984, ,0.017179752838652564,0.018976353312796096,-0.0923640763117476, ,0.001520952175702921, ,0.022536164616184108,-0.008500119702024255,-0.028288628691426374,-0.0213787780955577,-0.023162276067889523,0.04047330986726256, ,0.03715342869504618, ,0.03152023270254377, ,0.0008103239396578064, ,0.24385301323651312,-0.19516118246452757,0.10404542056,1.7672668436875714,0.8084781691121111,-1.3077889328877896, ,0.1760611160639532,0.14712704117592368,0.030514964597701155,-0.12136002338057474,0.18214070046271374,-0.14852352818017872, ,1.797245979309082
0.01640020298949658,0.01952891680853079,-0.09185003836641732, ,0.01725387394147887,0.018955644111996288,-0.09246818437165671, ,0.0011997917163590133, ,0.023832859230446923,-0.008153231773226098,-0.028974622301115395,-0.01361504404777112,-0.026470608541575836,-0.07299507764450133, ,0.038392826217127286, ,0.029766459638727313, ,0.0008135967781174805, ,0.24606943757141556,-0.19331544930758793,0.10442523353000001,1.7666377738571177,0.8105277166085928,-1.3095418801833765, ,0.18319872887735672,0.15232253861712805,0.03141777420118344,0.0,0.16176329635476921,-0.13293727494874497, ,1.8007869720458984
0.01640020298949658,0.01952891680853079,-0.09185003836641732, ,0.01732789393864731,0.01893502442504645,-0.09257208876027234, ,0.0013170707769755883, ,0.023832859230446923,-0.008153231773226098,-0.028974622301115395,-0.01361504404777112,-0.026470608541575836,-0.07299507764450133, ,0.038392826217127286, ,0.029766459638727313, ,0.0008177923947746313, ,0.24606943757141556,-0.19331544930758793,0.10442523353000001,1.7666377738571177,0.8105277166085928,-1.3095418801833765, ,0.18319872887735672,0.15232253861712805,0.03141777420118344,0.0,0.16176329635476921,-0.13293727494874497, ,1.8043429851531982
0.01640020298949658,0.01952891680853079,-0.09185003836641732, ,0.017401811343747194,0.01891449578169613,-0.09267578969852622, ,0.001436174695502185, ,0.023832859230446923,-0.008153231773226098,-0.028974622301115395,-0.01361504404777112,-0.026470608541575836,-0.07299507764450133, ,0.038392826217127286, ,0.029766459638727313, ,0.0008229029923013053, ,0.24606943757141556,-0.19331544930758793,0.10442523353000001,1.7666377738571177,0.8105277166085928,-1.3095418801833765, ,0.18319872887735672,0.15232253861712805,0.03141777420118344,0.0,0.16176329635476921,-0.13293727494874497, ,1.807948112487793
0.01663860376401485,0.019451719397581883,-0.09214818312556637, ,0.01747562467994827,0.01889405970331072,-0.0927792874067122, ,0.0011873840836078334, ,0.024643755483366735,-0.007283064817615184,-0.030878554564707124,-0.03141386422192561,-0.05471359692753078,-0.06004991846154631, ,0.04017266296210829, ,0.06309025662779666, ,0.0008258905422300473, ,0.24786883433110987,-0.19184040732861105,0.10474800974000001,1.766428083913633,0.8120307181060126,-1.3107674771240372, ,0.18355307844965332,0.14577103157983223,0.03346388974789917,-0.005962822849955247,0.13416902898162375,-0.11039171765757072, ,1.8115460872650146
0.01663860376401485,0.019451719397581883,-0.09214818312556637, ,0.017549332479983668,0.018873717702886428,-0.09288258210448833, ,0.0013049347161458466, ,0.024643755483366735,-0.007283064817615184,-0.030878554564707124,-0.03141386422192561,-0.05471359692753078,-0.06004991846154631, ,0.04017266296210829, ,0.06309025662779666, ,0.0008297852103106635, ,0.24786883433110987,-0.19184040732861105,0.10474800974000001,1.766428083913633,0.8120307181060126,-1.3107674771240372, ,0.18355307844965332,0.14577103157983223,0.03346388974789917,-0.005962822849955247,0.13416902898162375,-0.11039171765757072, ,1.8152000904083252
0.01663860376401485,0.019451719397581883,-0.09214818312556637, ,0.017622933286132233,0.01885347128506364,-0.09298567401087872, ,0.001424147603033034, ,0.024643755483366735,-0.007283064817615184,-0.030878554564707124,-0.03141386422192561,-0.05471359692753078,-0.06004991846154631, ,0.04017266296210829, ,0.06309025662779666, ,0.0008345784554132633, ,0.24786883433110987,-0.19184040732861105,0.10474800974000001,1.766428083913633,0.8120307181060126,-1.3107674771240372, ,0.18355307844965332,0.14577103157983223,0.03346388974789917,-0.005962822849955247,0.13416902898162375,-0.11039171765757072, ,1.818892002105713
0.016888528584798147,0.0193671772962321,-0.092462614521305, ,0.017696425650200995,0.01883332194614171,-0.09308856334427534, ,0.0011530442888651887, ,0.024025984074958866,-0.008291801769367292,-0.030561237118642552,-0.047058940717214705,-0.05657547697215485,0.07387534680686594, ,0.039749101896452387, ,0.07358873443938496, ,0.0008371261820808788, ,0.24974545841954643,-0.19033447441813728,0.10508763772000002,1.765169944252726,0.8135337196034325,-1.3119930740646977, ,0.18007009783391037,0.14465997188791277,0.03304732680497926,-0.15212853500842263,0.15708837552050325,-0.12904751344748966, ,1.8226070404052734
0.016888528584798147,0.0193671772962321,-0.092462614521305, ,0.017769808133507786,0.01881327117409299,-0.09319125032244104, ,0.0012705808773211598, ,0.024025984074958866,-0.008291801769367292,-0.030561237118642552,-0.047058940717214705,-0.05657547697215485,0.07387534680686594, ,0.039749101896452387, ,0.07358873443938496, ,0.0008405662987097699, ,0.24974545841954643,-0.19033447441813728,0.10508763772000002,1.765169944252726,0.8135337196034325,-1.3119930740646977, ,0.18007009783391037,0.14465997188791277,0.03304732680497926,-0.15212853500842263,0.15708837552050325,-0.12904751344748966, ,1.8263630867004395
0.017132141030588726,0.01928668026048373,-0.09277402734160002, ,0.017843079306863515,0.018793320448576466,-0.09329373516251038, ,0.0010094222881396736, ,0.023186568390317592,-0.007419344224451143,-0.029811643581093093,-0.014826354701619372,-0.024229893270684668,-0.061113871115883726, ,0.0384889297778712, ,0.02840572081414858, ,0.0008418958734296903, ,0.25154485517924075,-0.1888594324391604,0.10542467312,1.7643311844787881,0.8150367211008523,-1.3132186710053584, ,0.16976197058760426,0.1427021677570989,0.032375633170731714,-0.008920492333417249,0.15180872992097938,-0.12470837420178925, ,1.8302760124206543
0.017132141030588726,0.01928668026048373,-0.09277402734160002, ,0.01791623775055477,0.018773471240952525,-0.09339601808099192, ,0.001124750480719598, ,0.023186568390317592,-0.007419344224451143,-0.029811643581093093,-0.014826354701619372,-0.024229893270684668,-0.061113871115883726, ,0.0384889297778712, ,0.02840572081414858, ,0.0008441056750491427, ,0.25154485517924075,-0.1888594324391604,0.10542467312,1.7643311844787881,0.8150367211008523,-1.3132186710053584, ,0.16976197058760426,0.1427021677570989,0.032375633170731714,-0.008920492333417249,0.15180872992097938,-0.12470837420178925, ,1.8338830471038818
0.017132141030588726,0.01928668026048373,-0.09277402734160002, ,0.017989282054326525,0.018753725014296882,-0.09349809929377079, ,0.001242180430103754, ,0.023186568390317592,-0.007419344224451143,-0.029811643581093093,-0.014826354701619372,-0.024229893270684668,-0.061113871115883726, ,0.0384889297778712, ,0.02840572081414858, ,0.0008471915258635196, ,0.25154485517924075,-0.1888594324391604,0.10542467312,1.7643311844787881,0.8150367211008523,-1.3132186710053584, ,0.16976197058760426,0.1427021677570989,0.032375633170731714,-0.008920492333417249,0.15180872992097938,-0.12470837420178925, ,1.8375110626220703
0.017354322800426744,0.019215927014617325,-0.09305681643768371, ,0.01806221081736416,0.018734083223414726,-0.09359997901611014, ,0.0010140534849044857, ,0.0228013160834748,-0.0073185750072383825,-0.028635016283255932,-0.020238248748493254,-0.03289559043766026,-0.05499318694988249, ,0.03732861787981753, ,0.038622368261752166, ,0.000848475079394604, ,0.2531666290828279,-0.18750023145329686,0.10573189385000001,1.7643311844787881,0.8164030860985066,-1.3143328500423226, ,0.16707208020857534,0.1381323749031598,0.031171842504892373,-0.011912338857701007,0.14070116024776833,-0.11561996105916553, ,1.841130018234253
0.017354322800426744,0.019215927014617325,-0.09305681643768371, ,0.018135022648276336,0.018714547314854668,-0.09370165746265319, ,0.0011299087588164608, ,0.0228013160834748,-0.0073185750072383825,-0.028635016283255932,-0.020238248748493254,-0.03289559043766026,-0.05499318694988249, ,0.03732861787981753, ,0.038622368261752166, ,0.0008506234280924807, ,0.2531666290828279,-0.18750023145329686,0.10573189385000001,1.7643311844787881,0.8164030860985066,-1.3143328500423226, ,0.16707208020857534,0.1381323749031598,0.031171842504892373,-0.011912338857701007,0.14070116024776833,-0.11561996105916553, ,1.844722032546997
0.017354322800426744,0.019215927014617325,-0.09305681643768371, ,0.018207716165077513,0.018695118726923515,-0.09380313484742535, ,0.0012476027717506115, ,0.0228013160834748,-0.0073185750072383825,-0.028635016283255932,-0.020238248748493254,-0.03289559043766026,-0.05499318694988249, ,0.03732861787981753, ,0.038622368261752166, ,0.0008536308473626181, ,0.2531666290828279,-0.18750023145329686,0.10573189385000001,1.7643311844787881,0.8164030860985066,-1.3143328500423226, ,0.16707208020857534,0.1381323749031598,0.031171842504892373,-0.011912338857701007,0.14070116024776833,-0.11561996105916553, ,1.8482739925384521
0.01758117397702045,0.019140522404200378,-0.09334279259900016, ,0.01828028999517014,0.01867579888969954,-0.09390441138383641, ,0.001010023173617534, ,0.02207524425995897,-0.007037983251992079,-0.027972449131124278,0.004251362700347554,-0.004055340751440309,-0.03663579157357645, ,0.036322273163797276, ,0.005873903945185887, ,0.0008548067295149107, ,0.2548424621165346,-0.18613330773455913,0.10604429974000001,1.7637021146483343,0.818042724095692,-1.3156698648866796, ,0.16249476294258697,0.13161850424198443,0.030691351676300584,-0.036835122827432905,0.17043148358963592,-0.13983147663461667, ,1.8518729209899902
0.01758117397702045,0.019140522404200378,-0.09334279259900016, ,0.01835274277532729,0.018656589225047426,-0.09400548728468237, ,0.0011263542865533871, ,0.02207524425995897,-0.007037983251992079,-0.027972449131124278,0.004251362700347554,-0.004055340751440309,-0.03663579157357645, ,0.036322273163797276, ,0.005873903945185887, ,0.000856833203821168, ,0.2548424621165346,-0.18613330773455913,0.10604429974000001,1.7637021146483343,0.818042724095692,-1.3156698648866796, ,0.16249476294258697,0.13161850424198443,0.030691351676300584,-0.036835122827432905,0.17043148358963592,-0.13983147663461667, ,1.8554420471191406
0.01758117397702045,0.019140522404200378,-0.09334279259900016, ,0.01842507315167522,0.018637491146631636,-0.0941063627621467, ,0.001244285199269779, ,0.02207524425995897,-0.007037983251992079,-0.027972449131124278,0.004251362700347554,-0.004055340751440309,-0.03663579157357645, ,0.036322273163797276, ,0.005873903945185887, ,0.0008597032186022688, ,0.2548424621165346,-0.18613330773455913,0.10604429974000001,1.7637021146483343,0.818042724095692,-1.3156698648866796, ,0.16249476294258697,0.13161850424198443,0.030691351676300584,-0.036835122827432905,0.17043148358963592,-0.13983147663461667, ,1.8590519428253174
0.0177942922271679,0.019066147039450487,-0.09361855746741254, ,0.01849727977967589,0.01861850605993163,-0.09420703802780392, ,0.0010202368918463625, ,0.021281002091621468,-0.007584698124802774,-0.02723207032411719,-0.02037352031450593,-0.019926448778425726,0.040920090407486016, ,0.03538353218385141, ,0.02849787210770791, ,0.0008608836132584755, ,0.2564024541571279,-0.18485133407743787,0.10634503902,1.7624439749874272,0.8196823620928773,-1.3170068797310368, ,0.1558242061715448,0.12928738631944245,0.02971793194029851,-0.1162038831381796,0.16206038017788368,-0.13297597013015697, ,1.8626859188079834
0.0177942922271679,0.019066147039450487,-0.09361855746741254, ,0.01856936132410921,0.01859963536225489,-0.09430751329262042, ,0.0011371127380700387, ,0.021281002091621468,-0.007584698124802774,-0.02723207032411719,-0.02037352031450593,-0.019926448778425726,0.040920090407486016, ,0.03538353218385141, ,0.02849787210770791, ,0.0008628998842425015, ,0.2564024541571279,-0.18485133407743787,0.10634503902,1.7624439749874272,0.8196823620928773,-1.3170068797310368, ,0.1558242061715448,0.12928738631944245,0.02971793194029851,-0.1162038831381796,0.16206038017788368,-0.13297597013015697, ,1.8663299083709717
0.018012095462347943,0.018993929141512263,-0.093892051969607, ,0.018641316459055816,0.018580880442751843,-0.09440778876695631, ,0.0009124213579185071, ,0.0205531255612882,-0.006756816862579363,-0.025522514604811412,-0.009704891533026146,-0.018460213439973866,-0.043200104171169165, ,0.03345869537512374, ,0.020855540515538746, ,0.0008632587355010234, ,0.257985614396344,-0.1835461922216939,0.10664448201000001,1.762024595100458,0.8211853635902971,-1.3182324766716973, ,0.14920902760765847,0.12292349942807097,0.027994396344463976,-0.020840985567935778,0.13865292088803768,-0.11385950434491349, ,1.870527982711792
0.018012095462347943,0.018993929141512263,-0.093892051969607, ,0.018713143867879506,0.01856224268242965,-0.09450786466056862, ,0.001028128073832746, ,0.0205531255612882,-0.006756816862579363,-0.025522514604811412,-0.009704891533026146,-0.018460213439973866,-0.043200104171169165, ,0.03345869537512374, ,0.020855540515538746, ,0.0008644448458487335, ,0.257985614396344,-0.1835461922216939,0.10664448201000001,1.762024595100458,0.8211853635902971,-1.3182324766716973, ,0.14920902760765847,0.12292349942807097,0.027994396344463976,-0.020840985567935778,0.13865292088803768,-0.11385950434491349, ,1.874108076095581
0.018012095462347943,0.018993929141512263,-0.093892051969607, ,0.018784842243209355,0.018543723454166258,-0.09460774118261212, ,0.0011454404383739252, ,0.0205531255612882,-0.006756816862579363,-0.025522514604811412,-0.009704891533026146,-0.018460213439973866,-0.043200104171169165, ,0.03345869537512374, ,0.020855540515538746, ,0.0008664519572239136, ,0.257985614396344,-0.1835461922216939,0.10664448201000001,1.762024595100458,0.8211853635902971,-1.3182324766716973, ,0.14920902760765847,0.12292349942807097,0.027994396344463976,-0.020840985567935778,0.13865292088803768,-0.11385950434491349, ,1.8776249885559082
0.018212297733399645,0.018931726161651896,-0.09414183423166293, ,0.018856410286923024,0.01852532412272528,-0.0947074185416416, ,0.0009486459879977127, ,0.019913709506818988,-0.0060688097256263,-0.025200453039062546,-0.0049764352289012595,-0.015824457986271478,-0.045857776810661534, ,0.03268713984400939, ,0.016588195039936957, ,0.0008670348936123802, ,0.25942976544382396,-0.1823723368248118,0.10691929549000001,1.762024595100458,0.8225517285879514,-1.3193466557086615, ,0.1422742752001061,0.11488733844851184,0.02770228090434783,-0.014845284149776618,0.1331069876216286,-0.10931055206831441, ,1.8811860084533691
0.018212297733399645,0.018931726161651896,-0.09414183423166293, ,0.01892784671012832,0.01850704604476909,-0.09480689694561445, ,0.0010652098165439532, ,0.019913709506818988,-0.0060688097256263,-0.025200453039062546,-0.0049764352289012595,-0.015824457986271478,-0.045857776810661534, ,0.03268713984400939, ,0.016588195039936957, ,0.0008684304916611941, ,0.25942976544382396,-0.1823723368248118,0.10691929549000001,1.762024595100458,0.8225517285879514,-1.3193466557086615, ,0.1422742752001061,0.11488733844851184,0.02770228090434783,-0.014845284149776618,0.1331069876216286,-0.10931055206831441, ,1.8847920894622803
0.018212297733399645,0.018931726161651896,-0.09414183423166293, ,0.018999150233146214,0.018488890568873602,-0.09490617660189195, ,0.0011829875221303205, ,0.019913709506818988,-0.0060688097256263,-0.025200453039062546,-0.0049764352289012595,-0.015824457986271478,-0.045857776810661534, ,0.03268713984400939, ,0.016588195039936957, ,0.0008706301911749643, ,0.25942976544382396,-0.1823723368248118,0.10691929549000001,1.762024595100458,0.8225517285879514,-1.3193466557086615, ,0.1422742752001061,0.11488733844851184,0.02770228090434783,-0.014845284149776618,0.1331069876216286,-0.10931055206831441, ,1.8883609771728516
0.01839963857664765,0.018869334028061933,-0.09438840050340046, ,0.019070319585493257,0.01847085903554235,-0.0950052577172414, ,0.000994539168437953, ,0.019342410450962164,-0.006553911271574949,-0.02607388614107461,-0.021979995065279114,-0.01766602352574357,0.05133046029715423, ,0.033119935590319165, ,0.0281992290519195, ,0.0008714906701837349, ,0.2607580754981906,-0.18128343148954615,0.10718892381000002,1.7609761453830355,0.8239180935856059,-1.3204608347456257, ,0.1353736684143663,0.11364903180655184,0.02844430628571429,-0.11951610275326068,0.14344593601619413,-0.11771688674326186, ,1.8921520709991455
0.01839963857664765,0.018869334028061933,-0.09438840050340046, ,0.01914135350586424,0.01845295277722083,-0.09510414049783873, ,0.0011116645725727133, ,0.019342410450962164,-0.006553911271574949,-0.02607388614107461,-0.021979995065279114,-0.01766602352574357,0.05133046029715423, ,0.033119935590319165, ,0.0281992290519195, ,0.0008731470419243487, ,0.2607580754981906,-0.18128343148954615,0.10718892381000002,1.7609761453830355,0.8239180935856059,-1.3204608347456257, ,0.1353736684143663,0.11364903180655184,0.02844430628571429,-0.11951610275326068,0.14344593601619413,-0.11771688674326186, ,1.8959341049194336
0.01839963857664765,0.018869334028061933,-0.09438840050340046, ,0.01921225074211413,0.01843517311830998,-0.09520282514926938, ,0.0012296835897170815, ,0.019342410450962164,-0.006553911271574949,-0.02607388614107461,-0.021979995065279114,-0.01766602352574357,0.05133046029715423, ,0.033119935590319165, ,0.0281992290519195, ,0.000875589073073614, ,0.2607580754981906,-0.18128343148954615,0.10718892381000002,1.7609761453830355,0.8239180935856059,-1.3204608347456257, ,0.1353736684143663,0.11364903180655184,0.02844430628571429,-0.11951610275326068,0.14344593601619413,-0.11771688674326186, ,1.8997559547424316
0.018601173266969445,0.01880520714933415,-0.09466262759546196, ,0.019283010051241185,0.018417521375181184,-0.09530131187653147, ,0.0010114935841377814, ,0.01820352461618431,-0.005407185659985284,-0.025442248635758665,0.031180514917363372,0.0377729328842427,0.015160117579456124, ,0.031747661029709606, ,0.048979672402867054, ,0.0008765135935570436, ,0.2621636128812994,-0.18012502155841245,0.10748966309,1.759927695665613,0.8255577315827912,-1.321797849589983, ,0.12703740503142005,0.10248049844327299,0.02814277653710248,-0.08896845225664884,0.1860743582318907,-0.15245187016218667, ,1.9035980701446533
0.018601173266969445,0.01880520714933415,-0.09466262759546196, ,0.019353630199369202,0.01839999885618994,-0.0953996008840373, ,0.0011285011404614782, ,0.01820352461618431,-0.005407185659985284,-0.025442248635758665,0.031180514917363372,0.0377729328842427,0.015160117579456124, ,0.031747661029709606, ,0.048979672402867054, ,0.0008782162121172087, ,0.2621636128812994,-0.18012502155841245,0.10748966309,1.759927695665613,0.8255577315827912,-1.321797849589983, ,0.12703740503142005,0.10248049844327299,0.02814277653710248,-0.08896845225664884,0.1860743582318907,-0.15245187016218667, ,1.907231092453003
0.018788095058793936,0.01876058292546497,-0.09492159549183163, ,0.01942410996172972,0.01838260686168966,-0.09549769237561472, ,0.0009376931699911614, ,0.01977400709461188,-0.00463543776664184,-0.027551109347219417,-0.06236009124555551,-0.08149718679711662,-0.0014740943191958117, ,0.03422809176873014, ,0.10261850009460467, ,0.0008786153863311278, ,0.26340697287404957,-0.17913651175051173,0.1077735506,1.759927695665613,0.8266508235809147,-1.3227708715596949, ,0.12737844504492724,0.10042004397721775,0.02982923505617978,-0.03912851996625082,0.05442219159157689,-0.04448645475530605, ,1.9108150005340576
0.018788095058793936,0.01876058292546497,-0.09492159549183163, ,0.019494448122645197,0.018365346684047046,-0.0955955865545106, ,0.001053285474082578, ,0.01977400709461188,-0.00463543776664184,-0.027551109347219417,-0.06236009124555551,-0.08149718679711662,-0.0014740943191958117, ,0.03422809176873014, ,0.10261850009460467, ,0.0008797798535828041, ,0.26340697287404957,-0.17913651175051173,0.1077735506,1.759927695665613,0.8266508235809147,-1.3227708715596949, ,0.12737844504492724,0.10042004397721775,0.02982923505617978,-0.03912851996625082,0.05442219159157689,-0.04448645475530605, ,1.9144439697265625
0.018788095058793936,0.01876058292546497,-0.09492159549183163, ,0.01956464347551068,0.018348219607654665,-0.09569328362339101, ,0.0011698604710692687, ,0.01977400709461188,-0.00463543776664184,-0.027551109347219417,-0.06236009124555551,-0.08149718679711662,-0.0014740943191958117, ,0.03422809176873014, ,0.10261850009460467, ,0.0008817009172747673, ,0.26340697287404957,-0.17913651175051173,0.1077735506,1.759927695665613,0.8266508235809147,-1.3227708715596949, ,0.12737844504492724,0.10042004397721775,0.02982923505617978,-0.03912851996625082,0.05442219159157689,-0.04448645475530605, ,1.9179890155792236
0.01898961413528346,0.018718761349869616,-0.09521484632916385, ,0.01963469482277682,0.01833122690894615,-0.09579078378434465, ,0.0009476370552901039, ,0.019972776915271176,-0.003468274753245938,-0.030089207274277947,-0.002627322640289453,-0.01894071942100245,-0.05067126393467207, ,0.03628086467913428, ,0.019121428110808414, ,0.0008821347076564472, ,0.2646812237982966,-0.17813255647686255,0.10809243794000001,1.7597180057221284,0.8274706425795073,-1.3234393789818732, ,0.12453666871190391,0.0959524181582111,0.03291076760330579,0.0,0.10873780707654647,-0.08987457116909633, ,1.9215290546417236
0.01898961413528346,0.018718761349869616,-0.09521484632916385, ,0.01970460097593244,0.018314369856410394,-0.0958880872388846, ,0.0010620696704100978, ,0.019972776915271176,-0.003468274753245938,-0.030089207274277947,-0.002627322640289453,-0.01894071942100245,-0.05067126393467207, ,0.03628086467913428, ,0.019121428110808414, ,0.0008833107531646409, ,0.2646812237982966,-0.17813255647686255,0.10809243794000001,1.7597180057221284,0.8274706425795073,-1.3234393789818732, ,0.12453666871190391,0.0959524181582111,0.03291076760330579,0.0,0.10873780707654647,-0.08987457116909633, ,1.9250380992889404
0.01898961413528346,0.018718761349869616,-0.09521484632916385, ,0.019774360755486664,0.018297649710605036,-0.09598519418794967, ,0.0011775389990061212, ,0.019972776915271176,-0.003468274753245938,-0.030089207274277947,-0.002627322640289453,-0.01894071942100245,-0.05067126393467207, ,0.03628086467913428, ,0.019121428110808414, ,0.0008852213261895857, ,0.2646812237982966,-0.17813255647686255,0.10809243794000001,1.7597180057221284,0.8274706425795073,-1.3234393789818732, ,0.12453666871190391,0.0959524181582111,0.03291076760330579,0.0,0.10873780707654647,-0.08987457116909633, ,1.9286088943481445
0.019179574914609632,0.018680292512802,-0.0955148452859149, ,0.019843972990951527,0.01828106772417101,-0.09608210483190692, ,0.0009605147725169755, ,0.018464161329384277,-0.003954510689624569,-0.029030047871686216,0.034449826236560024,0.04023794140041787,0.07448955611889249, ,0.0346310133814227, ,0.052970386427151614, ,0.0008857070903594398, ,0.2658782473938014,-0.17722127399770404,0.1084216956,1.7584598660612214,0.8291102805766927,-1.324858072566371, ,0.11862117694808846,0.08860592115636862,0.03204992257545272,-0.15137653915005056,0.19088959724083465,-0.15942308309379116, ,1.9322779178619385
0.019179574914609632,0.018680292512802,-0.0955148452859149, ,0.01991343652082466,0.018264625141846624,-0.09617881937055357, ,0.0010734029091749348, ,0.018464161329384277,-0.003954510689624569,-0.029030047871686216,0.034449826236560024,0.04023794140041787,0.07448955611889249, ,0.0346310133814227, ,0.052970386427151614, ,0.0008869102686851801, ,0.2658782473938014,-0.17722127399770404,0.1084216956,1.7584598660612214,0.8291102805766927,-1.324858072566371, ,0.11862117694808846,0.08860592115636862,0.03204992257545272,-0.15137653915005056,0.19088959724083465,-0.15942308309379116, ,1.9360949993133545
0.01936105092705603,0.01864434563179428,-0.09580235235943953, ,0.019982750192571605,0.018248323200482214,-0.096275338003119, ,0.0011874498670831452, ,0.018464161329384277,-0.003954510689624569,-0.029030047871686216,0.034449826236560024,0.04023794140041787,0.07448955611889249, ,0.0346310133814227, ,0.052970386427151614, ,0.0008888245336431288, ,0.2670366573249351,-0.17633315971716823,0.10874058294000001,1.757621106287283,0.8311598280731742,-1.3265293411218173, ,0.11324217369745916,0.08885481419332471,0.03264100721311476,-0.08052113768360017,0.19710553407670228,-0.1644917627873624, ,1.9405639171600342
0.01936105092705603,0.01864434563179428,-0.09580235235943953, ,0.020051912862608073,0.018232163129052903,-0.0963716609282661, ,0.000985543949349912, ,0.018192899835817684,-0.0034736940332592294,-0.029535073108412697,0.05732450929937831,0.06434710824482677,0.005323121868409579, ,0.03486213846269444, ,0.0861778813349166, ,0.0008894366818438047, ,0.2670366573249351,-0.17633315971716823,0.10874058294000001,1.757621106287283,0.8311598280731742,-1.3265293411218173, ,0.11324217369745916,0.08885481419332471,0.03264100721311476,-0.08052113768360017,0.19710553407670228,-0.1644917627873624, ,1.9441719055175781
0.01936105092705603,0.01864434563179428,-0.09580235235943953, ,0.020120923396283123,0.018216146148674478,-0.09646778834409503, ,0.0010970715639864986, ,0.018192899835817684,-0.0034736940332592294,-0.029535073108412697,0.05732450929937831,0.06434710824482677,0.005323121868409579, ,0.03486213846269444, ,0.0861778813349166, ,0.0008907425616057084, ,0.2670366573249351,-0.17633315971716823,0.10874058294000001,1.757621106287283,0.8311598280731742,-1.3265293411218173, ,0.11324217369745916,0.08885481419332471,0.03264100721311476,-0.08052113768360017,0.19710553407670228,-0.1644917627873624, ,1.9477660655975342
0.019545104004648813,0.018615262817987168,-0.0961011628942316, ,0.02018978066786097,0.01820027347261659,-0.0965637204481432, ,0.0008954237251391886, ,0.017329724208472622,-0.0027130036465627997,-0.027906741718580614,0.01891287069977621,0.015904027584086808,-0.02209372766779837, ,0.032961583142736825, ,0.02471068282827931, ,0.0008907718188777926, ,0.2681487308588234,-0.17546049090238086,0.10906984060000001,1.7574114163437988,0.8327994660703596,-1.3279480347063148, ,0.10348630486201829,0.08028506054016141,0.030632329846153848,-0.030329717724556775,0.12819528021929888,-0.10419110929840701, ,1.9513449668884277
0.019545104004648813,0.018615262817987168,-0.0961011628942316, ,0.02025848356050383,0.018184546306316864,-0.09665945743738863, ,0.0010030552831505652, ,0.017329724208472622,-0.0027130036465627997,-0.027906741718580614,0.01891287069977621,0.015904027584086808,-0.02209372766779837, ,0.032961583142736825, ,0.02471068282827931, ,0.0008914692316993626, ,0.2681487308588234,-0.17546049090238086,0.10906984060000001,1.7574114163437988,0.8327994660703596,-1.3279480347063148, ,0.10348630486201829,0.08028506054016141,0.030632329846153848,-0.030329717724556775,0.12819528021929888,-0.10419110929840701, ,1.9548969268798828
0.019545104004648813,0.018615262817987168,-0.0961011628942316, ,0.02032703096625413,0.01816896584739517,-0.09675499950825049, ,0.0011126963094558258, ,0.017329724208472622,-0.0027130036465627997,-0.027906741718580614,0.01891287069977621,0.015904027584086808,-0.02209372766779837, ,0.032961583142736825, ,0.02471068282827931, ,0.0008928348309447727, ,0.2681487308588234,-0.17546049090238086,0.10906984060000001,1.7574114163437988,0.8327994660703596,-1.3279480347063148, ,0.10348630486201829,0.08028506054016141,0.030632329846153848,-0.030329717724556775,0.12819528021929888,-0.10419110929840701, ,1.9585189819335938
