NicholasDascanio/dvrk_moveit_final/src/moveit_tutorials/data_joint.csv
 ,psm_yaw_joint,psm_pitch_joint,psm_main_insertion_joint,psm_tool_roll_joint,psm_tool_pitch_joint,psm_tool_yaw_joint,psm_tool_gripper2_joint
Positions
0,0.21052130083931678,0.5787170159846458,0.09396218618840825,0.034587968953292095,-0.1796408652813807,0.03847774750721057,0.03854362109019771
1,0.2013512956173963,0.5908440509418549,0.09852672230384045,0.038301700279531566,-0.192038336939503,0.042138942254478985,0.042204815837466124
2,0.19292894999263463,0.60166676752578,0.10310668539908246,0.041728748146166304,-0.20313109160658566,0.045467479014608646,0.045533352597595785
3,0.18516878640359166,0.6113796843630643,0.10769980053462765,0.04490024386611934,-0.21311089529975913,0.048506420182199056,0.04857229376518619
4,0.1779973139812612,0.6201413187447983,0.11230423899444622,0.04784315736177765,-0.22213439803666057,0.05129178029842221,0.051357653881409344
5,0.17135127765699817,0.6280819523280403,0.11691849333036218,0.05058085078655447,-0.2303306284431228,0.053853870046866086,0.05391974362985321
6,0.16517598307406664,0.63530954154439,0.12154131034450573,0.053133658337194925,-0.23780673429870278,0.05621837698638277,0.05628425056936989
7,0.159423929625262,0.641914226928845,0.1261716400427153,0.05551935682669004,-0.2446523692586295,0.05840721076149195,0.05847308434447907
8,0.15405369011930242,0.6479718080883751,0.13080859632329278,0.057753551051694794,-0.2509430788396461,0.06043917012995855,0.060505043712945676
9,0.14902898844215756,0.6535464469891229,0.13545142639225297,0.059849991685479005,-0.2567429387106497,0.06233047407402859,0.06239634765701572
10,0.14431793674704094,0.6586927897513826,0.14009948674047637,0.06182083924987532,-0.26210662881180274,0.06409518808165805,0.06416106166464516
11,0.1398924016999965,0.663457646076182,0.14475222410676797,0.0636768846031107,-0.26708107769632283,0.0657455688619096,0.06581144244489671
12,0.13572747557720843,0.6678813290827191,0.14940916026627948,0.06542773399333553,-0.2717067764103918,0.06729234521655811,0.06735821879954522
13,0.13180103291510636,0.671998732231419,0.1540698797814119,0.06708196531329638,-0.27601883634132257,0.06874494811354906,0.06881082169653617
14,0.1280933572854516,0.6758402010138842,0.1587340200658411,0.06864726038198478,-0.2800478466922251,0.07011170072229939,0.07017757430528651
15,0.12458682579068592,0.6794322432252444,0.16340126327008214,0.07013051756608252,-0.2838205742988386,0.07139997604106839,0.07146584962405551
16,0.08747426467715794,0.6816268361822481,0.16302803087751763,0.08509701918505533,-0.28824423153288636,0.08629192845629416,0.08635780203928128
17,0.05011049848117522,0.6831369118358972,0.1627860066565277,0.10009838845686747,-0.2924280343077362,0.1012784025617121,0.10134427614469922
18,0.012598853117385714,0.6839491230102058,0.16267576016614474,0.1150707882207156,-0.2963573650718031,0.11633318730628028,0.11639906088926741
19,-0.02495466819617688,0.6840566865656477,0.16269754172020875,0.12994943989173918,-0.3000196541549856,0.13142929402450643,0.13149516760749355
20,-0.062443311454490225,0.6834594225313869,0.16285126944537187,0.14467005534698468,-0.30340444054849475,0.1465392859347752,0.14660515951776232
21,-0.09976139239098954,0.6821637493072937,0.16313653057362393,0.15917017819636356,-0.3065035174393861,0.1616355758154131,0.16170144939840023
22,-0.13680607258864805,0.6801825045924371,0.16355258683635407,0.1733904632706339,-0.30931102762582297,0.17669072771722724,0.17675660130021437
23,-0.17347901749183237,0.6775346017456717,0.16409838379833425,0.18727583482577634,-0.3118235063218383,0.19167775448963753,0.19174362807262466
24,-0.20968787167816572,0.6742445395742939,0.164772563861369,0.20077647303469243,-0.31403987110177495,0.20657040311102368,0.2066362766940108
25,-0.24534750030946714,0.6703417902812989,0.16557348257281146,0.21384859116918514,-0.31596136098882066,0.2213434204304324,0.22140929401341952
26,-0.28038096217860486,0.6658600949821345,0.16649922779729587,0.22645498100078207,-0.3175914286666795,0.2359727928901093,0.23603866647309643
27,-0.2936802662720947,0.6662934397554187,0.1704858759769331,0.23134978414160592,-0.32038513585273376,0.2412809089072553,0.2413467824902424
28,-0.30635150914900294,0.6666169460745642,0.1744895488928876,0.23598666722412337,-0.3230050398935423,0.2463455288662605,0.2464114024492476
29,-0.3184342102142395,0.6668443765810949,0.17850904858408476,0.24038297812900117,-0.32546537116032204,0.25118205050051695,0.25124792408350405
30,-0.32996505171992735,0.6669877552817113,0.18254328830549096,0.24455478390140256,-0.3277789686147868,0.2558046971476269,0.255870570730614
Velocities
0,0.0,0.0,0.0,0.0,0.0,0.0,0.0
1,-0.09834946112842938,0.12745074902201334,0.05216490709487351,0.0399636362136835,-0.13053051182367517,0.03898397979897896,0.03898397979897896
2,-0.159784576340389,0.2023193767650388,0.09121931003956538,0.06517740954110812,-0.20765217664797675,0.06282365119476162,0.06282365119476153
3,-0.19542919888910132,0.24145503813808394,0.12095838806982118,0.08004631138230969,-0.24840000724003752,0.07619294601658078,0.0761929460165807
4,-0.2219703419479292,0.2680479305842162,0.14860566809101222,0.09127104496214394,-0.2763797827254446,0.08587536744126734,0.08587536744126721
5,-0.2251756235932088,0.2663896157580341,0.16223453473965174,0.09291504436649996,-0.2752434024420425,0.08652336621864365,0.08652336621864354
6,-0.22189577117260295,0.2571955009644137,0.1724996439996524,0.09188429989404943,-0.2663118531677445,0.08469523331546291,0.08469523331546291
7,-0.21892619576111794,0.24923992331609188,0.18240850468037542,0.09093578374093586,-0.2585713417124192,0.08308035628309099,0.08308035628309099
8,-0.20335568792461406,0.22757107008032834,0.18150549228096763,0.08471930191659965,-0.23653693127097863,0.07675171743224296,0.07675171743224296
9,-0.18745010835304032,0.20643625817113156,0.1788231887112729,0.07830959431612486,-0.21495608169699798,0.07039396784974593,0.07039396784974566
10,-0.16977219270290006,0.1842000356449522,0.17268223998191118,0.07110741670945,-0.19213058014647716,0.06346148857470982,0.06346148857470957
11,-0.14892512493796312,0.15934189386037545,0.1611711086365095,0.06252622224938795,-0.166473768311788,0.0554313769336036,0.0554313769336036
12,-0.12449300307290997,0.13147698823389584,0.14303037993860285,0.05238579819140536,-0.13757501436717084,0.04615499644271466,0.04615499644271466
13,-0.10149197205642885,0.10585231318731878,0.12372701378235867,0.04279909296040511,-0.11093001931972106,0.037486523417038245,0.03748652341703841
14,-0.057138499971029655,0.059068575856651456,0.07270130579726852,0.02413180969035156,-0.06196941384445141,0.02104893384804183,0.021048933848042
15,-0.1085830431729363,0.01729444439157825,0.014015149455902133,0.04401083616022102,-0.023720051707261863,0.0431889569552924,0.0431889569552924
16,-0.2654702165269041,0.012550705563532973,-0.0020679125908212833,0.10675803427871404,-0.030428708522662308,0.10649551402969795,0.10649551402969795
17,-0.38282179801267513,0.01144403388209866,-0.0017201202434402227,0.15319551797305409,-0.04131537980840834,0.15359995202688462,0.15359995202688462
18,-0.4648083772107254,0.005364544468252286,-0.0004858288491750711,0.1847878609608044,-0.04688055798178309,0.18670776689038765,0.18670776689038765
19,-0.5312514133522388,-0.0037621836840882415,0.0012978279728551529,0.20948875041673254,-0.04977518338236182,0.21385696975354382,0.21385696975354382
20,-0.5854476951761503,-0.015045075293812393,0.0034790949895452568,0.22863499888800096,-0.050654665614156005,0.2364166197554156,0.2364166197554156
21,-0.5809047486453321,-0.02535808587747831,0.005432561216748068,0.2244172616555426,-0.04623390353382216,0.2355120845819501,0.2355120845819501
22,-0.5235813174576013,-0.03262667949887628,0.006782440160042191,0.19969168809316634,-0.03788329402661696,0.21334489970394638,0.21334489970394638
23,-0.45726781477808814,-0.03693963005026096,0.007591033535369027,0.1719202899214023,-0.029792771056910153,0.18742359195719827,0.18742359195719827
24,-0.383235184084556,-0.03803620152469564,0.007799927824208198,0.14180568526464685,-0.02219073397261947,0.15813953998545838,0.15813953998545838
25,-0.28173276555257915,-0.03284404509855019,0.0067589000347626745,0.10254449358103862,-0.014381022150823944,0.11707518625907753,0.11707518625907753
26,-0.17610576844995413,-0.011717856620017552,0.0230634465179957,0.0639226716988039,-0.019208425829277512,0.07229573346037048,0.07229573346037048
27,-0.17391094052189388,0.004915128090932495,0.05385860965181741,0.06378278798655648,-0.03618034996651876,0.06947299631515705,0.06947299631515705
28,-0.19807781044372824,0.004443173022645466,0.0641141107698696,0.0722932068115607,-0.040667572407073846,0.07922458386197606,0.07922458386197585
29,-0.12950932780402674,0.0021950302025036525,0.04373672336863778,0.04704406723621503,-0.026258031862181556,0.051863764456783604,0.051863764456783396
30,0.0,0.0,0.0,0.0,0.0,0.0,0.0
Accellerations
0,-0.7137256676761313,0.0,0.0,0.0,0.0,0.0,0.0
1,-0.7457786598234082,0.9389008968889067,0.42940334701468513,0.3044485332259228,-0.9641448799695053,0.2926319090726314,0.2926319090726314
2,-0.7844001630639911,0.891832089453788,0.5939550340255485,0.32540179158707455,-0.9250908940894814,0.29748371659631806,0.2974837165963151
3,-0.7963888773183901,0.8333193728923942,0.7456029660129486,0.3346300860279633,-0.872316293674814,0.2943057439285029,0.2943057439285069
4,-0.7156767920036096,0.6734398338673674,0.8490741955284524,0.3053580971547525,-0.7140652891209142,0.25642669836961546,0.25642669836960746
5,0.5607692147605214,-0.856069412154477,0.025027699486436992,-0.21984551670480101,0.8640162967577765,-0.23608188972652475,-0.23608188972651595
6,-0.34950045867054824,0.2223346363939364,0.7364907963828394,0.15597966305553634,-0.25025782192858825,0.11389027567983674,0.11389027567983674
7,0.6040185271689036,-0.8618739293084261,-2.185258146205438e-15,-0.23990421248534474,0.874519634975608,-0.2477840304791423,-0.2477840304791423
8,0.6179527273031974,-0.8388291048763111,-0.0706469441939317,-0.24795651375296807,0.8548625769587662,-0.2489010615145989,-0.2489010615145989
9,0.6163741078783349,-0.8015878383939457,-0.1369708279450778,-0.2494413625993085,0.8201476283905568,-0.24451219969921703,-0.24451219969923732
10,0.7177575440102337,-0.8774972558651377,-0.32371017846270483,-0.29403840062761005,0.9033383561421592,-0.2787743592803206,-0.2787743592803011
11,0.7723893203149947,-0.9008496603683304,-0.4941089155739987,-0.3192477922977732,0.9319834486420238,-0.29537568503195427,-0.29537568503195427
12,0.8091169276605233,-0.9051919562054425,-0.670877362376215,-0.336992899925543,0.9407987313299248,-0.3053372191066703,-0.3053372191066703
13,0.5148565085693018,-0.5703106661349973,-0.439155493867928,-0.21479944614328345,0.5933966545510599,-0.19368706441730685,-0.19368706441729788
14,0.7061146839861965,-0.734284107106166,-0.8714816060870739,-0.29791651430757243,0.7697832975313644,-0.260577369650587,-0.2605773696505904
15,-0.9939278305143161,-0.06681709535576622,-0.18448581559737548,0.3982579727025858,0.006009161277994141,0.4032350266311829,0.4032350266311829
16,-0.9388910978325306,0.013800950341520376,-0.0014646866882642056,0.3746665517070756,-0.09581785143727656,0.3763691509837469,0.3763691509837469
17,-0.9375136725203991,-0.04328831774822338,0.009236476619735074,0.36621808290098734,-0.07371829064072372,0.3770710698296244,0.3770710698296244
18,-0.8734293605368167,-0.09681628414121912,0.01910897846494155,0.3305021157159351,-0.0469706078110681,0.354560060460327,0.354560060460327
19,-0.8740785462117174,-0.14660514264641467,0.028435975915473883,0.318306074695448,-0.027858472669113808,0.3598271228120277,0.3598271228120277
20,-0.7257555416019551,-0.19025804113417694,0.03667810948336491,0.24585445285737,0.0033663135098027062,0.30654853820697614,0.30654853820697614
21,0.8657542896804767,-0.13174775686962722,0.024316931742271765,-0.3768075832770888,0.1344859126228779,-0.33405368216690856,-0.33405368216690856
22,0.8373118889346043,-0.08621113862853477,0.016147297697982434,-0.35809274438728894,0.11437450347844039,-0.32446094576000706,-0.32446094576000706
23,0.916936995915898,-0.031672523801554935,0.005951708706761242,-0.3774555822019463,0.10110935450646784,-0.36091953293429774,-0.36091953293429774
24,0.7881798371529353,0.0036582769230450707,-0.0006275363633724017,-0.31682417594126355,0.07504061924890806,-0.31327824430565626,-0.31327824430565626
25,0.972582253137374,0.07600641613806063,-0.015315173951326014,-0.3676325133557723,0.06452020393884703,-0.39747801031035485,-0.39747801031035485
26,0.6374476336952893,0.2479938067449883,0.26660587739902825,-0.22086346481818342,-0.1399249092415709,-0.28532536840142003,-0.28532536840142003
27,-0.9914133522698171,0.013299073270468536,0.34084525088270995,0.3591982805691688,-0.19935683684619315,0.39722707440607835,0.39722707440607835
28,0.4794873903462088,-0.03181316336473003,-0.10277528672763221,-0.1815482223035468,0.10828723064097043,-0.18992451900505142,-0.18992451900505805
29,0.9832011063228392,-0.022964508093441603,-0.31507535474851794,-0.3591742090949567,0.20228306503963883,-0.3931352743601638,-0.39313527436016
30,1.0013339783790483,-0.012450952918938732,-0.3503318736952398,-0.36227805828766146,0.200911940581619,-0.40142891180213436,-0.40142891180213436
