NicholasDascanio/dvrk_moveit_final/test/execution/third_experiment_notsharpbends/thirdexp_300vel4.0/thirdexp_300vel4.0_19.csv
Current Position (x),Current Position (y),Current Position (z), ,Planned Position (x),Planned Position (y),Planned Position (z), ,Position Error,,Cartesian linear Velocity(x),Cartesian linear Velocity(y),Cartesian linear Velocity(z),Cartesian Angular Velocity(x),Cartesian Angular Velocity(y),Cartesian Angular Velocity(z), ,Total Linear Velocity, ,Total Angular Velocity, ,MSE, ,Joint 1 Position,Joint 2 Position,Joint 3 Position,Joint 4 Position,Joint 5 Position,Joint 6 Position, ,Joint 1 Velocity,Joint 2 Velocity,Joint 3 Velocity,Joint 4 Velocity,Joint 5 Velocity,Joint 6 Velocity, ,Time Stamp
0.009036257771614507,0.021075301043713093,-0.07818716743566959, ,0.009232379168017574,0.0210077317605351,-0.07835084846908401, ,0.00026423605139323905, ,0.0005395140760143755,-0.00016106984689191018,-0.00023289047159883954,0.21930047453949053,-0.05249111307871749,-0.09815126527600408, ,0.0006093085470900262, ,0.2254950444810006, ,2.2019670949436588e-05, ,0.17103536496545022,-0.2555066171437179,0.08901364172000001,1.6905203243722353,0.5091075981260311,-1.220413808218669, ,0.0002706459359686435,0.002168033912312147,2.9801226530567736e-06,-0.0008350688308731425,-0.059725162769682476,-0.2407297251913052, ,0.04009509086608887
0.009086910019868924,0.0210787113676457,-0.07825382224075117, ,0.009301269713118069,0.020998247091888838,-0.0785433185709411, ,0.0003690971456898321, ,0.0016829349643516511,0.000636951820982507,-0.003986297805565216,0.07475765417251674,-0.0930435255044438,-0.07194049410144668, ,0.0043736195434838955, ,0.11935578953141365, ,2.878787259468505e-05, ,0.1710894240955698,-0.2553907761506045,0.08906678961,1.6901009444852664,0.5047352301335369,-1.2260781329362673, ,0.0022789593082243754,0.005078103466213455,0.0037853639543726234,0.014337585096065392,-0.1002558990546339,-0.09024267801227226, ,0.07549500465393066
0.009153007886312884,0.02110202534232551,-0.07844693540643763, ,0.00937072018640125,0.020988344012452295,-0.07873556309326679, ,0.0003789828914025841, ,0.0012808699525115946,0.00030285801929949617,-0.00527202001330995,-0.03307633608448485,0.006981953729409627,0.0181079336689146, ,0.0054338334383602265, ,0.033805202004731236, ,3.163487776517673e-05, ,0.1712516014859285,-0.25507414410276136,0.08925604795000001,1.6901009444852664,0.5022757731377591,-1.23109698232182, ,0.006348080890482944,0.01277117571991924,0.005354222359663867,-0.008999523711924147,0.016697511753428124,0.02151393763912518, ,0.11116504669189453
0.009209029453552462,0.021108526990324207,-0.0786827689149179, ,0.009440722371616821,0.02097802970917476,-0.07892757776435391, ,0.0003614450462113948, ,0.0006487640873645881,-0.00044906132839499853,-0.003931224582361156,0.05609864938425895,0.08972438381350467,0.013789929207755111, ,0.00400962312875843, ,0.10581835149213095, ,3.2708598445167864e-05, ,0.17160684719814284,-0.2544022663427038,0.08949715789000001,1.6898912545417817,0.5039154111349443,-1.2278599877183056, ,0.01072677671583611,0.019869543877401755,0.005045553221412734,-0.012465213406391057,0.03915356921365324,-0.03296727339195063, ,0.14647507667541504
0.009255561800305902,0.021090898176226083,-0.07881150793033001, ,0.009511268096886268,0.02096731133274527,-0.07911935833930274, ,0.0004188451889386735, ,0.0016660977208468929,-0.0007990613601716859,-0.004603101805462726,0.06374026521770709,-0.003015753019444691,-0.02368928551101713, ,0.004960133758698937, ,0.06381156771488496, ,3.447319853145622e-05, ,0.17190803378023758,-0.2537844477127658,0.08962160173000001,1.6898912545417817,0.5039154111349443,-1.229330205040836, ,0.011813153703820209,0.023629716523523598,0.004445663276583869,-0.009750446986479583,0.009706108464041904,-0.09341575635471411, ,0.18197393417358398
0.009320590989966557,0.021071773082267344,-0.07899370452701715, ,0.00958234923461209,0.020956195997662824,-0.07931090059996741, ,0.00042718706654188375, ,0.00209912285219639,-0.00018268857079322098,-0.0068010162673096996,-0.035630418765759335,-0.014039978614834036,0.009184052935136367, ,0.007119937789807067, ,0.038296837028378314, ,3.639005557668209e-05, ,0.1723250613554457,-0.25300445169246916,0.08979919346000001,1.6894718746548125,0.5039154111349443,-1.2299019562218196, ,0.011416860148997928,0.023005319165689885,0.0067295359188846654,-0.009488741844373181,0.0,0.012101201387063415, ,0.21418404579162598
0.009384286433493195,0.021070126437231,-0.07919716732764245, ,0.009653957701387267,0.020944690782305653,-0.0795022003549029, ,0.00042603033222273694, ,0.002222043825673966,-0.0002152617728461746,-0.006404238154328561,-0.01405137034459733,-0.011647446175752191,-0.0020426579825521627, ,0.006782188638737673, ,0.018251136956503728, ,3.779748174857635e-05, ,0.1727034752662827,-0.2523557421310343,0.09000271099000001,1.6892621847113283,0.5041886841344753,-1.2302881495094935, ,0.014029707504209163,0.022444877379013902,0.006368977017193124,-0.004158758513427015,0.0033656603168339253,-0.009033179355196314, ,0.24645304679870605
0.009464293553725538,0.021059818821201278,-0.07942675903612065, ,0.00972608545790447,0.020932802729001138,-0.0796932534393124, ,0.00039457237067989535, ,0.002024330748552893,-0.00036346216562170087,-0.00494116427064278,-0.016120553920518435,-0.011742739676589304,-0.00081899679668161, ,0.005352113981862861, ,0.019944026445807582, ,3.848602649468658e-05, ,0.1731050573757424,-0.2517302007682221,0.09018289530000001,1.6890524947678438,0.5045985936337716,-1.2307040819607233, ,0.013914507559893076,0.02065221796702302,0.005090703585810164,-0.002961161798662629,0.01571004525652523,-0.011997881680914398, ,0.27849698066711426
0.009523718420451665,0.021049094623742323,-0.07958469379650913, ,0.009798724508865476,0.020920538844095407,-0.07988405571499373, ,0.0004263478572528145, ,0.0022473708508498847,-0.00012012388266472834,-0.0065378382597636835,0.002713981905061372,0.011224109856022211,0.001368743495244257, ,0.006914364366973006, ,0.011547568051173204, ,3.9394817617421076e-05, ,0.17369970780705768,-0.25091931381642857,0.09039030170000001,1.6886331148808746,0.5052817761325988,-1.2313428502193462, ,0.01652105528524909,0.021710579171464378,0.006634240533111204,-0.005725317724942618,0.029801135441132456,-0.02430082770214473, ,0.31104302406311035
0.009595380141141216,0.021045763292652522,-0.07976184665421188, ,0.009871866902890427,0.02090790609802286,-0.08007460307028667, ,0.00043962041732576205, ,0.0024990766971906483,-4.218167393294013e-05,-0.006776530346999581,-0.01576994136794215,-0.01116081402462774,0.0016517205525232973, ,0.00722277835572042, ,0.019319803470804395, ,4.027179760473007e-05, ,0.17422485364250495,-0.2503246633851133,0.09056918972000001,1.6886331148808746,0.5055550491321297,-1.23172904350702, ,0.01678403635629126,0.02128211293080753,0.006824683598971724,-0.005725317724942618,0.007192615643829024,-0.005975376372964315, ,0.3446171283721924
0.009664675679947745,0.021041664681708584,-0.07994559694284059, ,0.009945504732427122,0.020894911425376143,-0.08026489142001988, ,0.00044983378943542926, ,0.0022997250061850536,-0.000361068385333832,-0.005666900475707507,-0.0005831542558451533,-0.005360278451987537,-0.0017137253392442422, ,0.006126407306450853, ,0.0053919057970919495, ,4.1096209029191e-05, ,0.1747191085464553,-0.24971456748804952,0.09075455919000001,1.68842342493739,0.505964958631426,-1.2323900121786715, ,0.01728226945155177,0.021592023107729414,0.0056807459058487875,-0.0061918552621909335,0.013514662221349276,-0.022026698297668616, ,0.3776271343231201
0.009727154056471317,0.021032882487128503,-0.08010169649404479, ,0.010019630133660366,0.020881561724975482,-0.08045491670545757, ,0.00048291277321784793, ,0.0024655681089391676,-0.00022930735130274836,-0.006170462213241744,-0.0012346121918491914,-0.0026461748787865247,-0.018857552186116035, ,0.006648775217002268, ,0.0029200170903979092, ,4.244834149396573e-05, ,0.175190195251783,-0.24915853072110536,0.09091141028000001,1.6877943551069365,0.5063748681307223,-1.232887623370042, ,0.017911842498767608,0.022487426909590234,0.006214908903628561,0.012309805958053024,0.012297571771694073,-0.019054397861768546, ,0.4061570167541504
0.00981015469970847,0.0210263055291907,-0.08031451277431388, ,0.010094235286421161,0.020867863859938645,-0.0806446748942472, ,0.0004634787673036059, ,0.0025710625179902803,-4.4687055199530074e-05,-0.0069329478125507715,-0.004003636237162054,-0.0020342955879067443,-0.017819309735854542, ,0.007394465820860182, ,0.004490817925632394, ,4.346384998045655e-05, ,0.17576940021734985,-0.24842487109805403,0.09112529813,1.6877943551069365,0.5066481411302531,-1.2334371741379972, ,0.017476416493272702,0.022508762229238796,0.007010920563380283,0.012309805958053024,0.012555846739772803,-0.016104449100848215, ,0.4348890781402588
0.009887066777904695,0.02101938032277628,-0.08052502919111468, ,0.010169312414096129,0.020853824657750302,-0.08083416198036583, ,0.00045014926275791986, ,0.0022513595366003727,-0.0005915481613445423,-0.005531609416177184,0.012204467674975296,0.0026505405576371967,0.0034786920098769953, ,0.006001437471420629, ,0.012488970786180019, ,4.425183815672015e-05, ,0.1763177142514198,-0.24770665694075114,0.09133788969000001,1.687584665163452,0.5073313236290804,-1.234566014837463, ,0.017837770969637363,0.023230585448830058,0.005536604629822733,-0.014709453301316141,0.024218347942538063,-0.038053606232066814, ,0.4652750492095947
0.009963892171737442,0.021004935467977836,-0.0807081534504256, ,0.010244853783536682,0.020839450910331778,-0.08102337398406731, ,0.00045352899681663084, ,0.002715651072279319,-0.0005354088734333845,-0.0065708268349529446,-0.00950369855124229,-0.013831217511016035,0.006236631379264531, ,0.007130020245627691, ,0.016781622440662173, ,4.497295621152355e-05, ,0.17688147375123817,-0.24698844278344828,0.09152066658,1.6873749752199676,0.5076045966286112,-1.2350338868652777, ,0.019708606761883858,0.02549622287976109,0.006549675789473685,-0.015168402724336718,0.00956229230601106,-0.018578742128368027, ,0.4937310218811035
0.010045903070691836,0.02098802483812786,-0.08091082621858746, ,0.010320851704968282,0.02082474937411097,-0.0812123069518293, ,0.0004394840852140697, ,0.0027309754133440275,-0.0005093353439686596,-0.007030512106264315,0.0013163386273874922,0.0014909803295102548,-0.0009068292242425514, ,0.007559480780928962, ,0.0019889073755290413, ,4.551884960550904e-05, ,0.17747612418255346,-0.24618527856452893,0.09172288782000002,1.687165285276483,0.5080145061279076,-1.2357765342770697, ,0.020130874322967923,0.026928757536455957,0.0070606434042553195,-0.007820799582099105,0.02381422825474415,-0.029153254608958002, ,0.5229780673980713
0.010130722480296683,0.020971680676107628,-0.08111849743885008, ,0.010397298531899801,0.020809726770091443,-0.08140095695630076, ,0.00042080308691914075, ,0.0028047458030951945,-0.0005726277872891113,-0.0070944033974494015,0.01103025772867185,0.006082225705115442,-0.002153062844217425, ,0.007650167394802373, ,0.012596032594336844, ,4.5886721618983515e-05, ,0.17810938827823986,-0.24538211434560958,0.09192899793,1.6869555953329984,0.5086976886267348,-1.2368236962363952, ,0.021187082285883185,0.027658683054057352,0.007126985020134229,-0.008923955509152742,0.02989031959211858,-0.04012834075345562, ,0.5523760318756104
0.010188261269281032,0.020960875359512608,-0.08126300677155214, ,0.010474186661032704,0.020794389783922514,-0.08158932009624802, ,0.00046470545768474497, ,0.002823734335104462,-0.0003551401529819318,-0.007767631670849047,0.012156844132703987,0.002337123701072156,-0.009354021898298181, ,0.00827258737623756, ,0.0123794579115297, ,4.677801606837395e-05, ,0.17851097038769953,-0.2448260775786654,0.0920754787,1.6867459053895137,0.5088343251265002,-1.2371801503605133, ,0.019303690308883396,0.027292764325128206,0.00781974055964654,-0.003382981172595954,0.02246784590817283,-0.040343660105474646, ,0.5776140689849854
0.010264138741252544,0.020944749861866653,-0.0814498244312281, ,0.010551508532170337,0.020778745065968746,-0.08177739249650276, ,0.00046630443530061566, ,0.003014826678203551,-0.0005390757651244137,-0.007392084082246769,0.004215447635974423,-0.011961616348298601,0.002354679112324307, ,0.008001417978031044, ,0.012682674889939127, ,4.7604553704219174e-05, ,0.1790592844217695,-0.24410014068848832,0.09226214446000001,1.686326525502545,0.5092442346257966,-1.2381678339927271, ,0.02150882628251831,0.027514335041597792,0.007401864089219333,-0.01638554402830443,0.013276606013772889,-0.03522600922904691, ,0.6032979488372803
0.010332994807638446,0.020929630805733245,-0.08161083195999727, ,0.010629256628127162,0.02076279923137946,-0.08196517030790863, ,0.0004910799377710358, ,0.00268871361909442,-0.0006821861327957336,-0.007028656080786237,0.00951562974137892,0.003895751292439571,0.0023835992733699006, ,0.007556226912107389, ,0.01028222108076437, ,4.8506542629027756e-05, ,0.17956126205859407,-0.24344370839417923,0.09242288442,1.686326525502545,0.5095175076253274,-1.238554027280401, ,0.01962708201829799,0.028134284482203013,0.00703569413427562,-0.014523109730659433,0.027203119971515838,-0.04011571684341455, ,0.6280009746551514
0.010420075527306082,0.02091676833550445,-0.08184544841017229, ,0.010707423474638034,0.020746558860158547,-0.08215264970726803, ,0.000453776095966636, ,0.0028841595354083985,-0.0006805338872841898,-0.007366078823355157,0.008904974049826046,0.00907527241611065,-0.002041731032386, ,0.007939812329602672, ,0.012714523607614108, ,4.913418162662908e-05, ,0.18018680342140625,-0.24261737597663718,0.09266010549,1.6859071456155759,0.5104739631236854,-1.2396606675668382, ,0.02163632958469466,0.029370764951553937,0.007412197077710565,-0.008268768543645475,0.03309218960349205,-0.03918679886032592, ,0.6531851291656494
0.01048585610368951,0.020904203728260382,-0.08199372915499765, ,0.01078600164026744,0.02073003049723389,-0.08233982689728996, ,0.0004901094824156018, ,0.00321768345200775,-0.0005122550532926058,-0.007277521415060521,-0.008293575878694486,-0.012338629188550318,0.00623943924965562, ,0.007973594545975661, ,0.014866914632656955, ,4.9907568986571924e-05, ,0.18065016739385972,-0.24204589374394458,0.09280788255000001,1.6856974556720912,0.5104739631236854,-1.2398240250471193, ,0.02406719288827562,0.026724004944655246,0.0073404661382488485,-0.014697255767551577,0.015384930021216738,-0.020677651933699713, ,0.6779849529266357
0.010580357799715832,0.020890681593853166,-0.08222390707291516, ,0.010864983736318697,0.02071322065252715,-0.08252669810653643, ,0.00045187024633716453, ,0.0030667598372822293,-0.00038031672289057055,-0.007255443068914749,-0.0026205907706219342,0.003315687371513106,-0.004254929013343019, ,0.007886134086834983, ,0.00422625823003723, ,5.043061624897581e-05, ,0.18135293608541417,-0.24121956132640257,0.09304121475,1.6854877657286067,0.5112937821222782,-1.240655889949579, ,0.023236273643112336,0.025794221679388635,0.007384706314325453,-0.0009659111525273603,0.02730183162359605,-0.022305051057666628, ,0.7035140991210938
0.010645264294084893,0.02087982428896509,-0.08237731508508268, ,0.010944362416743311,0.020696135801023332,-0.08271325958936976, ,0.0004858599155526289, ,0.0034350374260355607,-0.000581482262191425,-0.007754037667821021,-0.0201589202183542,-0.019403980599142417,0.006837464716905734, ,0.008500747255006205, ,0.027980287693853405, ,5.1337924259167756e-05, ,0.18181630005786764,-0.24065580182658416,0.09319547326000001,1.6852780757851225,0.5115670551218091,-1.2411237619773936, ,0.024744965204294856,0.028652458200021373,0.007789149887530563,-0.01391895681732187,0.008757944102642412,-0.010460620199719061, ,0.7246689796447754
0.010714747889524135,0.020872056965781996,-0.08254775868233141, ,0.011024130378050062,0.02067878238284033,-0.08289950762589952, ,0.0005067542875191616, ,0.0036116294186488763,-0.00020833756566534555,-0.009177679302471221,0.015453804315064724,0.005451552786217118,-0.0004959713610428292, ,0.00986494140772899, ,0.016387172742017515, ,5.229334128784158e-05, ,0.18233372316044066,-0.24007659686101734,0.09336917612000001,1.6850683858416375,0.5122502376206363,-1.242007566456438, ,0.02606342805780576,0.028652458200021373,0.009380925512367492,-0.01184457925497051,0.0346239496213125,-0.045974599691962485, ,0.7463281154632568
0.010789684796888169,0.020866342768595173,-0.08272536428194631, ,0.011104280359214387,0.020661166803298586,-0.08308543852193018, ,0.0005203085650560596, ,0.0039034005674213655,-0.00020943054589145802,-0.009151590714512957,-0.031011057439479215,-0.021824095952546547,-0.001180585369689948, ,0.009951482791486785, ,0.037920664333161894, ,5.325852127536032e-05, ,0.18285886899588794,-0.23950511462832472,0.09354936043,1.6848586958981533,0.5125235106201671,-1.2424754384842525, ,0.02662652681214107,0.02882653145761567,0.009277117949912638,-0.0017922473077168408,0.005476274004921044,0.0028936370414424997, ,0.7676420211791992
0.010864578839417957,0.02085894819859148,-0.0829164119805473, ,0.011184805141587517,0.02064329543299052,-0.08327104860890745, ,0.0005242309968775074, ,0.003611821164076462,-0.000418998457165961,-0.008991067158063209,0.01858401178418781,0.01432859131631493,0.00402112052110935, ,0.009698458664611657, ,0.023466443368100498, ,5.4188884317293706e-05, ,0.18339173756420943,-0.23888729599838676,0.09374380393000001,1.6844393160111841,0.5132066931189944,-1.2431958854830156, ,0.027316333206237994,0.030183505584755334,0.009202086377816292,-0.015642669577187317,0.04591195653951464,-0.05081450284826788, ,0.7890880107879639
0.010941571714396242,0.020843892612788094,-0.08308519825718073, ,0.011265697548805713,0.020625174607850516,-0.08345633424386557, ,0.0005391076356610422, ,0.0038212176516074486,-0.0011346539451556961,-0.007052173236278238,-0.015998307098949477,-0.026374108988964425,-0.022576908022380212, ,0.008100758684882102, ,0.030847032880835155, ,5.5135673387016185e-05, ,0.18395549706402783,-0.2382385864369519,0.09391361792000001,1.6842296260676997,0.5134799661185252,-1.2436637575108302, ,0.029407171229770927,0.03390387336851403,0.007004754406332454,0.011468989755890361,0.0,-0.01622941991804503, ,0.8106341361999512
0.011006274556767516,0.020822893534073093,-0.08322338764375307, ,0.01134695044669961,0.020606810629224055,-0.0836412918093753, ,0.000580857792745718, ,0.003389085415687644,-0.0011384975892497708,-0.007562988372620313,0.029941954813537276,0.031297336147069865,0.006196815075613092, ,0.008365456941491258, ,0.04331332223709872, ,5.621344818194559e-05, ,0.18452697929672043,-0.2375821541426428,0.09405491353,1.6844393160111841,0.5147096946164142,-1.2448298761243792, ,0.02951693361072186,0.03412331591458856,0.007713710179176756,-0.018820079027816662,0.0662006440477043,-0.06612556758340503, ,0.8319540023803711
0.011070509417392776,0.020807208081473832,-0.08336831896052985, ,0.011428556743203306,0.020588209763937725,-0.08382591771348986, ,0.0006209305672249353, ,0.004067925666705295,-0.0007888567088954442,-0.009449926414469281,-0.028481364301795913,-0.03099028551206077,0.007339909510407078, ,0.010318499085423875, ,0.04209021065818562, ,5.7647470655849416e-05, ,0.1849903432691739,-0.2370106719099502,0.09420009801000001,1.684019936124215,0.514982967615945,-1.245052711931772, ,0.027020769236466628,0.03486294693551461,0.009436499715639812,-0.01771789906811503,0.0,-0.009503144263023788, ,0.8514289855957031
0.011164609781129816,0.020790671710913002,-0.08360203710947889, ,0.011510509388263757,0.020569378244368348,-0.08401020838969235, ,0.0005789828413190337, ,0.0038395473638411118,-0.0007518521700079811,-0.010401203570621605,0.029827155462751387,0.04062035563740114,0.02212504181594609, ,0.011112715301052059, ,0.05039516220206439, ,5.8848898292377463e-05, ,0.18566994376210566,-0.23617661675953394,0.09443731908000001,1.6836005562372458,0.5159394231143032,-1.2460776734780687, ,0.029636771254987752,0.03661147436669397,0.010661855100401608,-0.034200497653501916,0.07952879623127915,-0.07064450720777207, ,0.8694651126861572
0.011250683003778683,0.02077890764446147,-0.08380345538572403, ,0.011592801373749797,0.02055032226851292,-0.08419416029684343, ,0.0005674033668758452, ,0.004462500353166762,-0.0005246850090598616,-0.010682466480932327,-0.018676467009979186,-0.019795225182565126,0.014576215453995732, ,0.011588972943146788, ,0.027215091785505918, ,5.9954804670571625e-05, ,0.18625687146054673,-0.23547384806797952,0.09464083661000001,1.6836005562372458,0.516212696113834,-1.246382188025602, ,0.030173908285682283,0.034786268899732686,0.010813857107942974,-0.024749966401892205,0.01630420045912588,-0.02001559102327967, ,0.8878509998321533
0.011341373450675563,0.020764536465088898,-0.08401997468819912, ,0.011675425733361649,0.020531048000058127,-0.08437776991912864, ,0.0005423331246993112, ,0.003964962509487133,-0.0006825109878764611,-0.010319933579559258,0.0486560987246401,0.054642980144976955,-0.009391500831725645, ,0.011076451509248138, ,0.07316605158933166, ,6.09173407870258e-05, ,0.18691330375485582,-0.2347092975134313,0.09486120591000001,1.6833908662937616,0.5170325151124266,-1.247540767888624, ,0.03160071313968391,0.036953637678532235,0.010661855100401608,-0.003993103720362358,0.08845341754870507,-0.08460262414981724, ,0.9054241180419922
0.011428134990602827,0.02074964142112589,-0.08423512612286091, ,0.011758375542539808,0.02051156156844989,-0.08456103376600389, ,0.0005214946119116504, ,0.004220382973183374,-0.0006312988390599623,-0.010594314979435599,0.03568359625872618,0.018891703829250678,-0.012542394508686437, ,0.011421457023866445, ,0.04037592577345837, ,6.176134042895779e-05, ,0.18722221306982478,-0.23434632906834274,0.09496879798,1.683181176350277,0.5178523341110194,-1.248454311531224, ,0.03042543813993933,0.03663974577547135,0.010733700485175203,-0.010050641073471348,0.008856010459596332,-0.0096748479395875, ,0.9240751266479492
0.011475906348134978,0.02074156457305566,-0.08433954908823829, ,0.011841643918374672,0.020491869068962724,-0.08474394837214484, ,0.0005997087592099944, ,0.00481306656872473,-0.0007372623245015214,-0.010474159315918037,-0.019111091005862817,-0.034777393582061666,0.024224644348332578, ,0.011550635432968076, ,0.03968249964065524, ,6.31125411856404e-05, ,0.18786319989838543,-0.23359722397954297,0.09518527841,1.6825521065198237,0.5179889706107847,-1.248647408175061, ,0.03353248818320522,0.035502035749521425,0.010583927920265782,-0.038622304937221914,0.007462104421502292,-0.02364990231609696, ,0.938305139541626
0.011520636519432345,0.020733773956000984,-0.08443909407289896, ,0.011925224019515412,0.02047197656276976,-0.08492651029739237, ,0.0006854221299502545, ,0.004884216443902446,-0.0007648939432550223,-0.010987382052658319,-0.010062169278268314,-0.009117910220016323,-0.035542938071596496, ,0.012048369075787536, ,0.013578784085306937, ,6.474639765812226e-05, ,0.18818755467910286,-0.23324197826732865,0.09528638903000002,1.6823424165763388,0.5182622436103156,-1.2489519227225945, ,0.03390387336851403,0.040142530270080704,0.011053998278972936,0.025320896802546605,0.012813477794340847,-0.020408603699554197, ,0.9525301456451416
0.011610405373640819,0.02071853450602134,-0.08465905047083874, ,0.012009109046079477,0.020451890077011776,-0.08510871612670082, ,0.0006574671641989276, ,0.004455746510109825,-0.0007731253674609329,-0.009842845078970403,-0.0041505291384226,0.007234193091495572,0.006509630348618625, ,0.010832035775641593, ,0.008340284733062633, ,6.622774179777444e-05, ,0.18891349156927995,-0.2324388140484093,0.09551453607,1.6825521065198237,0.5201751546070318,-1.250756809594766, ,0.03384341710359157,0.03548875899718429,0.010081526278481015,-0.013435041350020565,0.04500514001466325,-0.03202454356671344, ,0.9684700965881348
0.011652619578686116,0.020709578349189545,-0.08474283820004444, ,0.012093292239561673,0.02043161560486716,-0.08529056247008426, ,0.0007559481181040352, ,0.0049446277100333585,-0.0013785275610114734,-0.009928176995689587,-0.03056853917945594,-0.018241920963033228,0.004048627798582822, ,0.011176689128943235, ,0.035597797284767745, ,6.802641268023942e-05, ,0.18921467815137472,-0.23210673653481764,0.09559879492000001,1.6825521065198237,0.5201751546070318,-1.250756809594766, ,0.03706911779627765,0.04242152058939239,0.009992980878293603,-0.011311969746217097,0.021899011508878966,-0.012429066704216696, ,0.9827711582183838
0.01177116434163275,0.020688148313981948,-0.08501608864518512, ,0.012177766882743479,0.02041115910562128,-0.08547204596256466, ,0.0006707799365350179, ,0.0049811314042943365,-0.0007527785266096954,-0.013468674513835733,0.07040317569245877,0.060664991852461096,0.039203624796951796, ,0.014379970053397891, ,0.09293464338349476, ,6.946567002974867e-05, ,0.19007962423328786,-0.23116456312416225,0.09587749727000001,1.6815036568024009,0.5212682466051554,-1.2519748677848996, ,0.03823406186884399,0.04257377369155261,0.013948171208406305,-0.06337495701821129,0.11457636310443425,-0.12351757021454132, ,0.9976511001586914
0.011825083569365694,0.020685820460929354,-0.08515488839228266, ,0.0122625262996022,0.020390526504736235,-0.0856531632641183, ,0.0007258322882758625, ,0.00589561258263047,-0.0003547134130620932,-0.014693810786878864,0.031160330420109173,0.0117833301848955,0.026524920136621728, ,0.015836418306248243, ,0.033313846628175534, ,7.105986792354536e-05, ,0.1904657608769991,-0.23075525828182836,0.09602138546000001,1.6815036568024009,0.522088065603748,-1.2527250539472188, ,0.04118790866253071,0.04186014184317194,0.015141455817490494,-0.04822901510231628,0.06439089939057976,-0.08167924407425538, ,1.0119340419769287
0.011888080634415687,0.02068278824976401,-0.08531103540929641, ,0.012347563855220326,0.020369723693920247,-0.08583391105962343, ,0.000763238620636797, ,0.006478452900195616,-0.00037420955350754223,-0.015679076975110656,-0.029554900545867166,-0.024533691492063185,-0.01966764172993516, ,0.01696890802501547, ,0.038410847646896874, ,7.299669544772198e-05, ,0.19086734298645874,-0.23030733977512333,0.09618082913,1.6812939668589162,0.5223613386032788,-1.2531929259750334, ,0.040588939930911366,0.04716547791176481,0.015960732985971945,0.009551811198744304,0.014016532937754313,-0.014941998838398505, ,1.022576093673706
0.011952684648836278,0.020678673977114974,-0.08546104523734396, ,0.01243287295569466,0.020348756531196912,-0.08601428605880708, ,0.0008034312277337747, ,0.0067609695366826665,-0.0006013871118682696,-0.015586358907876827,-0.03751714243922363,-0.0459459107290034,0.0011042823800461784, ,0.017000204691103683, ,0.05931746597469496, ,7.503307573131296e-05, ,0.1912843705616669,-0.22984397580266985,0.09633379135,1.6815036568024009,0.5224979751030443,-1.253467701359011, ,0.04272712361930247,0.04797620907910555,0.015802392380952386,-0.01531267690518473,0.0,-0.013182040120471793, ,1.033121109008789
0.012016818591572487,0.02066935643763478,-0.0856140222417519, ,0.012518447048045701,0.020327630840975535,-0.08619428499619243, ,0.000839709685514424, ,0.006117792569184392,-0.0010130088684928247,-0.014361856867548473,0.039983150952467725,0.04314766204847664,-0.017025375560109638, ,0.015643417323946904, ,0.05882493084841517, ,7.715242213931463e-05, ,0.1917400118012461,-0.22933427543297105,0.09649064244000001,1.6812939668589162,0.5231811576018714,-1.2539431121373523, ,0.04606647648469455,0.05053085280003769,0.014817499088372096,-0.0004578268499669325,0.09039311891778058,-0.08893492049002066, ,1.0438661575317383
0.012083697750958926,0.020656417810028797,-0.08576970313835067, ,0.01260427962012667,0.020306352414119967,-0.08637390463104672, ,0.0008709826104435852, ,0.006608607873394188,-0.0012365770539177238,-0.015513244729180458,0.044923555173337314,0.04928131476652386,0.01302993588185755, ,0.01690750078698826, ,0.06668412776695175, ,7.933510249435094e-05, ,0.19225743490381916,-0.2287859613989011,0.09665138240000001,1.680874586971947,0.524274249599995,-1.254997812847205, ,0.05077417953904269,0.05438220146617236,0.01602496128772636,-0.033183834317898474,0.10889845270364773,-0.10343964392363901, ,1.0546901226043701
0.012229092800666237,0.020633230121911518,-0.08608867551299536, ,0.012690364200532968,0.020284927008018337,-0.08655314174732696, ,0.0007414952773395677, ,0.007525085023218282,-0.001595759401044095,-0.016267165236747743,-0.04116589764034335,-0.034139347185788656,0.03192464392104739, ,0.017994277354546333, ,0.05348013664636149, ,8.103608212224457e-05, ,0.19330000384183949,-0.22768933333076122,0.09697804748000001,1.6804552070849783,0.5253673415981185,-1.255970834816917, ,0.051912987723452285,0.058759716135276016,0.01647240074457084,-0.04666651010073859,0.028695468956313006,-0.02483055630217259, ,1.0656030178070068
0.012290164576462575,0.02062068909718437,-0.08622711045859344, ,0.01277669435851127,0.020263360346652916,-0.08673199315362845, ,0.0007869571783283627, ,0.00729965514370194,-0.0016574762069290758,-0.01651859490502862,-0.012687788509276248,0.0028139190786358095,0.02051849104633008, ,0.01813549476110171, ,0.012996033546793198, ,8.285497487128011e-05, ,0.19373247688279605,-0.2271796329610624,0.09711934309,1.6804552070849783,0.5259138875971804,-1.2564165064317026, ,0.05171495452777699,0.060637023360045235,0.01682028671594509,-0.036098047114435816,0.06356910003296073,-0.05255489516833249, ,1.0763440132141113
0.012290164576462575,0.02062068909718437,-0.08622711045859344, ,0.012863263703868909,0.02024165812066904,-0.08691045568313147, ,0.0009690551000283705, ,0.00729965514370194,-0.0016574762069290758,-0.01651859490502862,-0.012687788509276248,0.0028139190786358095,0.02051849104633008, ,0.01813549476110171, ,0.012996033546793198, ,8.552389563634925e-05, ,0.19373247688279605,-0.2271796329610624,0.09711934309,1.6804552070849783,0.5259138875971804,-1.2564165064317026, ,0.05171495452777699,0.060637023360045235,0.01682028671594509,-0.036098047114435816,0.06356910003296073,-0.05255489516833249, ,1.0836200714111328
0.01238014828907189,0.02060275779280399,-0.0864328450026629, ,0.012950065886883027,0.02021982598744533,-0.08708852619354893, ,0.0009494001579585755, ,0.007965354470619232,-0.0015095349540497015,-0.018063790067135658,0.027007204647362774,0.03628414200912074,0.00727432930445028, ,0.019799648461769733, ,0.04523191507016132, ,8.809271532838185e-05, ,0.194350295512734,-0.22647686426950797,0.09731767546000002,1.6804552070849783,0.5268703430955384,-1.257278110497718, ,0.05814763575886691,0.06301257739606293,0.018393546789838337,-0.02786824870016125,0.10202409941641326,-0.09296362925199798, ,1.09073805809021
0.012460725303125565,0.02058989121531581,-0.08661637648043709, ,0.01303709459820984,0.0201978695711626,-0.08726620156707271, ,0.0009529717608730717, ,0.008783653351894332,-0.001186162944622225,-0.020693672113072614,0.02696632081907132,0.03900012164578972,-0.007204926774363161, ,0.0225119438134693, ,0.04741506250246712, ,9.063955575532057e-05, ,0.1949758368755462,-0.22582043197519888,0.09751989670000001,1.6800358271980091,0.5279634350936618,-1.25825113246743, ,0.06222750266129232,0.0673983959932321,0.021352294262734585,-0.012853769566159627,0.10541322720695197,-0.09428972789962684, ,1.0978660583496094
0.012460725303125565,0.02058989121531581,-0.08661637648043709, ,0.013124343568793943,0.020175794462874007,-0.08744347871032185, ,0.0011384038921190911, ,0.008783653351894332,-0.001186162944622225,-0.020693672113072614,0.02696632081907132,0.03900012164578972,-0.007204926774363161, ,0.0225119438134693, ,0.04741506250246712, ,9.37572260504621e-05, ,0.19562454643698104,-0.22510994055077024,0.09775452519000001,1.6791970674240708,0.5287832540922546,-1.259001318629749, ,0.06720746569296797,0.071512390021455,0.024581499259259263,-0.10896716347755774,0.06634801560997876,-0.05900456066673923, ,1.105268955230713
0.012556938236141173,0.020576283727701705,-0.08684536362495088, ,0.013211806569777537,0.020153606220573942,-0.08762035455428951, ,0.0010991450086265111, ,0.010180311781491808,-0.0012773704853390256,-0.024020265346956123,-0.03105587575361245,-0.025964717943584275,0.08630444266020354, ,0.02611979269947174, ,0.040479945657264677, ,9.670748675119216e-05, ,0.19562454643698104,-0.22510994055077024,0.09775452519000001,1.6791970674240708,0.5287832540922546,-1.259001318629749, ,0.06720746569296797,0.071512390021455,0.024581499259259263,-0.10896716347755774,0.06634801560997876,-0.05900456066673923, ,1.1127269268035889
0.01266358462836004,0.020567612963108654,-0.08709574709049402, ,0.013299477412409642,0.02013131036926822,-0.0877968260542897, ,0.0010422242079682678, ,0.01090479714400424,-0.0009563852636608613,-0.025569820683321035,0.007502936087643117,0.006553438687845168,0.027153049127654958, ,0.027814474708353253, ,0.009961459637587714, ,9.943677689416928e-05, ,0.1963350378614097,-0.2243685581948447,0.09801248690000001,1.6789873774805866,0.5296030730908472,-1.2599148622723493, ,0.07344964516909504,0.07478088381282172,0.02637220450331126,-0.05233680414408814,0.09255002796229685,-0.09026387648480383, ,1.1199209690093994
0.012774077929835882,0.02055807643613957,-0.08735446594910058, ,0.013387349947955424,0.020108912401043025,-0.08797289018990563, ,0.0009799486926609616, ,0.010954220702965421,-0.0013013759607817198,-0.025889274576968692,0.02627427170169887,0.015430082221078558,0.0011359908409580531, ,0.02814148305832964, ,0.030469872994099628, ,0.00010193222462219685, ,0.19707642021733526,-0.223588562174548,0.09827952264,1.6789873774805866,0.5305595285892053,-1.260939823818646, ,0.07305384261622076,0.07987958043642322,0.026636808561872914,-0.03278624252988245,0.09631992309164451,-0.11133406743682268, ,1.1270980834960938
0.012774077929835882,0.02055807643613957,-0.08735446594910058, ,0.013475418067605485,0.02008641777513459,-0.08814854396493556, ,0.0011596981402848365, ,0.010954220702965421,-0.0013013759607817198,-0.025889274576968692,0.02627427170169887,0.015430082221078558,0.0011359908409580531, ,0.02814148305832964, ,0.030469872994099628, ,0.00010496661729216649, ,0.19707642021733526,-0.223588562174548,0.09827952264,1.6789873774805866,0.5305595285892053,-1.260939823818646, ,0.07305384261622076,0.07987958043642322,0.026636808561872914,-0.03278624252988245,0.09631992309164451,-0.11133406743682268, ,1.134247064590454
0.012885439670964265,0.020547078313381883,-0.08761596238768601, ,0.01356367570238496,0.020063831917999257,-0.08832378440734144, ,0.0010929516020742557, ,0.011612666360914334,-0.0012603279223799759,-0.026540326606775213,0.04660361283003838,0.025423067902428747,-0.03462081527537384, ,0.028997092662474667, ,0.053086871654251924, ,0.0001077521641927656, ,0.19781780257326081,-0.2228008434213771,0.09854915096000001,1.678777687537102,0.5315159840875633,-1.2619647853649427, ,0.07901493884968425,0.08251907961606154,0.027416198829604135,0.0,0.10487852927920263,-0.12847611289216418, ,1.1420469284057617
0.013003355649606509,0.020527437479030294,-0.08787912670254859, ,0.013652116823063025,0.02004116022338216,-0.08849860856919495, ,0.0010203501421811101, ,0.01184352860127568,-0.0021169959629379915,-0.02526355356153696,0.007986514404976821,0.005122434567699406,-0.012329587787336602, ,0.02798210106823606, ,0.009487542194635757, ,0.00011062196915499311, ,0.1986364122579286,-0.22192817460658973,0.09882007557000001,1.678358307650133,0.5326090760856869,-1.263019486074795, ,0.08287942494189587,0.08730169416602647,0.025985010636215337,-0.0163823558397742,0.09230891557756299,-0.09665789438488488, ,1.1463589668273926
0.013003355649606509,0.020527437479030294,-0.08787912670254859, ,0.013740735440061996,0.02001840805238728,-0.08867301352662603, ,0.0011971199614092382, ,0.01184352860127568,-0.0021169959629379915,-0.02526355356153696,0.007986514404976821,0.005122434567699406,-0.012329587787336602, ,0.02798210106823606, ,0.009487542194635757, ,0.00011402791897397194, ,0.1986364122579286,-0.22192817460658973,0.09882007557000001,1.678358307650133,0.5326090760856869,-1.263019486074795, ,0.08287942494189587,0.08730169416602647,0.025985010636215337,-0.0163823558397742,0.09230891557756299,-0.09665789438488488, ,1.1500649452209473
0.013003355649606509,0.020527437479030294,-0.08787912670254859, ,0.013829525603366626,0.019995580733546837,-0.08884699637976877, ,0.0013792027052955424, ,0.01184352860127568,-0.0021169959629379915,-0.02526355356153696,0.007986514404976821,0.005122434567699406,-0.012329587787336602, ,0.02798210106823606, ,0.009487542194635757, ,0.0006399001501354676, ,0.1986364122579286,-0.22192817460658973,0.09882007557000001,1.678358307650133,0.5326090760856869,-1.263019486074795, ,0.08287942494189587,0.08730169416602647,0.025985010636215337,-0.0163823558397742,0.09230891557756299,-0.09665789438488488, ,1.1536431312561035
0.013124228397624496,0.02050340041827173,-0.08814331764614312, ,0.013918481402433385,0.019972683562890857,-0.08902055425270991, ,0.0012969357270636523, ,0.01312569577726032,-0.002704781886558979,-0.028990613950525254,-0.007039484416565796,0.0054422721130658065,0.07544547581676957, ,0.03193830665391383, ,0.008896751577183634, ,0.0006508507430842707, ,0.19947046740834487,-0.2210323375931797,0.09909100018000001,1.6775195478761948,0.533565531584045,-1.2641261263612322, ,0.09124705919083728,0.09803403053561031,0.02977347947663552,-0.10764620388297734,0.12152492662832938,-0.10879427200158989, ,1.1572530269622803
0.013124228397624496,0.02050340041827173,-0.08814331764614312, ,0.014007596966099873,0.01994972180401655,-0.0891936842934352, ,0.0014799223389750469, ,0.01312569577726032,-0.002704781886558979,-0.028990613950525254,-0.007039484416565796,0.0054422721130658065,0.07544547581676957, ,0.03193830665391383, ,0.008896751577183634, ,0.0006644420807218243, ,0.19947046740834487,-0.2210323375931797,0.09909100018000001,1.6775195478761948,0.533565531584045,-1.2641261263612322, ,0.09124705919083728,0.09803403053561031,0.02977347947663552,-0.10764620388297734,0.12152492662832938,-0.10879427200158989, ,1.1608641147613525
0.013124228397624496,0.02050340041827173,-0.08814331764614312, ,0.014096866462493798,0.019926700688158,-0.08936638367377735, ,0.0016656824102748123, ,0.01312569577726032,-0.002704781886558979,-0.028990613950525254,-0.007039484416565796,0.0054422721130658065,0.07544547581676957, ,0.03193830665391383, ,0.008896751577183634, ,0.0006805911182952597, ,0.19947046740834487,-0.2210323375931797,0.09909100018000001,1.6775195478761948,0.533565531584045,-1.2641261263612322, ,0.09124705919083728,0.09803403053561031,0.02977347947663552,-0.10764620388297734,0.12152492662832938,-0.10879427200158989, ,1.1644489765167236
0.013270015575420503,0.02048238294120888,-0.0884737714875378, ,0.014186284098942535,0.01990362541425564,-0.08953864958936301, ,0.001519366201397529, ,0.01499152524213245,-0.0015787382991381226,-0.03601300648827729,0.08691704133638668,0.08086169600467237,-0.006737025509237205, ,0.039040682371436104, ,0.1187144699686551, ,0.0006939050085032323, ,0.20048214541486828,-0.21998204592228515,0.09943322074000001,1.6771001679892257,0.5352051695812303,-1.2657898561661516, ,0.10106170560007538,0.10662577703198964,0.03739157633802818,-0.03841673902745181,0.1915571469439282,-0.19891644882390466, ,1.1680200099945068
0.013270015575420503,0.02048238294120888,-0.0884737714875378, ,0.014275844121882365,0.019880501149025575,-0.08971047925955981, ,0.001703936286960001, ,0.01499152524213245,-0.0015787382991381226,-0.03601300648827729,0.08691704133638668,0.08086169600467237,-0.006737025509237205, ,0.039040682371436104, ,0.1187144699686551, ,0.0007096867472291192, ,0.20048214541486828,-0.21998204592228515,0.09943322074000001,1.6771001679892257,0.5352051695812303,-1.2657898561661516, ,0.10106170560007538,0.10662577703198964,0.03739157633802818,-0.03841673902745181,0.1915571469439282,-0.19891644882390466, ,1.1716210842132568
0.013270015575420503,0.02048238294120888,-0.0884737714875378, ,0.014365540816767606,0.019857333027029415,-0.08988186992742418, ,0.001890397885645999, ,0.01499152524213245,-0.0015787382991381226,-0.03601300648827729,0.08691704133638668,0.08086169600467237,-0.006737025509237205, ,0.039040682371436104, ,0.1187144699686551, ,0.0007278515339739943, ,0.20048214541486828,-0.21998204592228515,0.09943322074000001,1.6771001679892257,0.5375279900772427,-1.268174032969834, ,0.11243713454795115,0.11672440536097266,0.04512411195467422,-0.0230058791144509,0.2344629673394403,-0.2568229889960134, ,1.1763999462127686
0.01343490985700123,0.02047209635670398,-0.08888156023636747, ,0.014455368507979977,0.01983412615074353,-0.09005281885964828, ,0.001679341717656131, ,0.017277342200122055,-0.000833491824286114,-0.04329024762413926,0.13701844129468013,0.11584623958035367,-0.03361670397037669, ,0.046618095215061765, ,0.17942756879131425, ,0.0007422680519085721, ,0.20157877348300815,-0.21883908145689993,0.09985840386000001,1.6771001679892257,0.5375279900772427,-1.268174032969834, ,0.11243713454795115,0.11672440536097266,0.04512411195467422,-0.0230058791144509,0.2344629673394403,-0.2568229889960134, ,1.1800470352172852
0.01343490985700123,0.02047209635670398,-0.08888156023636747, ,0.014545321558738007,0.01981088559062879,-0.09022332334650728, ,0.0018629390940821874, ,0.017277342200122055,-0.000833491824286114,-0.04329024762413926,0.13701844129468013,0.11584623958035367,-0.03361670397037669, ,0.046618095215061765, ,0.17942756879131425, ,0.00075899448537385, ,0.20157877348300815,-0.21883908145689993,0.09985840386000001,1.6771001679892257,0.5375279900772427,-1.268174032969834, ,0.11243713454795115,0.11672440536097266,0.04512411195467422,-0.0230058791144509,0.2344629673394403,-0.2568229889960134, ,1.1836590766906738
0.01361275419624059,0.020465987130249937,-0.0893221248797916, ,0.01463539437100617,0.019787616385199724,-0.09039338070180669, ,0.0016289778485251976, ,0.01968966597317271,-0.0004944940875470953,-0.048689684860684715,0.006839410021006335,-0.0021413589089175978,0.0787790111902146, ,0.052522498820700876, ,0.007147678232327647, ,0.0007717883583613698, ,0.2026908470168965,-0.2177270079230116,0.10031599423000001,1.676051718271803,0.5393042645741934,-1.2697858231981687, ,0.1181780094127905,0.11951755863787251,0.05040763139240506,-0.1253401703510019,0.14387768786481064,-0.14878363806136397, ,1.1872529983520508
0.01361275419624059,0.020465987130249937,-0.0893221248797916, ,0.014725581385404241,0.019764323541094534,-0.09056298826283013, ,0.0018084407871573052, ,0.01968966597317271,-0.0004944940875470953,-0.048689684860684715,0.006839410021006335,-0.0021413589089175978,0.0787790111902146, ,0.052522498820700876, ,0.007147678232327647, ,0.0007868123066047891, ,0.2026908470168965,-0.2177270079230116,0.10031599423000001,1.676051718271803,0.5393042645741934,-1.2697858231981687, ,0.1181780094127905,0.11951755863787251,0.05040763139240506,-0.1253401703510019,0.14387768786481064,-0.14878363806136397, ,1.1908180713653564
0.01361275419624059,0.020465987130249937,-0.0893221248797916, ,0.014815877081116572,0.01974101203314421,-0.09073214339028587, ,0.0019902878604544246, ,0.01968966597317271,-0.0004944940875470953,-0.048689684860684715,0.006839410021006335,-0.0021413589089175978,0.0787790111902146, ,0.052522498820700876, ,0.007147678232327647, ,0.0008040048145169268, ,0.2026908470168965,-0.2177270079230116,0.10031599423000001,1.676051718271803,0.5393042645741934,-1.2697858231981687, ,0.1181780094127905,0.11951755863787251,0.05040763139240506,-0.1253401703510019,0.14387768786481064,-0.14878363806136397, ,1.1944141387939453
0.013838345812185642,0.02045728757807033,-0.08986878021027903, ,0.014906275975801422,0.01971768680444197,-0.09090084346825428, ,0.001659107804566836, ,0.022344296441870692,-0.0009747719598882215,-0.05312465721663484,-0.06287866032101601,-0.06762572365536132,0.037689379493068643, ,0.05764067112934176, ,0.09233927272275816, ,0.0008160485186021367, ,0.20401143433838886,-0.2163446387385254,0.10087988038000001,1.6750032685543808,0.5403973565723169,-1.270922202648162, ,0.12964063054435898,0.1359555036654309,0.05473818391752577,-0.07967258138066226,0.07937157020857981,-0.08648690414512165, ,1.1980090141296387
0.013838345812185642,0.02045728757807033,-0.08986878021027903, ,0.014996772625500226,0.019694352766413306,-0.09106908590413586, ,0.0018343271156883252, ,0.022344296441870692,-0.0009747719598882215,-0.05312465721663484,-0.06287866032101601,-0.06762572365536132,0.037689379493068643, ,0.05764067112934176, ,0.09233927272275816, ,0.0008301912768950005, ,0.20401143433838886,-0.2163446387385254,0.10087988038000001,1.6750032685543808,0.5403973565723169,-1.270922202648162, ,0.12964063054435898,0.1359555036654309,0.05473818391752577,-0.07967258138066226,0.07937157020857981,-0.08648690414512165, ,1.2016339302062988
0.014044524904046778,0.020447773218110053,-0.09034900872452213, ,0.01508736162454689,0.01967101479888489,-0.09123686812859753, ,0.0015745337052174321, ,0.022972789132190106,-0.0015666023997450034,-0.05288215959113217,0.01861040727049346,-0.0124122964950462,-0.027326935506890717, ,0.057677778100520924, ,0.02236065285320229, ,0.0008403877485158557, ,0.20401143433838886,-0.2163446387385254,0.10087988038000001,1.6750032685543808,0.5403973565723169,-1.270922202648162, ,0.12964063054435898,0.1359555036654309,0.05473818391752577,-0.07967258138066226,0.07937157020857981,-0.08648690414512165, ,1.20747709274292
0.014044524904046778,0.020447773218110053,-0.09034900872452213, ,0.015178037605477158,0.019647677750154562,-0.0914041875955206, ,0.0017431024789003441, ,0.022972789132190106,-0.0015666023997450034,-0.05288215959113217,0.01861040727049346,-0.0124122964950462,-0.027326935506890717, ,0.057677778100520924, ,0.02236065285320229, ,0.0008525865962237541, ,0.20523934886539058,-0.2150858332800268,0.10137635945000001,1.674793578610896,0.5413538120706751,-1.2722738791550205, ,0.13975985501983915,0.14334885431793168,0.05473818391752577,-0.028908930788105854,0.13345079413746955,-0.166762715119634, ,1.2116961479187012
0.014044524904046778,0.020447773218110053,-0.09034900872452213, ,0.015268795238937812,0.019624346437060337,-0.09157104178194789, ,0.001915785559525242, ,0.022972789132190106,-0.0015666023997450034,-0.05288215959113217,0.01861040727049346,-0.0124122964950462,-0.027326935506890717, ,0.057677778100520924, ,0.02236065285320229, ,0.0008667625824011074, ,0.20523934886539058,-0.2150858332800268,0.10137635945000001,1.674793578610896,0.5413538120706751,-1.2722738791550205, ,0.13975985501983915,0.14334885431793168,0.05473818391752577,-0.028908930788105854,0.13345079413746955,-0.166762715119634, ,1.2155051231384277
0.014294722383441313,0.020420861825200764,-0.09089935674296945, ,0.015359629233596059,0.01960102564505035,-0.09173742818803088, ,0.0015838313385008749, ,0.022759788197119737,-0.0037233740143926995,-0.04669654111457953,0.051292549760372175,-0.028006666741096482,-0.05587593524642579, ,0.05208107549671399, ,0.05843866020692465, ,0.0008761976976129464, ,0.2068225091046066,-0.2134717821093139,0.10194672705,1.674793578610896,0.5429934500678604,-1.2745093601409239, ,0.14850851574095583,0.15063006596582662,0.048269125818181824,-0.017879093965943338,0.12304483256824049,-0.20736710201631758, ,1.219208002090454
0.014294722383441313,0.020420861825200764,-0.09089935674296945, ,0.015450534336048906,0.019577720128252384,-0.09190334433697736, ,0.0017477929739661282, ,0.022759788197119737,-0.0037233740143926995,-0.04669654111457953,0.051292549760372175,-0.028006666741096482,-0.05587593524642579, ,0.05208107549671399, ,0.05843866020692465, ,0.0008875171167863643, ,0.2068225091046066,-0.2134717821093139,0.10194672705,1.674793578610896,0.5429934500678604,-1.2745093601409239, ,0.14850851574095583,0.15063006596582662,0.048269125818181824,-0.017879093965943338,0.12304483256824049,-0.20736710201631758, ,1.2229280471801758
0.01452822069658648,0.020367070404049607,-0.0913346680897436, ,0.015541505330732185,0.019554434609542936,-0.09206878777499855, ,0.001491996781694961, ,0.02334420145887573,-0.006782853401026278,-0.03985250029156939,-0.07218375320527674,-0.09377717474272318,-0.015377176361628081, ,0.046681694715401324, ,0.11834083066993874, ,0.0008952668560800642, ,0.20841339207669685,-0.21190406733584632,0.10239524339000002,1.6739548188369582,0.5439499055662184,-1.2759427153879233, ,0.16475163465012285,0.16475163465012285,0.04094810159383034,-0.03535960706364316,0.07836069403323147,-0.09737591931739553, ,1.226572036743164
0.01452822069658648,0.020367070404049607,-0.0913346680897436, ,0.015632537039830266,0.019531173780616955,-0.09223375607125606, ,0.0016512410331388904, ,0.02334420145887573,-0.006782853401026278,-0.03985250029156939,-0.07218375320527674,-0.09377717474272318,-0.015377176361628081, ,0.046681694715401324, ,0.11834083066993874, ,0.0009048361494605557, ,0.20841339207669685,-0.21190406733584632,0.10239524339000002,1.6739548188369582,0.5439499055662184,-1.2759427153879233, ,0.16475163465012285,0.16475163465012285,0.04094810159383034,-0.03535960706364316,0.07836069403323147,-0.09737591931739553, ,1.230168104171753
0.01452822069658648,0.020367070404049607,-0.0913346680897436, ,0.015723624323185064,0.01950794230205767,-0.09239824681781, ,0.0018161196648108502, ,0.02334420145887573,-0.006782853401026278,-0.03985250029156939,-0.07218375320527674,-0.09377717474272318,-0.015377176361628081, ,0.046681694715401324, ,0.11834083066993874, ,0.0009162271934024344, ,0.20841339207669685,-0.21190406733584632,0.10239524339000002,1.6739548188369582,0.5439499055662184,-1.2759427153879233, ,0.16475163465012285,0.16475163465012285,0.04094810159383034,-0.03535960706364316,0.07836069403323147,-0.09737591931739553, ,1.2337510585784912
0.014764007503032082,0.020287204198966326,-0.09173322073539837, ,0.015814762078205438,0.019484744803405514,-0.09256225762956538, ,0.0015605538858564432, ,0.023817148434089948,-0.00828962806703153,-0.03951620589805343,0.002451219681405876,-0.06966882548544327,0.027141146948752227, ,0.04687755349416758, ,0.06971124275908938, ,0.000924181843926558, ,0.2100969478432778,-0.21018189790489425,0.10280357474000001,1.6726966791760507,0.5449063610645766,-1.277539428115204, ,0.17316960138407075,0.17508660804145898,0.04063472326530613,-0.10772019166413523,0.1247314803552209,-0.2003619364057397, ,1.2373149394989014
0.014764007503032082,0.020287204198966326,-0.09173322073539837, ,0.01590594523977665,0.019461585883228213,-0.09272578614422047, ,0.0017236163983536863, ,0.023817148434089948,-0.00828962806703153,-0.03951620589805343,0.002451219681405876,-0.06966882548544327,0.027141146948752227, ,0.04687755349416758, ,0.06971124275908938, ,0.0009339310458098156, ,0.2100969478432778,-0.21018189790489425,0.10280357474000001,1.6726966791760507,0.5449063610645766,-1.277539428115204, ,0.17316960138407075,0.17508660804145898,0.04063472326530613,-0.10772019166413523,0.1247314803552209,-0.2003619364057397, ,1.2408390045166016
0.014764007503032082,0.020287204198966326,-0.09173322073539837, ,0.015997168780169446,0.019438470109189653,-0.09288883002221295, ,0.001891155497137181, ,0.023817148434089948,-0.00828962806703153,-0.03951620589805343,0.002451219681405876,-0.06966882548544327,0.027141146948752227, ,0.04687755349416758, ,0.06971124275908938, ,0.0009454638705246032, ,0.2100969478432778,-0.21018189790489425,0.10280357474000001,1.6726966791760507,0.5449063610645766,-1.277539428115204, ,0.17316960138407075,0.17508660804145898,0.04063472326530613,-0.10772019166413523,0.1247314803552209,-0.2003619364057397, ,1.2444560527801514
0.014999511360939464,0.020207552225408078,-0.09212062934630746, ,0.01608842770894958,0.01941540201812012,-0.0930513869466681, ,0.0016369332529150766, ,0.024333855013197337,-0.00866718211042503,-0.03908501167729243,0.004086442414136631,-0.030106832978845408,-0.028618476430867693, ,0.046849703129824276, ,0.030381395487655262, ,0.0009536956488863944, ,0.2100969478432778,-0.21018189790489425,0.10280357474000001,1.6726966791760507,0.5449063610645766,-1.277539428115204, ,0.17316960138407075,0.17508660804145898,0.04063472326530613,-0.10772019166413523,0.1247314803552209,-0.2003619364057397, ,1.2490570545196533
0.014999511360939464,0.020207552225408078,-0.09212062934630746, ,0.016179717072886984,0.019392386116085063,-0.09321345462334579, ,0.0018032327621347927, ,0.024333855013197337,-0.00866718211042503,-0.03908501167729243,0.004086442414136631,-0.030106832978845408,-0.028618476430867693, ,0.046849703129824276, ,0.030381395487655262, ,0.0009636902031599049, ,0.21182684000710408,-0.20844428300819373,0.10320412835000001,1.6724869892325662,0.5464093625619963,-1.2796634911974107, ,0.1804124364229482,0.1804124364229482,0.040428455634517774,-0.039902826669507695,0.15846475547242544,-0.19094936738523707, ,1.252859115600586
0.014999511360939464,0.020207552225408078,-0.09212062934630746, ,0.016271031955865236,0.019369426878455224,-0.09337503078058794, ,0.0019730032130866244, ,0.024333855013197337,-0.00866718211042503,-0.03908501167729243,0.004086442414136631,-0.030106832978845408,-0.028618476430867693, ,0.046849703129824276, ,0.030381395487655262, ,0.0009754264009497504, ,0.21182684000710408,-0.20844428300819373,0.10320412835000001,1.6724869892325662,0.5464093625619963,-1.2796634911974107, ,0.1804124364229482,0.1804124364229482,0.040428455634517774,-0.039902826669507695,0.15846475547242544,-0.19094936738523707, ,1.2565340995788574
0.015278607061052982,0.02011038832231169,-0.09255977329092034, ,0.01636236747879075,0.01934652874997577,-0.09353611316926555, ,0.0016465897021879776, ,0.025421181798281605,-0.00867803163214552,-0.04128236182491554,-0.06515371624646035,-0.07439573429841564,-0.05518471034524877, ,0.04925218893483869, ,0.09889192141706701, ,0.0009831409216536381, ,0.213888809684522,-0.20640548152939847,0.10365912614000002,1.6724869892325662,0.5480490005591817,-1.281898972183314, ,0.18110103350853202,0.18355307844965332,0.04126635108808291,-0.022495397513851368,0.12484047146432992,-0.15319524023552025, ,1.260362148284912
0.015278607061052982,0.02011038832231169,-0.09255977329092034, ,0.01645371879950225,0.01932369614483592,-0.09369669956272614, ,0.0018144898807833196, ,0.025421181798281605,-0.00867803163214552,-0.04128236182491554,-0.06515371624646035,-0.07439573429841564,-0.05518471034524877, ,0.04925218893483869, ,0.09889192141706701, ,0.0009925880689164756, ,0.213888809684522,-0.20640548152939847,0.10365912614000002,1.6724869892325662,0.5480490005591817,-1.281898972183314, ,0.18110103350853202,0.18355307844965332,0.04126635108808291,-0.022495397513851368,0.12484047146432992,-0.15319524023552025, ,1.2639830112457275
0.015542159602821973,0.020015852865077288,-0.09298912050701785, ,0.016545081112679896,0.019300933446738333,-0.09385678775674113, ,0.0015065881274907733, ,0.026477179201351207,-0.009275402189148563,-0.0435027961932973,-0.0706939191534921,-0.07818004040772306,-0.024467673353020972, ,0.05176453786972785, ,0.10540205461388855, ,0.00099836335047349, ,0.213888809684522,-0.20640548152939847,0.10365912614000002,1.6724869892325662,0.5480490005591817,-1.281898972183314, ,0.18110103350853202,0.18355307844965332,0.04126635108808291,-0.022495397513851368,0.12484047146432992,-0.15319524023552025, ,1.2676451206207275
0.015542159602821973,0.020015852865077288,-0.09298912050701785, ,0.01663644964975488,0.01927824500896888,-0.09401637556945375, ,0.0016723603139005177, ,0.026477179201351207,-0.009275402189148563,-0.0435027961932973,-0.0706939191534921,-0.07818004040772306,-0.024467673353020972, ,0.05176453786972785, ,0.10540205461388855, ,0.0010058522056226793, ,0.21574998830721012,-0.20448252104371656,0.10410116103000001,1.6716482294586281,0.5491420925573052,-1.2831170303734476, ,0.18534558898138823,0.1932727933981075,0.0448698916056338,-0.03573625864316147,0.1146076061362428,-0.1266036268077138, ,1.271286964416504
0.015542159602821973,0.020015852865077288,-0.09298912050701785, ,0.016727819678818465,0.01925563515446603,-0.09417546084132479, ,0.0018415005218958057, ,0.026477179201351207,-0.009275402189148563,-0.0435027961932973,-0.0706939191534921,-0.07818004040772306,-0.024467673353020972, ,0.05176453786972785, ,0.10540205461388855, ,0.001015035154153153, ,0.21574998830721012,-0.20448252104371656,0.10410116103000001,1.6716482294586281,0.5491420925573052,-1.2831170303734476, ,0.18534558898138823,0.1932727933981075,0.0448698916056338,-0.03573625864316147,0.1146076061362428,-0.1266036268077138, ,1.2748291492462158
0.015805617912181946,0.019922830861299392,-0.09342687851418373, ,0.016819186504531573,0.019233108175889933,-0.09433404143508156, ,0.0015251174509584263, ,0.027583292539587884,-0.009395379777306135,-0.045442568154111095,-0.035501505518986544,-0.06668828340523955,0.03773091724331736, ,0.05398275825599624, ,0.07554793349423647, ,0.0010205795269445147, ,0.2175957214641498,-0.20258272875665734,0.10455356624,1.6705997797412053,0.5505084575549596,-1.2846396031111147, ,0.19366722767034852,0.19366722767034852,0.047126661301775154,-0.11197730410058612,0.14932761075568501,-0.17955931482642265, ,1.2785239219665527
0.015805617912181946,0.019922830861299392,-0.09342687851418373, ,0.016910545468034003,0.01921066833569274,-0.09449211523566445, ,0.001691972115417579, ,0.027583292539587884,-0.009395379777306135,-0.045442568154111095,-0.035501505518986544,-0.06668828340523955,0.03773091724331736, ,0.05398275825599624, ,0.07554793349423647, ,0.0010277988020893864, ,0.2175957214641498,-0.20258272875665734,0.10455356624,1.6705997797412053,0.5505084575549596,-1.2846396031111147, ,0.19366722767034852,0.19366722767034852,0.047126661301775154,-0.11197730410058612,0.14932761075568501,-0.17955931482642265, ,1.2823231220245361
0.015805617912181946,0.019922830861299392,-0.09342687851418373, ,0.017001891946853722,0.01918831986618745,-0.09464968015017428, ,0.0018616717779864915, ,0.027583292539587884,-0.009395379777306135,-0.045442568154111095,-0.035501505518986544,-0.06668828340523955,0.03773091724331736, ,0.05398275825599624, ,0.07554793349423647, ,0.0010366697911946747, ,0.2175957214641498,-0.20258272875665734,0.10455356624,1.6705997797412053,0.5505084575549596,-1.2846396031111147, ,0.19366722767034852,0.19366722767034852,0.047126661301775154,-0.11197730410058612,0.14932761075568501,-0.17955931482642265, ,1.2860260009765625
0.01609382412491338,0.019831347964670315,-0.093900997045118, ,0.017093221354816276,0.01916606696961771,-0.09480673410781984, ,0.0015039126478181856, ,0.027873370904273505,-0.009077417488734647,-0.04533706239466163,-0.04099149630454196,-0.043835362825082706,-0.02113144504150425, ,0.05398864269834377, ,0.060013750591244266, ,0.0010415881370538695, ,0.2196113547443224,-0.2005902636751074,0.10504745273,1.670390089797721,0.5521480955521448,-1.2864666903963151, ,0.19526119662236785,0.19209907198071008,0.04726650302670624,-0.03983365105664873,0.16000040365569348,-0.15531461454563417, ,1.2896881103515625
0.01609382412491338,0.019831347964670315,-0.093900997045118, ,0.0171845291419542,0.019143913818226978,-0.09496327505986474, ,0.0016705201945826774, ,0.027873370904273505,-0.009077417488734647,-0.04533706239466163,-0.04099149630454196,-0.043835362825082706,-0.02113144504150425, ,0.05398864269834377, ,0.060013750591244266, ,0.001048139512653128, ,0.2196113547443224,-0.2005902636751074,0.10504745273,1.670390089797721,0.5521480955521448,-1.2864666903963151, ,0.19526119662236785,0.19209907198071008,0.04726650302670624,-0.03983365105664873,0.16000040365569348,-0.15531461454563417, ,1.2932701110839844
0.01609382412491338,0.019831347964670315,-0.093900997045118, ,0.017275810794416088,0.019121864554328846,-0.09511930097957562, ,0.001839761852291421, ,0.027873370904273505,-0.009077417488734647,-0.04533706239466163,-0.04099149630454196,-0.043835362825082706,-0.02113144504150425, ,0.05398864269834377, ,0.060013750591244266, ,0.0010563005677009455, ,0.2196113547443224,-0.2005902636751074,0.10504745273,1.670390089797721,0.5521480955521448,-1.2864666903963151, ,0.19526119662236785,0.19209907198071008,0.04726650302670624,-0.03983365105664873,0.16000040365569348,-0.15531461454563417, ,1.2968649864196777
0.0163777904370602,0.01973696999123645,-0.09435484043135134, ,0.0173670618343763,0.01909992329037544,-0.09527480986216831, ,0.0014935963813103427, ,0.02787482976281606,-0.009337825275566272,-0.0440091317187958,0.004303343194207029,-0.0037042547881957115,-0.06469911974740508, ,0.052924519741092586, ,0.00566349527722564, ,0.0010607627698806332, ,0.22161926529162077,-0.19862868952505439,0.10552189487000001,1.6701803998542366,0.5539243700490956,-1.2882418381049308, ,0.19894537014354458,0.1924887252707318,0.04617046817391306,0.0,0.19598294565832317,-0.19263258412218479, ,1.3012840747833252
0.0163777904370602,0.01973696999123645,-0.09435484043135134, ,0.017458277819943982,0.019078094109027752,-0.09542979972475629, ,0.0016604541231858866, ,0.02787482976281606,-0.009337825275566272,-0.0440091317187958,0.004303343194207029,-0.0037042547881957115,-0.06469911974740508, ,0.052924519741092586, ,0.00566349527722564, ,0.001066820258297858, ,0.22161926529162077,-0.19862868952505439,0.10552189487000001,1.6701803998542366,0.5539243700490956,-1.2882418381049308, ,0.19894537014354458,0.1924887252707318,0.04617046817391306,0.0,0.19598294565832317,-0.19263258412218479, ,1.3049280643463135
0.016656266796314143,0.019644143675864322,-0.09478691798604967, ,0.017549454345072598,0.0190563810632248,-0.09558426860629683, ,0.0013337979223564966, ,0.02835049182546568,-0.009099346012166058,-0.04361140705130811,-0.07468234888966961,-0.08682274038254087,-0.023803786939616572, ,0.0528062809672278, ,0.11452285240032305, ,0.0010694900349384445, ,0.22358083944167378,-0.19676751090236627,0.10597430008000001,1.6695513300237828,0.5554273715465154,-1.289549113785732, ,0.19647399908586083,0.18570830050581366,0.04564129375358167,-0.03199339720258662,0.11632662317335028,-0.1137002314456951, ,1.308617115020752
0.016656266796314143,0.019644143675864322,-0.09478691798604967, ,0.017640587039469212,0.019034788176253238,-0.09573821456754007, ,0.001498387684127994, ,0.02835049182546568,-0.009099346012166058,-0.04361140705130811,-0.07468234888966961,-0.08682274038254087,-0.023803786939616572, ,0.0528062809672278, ,0.11452285240032305, ,0.0010737365463165587, ,0.22358083944167378,-0.19676751090236627,0.10597430008000001,1.6695513300237828,0.5554273715465154,-1.289549113785732, ,0.19647399908586083,0.18570830050581366,0.04564129375358167,-0.03199339720258662,0.11632662317335028,-0.1137002314456951, ,1.3122971057891846
0.016656266796314143,0.019644143675864322,-0.09478691798604967, ,0.017731671568503946,0.019013319441816858,-0.0958916356909742, ,0.0016657838532906624, ,0.02835049182546568,-0.009099346012166058,-0.04361140705130811,-0.07468234888966961,-0.08682274038254087,-0.023803786939616572, ,0.0528062809672278, ,0.11452285240032305, ,0.00107954093167905, ,0.22358083944167378,-0.19676751090236627,0.10597430008000001,1.6695513300237828,0.5554273715465154,-1.289549113785732, ,0.19647399908586083,0.18570830050581366,0.04564129375358167,-0.03199339720258662,0.11632662317335028,-0.1137002314456951, ,1.3161330223083496
0.01698582267844529,0.019535316728327104,-0.09529896412083874, ,0.017822703633118955,0.01899197882410575,-0.09604453008077428, ,0.0012455739283855289, ,0.027548224308426135,-0.009061943667965382,-0.04347097954764963,-0.03631696460594068,-0.049948563265149334,0.017416221319892917, ,0.052256574212446325, ,0.06175455977307188, ,0.0010811529025208605, ,0.22586676837244424,-0.19462059116333186,0.10651096414000001,1.6682931903628757,0.5570670095437007,-1.2911311648505106, ,0.18979388311694156,0.18075607915899194,0.04564129375358167,-0.08150279289017538,0.15591565740937008,-0.15872151532826295, ,1.3199310302734375
0.01698582267844529,0.019535316728327104,-0.09529896412083874, ,0.017913678969738302,0.01897077025786665,-0.09619689586274904, ,0.001409223696838599, ,0.027548224308426135,-0.009061943667965382,-0.04347097954764963,-0.03631696460594068,-0.049948563265149334,0.017416221319892917, ,0.052256574212446325, ,0.06175455977307188, ,0.0010843074293893002, ,0.22586676837244424,-0.19462059116333186,0.10651096414000001,1.6682931903628757,0.5570670095437007,-1.2911311648505106, ,0.18979388311694156,0.18075607915899194,0.04564129375358167,-0.08150279289017538,0.15591565740937008,-0.15872151532826295, ,1.3235509395599365
0.01698582267844529,0.019535316728327104,-0.09529896412083874, ,0.018004593350176977,0.018949697648471566,-0.09634873118428869, ,0.0015757075476673338, ,0.027548224308426135,-0.009061943667965382,-0.04347097954764963,-0.03631696460594068,-0.049948563265149334,0.017416221319892917, ,0.052256574212446325, ,0.06175455977307188, ,0.0010889874305157578, ,0.22586676837244424,-0.19462059116333186,0.10651096414000001,1.6682931903628757,0.5570670095437007,-1.2911311648505106, ,0.18979388311694156,0.18075607915899194,0.04564129375358167,-0.08150279289017538,0.15591565740937008,-0.15872151532826295, ,1.327131986618042
0.017264195950329412,0.019444425993158057,-0.09573036043312257, ,0.0180954425815502,0.018928764871987674,-0.09650003421431108, ,0.001244698792178908, ,0.026457194863170885,-0.008892087721069291,-0.04083042571645848,0.0002594963451505767,-0.0019752792411583597,-0.02265148720735445, ,0.04945883185290794, ,0.0019635647119325894, ,0.0010904564056257876, ,0.2278051743238746,-0.19278258073926643,0.10696596193,1.6682931903628757,0.5588432840406514,-1.2927429550788452, ,0.18570830050581366,0.17444290727660072,0.04316751089430895,-0.03790450649167316,0.19176130190335128,-0.17884043417716586, ,1.3306469917297363
0.017264195950329412,0.019444425993158057,-0.09573036043312257, ,0.018186222506183056,0.018907975775246857,-0.0966508031432107, ,0.0014089452042399296, ,0.026457194863170885,-0.008892087721069291,-0.04083042571645848,0.0002594963451505767,-0.0019752792411583597,-0.02265148720735445, ,0.04945883185290794, ,0.0019635647119325894, ,0.001093432936453957, ,0.2278051743238746,-0.19278258073926643,0.10696596193,1.6682931903628757,0.5588432840406514,-1.2927429550788452, ,0.18570830050581366,0.17444290727660072,0.04316751089430895,-0.03790450649167316,0.19176130190335128,-0.17884043417716586, ,1.3341970443725586
0.017264195950329412,0.019444425993158057,-0.09573036043312257, ,0.018276929001519462,0.018887334175914972,-0.09680103618280426, ,0.0015755399349963745, ,0.026457194863170885,-0.008892087721069291,-0.04083042571645848,0.0002594963451505767,-0.0019752792411583597,-0.02265148720735445, ,0.04945883185290794, ,0.0019635647119325894, ,0.0010978968901441647, ,0.2278051743238746,-0.19278258073926643,0.10696596193,1.6682931903628757,0.5588432840406514,-1.2927429550788452, ,0.18570830050581366,0.17444290727660072,0.04316751089430895,-0.03790450649167316,0.19176130190335128,-0.17884043417716586, ,1.3377830982208252
0.01752056872938782,0.01936076071020601,-0.09613070367888552, ,0.01836755798003199,0.01886684386256184,-0.09695073156627952, ,0.0012781980985736919, ,0.026590872558033603,-0.008103254697407206,-0.042235923915916795,0.006050823063756531,0.0038822513721110327,-0.0571763968634949, ,0.05056293612044052, ,0.0071798281418064816, ,0.0010995510296710408, ,0.22958912561782044,-0.19110674770555972,0.10738984876000002,1.6680835004193915,0.5607561950373676,-1.2944661632108763, ,0.181447306995164,0.16976197058760426,0.04474385258426967,0.0,0.18610708993892797,-0.17151848591417374, ,1.341392993927002
0.01752056872938782,0.01936076071020601,-0.09613070367888552, ,0.018458105389130702,0.018846508594730083,-0.09709988754814144, ,0.001443172754405792, ,0.026590872558033603,-0.008103254697407206,-0.042235923915916795,0.006050823063756531,0.0038822513721110327,-0.0571763968634949, ,0.05056293612044052, ,0.0071798281418064816, ,0.001102674863532266, ,0.22958912561782044,-0.19110674770555972,0.10738984876000002,1.6680835004193915,0.5607561950373676,-1.2944661632108763, ,0.181447306995164,0.16976197058760426,0.04474385258426967,0.0,0.18610708993892797,-0.17151848591417374, ,1.3449840545654297
0.01752056872938782,0.01936076071020601,-0.09613070367888552, ,0.018548567211072967,0.01882633210300518,-0.09724850240416053, ,0.001609928198637449, ,0.026590872558033603,-0.008103254697407206,-0.042235923915916795,0.006050823063756531,0.0038822513721110327,-0.0571763968634949, ,0.05056293612044052, ,0.0071798281418064816, ,0.0011072447133980785, ,0.22958912561782044,-0.19110674770555972,0.10738984876000002,1.6680835004193915,0.5607561950373676,-1.2944661632108763, ,0.181447306995164,0.16976197058760426,0.04474385258426967,0.0,0.18610708993892797,-0.17151848591417374, ,1.3487510681152344
0.017776993736126286,0.019283029131142423,-0.09653582542690904, ,0.018638939462872428,0.018806318089084756,-0.0973965744313193, ,0.0013080874214168147, ,0.02653224768591333,-0.007628480255617364,-0.041520722124812046,-0.008878751422191909,-0.01623090093724702,-0.025030802504320413, ,0.049861049367646224, ,0.018497323303670227, ,0.0011090379518625315, ,0.23132674051452096,-0.18951586473346946,0.10781892075,1.6674544305889376,0.562395833034553,-1.2958848567953738, ,0.17972905598195224,0.16084227382791658,0.044124131634349036,-0.029640884903215012,0.16976907257086846,-0.15447982501896734, ,1.3524940013885498
0.017776993736126286,0.019283029131142423,-0.09653582542690904, ,0.018729218196208697,0.018786470225848145,-0.09754410194776027, ,0.0014730660919680908, ,0.02653224768591333,-0.007628480255617364,-0.041520722124812046,-0.008878751422191909,-0.01623090093724702,-0.025030802504320413, ,0.049861049367646224, ,0.018497323303670227, ,0.0011122594398280674, ,0.23132674051452096,-0.18951586473346946,0.10781892075,1.6674544305889376,0.562395833034553,-1.2958848567953738, ,0.17972905598195224,0.16084227382791658,0.044124131634349036,-0.029640884903215012,0.16976907257086846,-0.15447982501896734, ,1.3562171459197998
0.017776993736126286,0.019283029131142423,-0.09653582542690904, ,0.018819399497336443,0.018766792157425553,-0.09769108329273245, ,0.0016394301206771, ,0.0258382123350193,-0.0076936871211418425,-0.04004727814348056,-0.029210236443334002,-0.03411090021622609,0.0510640113732896, ,0.048276190041146194, ,0.044907554153442164, ,0.0011168837440460415, ,0.23132674051452096,-0.18951586473346946,0.10781892075,1.6674544305889376,0.562395833034553,-1.2958848567953738, ,0.17972905598195224,0.16084227382791658,0.044124131634349036,-0.029640884903215012,0.16976907257086846,-0.15447982501896734, ,1.3599491119384766
0.01805588799427708,0.019198240538891256,-0.09697651948149102, ,0.018909479486994913,0.0187472874992683,-0.09783751682653982, ,0.001293558467393924, ,0.0258382123350193,-0.0076936871211418425,-0.04004727814348056,-0.029210236443334002,-0.03411090021622609,0.0510640113732896, ,0.048276190041146194, ,0.044907554153442164, ,0.001118420045988197, ,0.23321108733583173,-0.1878245862340143,0.10828688144000001,1.6661962909280306,0.564308744031269,-1.2974447074471238, ,0.1741228285476528,0.15305958315882384,0.04259040513368984,-0.10650404624759499,0.16043266912721296,-0.1444136311001074, ,1.3639259338378906
0.01805588799427708,0.019198240538891256,-0.09697651948149102, ,0.018999454320317157,0.01872795983821767,-0.0979834009304877, ,0.001457837988734156, ,0.0258382123350193,-0.0076936871211418425,-0.04004727814348056,-0.029210236443334002,-0.03411090021622609,0.0510640113732896, ,0.048276190041146194, ,0.044907554153442164, ,0.001121346062736007, ,0.23321108733583173,-0.1878245862340143,0.10828688144000001,1.6661962909280306,0.564308744031269,-1.2974447074471238, ,0.1741228285476528,0.15305958315882384,0.04259040513368984,-0.10650404624759499,0.16043266912721296,-0.1444136311001074, ,1.3675010204315186
0.018309811124530173,0.01912665904541882,-0.09736816762231276, ,0.01908932018673957,0.018708812732574766,-0.0981287340068308, ,0.0011664866670831593, ,0.024698707787081744,-0.0070465390206556405,-0.03813770471630419,-0.021562030156851177,-0.028992764916013655,-0.01411543593996717, ,0.04598004349225092, ,0.036130608639821704, ,0.0011217318798671793, ,0.23491008856816115,-0.18632637605641475,0.10870428682000001,1.665986600984546,0.5658117455286888,-1.2986703043877843, ,0.16418155978974183,0.14532456593946522,0.04063472326530613,-0.03501539145158693,0.14214849543924152,-0.1279949644150583, ,1.3710370063781738
0.018309811124530173,0.01912665904541882,-0.09736816762231276, ,0.01917907330991099,0.018689849712169585,-0.0982735144787194, ,0.0013289364435337238, ,0.024698707787081744,-0.0070465390206556405,-0.03813770471630419,-0.021562030156851177,-0.028992764916013655,-0.01411543593996717, ,0.04598004349225092, ,0.036130608639821704, ,0.0011234878507457092, ,0.23491008856816115,-0.18632637605641475,0.10870428682000001,1.665986600984546,0.5658117455286888,-1.2986703043877843, ,0.16418155978974183,0.14532456593946522,0.04063472326530613,-0.03501539145158693,0.14214849543924152,-0.1279949644150583, ,1.3746271133422852
0.018309811124530173,0.01912665904541882,-0.09736816762231276, ,0.01926870994760228,0.018671074278431277,-0.09841774079014841, ,0.0014928657901635757, ,0.024698707787081744,-0.0070465390206556405,-0.03813770471630419,-0.021562030156851177,-0.028992764916013655,-0.01411543593996717, ,0.04598004349225092, ,0.036130608639821704, ,0.0011265918670433385, ,0.23491008856816115,-0.18632637605641475,0.10870428682000001,1.665986600984546,0.5658117455286888,-1.2986703043877843, ,0.16418155978974183,0.14532456593946522,0.04063472326530613,-0.03501539145158693,0.14214849543924152,-0.1279949644150583, ,1.3782119750976562
0.018556436466629182,0.019060141069670293,-0.09774819859070558, ,0.019358226391615666,0.018652489904456865,-0.09856141140590284, ,0.0012125846935825792, ,0.024303040505661545,-0.00611235066314918,-0.038405510862658775,-0.00509123921175012,-0.014196942438735413,-0.052196998678470864, ,0.04585828031087654, ,0.01507946740526677, ,0.0011273084739311654, ,0.2365395852046225,-0.18491311594043167,0.10911002559,1.6657769110410614,0.5671781105263433,-1.2997844834247487, ,0.15816156926411795,0.1375317993601026,0.04105363793814434,0.006857709100203439,0.14321668168861593,-0.1271620888916528, ,1.382418155670166
0.018556436466629182,0.019060141069670293,-0.09774819859070558, ,0.019447618967693925,0.018634100035081296,-0.09870452481150668, ,0.0013748734683415053, ,0.024303040505661545,-0.00611235066314918,-0.038405510862658775,-0.00509123921175012,-0.014196942438735413,-0.052196998678470864, ,0.04585828031087654, ,0.01507946740526677, ,0.001129354465620507, ,0.2365395852046225,-0.18491311594043167,0.10911002559,1.6657769110410614,0.5671781105263433,-1.2997844834247487, ,0.15816156926411795,0.1375317993601026,0.04105363793814434,0.006857709100203439,0.14321668168861593,-0.1271620888916528, ,1.3862640857696533
0.018798565031253867,0.019003794183925986,-0.09813470591016518, ,0.01953688403542998,0.018615908086946728,-0.09884707951316933, ,0.0010968348674319764, ,0.02361928395596449,-0.005195528046110573,-0.038276192536905985,0.027306736162246412,0.020215077431876824,-0.04525979807023417, ,0.04527616372212536, ,0.03397388759893887, ,0.0011290879115369945, ,0.2381150227109643,-0.18357708315319082,0.10952483839000002,1.665986600984546,0.5688177485235285,-1.3011214982691057, ,0.15281311040011397,0.12703740503142005,0.041159719689922485,0.0,0.17376923863401147,-0.15068308006831926, ,1.3901920318603516
0.018798565031253867,0.019003794183925986,-0.09813470591016518, ,0.01962601798817603,0.018597917448571952,-0.0989890740377331, ,0.0012567255936061766, ,0.02361928395596449,-0.005195528046110573,-0.038276192536905985,0.027306736162246412,0.020215077431876824,-0.04525979807023417, ,0.04527616372212536, ,0.03397388759893887, ,0.0011301256162692642, ,0.2381150227109643,-0.18357708315319082,0.10952483839000002,1.665986600984546,0.5688177485235285,-1.3011214982691057, ,0.15281311040011397,0.12703740503142005,0.041159719689922485,0.0,0.17376923863401147,-0.15068308006831926, ,1.3938889503479004
0.018798565031253867,0.019003794183925986,-0.09813470591016518, ,0.019715017252953094,0.018580131480422087,-0.09913050693262059, ,0.001418095355510661, ,0.02361928395596449,-0.005195528046110573,-0.038276192536905985,0.027306736162246412,0.020215077431876824,-0.04525979807023417, ,0.04527616372212536, ,0.03397388759893887, ,0.0011324479528760497, ,0.2381150227109643,-0.18357708315319082,0.10952483839000002,1.665986600984546,0.5688177485235285,-1.3011214982691057, ,0.15281311040011397,0.12703740503142005,0.041159719689922485,0.0,0.17376923863401147,-0.15068308006831926, ,1.3974721431732178
0.01902053519378818,0.018954704089578396,-0.09849370209563103, ,0.019803878290360205,0.018562553514978108,-0.09927137676578238, ,0.0011714035908692542, ,0.024064426587365323,-0.004809499495273784,-0.03948778706482338,0.005252016906754414,-0.004318793467608335,0.031132504713573848, ,0.046492077170745626, ,0.006792617253677353, ,0.0011327595979799953, ,0.23955145102557007,-0.18242639595493138,0.10991113281,1.6651478412106078,0.5704573865207139,-1.3024585131134627, ,0.15256743015831317,0.12088782364136405,0.042476830720000004,-0.07768545688953223,0.16294304171015536,-0.14085666399707936, ,1.4010529518127441
0.01902053519378818,0.018954704089578396,-0.09849370209563103, ,0.01989259759448398,0.01854518685680607,-0.09941168212564343, ,0.001330745854829682, ,0.024064426587365323,-0.004809499495273784,-0.03948778706482338,0.005252016906754414,-0.004318793467608335,0.031132504713573848, ,0.046492077170745626, ,0.006792617253677353, ,0.0011343309174788024, ,0.23955145102557007,-0.18242639595493138,0.10991113281,1.6651478412106078,0.5704573865207139,-1.3024585131134627, ,0.15256743015831317,0.12088782364136405,0.042476830720000004,-0.07768545688953223,0.16294304171015536,-0.14085666399707936, ,1.404670000076294
0.01902053519378818,0.018954704089578396,-0.09849370209563103, ,0.0199811716928078,0.018528034782627018,-0.0995514216210515, ,0.0014911873709224947, ,0.024064426587365323,-0.004809499495273784,-0.03948778706482338,0.005252016906754414,-0.004318793467608335,0.031132504713573848, ,0.046492077170745626, ,0.006792617253677353, ,0.0011371408108130047, ,0.23955145102557007,-0.18242639595493138,0.10991113281,1.6651478412106078,0.5704573865207139,-1.3024585131134627, ,0.15256743015831317,0.12088782364136405,0.042476830720000004,-0.07768545688953223,0.16294304171015536,-0.14085666399707936, ,1.4083421230316162
0.01927825652778929,0.01890553323675753,-0.09891444512685198, ,0.020069597146121262,0.018511100541386112,-0.09969059388122353, ,0.0011765219990771568, ,0.024007612880681026,-0.004066174883945256,-0.039562101265141626,-0.01215347419920787,-0.029221545606694294,0.03976860197212779, ,0.046454914819949775, ,0.03164662298684508, ,0.0011374484763463184, ,0.241165502196283,-0.181175313229307,0.11036353802000001,1.6640993914931852,0.5719603880181336,-1.3036841100541234, ,0.1482764711851106,0.11243713454795115,0.04259040513368984,-0.08250443229647585,0.1343067604562259,-0.11660559536908877, ,1.411992073059082
0.01927825652778929,0.01890553323675753,-0.09891444512685198, ,0.020157870548429487,0.01849438735432233,-0.09982919755569376, ,0.0013339916671487053, ,0.024007612880681026,-0.004066174883945256,-0.039562101265141626,-0.01215347419920787,-0.029221545606694294,0.03976860197212779, ,0.046454914819949775, ,0.03164662298684508, ,0.0011389720669726935, ,0.241165502196283,-0.181175313229307,0.11036353802000001,1.6640993914931852,0.5719603880181336,-1.3036841100541234, ,0.1482764711851106,0.11243713454795115,0.04259040513368984,-0.08250443229647585,0.1343067604562259,-0.11660559536908877, ,1.415539026260376
0.01927825652778929,0.01890553323675753,-0.09891444512685198, ,0.02024598852686263,0.018477898415038174,-0.0999672313142607, ,0.001492560055467127, ,0.024007612880681026,-0.004066174883945256,-0.039562101265141626,-0.01215347419920787,-0.029221545606694294,0.03976860197212779, ,0.046454914819949775, ,0.03164662298684508, ,0.0011416919745764968, ,0.241165502196283,-0.181175313229307,0.11036353802000001,1.6640993914931852,0.5719603880181336,-1.3036841100541234, ,0.1482764711851106,0.11243713454795115,0.04259040513368984,-0.08250443229647585,0.1343067604562259,-0.11660559536908877, ,1.4191441535949707
0.01949497951789473,0.01887188142578544,-0.09927467277130407, ,0.02033394774158493,0.018461636889568683,-0.10010469384693417, ,0.00124944117342424, ,0.024082877159896685,-0.0032788214241367907,-0.04022071538585089,0.035104212361359875,0.015566410863023072,-0.07862879487620852, ,0.04699405907537328, ,0.038399396039009055, ,0.0011425144875448002, ,0.24250153498352384,-0.1801713579556578,0.11075242502000002,1.663680011606216,0.5733267530157882,-1.3047982890910876, ,0.14735549931439562,0.11125081073677699,0.04352134295081967,0.03998059528591438,0.1561983020340607,-0.13384498179764728, ,1.4229121208190918
0.01949497951789473,0.01887188142578544,-0.09927467277130407, ,0.0204217448857044,0.018445605916451297,-0.10024158386388271, ,0.0014055326100027344, ,0.024082877159896685,-0.0032788214241367907,-0.04022071538585089,0.035104212361359875,0.015566410863023072,-0.07862879487620852, ,0.04699405907537328, ,0.038399396039009055, ,0.0011445070490785725, ,0.24250153498352384,-0.1801713579556578,0.11075242502000002,1.663680011606216,0.5733267530157882,-1.3047982890910876, ,0.14735549931439562,0.11125081073677699,0.04352134295081967,0.03998059528591438,0.1561983020340607,-0.13384498179764728, ,1.4267330169677734
0.019759392877006322,0.018836543227068965,-0.09972487402103557, ,0.02050937668518207,0.018429808606795356,-0.10037790009538192, ,0.0010744076589596324, ,0.023010132596293212,-0.0025883267094990595,-0.03944572496828636,0.055194765998871735,0.0391602154362703,-0.06251084126726184, ,0.04573981695992882, ,0.0676748784076494, ,0.0011439799859949715, ,0.24405380429124296,-0.1789975025587757,0.11122427458,1.663680011606216,0.5752396640125043,-1.3063581397428377, ,0.13853568110725661,0.10138562132315254,0.04270458852546917,0.02434628325632247,0.17435510721770944,-0.1480390481195346, ,1.430567979812622
0.019759392877006322,0.018836543227068965,-0.09972487402103557, ,0.02059683989874128,0.018414248044351527,-0.10051364129176008, ,0.0012254813515208205, ,0.023010132596293212,-0.0025883267094990595,-0.03944572496828636,0.055194765998871735,0.0391602154362703,-0.06251084126726184, ,0.04573981695992882, ,0.0676748784076494, ,0.0011445882051406865, ,0.24405380429124296,-0.1789975025587757,0.11122427458,1.663680011606216,0.5752396640125043,-1.3063581397428377, ,0.13853568110725661,0.10138562132315254,0.04270458852546917,0.02434628325632247,0.17435510721770944,-0.1480390481195346, ,1.4341580867767334
0.019759392877006322,0.018836543227068965,-0.09972487402103557, ,0.020684131317777254,0.018398927285581502,-0.10064880622334722, ,0.0013785135510947575, ,0.023010132596293212,-0.0025883267094990595,-0.03944572496828636,0.055194765998871735,0.0391602154362703,-0.06251084126726184, ,0.04573981695992882, ,0.0676748784076494, ,0.001146320985481087, ,0.24405380429124296,-0.1789975025587757,0.11122427458,1.663680011606216,0.5752396640125043,-1.3063581397428377, ,0.13853568110725661,0.10138562132315254,0.04270458852546917,0.02434628325632247,0.17435510721770944,-0.1480390481195346, ,1.437741994857788
0.019759392877006322,0.018836543227068965,-0.09972487402103557, ,0.020771247766266054,0.018383849359726933,-0.10078339368042083, ,0.001532724999389323, ,0.021982664645654456,-0.002560296936858155,-0.03701713000873818,0.057311517861553446,0.042002946783049264,-0.038356814164277026, ,0.043128419625717986, ,0.07105482470196625, ,0.0011491621914657066, ,0.24549795533872293,-0.1779626563536296,0.11166501318000001,1.6638897015497007,0.577015938509455,-1.307806572490891, ,0.1340352281899305,0.09480213941905173,0.04032610511392406,0.0,0.1766082511665642,-0.14938336607341077, ,1.442291021347046
0.019989086752076904,0.018810556157637767,-0.10011598077700418, ,0.020858186100674497,0.0183690172688797,-0.10091740247315428, ,0.0012619694937194726, ,0.021982664645654456,-0.002560296936858155,-0.03701713000873818,0.057311517861553446,0.042002946783049264,-0.038356814164277026, ,0.043128419625717986, ,0.07105482470196625, ,0.0011499856024310626, ,0.24549795533872293,-0.1779626563536296,0.11166501318000001,1.6638897015497007,0.577015938509455,-1.307806572490891, ,0.1340352281899305,0.09480213941905173,0.04032610511392406,0.0,0.1766082511665642,-0.14938336607341077, ,1.4461579322814941
0.019989086752076904,0.018810556157637767,-0.10011598077700418, ,0.02094494320986903,0.018354433988050898,-0.10105083143156354, ,0.0014126764483849853, ,0.021982664645654456,-0.002560296936858155,-0.03701713000873818,0.057311517861553446,0.042002946783049264,-0.038356814164277026, ,0.043128419625717986, ,0.07105482470196625, ,0.0011518891592858013, ,0.24676448353009575,-0.17707454207309378,0.11203834470000001,1.6632606317192473,0.5781090305075786,-1.3086979157204623, ,0.13089233318409763,0.09204359026039842,0.03904120470588236,-0.03178437832265923,0.07364334380047668,-0.06504755152116631, ,1.4498260021209717
0.020200177022225943,0.01878248960443666,-0.1004604189617336, ,0.021031516015025502,0.01834010246524077,-0.10118367940545554, ,0.0011874075001143299, ,0.022319724967744658,-0.0027119350566679494,-0.036107461580040114,-0.032095005773367644,-0.06299926842390685,0.0005052383956649451, ,0.042535555669832525, ,0.07070315299538688, ,0.0011521446869176613, ,0.24676448353009575,-0.17707454207309378,0.11203834470000001,1.6632606317192473,0.5781090305075786,-1.3086979157204623, ,0.13089233318409763,0.09204359026039842,0.03904120470588236,-0.03178437832265923,0.07364334380047668,-0.06504755152116631, ,1.4569709300994873
0.0204225834343584,0.018751854608807156,-0.10081548952753343, ,0.021117901469538104,0.01832602562150763,-0.10131594526437385, ,0.0009566887900499252, ,0.020772918090123407,-0.0032584439947468307,-0.03197763016780755,-0.008758328254359635,-0.03129162612780542,0.04198967684479539, ,0.038271404656674855, ,0.03249370311644943, ,0.0011507485733686061, ,0.24809279358446237,-0.17614781412818684,0.11242334283000001,1.6626315618887937,0.5790654860059367,-1.3094778410463372, ,0.12806604798714005,0.08730169416602647,0.034855167439824954,-0.07709476335771186,0.11052676997437427,-0.0947705777876047, ,1.4619829654693604
0.0204225834343584,0.018751854608807156,-0.10081548952753343, ,0.02120409655892911,0.01831220635103792,-0.10144762789754734, ,0.0010971108755634703, ,0.020772918090123407,-0.0032584439947468307,-0.03197763016780755,-0.008758328254359635,-0.03129162612780542,0.04198967684479539, ,0.038271404656674855, ,0.03249370311644943, ,0.0011503681641643142, ,0.24809279358446237,-0.17614781412818684,0.11242334283000001,1.6626315618887937,0.5790654860059367,-1.3094778410463372, ,0.12806604798714005,0.08730169416602647,0.034855167439824954,-0.07709476335771186,0.11052676997437427,-0.0947705777876047, ,1.4655640125274658
0.0204225834343584,0.018751854608807156,-0.10081548952753343, ,0.02129009830075803,0.018298647521215416,-0.10157872621383697, ,0.001241172408244465, ,0.020772918090123407,-0.0032584439947468307,-0.03197763016780755,-0.008758328254359635,-0.03129162612780542,0.04198967684479539, ,0.038271404656674855, ,0.03249370311644943, ,0.001151007630671921, ,0.24809279358446237,-0.17614781412818684,0.11242334283000001,1.6626315618887937,0.5790654860059367,-1.3094778410463372, ,0.12806604798714005,0.08730169416602647,0.034855167439824954,-0.07709476335771186,0.11052676997437427,-0.0947705777876047, ,1.469146966934204
0.02062196905698998,0.018721148836416405,-0.10110376561455664, ,0.021375903744531098,0.01828535197269106,-0.10170923914168317, ,0.0010606293469264433, ,0.018922560917188084,-0.0037727006144519398,-0.02589670340654376,-0.0069921717888592454,-0.033635334328365914,0.010626636149016771, ,0.03229451701012844, ,0.034354250602832745, ,0.001150375614701673, ,0.24935159904296098,-0.1753137589777706,0.11273963759000001,1.6626315618887937,0.5800219415042946,-1.3102577663722124, ,0.12324278124476726,0.08266284107880731,0.028495190554561723,-0.042004365309458454,0.09715017089349229,-0.08356075389772295, ,1.472689151763916
0.02062196905698998,0.018721148836416405,-0.10110376561455664, ,0.021461509971610546,0.018272322519452,-0.10183916562905333, ,0.0012029493719369515, ,0.018922560917188084,-0.0037727006144519398,-0.02589670340654376,-0.0069921717888592454,-0.033635334328365914,0.010626636149016771, ,0.03229451701012844, ,0.034354250602832745, ,0.0011507407102380291, ,0.24935159904296098,-0.1753137589777706,0.11273963759000001,1.6626315618887937,0.5800219415042946,-1.3102577663722124, ,0.12324278124476726,0.08266284107880731,0.028495190554561723,-0.042004365309458454,0.09715017089349229,-0.08356075389772295, ,1.4762639999389648
0.02062196905698998,0.018721148836416405,-0.10110376561455664, ,0.021546914095123965,0.018259561948891438,-0.10196850464338872, ,0.0013477237722504982, ,0.018922560917188084,-0.0037727006144519398,-0.02589670340654376,-0.0069921717888592454,-0.033635334328365914,0.010626636149016771, ,0.03229451701012844, ,0.034354250602832745, ,0.0011520992141139772, ,0.24935159904296098,-0.1753137589777706,0.11273963759000001,1.6626315618887937,0.5800219415042946,-1.3102577663722124, ,0.12324278124476726,0.08266284107880731,0.028495190554561723,-0.042004365309458454,0.09715017089349229,-0.08356075389772295, ,1.4798541069030762
0.02081064547203581,0.01868366862045873,-0.1013616693332041, ,0.021632113259873773,0.0182470730218779,-0.10209725517155208, ,0.0011859644044968796, ,0.019619296955056514,-0.0037153189718967658,-0.02759317308022945,0.02982852067486363,0.008567699736541073,-0.006059372503960978, ,0.03406029372611348, ,0.031034337894388045, ,0.0011523311674727643, ,0.2505949590357111,-0.17447198109448012,0.11302482139000002,1.6626315618887937,0.5812516700021837,-1.31126052750548, ,0.12823911021414972,0.08556983007977528,0.030514964597701155,-0.02910690394461247,0.14222817667131746,-0.12006014444521237, ,1.4843249320983887
0.02081064547203581,0.01868366862045873,-0.1013616693332041, ,0.021717104642246566,0.018234858472825313,-0.1022254162197755, ,0.0013300967859293878, ,0.019619296955056514,-0.0037153189718967658,-0.02759317308022945,0.02982852067486363,0.008567699736541073,-0.006059372503960978, ,0.03406029372611348, ,0.031034337894388045, ,0.001153540457394238, ,0.2505949590357111,-0.17447198109448012,0.11302482139000002,1.6626315618887937,0.5812516700021837,-1.31126052750548, ,0.12823911021414972,0.08556983007977528,0.030514964597701155,-0.02910690394461247,0.14222817667131746,-0.12006014444521237, ,1.4878709316253662
0.021005902021310426,0.018652448173347574,-0.10165312646641297, ,0.02180188545012235,0.018222921009761795,-0.10235298681360658, ,0.0011436291832474296, ,0.019619296955056514,-0.0037153189718967658,-0.02759317308022945,0.02982852067486363,0.008567699736541073,-0.006059372503960978, ,0.03406029372611348, ,0.031034337894388045, ,0.0011534734893256784, ,0.2518537644942097,-0.17365337140981232,0.11334759760000002,1.6622121820018247,0.5830279444991343,-1.3127089602535336, ,0.12720769645907612,0.07875264859624131,0.034255508645161296,-0.008877102235575024,0.17536711191225118,-0.1468524061926058, ,1.4914920330047607
0.021005902021310426,0.018652448173347574,-0.10165312646641297, ,0.021886452922784037,0.01821126331439967,-0.10247996599785655, ,0.0012859539574217693, ,0.020197600882771054,-0.002321927824985119,-0.030906898206435718,0.06809345212434936,0.04621341751939783,-0.02651693333266073, ,0.03699419936945701, ,0.08229441037649537, ,0.0011543626199840412, ,0.2518537644942097,-0.17365337140981232,0.11334759760000002,1.6622121820018247,0.5830279444991343,-1.3127089602535336, ,0.12720769645907612,0.07875264859624131,0.034255508645161296,-0.008877102235575024,0.17536711191225118,-0.1468524061926058, ,1.4953041076660156
0.021005902021310426,0.018652448173347574,-0.10165312646641297, ,0.021970804330826727,0.01819988804220435,-0.10260635283654741, ,0.0014298558150841448, ,0.020197600882771054,-0.002321927824985119,-0.030906898206435718,0.06809345212434936,0.04621341751939783,-0.02651693333266073, ,0.03699419936945701, ,0.08229441037649537, ,0.0011561992412847087, ,0.2518537644942097,-0.17365337140981232,0.11334759760000002,1.6622121820018247,0.5830279444991343,-1.3127089602535336, ,0.12720769645907612,0.07875264859624131,0.034255508645161296,-0.008877102235575024,0.17536711191225118,-0.1468524061926058, ,1.4990050792694092
0.021215522491926132,0.018629523184813337,-0.10197605838025356, ,0.022054936976067283,0.018188797822464898,-0.10273214641285947, ,0.0012126519015170788, ,0.02096012309122105,-0.001925743049418318,-0.03274974915113707,0.024928831112709215,0.0014558890127667021,0.035486780450106635, ,0.03893046770530665, ,0.024970553850955327, ,0.0011565730999617443, ,0.2531434608842052,-0.17287337538951564,0.11370407735000002,1.6615831121713711,0.5845309459965543,-1.3140979146744753, ,0.12669818632639623,0.07472200122714234,0.03611975401360545,-0.06878160006198587,0.1403080854312862,-0.11441183561675468, ,1.5026180744171143
0.021215522491926132,0.018629523184813337,-0.10197605838025356, ,0.022138848191453408,0.01817799525836258,-0.10285734582907809, ,0.0013539111430326944, ,0.02096012309122105,-0.001925743049418318,-0.03274974915113707,0.024928831112709215,0.0014558890127667021,0.035486780450106635, ,0.03893046770530665, ,0.024970553850955327, ,0.0011578713765608953, ,0.2531434608842052,-0.17287337538951564,0.11370407735000002,1.6615831121713711,0.5845309459965543,-1.3140979146744753, ,0.12669818632639623,0.07472200122714234,0.03611975401360545,-0.06878160006198587,0.1403080854312862,-0.11441183561675468, ,1.5062401294708252
0.021215522491926132,0.018629523184813337,-0.10197605838025356, ,0.022222535340973123,0.018167482927040846,-0.10298195020654163, ,0.0014964539565724582, ,0.02096012309122105,-0.001925743049418318,-0.03274974915113707,0.024928831112709215,0.0014558890127667021,0.035486780450106635, ,0.03893046770530665, ,0.024970553850955327, ,0.0011600843346001866, ,0.2531434608842052,-0.17287337538951564,0.11370407735000002,1.6615831121713711,0.5845309459965543,-1.3140979146744753, ,0.12669818632639623,0.07472200122714234,0.03611975401360545,-0.06878160006198587,0.1403080854312862,-0.11441183561675468, ,1.5098490715026855
0.021429751716086826,0.018611666339303584,-0.10232167119624203, ,0.02230599581956423,0.01815726337967458,-0.1031059586855882, ,0.0012607111661849585, ,0.022069308732944826,-0.0017360011789611402,-0.03683204528571782,0.0015369656061894716,-0.019925107350900577,0.029247430742778534, ,0.04297287106969416, ,0.019982601980460774, ,0.0011607377555845032, ,0.2544022663427038,-0.17210882483496742,0.11408389032,1.6609540423409173,0.5858973109942087,-1.3152120937114395, ,0.12437344896260916,0.07947817550960702,0.04022427151515152,-0.06156172803518767,0.11520185215369179,-0.09393938582255686, ,1.5135419368743896
0.021429751716086826,0.018611666339303584,-0.10232167119624203, ,0.02238922705302369,0.018147339141539993,-0.103229370425504, ,0.0014000394850060018, ,0.022069308732944826,-0.0017360011789611402,-0.03683204528571782,0.0015369656061894716,-0.019925107350900577,0.029247430742778534, ,0.04297287106969416, ,0.019982601980460774, ,0.0011622816377098032, ,0.2544022663427038,-0.17210882483496742,0.11408389032,1.6609540423409173,0.5858973109942087,-1.3152120937114395, ,0.12437344896260916,0.07947817550960702,0.04022427151515152,-0.06156172803518767,0.11520185215369179,-0.09393938582255686, ,1.5173230171203613
0.021654627095784085,0.01859856657128687,-0.10270891775170748, ,0.02247222649791671,0.01813771271208365,-0.10335218460446911, ,0.001137825692174323, ,0.022387200714835704,-0.0007289609911279836,-0.03887930986719698,0.025576204197551387,-0.001103284989047611,-0.04497508947391414, ,0.044870022016068226, ,0.025598254279474576, ,0.0011621248688281655, ,0.2556379036025797,-0.17130566061604807,0.11450648086000001,1.6607443523974328,0.5871270394920977,-1.3162148548447075, ,0.12119660480009038,0.07659155896567456,0.042476830720000004,0.01666580421137773,0.11745230909138367,-0.09577448255576602, ,1.5214190483093262
0.021654627095784085,0.01859856657128687,-0.10270891775170748, ,0.022554991641486496,0.018128386564992535,-0.10347440041950615, ,0.0012718841410195368, ,0.022387200714835704,-0.0007289609911279836,-0.03887930986719698,0.025576204197551387,-0.001103284989047611,-0.04497508947391414, ,0.044870022016068226, ,0.025598254279474576, ,0.0011628239724726964, ,0.2556379036025797,-0.17130566061604807,0.11450648086000001,1.6607443523974328,0.5871270394920977,-1.3162148548447075, ,0.12119660480009038,0.07659155896567456,0.042476830720000004,0.01666580421137773,0.11745230909138367,-0.09577448255576602, ,1.5251059532165527
0.021654627095784085,0.01859856657128687,-0.10270891775170748, ,0.022637520001563285,0.018119363148262884,-0.10359601708642668, ,0.0014080694636729506, ,0.022387200714835704,-0.0007289609911279836,-0.03887930986719698,0.025576204197551387,-0.001103284989047611,-0.04497508947391414, ,0.044870022016068226, ,0.025598254279474576, ,0.0011643761591258626, ,0.2556379036025797,-0.17130566061604807,0.11450648086000001,1.6607443523974328,0.5871270394920977,-1.3162148548447075, ,0.12119660480009038,0.07659155896567456,0.042476830720000004,0.01666580421137773,0.11745230909138367,-0.09577448255576602, ,1.528825044631958
0.021882807275829426,0.018591612155955808,-0.10310011982187073, ,0.022719809126474047,0.018110644884270465,-0.10371703383977943, ,0.0011456371676526636, ,0.021561849460157174,-0.0005598439857051097,-0.03632569092752045,0.01749183138273554,-0.014836060298610612,-0.038141144011863096, ,0.04224668742981575, ,0.022934899149803914, ,0.0011642583038335784, ,0.2568735408624556,-0.17054883279437408,0.11493425656000002,1.6607443523974328,0.5882201314902211,-1.3171061980742786, ,0.11759224480603565,0.06993142340344198,0.039822028800000006,0.012565960098071661,0.10079981842989197,-0.08219549301773835, ,1.5330040454864502
0.021882807275829426,0.018591612155955808,-0.10310011982187073, ,0.02280185659495149,0.018102234169839422,-0.1038374499327972, ,0.0012758519337105305, ,0.021561849460157174,-0.0005598439857051097,-0.03632569092752045,0.01749183138273554,-0.014836060298610612,-0.038141144011863096, ,0.04224668742981575, ,0.022934899149803914, ,0.0011649557640203093, ,0.2568735408624556,-0.17054883279437408,0.11493425656000002,1.6607443523974328,0.5882201314902211,-1.3171061980742786, ,0.11759224480603565,0.06993142340344198,0.039822028800000006,0.012565960098071661,0.10079981842989197,-0.08219549301773835, ,1.536586046218872
0.021882807275829426,0.018591612155955808,-0.10310011982187073, ,0.022883660016043784,0.01809413337631228,-0.10395726463734312, ,0.0014085057963960958, ,0.021561849460157174,-0.0005598439857051097,-0.03632569092752045,0.01749183138273554,-0.014836060298610612,-0.038141144011863096, ,0.04224668742981575, ,0.022934899149803914, ,0.0011664684971406558, ,0.2568735408624556,-0.17054883279437408,0.11493425656000002,1.6607443523974328,0.5882201314902211,-1.3171061980742786, ,0.11759224480603565,0.06993142340344198,0.039822028800000006,0.012565960098071661,0.10079981842989197,-0.08219549301773835, ,1.5401461124420166
0.022089255647647896,0.018579998441132888,-0.10342594879577759, ,0.022965217029023578,0.018086344849619202,-0.1040764772438603, ,0.0011975764993689758, ,0.020757854876904725,-0.0019375677672254898,-0.030992799885086644,0.0037730021679848722,-0.03014437019868184,-0.026218252396351283, ,0.037352327272343486, ,0.030379104728672342, ,0.0011666605218457688, ,0.25804739625933776,-0.16985378683569385,0.11529332889,1.6609540423409173,0.5891765869885792,-1.317804444660013, ,0.12166274558778303,0.07299764735266984,0.034255508645161296,0.0,0.0917034749616246,-0.0745127476129763, ,1.544532060623169
0.022089255647647896,0.018579998441132888,-0.10342594879577759, ,0.023046525303297732,0.01807887091034736,-0.10419508706131701, ,0.001326298483470502, ,0.020757854876904725,-0.0019375677672254898,-0.030992799885086644,0.0037730021679848722,-0.03014437019868184,-0.026218252396351283, ,0.037352327272343486, ,0.030379104728672342, ,0.0011676398958434665, ,0.25804739625933776,-0.16985378683569385,0.11529332889,1.6609540423409173,0.5891765869885792,-1.317804444660013, ,0.12166274558778303,0.07299764735266984,0.034255508645161296,0.0,0.0917034749616246,-0.0745127476129763, ,1.5481219291687012
