NicholasDascanio/dvrk_moveit_final/test/execution/third_experiment_notsharpbends/thirdexp_300vel4.0/thirdexp_300vel4.0_25.csv
Current Position (x),Current Position (y),Current Position (z), ,Planned Position (x),Planned Position (y),Planned Position (z), ,Position Error,,Cartesian linear Velocity(x),Cartesian linear Velocity(y),Cartesian linear Velocity(z),Cartesian Angular Velocity(x),Cartesian Angular Velocity(y),Cartesian Angular Velocity(z), ,Total Linear Velocity, ,Total Angular Velocity, ,MSE, ,Joint 1 Position,Joint 2 Position,Joint 3 Position,Joint 4 Position,Joint 5 Position,Joint 6 Position, ,Joint 1 Velocity,Joint 2 Velocity,Joint 3 Velocity,Joint 4 Velocity,Joint 5 Velocity,Joint 6 Velocity, ,Time Stamp
0.010110783723647513,0.019996767709112233,-0.08035566617910443, ,0.01026316335200807,0.019963340043122987,-0.08038463152376094, ,0.00015866931393265738, ,-9.063738685623052e-06,-6.09914688955485e-05,0.00029686068068453177,0.14638402138457468,0.0032039715118199704,-0.05418832815169831, ,0.00030319692342350947, ,0.14641908055362243, ,1.3222442827721449e-05, ,0.18071967198972774,-0.23638513054713803,0.09100344687,1.6821327266328545,0.5204484276065626,-1.2402797304437452, ,0.0005440437641865209,-7.25153913598183e-05,-0.00030211449691256673,0.0008915387519688801,0.0,-0.15562921319986245, ,0.03816509246826172
0.010157878372716474,0.020014049192478588,-0.08038503585602409, ,0.0102951579964151,0.020025835763823097,-0.08044009988181938, ,0.00014838013776675104, ,0.0007458105285569882,0.00010938619924289383,-0.0001529637795657223,0.18418021050240035,-0.08549517281956165,-0.05768787846577723, ,0.0007691531726192716, ,0.20305608711918788, ,1.395679325906402e-05, ,0.18074284018835043,-0.2364778033416287,0.09102159493,1.683181176350277,0.5155295136150068,-1.2475403520500716, ,0.000771499209398128,-0.003169998698923466,-7.618407104948993e-05,-0.033456486097834484,-0.08396476690182521,-0.20479696662647418, ,0.07743406295776367
0.010189063429908728,0.02003230137449343,-0.08040663470580071, ,0.01032767897779504,0.020086979661660603,-0.0804972078521494, ,0.00017437740691631217, ,-9.656080561938136e-06,0.000503246486507439,-0.0005819667366837892,-0.16528621623820136,0.021231538006940616,0.08409919124000026, ,0.000769438463218651, ,0.16664426628144624, ,1.5044589331741268e-05, ,0.18078145385272154,-0.23664770346486166,0.09103844670000001,1.683181176350277,0.5125235106201671,-1.2467227329715618, ,0.0017355795562564624,-0.004787115260031625,0.0008074448718382532,-0.015725188824810346,0.03130742437559988,0.17986958092789157, ,0.12073087692260742
0.010194970626829572,0.02006484618786388,-0.08043505590831093, ,0.010360722344028569,0.020146784918792186,-0.08055593781581219, ,0.00022090727226983705, ,0.0004915429086236595,0.0008852598294927059,-0.0009800764181065514,0.03859941630146975,0.009399406566843845,-0.015547647756100832, ,0.0014092016115731026, ,0.039727368181419864, ,1.6722241211560894e-05, ,0.18092046304445758,-0.23691027638258527,0.09107992798,1.6836005562372458,0.5138898756178215,-1.2444064049226222, ,0.00488268558242554,-0.006779147409548632,0.001266021841001227,0.009595751841091672,0.01180443129499837,-0.03127662493943184, ,0.15710687637329102
0.01021310788238767,0.020098260368899702,-0.0804776100723992, ,0.010394284160926295,0.02020526465964255,-0.08061627223467341, ,0.00025199594716789227, ,0.0006969423839792662,0.0012416369006957764,-0.001655481732972006,0.0007945289610271599,-0.002679846348849603,-0.0040302157191781955, ,0.002183577488425843, ,0.0027951480660099435, ,1.8352501501027883e-05, ,0.18105947223619362,-0.2371728493003089,0.09113177958,1.6836005562372458,0.514026512117587,-1.2449262165270214, ,0.0047234485425234,-0.00907126919534175,0.0019807115225482833,0.009595751841091672,0.0,0.010419628270655188, ,0.19228005409240723
0.010237710524435468,0.020141593750228323,-0.08053087200057536, ,0.010428360512192812,0.02026243195101051,-0.0806781936512532, ,0.0002695421253878404, ,0.0008003276172056,0.001470454903360144,-0.0016281251042955377,0.013834763159201003,-0.002618128982162818,-0.011675098976176381, ,0.0023352844094275196, ,0.01408031501874109, ,2.0063478744939184e-05, ,0.1812370950923008,-0.23749720408102634,0.09119659408000001,1.684019936124215,0.514026512117587,-1.2447628590467403, ,0.0060016772524470645,-0.01150372239684259,0.002022556038016682,0.01438128567578107,0.0,0.0, ,0.22466397285461426
0.010263527900589303,0.02018664606586631,-0.08057930416334448, ,0.010462947499390755,0.020318299802174613,-0.08074168468857665, ,0.0002889088396791319, ,0.0006032869616276925,0.0014559849331328535,-0.00104895698977523,0.010977422082374736,-0.0032659194120687827,0.0010517549664690374, ,0.0018931872728227825, ,0.011452948318204629, ,2.1611157758863173e-05, ,0.18146877707852752,-0.23799918171785095,0.09127437148,1.6844393160111841,0.513753239118056,-1.2440499507985041, ,0.0060373317809847594,-0.013042460357129025,0.0019609715999645235,0.0022638864743622297,0.0011634230047705082,0.008495447917532012, ,0.2565929889678955
0.010297200164982758,0.020257113603558006,-0.08065684315422966, ,0.010498041241904656,0.020372881164999627,-0.08080672805002488, ,0.0002760520756104379, ,0.0009147718260389648,0.0018523102850202878,-0.0024656723949158543,-0.015438273795598539,-0.0015815764792635131,-0.0011661447800209702, ,0.0032167376711128757, ,0.015519074774498988, ,2.2643457199124808e-05, ,0.1816463999346347,-0.2384239320259333,0.09135214888000001,1.6848586958981533,0.513753239118056,-1.2434781996175204, ,0.005591161352318545,-0.013420582881978614,0.0029416087756232692,0.01578124384655894,0.0009764759292358763,0.03343160709298528, ,0.2894289493560791
0.010323947138762096,0.02030842250829266,-0.08072256832542875, ,0.010533637876904967,0.020426188934042595,-0.08087330651918496, ,0.00028383294339048067, ,0.0007917320308254539,0.0016100937337776152,-0.0016483407952388874,-0.008715987708158277,-0.0030738769638175316,0.0007566761022570753, ,0.00243644593977246, ,0.00924214051533982, ,2.3553023433197053e-05, ,0.18182402279074186,-0.23882551413539296,0.09143122257000001,1.6848586958981533,0.513753239118056,-1.2430698059168175, ,0.005928616117653808,-0.013189290001177313,0.002080022397492818,0.010757679209184329,0.0008397919438721037,0.025103009425825357, ,0.3254659175872803
0.010352193635890409,0.02036812224664003,-0.08078212967567877, ,0.01056973355931198,0.02047823594665852,-0.08094140295970073, ,0.0002912329380704815, ,0.0007594955577039739,0.0013855817215373603,-0.0015735183407573194,-0.013986762873621564,-0.008625894141962187,0.0018905378264809996, ,0.0022299395009574077, ,0.016432759519375006, ,2.43700927854827e-05, ,0.18205570477696859,-0.23930432357359488,0.09150770368000001,1.6854877657286067,0.514026512117587,-1.2428025692833669, ,0.005132353080416299,-0.010965849612111368,0.0019259389078301653,0.008428664038070834,-0.0051275195452320154,0.027503948706223545, ,0.3593409061431885
0.010380180214009804,0.02041229891504353,-0.08084676643210768, ,0.010606324461759653,0.020529034983106684,-0.08101100031512284, ,0.0003028882610921532, ,0.0010882863506145612,0.0014818650007996776,-0.002523323579723827,-0.006451653172878119,-0.01229969120359411,0.006060781511678957, ,0.0031220911180680263, ,0.013889068804804058, ,2.5397973916990238e-05, ,0.1822487730988242,-0.23961323288856387,0.09158418479000001,1.6856974556720912,0.514026512117587,-1.2423124968425234, ,0.007036066453010897,-0.009722999821987278,0.0029056569719080635,0.0,-0.005114784657324496,0.01662703080803464, ,0.38942408561706543
0.010415323161653082,0.02045920168101953,-0.08092458087342805, ,0.010643406774559397,0.02057859876665635,-0.08108208160875936, ,0.00030180172326358366, ,0.0012914271778631853,0.0012595980378800912,-0.0023804126998457405,-0.01804060092133011,-0.01692195819618004,0.018124916222877926, ,0.002986760116638418, ,0.02473491359838421, ,2.6270698978296976e-05, ,0.1824959005507994,-0.23989125127203595,0.09167492509000001,1.686326525502545,0.514026512117587,-1.2419857818819613, ,0.009926075664971987,-0.00796683783479903,0.002742563966942149,-0.009697939569065396,-0.0043549859140750895,0.025337754568799255, ,0.4195559024810791
0.010451853945637166,0.02050066735493447,-0.0809981942557571, ,0.010680976705664143,0.020626939963692584,-0.08115462994352646, ,0.0003048182003962845, ,0.0012336618785315297,0.0014182929023865236,-0.0021158352006282423,-0.0022805525455244524,-0.009549522186930573,-0.010688220731768823, ,0.002830235853019936, ,0.00981805957759338, ,2.7052951941684653e-05, ,0.18277391893427147,-0.2401615469226338,0.09176048023000001,1.6861168355590603,0.514026512117587,-1.2417407456615397, ,0.009686429675950632,-0.009119431490628768,0.0025219777580747314,0.017153721570690294,-0.0037842483623423545,0.014877942061370381, ,0.4495880603790283
0.010493376250808636,0.02054519279834926,-0.08106498871295967, ,0.010719030480631908,0.020674071183822324,-0.08122862850179813, ,0.0003070951809624728, ,0.0014897470688198739,0.001531247621381086,-0.0025214470766895657,-0.007050734097014736,-0.011277881075603555,-0.009349339361168066, ,0.0033048087641479344, ,0.013300505733254859, ,2.775583229384741e-05, ,0.18312144191361157,-0.24043956530610588,0.09184085021,1.6867459053895137,0.514026512117587,-1.2412506732206963, ,0.011887007090915025,-0.009138306132655667,0.0029745679775910368,0.017710760709223772,-0.0033393676728564778,0.02010270085599069, ,0.4797070026397705
0.010541839431519536,0.020592335150594863,-0.08115096216450605, ,0.010757564342589612,0.02072000497998018,-0.08130406054525662, ,0.00029372765749910543, ,0.001598213137283483,0.0016346712836538778,-0.0028507915256998067,0.003801065750180352,-0.00865350533958604,-0.010404158849053212, ,0.0036542369601313433, ,0.009451521322578087, ,2.8279051265733e-05, ,0.18349985582444858,-0.24072530642245218,0.09194066454000001,1.6867459053895137,0.5138898756178215,-1.2410575765768592, ,0.012816982922537922,-0.009399234330400337,0.0033470921454086997,0.0159337393729487,0.0005549065447298682,0.00881473427694247, ,0.5105419158935547
0.010572169672434614,0.020625408056946137,-0.08120996502359935, ,0.010796574552197024,0.02076475384853406,-0.08138090941474313, ,0.0003146375447367379, ,0.0015973074051684121,0.0016350221326946169,-0.0029798265638437405,0.006240502167399817,-0.010657808432965904,-0.0023911236547076243, ,0.0037555365357823233, ,0.012350414878059037, ,2.9089358112098327e-05, ,0.1837315378106753,-0.2409183747443078,0.09200936791000001,1.6869555953329984,0.5138898756178215,-1.2407308616162969, ,0.012562475715974422,-0.009545313082431535,0.0034718420924149964,0.006067904385305961,0.0005640236426599503,0.004522787327346434, ,0.5363268852233887
0.01061755437906357,0.020674748714481456,-0.08129382204773718, ,0.010836057387610221,0.02080833022939091,-0.08145915853010771, ,0.0003048339519674676, ,0.0015794589597736496,0.00168773966293089,-0.003252950851080064,-0.003777203513006969,-0.00977548783509878,0.0002107950343032863, ,0.003990594569106444, ,0.010479858225596208, ,2.9759612715957792e-05, ,0.18408678352288962,-0.24121183859352835,0.09210788595000001,1.6873749752199676,0.5138898756178215,-1.2403224679155942, ,0.011703385607825493,-0.009316679530342346,0.0037461927375352783,0.007008456597126192,0.0005614922276061065,0.015095771651388826, ,0.5631358623504639
0.010646250483668279,0.02070633492685079,-0.08135012477236327, ,0.010876009144445585,0.020850746506102812,-0.08153879139005946, ,0.00033051299377961604, ,0.0014943091291592053,0.001540110235506708,-0.003045595707657546,-0.007615353584166123,-0.010066076846273723,0.002548029922354305, ,0.0037256613541092457, ,0.01262218336996114, ,3.053300325246356e-05, ,0.18442658376935553,-0.24148985697700043,0.09220770028000001,1.6873749752199676,0.514026512117587,-1.2400254921185878, ,0.011088767063344477,-0.008310684447388365,0.0034985309729848456,0.005180063758754014,0.00012990479328982166,0.017742372730602328, ,0.589526891708374
0.010691183873409569,0.02075568834662468,-0.08144073471513823, ,0.010916426135743224,0.020892015005972642,-0.08161979157201668, ,0.00031840287810468875, ,0.0014113991580649418,0.0013990391001807631,-0.0028394514955072613,-0.010824839310374172,-0.007272187904836014,-0.005471824863712539, ,0.0034658105520295607, ,0.013040776926015199, ,3.116737813329655e-05, ,0.18465054302270803,-0.24166747983310757,0.09227899623000001,1.6880040450504212,0.514026512117587,-1.2396987771580255, ,0.010478902557251632,-0.006793152485183226,0.003255428473329246,0.0145521616481962,0.00012990479328982166,0.021338850384677522, ,0.6173310279846191
0.010730805884235554,0.020796690430254474,-0.0815195350322806, ,0.010957304691930864,0.020932148000159113,-0.08170214273195754, ,0.0003209299535929482, ,0.0016435045553451245,0.0015546514671496768,-0.0033766895275224094,-0.01915483986530612,-0.008901754846271648,0.0008190838162711216, ,0.004064490198417303, ,0.021122242522271403, ,3.176481014876092e-05, ,0.18497489780342546,-0.24189916181933432,0.09237103282,1.6880040450504212,0.5142997851171178,-1.2393498617844343, ,0.01214914115458594,-0.007124372295200051,0.0038447529616220132,0.011330891350144028,0.0011436572946102502,0.02999485294929427, ,0.642611026763916
0.010766476424784392,0.0208304737642632,-0.08160318388775441, ,0.010998641160787477,0.02097115770378343,-0.08178582860426976, ,0.0003271872979705802, ,0.001727126332152474,0.0017445374078518612,-0.004415960229284326,0.008292193480664907,-0.007472386665053716,-0.007477675856414712, ,0.005052433164449563, ,0.011162304131027964, ,3.235047286903608e-05, ,0.1852143025225264,-0.24203817101107036,0.09246436570000001,1.6880040450504212,0.5142997851171178,-1.2391048255640127, ,0.010809882391299206,-0.006441999398022222,0.004902681292705448,0.009305689947857906,0.0011436572946102502,-0.0002284490512953043, ,0.6677489280700684
0.010797498505793722,0.020860172198120468,-0.08167501247008511, ,0.011040431907406816,0.021009056276034412,-0.08187083300160075, ,0.00034572935489868484, ,0.0015866186814625764,0.0013486788905647906,-0.0032865612763609436,0.002790847459618965,-0.010653490054797434,0.002319961550001558, ,0.0038907298304426633, ,0.01101297777656341, ,3.3170075667330504e-05, ,0.18542281631013047,-0.24215401200418374,0.09254473568,1.6882137349939055,0.5142997851171178,-1.2391865043041532, ,0.011699783202869041,-0.005608665640742646,0.0037009320446096663,0.0,0.0011436572946102502,0.002974535210480909, ,0.6887960433959961
0.010834239379136499,0.02089206509695604,-0.0817455158370939, ,0.011082673314161124,0.021045855820273896,-0.08195713981470788, ,0.00036077100015330133, ,0.001872792820083119,0.0015784148503457062,-0.003769450501709794,0.007480684974963379,-0.010413794540541962,-0.008065672444599646, ,0.0044952756836023925, ,0.012822159087542733, ,3.4016937165494474e-05, ,0.18570083469360257,-0.24228529846304556,0.09262510566000001,1.6886331148808746,0.5142997851171178,-1.2391048255640127, ,0.013945178774205848,-0.006228712369060537,0.004259040513368985,0.01016827994507808,0.0011436572946102502,0.0005786918966678491, ,0.71002197265625
0.010890318468551726,0.020938681345189357,-0.08186298342265774, ,0.01112536178066476,0.02108156838414321,-0.08204473301230894, ,0.00032968921397043537, ,0.0018546738904542813,0.0014630534158528677,-0.0038085599072834363,-0.0016062432570156516,-0.011044711859167361,0.0037879067735510654, ,0.004481681504183266, ,0.011160899455304851, ,3.4654437627309036e-05, ,0.1861178622688107,-0.24245519858627848,0.09275732724,1.6888428048243591,0.5144364216168833,-1.2388078497670065, ,0.013831357172200959,-0.0052799769481074186,0.0042738963026562925,0.0004671797779951629,0.002919502846378204,0.007520264513521198, ,0.7326788902282715
0.010929008497697484,0.02096843520930803,-0.0819399081012728, ,0.011168493723737797,0.0211162059596677,-0.08213359664093123, ,0.0003416205768809206, ,0.002086094647030369,0.0015910129031853518,-0.004086087519818113,0.0022062401353293865,-0.01199490005063681,0.003097450504898477, ,0.004855844329679894, ,0.01219611092194831, ,3.531302851951133e-05, ,0.18641904885090543,-0.24256331684651763,0.09284417867000001,1.6888428048243591,0.5145730581166488,-1.2387559101904217, ,0.016054295645148164,-0.005850800741365292,0.004607697865201043,0.0004671797779951629,0.004175491174048007,0.004165033308934859, ,0.7555129528045654
0.010972651778360343,0.021002836468815237,-0.08202440173762895, ,0.011212065577369555,0.021149780483363204,-0.08222371482476304, ,0.0003444375375455112, ,0.0021695324850859268,0.0016268812547631146,-0.00445587420895222,-0.004797051421616116,-0.009951944385879815,-0.0017516649166828546, ,0.005216169934630993, ,0.011047755321544166, ,3.5947283861274215e-05, ,0.1867588490973713,-0.24267915783963098,0.09294010413,1.6892621847113283,0.5147096946164142,-1.2384589343934151, ,0.016174696021556294,-0.004770171666198774,0.00498554351173709,0.008200608632085065,0.0046405714837648385,0.01198319602555347, ,0.7773189544677734
0.011013536237140215,0.0210329009617732,-0.08210439479346676, ,0.011256073792682206,0.021182303836341215,-0.08231507176550261, ,0.00035430279609913347, ,0.0021095520742034695,0.0016158923678243067,-0.00424978692058298,0.002736661038147274,-0.00491829831951513,-0.0012327714167143496, ,0.005012185847365116, ,0.005628407466702026, ,3.6763014593950675e-05, ,0.18709092661096297,-0.24277955336699591,0.09303084443000001,1.6892621847113283,0.514982967615945,-1.238518412720527, ,0.016443760450263523,-0.005252031523306887,0.004800726799276674,0.006730428903666148,0.0103683366940492,0.0046492001233606715, ,0.7964260578155518
0.011060198209750974,0.0210658347172881,-0.08219614735951605, ,0.0113005148378943,0.0212137878444143,-0.08240765174220817, ,0.00035267026169861907, ,0.0022732381500593585,0.0017096334499337718,-0.004706471262191496,0.003970640054230508,-0.006027669117875495,-0.0008287957155221228, ,0.005499211758229734, ,0.007217948124333338, ,3.753404285298659e-05, ,0.18743844959030306,-0.24287994889436082,0.09313325134000001,1.6892621847113283,0.514982967615945,-1.2382733765001053, ,0.017326445418745805,-0.0050223037039711935,0.005284940783012609,0.005651347083835712,0.0103683366940492,0.002894087153111207, ,0.815701961517334
0.011108499522418158,0.021103337677865347,-0.08229669683207791, ,0.011345385198284404,0.021244244278202193,-0.082501439111149, ,0.00034334952204469605, ,0.0024085479986088007,0.001736265348364296,-0.005174280951427282,0.00032843090128430554,-0.009041259800762333,-0.011501400893855812, ,0.005965643652267228, ,0.009047222885109963, ,3.822903976271767e-05, ,0.1877936953025174,-0.24297262168885153,0.09324602857000001,1.6898912545417817,0.5151196041157104,-1.2380580794432396, ,0.01721018163918585,-0.003455186126628139,0.005735978221101909,0.016309330421864204,0.0045316041365862925,0.00673347745451598, ,0.8338398933410645
0.011155121294021337,0.021137397837832812,-0.08240180676377762, ,0.0113906813761545,0.0212736848532366,-0.08259641830565424, ,0.00033456890933535895, ,0.0024494725520753627,0.0016630219619135748,-0.005476973793149324,-0.0034003548553533823,-0.010808073949424922,0.01446031223312868, ,0.00622597781557419, ,0.011330351746975593, ,3.8855344175476496e-05, ,0.1881334955489833,-0.24303440355184533,0.09336269467000001,1.6901009444852664,0.5153928771152414,-1.2381175577703512, ,0.017622458970932363,-0.0030739416126368355,0.0060359270632815475,-0.009991837722521412,0.009671721769697548,0.005626634238555947, ,0.8530499935150146
0.011205673757300524,0.02117154237982021,-0.0825082745714754, ,0.011436399890793623,0.021302121230067375,-0.08269257383596369, ,0.00032288016925706615, ,0.0023536914479720256,0.00158686943362821,-0.005037730199833096,0.001257551117021835,-0.011681676401888143,0.012666123989305219, ,0.00578245134851566, ,0.011749169976030364, ,3.940493156171446e-05, ,0.18850418672694605,-0.24310390814771335,0.09348065706000001,1.6901009444852664,0.5155295136150068,-1.2379839394536258, ,0.018281052120684028,-0.0023436724633325036,0.005756708174918685,-0.009991837722521412,0.002973747233015956,0.006416810479722182, ,0.8718359470367432
0.011229920107855142,0.021187801420055642,-0.08256223599822161, ,0.011482537278441353,0.021329565014367485,-0.0827898902890778, ,0.0003684275066989778, ,0.0024615075646231724,0.0016468344233508954,-0.005491347081261269,0.0048820801333724784,-0.0069672644526192025,0.0125928653201819, ,0.006239068510243115, ,0.008507495247605084, ,4.0290678538404035e-05, ,0.188674086850179,-0.243127076346336,0.09353639753000001,1.6901009444852664,0.5156661501147722,-1.2380136786171818, ,0.017962699518923108,-0.002789040795558941,0.006077379442960704,-0.009991837722521412,0.013949448016865838,-0.003100097114647723, ,0.8876478672027588
0.011280954506541985,0.021219735955437306,-0.08267457468864559, ,0.011529090092251176,0.021356027757039018,-0.082888352328607, ,0.0003547500576836549, ,0.0026625181416175606,0.0017175179652895453,-0.005994115371745986,-0.0048908401186727,-0.011596549837988055,-0.005630633120298613, ,0.006779991880919658, ,0.012585717201392094, ,4.109062623894139e-05, ,0.18904477802814176,-0.24316569001070715,0.09366343395000001,1.6898912545417817,0.5158027866145377,-1.237798381560316, ,0.018334030440199146,-0.0011410520239999418,0.006584874543199669,0.01046411119651358,0.004446554691779195,0.008719360843493944, ,0.9038479328155518
0.011308087503092805,0.021237494458496365,-0.08273583486508547, ,0.011576054902254182,0.02138152095431805,-0.08298794469462212, ,0.0003951069787551012, ,0.002858486318680374,0.001738273304426355,-0.00612556758468864,-0.005389665018339077,-0.013192396282719203,0.0001553677126160997, ,0.0069796215047488366, ,0.014250887693956332, ,4.2028611904792344e-05, ,0.18923784634999738,-0.24317341274358137,0.09373084103000001,1.6901009444852664,0.5159394231143032,-1.2378281207238717, ,0.020429912068562064,-0.0012050005300210979,0.006721017518987343,0.004746836655668217,0.006483535242888501,0.008384083479325712, ,0.918428897857666
0.011367357877310271,0.02127613705775713,-0.08287033613557282, ,0.011623428295322445,0.021406056047880782,-0.08308865220350481, ,0.0003607116694715663, ,0.0029098983056194175,0.0018423025339960638,-0.006623608440748184,0.007871128355767882,-0.003342193758983414,-0.009340104901492837, ,0.007465505713089078, ,0.008551310307002374, ,4.279900079220193e-05, ,0.1896548739252055,-0.2431888582093298,0.09387861809,1.6905203243722353,0.516212696113834,-1.237805920310843, ,0.020567174156582307,-0.00049485454029441,0.007266793576642336,0.012365422567558957,0.014704541121277968,-0.004305900602425558, ,0.9336459636688232
0.011396984519850242,0.02129236884687843,-0.0829322119476298, ,0.011671206875132463,0.0214296444249483,-0.08319045974779653, ,0.00040091696242725824, ,0.002874270930209025,0.0016931157797913615,-0.006059574591434075,0.0017285462464977257,-0.0046856779507502885,-0.0073609305622114665, ,0.006917117799573504, ,0.004994340979012429, ,4.370341401762891e-05, ,0.18986338771280958,-0.2431888582093298,0.09394602517,1.6905203243722353,0.516212696113834,-1.2377242415707024, ,0.02134434133119001,-0.0003947555050894843,0.006681548456375841,0.012365422567558957,0.014236188635656977,0.0020693609621416, ,0.9483308792114258
0.011455002137606692,0.021326660132685936,-0.08305930254945088, ,0.011719387262128685,0.021452297418392958,-0.08329335229604906, ,0.00037478461215878695, ,0.0030658254258112065,0.0017839990562107221,-0.006586591914957379,0.010600480530543657,-0.005477596247382653,-0.01075113446672689, ,0.0074809846429659994, ,0.011932067537989446, ,4.4478495242777245e-05, ,0.19029586075376614,-0.24319658094220403,0.09408602449,1.6905203243722353,0.5166226056131303,-1.2378951378015106, ,0.022333947177799667,0.00011903402952928668,0.007237079291231259,0.012365422567558957,0.014254327623487897,-0.00786779293950988, ,0.9642159938812256
0.011486923215815504,0.02134409563401083,-0.08312804740048539, ,0.011767966093486874,0.021474026306842628,-0.08339731489267471, ,0.0004103316477951148, ,0.00326910573439742,0.0019125345742604253,-0.007053975345579443,0.00463757916918125,-0.00809750748811671,-0.009000116949900378, ,0.008006460452438033, ,0.009331492410407132, ,4.5539400078282155e-05, ,0.19052754273999287,-0.2431888582093298,0.09416120931000001,1.6905203243722353,0.5167592421128957,-1.2379248769650664, ,0.023489341969918507,3.232710362476542e-05,0.007739947288629739,0.012365422567558957,0.012853371281651777,-0.0015597180760662938, ,0.9756529331207275
0.01152076528293466,0.021362489019521487,-0.08320090052412767, ,0.011816940023077718,0.02149484231478706,-0.08350233265779564, ,0.0004428297671499612, ,0.0033941428120379496,0.0019873340875254143,-0.007475861651557602,-0.001697250575564202,-0.008944844931874264,-0.005980161682529953, ,0.008447378861941668, ,0.009104443257030437, ,4.669929237720304e-05, ,0.19075922472621962,-0.2431811354764556,0.09424028300000001,1.6905203243722353,0.5167592421128957,-1.2377615194847853, ,0.023963874130926963,0.0003507467623645501,0.008181207765793529,0.01128380286860991,0.012853371281651777,0.00461627821585521, ,0.9871540069580078
0.01155514955413343,0.021382732823187086,-0.08327742932997878, ,0.011866305721430083,0.021514756612682928,-0.08360839078709431, ,0.0004730580593707498, ,0.0037120341003965456,0.0022365731366994403,-0.00845829210654632,0.0024611541309178483,-0.00973876258493129,-0.006189830424640285, ,0.009503902457305428, ,0.010044935691641768, ,4.794633425824851e-05, ,0.19101407491106903,-0.2431811354764556,0.09432454185000001,1.6905203243722353,0.5170325151124266,-1.2379026765520376, ,0.02550993052647064,0.00034318467489167994,0.00923409363478261,0.010187661454825971,0.013822173499178832,7.70638575961248e-05, ,0.9981100559234619
0.011593597666997704,0.021406697273937705,-0.08337131101157405, ,0.011916059875694626,0.021533780317059322,-0.08371547455166267, ,0.0004884470475016508, ,0.004121901571969488,0.002641494572655697,-0.01001871036133358,0.009587881515470385,-0.00345060301050902,-0.005382728376162385, ,0.011150879940644454, ,0.010189898534912268, ,4.9222660349829645e-05, ,0.19127664782879267,-0.24317341274358137,0.09442694876,1.6905203243722353,0.5173057881119575,-1.2380438336192898, ,0.027530299262683716,0.00030363351937109316,0.010925110781893005,0.00925736053790173,0.022543119309610577,-0.006953938453905786, ,1.010650873184204
0.011634006221661213,0.021433130400613235,-0.08347102080824625, ,0.011966199189606926,0.021551924490623164,-0.0838235692978531, ,0.0004987530865046746, ,0.00423132030799146,0.0026712648959016467,-0.010244905938412424,0.0021271025221999617,-0.006585680076145302,-0.004154944882744807, ,0.011401658887188984, ,0.006920667189320013, ,5.050868637713802e-05, ,0.19184813006148527,-0.24316569001070715,0.09465639209000001,1.6909397042592043,0.5175790611114884,-1.2379399544661205, ,0.027878067437858627,0.0006348809436566942,0.011154629915966389,0.009724377969280995,0.01967644499745249,0.0004956285510206498, ,1.0227899551391602
0.011681524775897243,0.021463067368268134,-0.08358213134991684, ,0.012016720383451326,0.02156920014236445,-0.08393266044712767, ,0.0004964785081475094, ,0.00423132030799146,0.0026712648959016467,-0.010244905938412424,0.0021271025221999617,-0.006585680076145302,-0.004154944882744807, ,0.011401658887188984, ,0.006920667189320013, ,5.194672686947705e-05, ,0.19184813006148527,-0.24316569001070715,0.09465639209000001,1.6909397042592043,0.5175790611114884,-1.2379399544661205, ,0.027878067437858627,0.0006348809436566942,0.011154629915966389,0.009724377969280995,0.01967644499745249,0.0004956285510206498, ,1.0308740139007568
0.011724913305633435,0.021489185656852115,-0.08368688131736396, ,0.012067620194023939,0.021585618227661953,-0.08404273349590781, ,0.0005033666904332262, ,0.004475123636869526,0.002628066422250068,-0.01012402941026766,0.0018843641682074848,-0.013049096678546146,-0.004499437669272186, ,0.011376705858243463, ,0.013184447128615029, ,5.3388868518192835e-05, ,0.1921415939107058,-0.24315024454495868,0.09477046561000001,1.6909397042592043,0.5178523341110194,-1.2380811115333727, ,0.03057246828558981,0.0008012172139727019,0.011046332538141471,0.008924428216598189,0.015958312419100524,0.00014028027437383572, ,1.0382299423217773
0.011768004741385084,0.02151465359887106,-0.08378854936155641, ,0.012118895374596272,0.021601189648388263,-0.08415377401542486, ,0.0005138110276499681, ,0.004634095512911997,0.0027652901038944344,-0.01076174922904725,0.030338137575487777,0.015911405439393827,-0.004789358897540533, ,0.012038974916926551, ,0.034257484879319566, ,5.484776920139564e-05, ,0.19245050322567478,-0.24313479907921023,0.09488194655000001,1.6909397042592043,0.5182622436103156,-1.238415365244462, ,0.03398887591635773,0.0013685339574963386,0.011851794285714288,0.00823087640315133,0.04919618135378,-0.028216053890181704, ,1.0473339557647705
0.011820758033982536,0.021544480085297697,-0.083909892693358, ,0.012170542694878625,0.021615925253015256,-0.08426576765156944, ,0.0005040840275890326, ,0.005153248554628526,0.0030791535108345876,-0.012279841312644705,0.020734097283091432,-0.00261414765529528,-0.006318124062524119, ,0.013668637813359514, ,0.02089823626235703, ,5.6251286956506816e-05, ,0.19281347167076332,-0.24311163088058757,0.09501416813,1.6909397042592043,0.5185355166098464,-1.2384748435715736, ,0.03479902514062001,0.002020716506313117,0.013385555899159665,0.007604623405993107,0.031117777202348318,-0.020213994700923867, ,1.0547869205474854
0.011877387785154219,0.021576164879399312,-0.08404157148903613, ,0.012222558940983366,0.0216298358367198,-0.08437870012474175, ,0.0004854682435431371, ,0.005812256022979,0.00316574447412956,-0.013374633763859308,-0.01221851483457171,-0.03138084999942408,-0.0028237517101183207, ,0.014922636713044479, ,0.033675650305269256, ,5.7569186849192765e-05, ,0.19281347167076332,-0.24311163088058757,0.09501416813,1.6909397042592043,0.5185355166098464,-1.2384748435715736, ,0.03479902514062001,0.002020716506313117,0.013385555899159665,0.007604623405993107,0.031117777202348318,-0.020213994700923867, ,1.0630290508270264
0.011877387785154219,0.021576164879399312,-0.08404157148903613, ,0.012274940915388388,0.021642932141488616,-0.08449255722970114, ,0.000604892136607066, ,0.005812256022979,0.00316574447412956,-0.013374633763859308,-0.01221851483457171,-0.03138084999942408,-0.0028237517101183207, ,0.014922636713044479, ,0.033675650305269256, ,5.9287621105012694e-05, ,0.1931841628487261,-0.24308073994909066,0.09515676003000001,1.6909397042592043,0.5186721531096119,-1.238422903994989, ,0.03739044190641086,0.00401432031863392,0.014441352239347238,0.007078998931495501,0.004668163753191545,0.010529248813217344, ,1.0710570812225342
0.011932764653146475,0.021608333081780447,-0.08417962971500585, ,0.012327685436900498,0.0216552248562239,-0.0846073248354158, ,0.0005840242974173514, ,0.0055998478426651285,0.003436004253686286,-0.014354816576402696,0.03628048782358293,0.021828654077382124,-0.00405021774119093, ,0.015786867328083716, ,0.04234103595835571, ,6.090939481653647e-05, ,0.19356257675956312,-0.24303440355184533,0.09530712967,1.6909397042592043,0.5192186991086737,-1.2387052181294935, ,0.037642578960123275,0.004103812834705032,0.015647162593320236,0.006629377416464416,0.059356024638600915,-0.03690879843476437, ,1.0786309242248535
0.011991038822753953,0.021641701746868684,-0.0843250451981748, ,0.012380789340618783,0.02166672461684883,-0.08472298888491336, ,0.0005575758136908641, ,0.005774994420089405,0.0031433842311372447,-0.014126370994662709,0.03609946495729465,0.021276288326916703,-0.004456854576169078, ,0.015581584722212114, ,0.04190287881081103, ,6.241720458836273e-05, ,0.19395643613614857,-0.24298034442172575,0.09546527705,1.6909397042592043,0.5197652451077354,-1.2391508897442793, ,0.04024467411300712,0.006774672118324746,0.015390156057971019,0.006223895242154529,0.061531200888575846,-0.039415263641823683, ,1.087475061416626
0.011991038822753953,0.021641701746868684,-0.0843250451981748, ,0.012434249477897924,0.021677442006412518,-0.08483953539512987, ,0.0006800097159219678, ,0.005774994420089405,0.0031433842311372447,-0.014126370994662709,0.03609946495729465,0.021276288326916703,-0.004456854576169078, ,0.015581584722212114, ,0.04190287881081103, ,6.454683393778896e-05, ,0.19395643613614857,-0.24298034442172575,0.09546527705,1.6909397042592043,0.5197652451077354,-1.2391508897442793, ,0.04024467411300712,0.006774672118324746,0.015390156057971019,0.006223895242154529,0.061531200888575846,-0.039415263641823683, ,1.0912840366363525
0.012054926905357321,0.021672213136664592,-0.08446808223177908, ,0.012488062716311631,0.021687387555195527,-0.08495695045676017, ,0.0006533215403650519, ,0.006417202537353251,0.0030513092059333484,-0.014392303064871294,-0.007471059662191419,-0.01958233621510316,-0.000497144779445162, ,0.0160508368562742, ,0.020959103191614016, ,6.657011471588952e-05, ,0.1943811864442309,-0.2429031170929835,0.09561953556000001,1.6909397042592043,0.5199018816075008,-1.2389355926874135, ,0.04337154550204332,0.008354041512234166,0.015555480000000002,0.005867389268823965,0.023263689701544937,0.0021594392218051445, ,1.0950560569763184
0.012054926905357321,0.021672213136664592,-0.08446808223177908, ,0.012542225939616028,0.021696571740815452,-0.08507522023410798, ,0.0007788903929678213, ,0.006417202537353251,0.0030513092059333484,-0.014392303064871294,-0.007471059662191419,-0.01958233621510316,-0.000497144779445162, ,0.0160508368562742, ,0.020959103191614016, ,0.0003731628476905865, ,0.1943811864442309,-0.2429031170929835,0.09561953556000001,1.6909397042592043,0.5199018816075008,-1.2389355926874135, ,0.04337154550204332,0.008354041512234166,0.015555480000000002,0.005867389268823965,0.023263689701544937,0.0021594392218051445, ,1.0987880229949951
0.012125150743057561,0.0217034106477712,-0.08462638305723143, ,0.012596736047712838,0.021705004988331982,-0.0851943309649349, ,0.0007382141067152401, ,0.008026043780165627,0.0036093018519171433,-0.01817042536868707,-0.008443079920907828,-0.02976365954020053,-0.0025191907069894597, ,0.020189323829648543, ,0.030937987120123578, ,0.0003798001433092166, ,0.19486771861530705,-0.24278727609987014,0.09579064584000001,1.6909397042592043,0.5203117911067973,-1.2391881676583623, ,0.05307435210205301,0.012999581035406957,0.01954455401226994,0.005550956274228532,0.022771027670041386,-0.0017404905789173619, ,1.1038398742675781
0.012125150743057561,0.0217034106477712,-0.08462638305723143, ,0.012651589956613009,0.021712697670352207,-0.0853142689603113, ,0.0008662629566207435, ,0.008026043780165627,0.0036093018519171433,-0.01817042536868707,-0.008443079920907828,-0.02976365954020053,-0.0025191907069894597, ,0.020189323829648543, ,0.030937987120123578, ,0.00038848697926120815, ,0.19486771861530705,-0.24278727609987014,0.09579064584000001,1.6909397042592043,0.5203117911067973,-1.2391881676583623, ,0.05307435210205301,0.012999581035406957,0.01954455401226994,0.005550956274228532,0.022771027670041386,-0.0017404905789173619, ,1.1077640056610107
0.012125150743057561,0.0217034106477712,-0.08462638305723143, ,0.0127067845983998,0.02171966010713617,-0.08543502060446512, ,0.0009962211950194841, ,0.008026043780165627,0.0036093018519171433,-0.01817042536868707,-0.008443079920907828,-0.02976365954020053,-0.0025191907069894597, ,0.020189323829648543, ,0.030937987120123578, ,0.0003991489830464411, ,0.19486771861530705,-0.24278727609987014,0.09579064584000001,1.6909397042592043,0.5203117911067973,-1.2391881676583623, ,0.05307435210205301,0.012999581035406957,0.01954455401226994,0.005550956274228532,0.022771027670041386,-0.0017404905789173619, ,1.111595869064331
0.012205129507847289,0.021745576398004434,-0.08483476689015346, ,0.012762316921192202,0.021725902566702007,-0.08555657235463272, ,0.0009120570167375726, ,0.00887879087444777,0.00505315355897961,-0.024318095786898555,0.0785205642229757,0.05190013343969727,-0.009328148016969462, ,0.026376828296510148, ,0.09412276213792105, ,0.00040799222500663304, ,0.19540058718362854,-0.2426482669081341,0.09601620030000001,1.6909397042592043,0.5212682466051554,-1.2398864142440964, ,0.05658732352920142,0.014802205827245481,0.02628516752475248,0.005274245023335497,0.10951942303760116,-0.08931049033386537, ,1.1153490543365479
0.012205129507847289,0.021745576398004434,-0.08483476689015346, ,0.01281818388910841,0.021731435264931306,-0.08567891074090767, ,0.001043366899414675, ,0.00887879087444777,0.00505315355897961,-0.024318095786898555,0.0785205642229757,0.05190013343969727,-0.009328148016969462, ,0.026376828296510148, ,0.09412276213792105, ,0.00041876128728473547, ,0.19540058718362854,-0.2426482669081341,0.09601620030000001,1.6909397042592043,0.5212682466051554,-1.2398864142440964, ,0.05658732352920142,0.014802205827245481,0.02628516752475248,0.005274245023335497,0.10951942303760116,-0.08931049033386537, ,1.1190500259399414
0.012309017773870858,0.021802753535127905,-0.08511601559330823, ,0.012874382482228955,0.02173626836567422,-0.0858020223660917, ,0.0008914386257723661, ,0.011042230905416702,0.006168606278875744,-0.030376786371926506,0.04532127362421287,0.0033581233646853698,-0.011916193384330835, ,0.032904888954044274, ,0.04544523044998898, ,0.00042663924292619596, ,0.19602612854644072,-0.24247064405202692,0.09631823587,1.6909397042592043,0.522088065603748,-1.2404732429261345, ,0.06326462770564718,0.01917884833437162,0.0325077786122449,0.005011803822435456,0.06666566669982128,-0.061962652630006124, ,1.1239590644836426
0.012309017773870858,0.021802753535127905,-0.08511601559330823, ,0.012930909696560237,0.02174041198085552,-0.0859258939055442, ,0.001023004845308945, ,0.011042230905416702,0.006168606278875744,-0.030376786371926506,0.04532127362421287,0.0033581233646853698,-0.011916193384330835, ,0.032904888954044274, ,0.04544523044998898, ,0.00043641572821115907, ,0.19602612854644072,-0.24247064405202692,0.09631823587,1.6909397042592043,0.522088065603748,-1.2404732429261345, ,0.06326462770564718,0.01917884833437162,0.0325077786122449,0.005011803822435456,0.06666566669982128,-0.061962652630006124, ,1.127985954284668
0.012309017773870858,0.021802753535127905,-0.08511601559330823, ,0.01298776254399762,0.021743876170578904,-0.08605051210703055, ,0.0011564794599083197, ,0.011042230905416702,0.006168606278875744,-0.030376786371926506,0.04532127362421287,0.0033581233646853698,-0.011916193384330835, ,0.032904888954044274, ,0.04544523044998898, ,0.00044802965936756485, ,0.19602612854644072,-0.24247064405202692,0.09631823587,1.6909397042592043,0.522088065603748,-1.2404732429261345, ,0.06326462770564718,0.01917884833437162,0.0325077786122449,0.005011803822435456,0.06666566669982128,-0.061962652630006124, ,1.1316890716552734
0.012428959456502811,0.021868250560814755,-0.08545001574843304, ,0.013044938052288957,0.02174667094323293,-0.08617586379057471, ,0.0009597221546671231, ,0.012000723198728643,0.006466108221056245,-0.0337666077497749,0.029770081051957466,-0.00383667816638146,-0.01086001156311143, ,0.03641444372424318, ,0.03001556142999237, ,0.0004561517624675578, ,0.19669800630649825,-0.2422389620658002,0.09667471562,1.6909397042592043,0.5227712481025752,-1.240948653704476, ,0.06553656184977263,0.02515825598050657,0.03595668514672686,0.004771290866001079,0.06180479391161627,-0.0521094054913407, ,1.1353790760040283
0.012428959456502811,0.021868250560814755,-0.08545001574843304, ,0.013102433264997815,0.02174880625559612,-0.08630193584830678, ,0.0010925208324543802, ,0.012000723198728643,0.006466108221056245,-0.0337666077497749,0.029770081051957466,-0.00383667816638146,-0.01086001156311143, ,0.03641444372424318, ,0.03001556142999237, ,0.0004660950291861019, ,0.19669800630649825,-0.2422389620658002,0.09667471562,1.6909397042592043,0.5227712481025752,-1.240948653704476, ,0.06553656184977263,0.02515825598050657,0.03595668514672686,0.004771290866001079,0.06180479391161627,-0.0521094054913407, ,1.1390669345855713
0.012428959456502811,0.021868250560814755,-0.08545001574843304, ,0.013160245241466875,0.021750292012942537,-0.08642871524431385, ,0.0012274142827684456, ,0.012000723198728643,0.006466108221056245,-0.0337666077497749,0.029770081051957466,-0.00383667816638146,-0.01086001156311143, ,0.03641444372424318, ,0.03001556142999237, ,0.0004778076330873688, ,0.19669800630649825,-0.2422389620658002,0.09667471562,1.6909397042592043,0.5227712481025752,-1.240948653704476, ,0.06553656184977263,0.02515825598050657,0.03595668514672686,0.004771290866001079,0.06180479391161627,-0.0521094054913407, ,1.1431329250335693
0.012551128065826542,0.021932286678281794,-0.08579420436165369, ,0.013218371056781055,0.021751138069146407,-0.08655618901448908, ,0.0010289065257477375, ,0.012760969338301167,0.006313154848275691,-0.035429766739838796,0.0460430506294496,0.01556098646143655,-0.007866638025607121, ,0.038183329265934325, ,0.04860093604327236, ,0.00048615761630949554, ,0.19737760679943,-0.2419532209494539,0.09704156569000001,1.6911493942026892,0.5235910671011678,-1.2416171611266544, ,0.07238515755794873,0.03136052265646754,0.03774599886255925,0.0,0.08978478294780663,-0.07465644149964283, ,1.1485650539398193
0.012551128065826542,0.021932286678281794,-0.08579420436165369, ,0.013276807801731098,0.02175135422678818,-0.08668434426638312, ,0.0011626249098904218, ,0.012760969338301167,0.006313154848275691,-0.035429766739838796,0.0460430506294496,0.01556098646143655,-0.007866638025607121, ,0.038183329265934325, ,0.04860093604327236, ,0.0004962541430793601, ,0.19737760679943,-0.2419532209494539,0.09704156569000001,1.6911493942026892,0.5235910671011678,-1.2416171611266544, ,0.07238515755794873,0.03136052265646754,0.03774599886255925,0.0,0.08978478294780663,-0.07465644149964283, ,1.1523010730743408
0.01268525132782653,0.02199251673726438,-0.0861550802869387, ,0.013335552582776636,0.021750950237259536,-0.08681316817905188, ,0.0009562038327993874, ,0.013381362522581404,0.005619072762198666,-0.03524549384039177,0.0355548922569369,0.005530518031711094,-0.009038409784364617, ,0.038116658795344635, ,0.03598169817051511, ,0.0005030181091046546, ,0.19814988008685247,-0.24159025250436533,0.09742526753000001,1.6911493942026892,0.5244108860997605,-1.242285668548833, ,0.07881805777281627,0.038326713068849265,0.03747955651764706,0.0,0.08611247873611924,-0.07106185464111414, ,1.156688928604126
0.01268525132782653,0.02199251673726438,-0.0861550802869387, ,0.013394602522009679,0.0217499358008683,-0.08694264800290738, ,0.001087330462475864, ,0.013381362522581404,0.005619072762198666,-0.03524549384039177,0.0355548922569369,0.005530518031711094,-0.009038409784364617, ,0.038116658795344635, ,0.03598169817051511, ,0.000511486404081049, ,0.19814988008685247,-0.24159025250436533,0.09742526753000001,1.6911493942026892,0.5244108860997605,-1.242285668548833, ,0.07881805777281627,0.038326713068849265,0.03747955651764706,0.0,0.08611247873611924,-0.07106185464111414, ,1.1603989601135254
0.01268525132782653,0.02199251673726438,-0.0861550802869387, ,0.013453954757117668,0.021748320566944396,-0.08707277105956801, ,0.0012217581945589222, ,0.013089886122352345,0.004148267117176663,-0.03095138644744856,0.047631156022267813,0.01724401709031989,-0.008277119718142168, ,0.033860619630935646, ,0.050656240919092155, ,0.0005216331439450186, ,0.19896848977152026,-0.24119639312777988,0.09777008067000001,1.6909397042592043,0.5253673415981185,-1.243065593874708, ,0.08642708702957265,0.04259288220757216,0.03304732680497926,-0.001955261971235224,0.10629252871664531,-0.08721401755578358, ,1.16485595703125
0.012815391103360222,0.022039541085678543,-0.08647873665032488, ,0.013513606441347192,0.021746114133944686,-0.08720352474170733, ,0.0010482947160097172, ,0.013089886122352345,0.004148267117176663,-0.03095138644744856,0.047631156022267813,0.01724401709031989,-0.008277119718142168, ,0.033860619630935646, ,0.050656240919092155, ,0.0005290509125656481, ,0.19896848977152026,-0.24119639312777988,0.09777008067000001,1.6909397042592043,0.5253673415981185,-1.243065593874708, ,0.08642708702957265,0.04259288220757216,0.03304732680497926,-0.001955261971235224,0.10629252871664531,-0.08721401755578358, ,1.1688339710235596
0.012815391103360222,0.022039541085678543,-0.08647873665032488, ,0.013573554743466823,0.021743326049558333,-0.08733489651290462, ,0.001181340409490823, ,0.013089886122352345,0.004148267117176663,-0.03095138644744856,0.047631156022267813,0.01724401709031989,-0.008277119718142168, ,0.033860619630935646, ,0.050656240919092155, ,0.0005381104889118312, ,0.19896848977152026,-0.24119639312777988,0.09777008067000001,1.6909397042592043,0.5253673415981185,-1.243065593874708, ,0.08642708702957265,0.04259288220757216,0.03304732680497926,-0.001955261971235224,0.10629252871664531,-0.08721401755578358, ,1.1725530624389648
0.012946505486788929,0.02207194285769585,-0.08677363625930949, ,0.013633796847730712,0.0217399658108121,-0.08746687390749425, ,0.0010310948604971284, ,0.013328370152751144,0.0024105497283458677,-0.028430022332131027,0.06583906167229506,0.04181043656301502,-0.011297567374528425, ,0.031491623818517916, ,0.07799279501536949, ,0.0005448636994814927, ,0.19987977225067877,-0.24070986095670374,0.09808507914,1.6909397042592043,0.5265970700960074,-1.2440683550079759, ,0.09793286022546002,0.054195854687875945,0.030691351676300584,-0.001955261971235224,0.14130689168189245,-0.11557598034856394, ,1.1780588626861572
0.012946505486788929,0.02207194285769585,-0.08677363625930949, ,0.013694329953841837,0.02173604286417556,-0.08759944453041593, ,0.0011636277496681242, ,0.013328370152751144,0.0024105497283458677,-0.028430022332131027,0.06583906167229506,0.04181043656301502,-0.011297567374528425, ,0.031491623818517916, ,0.07799279501536949, ,0.0005532253758353662, ,0.19987977225067877,-0.24070986095670374,0.09808507914,1.6909397042592043,0.5265970700960074,-1.2440683550079759, ,0.09793286022546002,0.054195854687875945,0.030691351676300584,-0.001955261971235224,0.14130689168189245,-0.11557598034856394, ,1.1818859577178955
0.01308219786429902,0.0220890706958538,-0.08705330267443019, ,0.01375515127691513,0.02173156660566677,-0.08773259605706418, ,0.0010208403252920874, ,0.013524094215463639,0.0014840881163199458,-0.027038481067289535,0.013775870814462837,-0.012636898284259377,-0.006934272158993109, ,0.03026851665199195, ,0.01869361825577173, ,0.0005594602418281225, ,0.20086055932570526,-0.24012293325826267,0.09838192955000001,1.6905203243722353,0.527690162094131,-1.2449596982375473, ,0.09723047290826925,0.060099393007264586,0.028648941582733817,-0.0068367841747277065,0.08795002240170068,-0.07194094750216233, ,1.1855800151824951
0.01308219786429902,0.0220890706958538,-0.08705330267443019, ,0.013816258047441058,0.021726546380956845,-0.08786631623313794, ,0.0011538020965523794, ,0.013524094215463639,0.0014840881163199458,-0.027038481067289535,0.013775870814462837,-0.012636898284259377,-0.006934272158993109, ,0.03026851665199195, ,0.01869361825577173, ,0.0005672805293902838, ,0.20086055932570526,-0.24012293325826267,0.09838192955000001,1.6905203243722353,0.527690162094131,-1.2449596982375473, ,0.09723047290826925,0.060099393007264586,0.028648941582733817,-0.0068367841747277065,0.08795002240170068,-0.07194094750216233, ,1.1892919540405273
0.01308219786429902,0.0220890706958538,-0.08705330267443019, ,0.013877647511248589,0.021720991485475964,-0.08800059287449116, ,0.0012905739688511156, ,0.014713844508550645,0.00041963921964649703,-0.028106712460512374,-0.03384480533844974,-0.06422561796886153,0.019284163751738696, ,0.031727915195209296, ,0.07259740567709769, ,0.0005766739506819829, ,0.20086055932570526,-0.24012293325826267,0.09838192955000001,1.6905203243722353,0.527690162094131,-1.2449596982375473, ,0.09723047290826925,0.060099393007264586,0.028648941582733817,-0.0068367841747277065,0.08795002240170068,-0.07194094750216233, ,1.1938159465789795
0.013222328670205376,0.022096649828315374,-0.08732556144103086, ,0.013939316929468704,0.021714911164517983,-0.08813541386698183, ,0.0011470211520185423, ,0.014713844508550645,0.00041963921964649703,-0.028106712460512374,-0.03384480533844974,-0.06422561796886153,0.019284163751738696, ,0.031727915195209296, ,0.07259740567709769, ,0.0005839860942888619, ,0.20186451459935445,-0.23945877823107936,0.09866840964000001,1.6901009444852664,0.5283733445929583,-1.2454351090158888, ,0.10416788315968253,0.07244041340341281,0.029443274528650653,-0.03736169124960961,0.0497095617935775,-0.04342065091334531, ,1.1981780529022217
0.013222328670205376,0.022096649828315374,-0.08732556144103086, ,0.014001263578497652,0.021708314613346148,-0.0882707671663219, ,0.0012848959855429752, ,0.014713844508550645,0.00041963921964649703,-0.028106712460512374,-0.03384480533844974,-0.06422561796886153,0.019284163751738696, ,0.031727915195209296, ,0.07259740567709769, ,0.0005928583713933443, ,0.20186451459935445,-0.23945877823107936,0.09866840964000001,1.6901009444852664,0.5283733445929583,-1.2454351090158888, ,0.10416788315968253,0.07244041340341281,0.029443274528650653,-0.03736169124960961,0.0497095617935775,-0.04342065091334531, ,1.2019529342651367
0.013372310365600586,0.022101123589636288,-0.08762754424732613, ,0.014063484749960024,0.021701210977298338,-0.08840664079792764, ,0.0011156359452172424, ,0.014548063307972895,0.00045874469246411564,-0.030525794855405748,0.0273292917754426,0.015010942382946944,0.0257333232769542, ,0.03381834922434812, ,0.031179994784127914, ,0.000599393091066143, ,0.20293797446887166,-0.23867105947790848,0.09898600069,1.6898912545417817,0.5294664365910817,-1.2463264522454602, ,0.10337357468243004,0.0779761228911017,0.03211453935483872,-0.0467046244136573,0.1318987637313168,-0.10999257300799443, ,1.205678939819336
0.013372310365600586,0.022101123589636288,-0.08762754424732613, ,0.014125977750672402,0.021693609351891983,-0.08854302285676861, ,0.001253867403528797, ,0.014548063307972895,0.00045874469246411564,-0.030525794855405748,0.0273292917754426,0.015010942382946944,0.0257333232769542, ,0.03381834922434812, ,0.031179994784127914, ,0.0006074730208496325, ,0.20293797446887166,-0.23867105947790848,0.09898600069,1.6898912545417817,0.5294664365910817,-1.2463264522454602, ,0.10337357468243004,0.0779761228911017,0.03211453935483872,-0.0467046244136573,0.1318987637313168,-0.10999257300799443, ,1.209557056427002
0.013372310365600586,0.022101123589636288,-0.08762754424732613, ,0.014188739902606252,0.021685518782929826,-0.0886799015072184, ,0.0013952563731088122, ,0.015612378865660848,0.00021848652534196648,-0.03292090649907776,0.039346511994938056,0.033052985304494596,0.010467455049035148, ,0.03643597391216145, ,0.05138685799953525, ,0.0006170801349015737, ,0.20402687980413733,-0.23785244979324066,0.09932433238,1.6898912545417817,0.5309694380885015,-1.2475520491861207, ,0.11073155374383986,0.08738208246636352,0.03462785113043479,-0.03319925989689698,0.15449157380859826,-0.12809663914895084, ,1.2144279479980469
0.013525100553597354,0.022108099521231883,-0.08794807260778262, ,0.014251768542851512,0.02167694826660472,-0.08881726498290365, ,0.0012122017802089745, ,0.015612378865660848,0.00021848652534196648,-0.03292090649907776,0.039346511994938056,0.033052985304494596,0.010467455049035148, ,0.03643597391216145, ,0.05138685799953525, ,0.0006242502752064822, ,0.20402687980413733,-0.23785244979324066,0.09932433238,1.6898912545417817,0.5309694380885015,-1.2475520491861207, ,0.11073155374383986,0.08738208246636352,0.03462785113043479,-0.03319925989689698,0.15449157380859826,-0.12809663914895084, ,1.218353033065796
0.013525100553597354,0.022108099521231883,-0.08794807260778262, ,0.014315061023579618,0.021667906749605337,-0.08895510158655417, ,0.001353482391615253, ,0.015612378865660848,0.00021848652534196648,-0.03292090649907776,0.039346511994938056,0.033052985304494596,0.010467455049035148, ,0.03643597391216145, ,0.05138685799953525, ,0.0006329316099256343, ,0.20402687980413733,-0.23785244979324066,0.09932433238,1.6898912545417817,0.5309694380885015,-1.2475520491861207, ,0.11073155374383986,0.08738208246636352,0.03462785113043479,-0.03319925989689698,0.15449157380859826,-0.12809663914895084, ,1.222027063369751
0.013685433009749084,0.022109143458953207,-0.0882876109670506, ,0.014378614712006969,0.0216584031292209,-0.08909339968985255, ,0.0011545402474522656, ,0.01653915558464413,-6.958453347288645e-05,-0.03476730281848714,0.024815473585938167,0.021111097242912304,0.0018979747544871541, ,0.03850082927331238, ,0.03257967705661042, ,0.0006390681821318298, ,0.20510806240652876,-0.23696433551270485,0.09966784923000001,1.6898912545417817,0.532335803086156,-1.248666228223085, ,0.11474841784579294,0.09451886609409439,0.03628430870159454,-0.026052284473569845,0.14662086002411936,-0.12143805433719568, ,1.2257130146026611
0.013685433009749084,0.022109143458953207,-0.0882876109670506, ,0.014442426990358073,0.02164844625344701,-0.08923214773328424, ,0.0012951569420755792, ,0.01653915558464413,-6.958453347288645e-05,-0.03476730281848714,0.024815473585938167,0.021111097242912304,0.0018979747544871541, ,0.03850082927331238, ,0.03257967705661042, ,0.0006466971212009432, ,0.20510806240652876,-0.23696433551270485,0.09966784923000001,1.6898912545417817,0.532335803086156,-1.248666228223085, ,0.11474841784579294,0.09451886609409439,0.03628430870159454,-0.026052284473569845,0.14662086002411936,-0.12143805433719568, ,1.2293810844421387
0.013685433009749084,0.022109143458953207,-0.0882876109670506, ,0.014506495255828923,0.021638044921090484,-0.08937133422598742, ,0.0014389347262036313, ,0.01653915558464413,-6.958453347288645e-05,-0.03476730281848714,0.024815473585938167,0.021111097242912304,0.0018979747544871541, ,0.03850082927331238, ,0.03257967705661042, ,0.0006558033005687902, ,0.20629736326915932,-0.23595265750618144,0.10004377333000002,1.6890524947678438,0.5337021680838104,-1.2497804072600491, ,0.11803102183889398,0.10292509930419824,0.037043747720930234,-0.03391480419716643,0.1135760801236493,-0.09428672867957613, ,1.2346019744873047
0.013852883283334616,0.02210319779000516,-0.0886355042156113, ,0.014570816920550105,0.021627207881874833,-0.08951094774560255, ,0.0012281679340753518, ,0.017320292604490355,-0.0007340402916713505,-0.0355413063112697,-0.010872436348904203,-0.01440019054208086,0.008416582595016046, ,0.03954384661823454, ,0.018042135374121727, ,0.0006623074441313647, ,0.20629736326915932,-0.23595265750618144,0.10004377333000002,1.6890524947678438,0.5337021680838104,-1.2497804072600491, ,0.11803102183889398,0.10292509930419824,0.037043747720930234,-0.03391480419716643,0.1135760801236493,-0.09428672867957613, ,1.2386479377746582
0.013852883283334616,0.02210319779000516,-0.0886355042156113, ,0.014635389411550246,0.021615943836545387,-0.08965097693812173, ,0.0013714653134585426, ,0.017320292604490355,-0.0007340402916713505,-0.0355413063112697,-0.010872436348904203,-0.01440019054208086,0.008416582595016046, ,0.03954384661823454, ,0.018042135374121727, ,0.0006702755100788611, ,0.20629736326915932,-0.23595265750618144,0.10004377333000002,1.6890524947678438,0.5337021680838104,-1.2497804072600491, ,0.11803102183889398,0.10292509930419824,0.037043747720930234,-0.03391480419716643,0.1135760801236493,-0.09428672867957613, ,1.242539882659912
0.014035284264247284,0.022088093562535445,-0.08900795635751589, ,0.01470021017071919,0.021604261436974682,-0.08979141051773969, ,0.0011357906532429756, ,0.017307790927393436,-0.001726798847551583,-0.034939073389220414,-0.03672892619563923,-0.03728073929425767,0.05400263086289139, ,0.03902922379888688, ,0.052333693501293445, ,0.0006754479005584625, ,0.20753300052903526,-0.23482513850654466,0.10043006775,1.6882137349939055,0.5347952600819339,-1.2506717504896205, ,0.11744670984959255,0.10845364749539518,0.03620184436363637,-0.08292002988984497,0.10118679443949662,-0.08401456323750675, ,1.246272087097168
0.014035284264247284,0.022088093562535445,-0.08900795635751589, ,0.014765276654771195,0.021592169286267494,-0.08993223726670231, ,0.0012779377829539198, ,0.017307790927393436,-0.001726798847551583,-0.034939073389220414,-0.03672892619563923,-0.03728073929425767,0.05400263086289139, ,0.03902922379888688, ,0.052333693501293445, ,0.000682068668496874, ,0.20753300052903526,-0.23482513850654466,0.10043006775,1.6882137349939055,0.5347952600819339,-1.2506717504896205, ,0.11744670984959255,0.10845364749539518,0.03620184436363637,-0.08292002988984497,0.10118679443949662,-0.08401456323750675, ,1.2500109672546387
0.01420497095407092,0.022070614501650942,-0.08934762309972527, ,0.014830586335208416,0.021579675938866623,-0.09007344603515732, ,0.0010766773941825603, ,0.017307790927393436,-0.001726798847551583,-0.034939073389220414,-0.03672892619563923,-0.03728073929425767,0.05400263086289139, ,0.03902922379888688, ,0.052333693501293445, ,0.0006863578937760664, ,0.20753300052903526,-0.23482513850654466,0.10043006775,1.6882137349939055,0.5347952600819339,-1.2506717504896205, ,0.11744670984959255,0.10845364749539518,0.03620184436363637,-0.08292002988984497,0.10118679443949662,-0.08401456323750675, ,1.2542929649353027
0.01420497095407092,0.022070614501650942,-0.08934762309972527, ,0.01489613669828382,0.02156678990065733,-0.09021502574100378, ,0.0012181693874977622, ,0.017424993402872554,-0.0021958594130521555,-0.03455840992343093,-0.006780388639749771,0.003714182939040273,-0.02717743267320784, ,0.03876513756054441, ,0.007727841476275845, ,0.0006920762969343642, ,0.20869141046016892,-0.233736233171279,0.10078265863000001,1.6880040450504212,0.5358883520800574,-1.251563093719192, ,0.12027495761529881,0.11601093100057551,0.035875701621621625,0.0,0.12612927829508896,-0.10422246637371421, ,1.2581300735473633
0.01420497095407092,0.022070614501650942,-0.08934762309972527, ,0.014961925244964888,0.021553519629073314,-0.09035696536974178, ,0.0013635023739586721, ,0.017424993402872554,-0.0021958594130521555,-0.03455840992343093,-0.006780388639749771,0.003714182939040273,-0.02717743267320784, ,0.03876513756054441, ,0.007727841476275845, ,0.0006992191275410057, ,0.20869141046016892,-0.233736233171279,0.10078265863000001,1.6880040450504212,0.5358883520800574,-1.251563093719192, ,0.12027495761529881,0.11601093100057551,0.035875701621621625,0.0,0.12612927829508896,-0.10422246637371421, ,1.261842966079712
0.014372043440241596,0.022049676505105007,-0.08968511602263157, ,0.015027949490896371,0.021539873533201543,-0.09049925397432212, ,0.0011631562327692857, ,0.01733498505626621,-0.002277531808326021,-0.03552577953832748,0.018215786766772022,0.0378821525042185,-0.01553551532555513, ,0.0395950738077953, ,0.04203350780866883, ,0.000704102676017093, ,0.2098498203913026,-0.232600991438768,0.10113395322000002,1.6882137349939055,0.5373913535774772,-1.2527886906598527, ,0.11936722208612675,0.11803102183889398,0.036957799350348035,-0.013374838038814866,0.16314887888614102,-0.1330369711396316, ,1.2655630111694336
0.014372043440241596,0.022049676505105007,-0.08968511602263157, ,0.015094206966364059,0.02152585997388767,-0.09064188067499655, ,0.0013081676180265564, ,0.01733498505626621,-0.002277531808326021,-0.03552577953832748,0.018215786766772022,0.0378821525042185,-0.01553551532555513, ,0.0395950738077953, ,0.04203350780866883, ,0.0007103950191630248, ,0.2098498203913026,-0.232600991438768,0.10113395322000002,1.6882137349939055,0.5373913535774772,-1.2527886906598527, ,0.11936722208612675,0.11803102183889398,0.036957799350348035,-0.013374838038814866,0.16314887888614102,-0.1330369711396316, ,1.269394874572754
0.014372043440241596,0.022049676505105007,-0.08968511602263157, ,0.015160695216257573,0.02151148726384123,-0.0907848346591674, ,0.0014563654633262374, ,0.01733498505626621,-0.002277531808326021,-0.03552577953832748,0.018215786766772022,0.0378821525042185,-0.01553551532555513, ,0.0395950738077953, ,0.04203350780866883, ,0.0007180854361131611, ,0.2098498203913026,-0.232600991438768,0.10113395322000002,1.6882137349939055,0.5390309915746625,-1.2542073842443502, ,0.11615292724415029,0.12437344896260916,0.03670233069124424,-0.02063299744936899,0.15849239717572935,-0.1278576595868673, ,1.2750389575958252
0.014549055254172952,0.022021778006352393,-0.09005149815874502, ,0.015227411800034008,0.02149676366774114,-0.09092810518123709, ,0.001226477692802588, ,0.017151269366727378,-0.0030369119592809964,-0.035464250023907774,0.005266116372608267,0.034912170592850504,-0.009753604800036855, ,0.03951078213471239, ,0.03530631017695914, ,0.0007232731122018286, ,0.21105456671968162,-0.23135763144601787,0.10151376619000001,1.6877943551069365,0.5390309915746625,-1.2542073842443502, ,0.11615292724415029,0.12437344896260916,0.03670233069124424,-0.02063299744936899,0.15849239717572935,-0.1278576595868673, ,1.278836965560913
0.014549055254172952,0.022021778006352393,-0.09005149815874502, ,0.015294354291680948,0.021481697402340464,-0.09107168156245819, ,0.0013740203387694158, ,0.017151269366727378,-0.0030369119592809964,-0.035464250023907774,0.005266116372608267,0.034912170592850504,-0.009753604800036855, ,0.03951078213471239, ,0.03530631017695914, ,0.0007298463165105922, ,0.21105456671968162,-0.23135763144601787,0.10151376619000001,1.6877943551069365,0.5390309915746625,-1.2542073842443502, ,0.11615292724415029,0.12437344896260916,0.03670233069124424,-0.02063299744936899,0.15849239717572935,-0.1278576595868673, ,1.2825300693511963
0.014721929746273694,0.021985027990133552,-0.09040749890713727, ,0.01536152027967978,0.021466296636571985,-0.09121555319078331, ,0.0011537374020587226, ,0.017475427712290104,-0.0036352375065440397,-0.03551203816499857,-0.06068668792230542,-0.038876997348953286,0.07799997736321793, ,0.0397455705719364, ,0.07207106587265696, ,0.0007340852273660734, ,0.21222069938368954,-0.23009110325464505,0.10188061626000001,1.6867459053895137,0.5405339930720824,-1.255432981185011, ,0.11433366452827805,0.12486439678746157,0.03645036961098399,-0.11182934728992325,0.10262698004662146,-0.0823031578517043, ,1.2863030433654785
0.014721929746273694,0.021985027990133552,-0.09040749890713727, ,0.01542890736696894,0.021450569491653318,-0.09135970952071433, ,0.001300833692433609, ,0.017475427712290104,-0.0036352375065440397,-0.03551203816499857,-0.06068668792230542,-0.038876997348953286,0.07799997736321793, ,0.0397455705719364, ,0.07207106587265696, ,0.0007396965983073363, ,0.21222069938368954,-0.23009110325464505,0.10188061626000001,1.6867459053895137,0.5405339930720824,-1.255432981185011, ,0.11433366452827805,0.12486439678746157,0.03645036961098399,-0.11182934728992325,0.10262698004662146,-0.0823031578517043, ,1.2900090217590332
0.014897128175124527,0.02194827649694081,-0.09076793319707128, ,0.015496513170907214,0.021434524041192504,-0.09150414007315322, ,0.0010794463966993196, ,0.017475427712290104,-0.0036352375065440397,-0.03551203816499857,-0.06068668792230542,-0.038876997348953286,0.07799997736321793, ,0.0397455705719364, ,0.07207106587265696, ,0.0007430274786837282, ,0.21334049565045207,-0.2287859613989011,0.10225005891000001,1.6865362154460295,0.5414904485704405,-1.2562129065108856, ,0.10857773633692308,0.1338461799132169,0.03670233069124424,-0.04399858331400298,0.09112400078183898,-0.07299487640543513, ,1.293907880783081
0.014897128175124527,0.02194827649694081,-0.09076793319707128, ,0.015564335323236993,0.021418168311292653,-0.09164883443525046, ,0.0012256292499810677, ,0.017250470859413378,-0.004188280423886548,-0.03596402341955249,-0.06511627587988801,-0.028903599717053946,0.011575734141935953, ,0.040106500948134345, ,0.0712424543121887, ,0.0007477129327739938, ,0.21334049565045207,-0.2287859613989011,0.10225005891000001,1.6865362154460295,0.5414904485704405,-1.2562129065108856, ,0.10857773633692308,0.1338461799132169,0.03670233069124424,-0.04399858331400298,0.09112400078183898,-0.07299487640543513, ,1.2986629009246826
0.014897128175124527,0.02194827649694081,-0.09076793319707128, ,0.01563237147004737,0.02140151028065779,-0.09179378226025636, ,0.0013754643937358584, ,0.017250470859413378,-0.004188280423886548,-0.03596402341955249,-0.06511627587988801,-0.028903599717053946,0.011575734141935953, ,0.040106500948134345, ,0.0712424543121887, ,0.0007537490045140116, ,0.21334049565045207,-0.2287859613989011,0.10225005891000001,1.6865362154460295,0.5414904485704405,-1.2562129065108856, ,0.10857773633692308,0.1338461799132169,0.03670233069124424,-0.04399858331400298,0.09112400078183898,-0.07299487640543513, ,1.302412986755371
0.015065919546113412,0.021910148771404563,-0.09111938133819278, ,0.015700619271737697,0.021384557880697673,-0.09193897326736974, ,0.0011622480184855664, ,0.016694103553961216,-0.004014606309580755,-0.03493381457695215,-0.01849559273425195,0.01738145481381651,-0.006336778839136956, ,0.038925333115956515, ,0.025380108252014318, ,0.0007576394713137407, ,0.21441395551996928,-0.22748854227603138,0.10261042753,1.6865362154460295,0.5425835405685641,-1.2571042497404572, ,0.10759290426130474,0.12964063054435898,0.035875701621621625,-0.02718543943397306,0.13316278483193858,-0.11149403208255113, ,1.3061718940734863
0.015065919546113412,0.021910148771404563,-0.09111938133819278, ,0.015769076402980475,0.021367318995632986,-0.09208439724158789, ,0.0013116209149860586, ,0.016694103553961216,-0.004014606309580755,-0.03493381457695215,-0.01849559273425195,0.01738145481381651,-0.006336778839136956, ,0.038925333115956515, ,0.025380108252014318, ,0.0007628657113483852, ,0.21441395551996928,-0.22748854227603138,0.10261042753,1.6865362154460295,0.5425835405685641,-1.2571042497404572, ,0.10759290426130474,0.12964063054435898,0.035875701621621625,-0.02718543943397306,0.13316278483193858,-0.11149403208255113, ,1.3098649978637695
0.015236768747740976,0.021861120978040757,-0.09147437219358302, ,0.015837740552684783,0.021349801462601303,-0.09223004403355672, ,0.0010925450503003957, ,0.016430049690275877,-0.004867060788620071,-0.034299038500028634,-0.004028945484914101,0.041955247696641766,-0.01155774312797268, ,0.0383413465539684, ,0.04214768964066358, ,0.0007659468266656937, ,0.21554147451960606,-0.22610617309154518,0.10297468502000001,1.6859071456155759,0.5442231785657493,-1.2585229433249547, ,0.10734948140098505,0.13615056177685905,0.03516293933774835,-0.024411319330968143,0.15712072813317934,-0.13142777468383662, ,1.314600944519043
0.015236768747740976,0.021861120978040757,-0.09147437219358302, ,0.01590660942395958,0.02133201307176135,-0.09237590355942026, ,0.0012415315185659692, ,0.016430049690275877,-0.004867060788620071,-0.034299038500028634,-0.004028945484914101,0.041955247696641766,-0.01155774312797268, ,0.0383413465539684, ,0.04214768964066358, ,0.0007703503886277332, ,0.21554147451960606,-0.22610617309154518,0.10297468502000001,1.6859071456155759,0.5442231785657493,-1.2585229433249547, ,0.10734948140098505,0.13615056177685905,0.03516293933774835,-0.024411319330968143,0.15712072813317934,-0.13142777468383662, ,1.318964958190918
0.015236768747740976,0.021861120978040757,-0.09147437219358302, ,0.015975680734076916,0.021313961566399003,-0.09252196580067078, ,0.0013938531884349252, ,0.016430049690275877,-0.004867060788620071,-0.034299038500028634,-0.004028945484914101,0.041955247696641766,-0.01155774312797268, ,0.0383413465539684, ,0.04214768964066358, ,0.0007760705978002763, ,0.21554147451960606,-0.22610617309154518,0.10297468502000001,1.6859071456155759,0.5442231785657493,-1.2585229433249547, ,0.10734948140098505,0.13615056177685905,0.03516293933774835,-0.024411319330968143,0.15712072813317934,-0.13142777468383662, ,1.3226749897003174
0.015401757209843884,0.021810751801641822,-0.09182823217166569, ,0.016044952214435016,0.02129565464303218,-0.09266822080399877, ,0.0011766927377984036, ,0.01658190106191711,-0.005046358749631251,-0.035721640223154084,-0.02149651397911058,0.016692229118807165,0.09254582939444796, ,0.03970466924291962, ,0.02721529830532749, ,0.0007797126172548047, ,0.2165917661905006,-0.22474697210568167,0.10333634993000002,1.6848586958981533,0.5457261800631692,-1.2599118977458965, ,0.10520725228211839,0.1347967919864642,0.036533971376146786,-0.13642518711868432,0.15431271897467072,-0.13675022800833378, ,1.3267369270324707
0.015401757209843884,0.021810751801641822,-0.09182823217166569, ,0.016114421610521804,0.021277099951516006,-0.09281465868114115, ,0.001328801002307067, ,0.01658190106191711,-0.005046358749631251,-0.035721640223154084,-0.02149651397911058,0.016692229118807165,0.09254582939444796, ,0.03970466924291962, ,0.02721529830532749, ,0.0007846593594624826, ,0.2165917661905006,-0.22474697210568167,0.10333634993000002,1.6848586958981533,0.5457261800631692,-1.2599118977458965, ,0.10520725228211839,0.1347967919864642,0.036533971376146786,-0.13642518711868432,0.15431271897467072,-0.13675022800833378, ,1.33052396774292
0.015570476329902057,0.0217644076932921,-0.09219365874476954, ,0.016184086681877888,0.021258305095148308,-0.09296126960873308, ,0.0011053885933800182, ,0.01658190106191711,-0.005046358749631251,-0.035721640223154084,-0.02149651397911058,0.016692229118807165,0.09254582939444796, ,0.03970466924291962, ,0.02721529830532749, ,0.0007875230133367465, ,0.21764205786139512,-0.22338004838694395,0.10371097774000002,1.6844393160111841,0.547229181560589,-1.2613008521668383, ,0.10428235336095688,0.1365423619546342,0.03756795169811321,-0.04420137915626839,0.14076000246345033,-0.1307849278832938, ,1.3352210521697998
0.015570476329902057,0.0217644076932921,-0.09219365874476954, ,0.01625394520205996,0.02123927763077465,-0.09310804382815689, ,0.0012565792304863562, ,0.016954342457751164,-0.0046562157952718015,-0.03657590949715369,-0.009874217042649796,0.025200246240127372,0.0006675292845873153, ,0.04058235120407417, ,0.027064499123726944, ,0.0007916739533115217, ,0.21764205786139512,-0.22338004838694395,0.10371097774000002,1.6844393160111841,0.547229181560589,-1.2613008521668383, ,0.10428235336095688,0.1365423619546342,0.03756795169811321,-0.04420137915626839,0.14076000246345033,-0.1307849278832938, ,1.3391380310058594
0.015570476329902057,0.0217644076932921,-0.09219365874476954, ,0.01632399495860402,0.02122002506889398,-0.09325497164539188, ,0.00141086067298472, ,0.016954342457751164,-0.0046562157952718015,-0.03657590949715369,-0.009874217042649796,0.025200246240127372,0.0006675292845873153, ,0.04058235120407417, ,0.027064499123726944, ,0.0007971054157647955, ,0.21764205786139512,-0.22338004838694395,0.10371097774000002,1.6844393160111841,0.547229181560589,-1.2613008521668383, ,0.10428235336095688,0.1365423619546342,0.03756795169811321,-0.04420137915626839,0.14076000246345033,-0.1307849278832938, ,1.3429069519042969
0.015745136130326923,0.02171994988417065,-0.09257274869366652, ,0.016394233752988464,0.02120055487376325,-0.09340204343086395, ,0.0011742353519309107, ,0.017054223504314986,-0.004451933767836778,-0.03685710104061268,-0.043570444570906454,0.009068053336666935,-0.007098946012445556, ,0.04085476900835773, ,0.044503316912796756, ,0.000800384806514066, ,0.21866145860079278,-0.22203629286682888,0.10408560555000002,1.6844393160111841,0.5485955465582434,-1.262660067424224, ,0.10225963530007626,0.13422481125667718,0.03783565681710214,-0.025772893799547357,0.1186068769478693,-0.09078371848161389, ,1.346674919128418
0.015745136130326923,0.02171994988417065,-0.09257274869366652, ,0.016464659400597673,0.02118087446350287,-0.09354924961929555, ,0.0013273545507450507, ,0.017054223504314986,-0.004451933767836778,-0.03685710104061268,-0.043570444570906454,0.009068053336666935,-0.007098946012445556, ,0.04085476900835773, ,0.044503316912796756, ,0.0008049276491367469, ,0.21866145860079278,-0.22203629286682888,0.10408560555000002,1.6844393160111841,0.5485955465582434,-1.262660067424224, ,0.10225963530007626,0.13422481125667718,0.03783565681710214,-0.025772893799547357,0.1186068769478693,-0.09078371848161389, ,1.3504018783569336
0.01590720012429932,0.021674409032085503,-0.09292954532189737, ,0.01653526973068486,0.02116099121020241,-0.09369658070955593, ,0.0011164284913119063, ,0.017155804773421744,-0.0048151620504563175,-0.037660861074447105,-0.030226193436052443,0.011452058447745855,-0.023442815835102195, ,0.04166350777196658, ,0.03232176743867441, ,0.0008075900494972185, ,0.2196499684086935,-0.22067709188096538,0.10446412223000001,1.684019936124215,0.549688638556367,-1.2635514106537955, ,0.10031389171085707,0.13955432582128055,0.03847539014492755,-0.01622070335035828,0.11667052000297143,-0.10831155261206608, ,1.3551619052886963
0.01590720012429932,0.021674409032085503,-0.09292954532189737, ,0.01660606258633557,0.021140912440025257,-0.09384402726450985, ,0.0012685836897688568, ,0.017155804773421744,-0.0048151620504563175,-0.037660861074447105,-0.030226193436052443,0.011452058447745855,-0.023442815835102195, ,0.04166350777196658, ,0.03232176743867441, ,0.0008114967752622323, ,0.2196499684086935,-0.22067709188096538,0.10446412223000001,1.684019936124215,0.549688638556367,-1.2635514106537955, ,0.10031389171085707,0.13955432582128055,0.03847539014492755,-0.01622070335035828,0.11667052000297143,-0.10831155261206608, ,1.3590540885925293
0.01590720012429932,0.021674409032085503,-0.09292954532189737, ,0.016677035824430794,0.021120645433314086,-0.09399157991086862, ,0.0014238042690947793, ,0.017155804773421744,-0.0048151620504563175,-0.037660861074447105,-0.030226193436052443,0.011452058447745855,-0.023442815835102195, ,0.04166350777196658, ,0.03232176743867441, ,0.0008166422163868756, ,0.2196499684086935,-0.22067709188096538,0.10446412223000001,1.684019936124215,0.549688638556367,-1.2635514106537955, ,0.10031389171085707,0.13955432582128055,0.03847539014492755,-0.01622070335035828,0.11667052000297143,-0.10831155261206608, ,1.362786054611206
0.016082008441856675,0.021624197187787544,-0.09331665435271971, ,0.016748187315610275,0.021100197424696075,-0.09413922933903893, ,0.0011811010336434328, ,0.017229315770478714,-0.004663748993553824,-0.03882494643214444,-0.04308054432308147,-0.025329132526887097,0.0990570487083334, ,0.042731444418046834, ,0.04997409365184068, ,0.0008196793731973469, ,0.22066936914809113,-0.21929472269647918,0.10485949068000001,1.682761796463308,0.5509183670542559,-1.2648808867476256, ,0.09733019647022642,0.13290888173455292,0.03962390925373134,-0.15018925574742756,0.10534628246899139,-0.11903088541034501, ,1.3666050434112549
0.016082008441856675,0.021624197187787544,-0.09331665435271971, ,0.016819514944235735,0.02107957560318811,-0.09428696630297331, ,0.0013349283846963243, ,0.017229315770478714,-0.004663748993553824,-0.03882494643214444,-0.04308054432308147,-0.025329132526887097,0.0990570487083334, ,0.042731444418046834, ,0.04997409365184068, ,0.0008239376294907269, ,0.22066936914809113,-0.21929472269647918,0.10485949068000001,1.682761796463308,0.5509183670542559,-1.2648808867476256, ,0.09733019647022642,0.13290888173455292,0.03962390925373134,-0.15018925574742756,0.10534628246899139,-0.11903088541034501, ,1.3704679012298584
0.016264180980857666,0.021574520378895984,-0.09370855495163999, ,0.01689101660835409,0.02105878711230238,-0.09443478162001925, ,0.0010891780754474414, ,0.017177333098579443,-0.0050356701010981905,-0.03629296148496308,-0.06963241991849113,-0.05940032180028507,0.0005809449699400037, ,0.04046724353221579, ,0.09152600268132627, ,0.0008261117315067655, ,0.221696492620363,-0.21788918531337031,0.10525874800000001,1.6821327266328545,0.551601549553083,-1.26576469122667, ,0.09643998125860852,0.1346055908630791,0.036872248888888896,-0.04563981995882481,0.04677360287543541,-0.07278735938312149, ,1.3757469654083252
0.016264180980857666,0.021574520378895984,-0.09370855495163999, ,0.016962690219660733,0.02103783905015081,-0.09458266617076973, ,0.0012409723722651544, ,0.017177333098579443,-0.0050356701010981905,-0.03629296148496308,-0.06963241991849113,-0.05940032180028507,0.0005809449699400037, ,0.04046724353221579, ,0.09152600268132627, ,0.0008294845822446386, ,0.221696492620363,-0.21788918531337031,0.10525874800000001,1.6821327266328545,0.551601549553083,-1.26576469122667, ,0.09643998125860852,0.1346055908630791,0.036872248888888896,-0.04563981995882481,0.04677360287543541,-0.07278735938312149, ,1.3794960975646973
0.016264180980857666,0.021574520378895984,-0.09370855495163999, ,0.017034533703462685,0.02101673846955116,-0.09473061089891228, ,0.001396124039966362, ,0.017177333098579443,-0.0050356701010981905,-0.03629296148496308,-0.06963241991849113,-0.05940032180028507,0.0005809449699400037, ,0.04046724353221579, ,0.09152600268132627, ,0.0008340542552907816, ,0.221696492620363,-0.21788918531337031,0.10525874800000001,1.6821327266328545,0.551601549553083,-1.26576469122667, ,0.09643998125860852,0.1346055908630791,0.036872248888888896,-0.04563981995882481,0.04677360287543541,-0.07278735938312149, ,1.383202075958252
0.01642834804609554,0.0215250926133029,-0.09406080471605927, ,0.01710654499864194,0.020995492378131714,-0.09487860681107967, ,0.001187109001800744, ,0.01666889275491259,-0.004950641903572804,-0.03626040393849143,0.0025762979312585715,0.006522779323523119,-0.05151227031702557, ,0.040214148439507616, ,0.0070086572321430346, ,0.0008368786932628613, ,0.22263094329814417,-0.21656859799187791,0.10561782033000001,1.6819230366893698,0.5524213685516758,-1.2668415923495513, ,0.09470752650545987,0.13518082843087004,0.037043747720930234,0.0,0.10141350946293817,-0.13601895119416765, ,1.3869249820709229
0.01642834804609554,0.0215250926133029,-0.09406080471605927, ,0.017178722057618626,0.020974107738436835,-0.09502664497669845, ,0.0013414517876435196, ,0.01666889275491259,-0.004950641903572804,-0.03626040393849143,0.0025762979312585715,0.006522779323523119,-0.05151227031702557, ,0.040214148439507616, ,0.0070086572321430346, ,0.0008408832416309616, ,0.22263094329814417,-0.21656859799187791,0.10561782033000001,1.6819230366893698,0.5524213685516758,-1.2668415923495513, ,0.09470752650545987,0.13518082843087004,0.037043747720930234,0.0,0.10141350946293817,-0.13601895119416765, ,1.3906850814819336
0.01642834804609554,0.0215250926133029,-0.09406080471605927, ,0.01725106284631433,0.02095259146803199,-0.09517471652784013, ,0.001498471463945998, ,0.01666889275491259,-0.004950641903572804,-0.03626040393849143,0.0025762979312585715,0.006522779323523119,-0.05151227031702557, ,0.040214148439507616, ,0.0070086572321430346, ,0.0008460611016491902, ,0.22263094329814417,-0.21656859799187791,0.10561782033000001,1.6819230366893698,0.5524213685516758,-1.2668415923495513, ,0.09470752650545987,0.13518082843087004,0.037043747720930234,0.0,0.10141350946293817,-0.13601895119416765, ,1.3943819999694824
0.016600586049432778,0.021472730908417486,-0.09443572790328737, ,0.017323565344115138,0.02093095043960899,-0.09532281265907021, ,0.0012661534270632653, ,0.016623196838877953,-0.00503476268592617,-0.03586744424124764,0.04688844917453002,0.029165568211097954,-0.05093918786248377, ,0.03985163817017671, ,0.055218635205324926, ,0.0008493430729414877, ,0.2236194531060449,-0.21516306060876905,0.10600152217000001,1.6819230366893698,0.5536510970495647,-1.2684977834039435, ,0.09653808907270679,0.1338461799132169,0.036787093579676675,-0.010310404845619474,0.127962204460699,-0.18226418548949386, ,1.398547887802124
0.016600586049432778,0.021472730908417486,-0.09443572790328737, ,0.017396227543835185,0.020909191481091546,-0.09547092462729742, ,0.0014220598901476973, ,0.016623196838877953,-0.00503476268592617,-0.03586744424124764,0.04688844917453002,0.029165568211097954,-0.05093918786248377, ,0.03985163817017671, ,0.055218635205324926, ,0.0008537827381911483, ,0.2236194531060449,-0.21516306060876905,0.10600152217000001,1.6819230366893698,0.5536510970495647,-1.2684977834039435, ,0.09653808907270679,0.1338461799132169,0.036787093579676675,-0.010310404845619474,0.127962204460699,-0.18226418548949386, ,1.4023749828338623
0.016600586049432778,0.021472730908417486,-0.09443572790328737, ,0.017469047451679563,0.020887321375739922,-0.09561904375162508, ,0.0015802423627625638, ,0.01718118695087613,-0.005495374962856473,-0.03679739318037831,-0.09328366727083257,-0.06796188296943532,0.09526556937902024, ,0.040980977000246076, ,0.11541487187619866, ,0.0008593708891493899, ,0.22460024018107141,-0.21380385962290555,0.10637874256000002,1.6806648970284628,0.5547441890476882,-1.269960877814499, ,0.09423728059431061,0.1327229951866724,0.03739157633802818,-0.1409053174015694,0.05639897030319079,-0.06724481883158329, ,1.4064209461212158
0.0167720378580917,0.02141653441777081,-0.0948052183053362, ,0.017542023087207804,0.020865346862256613,-0.09576716141319921, ,0.0013498220316678251, ,0.01718118695087613,-0.005495374962856473,-0.03679739318037831,-0.09328366727083257,-0.06796188296943532,0.09526556937902024, ,0.040980977000246076, ,0.11541487187619866, ,0.0008631147910006757, ,0.22460024018107141,-0.21380385962290555,0.10637874256000002,1.6806648970284628,0.5547441890476882,-1.269960877814499, ,0.09423728059431061,0.1327229951866724,0.03739157633802818,-0.1409053174015694,0.05639897030319079,-0.06724481883158329, ,1.410243034362793
0.0167720378580917,0.02141653441777081,-0.0948052183053362, ,0.01761515248329691,0.020843274634891835,-0.09591526905505986, ,0.0015072099113472657, ,0.01718118695087613,-0.005495374962856473,-0.03679739318037831,-0.09328366727083257,-0.06796188296943532,0.09526556937902024, ,0.040980977000246076, ,0.11541487187619866, ,0.0008679942994881499, ,0.22460024018107141,-0.21380385962290555,0.10637874256000002,1.6806648970284628,0.5547441890476882,-1.269960877814499, ,0.09423728059431061,0.1327229951866724,0.03739157633802818,-0.1409053174015694,0.05639897030319079,-0.06724481883158329, ,1.4139540195465088
0.01695367856438736,0.021363212912648286,-0.0951966984864394, ,0.0176884336861049,0.020821111343547916,-0.09606335818198915, ,0.0012589035816938572, ,0.017561383196986816,-0.005003284274645787,-0.037980824037603875,-0.012009796426682956,-0.024302704046320216,-0.0037722431020867217, ,0.0421423543231718, ,0.027106781415840782, ,0.0008709334670235311, ,0.22551924539310414,-0.21250644050003584,0.1067494815,1.6800358271980091,0.55529073504675,-1.2708966218701279, ,0.09585549652370785,0.1338461799132169,0.03866216388349515,-0.057570457431631784,0.06799256069055137,-0.121228549758889, ,1.4176599979400635
0.01695367856438736,0.021363212912648286,-0.0951966984864394, ,0.0177618647550336,0.02079886359388536,-0.09621142036036302, ,0.00141467860440403, ,0.017561383196986816,-0.005003284274645787,-0.037980824037603875,-0.012009796426682956,-0.024302704046320216,-0.0037722431020867217, ,0.0421423543231718, ,0.027106781415840782, ,0.0008749912665562213, ,0.22551924539310414,-0.21250644050003584,0.1067494815,1.6800358271980091,0.55529073504675,-1.2708966218701279, ,0.09585549652370785,0.1338461799132169,0.03866216388349515,-0.057570457431631784,0.06799256069055137,-0.121228549758889, ,1.4213860034942627
0.017116293888040028,0.021319100907101995,-0.09555498418088303, ,0.017835443762692166,0.02077653794742737,-0.09635944721799948, ,0.0012077714541707395, ,0.017938467284150245,-0.004482255665351232,-0.03972026669734868,0.013785210650464804,0.03210328015163764,-0.04861285443493891, ,0.043812998195314236, ,0.03493642454555186, ,0.0008774563049829955, ,0.2264845870023822,-0.21116268497992077,0.10714614624000002,1.6798261372545245,0.5565204635446389,-1.2723077767040987, ,0.09823699954293041,0.13441493138593594,0.04063472326530613,0.0,0.13147751689248746,-0.14071426704594583, ,1.4265069961547852
0.017116293888040028,0.021319100907101995,-0.09555498418088303, ,0.017909168794860462,0.020754140921665932,-0.0965074304440088, ,0.0013619780788073153, ,0.017938467284150245,-0.004482255665351232,-0.03972026669734868,0.013785210650464804,0.03210328015163764,-0.04861285443493891, ,0.043812998195314236, ,0.03493642454555186, ,0.000881018965084645, ,0.2264845870023822,-0.21116268497992077,0.10714614624000002,1.6798261372545245,0.5565204635446389,-1.2723077767040987, ,0.09823699954293041,0.13441493138593594,0.04063472326530613,0.0,0.13147751689248746,-0.14071426704594583, ,1.4303219318389893
0.017116293888040028,0.021319100907101995,-0.09555498418088303, ,0.017983037950451905,0.020731678990166313,-0.09665536178864417, ,0.0015189274695931922, ,0.017938467284150245,-0.004482255665351232,-0.03972026669734868,0.013785210650464804,0.03210328015163764,-0.04861285443493891, ,0.043812998195314236, ,0.03493642454555186, ,0.0008856752315409117, ,0.2264845870023822,-0.21116268497992077,0.10714614624000002,1.6798261372545245,0.5565204635446389,-1.2723077767040987, ,0.09823699954293041,0.13441493138593594,0.04063472326530613,0.0,0.13147751689248746,-0.14071426704594583, ,1.4342598915100098
0.017306490149861308,0.021272969165700876,-0.09597113585011284, ,0.018057049341476936,0.020709158582672475,-0.09680323306315025, ,0.0012544350304412566, ,0.01821915574457504,-0.004227551227926235,-0.039755718649252716,0.012260995572768777,0.012050508950498057,-0.025117313920446086, ,0.04393548669069642, ,0.01718858537647409, ,0.0008883474039967114, ,0.22752715594040251,-0.2097880385283088,0.10757521823,1.6794067573675557,0.5577501920425278,-1.2738822890183503, ,0.09957706354509001,0.12964063054435898,0.04105363793814434,-0.027404345510388138,0.1176314629302187,-0.1460298078813933, ,1.4380419254302979
0.017306490149861308,0.021272969165700876,-0.09597113585011284, ,0.01813120109300627,0.020686586085212684,-0.09695103613961338, ,0.0014086155736002335, ,0.01821915574457504,-0.004227551227926235,-0.039755718649252716,0.012260995572768777,0.012050508950498057,-0.025117313920446086, ,0.04393548669069642, ,0.01718858537647409, ,0.0008920903404686792, ,0.22752715594040251,-0.2097880385283088,0.10757521823,1.6794067573675557,0.5577501920425278,-1.2738822890183503, ,0.09957706354509001,0.12964063054435898,0.04105363793814434,-0.027404345510388138,0.1176314629302187,-0.1460298078813933, ,1.442044973373413
0.01748908615367271,0.021221928515051232,-0.09636444905614215, ,0.01820549134313399,0.020663967840204207,-0.09709876295081216, ,0.0011678070928317875, ,0.01839498137866816,-0.00543246510261342,-0.038629924375712534,-0.0735282758550876,-0.04190708281826863,0.07135872891929235, ,0.04312954989663039, ,0.08463170160540931, ,0.0008940597458427013, ,0.22752715594040251,-0.2097880385283088,0.10757521823,1.6794067573675557,0.5577501920425278,-1.2738822890183503, ,0.09957706354509001,0.12964063054435898,0.04105363793814434,-0.027404345510388138,0.1176314629302187,-0.1460298078813933, ,1.4461748600006104
0.01748908615367271,0.021221928515051232,-0.09636444905614215, ,0.018279918242940944,0.020641310146558907,-0.0972464054900659, ,0.0013192347155023408, ,0.01839498137866816,-0.00543246510261342,-0.038629924375712534,-0.0735282758550876,-0.04190708281826863,0.07135872891929235, ,0.04312954989663039, ,0.08463170160540931, ,0.0008970751711594364, ,0.2285311112140517,-0.20846745120681642,0.10797966071000001,1.6781486177066482,0.5588432840406514,-1.275263704688765, ,0.10084690920135046,0.13365766416686023,0.03962390925373134,-0.11566318345156763,0.0834410270488218,-0.08216840998852566, ,1.450242042541504
0.01748908615367271,0.021221928515051232,-0.09636444905614215, ,0.018354479956457847,0.020618619259788484,-0.09739395581108534, ,0.0014740327845262702, ,0.01839498137866816,-0.00543246510261342,-0.038629924375712534,-0.0735282758550876,-0.04190708281826863,0.07135872891929235, ,0.04312954989663039, ,0.08463170160540931, ,0.0009011382529437098, ,0.2285311112140517,-0.20846745120681642,0.10797966071000001,1.6781486177066482,0.5588432840406514,-1.275263704688765, ,0.10084690920135046,0.13365766416686023,0.03962390925373134,-0.11566318345156763,0.0834410270488218,-0.08216840998852566, ,1.4539380073547363
0.017684282539390604,0.021169625910252253,-0.09677013365038634, ,0.018429174660628506,0.020595901392109203,-0.09754140602782234, ,0.001216094229571278, ,0.018491886615721154,-0.0049145382012621055,-0.038163350348600376,-0.03632952438522184,-0.022219503771080725,-0.028859555417194586, ,0.04269126217588756, ,0.042584735962293827, ,0.0009033407422907559, ,0.2295118982890782,-0.20718547754969516,0.10836465884000002,1.6777292378196795,0.559663103039244,-1.2760955695912246, ,0.10127741895247683,0.13089233318409763,0.039330398814814815,-0.01473364905001402,0.08252896950998996,-0.09801713524388495, ,1.4577240943908691
0.017684282539390604,0.021169625910252253,-0.09677013365038634, ,0.018504000545273225,0.020573162712547888,-0.09768874831431922, ,0.001368049288650235, ,0.018491886615721154,-0.0049145382012621055,-0.038163350348600376,-0.03632952438522184,-0.022219503771080725,-0.028859555417194586, ,0.04269126217588756, ,0.042584735962293827, ,0.0009065678849738077, ,0.2295118982890782,-0.20718547754969516,0.10836465884000002,1.6777292378196795,0.559663103039244,-1.2760955695912246, ,0.10127741895247683,0.13089233318409763,0.039330398814814815,-0.01473364905001402,0.08252896950998996,-0.09801713524388495, ,1.4615778923034668
0.017684282539390604,0.021169625910252253,-0.09677013365038634, ,0.01857895581305184,0.020550409347046873,-0.0978359749045594, ,0.0015231175259476253, ,0.018491886615721154,-0.0049145382012621055,-0.038163350348600376,-0.03632952438522184,-0.022219503771080725,-0.028859555417194586, ,0.04269126217588756, ,0.042584735962293827, ,0.0009108199514632824, ,0.23057763542572118,-0.20582627656383162,0.10876132358000001,1.6777292378196795,0.5606195585376021,-1.2771205311375213, ,0.10520725228211839,0.133469678703897,0.03739157633802818,-0.021434342606048793,0.11962893502171305,-0.13409829385209723, ,1.465972900390625
0.017858502931081884,0.021120955852490887,-0.09712269538511792, ,0.01865403867942702,0.020527647378568756,-0.09798307809231567, ,0.00131344983724838, ,0.01819498764155201,-0.005645442725062828,-0.03616049356111444,-0.001406587343171616,0.00955384719305621,-0.02804519832412252, ,0.04087187166526136, ,0.009653634448073871, ,0.0009135776904070159, ,0.23057763542572118,-0.20582627656383162,0.10876132358000001,1.6777292378196795,0.5606195585376021,-1.2771205311375213, ,0.10520725228211839,0.133469678703897,0.03739157633802818,-0.021434342606048793,0.11962893502171305,-0.13409829385209723, ,1.4696950912475586
0.017858502931081884,0.021120955852490887,-0.09712269538511792, ,0.018729247372627544,0.020504882847202255,-0.09813005023100202, ,0.0014671419889888682, ,0.01819498764155201,-0.005645442725062828,-0.03616049356111444,-0.001406587343171616,0.00955384719305621,-0.02804519832412252, ,0.04087187166526136, ,0.009653634448073871, ,0.0009173434339347835, ,0.23057763542572118,-0.20582627656383162,0.10876132358000001,1.6777292378196795,0.5606195585376021,-1.2771205311375213, ,0.10520725228211839,0.133469678703897,0.03739157633802818,-0.021434342606048793,0.11962893502171305,-0.13409829385209723, ,1.4734439849853516
0.018029772987460627,0.02106644540859431,-0.09746409831374292, ,0.01880458013361151,0.02048212175026746,-0.09827688373352174, ,0.001265851646130769, ,0.017853456486103127,-0.005783788656241649,-0.035283018646543485,-0.0009101309750278329,0.014813091102711553,3.740950332280766e-05, ,0.039963602496941926, ,0.014839182133397482, ,0.000919698219152324, ,0.23158159069937037,-0.20456747110533305,0.10911521075000001,1.6773098579327104,0.5619859235352566,-1.278561425135048, ,0.10371250443548719,0.12981797750816795,0.03670233069124424,-0.0496567279980383,0.12982183239066533,-0.14017420812132772, ,1.4776599407196045
0.018029772987460627,0.02106644540859431,-0.09746409831374292, ,0.01888003521602954,0.02045937004242036,-0.09842357107211792, ,0.0014184760595829433, ,0.017853456486103127,-0.005783788656241649,-0.035283018646543485,-0.0009101309750278329,0.014813091102711553,3.740950332280766e-05, ,0.039963602496941926, ,0.014839182133397482, ,0.0009230457214370934, ,0.23158159069937037,-0.20456747110533305,0.10911521075000001,1.6773098579327104,0.5619859235352566,-1.278561425135048, ,0.10371250443548719,0.12981797750816795,0.03670233069124424,-0.0496567279980383,0.12982183239066533,-0.14017420812132772, ,1.481726884841919
0.018225938791340948,0.020998303876249177,-0.09784925653429641, ,0.01895561088618795,0.020436633635758924,-0.09857010477822371, ,0.0011694088317709384, ,0.017853456486103127,-0.005783788656241649,-0.035283018646543485,-0.0009101309750278329,0.014813091102711553,3.740950332280766e-05, ,0.039963602496941926, ,0.014839182133397482, ,0.0009246881421726523, ,0.2327245551647556,-0.20313104279072727,0.10951317178000002,1.676051718271803,0.563352288532911,-1.2800839978727148, ,0.10650610724856428,0.13422481125667718,0.03747955651764706,-0.1176920248997802,0.11667540282384337,-0.09742697429097828, ,1.4862430095672607
0.018225938791340948,0.020998303876249177,-0.09784925653429641, ,0.01903130542301216,0.020413918399927677,-0.09871647744231045, ,0.0013199219293737164, ,0.018504762946225228,-0.006361876988175579,-0.03629314926909841,-0.058800035559288026,-0.014585335993277373,0.07442104011848526, ,0.041232176929889675, ,0.060581459534423246, ,0.0009273055844719972, ,0.2327245551647556,-0.20313104279072727,0.10951317178000002,1.676051718271803,0.563352288532911,-1.2800839978727148, ,0.10650610724856428,0.13422481125667718,0.03747955651764706,-0.1176920248997802,0.11667540282384337,-0.09742697429097828, ,1.4909920692443848
0.018225938791340948,0.020998303876249177,-0.09784925653429641, ,0.019107117118009685,0.020391230162223564,-0.09886268171373998, ,0.0014737857144041658, ,0.018504762946225228,-0.006361876988175579,-0.03629314926909841,-0.058800035559288026,-0.014585335993277373,0.07442104011848526, ,0.041232176929889675, ,0.060581459534423246, ,0.0009309008484847087, ,0.2327245551647556,-0.20313104279072727,0.10951317178000002,1.676051718271803,0.563352288532911,-1.2800839978727148, ,0.10650610724856428,0.13422481125667718,0.03747955651764706,-0.1176920248997802,0.11667540282384337,-0.09742697429097828, ,1.4947400093078613
0.018406498427085864,0.020943219291508938,-0.09820043487588431, ,0.01918304427523365,0.020368574707700517,-0.0990087103006118, ,0.0012595828730950257, ,0.018775236562355205,-0.005464663153775179,-0.03619373721447566,-0.026936569331970528,-0.015365810412361973,-0.010682047780867924, ,0.04113828709252669, ,0.031010075559431832, ,0.0009330490970115735, ,0.23375940136990167,-0.20186451459935445,0.10987742927000001,1.6756323383848342,0.5644453805310344,-1.2810570198424267, ,0.10674571603877478,0.1284126408098387,0.03756795169811321,-0.0345348897908228,0.09864152188157135,-0.106411422677273, ,1.4985830783843994
0.018406498427085864,0.020943219291508938,-0.09820043487588431, ,0.019259085211245804,0.020345957779275135,-0.09915455596961485, ,0.0014120809466958892, ,0.018775236562355205,-0.005464663153775179,-0.03619373721447566,-0.026936569331970528,-0.015365810412361973,-0.010682047780867924, ,0.04113828709252669, ,0.031010075559431832, ,0.0009361596934380951, ,0.23375940136990167,-0.20186451459935445,0.10987742927000001,1.6756323383848342,0.5644453805310344,-1.2810570198424267, ,0.10674571603877478,0.1284126408098387,0.03756795169811321,-0.0345348897908228,0.09864152188157135,-0.106411422677273, ,1.5023629665374756
0.018406498427085864,0.020943219291508938,-0.09820043487588431, ,0.01933523825507982,0.02032338507783189,-0.0993002115458764, ,0.0015672462615702006, ,0.018775236562355205,-0.005464663153775179,-0.03619373721447566,-0.026936569331970528,-0.015365810412361973,-0.010682047780867924, ,0.04113828709252669, ,0.031010075559431832, ,0.0009402312196841087, ,0.23482513850654466,-0.20055937274361052,0.11024687192000002,1.6756323383848342,0.5654018360293926,-1.282163660128864, ,0.10555833321298196,0.13125441432706886,0.03670233069124424,-0.020770389416023022,0.10367052542358074,-0.09711410716630116, ,1.5062129497528076
0.018593512953164092,0.020886383550301372,-0.09855647549437088, ,0.019411501748204482,0.02030086226232811,-0.09944566991281152, ,0.0013426122155214748, ,0.01851469545508056,-0.005954590545261105,-0.03539142441315386,-0.035042976412807146,-0.00670519225972766,-0.020518451105734827, ,0.04038321456184583, ,0.03567792418146408, ,0.0009428105850420406, ,0.23482513850654466,-0.20055937274361052,0.11024687192000002,1.6756323383848342,0.5654018360293926,-1.282163660128864, ,0.10555833321298196,0.13125441432706886,0.03670233069124424,-0.020770389416023022,0.10367052542358074,-0.09711410716630116, ,1.5108070373535156
0.018593512953164092,0.020886383550301372,-0.09855647549437088, ,0.01948787404448692,0.020278394949899303,-0.09959092401197409, ,0.0014965345420211626, ,0.01851469545508056,-0.005954590545261105,-0.03539142441315386,-0.035042976412807146,-0.00670519225972766,-0.020518451105734827, ,0.04038321456184583, ,0.03567792418146408, ,0.000946337489226621, ,0.23482513850654466,-0.20055937274361052,0.11024687192000002,1.6756323383848342,0.5654018360293926,-1.282163660128864, ,0.10555833321298196,0.13125441432706886,0.03670233069124424,-0.020770389416023022,0.10367052542358074,-0.09711410716630116, ,1.514591932296753
0.01879215994611054,0.02082448276506012,-0.09893328268214371, ,0.01956435351015596,0.02025598871596473,-0.09973596684290542, ,0.0012505079952354423, ,0.019061037878693364,-0.005667190957696306,-0.03648771626325334,0.002971820972929812,0.0033742855944802535,-0.02103873986761663, ,0.041554706790827685, ,0.004489192423927018, ,0.0009482626190114869, ,0.23596038023905566,-0.199200171757747,0.11063835150000001,1.6750032685543808,0.5664949280275161,-1.283300039578857, ,0.10857773633692308,0.12946376747403926,0.03801625661097852,-0.030743048190540172,0.11823564202872366,-0.13719549729973246, ,1.5183320045471191
0.01879215994611054,0.02082448276506012,-0.09893328268214371, ,0.019640938523765274,0.02023364909433223,-0.09988079146298427, ,0.001402598442221205, ,0.019061037878693364,-0.005667190957696306,-0.03648771626325334,0.002971820972929812,0.0033742855944802535,-0.02103873986761663, ,0.041554706790827685, ,0.004489192423927018, ,0.0009511200770190953, ,0.23596038023905566,-0.199200171757747,0.11063835150000001,1.6750032685543808,0.5664949280275161,-1.283300039578857, ,0.10857773633692308,0.12946376747403926,0.03801625661097852,-0.030743048190540172,0.11823564202872366,-0.13719549729973246, ,1.5222630500793457
0.01879215994611054,0.02082448276506012,-0.09893328268214371, ,0.019717627476156515,0.020211381577303667,-0.10002539098727757, ,0.0015572680455657332, ,0.019061037878693364,-0.005667190957696306,-0.03648771626325334,0.002971820972929812,0.0033742855944802535,-0.02103873986761663, ,0.041554706790827685, ,0.004489192423927018, ,0.0009549085018225118, ,0.23596038023905566,-0.199200171757747,0.11063835150000001,1.6750032685543808,0.5664949280275161,-1.283300039578857, ,0.10857773633692308,0.12946376747403926,0.03801625661097852,-0.030743048190540172,0.11823564202872366,-0.13719549729973246, ,1.5260388851165771
0.018983026946334778,0.0207634536672838,-0.0992996130548082, ,0.01979441877042266,0.020189191615779853,-0.10016975858838871, ,0.0013210930495632406, ,0.019330932675499842,-0.00586696049383187,-0.0367185042605321,-0.006162742884256793,-0.012464489391134207,0.05644271551654968, ,0.041908886154031884, ,0.013902379281643874, ,0.0009571829400072369, ,0.2370492855743213,-0.1979104753677515,0.11101946076000001,1.6737451288934733,0.567724656525405,-1.2847111944128276, ,0.11034528088194276,0.12703740503142005,0.03829041230769231,-0.11414951008946629,0.12027734936631308,-0.1453994923834087, ,1.5316169261932373
0.018983026946334778,0.0207634536672838,-0.0992996130548082, ,0.01987131082187124,0.020167084619366202,-0.10031388749630844, ,0.0014742648769922111, ,0.019330932675499842,-0.00586696049383187,-0.0367185042605321,-0.006162742884256793,-0.012464489391134207,0.05644271551654968, ,0.041908886154031884, ,0.013902379281643874, ,0.000960374803815786, ,0.2370492855743213,-0.1979104753677515,0.11101946076000001,1.6737451288934733,0.567724656525405,-1.2847111944128276, ,0.11034528088194276,0.12703740503142005,0.03829041230769231,-0.11414951008946629,0.12027734936631308,-0.1453994923834087, ,1.5353848934173584
