NicholasDascanio/dvrk_moveit_final/test/execution/third_experiment_notsharpbends/thirdexp_300vel4.0/thirdexp_300vel4.0_6.csv
Current Position (x),Current Position (y),Current Position (z), ,Planned Position (x),Planned Position (y),Planned Position (z), ,Position Error,,Cartesian linear Velocity(x),Cartesian linear Velocity(y),Cartesian linear Velocity(z),Cartesian Angular Velocity(x),Cartesian Angular Velocity(y),Cartesian Angular Velocity(z), ,Total Linear Velocity, ,Total Angular Velocity, ,MSE, ,Joint 1 Position,Joint 2 Position,Joint 3 Position,Joint 4 Position,Joint 5 Position,Joint 6 Position, ,Joint 1 Velocity,Joint 2 Velocity,Joint 3 Velocity,Joint 4 Velocity,Joint 5 Velocity,Joint 6 Velocity, ,Time Stamp
0.009542010669707297,0.020369254408316592,-0.07518908165745021, ,0.00971976147655059,0.0203049136762845,-0.07545494825098528, ,0.00032622097524501685, ,0.00027099916248807477,-8.811566729732365e-06,-0.0012858798749379903,0.22405454259657803,0.007062315552811654,-0.09107270985872376, ,0.0013141557147263836, ,0.22416581889111856, ,2.718508127041807e-05, ,0.18576261655659634,-0.25580780372581263,0.08606587826,1.6949238131854105,0.5229078846023405,-1.217781630668112, ,0.00032476380755638916,0.0047832117509135595,0.0012647183914381859,0.007578507097072476,0.0,-0.2421311866532463, ,0.03627896308898926
0.009632405768624949,0.020407675780452154,-0.07544854359191117, ,0.009783302437795896,0.020306376862128814,-0.07578487642512324, ,0.0003822970707667379, ,0.0015230067293945074,0.0009385391484028718,-0.007425889579464115,0.22110834500184856,-0.023905242648580353,-0.0637620335064592, ,0.007638340217433331, ,0.22239685436840834, ,3.2205365727807035e-05, ,0.1857703392894706,-0.2555066171437179,0.08631476594000001,1.6942947433549567,0.5177156976112539,-1.2261262763092948, ,-0.00046777799517779646,0.01073634099345358,0.007464297806935334,-0.03173450282875364,-0.022722436101481103,-0.2540332895584285, ,0.07585883140563965
0.009723144855937525,0.020442538935461135,-0.0757930888924906, ,0.009847116827771691,0.020307873261208496,-0.07611322367343962, ,0.0003687684525493496, ,0.0012859008337101007,0.000401397609700732,-0.007829470044430444,-0.1615253613261686,0.02587382244400273,0.055464385253744294, ,0.007944511449538193, ,0.16358452558231723, ,3.366520308003451e-05, ,0.18575489382372212,-0.2548501848494088,0.08665180134000001,1.6940850534114722,0.5142997851171178,-1.2291400192668642, ,0.0008077791369510279,0.020774286680926176,0.007901196190476193,0.0,0.0310179192311232,0.15224333147575186, ,0.11336684226989746
0.009754795529091712,0.020444585783125368,-0.07603896806144925, ,0.00991120214607553,0.020309402144814675,-0.07643999156887425, ,0.00045117346931162973, ,0.0013310075648290732,0.00015368827951871234,-0.008825461165090582,-0.049557543710044484,0.03194357005344402,0.030561127019953744, ,0.008926587589970517, ,0.05896051011305097, ,3.6391903996969855e-05, ,0.18575489382372212,-0.254101079760609,0.08689939273000001,1.6934559835810188,0.5160760596140685,-1.227157944929014, ,-0.0001582658554206648,0.02591396547200185,0.008829718137472286,-0.017465081109325202,0.038212657412139125,0.025279518081954333, ,0.14876890182495117
0.009826361281995422,0.020445120250270662,-0.07641657475721306, ,0.00997555590213612,0.020310962790363245,-0.07676518169690581, ,0.0004022238893075419, ,0.0018452340236849681,-0.00012699912989410587,-0.009358314427889704,0.05046281793839971,-0.002751549757141563,-0.02253496345373228, ,0.00953934307551663, ,0.050537777439976804, ,3.71285357150053e-05, ,0.18577806202234481,-0.25290405616510425,0.08727142796000001,1.693246293637534,0.516212696113834,-1.2291479738559432, ,0.0011995105634763034,0.030760759014091015,0.009180871193083574,-0.013489514277066184,0.0,-0.08826927044731953, ,0.18524599075317383
0.009873655557943046,0.020440542261399044,-0.07666684541276605, ,0.010040175615198408,0.020312554481381508,-0.07708879565551767, ,0.00047132983001322204, ,0.0017688017890379615,-0.00015009334456706148,-0.009355457438779793,-0.021857188353363307,-0.0039049450706079227,0.005272168261172593, ,0.009522382667683934, ,0.022203270188215298, ,3.874215624505642e-05, ,0.18578578475521904,-0.25208544648043646,0.08751642677,1.6926172238070805,0.516212696113834,-1.2297197250369272, ,0.00024294751197757031,0.030691119520850834,0.009165023889528194,-0.015663926580137714,0.0,-0.011797220106001694, ,0.22141599655151367
0.009926290810668762,0.020434226971984524,-0.07694169214239838, ,0.01010505881430859,0.0203141765074941,-0.07741083505516147, ,0.0005162026595684832, ,0.0016946495811318058,-0.00017497236981372022,-0.00921774987997718,-0.019628628101942974,-0.00027559759122408383,-0.006086653863067686, ,0.009373866085177863, ,0.01963056108852391, ,4.1101638686788466e-05, ,0.18578578475521904,-0.25115099580265526,0.08778475880000002,1.6924075338635962,0.5160760596140685,-1.229771664613512, ,-0.0004531112268383011,0.03098169819081645,0.009019712072480182,-0.003938571190614211,0.0,-0.012239115982443951, ,0.25398993492126465
0.00998439005295447,0.02042991355242632,-0.07726611588144808, ,0.010170203038298915,0.020315828164409945,-0.07773130151872225, ,0.0005137505410290471, ,0.0021300501747906777,0.0006738531471495294,-0.011491191527592287,0.010034410970028863,0.006907351719428825,-0.0326838418266129, ,0.011706351888391954, ,0.01218198304565959, ,4.289958609738785e-05, ,0.18578578475521904,-0.2501470405290061,0.08810364614,1.6911493942026892,0.5163493326135995,-1.2307296090821698, ,-0.0002932718781564629,0.028774087798202178,0.011484363028118241,0.01604546310761112,0.0019260507708429443,-0.03749065563776521, ,0.2861809730529785
0.01007139807768493,0.020460036315530707,-0.07771848599678123, ,0.010235605835772746,0.02031750875390877,-0.07805019668148273, ,0.00039662358979675096, ,0.0020072613361922656,0.0005071091592744842,-0.009877074273805037,0.0038109732723293774,0.0019722972102580983,-0.011937013767658875, ,0.01009172205232852, ,0.004291081398089046, ,4.301787053469415e-05, ,0.18582439841959014,-0.24909674885811156,0.08855734764,1.6911493942026892,0.516485969113365,-1.232066208087975, ,0.002324084016923122,0.024578332441976374,0.0098875304283054,-0.0015393940840035976,0.004225871383061863,-0.02966718577479535, ,0.31869983673095703
0.01012533970494793,0.020465936491181794,-0.07799664502589591, ,0.010301264765089182,0.020319217583827598,-0.07836752219108833, ,0.00043591964422594944, ,0.0017553113300019445,-0.00010476321226147442,-0.008373605576097938,3.5920115474262634e-05,-0.006032960135031815,0.018966904589580284, ,0.008556247047621698, ,0.006033063655997649, ,4.351540940626253e-05, ,0.18586301208396128,-0.24833992103643757,0.08883345741000001,1.6905203243722353,0.5166226056131303,-1.2328310559127957, ,0.0030091184307949976,0.025258701506114128,0.008261831701244815,-0.034936380252404566,0.005076941791384434,-0.03265800218143661, ,0.3513197898864746
0.01017551231947017,0.020468204114304188,-0.07826000683064631, ,0.010367177394347947,0.020320953968046986,-0.07868327970751092, ,0.000487419772670247, ,0.0018271093148172419,0.00033534937035209673,-0.009862905478441824,0.018566511233136653,0.004115860316686596,-0.019148590052521206, ,0.010036318654026747, ,0.019017243548579827, ,4.441055976153248e-05, ,0.18588618028258394,-0.2475676477490151,0.0890940117,1.6903106344287508,0.5167592421128957,-1.2338409399580383, ,0.0,0.026207385130756915,0.009808381477832513,-0.000603241300049131,0.0034266814656892072,-0.04692451962689212, ,0.3836538791656494
0.010233648885970335,0.020474451115012678,-0.07856495719128537, ,0.01043334130137412,0.020322717226478097,-0.0789974709030146, ,0.000499968343531283, ,0.0019468364844090677,1.3298227148610434e-05,-0.010084740418526658,0.0012452478502164494,-0.008482590693448878,0.02467892998114917, ,0.010270946326845292, ,0.008573498864035196, ,4.5274984810476366e-05, ,0.1859016257483324,-0.24675676079722153,0.08939604727000001,1.6894718746548125,0.5167592421128957,-1.2344126911390223, ,0.0012023284562358706,0.028142627982939143,0.009955507200000002,-0.044298672458056534,0.0028337029943425645,-0.038911194765847035, ,0.4165217876434326
0.010309277190963279,0.02047668869919774,-0.07895852077726034, ,0.010499754073702905,0.020324506685048337,-0.07931009746211848, ,0.00042783989251191985, ,0.0017723608733799957,-8.769889194795786e-05,-0.009334301649980904,0.017380001209354852,0.009258097693031545,-0.019105276960642393, ,0.009501481013714307, ,0.01969204773682984, ,4.5437905044217425e-05, ,0.18596340761132618,-0.24559835086608786,0.08978623056000001,1.6892621847113283,0.5171691516121921,-1.2357270897317982, ,0.0011677840416528208,0.029271110906375932,0.009218062222222224,0.0,0.009793827023885093,-0.048267729365588936, ,0.44916582107543945
0.010368008461370164,0.020472798843840182,-0.07925642406064058, ,0.010566413308564067,0.020326321675688694,-0.07962116108156272, ,0.00044028756354327675, ,0.001755350167445084,-0.00031250542575810914,-0.009296713615797089,0.0015735346782558505,-0.0033470101095191816,0.024456640046277258, ,0.00946613954606759, ,0.0036984346162792833, ,4.601523078248462e-05, ,0.18600202127569732,-0.24470251385267783,0.09007919210000001,1.68842342493739,0.5171691516121921,-1.2363805196529227, ,0.001117326809451214,0.029226036821210586,0.009117808540354896,-0.04327441513953076,0.0077064949965765725,-0.0398403717497478, ,0.47894787788391113
0.010398814161815761,0.02047370264845677,-0.07940923429456904, ,0.010633316612866794,0.020328161536319878,-0.07993066347027247, ,0.0005899677958547751, ,0.0021720587856124793,-4.093106867148833e-05,-0.010643597896800059,-0.011689561378103803,-0.006487373791577013,0.014257566216263983, ,0.010863042433374989, ,0.013369058580421426, ,4.758860631152645e-05, ,0.18604063494006845,-0.2442545953459728,0.09023085803000001,1.68842342493739,0.5173057881119575,-1.2369820099974624, ,0.0025236936586518896,0.030730874857017743,0.010514067009900992,-0.02901142805020982,0.002632721230107012,-0.024991387567634436, ,0.5075697898864746
0.010476734118327728,0.020476256243233418,-0.07978444191394704, ,0.01070046160318409,0.020330025610838402,-0.08023860634932228, ,0.0005269750655301564, ,0.0024495480487425245,0.0005036176713889041,-0.011575899552036487,-0.002164735374658537,-0.00051943110951447,0.0017329892940996067, ,0.0118429458683586, ,0.002226135678362245, ,4.857025876144554e-05, ,0.18614875320030758,-0.24321202640795248,0.09060289326000001,1.687584665163452,0.517442424611723,-1.2380735727828458, ,0.00407554691540074,0.02765062399722342,0.01160146505462491,-0.015532215379067139,0.0069425388474767405,-0.029003671395344, ,0.5363128185272217
0.010548374095334379,0.020491078502914595,-0.08014452942382576, ,0.010767845905737483,0.020331913249103637,-0.08054499145190055, ,0.0004836024085052742, ,0.002332860083177896,0.0006246204044858441,-0.011512068509965865,0.02752741392870523,0.009551743697362853,-0.051337384275915235, ,0.011762657361137938, ,0.02913750372061846, ,4.917561123541822e-05, ,0.18622598052904982,-0.24235480305891358,0.09096326188000001,1.6869555953329984,0.5177156976112539,-1.2391948747317847, ,0.0021191160848475312,0.02822633597812932,0.011542617043478264,0.030699059161945142,0.0033174217391540905,-0.05258721977496888, ,0.5650019645690918
0.010612390386400564,0.02049284655747698,-0.08044616036732812, ,0.010835467156381397,0.020333823806923633,-0.08084982052327404, ,0.00048784526439940004, ,0.002056405806039924,-0.0002756016615567772,-0.008991952401148442,-0.0023001763316679615,0.0005025387695462969,-0.009889792966892175, ,0.009228215921806705, ,0.002354420860040184, ,4.974797714157613e-05, ,0.18632637605641475,-0.24148985697700043,0.09126270487,1.6869555953329984,0.5178523341110194,-1.2398780438164652, ,0.004989734428321272,0.029379858067638008,0.008873989704735376,-0.003767634477231037,0.006020369711621667,-0.028492175915500538, ,0.5941150188446045
0.010673308922189456,0.020492603575853998,-0.08074536747731666, ,0.0109033230005877,0.020335756646042296,-0.08115309532075282, ,0.0004937098641569316, ,0.002056663797571095,0.00020454581207457912,-0.010842254335914762,-0.0057019071926814715,0.0014437483836996106,0.02478754860705622, ,0.011037489934316556, ,0.00588183688992418, ,5.030130689316181e-05, ,0.1864113261180312,-0.24064807909370994,0.09155955528000001,1.686326525502545,0.5181256071105501,-1.2405092733245608, ,0.0015342573168403628,0.027067011283077806,0.010799194250847459,-0.038140472234628735,0.011893588030318918,-0.028607285690446967, ,0.6232898235321045
0.010719141395417329,0.02050288074881649,-0.08097037700517268, ,0.010971411093430146,0.0203377111341249,-0.08145481761365356, ,0.0005706169514640891, ,0.00248898210734545,0.00044505048942886734,-0.011713008463707748,0.00029810404735011574,-0.006998655384209658,0.007816984208048671, ,0.01198280723118402, ,0.007004985563413877, ,5.151523913322824e-05, ,0.1864653852481508,-0.24011521052538845,0.09178510974000001,1.686326525502545,0.5182622436103156,-1.2409474061888195, ,0.003713339457821708,0.02737148588360853,0.011712361411764708,-0.02477068329111341,0.0019877983464682667,-0.0334740200495021, ,0.6484248638153076
0.010793653522953969,0.020517440632205782,-0.08133679868441084, ,0.0110397290995688,0.02033968664474522,-0.08175498918326538, ,0.00051675232248792, ,0.0024515362396415087,0.0004821789474188583,-0.012715289452694463,-0.013819914025888662,0.012153040829545611,0.04465296245134921, ,0.0129584378818364, ,0.01840342611337177, ,5.235024260143852e-05, ,0.18658894897413839,-0.23928115537497222,0.09215325610000001,1.6852780757851225,0.5188087896093774,-1.24212818646487, ,0.0037097378014331306,0.028259958772623817,0.01279422612048193,-0.05266156659118243,0.028868089893945095,-0.02279505209248916, ,0.6739158630371094
0.010857703996265119,0.020529060295716117,-0.08164299648575485, ,0.011108274693234407,0.020341682557371427,-0.08205361182281322, ,0.0005162373930997299, ,0.002381191534345059,0.0006029462235226997,-0.012021526742858264,0.015031082072895115,0.020230418537983044,-0.042235964944616435, ,0.012269911267036663, ,0.02520323414627897, ,5.312233381220996e-05, ,0.18666617630288063,-0.23856294121766933,0.09245918054,1.6848586958981533,0.5188087896093774,-1.2426182589057135, ,0.002647604708201921,0.02891436366802888,0.012094769567198179,0.028873997981919267,0.015766825825380762,-0.03946749761480142, ,0.698969841003418
0.010903797781299657,0.02053451658701611,-0.08186714189703011, ,0.011177045558212764,0.020343698257352612,-0.08235068733742319, ,0.0005872752126971347, ,0.0024401237252008466,0.00014097023788031996,-0.011171538367823614,-0.0002776859863290136,0.001471499282088656,-0.014550897714504872, ,0.011435792316495223, ,0.001497412981751244, ,5.419406951376053e-05, ,0.18673568089874865,-0.23797601351922826,0.09268343871000001,1.6850683858416375,0.5190820626089083,-1.2432494884138092, ,0.004444916878993981,0.030097349051211794,0.011131244947589101,0.0,0.005468300897895077,-0.030720019490084745, ,0.7240438461303711
0.010975628840748633,0.020531912612349972,-0.08220496179746772, ,0.011246039387829065,0.02034573313590543,-0.08264621754408569, ,0.0005499920866202335, ,0.0025177695111280713,-0.00010959040378157893,-0.011751916460754746,-0.004466909934239747,0.002788718419104152,0.02739965815739934, ,0.012019097880803095, ,0.0052659292275169045, ,5.5014423360029324e-05, ,0.18687469009048469,-0.23703384010857287,0.09301917782,1.6842296260676997,0.5194919721082046,-1.2441554933058825, ,0.005497200419905983,0.032190278683334725,0.01169516264317181,-0.04277691169560646,0.018200570003508096,-0.03574708859875347, ,0.7494869232177734
0.011029108282874848,0.0205378003693818,-0.0824486832795247, ,0.011315253884932227,0.020347786590099802,-0.0829402042716212, ,0.0005996477529060988, ,0.0029118202592876546,0.00019032234767710514,-0.013073542039714895,-0.012049741265195368,-0.003363703226702397,0.013859633882823163, ,0.01339523875422219, ,0.01251041094612051, ,5.601231540368464e-05, ,0.18697508561784962,-0.2364160214786349,0.09326288034,1.6842296260676997,0.5196286086079701,-1.2445119474300006, ,0.006221950162858326,0.03304211057049818,0.013056402885245903,-0.027842531210501127,0.009142850486755734,-0.02637196182566448, ,0.7742679119110107
0.011112445516964988,0.020541191947272264,-0.08282501066507908, ,0.011384686761879186,0.02034985802284587,-0.08323264936064448, ,0.0005262064919697376, ,0.002629736396852202,0.00023696617243421092,-0.011719415122972674,0.02219847277214954,0.0028472095803561957,-0.008124982281897838, ,0.012013174322732852, ,0.022380316680967634, ,5.661646082775646e-05, ,0.18716043120683098,-0.2354352344036084,0.09363880444000001,1.6836005562372458,0.5200385181072663,-1.2458263460227765, ,0.005978285948075162,0.02921703865716465,0.011738254620486369,-0.013963869411583221,0.01129346432775999,-0.05594978752938107, ,0.8032119274139404
0.011160536381702363,0.020537122451766202,-0.0830320544184752, ,0.011454335740519135,0.020351946842879692,-0.08352355466352779, ,0.0006018143902021484, ,0.0022926681864923236,-0.00014666254577834427,-0.009952103504509861,-0.0035109965197165703,0.010618481422313366,-0.037758708122848504, ,0.010213824038045969, ,0.011183878873157988, ,5.776609076300037e-05, ,0.18726854946707014,-0.23484830670516735,0.09384361826000001,1.6829714864067924,0.5200385181072663,-1.2463980972037605, ,0.0054899232123237695,0.03072092637049879,0.009893671751552797,0.02813582671099876,0.009406192542292436,-0.022251453472849694, ,0.8248538970947266
0.011223970655455481,0.02053747893162361,-0.08331962796855472, ,0.011524198552177789,0.020354052464750427,-0.08381292204436659, ,0.0006059051938636706, ,0.0029796727008311427,0.0005105934483282655,-0.013091474228145064,0.007261967039656667,0.00862772049140063,-0.01155440126428249, ,0.013435990939999198, ,0.011277115837911933, ,5.887424738387929e-05, ,0.18742300412455462,-0.234045142486248,0.09413139464,1.683181176350277,0.5205850641063281,-1.247252162519249, ,0.0073736332355670495,0.030173908285682283,0.013197026942833473,-0.0031477046946126654,0.016481582441693548,-0.03863706786288263, ,0.8465399742126465
0.011296810055508892,0.020551667852682986,-0.08364186151234786, ,0.011594272937641691,0.020356174308805583,-0.08410075337894359, ,0.0005807612566039592, ,0.0029185348249411436,0.0004710269641260169,-0.013438989121940555,0.00867330084337391,0.007580405551013477,0.022704244561248997, ,0.013760310336070352, ,0.011519038912834402, ,5.9822229768465475e-05, ,0.1875774587820391,-0.23336554199331624,0.09445546714000001,1.6823424165763388,0.5207217006060936,-1.2479353316039294, ,0.0066869047469956125,0.029461950188907415,0.013544907755102044,-0.03969841316389339,0.023248318004109775,-0.04596973327049165, ,0.870175838470459
0.011361354678572627,0.020564097640114215,-0.08390837113851425, ,0.011664556647142261,0.020358311801177868,-0.08438705055469317, ,0.0006028376470697807, ,0.003263615708489555,0.0005803449969746211,-0.013397163687739522,-0.0012412136735198166,-0.0010499030738909151,0.014858227875450018, ,0.013801158744261282, ,0.0016255695201711187, ,6.081371053455892e-05, ,0.18773963617239783,-0.23277861429487517,0.09472379917000001,1.6823424165763388,0.5207217006060936,-1.2482620465644918, ,0.009942967077840389,0.028566207573290422,0.013544907755102044,-0.02877344966388578,0.015351760136000358,-0.032956794732371765, ,0.8917109966278076
0.01142841128471974,0.020578558204786514,-0.08418435043225361, ,0.011735047440340242,0.02036046437377152,-0.08467181547066543, ,0.0006158025777263008, ,0.003365823148139168,0.0007329663700274811,-0.013820208687270255,-0.0025429458201435837,-0.001343993782105519,-0.01244266348067035, ,0.014243039469293096, ,0.002876176031671519, ,6.180942606836427e-05, ,0.1879481499600019,-0.23219940932930833,0.09500379781000001,1.6821327266328545,0.5211316101053899,-1.248923015236143, ,0.009248404336758274,0.029226036821210586,0.01397264168421053,-0.00035180659886296836,0.007669150815759557,-0.02732476895193047, ,0.9141099452972412
0.011491577367070117,0.02058320441313267,-0.08444632044611318, ,0.01180574308630959,0.02036263146424838,-0.08495505003749115, ,0.000637305517054708, ,0.0030248983263918027,0.00010652656707741445,-0.01296159763366228,-0.02478867804527797,9.455192910109425e-05,0.05707792507272425, ,0.013310310703039988, ,0.024788850991090496, ,6.284217397783915e-05, ,0.1881334955489833,-0.2315970361651188,0.09526694468,1.6810842769154317,0.5214048831049207,-1.2496359234843795, ,0.009077114003518039,0.030464507723425613,0.013024375731807033,-0.06512061405169087,0.024570125145112375,-0.016341733150397136, ,0.9354739189147949
0.01155627495650311,0.020589027711576557,-0.08470429999304933, ,0.011876641363521935,0.020364812516013825,-0.08523675617734552, ,0.0006606184048773123, ,0.0034765517777230644,0.0006530470912579629,-0.013350060502140732,-0.010355416110947471,-0.006281070401589682,-0.02768455221533307, ,0.013810756611330457, ,0.012111402238034752, ,6.415931289414379e-05, ,0.1883265638708389,-0.23097921753518086,0.09552620268,1.680874586971947,0.5215415196046862,-1.2498290201282163, ,0.010624377693514419,0.029416286905911585,0.013487562675698563,0.017451210104338484,0.0,-0.01631561866679917, ,0.9541208744049072
0.01162309853213178,0.02059558087788402,-0.0849747925827237, ,0.011947740059830502,0.020367006978203685,-0.08551693582391383, ,0.0006719802401036645, ,0.003175756193237467,0.00041186862879645145,-0.013320293305316104,0.023201026729235928,0.024727746871818963,-0.015673545957531086, ,0.013699827623219274, ,0.0339079443096292, ,6.546969974352046e-05, ,0.1885505231241914,-0.23031506250799755,0.09579971987000001,1.6810842769154317,0.522088065603748,-1.2507647641838455, ,0.010494194309368085,0.031123955906353157,0.013510442340966922,0.0,0.03521410851152049,-0.05467124155690388, ,0.9722609519958496
0.011698451745760745,0.02060255836166247,-0.08528199596606918, ,0.01201903697245442,0.02036921430566985,-0.0857955909223537, ,0.0006488482990362351, ,0.003964661905826005,0.00081976282773373,-0.017171574692181318,-0.009185164341358555,-0.0033169225137213475,0.030924280481623836, ,0.017642378879573012, ,0.009765640069723722, ,6.664735468974254e-05, ,0.18875903691179546,-0.22962001654931735,0.09610823689,1.6802455171414936,0.5222247021035133,-1.251202897048104, ,0.009611757791639421,0.03398887591635773,0.017351646535947715,-0.04658101564489693,0.016716184489778123,-0.033595787162435754, ,0.9915969371795654
0.011782631051105776,0.020620767892248218,-0.08563568391080602, ,0.01209052990796277,0.020371433958966796,-0.08607272342926175, ,0.0005898920723585381, ,0.004099700246317556,0.0006195243498730632,-0.016564327392236438,-0.004649185944183463,0.003328443579903205,-0.03143252392122146, ,0.017075370991194782, ,0.005717711045584429, ,6.757057518941818e-05, ,0.18897527343227374,-0.22890952512488869,0.09646601293000001,1.6798261372545245,0.5224979751030443,-1.2518341265561996, ,0.01145268423346256,0.03762765327457208,0.016714387743966424,0.017500621221518912,0.01049801226252496,-0.030198706643054397, ,1.0097119808197021
0.011859267282790709,0.020626806064237457,-0.08593895204094328, ,0.012162216682258685,0.02037366540433755,-0.08634833531263657, ,0.000568729457189332, ,0.0034651611690146335,-0.00011051061106401208,-0.013776480673507818,0.017706969973042743,0.019085369866593004,-0.014389893926963425, ,0.014206018945149236, ,0.026034354847609967, ,6.838639349769464e-05, ,0.18922240088424894,-0.22816814276896313,0.09677193737,1.6800358271980091,0.5229078846023405,-1.2526584527081321, ,0.0123003164690176,0.03719989869011007,0.01386319540469974,-0.003945563350565102,0.03211981986594765,-0.05617955686245086, ,1.0279548168182373
0.011895950202331106,0.020622619700762332,-0.08607458932269084, ,0.012234095120563528,0.02037590811369992,-0.08662242855184377, ,0.0006894464547128658, ,0.0035397576875628284,-0.00020921717323739436,-0.013725655772428005,-0.020149571389651965,0.007266557397764894,0.00672545457012345, ,0.014176292981432904, ,0.021419794500614216, ,6.959304102277934e-05, ,0.18934596461023653,-0.22778972885812615,0.09690675153000002,1.67961644731104,0.5229078846023405,-1.252903488928554, ,0.012502890850918416,0.037419929636620976,0.013767339256698359,-0.015139941515811236,0.023531308508717836,-0.0189733215347826, ,1.0457170009613037
0.011969289870137867,0.020619587979232166,-0.08635755016642932, ,0.012306163057400949,0.020378161564632857,-0.08689500513757972, ,0.0006786958847505597, ,0.0038274428422528485,-5.741194721809329e-05,-0.015118616371789352,-0.012698822869026287,-0.006964521296831175,0.01766113873489718, ,0.015595678114135755, ,0.014483227170576443, ,7.072181467341642e-05, ,0.18960081479508595,-0.22704062376932635,0.09719063904000001,1.6791970674240708,0.5233177941016369,-1.2534827788600649, ,0.011733213140144772,0.03805009685584233,0.015141455817490494,-0.03417149208903884,0.012163407354772558,-0.032042779881742284, ,1.0636579990386963
0.012045816376274466,0.020620421261648703,-0.08666593647060647, ,0.01237841833658106,0.020380425240362657,-0.0871660670718369, ,0.0006468019577274258, ,0.0036613186936265336,-7.849725143673197e-05,-0.01552329121503931,-0.02330443361281222,0.01784546805491437,0.016301952326606337, ,0.0159494196302467, ,0.02935228193360593, ,7.19471166903651e-05, ,0.18983249678131267,-0.22625290501615547,0.09750045235000002,1.6791970674240708,0.5237277036009332,-1.2543887837521381, ,0.010847484624728138,0.039722453561519794,0.015601186601371206,-0.022849174976018537,0.03450283383570774,-0.018794740114490366, ,1.0782577991485596
0.012090930865214806,0.020622916983462018,-0.08684035016759631, ,0.012450858811184332,0.020382698629748324,-0.08743561636786763, ,0.0007359312691659596, ,0.0046515501616803566,0.0007664525466621742,-0.0190205482734205,-0.017743685400375665,0.009160809866668427,-0.005486978681804155, ,0.019596061467408013, ,0.01996888378160893, ,7.343596320998137e-05, ,0.1899637832401745,-0.22585904563957002,0.09766897005000001,1.6789873774805866,0.5237277036009332,-1.25463381997256, ,0.01328902696519686,0.040261748645935846,0.019237695072463774,-0.004157890275644826,0.023961633476145733,-0.022501887913173056, ,1.0923478603363037
0.012112386530650976,0.02062652373661587,-0.08692588369368634, ,0.012523482343545894,0.020384981227268784,-0.08770365505014807, ,0.0009122887887800348, ,0.00523390143859523,0.0011413560265117922,-0.01996532859485727,-0.01649888865159055,-0.01865269660070202,-0.0006938773176727827, ,0.020671496408068993, ,0.024902474673344135, ,7.546397939339157e-05, ,0.1900332878360425,-0.22567370005058862,0.09776230293,1.678777687537102,0.5238643401006987,-1.2547452378762562, ,0.01569841878552039,0.03786789367855977,0.020239912986022877,-0.015548113872313458,0.0,-0.02501589215840669, ,1.1069929599761963
0.012243261124590838,0.020650661853060276,-0.08744675160044779, ,0.012596286805239476,0.020387272533008455,-0.08797018515434388, ,0.0006840933784645785, ,0.0046608458944417085,0.0007952564669792151,-0.01899715376060524,0.019503640683788136,0.02938360158546937,-0.024404542086704034, ,0.019576714951801393, ,0.03526734421261377, ,7.670099382993207e-05, ,0.1904425926783764,-0.22466974477693943,0.09829118925000001,1.6775195478761948,0.5245475225995259,-1.2558740785757223, ,0.014857827079766834,0.040108597446521885,0.019331081941747576,0.007659812721885691,0.04257819028609574,-0.05821847000868255, ,1.1219818592071533
0.012293772960936622,0.020657914318700902,-0.08763665427294, ,0.012669270077061472,0.020389572052643166,-0.08823520872727329, ,0.0007558260982351083, ,0.004757971793736889,0.0006461745179816031,-0.018703215383964973,0.006985998400425312,0.013911039715958862,-0.025617568128234323, ,0.019309741137484692, ,0.015566595998137199, ,7.813556930250516e-05, ,0.1905970473358609,-0.22426816266747976,0.09848304017000001,1.6775195478761948,0.5245475225995259,-1.2561191147961441, ,0.015096554495461469,0.040798341168732065,0.01896287085714286,0.009019087202691671,0.026824889344194393,-0.046416347095854044, ,1.136462926864624
0.012388643534572476,0.020668255531547938,-0.08798559880473139, ,0.012742430049015097,0.02039187929742674,-0.08849872782687271, ,0.0006817991742090758, ,0.004920726323060683,0.0005533148830835769,-0.01716554095236637,-0.0008254332200200481,-0.00504115344653246,-0.016355090557307814, ,0.017865483511331874, ,0.005108138381538427, ,7.930041755802268e-05, ,0.1909368475823268,-0.22348816664718307,0.09883692734,1.6777292378196795,0.5249574320988222,-1.2569434409480766, ,0.01902123502875742,0.03730225690191462,0.017389532227074237,0.0,0.01351381860489776,-0.03729093151143756, ,1.151944875717163
0.012439430036277201,0.020670356912276706,-0.0881742489588552, ,0.012815764620294328,0.020394193784176867,-0.08876074452215968, ,0.0007495804414638032, ,0.004581406681542322,0.00016361097805463925,-0.017718989740474724,0.03731658145167344,0.04704853405007865,-0.008689198074056442, ,0.018302422057117716, ,0.06005072906214753, ,8.089941502299061e-05, ,0.19112991590418238,-0.2230865845377234,0.09901581536000001,1.6773098579327104,0.525503978097884,-1.2577158275234244, ,0.018903773218818882,0.04228918964281229,0.01812151481228669,-0.011057292158525127,0.06867053720181174,-0.09227120102320209, ,1.1625478267669678
0.01247918645023129,0.020670064766162625,-0.08832322116193504, ,0.012889271699268018,0.02039651503526112,-0.08902126089319866, ,0.0008545518317670278, ,0.0048962177001849955,2.637100188735656e-05,-0.017968215390267245,-0.022558749551799522,-0.00014560574283495125,0.028467567465454566, ,0.018623383352881454, ,0.022559177942235685, ,8.279369857313939e-05, ,0.1912920932945411,-0.2227004478940122,0.09917914790000001,1.6768904780457412,0.5257772510974149,-1.2582653782913797, ,0.018235384619229588,0.04259288220757216,0.01814215435079727,-0.04084416171794965,0.027362257043977194,-0.026696201610721913, ,1.1768808364868164
0.012594090824472926,0.020678906496497073,-0.08873838330605881, ,0.01296294920346389,0.020398842578582894,-0.08928027903106446, ,0.0007128416925578104, ,0.005617470820147448,0.0004290572334866103,-0.0203895878449165,-0.041640121890098795,-0.015547039959123612,0.021358187168091312, ,0.021153613426797366, ,0.044447797228450624, ,8.421842433031237e-05, ,0.1916705072053781,-0.22176599721623103,0.09959784957000001,1.6768904780457412,0.5257772510974149,-1.2585920932519419, ,0.01932334383190201,0.044282287241470264,0.020606483208279434,-0.031056431832727254,0.010775426922305908,-0.007362703445795914, ,1.1879689693450928
0.012652811655635839,0.020687015699409304,-0.08896406887599997, ,0.01303679505955274,0.020401175947568122,-0.08953780103780754, ,0.0007472056020324096, ,0.005842484036795832,0.0011263010633237903,-0.022823540747809144,0.05502546937501939,0.05294598057874426,-0.01707050622279257, ,0.02358637712902011, ,0.07636146244137837, ,8.572161681980014e-05, ,0.19189446645873062,-0.22130263324377755,0.09982858919000001,1.676680788102257,0.5264604335962421,-1.2593942189908458, ,0.022151480289092154,0.04419978647343771,0.023424722823529417,-0.007674217787832708,0.07694320237956091,-0.1009916042877302, ,1.1992340087890625
0.012708943703354132,0.020696579100533324,-0.08919125150366765, ,0.01311080720333228,0.020403514681150623,-0.08979382902641728, ,0.0007813326419943593, ,0.005947750689680982,0.0010381601469673935,-0.02261997947814156,-0.005755210664523013,0.038888751450907096,0.013916008367076228, ,0.023411898392674126, ,0.03931223114126144, ,8.730043546900182e-05, ,0.1921107029792089,-0.22086243746994674,0.10006192139000002,1.6762614082152878,0.5274168890946002,-1.2604191805371423, ,0.02285571810175115,0.043751471442356284,0.02318604296943232,-0.02058977875435217,0.06741587721903002,-0.03917366117942553, ,1.2101078033447266
0.012772976409968554,0.020705450293152863,-0.08941621743313759, ,0.013184983579711249,0.020405858323758495,-0.09004836512078736, ,0.0008118595660863601, ,0.006194929495649409,0.0003912955016692125,-0.022659560221477495,-0.03994970435217845,-0.013850241045875114,0.07514010897455956, ,0.023494380882595284, ,0.04228240864665913, ,8.894210191580586e-05, ,0.1923346622325614,-0.2204376871618644,0.10029006843,1.6756323383848342,0.5274168890946002,-1.2605825380174234, ,0.022307696652202814,0.046862687189368285,0.02295217798270894,-0.08873551924849214,0.02821031030841564,-0.0221802566198762, ,1.220808982849121
0.012841835748080517,0.02071161905868775,-0.08966121136335342, ,0.013259322142693507,0.020408206425300016,-0.09030141145567958, ,0.000822320055696472, ,0.007049275118951786,0.0011524229722153362,-0.025156347205119355,-0.02126709493677226,-0.002875080044311773,-0.03458489414418695, ,0.026150758365945694, ,0.02146032006930099, ,9.058557454879123e-05, ,0.19256634421878815,-0.21992798679216558,0.10053765982000001,1.675212958497865,0.5274168890946002,-1.2605008592772828, ,0.024616586655893846,0.05005112951396138,0.025609021736334413,0.021724015120542322,0.016971195717512808,-0.024190395102965584, ,1.2321398258209229
0.012911163795801145,0.02072300476944994,-0.08991444343236507, ,0.013333820855362007,0.020410558541149842,-0.09055297017668834, ,0.0008270296480729488, ,0.007021141121251318,0.0012699716383204145,-0.02484914581665853,-0.026543027293691304,-0.01599739223952063,-0.029125968447025755, ,0.02585322607382341, ,0.030990956452752568, ,9.248515836930701e-05, ,0.1928057489378891,-0.21943373188821522,0.10079562153,1.675212958497865,0.527690162094131,-1.2609687313050972, ,0.023742041921058485,0.04742475840003537,0.02528382780952381,0.015616933817207183,0.004076107151463564,-0.01788463578495014, ,1.2393269538879395
0.012911163795801145,0.02072300476944994,-0.08991444343236507, ,0.013408477689862855,0.020412914232134975,-0.09080304344020572, ,0.0010644656990685538, ,0.007021141121251318,0.0012699716383204145,-0.02484914581665853,-0.026543027293691304,-0.01599739223952063,-0.029125968447025755, ,0.02585322607382341, ,0.030990956452752568, ,9.505678229424836e-05, ,0.1928057489378891,-0.21943373188821522,0.10079562153,1.675212958497865,0.527690162094131,-1.2609687313050972, ,0.023742041921058485,0.04742475840003537,0.02528382780952381,0.015616933817207183,0.004076107151463564,-0.01788463578495014, ,1.2483999729156494
0.012911163795801145,0.02072300476944994,-0.08991444343236507, ,0.013483290627389392,0.020415273064520786,-0.09105163341338464, ,0.0013096675022970892, ,0.007021141121251318,0.0012699716383204145,-0.02484914581665853,-0.026543027293691304,-0.01599739223952063,-0.029125968447025755, ,0.02585322607382341, ,0.030990956452752568, ,9.831129955502915e-05, ,0.1928057489378891,-0.21943373188821522,0.10079562153,1.675212958497865,0.527690162094131,-1.2609687313050972, ,0.023742041921058485,0.04742475840003537,0.02528382780952381,0.015616933817207183,0.004076107151463564,-0.01788463578495014, ,1.2556428909301758
0.012929618210587333,0.02072601362114822,-0.08998161065167082, ,0.013558257658166106,0.020417634609997036,-0.09129874227410409, ,0.0014916839076642302, ,0.007165297480818752,0.0011565961700556295,-0.024707178193528873,-0.017679584519550255,-0.01329893428214246,-0.0303629418251972, ,0.025751191370031866, ,0.02212284237786067, ,0.00010205425131385624, ,0.19287525353375712,-0.2193024454293534,0.10086432490000001,1.675212958497865,0.5278267985938964,-1.2611618279489343, ,0.026013415997387823,0.048244505113609955,0.025163999241706165,0.014411771829722584,0.00924112718815422,-0.028060349960697516, ,1.2627627849578857
0.013066922898487897,0.020737654070554643,-0.09045924901650802, ,0.013633376781432767,0.020419998445663716,-0.09154437221093376, ,0.001264621462971775, ,0.005900871408564593,-0.0004913399372403298,-0.019061143729877533,0.009949072912420849,0.0009182244601761802,-0.00812559414590064, ,0.01995968182625645, ,0.009991229743035535, ,0.00010510170234932767, ,0.1934081221020786,-0.21828304468995577,0.10135043365000002,1.6750032685543808,0.5285099810927236,-1.2623723473885409, ,0.02596359550163359,0.05018346988813896,0.019260957097944377,-0.016969731497671992,0.03004533523850012,-0.06433980362879127, ,1.2698190212249756
0.01314763084538809,0.020731526056079554,-0.09072947160378181, ,0.013708646005428524,0.02042236415401764,-0.09178852542309783, ,0.0012377051683214331, ,0.009509123200912233,0.0010289323879728622,-0.03301133267183589,-0.06159561496872207,-0.031578514466122816,0.04968644493460113, ,0.03436902981871567, ,0.06921837297007745, ,0.00010803742167396417, ,0.19373247688279605,-0.21760344419702402,0.10162265455000001,1.674374198723927,0.5287832540922546,-1.262758540676215, ,0.03429596731422869,0.06459968792271667,0.033534340042105266,-0.06562336772382409,0.017074355119544974,-0.01392299171636958, ,1.2782189846038818
0.01314763084538809,0.020731526056079554,-0.09072947160378181, ,0.013784063347375605,0.020424731322937404,-0.09203120412043886, ,0.0014811066412625897, ,0.009560192584825242,0.003187309566083373,-0.03722165988097606,0.09646305663653912,0.08488972599796243,0.008605819764756288, ,0.038561745147543014, ,0.12849636348764054, ,0.000111631262008949, ,0.19373247688279605,-0.21760344419702402,0.10162265455000001,1.674374198723927,0.5287832540922546,-1.262758540676215, ,0.03429596731422869,0.06459968792271667,0.033534340042105266,-0.06562336772382409,0.017074355119544974,-0.01392299171636958, ,1.285614013671875
0.013254568034096526,0.020763559377298183,-0.09114597942350135, ,0.013859626833463905,0.020427099545670548,-0.09227241052338453, ,0.0013221756281881873, ,0.009560192584825242,0.003187309566083373,-0.03722165988097606,0.09646305663653912,0.08488972599796243,0.008605819764756288, ,0.038561745147543014, ,0.12849636348764054, ,0.0001147355363145148, ,0.19411861352650728,-0.21695473463558915,0.10205302283,1.6741645087804424,0.530149619089909,-1.2644444708941631, ,0.03517306951759481,0.05316355269382116,0.038568550895883784,-0.04441244417551228,0.12986949338255005,-0.1585711806888638, ,1.292907953262329
0.01335430212425454,0.020794249184512798,-0.09152055545295384, ,0.01393533449883453,0.02042946842081893,-0.09251214686290923, ,0.0012057848689415787, ,0.010487001638842608,0.0032107142663086274,-0.039313862806876626,0.04119589517498201,0.023513890274222942,-0.028371764516472553, ,0.04081501804815089, ,0.047433225712306785, ,0.00011747799079853882, ,0.19446613650584738,-0.216398697868645,0.10243931725000001,1.6739548188369582,0.5309694380885015,-1.2655213720170444, ,0.03406207521840301,0.05886907044570147,0.040428455634517774,-0.0045301876364726434,0.05794826473481378,-0.10240751647843058, ,1.300117015838623
0.01335430212425454,0.020794249184512798,-0.09152055545295384, ,0.014011184387564084,0.020431837552324486,-0.09275041538050009, ,0.0014406220671571463, ,0.010487001638842608,0.0032107142663086274,-0.039313862806876626,0.04119589517498201,0.023513890274222942,-0.028371764516472553, ,0.04081501804815089, ,0.047433225712306785, ,0.00012118427672671419, ,0.19446613650584738,-0.216398697868645,0.10243931725000001,1.6739548188369582,0.5309694380885015,-1.2655213720170444, ,0.03406207521840301,0.05886907044570147,0.040428455634517774,-0.0045301876364726434,0.05794826473481378,-0.10240751647843058, ,1.3037338256835938
0.013471420398714025,0.020828203073017516,-0.09195110272643048, ,0.014087174552648615,0.020434206549455824,-0.09298721832812099, ,0.0012680386345584598, ,0.0119679574332551,0.0033948553683551524,-0.04501839725120614,-0.04039802521823426,-0.020330714552901367,0.00617094684151851, ,0.046705600725862204, ,0.045223373272346226, ,0.00012438778051954028, ,0.1948213822180617,-0.21576543377295856,0.10288005585000001,1.673535438949989,0.531106074588267,-1.265796147401022, ,0.03439541194580311,0.0682711809773171,0.04603702751445087,-0.026966409736206415,0.019680622531781735,-0.032428109092890296, ,1.3073039054870605
0.013471420398714025,0.020828203073017516,-0.09195110272643048, ,0.014163303055987703,0.02043657502679382,-0.09322255796817691, ,0.0014995574579820393, ,0.0119679574332551,0.0033948553683551524,-0.04501839725120614,-0.04039802521823426,-0.020330714552901367,0.00617094684151851, ,0.046705600725862204, ,0.045223373272346226, ,0.0001282183367241712, ,0.1948213822180617,-0.21576543377295856,0.10288005585000001,1.673535438949989,0.531106074588267,-1.265796147401022, ,0.03439541194580311,0.0682711809773171,0.04603702751445087,-0.026966409736206415,0.019680622531781735,-0.032428109092890296, ,1.310964822769165
0.013471420398714025,0.020828203073017516,-0.09195110272643048, ,0.014239567968368491,0.02043894260421767,-0.09345643657347881, ,0.001734244617234163, ,0.0119679574332551,0.0033948553683551524,-0.04501839725120614,-0.04039802521823426,-0.020330714552901367,0.00617094684151851, ,0.046705600725862204, ,0.045223373272346226, ,0.0007237064772910852, ,0.1948213822180617,-0.21576543377295856,0.10288005585000001,1.673535438949989,0.531106074588267,-1.265796147401022, ,0.03439541194580311,0.0682711809773171,0.04603702751445087,-0.026966409736206415,0.019680622531781735,-0.032428109092890296, ,1.3148138523101807
0.013566907500832922,0.020852058479816797,-0.09231000632376968, ,0.014315967369449718,0.020441308906890828,-0.09368885642720687, ,0.0016220460863304188, ,0.01338146165007138,0.0031164596903174115,-0.04908272379212465,-0.05905121218272362,-0.0483841369533745,0.07868672699599522, ,0.050969496875559836, ,0.07633993385658229, ,0.0007371145311573439, ,0.19510712333440802,-0.2152093970060144,0.10324690592,1.6729063691195354,0.5313793475877979,-1.2662640194288366, ,0.040519616378510155,0.07616126930856403,0.05009060226415095,-0.10718245369448651,0.014601691813807284,-0.03730963443930936, ,1.318626880645752
0.013566907500832922,0.020852058479816797,-0.09231000632376968, ,0.01439249934774578,0.020443673565247095,-0.0939198198228767, ,0.0018546912514066265, ,0.01338146165007138,0.0031164596903174115,-0.04908272379212465,-0.05905121218272362,-0.0483841369533745,0.07868672699599522, ,0.050969496875559836, ,0.07633993385658229, ,0.0007535494829257156, ,0.19510712333440802,-0.2152093970060144,0.10324690592,1.6729063691195354,0.5313793475877979,-1.2662640194288366, ,0.040519616378510155,0.07616126930856403,0.05009060226415095,-0.10718245369448651,0.014601691813807284,-0.03730963443930936, ,1.3223497867584229
0.01373713730037623,0.02090395962396351,-0.09295600001086535, ,0.014469162000610762,0.020446036214976405,-0.09414932906430207, ,0.0014729522191938218, ,0.014168853558058228,0.004435993961681714,-0.054147043154883084,0.10614106608880403,0.1150592948758545,0.006732419006995296, ,0.0561456742411608, ,0.15653786058667274, ,0.000763975609538297, ,0.1957017737657233,-0.21426722359535902,0.10391449527,1.6724869892325662,0.5331556220847486,-1.2683658820980146, ,0.05082857073297846,0.07708931077048803,0.05608736450704226,-0.048634421376193886,0.1768156847171222,-0.19207689944319933, ,1.3259899616241455
0.01373713730037623,0.02090395962396351,-0.09295600001086535, ,0.014545953434222528,0.020448396497010964,-0.09437738646556028, ,0.001697663321921952, ,0.014168853558058228,0.004435993961681714,-0.054147043154883084,0.10614106608880403,0.1150592948758545,0.006732419006995296, ,0.0561456742411608, ,0.15653786058667274, ,0.0007773140054294919, ,0.1957017737657233,-0.21426722359535902,0.10391449527,1.6724869892325662,0.5331556220847486,-1.2683658820980146, ,0.05082857073297846,0.07708931077048803,0.05608736450704226,-0.048634421376193886,0.1768156847171222,-0.19207689944319933, ,1.3294968605041504
0.01373713730037623,0.02090395962396351,-0.09295600001086535, ,0.014622871763566674,0.020450754057511088,-0.09460399435095627, ,0.0019250470564945823, ,0.014168853558058228,0.004435993961681714,-0.054147043154883084,0.10614106608880403,0.1150592948758545,0.006732419006995296, ,0.0561456742411608, ,0.15653786058667274, ,0.0007934792596698453, ,0.1957017737657233,-0.21426722359535902,0.10391449527,1.6724869892325662,0.5331556220847486,-1.2683658820980146, ,0.05082857073297846,0.07708931077048803,0.05608736450704226,-0.048634421376193886,0.1768156847171222,-0.19207689944319933, ,1.3331618309020996
0.013899454970878146,0.020949372623671976,-0.09354665850013875, ,0.014699915112420607,0.020453108547850964,-0.094829155054987, ,0.001591166831085376, ,0.01716884435788573,0.0045932807782308556,-0.06030552809981205,0.052767448842307635,0.044571134897712,-0.042406288814815174, ,0.06286989871385344, ,0.06906657746345155, ,0.0008045582537172832, ,0.19629642419703858,-0.21338683204769743,0.10452504786000001,1.6722772992890815,0.5346586235821684,-1.2700815514795185, ,0.06255566351909743,0.0906370024436206,0.06222192000000001,0.0,0.10681451049637597,-0.14403791295224389, ,1.3368618488311768
0.013899454970878146,0.020949372623671976,-0.09354665850013875, ,0.014777081613337828,0.02045545962460521,-0.0950528709223064, ,0.001811864905254885, ,0.01716884435788573,0.0045932807782308556,-0.06030552809981205,0.052767448842307635,0.044571134897712,-0.042406288814815174, ,0.06286989871385344, ,0.06906657746345155, ,0.000818356974971223, ,0.19629642419703858,-0.21338683204769743,0.10452504786000001,1.6722772992890815,0.5346586235821684,-1.2700815514795185, ,0.06255566351909743,0.0906370024436206,0.06222192000000001,0.0,0.10681451049637597,-0.14403791295224389, ,1.3404829502105713
0.013899454970878146,0.020949372623671976,-0.09354665850013875, ,0.014854369407631695,0.020457806949534196,-0.09527514430768871, ,0.0020349844177321146, ,0.01716884435788573,0.0045932807782308556,-0.06030552809981205,0.052767448842307635,0.044571134897712,-0.042406288814815174, ,0.06286989871385344, ,0.06906657746345155, ,0.0008347978863598838, ,0.19629642419703858,-0.21338683204769743,0.10452504786000001,1.6722772992890815,0.5346586235821684,-1.2700815514795185, ,0.06255566351909743,0.0906370024436206,0.06222192000000001,0.0,0.10681451049637597,-0.14403791295224389, ,1.3440887928009033
0.014079215745391883,0.020996763191757625,-0.09416528689102795, ,0.01493177664535955,0.020460150189570314,-0.09549597757599439, ,0.0016689970944632022, ,0.019044689741690567,0.005045884121445517,-0.0655475723572285,-0.04101614828227033,-0.022178406925632707,0.06168187225479142, ,0.06844446943216387, ,0.04661540689636794, ,0.000845920542467928, ,0.19695285649134767,-0.21250644050003584,0.10516282254,1.6714385395151437,0.5354784425807612,-1.270913416381978, ,0.06725509678134002,0.0921329529693891,0.06749496406779662,-0.09174600099796097,0.06464573011010707,-0.06718082499885836, ,1.3518359661102295
0.014271123750752698,0.021043631217177738,-0.09483700029057751, ,0.015009301485307014,0.020462489016803937,-0.09571537310213313, ,0.0012861459563079005, ,0.018632038668314286,0.003996193860773751,-0.06506975366379114,0.010128804160119848,0.016925853953585684,0.04961200162435186, ,0.0678026199506841, ,0.019695448104530933, ,0.000851712982123717, ,0.19761701151853098,-0.2115256534250093,0.10585374511000001,1.670390089797721,0.5362982615793538,-1.271908638764719, ,0.06613027286304585,0.10031389171085707,0.06692777949579834,-0.09376829230662519,0.10248011731249154,-0.1283649191942431, ,1.3563117980957031
0.014271123750752698,0.021043631217177738,-0.09483700029057751, ,0.015086942094971576,0.020464823108468713,-0.09593333327102879, ,0.0014840904290158803, ,0.018632038668314286,0.003996193860773751,-0.06506975366379114,0.010128804160119848,0.016925853953585684,0.04961200162435186, ,0.0678026199506841, ,0.019695448104530933, ,0.0008599256762391997, ,0.19761701151853098,-0.2115256534250093,0.10585374511000001,1.670390089797721,0.5362982615793538,-1.271908638764719, ,0.06613027286304585,0.10031389171085707,0.06692777949579834,-0.09376829230662519,0.10248011731249154,-0.1283649191942431, ,1.3601179122924805
0.014271123750752698,0.021043631217177738,-0.09483700029057751, ,0.015164696650547317,0.020467152146928954,-0.09614986047758463, ,0.0016894977112475262, ,0.018632038668314286,0.003996193860773751,-0.06506975366379114,0.010128804160119848,0.016925853953585684,0.04961200162435186, ,0.0678026199506841, ,0.019695448104530933, ,0.0008705612151495629, ,0.19761701151853098,-0.2115256534250093,0.10585374511000001,1.670390089797721,0.5362982615793538,-1.271908638764719, ,0.06613027286304585,0.10031389171085707,0.06692777949579834,-0.09376829230662519,0.10248011731249154,-0.1283649191942431, ,1.3637468814849854
0.014442595283362248,0.0210738819228968,-0.09542888736151119, ,0.015242563336908307,0.020469475819663786,-0.0963649571266465, ,0.0013716713270751381, ,0.01690565568083504,0.0018496595233132712,-0.05570725509576639,-0.010239327329975805,0.01716110813512704,-0.03389236331657989, ,0.05824534921052431, ,0.019970252128989206, ,0.0008769043811233044, ,0.19823483014846893,-0.2105371436171086,0.10646170512000001,1.669970709910752,0.5372547170777118,-1.2729336003110157, ,0.06473188373701963,0.10439707542186004,0.057092514408602156,0.0,0.08188190932882007,-0.09308270453521832, ,1.367271900177002
0.014442595283362248,0.0210738819228968,-0.09542888736151119, ,0.015320540347593274,0.020471793819254618,-0.09657862563296812, ,0.0015669064149488466, ,0.01690565568083504,0.0018496595233132712,-0.05570725509576639,-0.010239327329975805,0.01716110813512704,-0.03389236331657989, ,0.05824534921052431, ,0.019970252128989206, ,0.0008855294065461237, ,0.19823483014846893,-0.2105371436171086,0.10646170512000001,1.669970709910752,0.5372547170777118,-1.2729336003110157, ,0.06473188373701963,0.10439707542186004,0.057092514408602156,0.0,0.08188190932882007,-0.09308270453521832, ,1.3708579540252686
0.014442595283362248,0.0210738819228968,-0.09542888736151119, ,0.015398625884789255,0.020474105843369957,-0.09679086842117483, ,0.0017688183240005138, ,0.01690565568083504,0.0018496595233132712,-0.05570725509576639,-0.010239327329975805,0.01716110813512704,-0.03389236331657989, ,0.05824534921052431, ,0.019970252128989206, ,0.0008964342079961779, ,0.19823483014846893,-0.2105371436171086,0.10646170512000001,1.669970709910752,0.5372547170777118,-1.2729336003110157, ,0.06473188373701963,0.10439707542186004,0.057092514408602156,0.0,0.08188190932882007,-0.09308270453521832, ,1.3744029998779297
0.014611624241957744,0.021074795304811232,-0.09595296301989173, ,0.015476818159315904,0.020476411594752157,-0.09700168792572901, ,0.0014854115615616555, ,0.01654035765480128,-0.0011807661881149919,-0.048687048568984925,0.009602010109046044,0.008600319438970511,-0.05344479435033577, ,0.051433513767760765, ,0.012879849508474372, ,0.0009036168586494153, ,0.1989453215728976,-0.20939417915172337,0.10699707289000002,1.669970709910752,0.5380745360763045,-1.274010501433897, ,0.07448739525782637,0.11862117694808846,0.04962246579439253,0.0047462381589065145,0.08127492733809787,-0.12805903253586814, ,1.3780319690704346
0.014611624241957744,0.021074795304811232,-0.09595296301989173, ,0.015555115390609463,0.020478710781202718,-0.09721108659089352, ,0.0016817750226412625, ,0.01654035765480128,-0.0011807661881149919,-0.048687048568984925,0.009602010109046044,0.008600319438970511,-0.05344479435033577, ,0.051433513767760765, ,0.012879849508474372, ,0.0009129922582155821, ,0.1989453215728976,-0.20939417915172337,0.10699707289000002,1.669970709910752,0.5380745360763045,-1.274010501433897, ,0.07448739525782637,0.11862117694808846,0.04962246579439253,0.0047462381589065145,0.08127492733809787,-0.12805903253586814, ,1.381598949432373
0.014611624241957744,0.021074795304811232,-0.09595296301989173, ,0.015633515806706876,0.020481003115568528,-0.09741906687069653, ,0.0018831654296571317, ,0.01654035765480128,-0.0011807661881149919,-0.048687048568984925,0.009602010109046044,0.008600319438970511,-0.05344479435033577, ,0.051433513767760765, ,0.012879849508474372, ,0.0009245419388279816, ,0.1989453215728976,-0.20939417915172337,0.10699707289000002,1.669970709910752,0.5380745360763045,-1.274010501433897, ,0.07448739525782637,0.11862117694808846,0.04962246579439253,0.0047462381589065145,0.08127492733809787,-0.12805903253586814, ,1.3853578567504883
0.014745092476250062,0.021065379848770625,-0.09632564776547232, ,0.015712017644230043,0.02048328831572787,-0.09762563122889632, ,0.0017215492553188925, ,0.018328395239254714,-0.0012944516896419818,-0.04995115888755172,-0.007884483866197008,0.016103082197076943,-0.03847534540162679, ,0.05322334028819113, ,0.017921031370654837, ,0.0009339184954925805, ,0.19958630840145822,-0.20847517393969064,0.10737818215000001,1.6701803998542366,0.5387577185751317,-1.2748126271728006, ,0.0914228724070046,0.12197550328852286,0.051218043472668826,0.0,0.1078126263484409,-0.11230586480523211, ,1.389028787612915
0.014745092476250062,0.021065379848770625,-0.09632564776547232, ,0.01579061914836958,0.02048556610457617,-0.0978307821389452, ,0.0019221705133207283, ,0.018328395239254714,-0.0012944516896419818,-0.04995115888755172,-0.007884483866197008,0.016103082197076943,-0.03847534540162679, ,0.05322334028819113, ,0.017921031370654837, ,0.000945409798025466, ,0.19958630840145822,-0.20847517393969064,0.10737818215000001,1.6701803998542366,0.5387577185751317,-1.2748126271728006, ,0.0914228724070046,0.12197550328852286,0.051218043472668826,0.0,0.1078126263484409,-0.11230586480523211, ,1.3926849365234375
0.01498591900912507,0.021046058255704096,-0.09695484471418679, ,0.015869318572869308,0.020487836210012034,-0.09803452208395419, ,0.0015025677569773638, ,0.019083087668215117,-0.002182870348654526,-0.04848096758293054,0.009720584386872823,-0.003857873746458831,0.02199674259410855, ,0.052147227881153765, ,0.010445339745994372, ,0.0009518139124961775, ,0.20084511385995682,-0.2069537955634684,0.10802503086000001,1.6693416400802985,0.5402607200725515,-1.2765282965543048, ,0.10138562132315254,0.12292349942807097,0.049777536000000004,-0.07496007882782764,0.11245738604247049,-0.14737578991125588, ,1.3964338302612305
0.01498591900912507,0.021046058255704096,-0.09695484471418679, ,0.015948114180009968,0.02049009836492288,-0.09823685355665761, ,0.0016966017856895716, ,0.019083087668215117,-0.002182870348654526,-0.04848096758293054,0.009720584386872823,-0.003857873746458831,0.02199674259410855, ,0.052147227881153765, ,0.010445339745994372, ,0.0009602774110551934, ,0.20084511385995682,-0.2069537955634684,0.10802503086000001,1.6693416400802985,0.5402607200725515,-1.2765282965543048, ,0.10138562132315254,0.12292349942807097,0.049777536000000004,-0.07496007882782764,0.11245738604247049,-0.14737578991125588, ,1.400007963180542
0.01498591900912507,0.021046058255704096,-0.09695484471418679, ,0.016027004240593702,0.020492352307171457,-0.09843777905937692, ,0.001894608932937615, ,0.019083087668215117,-0.002182870348654526,-0.04848096758293054,0.009720584386872823,-0.003857873746458831,0.02199674259410855, ,0.052147227881153765, ,0.010445339745994372, ,0.0009707755180426365, ,0.20084511385995682,-0.2069537955634684,0.10802503086000001,1.6693416400802985,0.5402607200725515,-1.2765282965543048, ,0.10138562132315254,0.12292349942807097,0.049777536000000004,-0.07496007882782764,0.11245738604247049,-0.14737578991125588, ,1.403592824935913
0.015172341948398671,0.021022638510679627,-0.09742118110778969, ,0.01610598703392775,0.020494597779580986,-0.09863730110398602, ,0.001621563444512846, ,0.020303344877658804,-0.002557948184297709,-0.05127518211109976,-0.03509286427788741,-0.021359810397877838,0.039448023093463375, ,0.055207908968381965, ,0.0410779282450242, ,0.0009780064950034165, ,0.20183362366785756,-0.20574904923508938,0.10850336187000001,1.6687125702498449,0.5412171755709096,-1.2773899006203202, ,0.10603010229996734,0.13089233318409763,0.05257033504950496,-0.08446556478054207,0.1019838216749512,-0.11072968319837125, ,1.4071588516235352
0.015172341948398671,0.021022638510679627,-0.09742118110778969, ,0.016185060847809008,0.020496834529921994,-0.0988354222118753, ,0.0018171811400872363, ,0.020303344877658804,-0.002557948184297709,-0.05127518211109976,-0.03509286427788741,-0.021359810397877838,0.039448023093463375, ,0.055207908968381965, ,0.0410779282450242, ,0.000987228194399942, ,0.20183362366785756,-0.20574904923508938,0.10850336187000001,1.6687125702498449,0.5412171755709096,-1.2773899006203202, ,0.10603010229996734,0.13089233318409763,0.05257033504950496,-0.08446556478054207,0.1019838216749512,-0.11072968319837125, ,1.410749912261963
0.015172341948398671,0.021022638510679627,-0.09742118110778969, ,0.01626422397850763,0.020499062310897098,-0.09903214491391574, ,0.002015326968335833, ,0.020303344877658804,-0.002557948184297709,-0.05127518211109976,-0.03509286427788741,-0.021359810397877838,0.039448023093463375, ,0.055207908968381965, ,0.0410779282450242, ,0.0009984031810731583, ,0.20183362366785756,-0.20574904923508938,0.10850336187000001,1.6687125702498449,0.5412171755709096,-1.2773899006203202, ,0.10603010229996734,0.13089233318409763,0.05257033504950496,-0.08446556478054207,0.1019838216749512,-0.11072968319837125, ,1.4144349098205566
0.015394915690885646,0.02100185194897756,-0.09801910063678101, ,0.016343474730751748,0.020501280880128248,-0.09922747175042405, ,0.0016157030653457223, ,0.02127427458366126,-0.0012297731019369855,-0.05894553050236212,-0.00985296811046102,0.028681947908488433,-0.046146282540704596, ,0.06267920442338244, ,0.030315400148390213, ,0.0010050408142373796, ,0.20292252900312321,-0.2042971754547352,0.10911650704,1.6682931903628757,0.5424469040687986,-1.2786376979740097, ,0.10042004397721775,0.1363461804001017,0.060565823269961974,0.004985873079684383,0.12851858075201217,-0.1230490977048849, ,1.4182968139648438
0.015394915690885646,0.02100185194897756,-0.09801910063678101, ,0.016422811417710993,0.02050349000014137,-0.09942140527112643, ,0.001808699130530075, ,0.02127427458366126,-0.0012297731019369855,-0.05894553050236212,-0.00985296811046102,0.028681947908488433,-0.046146282540704596, ,0.06267920442338244, ,0.030315400148390213, ,0.0010135903707936848, ,0.20292252900312321,-0.2042971754547352,0.10911650704,1.6682931903628757,0.5424469040687986,-1.2786376979740097, ,0.10042004397721775,0.1363461804001017,0.060565823269961974,0.004985873079684383,0.12851858075201217,-0.1230490977048849, ,1.422091007232666
0.015542733723911645,0.020995411295363017,-0.09843101337619861, ,0.016502232360981056,0.020505689438353396,-0.09961394803512402, ,0.002003962491869926, ,0.02127427458366126,-0.0012297731019369855,-0.05894553050236212,-0.00985296811046102,0.028681947908488433,-0.046146282540704596, ,0.06267920442338244, ,0.030315400148390213, ,0.0010240153404892241, ,0.20292252900312321,-0.2042971754547352,0.10911650704,1.6682931903628757,0.5424469040687986,-1.2786376979740097, ,0.10042004397721775,0.1363461804001017,0.060565823269961974,0.004985873079684383,0.12851858075201217,-0.1230490977048849, ,1.4264469146728516
0.015542733723911645,0.020995411295363017,-0.09843101337619861, ,0.01658173589056744,0.02050787896705711,-0.0998051026108561, ,0.0017903447987078912, ,0.02172877220824504,-0.0004681063974462307,-0.06113038313458941,0.01718303272323346,0.03683592756911538,-0.05506402050786194, ,0.06487898278686886, ,0.04063604941618071, ,0.0010319979390123353, ,0.2036175749618034,-0.20337044750982824,0.10954039387000002,1.6682931903628757,0.5434033595671567,-1.2795809807801657, ,0.10010225902792276,0.13253762787495918,0.06295972932806325,0.007977455740823453,0.13539624444188392,-0.14679225745162117, ,1.4307878017425537
0.015542733723911645,0.020995411295363017,-0.09843101337619861, ,0.016661320344869997,0.020510058363408086,-0.09999487157606526, ,0.0019830420990070885, ,0.02172877220824504,-0.0004681063974462307,-0.06113038313458941,0.01718303272323346,0.03683592756911538,-0.05506402050786194, ,0.06487898278686886, ,0.04063604941618071, ,0.0010418025179813532, ,0.2036175749618034,-0.20337044750982824,0.10954039387000002,1.6682931903628757,0.5434033595671567,-1.2795809807801657, ,0.10010225902792276,0.13253762787495918,0.06295972932806325,0.007977455740823453,0.13539624444188392,-0.14679225745162117, ,1.434358835220337
0.01583824516488376,0.020987499935392815,-0.09921692717087459, ,0.0167409840706668,0.020512227409409965,-0.10018325751776204, ,0.0014052102494943942, ,0.022829336766350218,-0.001172282779235912,-0.05701020142274371,-0.04314765509577555,-0.03928374320832028,-0.03373468106782207, ,0.06142243832971573, ,0.05834663992073878, ,0.0010455107601396495, ,0.20502311234491227,-0.2016637235446246,0.11035057512000002,1.6682931903628757,0.5447697245648111,-1.28069515981713, ,0.11283821826215314,0.12858664167814468,0.058777902287822884,-0.005477554049827727,0.07462483042311939,-0.0848349114917166, ,1.4379448890686035
0.01583824516488376,0.020987499935392815,-0.09921692717087459, ,0.016820725423098124,0.020514385891900397,-0.10037026303218911, ,0.0015872265008261507, ,0.022829336766350218,-0.001172282779235912,-0.05701020142274371,-0.04314765509577555,-0.03928374320832028,-0.03373468106782207, ,0.06142243832971573, ,0.05834663992073878, ,0.0010509826363082001, ,0.20502311234491227,-0.2016637235446246,0.11035057512000002,1.6682931903628757,0.5447697245648111,-1.28069515981713, ,0.11283821826215314,0.12858664167814468,0.058777902287822884,-0.005477554049827727,0.07462483042311939,-0.0848349114917166, ,1.4414889812469482
0.01583824516488376,0.020987499935392815,-0.09921692717087459, ,0.01690054276565094,0.020516533602537284,-0.10055589072478519, ,0.0017728815183141787, ,0.022829336766350218,-0.001172282779235912,-0.05701020142274371,-0.04314765509577555,-0.03928374320832028,-0.03373468106782207, ,0.06142243832971573, ,0.05834663992073878, ,0.0010582016251282599, ,0.20502311234491227,-0.2016637235446246,0.11035057512000002,1.6682931903628757,0.5447697245648111,-1.28069515981713, ,0.11283821826215314,0.12858664167814468,0.058777902287822884,-0.005477554049827727,0.07462483042311939,-0.0848349114917166, ,1.4450969696044922
0.016070660995831983,0.020965200659042473,-0.09977410027018957, ,0.016980434470142865,0.020518670337784452,-0.10074014321015079, ,0.0014001128755251847, ,0.023163823849455326,-0.002500583980288424,-0.05388888736002337,-0.049408839432588544,-0.04262422950972948,0.06090615390664883, ,0.058709691163149176, ,0.06525031720178712, ,0.00106158688503318, ,0.20622013594041708,-0.20034313622313224,0.11092483159000001,1.6674544305889376,0.5455895435634037,-1.2815270247195896, ,0.12356372598759216,0.12964063054435898,0.055695145174825184,-0.10341554007560737,0.10181057400484197,-0.09863820269443119, ,1.4486539363861084
0.016070660995831983,0.020965200659042473,-0.09977410027018957, ,0.017060398916706233,0.02052079589889758,-0.10092302311201148, ,0.0015802216424654063, ,0.023163823849455326,-0.002500583980288424,-0.05388888736002337,-0.049408839432588544,-0.04262422950972948,0.06090615390664883, ,0.058709691163149176, ,0.06525031720178712, ,0.0010666715395178097, ,0.20622013594041708,-0.20034313622313224,0.11092483159000001,1.6674544305889376,0.5455895435634037,-1.2815270247195896, ,0.12356372598759216,0.12964063054435898,0.055695145174825184,-0.10341554007560737,0.10181057400484197,-0.09863820269443119, ,1.452293872833252
0.01630204815097391,0.020944373561503016,-0.10029343484059783, ,0.017140434493772554,0.02052291009191035,-0.1011045330631833, ,0.0012403239265102038, ,0.02349310080016936,-0.0024366366104309044,-0.05125260577065583,0.0015341043205752702,0.00311777175292232,0.012640954251618167, ,0.05643308055972555, ,0.003423495554284806, ,0.00106835748502259, ,0.20622013594041708,-0.20034313622313224,0.11092483159000001,1.6674544305889376,0.5455895435634037,-1.2815270247195896, ,0.12356372598759216,0.12964063054435898,0.055695145174825184,-0.10341554007560737,0.10181057400484197,-0.09863820269443119, ,1.456820011138916
0.01630204815097391,0.020944373561503016,-0.10029343484059783, ,0.01722053959805604,0.02052501272762002,-0.10128467570553595, ,0.0014149376310217173, ,0.02349310080016936,-0.0024366366104309044,-0.05125260577065583,0.0015341043205752702,0.00311777175292232,0.012640954251618167, ,0.05643308055972555, ,0.003423495554284806, ,0.0010716899864264278, ,0.20750983233041256,-0.19909977623038208,0.11146538452000002,1.6670350507019687,0.5469559085610581,-1.2828045612368348, ,0.1340352281899305,0.12535923587644754,0.053452387651006725,-0.055150912155511905,0.14863470475275198,-0.13548307721790995, ,1.4609808921813965
0.01630204815097391,0.020944373561503016,-0.10029343484059783, ,0.01730071263453837,0.020527103621573357,-0.10146345368995886, ,0.0015938597997823048, ,0.02349310080016936,-0.0024366366104309044,-0.05125260577065583,0.0015341043205752702,0.00311777175292232,0.012640954251618167, ,0.05643308055972555, ,0.003423495554284806, ,0.0010766630322679124, ,0.20750983233041256,-0.19909977623038208,0.11146538452000002,1.6670350507019687,0.5469559085610581,-1.2828045612368348, ,0.1340352281899305,0.12535923587644754,0.053452387651006725,-0.055150912155511905,0.14863470475275198,-0.13548307721790995, ,1.4645209312438965
0.01652914515151551,0.02091946463672531,-0.10077374000640214, ,0.017380952016452657,0.02052918259405309,-0.10164086967632434, ,0.0012766396799590027, ,0.022005527539205292,-0.002686489238491616,-0.044927763844598845,0.002828395668029707,-0.0015100229582446778,-0.04459667838674013, ,0.05009954521533401, ,0.003177568187143521, ,0.0010785496044159414, ,0.20882269691903074,-0.19789502990200306,0.11196704875,1.666825360758484,0.5483222735587124,-1.283918740273799, ,0.12928738631944245,0.1170122583951551,0.04698764460176992,0.008099084141358154,0.1266514492658883,-0.11582541309589324, ,1.468094825744629
0.01652914515151551,0.02091946463672531,-0.10077374000640214, ,0.01746125616526731,0.020531249470063077,-0.10181692633345273, ,0.0014518194345473135, ,0.022005527539205292,-0.002686489238491616,-0.044927763844598845,0.002828395668029707,-0.0015100229582446778,-0.04459667838674013, ,0.05009954521533401, ,0.003177568187143521, ,0.0010820381075012813, ,0.20882269691903074,-0.19789502990200306,0.11196704875,1.666825360758484,0.5483222735587124,-1.283918740273799, ,0.12928738631944245,0.1170122583951551,0.04698764460176992,0.008099084141358154,0.1266514492658883,-0.11582541309589324, ,1.4716689586639404
0.01652914515151551,0.02091946463672531,-0.10077374000640214, ,0.01754162351067065,0.020533304079314755,-0.10199162633907688, ,0.0016301777581518631, ,0.022005527539205292,-0.002686489238491616,-0.044927763844598845,0.002828395668029707,-0.0015100229582446778,-0.04459667838674013, ,0.05009954521533401, ,0.003177568187143521, ,0.0010871134746369348, ,0.20882269691903074,-0.19789502990200306,0.11196704875,1.666825360758484,0.5483222735587124,-1.283918740273799, ,0.12928738631944245,0.1170122583951551,0.04698764460176992,0.008099084141358154,0.1266514492658883,-0.11582541309589324, ,1.47524094581604
0.016749732430424793,0.02088695633107498,-0.10121736210947148, ,0.017622052490554558,0.02053534625621276,-0.10216497237980621, ,0.0013351169074254403, ,0.021346444477300084,-0.0034249304807772666,-0.04287066812679422,-0.04744339578468705,-0.033924406195414564,-0.028667559111167758, ,0.04801348796180447, ,0.0583232057451547, ,0.0010893887354882054, ,0.21011239330902623,-0.1966825608407498,0.11242982428000001,1.6670350507019687,0.5494153655568361,-1.284891762243511, ,0.12324278124476726,0.11832536353924038,0.044618519663865555,0.0,0.08999886978187255,-0.06749803186444298, ,1.4787788391113281
0.016749732430424793,0.02088695633107498,-0.10121736210947148, ,0.017702541550999183,0.020537375839841145,-0.10233696715109127, ,0.0015111476398160031, ,0.021346444477300084,-0.0034249304807772666,-0.04287066812679422,-0.04744339578468705,-0.033924406195414564,-0.028667559111167758, ,0.04801348796180447, ,0.0583232057451547, ,0.001093222907345731, ,0.21011239330902623,-0.1966825608407498,0.11242982428000001,1.6670350507019687,0.5494153655568361,-1.284891762243511, ,0.12324278124476726,0.11832536353924038,0.044618519663865555,0.0,0.08999886978187255,-0.06749803186444298, ,1.4823188781738281
0.016749732430424793,0.02088695633107498,-0.10121736210947148, ,0.017783089146256696,0.020539392673948997,-0.1025076133571888, ,0.001689193559112099, ,0.021346444477300084,-0.0034249304807772666,-0.04287066812679422,-0.04744339578468705,-0.033924406195414564,-0.028667559111167758, ,0.04801348796180447, ,0.0583232057451547, ,0.001098592012316599, ,0.21011239330902623,-0.1966825608407498,0.11242982428000001,1.6670350507019687,0.5494153655568361,-1.284891762243511, ,0.12324278124476726,0.11832536353924038,0.044618519663865555,0.0,0.08999886978187255,-0.06749803186444298, ,1.4859178066253662
0.016956642915563765,0.0208588804594669,-0.10164036082416653, ,0.017863693738735427,0.02054139660693631,-0.1026769137111253, ,0.0014134988786329602, ,0.021897409923876048,-0.0021745359633411586,-0.045465294576091164,-0.08125790887419368,-0.08159514386210243,-0.022643299275931172, ,0.05051057492170203, ,0.11515390131919491, ,0.0011014036807658523, ,0.21126308050728568,-0.19558593277260994,0.11286926659000002,1.666825360758484,0.5499619115558978,-1.2853374338582968, ,0.1181780094127905,0.11021712143840974,0.04726650302670624,-0.0017128589980866858,0.037227999510611114,-0.02645258212563343, ,1.4896628856658936
0.016956642915563765,0.0208588804594669,-0.10164036082416653, ,0.017944353798984458,0.020543387491840467,-0.1028448709346622, ,0.0015893247648406288, ,0.021897409923876048,-0.0021745359633411586,-0.045465294576091164,-0.08125790887419368,-0.08159514386210243,-0.022643299275931172, ,0.05051057492170203, ,0.11515390131919491, ,0.001105721566465629, ,0.21126308050728568,-0.19558593277260994,0.11286926659000002,1.666825360758484,0.5499619115558978,-1.2853374338582968, ,0.1181780094127905,0.11021712143840974,0.04726650302670624,-0.0017128589980866858,0.037227999510611114,-0.02645258212563343, ,1.493562936782837
0.017189597815253324,0.020841389337866334,-0.10212821510520981, ,0.018025067805677246,0.020545365186321426,-0.10301148775826022, ,0.001251323692264931, ,0.022091461410974844,-0.0012270420065378252,-0.04584483883122451,-0.04158897834411726,-0.04236108602409845,0.0276508403490884, ,0.050904690813512954, ,0.05936246470754338, ,0.0011069987780954473, ,0.2125296086986585,-0.19448930470447004,0.11337870856000001,1.6661962909280306,0.5506450940547251,-1.2859762021169194, ,0.12228987314235924,0.09916085847280122,0.04812329764350454,-0.05401184075386383,0.09108177696677776,-0.06561744549518246, ,1.4976849555969238
0.017189597815253324,0.020841389337866334,-0.10212821510520981, ,0.01810583424559627,0.02054732955264812,-0.10317676692104319, ,0.0014231729564805706, ,0.022091461410974844,-0.0012270420065378252,-0.04584483883122451,-0.04158897834411726,-0.04236108602409845,0.0276508403490884, ,0.050904690813512954, ,0.05936246470754338, ,0.001109748118777057, ,0.2125296086986585,-0.19448930470447004,0.11337870856000001,1.6661962909280306,0.5506450940547251,-1.2859762021169194, ,0.12228987314235924,0.09916085847280122,0.04812329764350454,-0.05401184075386383,0.09108177696677776,-0.06561744549518246, ,1.501417875289917
0.017189597815253324,0.020841389337866334,-0.10212821510520981, ,0.018186651613616753,0.020549280457684182,-0.10334071117076372, ,0.001596743743903805, ,0.022091461410974844,-0.0012270420065378252,-0.04584483883122451,-0.04158897834411726,-0.04236108602409845,0.0276508403490884, ,0.050904690813512954, ,0.05936246470754338, ,0.0011139463569247014, ,0.2125296086986585,-0.19448930470447004,0.11337870856000001,1.6661962909280306,0.5506450940547251,-1.2859762021169194, ,0.12228987314235924,0.09916085847280122,0.04812329764350454,-0.05401184075386383,0.09108177696677776,-0.06561744549518246, ,1.504992961883545
0.01740648264752235,0.0208322228782538,-0.10257933342950583, ,0.018267518412691107,0.020551217772873734,-0.1035033232637662, ,0.001293871582486421, ,0.022758737732952002,-0.0009763473743767878,-0.04720018485262346,-0.0399121476483832,-0.04736643279743194,0.03914893656620294, ,0.05240964460397123, ,0.06193806757462067, ,0.0011154841793653998, ,0.2137266322941633,-0.19353940856094043,0.11385315070000002,1.6657769110410614,0.551601549553083,-1.2869194849230756, ,0.12470031742243204,0.09803403053561031,0.04962246579439253,-0.0672684586838009,0.09087992307737248,-0.06925159108407741, ,1.5087838172912598
0.01740648264752235,0.0208322228782538,-0.10257933342950583, ,0.01834843315383322,0.020553141374227937,-0.10366460596495297, ,0.0014638899270179152, ,0.022758737732952002,-0.0009763473743767878,-0.04720018485262346,-0.0399121476483832,-0.04736643279743194,0.03914893656620294, ,0.05240964460397123, ,0.06193806757462067, ,0.0011184367704472008, ,0.2137266322941633,-0.19353940856094043,0.11385315070000002,1.6657769110410614,0.551601549553083,-1.2869194849230756, ,0.12470031742243204,0.09803403053561031,0.04962246579439253,-0.0672684586838009,0.09087992307737248,-0.06925159108407741, ,1.512342929840088
0.01740648264752235,0.0208322228782538,-0.10257933342950583, ,0.018429394356102226,0.020555051142309974,-0.10382456204774705, ,0.0016351656938802448, ,0.022758737732952002,-0.0009763473743767878,-0.04720018485262346,-0.0399121476483832,-0.04736643279743194,0.03914893656620294, ,0.05240964460397123, ,0.06193806757462067, ,0.0011227790303079829, ,0.2137266322941633,-0.19353940856094043,0.11385315070000002,1.6657769110410614,0.551601549553083,-1.2869194849230756, ,0.12470031742243204,0.09803403053561031,0.04962246579439253,-0.0672684586838009,0.09087992307737248,-0.06925159108407741, ,1.5159318447113037
0.017648730083806567,0.020826691350746756,-0.10307527153129478, ,0.0185104005465871,0.020556946962221767,-0.1039831942940582, ,0.0012804537339213332, ,0.023148833680174237,7.423241257944893e-05,-0.04692361254085151,-0.021548443093556656,-0.041677260665055484,-0.03675463899940101, ,0.052323029586286415, ,0.04691590315635111, ,0.0011240929861714272, ,0.2150472196156557,-0.19253545328729124,0.11437555557000001,1.665567221097577,0.5524213685516758,-1.2875879923452542, ,0.12669818632639623,0.0906370024436206,0.04962246579439253,0.013629387716020425,0.08295367764073018,-0.06359370779608363, ,1.5195708274841309
0.017648730083806567,0.020826691350746756,-0.10307527153129478, ,0.018591450260390507,0.020558828723589485,-0.10414050549424626, ,0.001447478882122764, ,0.023148833680174237,7.423241257944893e-05,-0.04692361254085151,-0.021548443093556656,-0.041677260665055484,-0.03675463899940101, ,0.052323029586286415, ,0.04691590315635111, ,0.001126765596881769, ,0.2150472196156557,-0.19253545328729124,0.11437555557000001,1.665567221097577,0.5524213685516758,-1.2875879923452542, ,0.12669818632639623,0.0906370024436206,0.04962246579439253,0.013629387716020425,0.08295367764073018,-0.06359370779608363, ,1.523162841796875
0.017884396414016457,0.02082844186080966,-0.10354784223060079, ,0.018672542040613204,0.02056069632054939,-0.104296498447086, ,0.0016156544985988961, ,0.022604464480745653,0.000381002158868654,-0.044212150046389155,0.010404957001910459,-0.01477243626922272,-0.03466768705217537, ,0.04965703564280477, ,0.018064303833736257, ,0.0011307728829614177, ,0.21636008420427386,-0.1916396162738812,0.11487721980000001,1.665567221097577,0.5535144605497992,-1.2884793355748254, ,0.12806604798714005,0.08216185416317816,0.047126661301775154,0.010896297542625957,0.11190880117339817,-0.08772564429087545, ,1.5276589393615723
0.017884396414016457,0.02082844186080966,-0.10354784223060079, ,0.01875367443833811,0.020562549651734294,-0.1044511759597317, ,0.0012815439035012025, ,0.022604464480745653,0.000381002158868654,-0.044212150046389155,0.010404957001910459,-0.01477243626922272,-0.03466768705217537, ,0.04965703564280477, ,0.018064303833736257, ,0.0011319986636162127, ,0.21636008420427386,-0.1916396162738812,0.11487721980000001,1.665567221097577,0.5535144605497992,-1.2884793355748254, ,0.12806604798714005,0.08216185416317816,0.047126661301775154,0.010896297542625957,0.11190880117339817,-0.08772564429087545, ,1.5313239097595215
0.017884396414016457,0.02082844186080966,-0.10354784223060079, ,0.018834846012614467,0.020564388620258726,-0.10460454084768174, ,0.001445576189850041, ,0.022604464480745653,0.000381002158868654,-0.044212150046389155,0.010404957001910459,-0.01477243626922272,-0.03466768705217537, ,0.04965703564280477, ,0.018064303833736257, ,0.0011345275146342274, ,0.21636008420427386,-0.1916396162738812,0.11487721980000001,1.665567221097577,0.5535144605497992,-1.2884793355748254, ,0.12806604798714005,0.08216185416317816,0.047126661301775154,0.010896297542625957,0.11190880117339817,-0.08772564429087545, ,1.5350089073181152
0.01810922510630841,0.020833920039934624,-0.1039749663609168, ,0.018916055330442196,0.0205662131337056,-0.10475659593474271, ,0.0011548102826428955, ,0.02231830015113772,0.0003194240554702196,-0.04129297292755971,-0.012610018245958771,-0.04936342547094488,-0.020923131186304005, ,0.04693951604522213, ,0.050947426620480976, ,0.0011346897767782966, ,0.21764205786139512,-0.19085962025358452,0.11533351388000002,1.6657769110410614,0.5544709160481573,-1.2892592609007005, ,0.12789345223513582,0.07622244301885203,0.044124131634349036,0.0,0.07904513992950185,-0.06131687606174417, ,1.5386078357696533
0.01810922510630841,0.020833920039934624,-0.1039749663609168, ,0.018997300966755667,0.020568023104111374,-0.10490734405299393, ,0.0013148034359068298, ,0.02231830015113772,0.0003194240554702196,-0.04129297292755971,-0.012610018245958771,-0.04936342547094488,-0.020923131186304005, ,0.04693951604522213, ,0.050947426620480976, ,0.0011361192502634438, ,0.21764205786139512,-0.19085962025358452,0.11533351388000002,1.6657769110410614,0.5544709160481573,-1.2892592609007005, ,0.12789345223513582,0.07622244301885203,0.044124131634349036,0.0,0.07904513992950185,-0.06131687606174417, ,1.5421288013458252
0.01810922510630841,0.020833920039934624,-0.1039749663609168, ,0.019078581504408648,0.020569818447953015,-0.10505678804275254, ,0.00147639413054746, ,0.02231830015113772,0.0003194240554702196,-0.04129297292755971,-0.012610018245958771,-0.04936342547094488,-0.020923131186304005, ,0.04693951604522213, ,0.050947426620480976, ,0.0011387985800294597, ,0.21764205786139512,-0.19085962025358452,0.11533351388000002,1.6657769110410614,0.5544709160481573,-1.2892592609007005, ,0.12789345223513582,0.07622244301885203,0.044124131634349036,0.0,0.07904513992950185,-0.06131687606174417, ,1.545686960220337
0.018321477420222297,0.020839458289478432,-0.10436631785344126, ,0.019159895534157537,0.020571599086132524,-0.10520493075253697, ,0.0012157158718720136, ,0.022350711525885445,0.0008992328942251393,-0.04136420960709739,-0.045485938650904424,-0.09237459862149679,-0.016489394070260465, ,0.04702510778224005, ,0.1029656058650191, ,0.0011393994963719797, ,0.2188313587240257,-0.19016457429490433,0.11575091926000002,1.6657769110410614,0.5548808255474537,-1.2895935146117896, ,0.12356372598759216,0.07024199967318341,0.044124131634349036,0.0,0.031429308786777216,-0.022786506645420743, ,1.5492908954620361
0.018321477420222297,0.020839458289478432,-0.10436631785344126, ,0.01924124165464635,0.02057336494396429,-0.10535177503903233, ,0.0013740079257724962, ,0.022350711525885445,0.0008992328942251393,-0.04136420960709739,-0.045485938650904424,-0.09237459862149679,-0.016489394070260465, ,0.04702510778224005, ,0.1029656058650191, ,0.0011412181663673325, ,0.2188313587240257,-0.19016457429490433,0.11575091926000002,1.6657769110410614,0.5548808255474537,-1.2895935146117896, ,0.12356372598759216,0.07024199967318341,0.044124131634349036,0.0,0.031429308786777216,-0.022786506645420743, ,1.5528769493103027
0.018321477420222297,0.020839458289478432,-0.10436631785344126, ,0.01932261847239038,0.020575115951159934,-0.10549732376705435, ,0.0015334062262791597, ,0.022350711525885445,0.0008992328942251393,-0.04136420960709739,-0.045485938650904424,-0.09237459862149679,-0.016489394070260465, ,0.04702510778224005, ,0.1029656058650191, ,0.0011442349975974233, ,0.2188313587240257,-0.19016457429490433,0.11575091926000002,1.6657769110410614,0.5548808255474537,-1.2895935146117896, ,0.12356372598759216,0.07024199967318341,0.044124131634349036,0.0,0.031429308786777216,-0.022786506645420743, ,1.5565228462219238
0.018548493793544608,0.020853269599273153,-0.10480157169354165, ,0.019404024601760737,0.020576852041814916,-0.10564157980951422, ,0.0012304280819202336, ,0.02160056782047141,0.0019430359692391608,-0.042272987033765676,0.03974096950232856,-0.00016668893228517496,-0.010691403691327005, ,0.04751173909363309, ,0.03973962063379596, ,0.00114489296007317, ,0.22009788691539853,-0.18948497380197257,0.11621758366000001,1.6653575311540925,0.5558372810458118,-1.290291761197524, ,0.1204275908102421,0.061581402698553396,0.04551089005714286,-0.012484025309284491,0.12325319453682997,-0.10215829736216327, ,1.5602829456329346
0.018548493793544608,0.020853269599273153,-0.10480157169354165, ,0.019485458664968286,0.02057857315439389,-0.10578454604738258, ,0.0013854962603415005, ,0.02160056782047141,0.0019430359692391608,-0.042272987033765676,0.03974096950232856,-0.00016668893228517496,-0.010691403691327005, ,0.04751173909363309, ,0.03973962063379596, ,0.0011467157123479302, ,0.22009788691539853,-0.18948497380197257,0.11621758366000001,1.6653575311540925,0.5558372810458118,-1.290291761197524, ,0.1204275908102421,0.061581402698553396,0.04551089005714286,-0.012484025309284491,0.12325319453682997,-0.10215829736216327, ,1.5639967918395996
0.01877645578238395,0.020873114879585604,-0.10523865748255204, ,0.019566919292048065,0.02058027923171735,-0.10592622536965461, ,0.0010878119672754225, ,0.020964570673673858,0.0017784068570089113,-0.03999814627316412,0.03328227216176288,-0.00831466896715974,0.015271166965938596, ,0.04519433216422116, ,0.034303658463910376, ,0.001146272827046633, ,0.22138758330539401,-0.1888594324391604,0.11668943322000001,1.6649381512671235,0.5572036460434662,-1.2914059402344882, ,0.1178843994515165,0.05733954172717268,0.04316751089430895,-0.03828611690502836,0.11732108140863165,-0.0972025916141617, ,1.5678389072418213
0.01877645578238395,0.020873114879585604,-0.10523865748255204, ,0.01964840512084324,0.020581970220946808,-0.10606662067331414, ,0.0012371676953228502, ,0.020964570673673858,0.0017784068570089113,-0.03999814627316412,0.03328227216176288,-0.00831466896715974,0.015271166965938596, ,0.04519433216422116, ,0.034303658463910376, ,0.0011469511469591421, ,0.22138758330539401,-0.1888594324391604,0.11668943322000001,1.6649381512671235,0.5572036460434662,-1.2914059402344882, ,0.1178843994515165,0.05733954172717268,0.04316751089430895,-0.03828611690502836,0.11732108140863165,-0.0972025916141617, ,1.5715229511260986
0.01877645578238395,0.020873114879585604,-0.10523865748255204, ,0.019729914796989538,0.020583646073571136,-0.10620573486329798, ,0.0013885657861759878, ,0.020964570673673858,0.0017784068570089113,-0.03999814627316412,0.03328227216176288,-0.00831466896715974,0.015271166965938596, ,0.04519433216422116, ,0.034303658463910376, ,0.0011487408850274152, ,0.22138758330539401,-0.1888594324391604,0.11668943322000001,1.6649381512671235,0.5572036460434662,-1.2914059402344882, ,0.1178843994515165,0.05733954172717268,0.04316751089430895,-0.03828611690502836,0.11732108140863165,-0.0972025916141617, ,1.5751550197601318
0.01898845888895232,0.020890273829326095,-0.1056258143246447, ,0.019811446973899256,0.020585306745392534,-0.10634357085246092, ,0.0011337939598844056, ,0.021536650687701456,0.0015730191021041467,-0.0384650696276186,0.0018863924056283414,-0.052313138835707436,0.018286806362960463, ,0.04411194048551031, ,0.05234633480171229, ,0.0011486309811660695, ,0.22259232963377304,-0.18828795020646777,0.11710813489,1.6649381512671235,0.5581601015418242,-1.292185865560363, ,0.12244766652705909,0.05611883001683665,0.04158958621409923,-0.03828611690502836,0.07766373437077193,-0.06476803182535634, ,1.5787248611450195
0.01898845888895232,0.020890273829326095,-0.1056258143246447, ,0.01989300031274561,0.02058695219651234,-0.10648013156153983, ,0.0012806471573181017, ,0.021536650687701456,0.0015730191021041467,-0.0384650696276186,0.0018863924056283414,-0.052313138835707436,0.018286806362960463, ,0.04411194048551031, ,0.05234633480171229, ,0.001149594602889807, ,0.22259232963377304,-0.18828795020646777,0.11710813489,1.6649381512671235,0.5581601015418242,-1.292185865560363, ,0.12244766652705909,0.05611883001683665,0.04158958621409923,-0.03828611690502836,0.07766373437077193,-0.06476803182535634, ,1.5822927951812744
0.01898845888895232,0.020890273829326095,-0.1056258143246447, ,0.019974573482446713,0.020588582391316664,-0.10661541991911817, ,0.0014292511843213595, ,0.021536650687701456,0.0015730191021041467,-0.0384650696276186,0.0018863924056283414,-0.052313138835707436,0.018286806362960463, ,0.04411194048551031, ,0.05234633480171229, ,0.0011516210998567021, ,0.22259232963377304,-0.18828795020646777,0.11710813489,1.6649381512671235,0.5581601015418242,-1.292185865560363, ,0.12244766652705909,0.05611883001683665,0.04158958621409923,-0.03828611690502836,0.07766373437077193,-0.06476803182535634, ,1.585852861404419
0.019203254039046477,0.020909584124556346,-0.10600842306182914, ,0.02005616515965016,0.020590197298463106,-0.10674943886159038, ,0.0011741250954762582, ,0.021646165519932717,0.0020147122997751367,-0.03861121910948779,0.01968181944724901,-0.03632053510662968,0.002043669195194641, ,0.04431074123153509, ,0.04130943562097692, ,0.001151782999105764, ,0.2238125214279005,-0.18774735890527205,0.11752294769000002,1.6649381512671235,0.5589799205404169,-1.2929360517226822, ,0.12308293327946923,0.05286737691279709,0.04191792505263159,-0.021642929650801827,0.09123509555835416,-0.07574900843541484, ,1.5893797874450684
0.019203254039046477,0.020909584124556346,-0.10600842306182914, ,0.02013777402871664,0.020591796890865665,-0.10688219133312701, ,0.001318251618211321, ,0.021646165519932717,0.0020147122997751367,-0.03861121910948779,0.01968181944724901,-0.03632053510662968,0.002043669195194641, ,0.04431074123153509, ,0.04130943562097692, ,0.0011529720606708034, ,0.2238125214279005,-0.18774735890527205,0.11752294769000002,1.6649381512671235,0.5589799205404169,-1.2929360517226822, ,0.12308293327946923,0.05286737691279709,0.04191792505263159,-0.021642929650801827,0.09123509555835416,-0.07574900843541484, ,1.593005895614624
0.019203254039046477,0.020909584124556346,-0.10600842306182914, ,0.020219398781704867,0.020593381145681697,-0.10701368028563835, ,0.001463925048594385, ,0.021646165519932717,0.0020147122997751367,-0.03861121910948779,0.01968181944724901,-0.03632053510662968,0.002043669195194641, ,0.04431074123153509, ,0.04130943562097692, ,0.001155177401010687, ,0.2238125214279005,-0.18774735890527205,0.11752294769000002,1.6649381512671235,0.5589799205404169,-1.2929360517226822, ,0.12308293327946923,0.05286737691279709,0.04191792505263159,-0.021642929650801827,0.09123509555835416,-0.07574900843541484, ,1.5968549251556396
0.019410119020086204,0.02093053548358591,-0.10637519904891232, ,0.020301038118355,0.020594950044296824,-0.10714390867873902, ,0.0012236294053802534, ,0.020818796537932786,0.0018733422638997012,-0.03554258794150958,0.03370660569755961,-0.023179223705335986,-0.0012417910905103188, ,0.041233569553283854, ,0.0409066615364281, ,0.0011556594573794868, ,0.22499409955765687,-0.1872531040013217,0.11792220501000002,1.6649381512671235,0.559936376038775,-1.2937159770485573, ,0.12181892369508443,0.04864015456610496,0.03885075980487805,-0.01813162881754452,0.10250299057736749,-0.08486217317529728, ,1.600531816482544
0.019410119020086204,0.02093053548358591,-0.10637519904891232, ,0.02038269074607361,0.02059650357231183,-0.10727287947971315, ,0.001365028657494887, ,0.020818796537932786,0.0018733422638997012,-0.03554258794150958,0.03370660569755961,-0.023179223705335986,-0.0012417910905103188, ,0.041233569553283854, ,0.0409066615364281, ,0.001157123577660014, ,0.22499409955765687,-0.1872531040013217,0.11792220501000002,1.6649381512671235,0.559936376038775,-1.2937159770485573, ,0.12181892369508443,0.04864015456610496,0.03885075980487805,-0.01813162881754452,0.10250299057736749,-0.08486217317529728, ,1.6042230129241943
0.0196328787492097,0.02094940660046581,-0.10674799866016348, ,0.020464355379917185,0.02059804171952786,-0.1074005956634782, ,0.00111386422678196, ,0.02063025732625853,0.0014842351224021717,-0.034109898575978084,0.035440860503205766,-0.02073458492963193,-0.005414552514276579, ,0.03989104726764801, ,0.04106009535934258, ,0.0011568231655011386, ,0.22630696414627502,-0.18672795816587442,0.11833053636000002,1.6649381512671235,0.5610294680368985,-1.2946073202781285, ,0.12228987314235924,0.049528675134901244,0.03739157633802818,-0.014229354389558666,0.10469118026342777,-0.08661096278806693, ,1.608184814453125
0.0196328787492097,0.02094940660046581,-0.10674799866016348, ,0.020546030742577066,0.02059956447993297,-0.1075270602125501, ,0.0012502691608996669, ,0.02063025732625853,0.0014842351224021717,-0.034109898575978084,0.035440860503205766,-0.02073458492963193,-0.005414552514276579, ,0.03989104726764801, ,0.04106009535934258, ,0.0011574676206418182, ,0.22630696414627502,-0.18672795816587442,0.11833053636000002,1.6649381512671235,0.5610294680368985,-1.2946073202781285, ,0.12228987314235924,0.049528675134901244,0.03739157633802818,-0.014229354389558666,0.10469118026342777,-0.08661096278806693, ,1.6117689609527588
0.0196328787492097,0.02094940660046581,-0.10674799866016348, ,0.020627715564362787,0.02060107185168733,-0.10765227611700674, ,0.0013887962791372347, ,0.02063025732625853,0.0014842351224021717,-0.034109898575978084,0.035440860503205766,-0.02073458492963193,-0.005414552514276579, ,0.03989104726764801, ,0.04106009535934258, ,0.0011590520635082252, ,0.22630696414627502,-0.18672795816587442,0.11833053636000002,1.6649381512671235,0.5610294680368985,-1.2946073202781285, ,0.12228987314235924,0.049528675134901244,0.03739157633802818,-0.014229354389558666,0.10469118026342777,-0.08661096278806693, ,1.615384817123413
0.019838292364140964,0.02096653573836812,-0.10709324759271134, ,0.02070940858318707,0.02060256383710977,-0.10777624637445321, ,0.001165249478803436, ,0.020523078536014785,0.0017183124354695576,-0.034123461332411634,0.042582423434416435,-0.012632505572394145,-0.007470403907582043, ,0.039856743012016325, ,0.04441617628993525, ,0.0011590942227959478, ,0.22751171047465404,-0.1862414259947983,0.11870905304000001,1.6649381512671235,0.562122560035022,-1.2954169847675594, ,0.12088782364136405,0.04728298034801733,0.03747955651764706,-0.011860635281912533,0.11098585267846435,-0.09099215084872513, ,1.61893892288208
0.019838292364140964,0.02096653573836812,-0.10709324759271134, ,0.020791108544549512,0.020604040442663386,-0.10789897398998607, ,0.0012994062260593183, ,0.020523078536014785,0.0017183124354695576,-0.034123461332411634,0.042582423434416435,-0.012632505572394145,-0.007470403907582043, ,0.039856743012016325, ,0.04441617628993525, ,0.0011600422768720516, ,0.22751171047465404,-0.1862414259947983,0.11870905304000001,1.6649381512671235,0.562122560035022,-1.2954169847675594, ,0.12088782364136405,0.04728298034801733,0.03747955651764706,-0.011860635281912533,0.11098585267846435,-0.09099215084872513, ,1.622497797012329
0.019838292364140964,0.02096653573836812,-0.10709324759271134, ,0.02087281420152117,0.02060550167894179,-0.10802046197615785, ,0.0014353771410164158, ,0.020523078536014785,0.0017183124354695576,-0.034123461332411634,0.042582423434416435,-0.012632505572394145,-0.007470403907582043, ,0.039856743012016325, ,0.04441617628993525, ,0.001161890161866309, ,0.22751171047465404,-0.1862414259947983,0.11870905304000001,1.6649381512671235,0.562122560035022,-1.2954169847675594, ,0.12088782364136405,0.04728298034801733,0.03747955651764706,-0.011860635281912533,0.11098585267846435,-0.09099215084872513, ,1.6261568069458008
0.020031835453436498,0.02098453819986513,-0.1074094690201591, ,0.0209545243147284,0.020606947560654613,-0.10814071335294173, ,0.001236384931887419, ,0.02117283825110966,0.0018233247868455105,-0.03394355678123005,0.04616516877048794,-0.014237144308083729,-0.008711025705238946, ,0.04004720514401182, ,0.04831018553181386, ,0.0011623867936664497, ,0.22866239767291352,-0.18581667568671592,0.11905775505,1.6649381512671235,0.5632156520331455,-1.2962266492569903, ,0.12652925541129437,0.04608884971271043,0.03747955651764706,-0.010285824670254077,0.1147585192255171,-0.09300315072564214, ,1.6300289630889893
0.020031835453436498,0.02098453819986513,-0.1074094690201591, ,0.02103623765233739,0.02060837810661395,-0.1082597311476956, ,0.0013686730356204776, ,0.02117283825110966,0.0018233247868455105,-0.03394355678123005,0.04616516877048794,-0.014237144308083729,-0.008711025705238946, ,0.04004720514401182, ,0.04831018553181386, ,0.0011637529277191254, ,0.22866239767291352,-0.18581667568671592,0.11905775505,1.6649381512671235,0.5632156520331455,-1.2962266492569903, ,0.12652925541129437,0.04608884971271043,0.03747955651764706,-0.010285824670254077,0.1147585192255171,-0.09300315072564214, ,1.6338269710540771
0.020031835453436498,0.02098453819986513,-0.1074094690201591, ,0.02111795299003807,0.020609793339719514,-0.1083775183951268, ,0.0015023996159126136, ,0.02117283825110966,0.0018233247868455105,-0.03394355678123005,0.04616516877048794,-0.014237144308083729,-0.008711025705238946, ,0.04004720514401182, ,0.04831018553181386, ,0.0011659808664572404, ,0.22866239767291352,-0.18581667568671592,0.11905775505,1.6649381512671235,0.5632156520331455,-1.2962266492569903, ,0.12652925541129437,0.04608884971271043,0.03747955651764706,-0.010285824670254077,0.1147585192255171,-0.09300315072564214, ,1.6374030113220215
0.020250036932924334,0.021000933825226668,-0.10775740352146405, ,0.02119966911102859,0.020611193286945474,-0.10849407813725663, ,0.0012634826672431592, ,0.021824654569127626,0.001771389506608917,-0.034788260181130744,0.033878605742376125,-0.024659293587714903,-0.016851854682664834, ,0.0411056737479866, ,0.041902144754430826, ,0.0011666181331290437, ,0.22995981679578323,-0.18533014351563978,0.11944145689,1.6647284613236386,0.564308744031269,-1.2971179924865617, ,0.12893606190009615,0.04821999062930426,0.038382678361445786,0.0,0.10486855939530441,-0.08027411325971945, ,1.6416149139404297
0.020250036932924334,0.021000933825226668,-0.10775740352146405, ,0.02128138480599951,0.020612577979326047,-0.10860941342338508, ,0.0013929894368994158, ,0.021824654569127626,0.001771389506608917,-0.034788260181130744,0.033878605742376125,-0.024659293587714903,-0.016851854682664834, ,0.0411056737479866, ,0.041902144754430826, ,0.0011680880766600202, ,0.22995981679578323,-0.18533014351563978,0.11944145689,1.6647284613236386,0.564308744031269,-1.2971179924865617, ,0.12893606190009615,0.04821999062930426,0.038382678361445786,0.0,0.10486855939530441,-0.08027411325971945, ,1.645211935043335
0.020480031172301964,0.021018594381367307,-0.1081213981457788, ,0.021363098873117627,0.02061394745194094,-0.10872352731005443, ,0.0011428504854920068, ,0.02198735093837624,0.0017944357006595061,-0.034701029485331304,0.022008478698839113,-0.03944258297256276,-0.01330566873937943, ,0.0411196430932097, ,0.04516680384448005, ,0.0011679252534911944, ,0.23131901778164674,-0.1848281658788152,0.11984330679,1.6645187713801544,0.5654018360293926,-1.298009335716133, ,0.12858664167814468,0.04742475840003537,0.03829041230769231,-0.0024840705777773916,0.0901056995740976,-0.06823599096687202, ,1.6489307880401611
0.020480031172301964,0.021018594381367307,-0.1081213981457788, ,0.02144481011801084,0.020615301743902303,-0.10883642286101496, ,0.0012667690037710723, ,0.02198735093837624,0.0017944357006595061,-0.034701029485331304,0.022008478698839113,-0.03944258297256276,-0.01330566873937943, ,0.0411196430932097, ,0.04516680384448005, ,0.0011685588672750396, ,0.23131901778164674,-0.1848281658788152,0.11984330679,1.6645187713801544,0.5654018360293926,-1.298009335716133, ,0.12858664167814468,0.04742475840003537,0.03829041230769231,-0.0024840705777773916,0.0901056995740976,-0.06823599096687202, ,1.6525177955627441
0.020480031172301964,0.021018594381367307,-0.1081213981457788, ,0.02152651735375166,0.02061664089833945,-0.10894810314718831, ,0.001392889475098037, ,0.02198735093837624,0.0017944357006595061,-0.034701029485331304,0.022008478698839113,-0.03944258297256276,-0.01330566873937943, ,0.0411196430932097, ,0.04516680384448005, ,0.0011699877246497082, ,0.23131901778164674,-0.1848281658788152,0.11984330679,1.6645187713801544,0.5654018360293926,-1.298009335716133, ,0.12858664167814468,0.04742475840003537,0.03829041230769231,-0.0024840705777773916,0.0901056995740976,-0.06823599096687202, ,1.6561219692230225
0.02069093571939181,0.0210341033829389,-0.10844145254338206, ,0.021608219400841903,0.020617964962385795,-0.10905857124663275, ,0.0011812772880305815, ,0.022263942682857123,0.0013417811638256859,-0.032320155825463145,0.01601785187967315,-0.05075450590865283,-0.012296911434023162, ,0.039269275433338004, ,0.05322176417571304, ,0.0011700591775824986, ,0.2325623777743969,-0.18438024737211017,0.12019719396000002,1.6645187713801544,0.5660850185282198,-1.298403067754334, ,0.1347967919864642,0.047353763252729934,0.03595668514672686,-0.0024840705777773916,0.0850221165338995,-0.06206012278850558, ,1.659747838973999
0.02069093571939181,0.0210341033829389,-0.10844145254338206, ,0.021689915087196796,0.020619273987164382,-0.10916783024450707, ,0.0013029458045484348, ,0.022263942682857123,0.0013417811638256859,-0.032320155825463145,0.01601785187967315,-0.05075450590865283,-0.012296911434023162, ,0.039269275433338004, ,0.05322176417571304, ,0.0011708949425319698, ,0.2325623777743969,-0.18438024737211017,0.12019719396000002,1.6645187713801544,0.5660850185282198,-1.298403067754334, ,0.1347967919864642,0.047353763252729934,0.03595668514672686,-0.0024840705777773916,0.0850221165338995,-0.06206012278850558, ,1.6634838581085205
0.02069093571939181,0.0210341033829389,-0.10844145254338206, ,0.021771603248129188,0.020620568027773973,-0.10927588323303597, ,0.0014265792559388492, ,0.022263942682857123,0.0013417811638256859,-0.032320155825463145,0.01601785187967315,-0.05075450590865283,-0.012296911434023162, ,0.039269275433338004, ,0.05322176417571304, ,0.0011724929694907629, ,0.2325623777743969,-0.18438024737211017,0.12019719396000002,1.6645187713801544,0.5660850185282198,-1.298403067754334, ,0.1347967919864642,0.047353763252729934,0.03595668514672686,-0.0024840705777773916,0.0850221165338995,-0.06206012278850558, ,1.6671969890594482
0.020956020031048177,0.021042710770222867,-0.10881539215849151, ,0.02185328272633345,0.020621847143274405,-0.10938273331147337, ,0.0011419643254960271, ,0.021663964076761726,0.0002887932378893975,-0.028937975411683088,0.032907048310330325,-0.029736935616510803,-0.028063500844107084, ,0.0361499261683983, ,0.044352439342360134, ,0.001172303350583963, ,0.23409920161636757,-0.18381648787229177,0.12059126612000001,1.66430908143667,0.5673147470261087,-1.2992424714073207, ,0.1375317993601026,0.051102284091799025,0.03270803186858317,0.011170222803201152,0.10575319658504906,-0.07976083347250863, ,1.6709179878234863
0.020956020031048177,0.021042710770222867,-0.10881539215849151, ,0.021934952371870327,0.020623111396673506,-0.10948838358606758, ,0.0012598768288136055, ,0.021663964076761726,0.0002887932378893975,-0.028937975411683088,0.032907048310330325,-0.029736935616510803,-0.028063500844107084, ,0.0361499261683983, ,0.044352439342360134, ,0.0011728439276100719, ,0.23409920161636757,-0.18381648787229177,0.12059126612000001,1.66430908143667,0.5673147470261087,-1.2992424714073207, ,0.1375317993601026,0.051102284091799025,0.03270803186858317,0.011170222803201152,0.10575319658504906,-0.07976083347250863, ,1.6745309829711914
0.020956020031048177,0.021042710770222867,-0.10881539215849151, ,0.02201661104215056,0.020624360854912222,-0.10959283717002598, ,0.00137996039451552, ,0.021663964076761726,0.0002887932378893975,-0.028937975411683088,0.032907048310330325,-0.029736935616510803,-0.028063500844107084, ,0.0361499261683983, ,0.044352439342360134, ,0.001174114580781271, ,0.23409920161636757,-0.18381648787229177,0.12059126612000001,1.66430908143667,0.5673147470261087,-1.2992424714073207, ,0.1375317993601026,0.051102284091799025,0.03270803186858317,0.011170222803201152,0.10575319658504906,-0.07976083347250863, ,1.678267002105713
