NicholasDascanio/dvrk_moveit_final/test/execution/third_experiment_notsharpbends/thirdexp_300vel4.0/thirdexp_300vel4.0_9.csv
Current Position (x),Current Position (y),Current Position (z), ,Planned Position (x),Planned Position (y),Planned Position (z), ,Position Error,,Cartesian linear Velocity(x),Cartesian linear Velocity(y),Cartesian linear Velocity(z),Cartesian Angular Velocity(x),Cartesian Angular Velocity(y),Cartesian Angular Velocity(z), ,Total Linear Velocity, ,Total Angular Velocity, ,MSE, ,Joint 1 Position,Joint 2 Position,Joint 3 Position,Joint 4 Position,Joint 5 Position,Joint 6 Position, ,Joint 1 Velocity,Joint 2 Velocity,Joint 3 Velocity,Joint 4 Velocity,Joint 5 Velocity,Joint 6 Velocity, ,Time Stamp
0.010120881655564289,0.01996164334320332,-0.08045067300111879, ,0.010274176135218901,0.01992502692152554,-0.08046090265959892, ,0.00015793861383994688, ,3.451838956646656e-05,5.129269600276287e-05,1.1775245201652487e-05,0.23951895849254584,0.004848801502151732,-0.08556357283699319, ,6.29373997004423e-05, ,0.23956803282859165, ,1.3161551153328907e-05, ,0.18056521733224326,-0.2357132527870805,0.09108511314,1.6821327266328545,0.5197652451077354,-1.2397226409252633, ,0.00045494579282429965,-0.0007005338950586925,5.1079341507793e-06,-0.0015147300766405736,0.0,-0.2545411188920328, ,0.03545212745666504
0.010157915353142198,0.019975384836519988,-0.08047143306594275, ,0.01030744850861123,0.019991752584791356,-0.08050725151014555, ,0.00015463191363075782, ,0.0009806345805955187,0.000811158927190519,-0.0017608789350851573,0.14720138997721857,-0.058334992194414105,-0.10525618117294173, ,0.0021726291929013704, ,0.15833894191111234, ,1.4207751248668394e-05, ,0.1805806627979917,-0.23580592558157118,0.09109677975000001,1.682761796463308,0.5158027866145377,-1.245966255574372, ,0.0007722433234961941,-0.0028450358688377276,0.0017197696290070948,0.038130636732305045,-0.07204749088814354,-0.151666285006947, ,0.07126998901367188
0.010188775194839766,0.01999176061598511,-0.08049029891964712, ,0.010341183867257266,0.020057057074364018,-0.080555299722149, ,0.00017809305216875124, ,0.0010238716731413213,0.0007326347165962925,-0.00040961882213269866,-0.056319439299256514,-0.09456460582646559,-0.0013831283350273314, ,0.001323954081707035, ,0.11006518031647174, ,1.5333236863732997e-05, ,0.18063472192811128,-0.23596038023905566,0.09111103894000001,1.682761796463308,0.5129334201194634,-1.2490172764460246, ,0.0023674541738386806,-0.00792176245998026,0.00031520992247674234,0.0,-0.09414963218956666,0.06127336387298357, ,0.10985398292541504
0.010196516825498329,0.020023888059616305,-0.08050477304338041, ,0.010375379083809227,0.020120954077147347,-0.08060502994604125, ,0.00022685891152554897, ,-7.415706035989185e-05,0.0011076012876979787,-0.0006542214594665149,0.018516085292029683,0.06422268784144415,0.008796377399877835, ,0.0012885207022543092, ,0.06683860447466851, ,1.7083868837262022e-05, ,0.18077373111984732,-0.23626156682115043,0.09113696474,1.683181176350277,0.513753239118056,-1.245356810640753, ,0.004245163667500471,-0.009945926849022745,0.0011649189284940388,0.009618703277024533,0.06848880080382183,-0.002506376182754219, ,0.14638304710388184
0.010222358547845593,0.020075376711385807,-0.08054263385782291, ,0.0104100310441651,0.020183457220425527,-0.08065642490910521, ,0.00024464416130578657, ,0.0008201927744121949,0.0013840948261781049,-0.0012945815039299552,0.006991928107552587,-0.003115112889064768,-0.013777618362311082, ,0.002065036548191948, ,0.007654474963651339, ,1.8503204855207527e-05, ,0.18102858130469673,-0.23673265352647813,0.09119011263000001,1.6833908662937616,0.514026512117587,-1.2452529314875838, ,0.006904499754389032,-0.011194637437592398,0.0016793775032902126,0.01911422697861721,-0.0005551061018373047,0.007784010130557398, ,0.18259000778198242
0.010247645502878985,0.020122507471863334,-0.08058200505354475, ,0.010445136647443317,0.02024458007197147,-0.0807094674153373, ,0.0002648605775728525, ,0.0008671882267099729,0.0016293047002270743,-0.0014638375014347368,0.014759125514227932,0.000493964017443506,-0.027469715523143274, ,0.0023557311937768104, ,0.014767389288176207, ,2.0115200492518752e-05, ,0.18122937235942657,-0.2371110674373151,0.09124066794,1.6842296260676997,0.5138898756178215,-1.2451415135838875, ,0.007060796009423394,-0.01278762182434588,0.001917336852106807,0.03247596924542762,0.0,0.003817683211635398, ,0.21544909477233887
0.010273358767509237,0.020168820197710973,-0.08062496553202066, ,0.010480692805957672,0.020304336140156982,-0.0807641403453104, ,0.00028411547443003404, ,0.0008516962536210493,0.0017170263464095867,-0.0016043367893998585,-0.006294037523505102,-0.0042685851109413074,-0.000994400661413546, ,0.0024994924517826875, ,0.007604980419830903, ,2.1587752921052543e-05, ,0.18144560887990485,-0.23752809501252325,0.09129770470000001,1.6842296260676997,0.5138898756178215,-1.2444880836627628, ,0.006678385288164305,-0.01451467445066852,0.0020655932708727384,0.012278902729486582,0.0,0.024137497351030383, ,0.24875211715698242
0.010301472116957592,0.020221962753850905,-0.08067721998523511, ,0.01051669644519183,0.02036273887406168,-0.08082042665603528, ,0.0002943596066839783, ,0.0009729280480943688,0.0018399028369761397,-0.001976370786399719,0.009375241449362814,-0.004082618282379079,-0.008296668446547906, ,0.0028701694935344513, ,0.010225601412303956, ,2.285445963490704e-05, ,0.1816541226675089,-0.23796829078635404,0.09136381549000001,1.6846490059546686,0.513753239118056,-1.243559878357661, ,0.00729700699201215,-0.014726403097217686,0.002469583181395349,0.014312146858692374,0.0,0.008094940648187832, ,0.2807281017303467
0.010337945828444533,0.020293519706823027,-0.08074604409304935, ,0.010553144503774073,0.020419801663582104,-0.08087830938082403, ,0.00028240345043325995, ,0.000872283620216781,0.0016762737388835893,-0.0014736818629404486,-0.008516160762235398,-0.0072765949281980045,0.00916908512061871, ,0.0023963536039009127, ,0.011201510070984366, ,2.3726201836260412e-05, ,0.1819398637838552,-0.23857066395054355,0.09145196321000001,1.6850683858416375,0.513753239118056,-1.2429881271766767, ,0.007261105188176961,-0.014892803132214496,0.0019340470519669743,0.002010757362263461,0.0,0.024975302087237704, ,0.3146381378173828
0.010372127050688662,0.020357079197066367,-0.08079772810678641, ,0.010590033933451891,0.02047553783954095,-0.08093777162915165, ,0.000284829857439441, ,0.0009948205450365272,0.0015389634171938918,-0.0013461374935994433,-0.006501076505035648,-0.0065205791201812455,-0.0015808019857178307, ,0.002273799126563748, ,0.00920771132162873, ,2.446119194876657e-05, ,0.1822487730988242,-0.2391267007174877,0.09152196287000001,1.6854877657286067,0.5138898756178215,-1.2422827576789675, ,0.008951892728082268,-0.013051429178719678,0.0017938954187352563,0.01215294911552418,0.0,0.022807655997263542, ,0.3528711795806885
0.010395504030582956,0.02039102122899606,-0.08083728805387967, ,0.010627361699066607,0.020529960673796404,-0.08099879658651876, ,0.00031487641047136925, ,0.0012088363844344446,0.0016553836183638426,-0.0022308293627547274,-0.01941997903443989,-0.00969081160785237,0.011266442817982746, ,0.003029551117576426, ,0.021703626776686913, ,2.5596305042873584e-05, ,0.18244184142067982,-0.23938927363521134,0.09157122189000001,1.6856974556720912,0.5138898756178215,-1.2417926852381242, ,0.009618156283872381,-0.012337095886436658,0.002701630176390774,0.0024966080047282096,0.0,0.03397373937378992, ,0.38120102882385254
0.010432285320418098,0.020439567153634798,-0.08090371305981436, ,0.010665124778527692,0.020583083379350567,-0.08106136751431305, ,0.00031569929889017147, ,0.0012968134434057262,0.001629944663443661,-0.0022914322625604945,-0.007232255974679162,-0.006748568157250317,-0.007035243323864234, ,0.0030966282513064745, ,0.009891850109719711, ,2.657797635745042e-05, ,0.18273530526990034,-0.23972907388167722,0.09165159187000001,1.6861168355590603,0.5138898756178215,-1.2415476490177026, ,0.010434081114905892,-0.01102983841487577,0.002765418666666667,0.01735409555977732,0.0,0.022449565260010036, ,0.4102671146392822
0.010477180495943832,0.020493810384540994,-0.08097973782913889, ,0.010703320162787534,0.020634919110459494,-0.08112546774967273, ,0.0003037894520705457, ,0.0013854709109428715,0.0015747448830203817,-0.002196773736273725,-0.004773709755914313,-0.012100603137422648,0.00770364482830598, ,0.0030372958268910467, ,0.013008185925483797, ,2.7331411408780524e-05, ,0.18310599644786313,-0.24011521052538845,0.09174362846,1.686326525502545,0.5138898756178215,-1.2410575765768592, ,0.01180163431892436,-0.01151118048688172,0.0026726193825503362,0.00013865106084019784,0.0,0.017111830483960696, ,0.4419820308685303
0.010517038591102567,0.020542478420072313,-0.08103703778857252, ,0.010741944855815774,0.020685480962740962,-0.08119108070534767, ,0.00030783400612268504, ,0.0013262639354936687,0.0015954344388057072,-0.0018065526662664447,0.021076912379216845,-0.008075501043727435,-0.014704578562781161, ,0.0027510033826065785, ,0.02257099804016617, ,2.8022750283605647e-05, ,0.18346896489295167,-0.24047817897047702,0.0918162207,1.6867459053895137,0.514026512117587,-1.2406789220397123, ,0.011845048341742166,-0.012045791086392291,0.0022952177982708934,0.015266506782902239,0.0,-0.006930749897136979, ,0.47053098678588867
0.010561594928639813,0.020593405623315596,-0.08110716339822512, ,0.010780995874573703,0.020734781973284377,-0.08125818986956176, ,0.0003015510611017325, ,0.0014913697886195008,0.0017469422918774298,-0.0026190427163388804,-0.011219844512773573,-0.012565803124996078,0.01050183562265229, ,0.003483586652799767, ,0.01684589917290696, ,2.8587487939320153e-05, ,0.18384737880378868,-0.24084114741556556,0.09190177584,1.6869555953329984,0.514026512117587,-1.2402705283390096, ,0.012090322532611896,-0.012230563417769142,0.0031362101831069115,0.0,0.0,0.024674838690813855, ,0.5004839897155762
0.010589437775896727,0.020628694337834808,-0.08115861166617364, ,0.0108204702489887,0.020782835120759378,-0.0813267788058755, ,0.00032467764237639854, ,0.0013847826267645792,0.0018535934432193659,-0.0025781074850747456,0.006010957615432445,-0.006000579835294962,-0.008237599359864612, ,0.0034641116871043957, ,0.008493442747224397, ,2.9452524236550412e-05, ,0.1840790607900154,-0.24108055213466653,0.09196399776000001,1.687165285276483,0.5141631486173524,-1.2402185887624246, ,0.010943669153098383,-0.01278762182434588,0.0031165743533555085,0.014988312164434178,0.0016126048367803767,0.009913426575295797, ,0.5258831977844238
0.010633197635398975,0.020682757878976638,-0.08123954194114, ,0.010860365021928647,0.02082965332552422,-0.08139683115304697, ,0.00031292681237223805, ,0.0015659571069532295,0.0018111982209642848,-0.002639596403583519,-0.017231529754395677,-0.01580326196103192,0.010636334149130485, ,0.0035637241518182306, ,0.023380947503415704, ,3.0159538426725145e-05, ,0.18443430650222975,-0.24143579784688085,0.09206121951000001,1.687584665163452,0.5142997851171178,-1.2396765767449966, ,0.012590810874150296,-0.012783074292016264,0.0031699127402985074,0.0016041939713557153,-0.003100628787493956,0.03169902500065035, ,0.5509819984436035
0.010665782668518156,0.020720608352977038,-0.08130026558495577, ,0.010900677249176137,0.020875249449735313,-0.08146833062489497, ,0.00032762049764759217, ,0.001476338530152654,0.001741251678268586,-0.00262635491960849,0.020505564429266477,-0.004459812712885675,-0.016701475344980826, ,0.0034798380747440225, ,0.02098494941313551, ,3.089690379799423e-05, ,0.1846737112213307,-0.24166747983310757,0.09213251546000001,1.6880040450504212,0.5141631486173524,-1.2391567651405975, ,0.012025539934769531,-0.011092154009141934,0.0031548448247177663,0.01820866976847558,0.003199704398783051,-0.006503364038976386, ,0.5770301818847656
0.010709447669377087,0.020768862273770738,-0.08138130146869042, ,0.01094140399940293,0.020919636297455604,-0.08154126101016067, ,0.00031956783343220507, ,0.0015363009653711472,0.0017271301344518836,-0.0028005618188584247,0.01247737182729255,-0.0028315292725766654,-0.009103567602359686, ,0.0036313008218515452, ,0.012794622525330552, ,3.15229008091836e-05, ,0.18502895693354504,-0.24197638914807656,0.09222844092000002,1.6880040450504212,0.5142997851171178,-1.2391048255640127, ,0.012707142683244615,-0.010591951394594405,0.0033421761477129674,0.013739446341288432,0.006846024018814,0.0009286800063442926, ,0.602586030960083
0.010742035187550368,0.02080235047888935,-0.08143714695615714, ,0.010982542354144193,0.020962826614763525,-0.08161560617236914, ,0.0003397704802055318, ,0.0016647037008949163,0.0016674404646071402,-0.0028757836465813564,0.01312017199177449,-0.0034054352677067323,-0.012636855378709181, ,0.003717758423664355, ,0.013554921698762969, ,3.221540182395829e-05, ,0.18529152985126865,-0.24216945746993218,0.09229455171,1.68842342493739,0.5142997851171178,-1.2390231468238722, ,0.014038009106282659,-0.009470379145400597,0.003416733487773488,0.016787558052043967,0.006846024018814,-0.0003395767345875716, ,0.6272580623626709
0.010795112064827209,0.020852834688068877,-0.0815303771632062, ,0.011024089407772738,0.021004833089861435,-0.08169135004969177, ,0.0003185065272696688, ,0.0017743060790605227,0.001731701602113439,-0.0032915993704804095,0.009356249968266974,-0.006333846040006176,-0.006066240702181582, ,0.004120871135658139, ,0.011298540558001273, ,3.2734947715030695e-05, ,0.18571628015935102,-0.24245519858627848,0.09240344007000001,1.6886331148808746,0.5142997851171178,-1.23869643186331, ,0.014313264186798005,-0.009313770567263097,0.0038428978335343796,0.010467311268369039,0.005713302415334906,0.0022094010213238374, ,0.6533660888671875
0.010826567451090053,0.020882940518232532,-0.08158720979483138, ,0.011066042267473273,0.021045668353184534,-0.08176847665480796, ,0.00034159363354095896, ,0.0018427486328678267,0.0015959312502073254,-0.0031475819171016346,0.0038745071308498116,-0.01057879175241729,0.0047035459324492246, ,0.003981204717694101, ,0.011265994857937325, ,3.3519725808278126e-05, ,0.18596340761132618,-0.24261737597663718,0.09246955086000001,1.6888428048243591,0.5142997851171178,-1.2384513956428882, ,0.015447980068121564,-0.008678373290691361,0.0036778599676749024,0.0,0.005154367486185256,0.005329803539360788, ,0.6745991706848145
0.010865949687751888,0.020919300881421583,-0.08165639145037933, ,0.01110839805321662,0.02108534497750972,-0.08184697007476718, ,0.00035024571922553943, ,0.0018451946745064475,0.0017362033776094881,-0.0033705014434955933,-0.0019502741140333783,-0.007813855919162782,-0.006506266503094613, ,0.004216565609101254, ,0.008053565235988384, ,3.4300497349513055e-05, ,0.18630320785779206,-0.2428104442984928,0.09255121713000002,1.6890524947678438,0.5145730581166488,-1.2384291952298594, ,0.014724118162679717,-0.008883356669826334,0.003922386486087171,0.014607528696353648,0.0038040639574459783,0.014407090420833187, ,0.6959400177001953
0.010926620611666975,0.020972024891462195,-0.08176414063476117, ,0.011151153897733964,0.021123875478064106,-0.08192681447085086, ,0.0003161274650382637, ,0.001940977643971547,0.0017118924611472697,-0.003765151162901403,-0.017330811110729125,-0.010515609794175044,0.005892892931506813, ,0.004568843758811192, ,0.02027153330023268, ,3.486052009540739e-05, ,0.186782017295994,-0.24306529448334221,0.09267566097,1.6894718746548125,0.5145730581166488,-1.237775765308735, ,0.014972695102314732,-0.007879340451697867,0.004308577635921018,0.006132847533966841,0.0036290781875471106,0.028047854110878623, ,0.720501184463501
0.010961471935828256,0.021004658108165083,-0.08183561992098103, ,0.011194306946490895,0.021161272312633084,-0.08200799407843401, ,0.00032932203295413226, ,0.0018107734530530312,0.0016475688359904842,-0.0034945190482836225,-0.014380501974063046,-0.002919445511054523,0.006988952281720457, ,0.004266737271783407, ,0.014673854251590766, ,3.545243591994773e-05, ,0.18707548114521452,-0.2432197491408267,0.09275862353000001,1.6894718746548125,0.514982967615945,-1.2378649827994024, ,0.014726403097217686,-0.007863758843786364,0.004046954146341464,0.006132847533966841,0.011210561189990285,0.025481649779672343, ,0.7417922019958496
0.011003978665534285,0.021038602675378288,-0.08190880404802031, ,0.01123785435766174,0.021197547881670043,-0.08209049320684723, ,0.0003361136242499845, ,0.0020286690374875754,0.0015586809675604233,-0.0036176442565114446,-0.02008068247591648,-0.006358716722020515,0.006430396390642621, ,0.0044308390163676796, ,0.02106340633491784, ,3.604286179904007e-05, ,0.1874152813916804,-0.2433742037983112,0.09284288238,1.6896815645982974,0.514982967615945,-1.2374565890986997, ,0.016846607768235537,-0.006346028722122495,0.0041654841841004195,0.007589305161477469,0.009563424130172228,0.030099992380945684, ,0.7641642093658447
0.011043428367165115,0.021072804106228436,-0.08198443730439, ,0.011281793302103622,0.021232714528404088,-0.08217429623923855, ,0.0003441447376765453, ,0.0022423611937823955,0.0017555863129161305,-0.0044928036432325775,0.009145852037556404,-0.012768077940780855,-0.0077431310077852155, ,0.005319356314642175, ,0.01570574487135697, ,3.68088918396071e-05, ,0.1877241907066494,-0.24351321299004725,0.09292973381000001,1.6901009444852664,0.5151196041157104,-1.2371596133016933, ,0.01661651927131339,-0.006027856170458572,0.005051954176974311,0.00921743498029627,0.001658545085516188,-0.001521705460102391, ,0.7819130420684814
0.011089956360240946,0.02111053349614034,-0.08208111100844824, ,0.011326120963330438,0.0212667845389488,-0.08225938763243515, ,0.00033462017690407954, ,0.002188564609909568,0.0018186720790955904,-0.0046527013601080705,0.0071335145819724334,-0.005027174221542257,-0.0032277260207179185, ,0.0054538988924788465, ,0.00872694154699136, ,3.7496452194429215e-05, ,0.1880717136859895,-0.24365222218178328,0.09303862217000002,1.6901009444852664,0.5152562406154759,-1.2371893524652493, ,0.01636436308992426,-0.006296990780483818,0.00524837282372323,0.007714620156767602,0.009857864995013866,0.0012338826834027087, ,0.8004531860351562
0.011114046396012798,0.021128767774951276,-0.08213247792519258, ,0.011370834537487277,0.021299770142411016,-0.08234575191680497, ,0.00037505700203706944, ,0.002398375360470304,0.0018896450505918494,-0.005121951281807878,0.0004264516602799067,-0.007726088615229661,-0.0008370514245827582, ,0.005962998215675626, ,0.00773784871807339, ,3.8333839431326194e-05, ,0.1882416138092224,-0.24370628131190286,0.09309565893,1.6901009444852664,0.5152562406154759,-1.2371076737251085, ,0.017668393513027514,-0.005748642074107229,0.00574011225945946,0.00699487332645757,0.008710795953560365,0.007550081372545163, ,0.8187530040740967
0.011160669846868337,0.021167628367750903,-0.0822295951020377, ,0.011415931233324197,0.021331683510998973,-0.082433373696119, ,0.00036551084915124426, ,0.002493379854024284,0.001882375595056066,-0.0050770775786190105,-0.003005063929316362,-0.010777893094657546,-0.007920062115387903, ,0.005961291614795632, ,0.01118898500337435, ,3.909297328283105e-05, ,0.18859685952143676,-0.2438221223050162,0.09320584358,1.69073001431572,0.5155295136150068,-1.2370037945719392, ,0.018394444961905558,-0.005376188397140498,0.005690893719185424,0.014744901516968638,0.004434495150628479,0.011974553146498333, ,0.8363871574401855
0.011206275268579077,0.02120126134381001,-0.08232278831676149, ,0.011461408272170513,0.02136253676013144,-0.08252223764741237, ,0.00036177706523261497, ,0.0024836343226491584,0.0019257163385370652,-0.005128373272591285,0.0018483473983136485,-0.002414792068171475,-0.004955583288502157, ,0.0060147348477034455, ,0.003040987551775721, ,3.980370917521763e-05, ,0.18895210523365108,-0.24392251783238114,0.09331084307000001,1.69073001431572,0.5158027866145377,-1.2369815941589104, ,0.019055610754713008,-0.005716495031425203,0.005790189574700111,0.012809213266093439,0.014203744309685375,0.0075624348878842755, ,0.855086088180542
0.011237906442647508,0.021222655790596005,-0.08238577859731103, ,0.011507262887908659,0.021392341948545328,-0.08261232852084677, ,0.00039073156342606325, ,0.002393214528731843,0.0017048997896463515,-0.004885658446205375,-0.00936248675870796,-0.0024778795944659752,-0.0003494300132015551, ,0.005701211934865014, ,0.009684835714042706, ,4.0776468531205834e-05, ,0.1891837872198778,-0.24397657696250072,0.09338084273000001,1.69073001431572,0.5158027866145377,-1.2367365579384886, ,0.018516476401652836,-0.00401148735108514,0.00549080024819028,0.011049391788836538,0.014203744309685375,0.01733579960107915, ,0.8692610263824463
0.011285663730874404,0.02125594391768182,-0.0824787427141089, ,0.011553492326948446,0.0214211110784051,-0.08270363113957141, ,0.00038676498259716807, ,0.0027730896118496897,0.0019393259968139144,-0.005732175581933238,0.01631946108699158,-0.007387161847130012,0.0007465932672640547, ,0.00665648918119594, ,0.017913541362244774, ,4.1700679723240317e-05, ,0.1895622011307148,-0.24406152702411718,0.09348584222,1.6909397042592043,0.5160760596140685,-1.2365510000451785, ,0.021092896545559185,-0.004716123109641233,0.00641256502415459,0.0,0.014014372937565288,-0.011316796532490802, ,0.8834691047668457
0.01133249705043738,0.021290751675313566,-0.08257951762622064, ,0.011600093848200913,0.021448856095410425,-0.0827961303995855, ,0.00037884844913537477, ,0.0030328451437433225,0.002110746761657646,-0.006602223944834916,-0.01162549905035843,-0.006753861439440237,-0.00033308420601366526, ,0.007565894697623488, ,0.013444956674106582, ,4.256265423642086e-05, ,0.18973210125394777,-0.24410014068848832,0.09353899011000001,1.6909397042592043,0.516212696113834,-1.236499060468594, ,0.021785340119024516,-0.0042884010812058925,0.007029484342453663,0.0,0.012792634555354985,-0.005726744165782964, ,0.8996360301971436
0.011380768499029557,0.021322164788998073,-0.08268288485720271, ,0.011647064723052403,0.02147558888890526,-0.08288981126959928, ,0.00037050124629813604, ,0.0030102353079143732,0.001949123840919105,-0.006315078634938821,-0.02222148580179289,-0.0005201534445091519,0.006482655559358299, ,0.007262287416628066, ,0.022227572535061402, ,4.3363656753830665e-05, ,0.190257247089395,-0.24417736801723056,0.09371269297000001,1.6913590841461734,0.516485969113365,-1.236313502575284, ,0.023100521314136025,-0.002496748330520003,0.00703880314626602,0.009893863450009583,0.021510695608609482,0.02974619086634403, ,0.9137179851531982
0.01141172574102387,0.021341955788282803,-0.08274711546339325, ,0.011694402235338587,0.021501321291985898,-0.08298465879089616, ,0.00040215693037637965, ,0.003256928990826708,0.002042291779353493,-0.006707679135859739,-0.024482258625522908,-0.021473454765203827,0.0022039020684677894, ,0.007731203111608851, ,0.03256516902123257, ,4.426405952296868e-05, ,0.19048892907562176,-0.24420825894872744,0.09378398892,1.6913590841461734,0.5166226056131303,-1.2363432417388398, ,0.023072438988201018,-0.002620927450689345,0.007313503911845732,0.008834918132862206,0.0,0.03088923504382297, ,0.9291210174560547
0.011474627057942659,0.021378669947244203,-0.08286883692198294, ,0.011742103681318478,0.021526065081609414,-0.08308065807719432, ,0.00037166822770066666, ,0.003064761451624148,0.0016687172005126567,-0.005382003888748506,-0.0028599205908313233,-0.006792751668832119,0.0006856361706753984, ,0.006414307890111932, ,0.007370252133043685, ,4.501836956021206e-05, ,0.19099090671244634,-0.2442545953459728,0.09392009937000001,1.6913590841461734,0.5170325151124266,-1.2362691017492264, ,0.02540068028866991,-0.0020737614350065216,0.006065807890327494,0.007257219494987182,0.017645014581111607,0.00796506085424704, ,0.9436211585998535
0.011505377663983622,0.021394340590280995,-0.08292469829885774, ,0.011790166369648337,0.021549831978702336,-0.08317779431450838, ,0.00041150913949219894, ,0.0029507089624129313,0.0016855501550106734,-0.005627991687889868,0.00908358843988515,0.003031437161321313,-0.000714633179244928, ,0.006574348115583624, ,0.00957607354618333, ,4.607758040623337e-05, ,0.19123803416442153,-0.24426231807884702,0.09398232129,1.6913590841461734,0.5171691516121921,-1.236380519652923, ,0.024313846158972786,-0.001561490526176188,0.006328490870083433,0.006667086595829003,0.02662639010958085,-0.004656635998408692, ,0.9551100730895996
0.01153899620627772,0.021412197497292,-0.08298556765897121, ,0.011838587621355593,0.021572633648268957,-0.08327605276101042, ,0.0004470753505119667, ,0.0033153261079755746,0.0017549373654179561,-0.006422107943558023,-0.006637404113674627,-0.007249399854205234,0.00817221367607756, ,0.007437382792184066, ,0.009828983705867912, ,4.724743877476847e-05, ,0.19149288434927095,-0.24427004081172124,0.09404972837000002,1.691568774089658,0.5171691516121921,-1.2361354834325011, ,0.026149611892662104,-0.00040312146008782937,0.007130175255147718,0.0,0.01978881978588331,0.008979022772826096, ,0.9659831523895264
0.011575664760781992,0.02143314874384742,-0.08306081355026064, ,0.011887364769813018,0.021594481699499415,-0.0833754187468928, ,0.00047134026770191516, ,0.0039006370955089907,0.002232815586827184,-0.008094927183141724,-0.0318308598002985,-0.024355025169330684,-0.0015118995155580992, ,0.009258956814674429, ,0.040079556532803526, ,4.8481888030864384e-05, ,0.1917631799998688,-0.24427004081172124,0.09413269093000001,1.6917784640331426,0.5173057881119575,-1.2360835438559163, ,0.027206691960570746,-0.00034015124376538935,0.0088542587659811,0.01451347623755004,0.0,0.03694430756943439, ,0.9770669937133789
0.011610537089732788,0.02145622875931496,-0.08314345116719217, ,0.011936495160712447,0.02161538768587842,-0.08347587767422883, ,0.0004920239938480723, ,0.003839180651072934,0.0025939624076996154,-0.009498139107845166,0.04995120327709453,0.02971804793925099,-0.008081636598395125, ,0.010567998654244301, ,0.05812301613687043, ,4.97655114744032e-05, ,0.19203347565046666,-0.24427004081172124,0.09422472752000001,1.691988153976627,0.5178523341110194,-1.2362841792502803, ,0.028687104461448235,-0.00028771752287209225,0.010521011571994717,0.007991251650654672,0.05776885477767509,-0.04662980402712294, ,0.9879701137542725
0.011655954374664457,0.021485645289236934,-0.08324841886872575, ,0.011985976152038827,0.021635363105293456,-0.08357741501683488, ,0.0004894571109471387, ,0.004434630487417986,0.0027382116657215724,-0.010438324360059622,4.413744483722839e-06,-0.003363925705062216,0.012696487385224092, ,0.011667149014735558, ,0.003363910181134733, ,5.101152091221979e-05, ,0.19235010769830987,-0.24427776354459546,0.09434009733000001,1.6921978439201113,0.5181256071105501,-1.236343657577392, ,0.03090099041304812,0.0,0.01142669406025825,-0.004754635705228397,0.029809074050679472,0.001366565368372308, ,0.9987821578979492
0.01170562794595616,0.021514466962062034,-0.08336084264319575, ,0.012035805114044083,0.02165441940014332,-0.08368001632013163, ,0.00048007862199875393, ,0.004774416460311803,0.0028978872443265894,-0.011144882623773129,-0.008237673146864868,-0.01664083722852789,0.011940783043412383, ,0.012466002234678416, ,0.018568159591104114, ,5.2386268476490025e-05, ,0.19267446247902728,-0.24427004081172124,0.09446194859000001,1.6921978439201113,0.5181256071105501,-1.2362619788372515, ,0.032005713847713585,0.00017814445436561534,0.012140862439024392,-0.004754635705228397,0.017310630519010706,0.008948674842864438, ,1.006089210510254
0.011752625054901562,0.021541360749237258,-0.08346814771744547, ,0.01208597942922111,0.021672567957446015,-0.08378366720100618, ,0.0004773814144584267, ,0.005196388801972232,0.002972696372642719,-0.011660355227601357,-0.027498412234512333,-0.035685613908793656,0.013467513850678793, ,0.013107374425835094, ,0.045051365128165266, ,5.373142687903677e-05, ,0.1929910945268705,-0.2442545953459728,0.09457861469,1.6921978439201113,0.5182622436103156,-1.236210039260667, ,0.03404985344760344,0.000759607396293464,0.012641913904761905,-0.004754635705228397,0.0,0.02742144080172242, ,1.013822078704834
0.011752625054901562,0.021541360749237258,-0.08346814771744547, ,0.01213649649227767,0.02168982010894785,-0.08388835334767344, ,0.0005881923440458632, ,0.005196388801972232,0.002972696372642719,-0.011660355227601357,-0.027498412234512333,-0.035685613908793656,0.013467513850678793, ,0.013107374425835094, ,0.045051365128165266, ,5.545447164709336e-05, ,0.1929910945268705,-0.2442545953459728,0.09457861469,1.6921978439201113,0.5182622436103156,-1.236210039260667, ,0.03404985344760344,0.000759607396293464,0.012641913904761905,-0.004754635705228397,0.0,0.02742144080172242, ,1.0209851264953613
0.011802188429083127,0.021571656822093672,-0.08358459534733997, ,0.012187353710110186,0.021706187131231194,-0.0839940605195373, ,0.0005780245886014491, ,0.005171063847622155,0.0031961611917395746,-0.012447890119360363,0.02642754343135471,0.021820530826304925,0.012141612607826244, ,0.013852989428402677, ,0.03427171309535513, ,5.7116804904414584e-05, ,0.19335406297195906,-0.24424687261309858,0.0947069474,1.6921978439201113,0.5188087896093774,-1.2365740321353118, ,0.03767246588267994,0.0010443710336039283,0.013708099414802067,-0.004754635705228397,0.062493399048529095,-0.025224833743219002, ,1.0281150341033936
0.01185582757013027,0.02160474642413855,-0.08371457377778263, ,0.012238548501777767,0.021721680245822612,-0.08410077454705261, ,0.0005561473405128313, ,0.0057467468456314195,0.00351008323043621,-0.013803750765720602,0.04461339194941361,0.0008889980427217303,-0.00022599667506360173, ,0.015358688706868703, ,0.044622242856914004, ,5.86783375217432e-05, ,0.19373247688279605,-0.2442314271473501,0.09484953930000001,1.6921978439201113,0.5193553356084392,-1.2368563462698163, ,0.03924604696380099,0.0013016954895415627,0.015084101818181822,-0.004754635705228397,0.04199649042143234,-0.0463602508130013, ,1.0355219841003418
0.011924953168038793,0.021644217910609904,-0.08387406607898902, ,0.012290078298476075,0.021736310619301934,-0.0842084813315871, ,0.0005036178998420516, ,0.006524653919388785,0.003872595214835321,-0.01525619939949992,0.005890048715866934,-0.019331257590087553,-0.007374808190990772, ,0.017038771158245616, ,0.020208645857916412, ,6.003364006489607e-05, ,0.19417267265662685,-0.24421598168160166,0.09502194587000001,1.691988153976627,0.5193553356084392,-1.2366929887895353, ,0.04278491503988764,0.00219852408441232,0.016592512,0.011508438713363212,0.021373555525642386,-0.0046078059254372385, ,1.0462901592254639
0.011988527038750321,0.02168047165859533,-0.08401972556924307, ,0.012341940543511157,0.021750089363409837,-0.08431716684528238, ,0.0004671392114379516, ,0.006305246951697843,0.003547995356365992,-0.014270870498332104,-0.011463816355982936,-0.03802987191753172,-0.006774592515001022, ,0.016000067342072505, ,0.03972014163622956, ,6.12429499300813e-05, ,0.19455880930033806,-0.244192813482979,0.09516972293,1.691988153976627,0.5194919721082046,-1.2368044066932318, ,0.040364500875572425,0.00275115843904812,0.01554030392195122,0.010593655089965329,0.0,0.011458168254669719, ,1.0534260272979736
0.011988527038750321,0.02168047165859533,-0.08401972556924307, ,0.012394132692273213,0.021763027535156663,-0.08442681713091556, ,0.0005805643448486003, ,0.006305246951697843,0.003547995356365992,-0.014270870498332104,-0.011463816355982936,-0.03802987191753172,-0.006774592515001022, ,0.016000067342072505, ,0.03972014163622956, ,6.282799645253264e-05, ,0.19455880930033806,-0.244192813482979,0.09516972293,1.691988153976627,0.5194919721082046,-1.2368044066932318, ,0.040364500875572425,0.00275115843904812,0.01554030392195122,0.010593655089965329,0.0,0.011458168254669719, ,1.0605461597442627
0.012049082351922607,0.02171405848658141,-0.08415528064361576, ,0.012446652212210781,0.021775136136930502,-0.0845374183017613, ,0.0005548166029911906, ,0.006027641503059179,0.003039400363092815,-0.012958862827672918,0.028312643169774804,0.008408544455460458,-0.0022685762650549958, ,0.014611726196552315, ,0.029534877986255217, ,6.452450888887283e-05, ,0.19502989600566578,-0.24415419981860786,0.09532916660000001,1.6921978439201113,0.5200385181072663,-1.2370867208277363, ,0.04497485381918047,0.004946546084840376,0.014247595277280862,0.005502125534966413,0.053477713174506974,-0.02995818933983387, ,1.06410813331604
0.012049082351922607,0.02171405848658141,-0.08415528064361576, ,0.012499496582804255,0.02178642611660519,-0.0846489565414528, ,0.00067217999476418, ,0.006027641503059179,0.003039400363092815,-0.012958862827672918,0.028312643169774804,0.008408544455460458,-0.0022685762650549958, ,0.014611726196552315, ,0.029534877986255217, ,6.661267207057492e-05, ,0.19502989600566578,-0.24415419981860786,0.09532916660000001,1.6921978439201113,0.5200385181072663,-1.2370867208277363, ,0.04497485381918047,0.004946546084840376,0.014247595277280862,0.005502125534966413,0.053477713174506974,-0.02995818933983387, ,1.067702054977417
0.012049082351922607,0.02171405848658141,-0.08415528064361576, ,0.012552663295539905,0.021796908367649203,-0.08476141810384379, ,0.0007923764826514744, ,0.006027641503059179,0.003039400363092815,-0.012958862827672918,0.028312643169774804,-0.0024998640566350886,-0.0072953852267522165, ,0.014611726196552315, ,0.029534877986255217, ,0.0003736419269479403, ,0.19550098271099348,-0.24408469522273984,0.09547953624000001,1.6924075338635962,0.5205850641063281,-1.2374507137023816, ,0.0518279309440037,0.007195714074385044,0.016627151899791234,0.010840424990338058,0.048038771548714575,-0.02420703878140329, ,1.0722181797027588
0.012112739725614156,0.021745321689264265,-0.08429231710658042, ,0.012606149853883758,0.02180659372923357,-0.08487478931286956, ,0.0007658209246686601, ,0.007124500831996376,0.003445748922660495,-0.015195193181874728,0.021300173581402414,-0.0024998640566350886,-0.0072953852267522165, ,0.017132588642047798, ,0.021446349451911977, ,0.00038077245417922616, ,0.19550098271099348,-0.24408469522273984,0.09547953624000001,1.6924075338635962,0.5205850641063281,-1.2374507137023816, ,0.0518279309440037,0.007195714074385044,0.016627151899791234,0.010840424990338058,0.048038771548714575,-0.02420703878140329, ,1.0759081840515137
0.012112739725614156,0.021745321689264265,-0.08429231710658042, ,0.012659953773255246,0.0218154929863399,-0.0849890565624094, ,0.000888714292772371, ,0.007124500831996376,0.003445748922660495,-0.015195193181874728,0.021300173581402414,-0.0024998640566350886,-0.0072953852267522165, ,0.017132588642047798, ,0.021446349451911977, ,0.00038984284415410377, ,0.19550098271099348,-0.24408469522273984,0.09547953624000001,1.6924075338635962,0.5205850641063281,-1.2374507137023816, ,0.0518279309440037,0.007195714074385044,0.016627151899791234,0.010840424990338058,0.048038771548714575,-0.02420703878140329, ,1.0816822052001953
0.012170703619093148,0.021773535063838917,-0.08441996000306282, ,0.012714072581001297,0.021823616869869448,-0.08510420631614721, ,0.0008751862847588519, ,0.00845189267417418,0.004268493990657436,-0.019148896951668878,0.009853968046664056,-0.01847617404035715,-0.007574150513161587, ,0.021361993942272138, ,0.020939606461932866, ,0.0003983576413576958, ,0.19590256482045315,-0.24402291335974605,0.09561823927000002,1.6924075338635962,0.520858337105859,-1.2375918707696338, ,0.05689265081443092,0.009280091512187413,0.02076768125162973,0.010840424990338058,0.03688069069548088,-0.015095635175742314, ,1.086332082748413
0.012170703619093148,0.021773535063838917,-0.08441996000306282, ,0.012768503816369944,0.021830976056750356,-0.0852202251074333, ,0.0010005442423021195, ,0.00845189267417418,0.004268493990657436,-0.019148896951668878,0.009853968046664056,-0.01847617404035715,-0.007574150513161587, ,0.021361993942272138, ,0.020939606461932866, ,0.0004087401689601859, ,0.19590256482045315,-0.24402291335974605,0.09561823927000002,1.6924075338635962,0.520858337105859,-1.2375918707696338, ,0.05689265081443092,0.009280091512187413,0.02076768125162973,0.010840424990338058,0.03688069069548088,-0.015095635175742314, ,1.0899720191955566
0.012281916571652028,0.02183387913508987,-0.08469335108891454, ,0.012823245030484353,0.02183758117004665,-0.08533709953914612, ,0.0008411077651408021, ,0.00973549365680191,0.005812155829241795,-0.025746955837011084,0.06657765724215314,0.04132591423236502,-0.008427533350602003, ,0.028133018448044618, ,0.07836073198132348, ,0.0004160684333022302, ,0.1966439471763787,-0.24389162690088423,0.09591508968000001,1.6924075338635962,0.521814792604217,-1.2383717960955087, ,0.06230921967069651,0.011242272273429301,0.02794528336842106,0.00958473174979639,0.10381111102921094,-0.07239464320062373, ,1.0936040878295898
0.012281916571652028,0.02183387913508987,-0.08469335108891454, ,0.012878293786316346,0.02184344277906633,-0.08545481628355402, ,0.0009672571985279875, ,0.00973549365680191,0.005812155829241795,-0.025746955837011084,0.06657765724215314,0.04132591423236502,-0.008427533350602003, ,0.028133018448044618, ,0.07836073198132348, ,0.0004252549127226595, ,0.1966439471763787,-0.24389162690088423,0.09591508968000001,1.6924075338635962,0.521814792604217,-1.2383717960955087, ,0.06230921967069651,0.011242272273429301,0.02794528336842106,0.00958473174979639,0.10381111102921094,-0.07239464320062373, ,1.0971860885620117
0.012281916571652028,0.02183387913508987,-0.08469335108891454, ,0.012933647658660632,0.021848571399469545,-0.0855733620821763, ,0.0010951660242481745, ,0.00973549365680191,0.005812155829241795,-0.025746955837011084,0.06657765724215314,0.04132591423236502,-0.008427533350602003, ,0.028133018448044618, ,0.07836073198132348, ,0.00043623706209193025, ,0.1966439471763787,-0.24389162690088423,0.09591508968000001,1.6924075338635962,0.521814792604217,-1.2383717960955087, ,0.06230921967069651,0.011242272273429301,0.02794528336842106,0.00958473174979639,0.10381111102921094,-0.07239464320062373, ,1.100757122039795
0.01239260393782428,0.021896934658430622,-0.08498478152746022, ,0.012989304234108155,0.021852977493376623,-0.08569272374564472, ,0.0009269118945362823, ,0.011539140151683398,0.0064069084007562635,-0.03058686442134826,0.024178746066274702,-0.015367458366689865,-0.01156880410789247, ,0.033313008057301176, ,0.028648625907027644, ,0.0004441511722926456, ,0.19730810220356199,-0.24374489497627397,0.09622879186000001,1.6924075338635962,0.5224979751030443,-1.2387655281337098, ,0.06654764485166254,0.0178713637586574,0.03277533234567902,0.008686926277968568,0.05021650015774861,-0.038621407843650826, ,1.1043360233306885
0.01239260393782428,0.021896934658430622,-0.08498478152746022, ,0.01304526111102035,0.021856671469476875,-0.08581288815356528, ,0.001055150744826587, ,0.011539140151683398,0.0064069084007562635,-0.03058686442134826,0.024178746066274702,-0.015367458366689865,-0.01156880410789247, ,0.033313008057301176, ,0.028648625907027644, ,0.00045384957820588273, ,0.19730810220356199,-0.24374489497627397,0.09622879186000001,1.6924075338635962,0.5224979751030443,-1.2387655281337098, ,0.06654764485166254,0.0178713637586574,0.03277533234567902,0.008686926277968568,0.05021650015774861,-0.038621407843650826, ,1.1078929901123047
0.01239260393782428,0.021896934658430622,-0.08498478152746022, ,0.013101515899502533,0.021859663683136205,-0.0859338422543799, ,0.001185184187538466, ,0.011539140151683398,0.0064069084007562635,-0.03058686442134826,0.024178746066274702,-0.015367458366689865,-0.01156880410789247, ,0.033313008057301176, ,0.028648625907027644, ,0.00046527668147670437, ,0.19730810220356199,-0.24374489497627397,0.09622879186000001,1.6924075338635962,0.5224979751030443,-1.2387655281337098, ,0.06654764485166254,0.0178713637586574,0.03277533234567902,0.008686926277968568,0.05021650015774861,-0.038621407843650826, ,1.1114661693572998
0.012517678235862684,0.021964093904636536,-0.08532159519188788, ,0.013158066221377952,0.02186196443650574,-0.08605557306522751, ,0.0009794134565162729, ,0.012677006872153942,0.006693855424742426,-0.03437129760976239,0.025460717339585343,-0.010038142008099694,-0.0015390946962967093, ,0.03724111038976751, ,0.027367214898944472, ,0.00047318647801577465, ,0.19802631636086487,-0.24350549025717302,0.09658916048,1.6926172238070805,0.5231811576018714,-1.2392409389120513, ,0.07162033325167605,0.024751419290159303,0.03670233069124424,-0.003036160358435497,0.06376703554314389,-0.04845543968827514, ,1.1150619983673096
0.012517678235862684,0.021964093904636536,-0.08532159519188788, ,0.013214909710161638,0.021863583978630124,-0.08617806767180568, ,0.001108954049018916, ,0.012677006872153942,0.006693855424742426,-0.03437129760976239,0.025460717339585343,-0.010038142008099694,-0.0015390946962967093, ,0.03724111038976751, ,0.027367214898944472, ,0.0004828193200006707, ,0.19802631636086487,-0.24350549025717302,0.09658916048,1.6926172238070805,0.5231811576018714,-1.2392409389120513, ,0.07162033325167605,0.024751419290159303,0.03670233069124424,-0.003036160358435497,0.06376703554314389,-0.04845543968827514, ,1.118920087814331
0.012643273640284908,0.022029301017735675,-0.08566509001080064, ,0.013272044011033888,0.021864532505555177,-0.08630131322823226, ,0.0009095497920053776, ,0.012411929577296381,0.0063075974340944425,-0.034323113315680095,0.09041866065718554,0.06654948622719742,-0.0035503278554632886, ,0.03703940994269989, ,0.11226896577573595, ,0.0004891884315231291, ,0.19876769871679043,-0.24323519460657517,0.09695730684000001,1.6926172238070805,0.524274249599995,-1.2401322821416227, ,0.07555488977585254,0.02931632423802001,0.036872248888888896,-0.003036160358435497,0.14604736120276693,-0.11580236067504095, ,1.126434087753296
0.012643273640284908,0.022029301017735675,-0.08566509001080064, ,0.013329466780814335,0.02186482016043705,-0.086425296956907, ,0.0010372220492429213, ,0.012411929577296381,0.0063075974340944425,-0.034323113315680095,0.09041866065718554,0.06654948622719742,-0.0035503278554632886, ,0.03703940994269989, ,0.11226896577573595, ,0.000497247749430773, ,0.19876769871679043,-0.24323519460657517,0.09695730684000001,1.6926172238070805,0.524274249599995,-1.2401322821416227, ,0.07555488977585254,0.02931632423802001,0.036872248888888896,-0.003036160358435497,0.14604736120276693,-0.11580236067504095, ,1.1303701400756836
0.012774267081679523,0.022088938616916333,-0.08600870554274914, ,0.01338717568793565,0.021864457033649358,-0.08655000614837281, ,0.0008479712769294896, ,0.013157759723873392,0.005148846108445815,-0.03169477168186237,0.05526516662094501,0.02027764140659205,0.0037232980172359695, ,0.034701524594245525, ,0.05886755811361901, ,0.0005023306991046674, ,0.1996017538672067,-0.24291083982585773,0.09732674949,1.6924075338635962,0.5257772510974149,-1.2413578790822832, ,0.08626994687133707,0.034184777218469305,0.03403592205128206,-0.011435082754249908,0.1117184151689496,-0.08798363123443588, ,1.133970022201538
0.012774267081679523,0.022088938616916333,-0.08600870554274914, ,0.013445168412417255,0.02186345316289229,-0.0866754281611771, ,0.0009723535033543706, ,0.013157759723873392,0.005148846108445815,-0.03169477168186237,0.05526516662094501,0.02027764140659205,0.0037232980172359695, ,0.034701524594245525, ,0.05886755811361901, ,0.000509045310593949, ,0.1996017538672067,-0.24291083982585773,0.09732674949,1.6924075338635962,0.5257772510974149,-1.2413578790822832, ,0.08626994687133707,0.034184777218469305,0.03403592205128206,-0.011435082754249908,0.1117184151689496,-0.08798363123443588, ,1.1376590728759766
0.012774267081679523,0.022088938616916333,-0.08600870554274914, ,0.013503442645839112,0.021861818533300475,-0.0868015504217339, ,0.0011008558206602214, ,0.013157759723873392,0.005148846108445815,-0.03169477168186237,0.05526516662094501,0.02027764140659205,0.0037232980172359695, ,0.034701524594245525, ,0.05886755811361901, ,0.000517380669890657, ,0.1996017538672067,-0.24291083982585773,0.09732674949,1.6924075338635962,0.5257772510974149,-1.2413578790822832, ,0.08626994687133707,0.034184777218469305,0.03403592205128206,-0.011435082754249908,0.1117184151689496,-0.08798363123443588, ,1.1413300037384033
0.012912554860950089,0.022133453817244676,-0.08631325100796355, ,0.013561996091315632,0.021859563077551186,-0.08692836042418459, ,0.0009354943307750917, ,0.01369197218086232,0.003477609184370904,-0.028413917621567517,-0.022627749525061365,-0.06437421492724424,0.003578382327024991, ,0.03173191740891107, ,0.06823515278392234, ,0.0005231878040696074, ,0.20051303634636516,-0.2425247031821465,0.09765211828,1.6924075338635962,0.5263237970964766,-1.2415585144766474, ,0.09186538389009755,0.04274637007138323,0.03022544880455408,-0.011435082754249908,0.030981909791732758,-0.02042031218647135, ,1.144949197769165
0.012912554860950089,0.022133453817244676,-0.08631325100796355, ,0.013620826463469255,0.021856696675972294,-0.08705584573026026, ,0.0010628688064682553, ,0.01369197218086232,0.003477609184370904,-0.028413917621567517,-0.022627749525061365,-0.06437421492724424,0.003578382327024991, ,0.03173191740891107, ,0.06823515278392234, ,0.0005305806945134244, ,0.20051303634636516,-0.2425247031821465,0.09765211828,1.6924075338635962,0.5263237970964766,-1.2415585144766474, ,0.09186538389009755,0.04274637007138323,0.03022544880455408,-0.011435082754249908,0.030981909791732758,-0.02042031218647135, ,1.1485471725463867
0.01305040552436179,0.022160754389021004,-0.08659244399876691, ,0.013679931488404377,0.02185322915665115,-0.0871839939691426, ,0.001193979084075902, ,0.01369197218086232,0.003477609184370904,-0.028413917621567517,-0.022627749525061365,-0.06437421492724424,0.003578382327024991, ,0.03173191740891107, ,0.06823515278392234, ,0.0005395455376156201, ,0.201470655222769,-0.24202272554532192,0.09794896869000001,1.6924075338635962,0.5268703430955384,-1.242004186091433, ,0.10138562132315254,0.055592818722009836,0.030340593371428574,-0.010891944612055355,0.06128450870750757,-0.04548703703533892, ,1.1526131629943848
0.01305040552436179,0.022160754389021004,-0.08659244399876691, ,0.013739308903680997,0.02184917029554228,-0.08731279283732525, ,0.0010443059717145818, ,0.014390727242520456,0.0023515518750302717,-0.02857251451424449,-0.009306891578098378,-0.04408618497223839,-5.819903039845989e-05, ,0.03207820775006439, ,0.04505763967351679, ,0.0005462756767369396, ,0.201470655222769,-0.24202272554532192,0.09794896869000001,1.6924075338635962,0.5268703430955384,-1.242004186091433, ,0.10138562132315254,0.055592818722009836,0.030340593371428574,-0.010891944612055355,0.06128450870750757,-0.04548703703533892, ,1.1565520763397217
0.01305040552436179,0.022160754389021004,-0.08659244399876691, ,0.013798956458288466,0.0218445298165756,-0.08744223009847595, ,0.0011757818233666807, ,0.014390727242520456,0.0023515518750302717,-0.02857251451424449,-0.009306891578098378,-0.04408618497223839,-5.819903039845989e-05, ,0.03207820775006439, ,0.04505763967351679, ,0.0005545586523504889, ,0.201470655222769,-0.24202272554532192,0.09794896869000001,1.6924075338635962,0.5268703430955384,-1.242004186091433, ,0.10138562132315254,0.055592818722009836,0.030340593371428574,-0.010891944612055355,0.06128450870750757,-0.04548703703533892, ,1.1602301597595215
0.013137489487014521,0.022173219198999675,-0.08677316364832743, ,0.013858871912619454,0.021839317391764677,-0.08757229358329723, ,0.001127160890827604, ,0.013519388178105494,0.0019415099839807952,-0.027768260870786047,0.07318595477841373,0.05421839239056469,-0.0017201706548688918, ,0.030945429864783314, ,0.0910812908361798, ,0.0005619950450579837, ,0.20211936478420386,-0.24165975710023335,0.09814211590000001,1.691988153976627,0.5278267985938964,-1.2427841114173077, ,0.10203972210588257,0.05825472164424235,0.02977347947663552,-0.011291601063251,0.16238272710233131,-0.1282394272095987, ,1.1640291213989258
0.013137489487014521,0.022173219198999675,-0.08677316364832743, ,0.013919053038443367,0.021833542641315196,-0.08770297118938881, ,0.0012612548561559869, ,0.013519388178105494,0.0019415099839807952,-0.027768260870786047,0.07318595477841373,0.05421839239056469,-0.0017201706548688918, ,0.030945429864783314, ,0.0910812908361798, ,0.0005709599144310351, ,0.20211936478420386,-0.24165975710023335,0.09814211590000001,1.691988153976627,0.5278267985938964,-1.2427841114173077, ,0.10203972210588257,0.05825472164424235,0.02977347947663552,-0.011291601063251,0.16238272710233131,-0.1282394272095987, ,1.1676549911499023
0.013137489487014521,0.022173219198999675,-0.08677316364832743, ,0.01397949761888047,0.02182721513373279,-0.08783425088110862, ,0.001398071036421551, ,0.013519388178105494,0.0019415099839807952,-0.027768260870786047,0.07318595477841373,0.05421839239056469,-0.0017201706548688918, ,0.030945429864783314, ,0.0910812908361798, ,0.0005814296754688899, ,0.20211936478420386,-0.24165975710023335,0.09814211590000001,1.691988153976627,0.5278267985938964,-1.2427841114173077, ,0.10203972210588257,0.05825472164424235,0.02977347947663552,-0.011291601063251,0.16238272710233131,-0.1282394272095987, ,1.1712751388549805
0.013317279348557812,0.022189841821980996,-0.08713642698676914, ,0.014040203448375326,0.021820344385931445,-0.0879661206894338, ,0.0011608355824945834, ,0.014401476217402216,0.0008378399990129114,-0.028627302506875948,0.019170395153562548,0.001411512206599646,0.06332995821597884, ,0.03205662087501634, ,0.019221789471035818, ,0.0005886722493067111, ,0.20347856577006737,-0.24084114741556556,0.09852970661,1.6911493942026892,0.529876346090378,-1.2443737012326137, ,0.10650610724856428,0.06836955443693861,0.030340593371428574,-0.08050166439326642,0.12981364779350937,-0.09847480232004291, ,1.1748120784759521
0.013317279348557812,0.022189841821980996,-0.08713642698676914, ,0.014101168332670687,0.021812939863341325,-0.08809856871182307, ,0.0012970172415699387, ,0.014401476217402216,0.0008378399990129114,-0.028627302506875948,0.019170395153562548,0.001411512206599646,0.06332995821597884, ,0.03205662087501634, ,0.019221789471035818, ,0.0005974172492111953, ,0.20347856577006737,-0.24084114741556556,0.09852970661,1.6911493942026892,0.529876346090378,-1.2443737012326137, ,0.10650610724856428,0.06836955443693861,0.030340593371428574,-0.08050166439326642,0.12981364779350937,-0.09847480232004291, ,1.1783370971679688
0.013317279348557812,0.022189841821980996,-0.08713642698676914, ,0.014162390088781281,0.021805010980017858,-0.08823158311207777, ,0.001435853014402281, ,0.014401476217402216,0.0008378399990129114,-0.028627302506875948,0.019170395153562548,0.001411512206599646,0.06332995821597884, ,0.03205662087501634, ,0.019221789471035818, ,0.0006076420756159647, ,0.20347856577006737,-0.24084114741556556,0.09852970661,1.6911493942026892,0.529876346090378,-1.2443737012326137, ,0.10650610724856428,0.06836955443693861,0.030340593371428574,-0.08050166439326642,0.12981364779350937,-0.09847480232004291, ,1.1819441318511963
0.01342407048207508,0.022197018459406696,-0.0873550354570817, ,0.014223866544967488,0.02179656709874882,-0.08836515212020331, ,0.0013492111427003803, ,0.01583832475265542,0.0008299067764639548,-0.03371280750186355,0.00039358996435511493,-0.006356408350815179,0.037667745619700835, ,0.0372571424814881, ,0.006365162334272637, ,0.0006165766426892709, ,0.2042353935917414,-0.24030055611436985,0.09876044623,1.6911493942026892,0.5306961650889708,-1.2450422086547923, ,0.10907694432008136,0.08295187199167026,0.03539735893333334,-0.05665690496753203,0.11866635041515182,-0.08961470500038388, ,1.185563087463379
0.01342407048207508,0.022197018459406696,-0.0873550354570817, ,0.014285595540709,0.021787617531163143,-0.0884992640322707, ,0.0014896622365421937, ,0.01583832475265542,0.0008299067764639548,-0.03371280750186355,0.00039358996435511493,-0.006356408350815179,0.037667745619700835, ,0.0372571424814881, ,0.006365162334272637, ,0.0006269705188065676, ,0.2042353935917414,-0.24030055611436985,0.09876044623,1.6911493942026892,0.5306961650889708,-1.2450422086547923, ,0.10907694432008136,0.08295187199167026,0.03539735893333334,-0.05665690496753203,0.11866635041515182,-0.08961470500038388, ,1.1891801357269287
0.013649172914972533,0.022220917524751856,-0.08785469112555731, ,0.014347574926678847,0.021778171537839248,-0.08863390721027843, ,0.001136207325082335, ,0.017577679022258947,0.002132663085372885,-0.039295685682582876,0.033195523090458895,0.028961754594870694,-0.020625111973254198, ,0.043100742045927974, ,0.044052608160578675, ,0.0006329615400568708, ,0.20573360376934094,-0.23917303711473306,0.09928673997000001,1.6909397042592043,0.5324724395859214,-1.2464906414028456, ,0.11629527151773382,0.08650587197672815,0.04148128,0.0029810161936135193,0.1475190121995101,-0.11352953489554672, ,1.1936280727386475
0.013649172914972533,0.022220917524751856,-0.08785469112555731, ,0.014409802564716804,0.021768238328412796,-0.08876907008201307, ,0.0012726212299334731, ,0.017577679022258947,0.002132663085372885,-0.039295685682582876,0.033195523090458895,0.028961754594870694,-0.020625111973254198, ,0.043100742045927974, ,0.044052608160578675, ,0.0006403994434275289, ,0.20573360376934094,-0.23917303711473306,0.09928673997000001,1.6909397042592043,0.5324724395859214,-1.2464906414028456, ,0.11629527151773382,0.08650587197672815,0.04148128,0.0029810161936135193,0.1475190121995101,-0.11352953489554672, ,1.1972501277923584
0.013649172914972533,0.022220917524751856,-0.08785469112555731, ,0.014472276327803282,0.021757827061684904,-0.08890474114091165, ,0.0014122878743170033, ,0.017577679022258947,0.002132663085372885,-0.039295685682582876,0.033195523090458895,0.028961754594870694,-0.020625111973254198, ,0.043100742045927974, ,0.044052608160578675, ,0.0006492717242423504, ,0.20573360376934094,-0.23917303711473306,0.09928673997000001,1.6909397042592043,0.5324724395859214,-1.2464906414028456, ,0.11629527151773382,0.08650587197672815,0.04148128,0.0029810161936135193,0.1475190121995101,-0.11352953489554672, ,1.2009119987487793
0.013827858962761544,0.022234873623767613,-0.08824880902152758, ,0.014534994100033087,0.0217469468457308,-0.08904090894592268, ,0.0011685610524555998, ,0.018076449796582236,0.0009338952469697022,-0.03930231496056329,0.013516938970826363,0.01431501507411292,-0.007487410156999554, ,0.043270106989005554, ,0.019685871073917803, ,0.0006551727393356828, ,0.20692290463197152,-0.23823086370407767,0.09970155277000001,1.6909397042592043,0.5339754410833412,-1.2477162383435063, ,0.12012271083350731,0.09773114475640657,0.04126635108808291,-0.013596701598210822,0.14044619827780183,-0.108342697660081, ,1.2044692039489746
0.013827858962761544,0.022234873623767613,-0.08824880902152758, ,0.014597953776589087,0.021735606738007583,-0.08917756212136778, ,0.0013057165718345497, ,0.018076449796582236,0.0009338952469697022,-0.03930231496056329,0.013516938970826363,0.01431501507411292,-0.007487410156999554, ,0.043270106989005554, ,0.019685871073917803, ,0.0006624822205997151, ,0.20692290463197152,-0.23823086370407767,0.09970155277000001,1.6909397042592043,0.5339754410833412,-1.2477162383435063, ,0.12012271083350731,0.09773114475640657,0.04126635108808291,-0.013596701598210822,0.14044619827780183,-0.108342697660081, ,1.2080411911010742
0.013827858962761544,0.022234873623767613,-0.08824880902152758, ,0.014661153263716038,0.021723815745462352,-0.08931468935680285, ,0.001446257389300963, ,0.018076449796582236,0.0009338952469697022,-0.03930231496056329,0.013516938970826363,0.01431501507411292,-0.007487410156999554, ,0.043270106989005554, ,0.019685871073917803, ,0.0006711908335852845, ,0.20692290463197152,-0.23823086370407767,0.09970155277000001,1.6909397042592043,0.5339754410833412,-1.2477162383435063, ,0.12012271083350731,0.09773114475640657,0.04126635108808291,-0.013596701598210822,0.14044619827780183,-0.108342697660081, ,1.2115859985351562
0.01401209449634807,0.022234330550313375,-0.08864468683195009, ,0.014724590478694163,0.021711582824640703,-0.08945227940688033, ,0.0011971305177956699, ,0.018228907691249376,-0.0009742851214223678,-0.039007419228901795,-0.02714481106153833,-0.018843723868492264,0.0807184377630859, ,0.043067633578050386, ,0.03304294760984859, ,0.0006769703905546294, ,0.2081508191589732,-0.23718057203318313,0.10011506928000001,1.6901009444852664,0.5353418060809957,-1.2488304173804705, ,0.12104201729396784,0.11138138680571688,0.040531327022900764,-0.1095635620748884,0.13044560861273877,-0.10067830156409056, ,1.2151641845703125
0.01401209449634807,0.022234330550313375,-0.08864468683195009, ,0.014788263349813034,0.021698916881794712,-0.08959032109120928, ,0.0013354138077054602, ,0.018228907691249376,-0.0009742851214223678,-0.039007419228901795,-0.02714481106153833,-0.018843723868492264,0.0807184377630859, ,0.043067633578050386, ,0.03304294760984859, ,0.0006841273842193124, ,0.2081508191589732,-0.23718057203318313,0.10011506928000001,1.6901009444852664,0.5353418060809957,-1.2488304173804705, ,0.12104201729396784,0.11138138680571688,0.040531327022900764,-0.1095635620748884,0.13044560861273877,-0.10067830156409056, ,1.218736171722412
0.01401209449634807,0.022234330550313375,-0.08864468683195009, ,0.0148521698163452,0.021685826772991353,-0.08972880329421873, ,0.001477122689815125, ,0.018228907691249376,-0.0009742851214223678,-0.039007419228901795,-0.02714481106153833,-0.018843723868492264,0.0807184377630859, ,0.043067633578050386, ,0.03304294760984859, ,0.0006926542154622781, ,0.2081508191589732,-0.23718057203318313,0.10011506928000001,1.6901009444852664,0.5353418060809957,-1.2488304173804705, ,0.12104201729396784,0.11138138680571688,0.040531327022900764,-0.1095635620748884,0.13044560861273877,-0.10067830156409056, ,1.2222700119018555
0.014200178173490986,0.02222281266885656,-0.0890396966194445, ,0.01491630782851995,0.021672321304219956,-0.08986771496501743, ,0.00122535578749876, ,0.018688044973463564,-0.0013882363606597913,-0.03896754439850737,-0.014496520177985917,-0.0012317337193536266,0.02495913496401446, ,0.043239330956582785, ,0.014545666565111927, ,0.0006983212534626661, ,0.2094096246174718,-0.23601443936917524,0.10052599321000001,1.6894718746548125,0.5367081710786501,-1.2499445964174347, ,0.12535923587644754,0.11773814089140294,0.040531327022900764,-0.05293380166311486,0.1390810933941225,-0.10813825648728936, ,1.225905179977417
0.014200178173490986,0.02222281266885656,-0.0890396966194445, ,0.01498067534749701,0.02165840923150147,-0.09000704511725631, ,0.001365097137550437, ,0.018688044973463564,-0.0013882363606597913,-0.03896754439850737,-0.014496520177985917,-0.0012317337193536266,0.02495913496401446, ,0.043239330956582785, ,0.014545666565111927, ,0.0007053399469793796, ,0.2094096246174718,-0.23601443936917524,0.10052599321000001,1.6894718746548125,0.5367081710786501,-1.2499445964174347, ,0.12535923587644754,0.11773814089140294,0.040531327022900764,-0.05293380166311486,0.1390810933941225,-0.10813825648728936, ,1.2296431064605713
0.014200178173490986,0.02222281266885656,-0.0890396966194445, ,0.015045270345340365,0.021644099260995666,-0.09014678282898991, ,0.0015082207606065844, ,0.018688044973463564,-0.0013882363606597913,-0.03896754439850737,-0.014496520177985917,-0.0012317337193536266,0.02495913496401446, ,0.043239330956582785, ,0.014545666565111927, ,0.0007137032887879962, ,0.2094096246174718,-0.23601443936917524,0.10052599321000001,1.6894718746548125,0.5367081710786501,-1.2499445964174347, ,0.12535923587644754,0.11773814089140294,0.040531327022900764,-0.05293380166311486,0.1390810933941225,-0.10813825648728936, ,1.2333049774169922
0.014200178173490986,0.02222281266885656,-0.0890396966194445, ,0.015110090804991797,0.021629400049109928,-0.0902869172425372, ,0.0016539766675824226, ,0.018688044973463564,-0.0013882363606597913,-0.03896754439850737,-0.014496520177985917,-0.0012317337193536266,0.02495913496401446, ,0.043239330956582785, ,0.014545666565111927, ,0.0007233968287755677, ,0.2094096246174718,-0.23601443936917524,0.10052599321000001,1.6894718746548125,0.5367081710786501,-1.2499445964174347, ,0.12535923587644754,0.11773814089140294,0.040531327022900764,-0.05293380166311486,0.1390810933941225,-0.10813825648728936, ,1.2369661331176758
0.014484464957175562,0.022192537198208507,-0.0896102362056921, ,0.015175134720244775,0.02161432020260721,-0.09042743756434377, ,0.0012162144861011988, ,0.018408443929462875,-0.0031264974737199,-0.03615440532590767,-0.004479894776320598,0.016289998689491214,-0.007496627089763935, ,0.04069136049368927, ,0.016892949430315034, ,0.0007284255803809312, ,0.2113557533017764,-0.23415326074648712,0.10111969403000001,1.6894718746548125,0.5388943550748971,-1.2516456041364368, ,0.12806604798714005,0.12893606190009615,0.03747955651764706,-0.02347222226981951,0.15251763333885981,-0.12311706752270254, ,1.240598201751709
0.014484464957175562,0.022192537198208507,-0.0896102362056921, ,0.015240400095718115,0.02159886827871414,-0.09056833306484306, ,0.001357140490580066, ,0.018408443929462875,-0.0031264974737199,-0.03615440532590767,-0.004479894776320598,0.016289998689491214,-0.007496627089763935, ,0.04069136049368927, ,0.016892949430315034, ,0.0007347762360395084, ,0.2113557533017764,-0.23415326074648712,0.10111969403000001,1.6894718746548125,0.5388943550748971,-1.2516456041364368, ,0.12806604798714005,0.12893606190009615,0.03747955651764706,-0.02347222226981951,0.15251763333885981,-0.12311706752270254, ,1.244131088256836
0.014484464957175562,0.022192537198208507,-0.0896102362056921, ,0.01530588494682968,0.021583052785229057,-0.09070959307831757, ,0.0015015950127971003, ,0.018408443929462875,-0.0031264974737199,-0.03615440532590767,-0.004479894776320598,0.016289998689491214,-0.007496627089763935, ,0.04069136049368927, ,0.016892949430315034, ,0.0007424444238070844, ,0.2113557533017764,-0.23415326074648712,0.10111969403000001,1.6894718746548125,0.5388943550748971,-1.2516456041364368, ,0.12806604798714005,0.12893606190009615,0.03747955651764706,-0.02347222226981951,0.15251763333885981,-0.12311706752270254, ,1.2476739883422852
0.014668269372767525,0.022154642675581752,-0.08997664422616025, ,0.015371587299770045,0.021566882180630968,-0.09085120700276099, ,0.0012668774826649597, ,0.018495688957095927,-0.0036243719475545235,-0.036884523121055356,-0.011365434387249136,0.014200561192665915,0.0031911187650655835, ,0.04142094431419361, ,0.0181868295317888, ,0.0007476368303304296, ,0.21263000422602343,-0.23281722795924628,0.10149821071000001,1.6886331148808746,0.5405339930720824,-1.2529009402406535, ,0.12619274143413667,0.13422481125667718,0.038107204593301434,-0.037025425180173904,0.15147547279962606,-0.12446499586347519, ,1.251249074935913
0.014668269372767525,0.022154642675581752,-0.08997664422616025, ,0.015437505191476386,0.021550364874186486,-0.09099316429973878, ,0.0014107403963989544, ,0.018495688957095927,-0.0036243719475545235,-0.036884523121055356,-0.011365434387249136,0.014200561192665915,0.0031911187650655835, ,0.04142094431419361, ,0.0181868295317888, ,0.0007541378456840425, ,0.21263000422602343,-0.23281722795924628,0.10149821071000001,1.6886331148808746,0.5405339930720824,-1.2529009402406535, ,0.12619274143413667,0.13422481125667718,0.038107204593301434,-0.037025425180173904,0.15147547279962606,-0.12446499586347519, ,1.2548441886901855
0.014668269372767525,0.022154642675581752,-0.08997664422616025, ,0.015503636669606094,0.021533509226059254,-0.09113545449425041, ,0.001557718369980363, ,0.018495688957095927,-0.0036243719475545235,-0.036884523121055356,-0.011365434387249136,0.014200561192665915,0.0031911187650655835, ,0.04142094431419361, ,0.0181868295317888, ,0.0007619395983471137, ,0.21263000422602343,-0.23281722795924628,0.10149821071000001,1.6886331148808746,0.5405339930720824,-1.2529009402406535, ,0.12619274143413667,0.13422481125667718,0.038107204593301434,-0.037025425180173904,0.15147547279962606,-0.12446499586347519, ,1.2584099769592285
0.014869512822995961,0.02210982018138681,-0.09038801051928162, ,0.015569979792510324,0.021516323547416914,-0.0912780671745906, ,0.0012787075817300962, ,0.0184065461256035,-0.0044632942103295025,-0.03855145904724331,-0.03298466319350082,0.0061174279127835865,0.05005054564181292, ,0.04295272901869226, ,0.03354587569947081, ,0.0007669085212642577, ,0.2138810869516478,-0.2314271360418859,0.10189228287,1.687584665163452,0.5420369945695022,-1.254126537181314, ,0.12058061189132248,0.1424879002379441,0.03972272199501248,-0.11070961755956202,0.1490583697258491,-0.12245732885685764, ,1.262505054473877
0.014869512822995961,0.02210982018138681,-0.09038801051928162, ,0.01563653262920801,0.021498816100540295,-0.09142099199221053, ,0.0014243230298450692, ,0.0184065461256035,-0.0044632942103295025,-0.03855145904724331,-0.03298466319350082,0.0061174279127835865,0.05005054564181292, ,0.04295272901869226, ,0.03354587569947081, ,0.0007731696118221703, ,0.2138810869516478,-0.2314271360418859,0.10189228287,1.687584665163452,0.5420369945695022,-1.254126537181314, ,0.12058061189132248,0.1424879002379441,0.03972272199501248,-0.11070961755956202,0.1490583697258491,-0.12245732885685764, ,1.2662310600280762
0.014869512822995961,0.02210982018138681,-0.09038801051928162, ,0.01570329325935936,0.021480995098930988,-0.09156421866157953, ,0.0015729197037343669, ,0.0184065461256035,-0.0044632942103295025,-0.03855145904724331,-0.03298466319350082,0.0061174279127835865,0.05005054564181292, ,0.04295272901869226, ,0.03354587569947081, ,0.0007807144240100213, ,0.2138810869516478,-0.2314271360418859,0.10189228287,1.687584665163452,0.5420369945695022,-1.254126537181314, ,0.12058061189132248,0.1424879002379441,0.03972272199501248,-0.11070961755956202,0.1490583697258491,-0.12245732885685764, ,1.270510196685791
0.015042844441075518,0.02206914760652845,-0.0907526154994349, ,0.015770259773239648,0.021462868707419782,-0.09170773696004667, ,0.001344977387725538, ,0.018320701366054723,-0.004682825175651169,-0.0385661364656594,-0.02006067795423212,0.022655674336607562,0.002537461292725675, ,0.042952576547370655, ,0.03025929714309195, ,0.0007859879096522224, ,0.21509355601290103,-0.229952094062909,0.10229542906000001,1.6873749752199676,0.543539996066922,-1.2555154916022557, ,0.11832536353924038,0.14667224352159317,0.039525586898263035,-0.04128019092340724,0.15271230534679506,-0.12922701843070358, ,1.2745511531829834
0.015042844441075518,0.02206914760652845,-0.0907526154994349, ,0.015837430271712978,0.021444445042274638,-0.09185153672770188, ,0.0014930665765366636, ,0.018320701366054723,-0.004682825175651169,-0.0385661364656594,-0.02006067795423212,0.022655674336607562,0.002537461292725675, ,0.042952576547370655, ,0.03025929714309195, ,0.0007925349343455969, ,0.21509355601290103,-0.229952094062909,0.10229542906000001,1.6873749752199676,0.543539996066922,-1.2555154916022557, ,0.11832536353924038,0.14667224352159317,0.039525586898263035,-0.04128019092340724,0.15271230534679506,-0.12922701843070358, ,1.2780871391296387
0.015229199305033893,0.022015073262812105,-0.0911347509604141, ,0.015904802866205887,0.021425732171309157,-0.09199560786723826, ,0.0012429150043462484, ,0.017720962717832432,-0.005692773761428115,-0.03593848032606679,-0.051594537507659126,-0.0028573494641037367,-0.036283572608380776, ,0.04047239257682577, ,0.0516730180587281, ,0.0007966668615933092, ,0.21629830234128006,-0.22841527022093833,0.10268561235000001,1.687165285276483,0.5449063610645766,-1.2567930281195012, ,0.11337746900653618,0.15110977955170507,0.036533971376146786,0.0,0.11223136636089864,-0.09406655514396128, ,1.2817192077636719
0.015229199305033893,0.022015073262812105,-0.0911347509604141, ,0.015972375678680973,0.021406738113989947,-0.092139940343812, ,0.0013902476297895825, ,0.017720962717832432,-0.005692773761428115,-0.03593848032606679,-0.051594537507659126,-0.0028573494641037367,-0.036283572608380776, ,0.04047239257682577, ,0.0516730180587281, ,0.0008020630503950935, ,0.21629830234128006,-0.22841527022093833,0.10268561235000001,1.687165285276483,0.5449063610645766,-1.2567930281195012, ,0.11337746900653618,0.15110977955170507,0.036533971376146786,0.0,0.11223136636089864,-0.09406655514396128, ,1.2853550910949707
0.015229199305033893,0.022015073262812105,-0.0911347509604141, ,0.016040146841610876,0.02138747084154615,-0.09228452418490551, ,0.0015406164915437455, ,0.01823340567580321,-0.006015995568073624,-0.03684010370755065,-0.02829822696510132,0.015401083761224819,-0.020945994562253233, ,0.041543260902300164, ,0.03221669088988048, ,0.0008087166850000363, ,0.21746443500528798,-0.2268938918447161,0.10304727726000001,1.6867459053895137,0.5461360895624655,-1.2578774679929094, ,0.1181780094127905,0.1548074087413879,0.03756795169811321,-0.021095777000399163,0.14026571127099097,-0.12538745702626913, ,1.2892091274261475
0.015408018456933244,0.021953871983205864,-0.09149038874061186, ,0.016108114497951846,0.021367938277076427,-0.09242934948018791, ,0.0013096182822081063, ,0.01823340567580321,-0.006015995568073624,-0.03684010370755065,-0.02829822696510132,0.015401083761224819,-0.020945994562253233, ,0.041543260902300164, ,0.03221669088988048, ,0.0008131890206893941, ,0.21746443500528798,-0.2268938918447161,0.10304727726000001,1.6867459053895137,0.5461360895624655,-1.2578774679929094, ,0.1181780094127905,0.1548074087413879,0.03756795169811321,-0.021095777000399163,0.14026571127099097,-0.12538745702626913, ,1.2929000854492188
0.015408018456933244,0.021953871983205864,-0.09149038874061186, ,0.016176276801117304,0.021348148295657645,-0.09257440638137665, ,0.001460211051373985, ,0.01823340567580321,-0.006015995568073624,-0.03684010370755065,-0.02829822696510132,0.015401083761224819,-0.020945994562253233, ,0.041543260902300164, ,0.03221669088988048, ,0.0008189148793680187, ,0.21746443500528798,-0.2268938918447161,0.10304727726000001,1.6867459053895137,0.5461360895624655,-1.2578774679929094, ,0.1181780094127905,0.1548074087413879,0.03756795169811321,-0.021095777000399163,0.14026571127099097,-0.12538745702626913, ,1.2976691722869873
0.015408018456933244,0.021953871983205864,-0.09149038874061186, ,0.0162446319149518,0.02132810872445282,-0.09271968510209935, ,0.0016132796653120618, ,0.01823340567580321,-0.006015995568073624,-0.03684010370755065,-0.02829822696510132,0.015401083761224819,-0.020945994562253233, ,0.041543260902300164, ,0.03221669088988048, ,0.0008258829915254226, ,0.21746443500528798,-0.2268938918447161,0.10304727726000001,1.6867459053895137,0.5461360895624655,-1.2578774679929094, ,0.1181780094127905,0.1548074087413879,0.03756795169811321,-0.021095777000399163,0.14026571127099097,-0.12538745702626913, ,1.3013122081756592
0.015408018456933244,0.021953871983205864,-0.09149038874061186, ,0.016313178013704445,0.02130782734281932,-0.09286517591775456, ,0.0017682554348912448, ,0.01823340567580321,-0.006015995568073624,-0.03684010370755065,-0.02829822696510132,0.015401083761224819,-0.020945994562253233, ,0.041543260902300164, ,0.03221669088988048, ,0.0008340775345112124, ,0.21746443500528798,-0.2268938918447161,0.10304727726000001,1.6867459053895137,0.5461360895624655,-1.2578774679929094, ,0.1181780094127905,0.1548074087413879,0.03756795169811321,-0.021095777000399163,0.14026571127099097,-0.12538745702626913, ,1.3050010204315186
0.015408018456933244,0.021953871983205864,-0.09149038874061186, ,0.016381913282002964,0.021287311882417517,-0.09301086916537453, ,0.0019247426374315695, ,0.01823340567580321,-0.006015995568073624,-0.03684010370755065,-0.02829822696510132,0.015401083761224819,-0.020945994562253233, ,0.041543260902300164, ,0.03221669088988048, ,0.0008434798198812155, ,0.21746443500528798,-0.2268938918447161,0.10304727726000001,1.6867459053895137,0.5461360895624655,-1.2578774679929094, ,0.1181780094127905,0.1548074087413879,0.03756795169811321,-0.021095777000399163,0.14026571127099097,-0.12538745702626913, ,1.3086540699005127
0.015408018456933244,0.021953871983205864,-0.09149038874061186, ,0.01645083591482704,0.02126657002731798,-0.09315675524348485, ,0.0020824575748265724, ,0.016592306112447986,-0.006555915852116762,-0.03217143034035188,-0.05784818177329,-0.020355104844655813,-0.0008749126834374316, ,0.03678703011841712, ,0.0613246114118151, ,0.0008540693733422869, ,0.2197426412031842,-0.22380479869502629,0.10381208836000001,1.6850683858416375,0.5491420925573052,-1.2605736980946525, ,0.10638670578303898,0.14532456593946522,0.03257425668711657,-0.04024269456464286,0.09604220840432877,-0.09172130310211214, ,1.3136110305786133
0.01576734822765611,0.021829034062852217,-0.09224143890351391, ,0.016519944117482296,0.02124560941411063,-0.09330282461196764, ,0.001425946884092226, ,0.016592306112447986,-0.006555915852116762,-0.03217143034035188,-0.05784818177329,-0.020355104844655813,-0.0008749126834374316, ,0.03678703011841712, ,0.0613246114118151, ,0.0008589157929249136, ,0.2197426412031842,-0.22380479869502629,0.10381208836000001,1.6850683858416375,0.5491420925573052,-1.2605736980946525, ,0.10638670578303898,0.14532456593946522,0.03257425668711657,-0.04024269456464286,0.09604220840432877,-0.09172130310211214, ,1.3172211647033691
0.01592118271239294,0.021761049202867283,-0.09251369255809878, ,0.01658923610557372,0.021224437632012236,-0.09344906779192168, ,0.00126853227872416, ,0.015054181238492786,-0.008115486216878734,-0.025795414381151387,-0.1098152136441563,-0.07192243928095655,-0.03683116196762273, ,0.03094984478786685, ,0.13127150109072927, ,0.0008623579482677643, ,0.2207234282782107,-0.22244559770916278,0.10408430926000001,1.6848586958981533,0.5492787290570706,-1.260685115998349, ,0.09864546939549977,0.14667224352159317,0.02556791576243981,0.0,0.026868396028724147,-0.033515225578681314, ,1.3216102123260498
0.01592118271239294,0.021761049202867283,-0.09251369255809878, ,0.01665871010497963,0.021203062222974644,-0.09359547536552491, ,0.0014232182429227743, ,0.015054181238492786,-0.008115486216878734,-0.025795414381151387,-0.1098152136441563,-0.07192243928095655,-0.03683116196762273, ,0.03094984478786685, ,0.13127150109072927, ,0.0008670317840565561, ,0.2207234282782107,-0.22244559770916278,0.10408430926000001,1.6848586958981533,0.5492787290570706,-1.260685115998349, ,0.09864546939549977,0.14667224352159317,0.02556791576243981,0.0,0.026868396028724147,-0.033515225578681314, ,1.325268030166626
0.016098651596734296,0.02166899676624764,-0.09284877778679956, ,0.016728364351825287,0.021181490681793556,-0.09374203797589521, ,0.0015799565638989384, ,0.01770063440921409,-0.007226499088042338,-0.038301075104574644,-0.006631010992798611,0.046674142171976025,-0.032948004335583266, ,0.03094984478786685, ,0.04714194979061332, ,0.000872923724385832, ,0.2218509472778475,-0.2206848146138396,0.10441875208000001,1.6848586958981533,0.5500985480556632,-1.261925374601511, ,0.10710715751520403,0.1659037439833405,0.03885075980487805,-0.01911468347255748,0.15972504288378345,-0.15822487556827836, ,1.32955002784729
0.016098651596734296,0.02166899676624764,-0.09284877778679956, ,0.016798197092456536,0.0211597304562158,-0.09388874632695256, ,0.0013528675617467782, ,0.01770063440921409,-0.007226499088042338,-0.038301075104574644,-0.006631010992798611,0.046674142171976025,-0.032948004335583266, ,0.042807792535056025, ,0.04714194979061332, ,0.0008768576902658397, ,0.2218509472778475,-0.2206848146138396,0.10441875208000001,1.6848586958981533,0.5500985480556632,-1.261925374601511, ,0.10710715751520403,0.1659037439833405,0.03885075980487805,-0.01911468347255748,0.15972504288378345,-0.15822487556827836, ,1.3331739902496338
0.016098651596734296,0.02166899676624764,-0.09284877778679956, ,0.01686820658341351,0.02113778894704815,-0.09403559118327945, ,0.0015109343674579796, ,0.01770063440921409,-0.007226499088042338,-0.038301075104574644,-0.006631010992798611,0.046674142171976025,-0.032948004335583266, ,0.042807792535056025, ,0.04714194979061332, ,0.0008820127852023612, ,0.2218509472778475,-0.2206848146138396,0.10441875208000001,1.6848586958981533,0.5500985480556632,-1.261925374601511, ,0.10710715751520403,0.1659037439833405,0.03885075980487805,-0.01911468347255748,0.15972504288378345,-0.15822487556827836, ,1.336832046508789
0.016271439345487297,0.021614082420941417,-0.09325016128359505, ,0.016938391091404433,0.02111567350826514,-0.09418256336998335, ,0.0012500438897568023, ,0.018231580645696334,-0.004685807128983227,-0.04278383792588905,0.05867852953833979,0.026941656244697423,0.086878304531152, ,0.0467418881621111, ,0.06456685929838657, ,0.0008849807779810261, ,0.2228626252843709,-0.21921749536773694,0.10482967601000001,1.6836005562372458,0.5520114590523794,-1.264465370134948, ,0.10248049844327299,0.1420612897581898,0.043881023471074386,-0.16576496783876393,0.16562275677945856,-0.23620923704908164, ,1.340466022491455
0.016271439345487297,0.021614082420941417,-0.09325016128359505, ,0.0170087488932792,0.021093391447117363,-0.09432965377255792, ,0.0014071419591548675, ,0.018231580645696334,-0.004685807128983227,-0.04278383792588905,0.05867852953833979,0.026941656244697423,0.086878304531152, ,0.0467418881621111, ,0.06456685929838657, ,0.0008891580674304169, ,0.2228626252843709,-0.21921749536773694,0.10482967601000001,1.6836005562372458,0.5520114590523794,-1.264465370134948, ,0.10248049844327299,0.1420612897581898,0.043881023471074386,-0.16576496783876393,0.16562275677945856,-0.23620923704908164, ,1.3440651893615723
0.016271439345487297,0.021614082420941417,-0.09325016128359505, ,0.017079278276003213,0.021070950024239817,-0.09447685333674401, ,0.0015660044480341464, ,0.018231580645696334,-0.004685807128983227,-0.04278383792588905,0.05867852953833979,0.026941656244697423,0.086878304531152, ,0.0467418881621111, ,0.06456685929838657, ,0.000894529864101875, ,0.2228626252843709,-0.21921749536773694,0.10482967601000001,1.6836005562372458,0.5520114590523794,-1.264465370134948, ,0.10248049844327299,0.1420612897581898,0.043881023471074386,-0.16576496783876393,0.16562275677945856,-0.23620923704908164, ,1.3477580547332764
0.016271439345487297,0.021614082420941417,-0.09325016128359505, ,0.017149977536630803,0.021048356453759385,-0.09462415306839161, ,0.0017261890533571927, ,0.018231580645696334,-0.004685807128983227,-0.04278383792588905,0.05867852953833979,0.026941656244697423,0.086878304531152, ,0.0467418881621111, ,0.06456685929838657, ,0.0009010783616550665, ,0.2228626252843709,-0.21921749536773694,0.10482967601000001,1.6836005562372458,0.5520114590523794,-1.264465370134948, ,0.10248049844327299,0.1420612897581898,0.043881023471074386,-0.16576496783876393,0.16562275677945856,-0.23620923704908164, ,1.3516790866851807
0.016447652487039898,0.02156783849944867,-0.0936421668514578, ,0.0172208449822793,0.021025617903403942,-0.09477154403332143, ,0.0014721829466421102, ,0.01895291748340945,-0.0047216916523701745,-0.041303125456857194,-0.06033263464735662,-0.05173052549932612,-0.00942547993872389, ,0.045688681592905206, ,0.07947297571582651, ,0.0009055401162252778, ,0.22384341235939742,-0.21786601711474765,0.10523022962,1.6825521065198237,0.5529679145507375,-1.2657353679016663, ,0.10314884952007694,0.14356572096591644,0.04213971301587302,-0.04016120583535459,0.06000928392406038,-0.08981548243433822, ,1.3553760051727295
0.016447652487039898,0.02156783849944867,-0.0936421668514578, ,0.017291878930102506,0.021002741494609775,-0.09491901735718597, ,0.0016316862829668876, ,0.01895291748340945,-0.0047216916523701745,-0.041303125456857194,-0.06033263464735662,-0.05173052549932612,-0.00942547993872389, ,0.045688681592905206, ,0.07947297571582651, ,0.0009111691562775384, ,0.22384341235939742,-0.21786601711474765,0.10523022962,1.6825521065198237,0.5529679145507375,-1.2657353679016663, ,0.10314884952007694,0.14356572096591644,0.04213971301587302,-0.04016120583535459,0.06000928392406038,-0.08981548243433822, ,1.35899019241333
0.016447652487039898,0.02156783849944867,-0.0936421668514578, ,0.017363077707264325,0.02097973430263023,-0.09506656422533093, ,0.00179242231598333, ,0.01895291748340945,-0.0047216916523701745,-0.041303125456857194,-0.06033263464735662,-0.05173052549932612,-0.00942547993872389, ,0.045688681592905206, ,0.07947297571582651, ,0.0009179480267368136, ,0.22384341235939742,-0.21786601711474765,0.10523022962,1.6825521065198237,0.5529679145507375,-1.2657353679016663, ,0.10314884952007694,0.14356572096591644,0.04213971301587302,-0.04016120583535459,0.06000928392406038,-0.08981548243433822, ,1.362624168395996
0.016737266011016584,0.021508022464490552,-0.09433295622915097, ,0.017434439650912698,0.020956603356643254,-0.09521417588265707, ,0.0012516637705032912, ,0.019423921967056303,-0.0038491901121329966,-0.04902252880256773,-0.04662632013950491,0.008794337131455708,-0.025498919835145725, ,0.05287072289367924, ,0.04744545257573781, ,0.0009204954751625119, ,0.22527984067400317,-0.21564959277984522,0.10593541138000001,1.6825521065198237,0.554061006548861,-1.267116783572081, ,0.09204359026039842,0.15110977955170507,0.05009060226415095,-0.019197183188804028,0.10596574578240806,-0.10430582109078734, ,1.3661761283874512
0.016737266011016584,0.021508022464490552,-0.09433295622915097, ,0.017505963108153062,0.020933355639860384,-0.09536184363348171, ,0.0014070346396826978, ,0.019423921967056303,-0.0038491901121329966,-0.04902252880256773,-0.04662632013950491,0.008794337131455708,-0.025498919835145725, ,0.05287072289367924, ,0.04744545257573781, ,0.0009241813779240285, ,0.22527984067400317,-0.21564959277984522,0.10593541138000001,1.6825521065198237,0.554061006548861,-1.267116783572081, ,0.09204359026039842,0.15110977955170507,0.05009060226415095,-0.019197183188804028,0.10596574578240806,-0.10430582109078734, ,1.369758129119873
0.016737266011016584,0.021508022464490552,-0.09433295622915097, ,0.017577646436022224,0.020909998089634174,-0.09550955884139978, ,0.0015646936181903906, ,0.019423921967056303,-0.0038491901121329966,-0.04902252880256773,-0.04662632013950491,0.008794337131455708,-0.025498919835145725, ,0.05287072289367924, ,0.04744545257573781, ,0.0009289972594297907, ,0.22527984067400317,-0.21564959277984522,0.10593541138000001,1.6825521065198237,0.554061006548861,-1.267116783572081, ,0.09204359026039842,0.15110977955170507,0.05009060226415095,-0.019197183188804028,0.10596574578240806,-0.10430582109078734, ,1.3738679885864258
0.016932065859411153,0.021464306853470633,-0.0948186987788446, ,0.017649488001461967,0.020886537597566767,-0.0956573129291456, ,0.0012457068419405694, ,0.018421500373253755,-0.004497891847928042,-0.044667201642808456,-0.014942040878721806,-0.00896871568829693,0.06403583953914431, ,0.04852567989917046, ,0.01742195861028806, ,0.000931360763776886, ,0.22622973681753278,-0.21414365986937142,0.10643189045000001,1.6815036568024009,0.55529073504675,-1.2686912958863328, ,0.09195440073495231,0.14121568684296246,0.04564129375358167,-0.12705466734353915,0.11006206545976,-0.15257689016001671, ,1.3775591850280762
0.016932065859411153,0.021464306853470633,-0.0948186987788446, ,0.01772148618129269,0.020862981009617924,-0.09580509737845386, ,0.0013991995613191904, ,0.018421500373253755,-0.004497891847928042,-0.044667201642808456,-0.014942040878721806,-0.00896871568829693,0.06403583953914431, ,0.04852567989917046, ,0.01742195861028806, ,0.0009348262363512734, ,0.22622973681753278,-0.21414365986937142,0.10643189045000001,1.6815036568024009,0.55529073504675,-1.2686912958863328, ,0.09195440073495231,0.14121568684296246,0.04564129375358167,-0.12705466734353915,0.11006206545976,-0.15257689016001671, ,1.3811891078948975
0.017109377982525906,0.02141242711719759,-0.09523017633178095, ,0.01779363936218728,0.0208393351262132,-0.09595290372992214, ,0.0011484698332348468, ,0.017230809861770505,-0.005839950091379303,-0.03779495385498221,-0.014459783522755822,-0.002391348014714229,0.027313340553735552, ,0.041945969561598205, ,0.014653558082723183, ,0.0009363971451518881, ,0.22715646476243972,-0.21274584521913678,0.10685188841000001,1.6802455171414936,0.5563838270448734,-1.2702360690370285, ,0.09489694155847078,0.1403800910628266,0.038568550895883784,-0.0849673746633162,0.11061466810743663,-0.14259184401333866, ,1.384932041168213
0.017109377982525906,0.02141242711719759,-0.09523017633178095, ,0.01786594594064458,0.020815606702352066,-0.09610072358287113, ,0.0012986308941377088, ,0.017230809861770505,-0.005839950091379303,-0.03779495385498221,-0.014459783522755822,-0.002391348014714229,0.027313340553735552, ,0.041945969561598205, ,0.014653558082723183, ,0.0009390411871152882, ,0.22715646476243972,-0.21274584521913678,0.10685188841000001,1.6802455171414936,0.5563838270448734,-1.2702360690370285, ,0.09489694155847078,0.1403800910628266,0.038568550895883784,-0.0849673746633162,0.11061466810743663,-0.14259184401333866, ,1.388667106628418
0.017109377982525906,0.02141242711719759,-0.09523017633178095, ,0.017938404322963272,0.020791802447716137,-0.09624854859520728, ,0.0014524261497315422, ,0.017230809861770505,-0.005839950091379303,-0.03779495385498221,-0.014459783522755822,-0.002391348014714229,0.027313340553735552, ,0.041945969561598205, ,0.014653558082723183, ,0.0009427613680038117, ,0.22715646476243972,-0.21274584521913678,0.10685188841000001,1.6802455171414936,0.5563838270448734,-1.2702360690370285, ,0.09489694155847078,0.1403800910628266,0.038568550895883784,-0.0849673746633162,0.11061466810743663,-0.14259184401333866, ,1.3928260803222656
0.01727442510401107,0.02135415501288411,-0.09557894987224226, ,0.01801101292521543,0.020767929026776995,-0.09639637048328291, ,0.001246755381174635, ,0.017724947184570083,-0.006723754224388675,-0.03607187380286665,-0.01858360197817179,0.005931350155032524,-0.012633106704581856, ,0.040750002493444355, ,0.019505642900242374, ,0.0009449483752928104, ,0.2280909154402209,-0.21137119876752483,0.10720836816000001,1.6802455171414936,0.5574769190429971,-1.2715358059673028, ,0.10348630486201829,0.14689929033819007,0.036872248888888896,-0.039996649430685885,0.1184087948395265,-0.1339706489504699, ,1.3967061042785645
0.01727442510401107,0.02135415501288411,-0.09557894987224226, ,0.018083770173220385,0.020743993058905348,-0.09654418102175917, ,0.0013996457491573882, ,0.017724947184570083,-0.006723754224388675,-0.03607187380286665,-0.01858360197817179,0.005931350155032524,-0.012633106704581856, ,0.040750002493444355, ,0.019505642900242374, ,0.0009481962136775573, ,0.2280909154402209,-0.21137119876752483,0.10720836816000001,1.6802455171414936,0.5574769190429971,-1.2715358059673028, ,0.10348630486201829,0.14689929033819007,0.036872248888888896,-0.039996649430685885,0.1184087948395265,-0.1339706489504699, ,1.4004499912261963
0.017456959252105893,0.02128996244187406,-0.09594709882941088, ,0.01815667450251825,0.020720001118477688,-0.09669197204346655, ,0.0011701681275974815, ,0.017558109919484147,-0.005898277879129143,-0.03468249054178072,-0.001200717481395918,0.013192456112990558,-0.04840815616838009, ,0.0393185968221759, ,0.013245091104576957, ,0.0009497704825706065, ,0.22914892984398966,-0.2099116022542964,0.10758558855000001,1.6800358271980091,0.5585700110411206,-1.2727538641574363, ,0.1039396950257073,0.13673910887387722,0.03571482403587444,0.0,0.11775098237271589,-0.13255211092145386, ,1.4044780731201172
0.017456959252105893,0.02128996244187406,-0.09594709882941088, ,0.018229724358343646,0.020695959734985708,-0.0968397354392661, ,0.0013216675990819944, ,0.017558109919484147,-0.005898277879129143,-0.03468249054178072,-0.001200717481395918,0.013192456112990558,-0.04840815616838009, ,0.0393185968221759, ,0.013245091104576957, ,0.0009523894763488558, ,0.22914892984398966,-0.2099116022542964,0.10758558855000001,1.6800358271980091,0.5585700110411206,-1.2727538641574363, ,0.1039396950257073,0.13673910887387722,0.03571482403587444,0.0,0.11775098237271589,-0.13255211092145386, ,1.4081151485443115
0.017456959252105893,0.02128996244187406,-0.09594709882941088, ,0.0183029181955995,0.020671875393143895,-0.09698746315791236, ,0.0014764945207833035, ,0.017558109919484147,-0.005898277879129143,-0.03468249054178072,-0.001200717481395918,0.013192456112990558,-0.04840815616838009, ,0.0393185968221759, ,0.013245091104576957, ,0.0009560545465896562, ,0.22914892984398966,-0.2099116022542964,0.10758558855000001,1.6800358271980091,0.5585700110411206,-1.2727538641574363, ,0.1039396950257073,0.13673910887387722,0.03571482403587444,0.0,0.11775098237271589,-0.13255211092145386, ,1.4118051528930664
0.01759900636270121,0.021239423546121804,-0.09622903494670579, ,0.018376254478830522,0.020647754532997643,-0.09713514720591268, ,0.0013323761786383388, ,0.0179210243014257,-0.006219388410956335,-0.036173011022283624,-0.005190387230412877,0.016049759140232128,-0.018446505184277127, ,0.040845203275744396, ,0.016866326063845697, ,0.0009586678912566609, ,0.22999843046015434,-0.2088072514532823,0.10787595751000001,1.6794067573675557,0.559663103039244,-1.2738902436074295, ,0.10439707542186004,0.1407966491965442,0.037216849345794396,-0.032772739506608604,0.12793706639316943,-0.13967660407785398, ,1.4154291152954102
0.01759900636270121,0.021239423546121804,-0.09622903494670579, ,0.018449731682197212,0.020623603550031795,-0.09728277964739072, ,0.0014877317402803034, ,0.0179210243014257,-0.006219388410956335,-0.036173011022283624,-0.005190387230412877,0.016049759140232128,-0.018446505184277127, ,0.040845203275744396, ,0.016866326063845697, ,0.0009623166074568239, ,0.22999843046015434,-0.2088072514532823,0.10787595751000001,1.6794067573675557,0.559663103039244,-1.2738902436074295, ,0.10439707542186004,0.1407966491965442,0.037216849345794396,-0.032772739506608604,0.12793706639316943,-0.13967660407785398, ,1.4190351963043213
0.01759900636270121,0.021239423546121804,-0.09622903494670579, ,0.018523348289449324,0.020599428795278436,-0.097430352603947, ,0.0016453465872730275, ,0.0179210243014257,-0.006219388410956335,-0.036173011022283624,-0.005190387230412877,0.016049759140232128,-0.018446505184277127, ,0.040845203275744396, ,0.016866326063845697, ,0.0009669948949898116, ,0.22999843046015434,-0.2088072514532823,0.10787595751000001,1.6794067573675557,0.559663103039244,-1.2738902436074295, ,0.10439707542186004,0.1407966491965442,0.037216849345794396,-0.032772739506608604,0.12793706639316943,-0.13967660407785398, ,1.422652006149292
0.01781296524221296,0.02115838769538599,-0.09668616502555255, ,0.01859710279389946,0.020575236575425027,-0.0975778582545198, ,0.0013228959684202899, ,0.017262944057664438,-0.006449876230200445,-0.038821156884248614,0.020809224009719896,0.027339773614653243,0.05742416335417247, ,0.04297315863134103, ,0.034356933082230756, ,0.0009694159907274338, ,0.23119545405565914,-0.207077359289456,0.10834391820000001,1.6777292378196795,0.5613027410364293,-1.27571733089263, ,0.09258238200826417,0.1424879002379441,0.03972272199501248,-0.12676640672770298,0.14591564395194362,-0.19047514314071112, ,1.42622709274292
0.01781296524221296,0.02115838769538599,-0.09668616502555255, ,0.018670993698397073,0.020551033152922928,-0.09772528883524781, ,0.001478130800622121, ,0.017262944057664438,-0.006449876230200445,-0.038821156884248614,0.020809224009719896,0.027339773614653243,0.05742416335417247, ,0.04297315863134103, ,0.034356933082230756, ,0.000972853252956452, ,0.23119545405565914,-0.207077359289456,0.10834391820000001,1.6777292378196795,0.5613027410364293,-1.27571733089263, ,0.09258238200826417,0.1424879002379441,0.03972272199501248,-0.12676640672770298,0.14591564395194362,-0.19047514314071112, ,1.4297981262207031
0.01781296524221296,0.02115838769538599,-0.09668616502555255, ,0.018745019515301983,0.020526824746095233,-0.09787263663933084, ,0.0016356380459019637, ,0.017262944057664438,-0.006449876230200445,-0.038821156884248614,0.020809224009719896,0.027339773614653243,0.05742416335417247, ,0.04297315863134103, ,0.034356933082230756, ,0.0009773014730433346, ,0.23119545405565914,-0.207077359289456,0.10834391820000001,1.6777292378196795,0.5613027410364293,-1.27571733089263, ,0.09258238200826417,0.1424879002379441,0.03972272199501248,-0.12676640672770298,0.14591564395194362,-0.19047514314071112, ,1.433582067489624
0.017991977928481537,0.02110021892272006,-0.0970782235856527, ,0.018819178766457965,0.020502617529245135,-0.09801989401689168, ,0.001388571875309984, ,0.018710539046019586,-0.004993186551616716,-0.041391054576703265,-0.00772332974361865,0.028990799550923683,-0.05219972965428826, ,0.04569721635180307, ,0.02999991321969191, ,0.0009800432757251126, ,0.23216079566493722,-0.20567954463922136,0.10874706439000001,1.6771001679892257,0.5626691060340837,-1.2771582248901563, ,0.0978318985138874,0.13914507559893075,0.04270458852546917,0.006514455686493341,0.12618506716127817,-0.1263045503295703, ,1.4376401901245117
0.017991977928481537,0.02110021892272006,-0.0970782235856527, ,0.018893469983166683,0.020478417632763687,-0.09816705337483693, ,0.0015443040758434956, ,0.018710539046019586,-0.004993186551616716,-0.041391054576703265,-0.00772332974361865,0.028990799550923683,-0.05219972965428826, ,0.04569721635180307, ,0.02999991321969191, ,0.0009837801022159628, ,0.23216079566493722,-0.20567954463922136,0.10874706439000001,1.6771001679892257,0.5626691060340837,-1.2771582248901563, ,0.0978318985138874,0.13914507559893075,0.04270458852546917,0.006514455686493341,0.12618506716127817,-0.1263045503295703, ,1.4413821697235107
0.017991977928481537,0.02110021892272006,-0.0970782235856527, ,0.018967891706161154,0.020454231143238626,-0.09831410717671925, ,0.0017020917023979076, ,0.018710539046019586,-0.004993186551616716,-0.041391054576703265,-0.00772332974361865,0.028990799550923683,-0.05219972965428826, ,0.04569721635180307, ,0.02999991321969191, ,0.000988505836427686, ,0.23216079566493722,-0.20567954463922136,0.10874706439000001,1.6771001679892257,0.5626691060340837,-1.2771582248901563, ,0.0978318985138874,0.13914507559893075,0.04270458852546917,0.006514455686493341,0.12618506716127817,-0.1263045503295703, ,1.445066213607788
0.018181848306502026,0.021052230708066763,-0.09749328492684312, ,0.01904244248557962,0.02043006410356189,-0.09846104794259869, ,0.0014367598544947197, ,0.01877837304182139,-0.004637996052135857,-0.03992893865709815,0.002129461445809757,-0.003274682803889306,-0.062110732740461354, ,0.044367312784974244, ,0.0038931555163371954, ,0.0009914356012516534, ,0.23315702820571219,-0.20431262092048363,0.10917613638000001,1.6771001679892257,0.5638988345319728,-1.2785693797241269, ,0.09844081074530164,0.13161850424198443,0.04126635108808291,0.00934428834687569,0.09303181472956416,-0.13025615254973466, ,1.44868803024292
0.018181848306502026,0.021052230708066763,-0.09749328492684312, ,0.01911712088093904,0.020405922513038074,-0.09860786824890325, ,0.001592088268052333, ,0.01877837304182139,-0.004637996052135857,-0.03992893865709815,0.002129461445809757,-0.003274682803889306,-0.062110732740461354, ,0.044367312784974244, ,0.0038931555163371954, ,0.0009953359432438656, ,0.23315702820571219,-0.20431262092048363,0.10917613638000001,1.6771001679892257,0.5638988345319728,-1.2785693797241269, ,0.09844081074530164,0.13161850424198443,0.04126635108808291,0.00934428834687569,0.09303181472956416,-0.13025615254973466, ,1.4523301124572754
0.018181848306502026,0.021052230708066763,-0.09749328492684312, ,0.019191925461108914,0.020381812327492588,-0.09875456072829178, ,0.0017494379984984937, ,0.01877837304182139,-0.004637996052135857,-0.03992893865709815,0.002129461445809757,-0.003274682803889306,-0.062110732740461354, ,0.044367312784974244, ,0.0038931555163371954, ,0.0010002011177938956, ,0.23315702820571219,-0.20431262092048363,0.10917613638000001,1.6771001679892257,0.5638988345319728,-1.2785693797241269, ,0.09844081074530164,0.13161850424198443,0.04126635108808291,0.00934428834687569,0.09303181472956416,-0.13025615254973466, ,1.4560041427612305
0.018431058585675165,0.020978145179171313,-0.09799932670757494, ,0.01926685480428518,0.020357739459379937,-0.09890111806951438, ,0.0013772023223409258, ,0.020234751492071868,-0.0065780351317214405,-0.040795697674498005,-0.056431468273892275,-0.023165664941647148,0.0032199916093890732, ,0.0460109189528867, ,0.06100037414195456, ,0.0010026177921820174, ,0.234493060992953,-0.20252866962653776,0.10969724496000001,1.676680788102257,0.5648552900303309,-1.2795943412704236, ,0.11021712143840974,0.1482764711851106,0.04202852643799473,-0.05179496790541566,0.09799285546601721,-0.09974681555098545, ,1.459585189819336
0.018431058585675165,0.020978145179171313,-0.09799932670757494, ,0.019341907497963308,0.020333709777891385,-0.09904753301727434, ,0.0015309079642920904, ,0.020234751492071868,-0.0065780351317214405,-0.040795697674498005,-0.056431468273892275,-0.023165664941647148,0.0032199916093890732, ,0.0460109189528867, ,0.06100037414195456, ,0.0010059826977368586, ,0.234493060992953,-0.20252866962653776,0.10969724496000001,1.676680788102257,0.5648552900303309,-1.2795943412704236, ,0.11021712143840974,0.1482764711851106,0.04202852643799473,-0.05179496790541566,0.09799285546601721,-0.09974681555098545, ,1.4631640911102295
0.018637109887590136,0.020910395321353942,-0.09841686981609092, ,0.01941708213891258,0.020309729109063687,-0.09919379837208916, ,0.0012541031028370998, ,0.019796756403614883,-0.006247816099698836,-0.03949346456381137,0.03358774414935459,0.03404005507304301,0.07433340686941392, ,0.04461704285777742, ,0.047820140400548744, ,0.0010075530800476198, ,0.23565919365696092,-0.20105362764756088,0.11013020582000001,1.675212958497865,0.5664949280275161,-1.2813397498154835, ,0.1144715820970697,0.1375317993601026,0.041159719689922485,-0.14161588915057555,0.1770731480940421,-0.2014926066748976, ,1.4670829772949219
0.018637109887590136,0.020910395321353942,-0.09841686981609092, ,0.01949237733314951,0.02028580323588688,-0.09933990699015269, ,0.0014048470740125705, ,0.019796756403614883,-0.006247816099698836,-0.03949346456381137,0.03358774414935459,0.03404005507304301,0.07433340686941392, ,0.04461704285777742, ,0.047820140400548744, ,0.0010100517844121792, ,0.23565919365696092,-0.20105362764756088,0.11013020582000001,1.675212958497865,0.5664949280275161,-1.2813397498154835, ,0.1144715820970697,0.1375317993601026,0.041159719689922485,-0.14161588915057555,0.1770731480940421,-0.2014926066748976, ,1.4707310199737549
0.018637109887590136,0.020910395321353942,-0.09841686981609092, ,0.019567791695911604,0.020261937898412817,-0.09948585178319641, ,0.001558649448626818, ,0.019796756403614883,-0.006247816099698836,-0.03949346456381137,0.03358774414935459,0.03404005507304301,0.07433340686941392, ,0.04461704285777742, ,0.047820140400548744, ,0.0010134805198135205, ,0.23565919365696092,-0.20105362764756088,0.11013020582000001,1.675212958497865,0.5664949280275161,-1.2813397498154835, ,0.1144715820970697,0.1375317993601026,0.041159719689922485,-0.14161588915057555,0.1770731480940421,-0.2014926066748976, ,1.474363088607788
0.018835624114494486,0.02084895507905274,-0.09880786607766683, ,0.01964332385163094,0.02023813879386243,-0.09963162571834978, ,0.001305394708600469, ,0.020350131682733284,-0.006033743053786279,-0.039498066331041,0.05374600514398968,0.03819844104267719,-0.04335836212283743, ,0.04484006198295241, ,0.0659367714750298, ,0.001015293651420893, ,0.23680988085522037,-0.1996635357302005,0.11053853717,1.6745838886674116,0.5682712025244668,-1.2832782550043804, ,0.1168681546286586,0.14017273494604252,0.04126635108808291,-0.02198150645444697,0.159246654866091,-0.19771985564201922, ,1.477982997894287
0.018835624114494486,0.02084895507905274,-0.09880786607766683, ,0.019718972433907973,0.020214411576735324,-0.09977722181800382, ,0.001456914637536517, ,0.020350131682733284,-0.006033743053786279,-0.039498066331041,0.05374600514398968,0.03819844104267719,-0.04335836212283743, ,0.04484006198295241, ,0.0659367714750298, ,0.0010180197068907426, ,0.23680988085522037,-0.1996635357302005,0.11053853717,1.6745838886674116,0.5682712025244668,-1.2832782550043804, ,0.1168681546286586,0.14017273494604252,0.04126635108808291,-0.02198150645444697,0.159246654866091,-0.19771985564201922, ,1.4817280769348145
0.018835624114494486,0.02084895507905274,-0.09880786607766683, ,0.019794736085485286,0.020190761858916623,-0.0999226331596708, ,0.001611154783082825, ,0.020350131682733284,-0.006033743053786279,-0.039498066331041,0.05374600514398968,0.03819844104267719,-0.04335836212283743, ,0.04484006198295241, ,0.0659367714750298, ,0.0010216585723888535, ,0.23680988085522037,-0.1996635357302005,0.11053853717,1.6745838886674116,0.5682712025244668,-1.2832782550043804, ,0.1168681546286586,0.14017273494604252,0.04126635108808291,-0.02198150645444697,0.159246654866091,-0.19771985564201922, ,1.4861249923706055
