NicholasDascanio/dvrk_moveit_final/test/execution/third_experiment_notsharpbends/thirdexp_300vel4.0/thirdexp_300vel4.0_18.csv
Current Position (x),Current Position (y),Current Position (z), ,Planned Position (x),Planned Position (y),Planned Position (z), ,Position Error,,Cartesian linear Velocity(x),Cartesian linear Velocity(y),Cartesian linear Velocity(z),Cartesian Angular Velocity(x),Cartesian Angular Velocity(y),Cartesian Angular Velocity(z), ,Total Linear Velocity, ,Total Angular Velocity, ,MSE, ,Joint 1 Position,Joint 2 Position,Joint 3 Position,Joint 4 Position,Joint 5 Position,Joint 6 Position, ,Joint 1 Velocity,Joint 2 Velocity,Joint 3 Velocity,Joint 4 Velocity,Joint 5 Velocity,Joint 6 Velocity, ,Time Stamp
0.007708263141624207,0.020990753454999306,-0.08016307285764877, ,0.007990076855578138,0.020910306572861505,-0.08026020223595397, ,0.0003087471236273385, ,0.000670998309626927,0.00012796537373907838,-0.0006102045615033465,0.213964855017749,-0.002281036338832045,-0.07740990683430295, ,0.0009159494938466131, ,0.21397701350739837, ,2.5728926968944876e-05, ,0.1485931032329538,-0.24969912202230107,0.09067807808000002,1.6802455171414936,0.4884754866614496,-1.2254796071181802, ,0.007135044367127598,0.00044816245941677626,0.0006830895093006395,-0.0011658382342070747,0.0,-0.22852813401126282, ,0.03668403625488281
0.007759184622923392,0.0209891215260868,-0.08019092667075331, ,0.008145738757042867,0.020895900453443042,-0.08037986125205294, ,0.00044023918839714623, ,0.0023934917691367046,-0.00016987478232745264,-0.0007843698034074351,0.14758045684447296,-0.11965669589671007,-0.08827740203774835, ,0.0025244596013985587, ,0.18999398968214967, ,3.4044832364749305e-05, ,0.14924953552726286,-0.2495523900976908,0.09072085565000002,1.6802455171414936,0.48628930266520254,-1.2351319442787163, ,0.024732067124959806,0.0064843804642724465,0.0019858884827328263,0.0016254514075234486,-0.07144507891784001,-0.075708066298251, ,0.07194709777832031
0.007844785444839356,0.020994327940176066,-0.08026140898550356, ,0.008300749845443723,0.020881362488259038,-0.08049947693532901, ,0.0005266318226991325, ,0.0034562644361268943,0.00023407779110983141,-0.003537917533447831,0.2674454818248188,-0.04306686998552527,-0.10830145807094126, ,0.004951506511982388, ,0.2708908286345356, ,3.986306671011304e-05, ,0.1498287404928297,-0.24941338090595477,0.09077659612000001,1.6806648970284628,0.4858793931659062,-1.238881627574655, ,0.03423410590132423,0.008718784606711228,0.0037338986216596346,0.0027794701156472683,-0.01639732441334099,-0.2944466191114384, ,0.10856103897094727
0.00802498924230204,0.02098720529298756,-0.08038958314332989, ,0.00845511052948212,0.020866695986061265,-0.08061905041478341, ,0.0005021773027623113, ,0.004566337416233058,-0.0005420665885201422,-0.003115492412798673,-0.03131040493621918,0.011795693203599808,0.02007629560416062, ,0.005554418651802001, ,0.03345862870964606, ,4.2328462797284015e-05, ,0.15175942371138584,-0.24890368053625594,0.09091400286000001,1.6806648970284628,0.4854694836666099,-1.2369137990607546, ,0.057166832264139024,0.01762573208738313,0.003581117697841727,0.0027794701156472683,0.07132445123752566,0.02060025250650044, ,0.14556217193603516
0.008264345305002876,0.02097204834113996,-0.08053967442092419, ,0.008608821227799582,0.020851904239684645,-0.08073858280622181, ,0.0004155271498264048, ,0.005641222281508955,-0.0002615192882241757,-0.003452768463985777,-0.0023357588098863458,-0.05308299392329103,-0.010165193130566073, ,0.006619168469936467, ,0.05313435811776962, ,4.2179280525237185e-05, ,0.1545782212104778,-0.24817774364607884,0.09108511314,1.6810842769154317,0.48724575816356064,-1.2377088018876836, ,0.06318038718939466,0.015246937911065357,0.0038549882671829626,0.0063101856156308304,0.008615988477191402,-0.011870772641616152, ,0.18352508544921875
0.008411861336424435,0.02096305432075459,-0.08063749735843392, ,0.008761882368958996,0.020836990526075676,-0.08085807521230177, ,0.00043250594581156326, ,0.005423490461430383,-0.0003526492129911382,-0.0032322178529541226,-0.0037997861674987756,-0.04187955652626033,-0.005726749331333792, ,0.006323435972760773, ,0.042051582959529245, ,4.235207311490156e-05, ,0.1562463315113103,-0.24773754787224805,0.09119400150000001,1.6810842769154317,0.48779230416262237,-1.2382361522426097, ,0.06182211176447608,0.015615754740574425,0.0036475409938172662,0.005072320599325841,0.0191891165918828,-0.010089982571501939, ,0.2195911407470703
0.008572895687988719,0.0209401708884195,-0.080701984620863, ,0.008914294391424925,0.020821958106322404,-0.08097752872258261, ,0.0004543697707281191, ,0.004869464873093568,-0.00053128133630295,-0.0025981126710263314,0.015658866240702302,-0.022114725231489718,-0.008767853223713894, ,0.00554473962057224, ,0.02709725380716856, ,4.338307470214107e-05, ,0.1581770147298664,-0.24720467930392656,0.09127048261000001,1.6815036568024009,0.48874875966098047,-1.2389343988283443, ,0.05768811036989105,0.015831988915327125,0.0030054361358490566,0.005547726141058468,0.034880138447482084,-0.02969812450126186, ,0.25136709213256836
0.008770914391535763,0.020936969269201633,-0.08087886164891493, ,0.009066057743543772,0.020806810225683103,-0.08109694441356922, ,0.0003893726583665599, ,0.0045488461789298705,-8.952637749225276e-05,-0.0046776271436185,0.009702409636006958,-0.01737189091937467,-0.014141622628885563, ,0.006525351502145178, ,0.01989772209626398, ,4.33696370277322e-05, ,0.1603471026675235,-0.24657141520824014,0.09146492611000001,1.6817133467458854,0.48984185165910404,-1.2399074207980563, ,0.04889074784053105,0.01687056738817258,0.0050761030975143406,0.011495290114783358,0.02929304598093573,-0.02388651481618419, ,0.2840571403503418
0.008912256064500317,0.020928532485292025,-0.08099756910005546, ,0.009217172883523098,0.020791550113615637,-0.08121632334876112, ,0.000399489496732819, ,0.004440074249786159,-0.00020974577458445247,-0.0036798211586211173,0.027042963807670062,-0.0008922030205509473,-0.011904955274820078, ,0.005770557719406835, ,0.027057677599123277, ,4.347258942642017e-05, ,0.1619225401738653,-0.24607716030428978,0.09159585140000001,1.6817133467458854,0.4907983071574621,-1.24052398864365, ,0.051323386456717565,0.015380379507045508,0.004156787974947809,0.00924541496404557,0.049155450609348825,-0.039598088281317056, ,0.31612515449523926
0.009038865860278257,0.020916008583905656,-0.08109936666434515, ,0.009367640279410516,0.020776180983806423,-0.08133566657869669, ,0.0004283480196613586, ,0.004007118647146579,-0.0003790921402003188,-0.003812767702846711,0.014667798430288141,0.027508854829653494,-0.0032807671768824358, ,0.0055441778704279025, ,0.03117501249438019, ,4.385110692461993e-05, ,0.16335896848847106,-0.24556745993459095,0.09170862863000001,1.6821327266328545,0.4918913991555856,-1.2405985444718157, ,0.0481955010454397,0.01789495409362074,0.004303920972710079,0.011197248912038627,0.07515696151175483,-0.02680805124993272, ,0.34856200218200684
0.00917389776896,0.020900078952335827,-0.08121355262066618, ,0.009517460409072122,0.020760706034199758,-0.08145497514099852, ,0.00044243070792406887, ,0.004546358936768467,-0.0005451217633488037,-0.0036620312306401386,-0.027730555519445668,-0.02420998142224227,-0.0009660273730544204, ,0.005863191115168833, ,0.03681177677352442, ,4.429756249099834e-05, ,0.1648571786660706,-0.24500370043477257,0.09183307247000001,1.6821327266328545,0.4928478546539437,-1.2408883973568474, ,0.04994575871498462,0.01892262045034313,0.00398618906906907,0.008878725215945026,0.024725506613040744,0.012949376836191007, ,0.38109707832336426
0.009307565288050287,0.02088793290967627,-0.08133018736098462, ,0.009666633760170514,0.020745128447026345,-0.08157425006041892, ,0.0004570447280941421, ,0.004796982054298535,-0.00032054141171094163,-0.004522641022298874,-0.03800641535144886,-0.03728290186615452,0.0033923037215026564, ,0.006600610990087541, ,0.0532400448678998, ,4.480072340199108e-05, ,0.1663399433779217,-0.24445538640070263,0.09196140518000001,1.6825521065198237,0.4939409466520672,-1.2410446319251536, ,0.049893239515494625,0.018502035788354607,0.004857826020128088,0.004430470658552215,0.012423305619151684,0.022633152679367705, ,0.41347599029541016
0.009493309387915469,0.020871605926747173,-0.08149265042461817, ,0.009815160830142259,0.020729451388832674,-0.08169349234888267, ,0.0004051342272079874, ,0.004640296629186285,-0.0006963319974768497,-0.0031517975839953907,-0.016516209383590438,-0.02978526143815704,0.014226686251429022, ,0.005652526786139706, ,0.03405799423088422, ,4.517756565999155e-05, ,0.1684173585210881,-0.24370628131190286,0.09214158949000001,1.6829714864067924,0.49571722114901795,-1.2416762772718015, ,0.05196984751285365,0.018123938418348126,0.003488570197109067,-0.01166687838941799,0.02589377089562374,-0.0015188562087721548, ,0.4449729919433594
0.009581858724699474,0.020860039907551156,-0.0815557896997775, ,0.009963042126175022,0.02071367801051003,-0.08181270300553212, ,0.0004824179071507496, ,0.004782530865784235,-0.00046465194586943573,-0.003846807901552062,-0.011893185128328189,-0.01733884087211589,0.01688132880941882, ,0.006155195686931695, ,0.021025775953407145, ,4.6094212492346225e-05, ,0.16949854112347953,-0.24335103559968851,0.09221547802,1.6829714864067924,0.4972202226464378,-1.2425751592518999, ,0.05355357875760201,0.017599581149568024,0.004293480194070082,-0.01166687838941799,0.04036802190296413,-0.004815469196767206, ,0.4735710620880127
0.009784426344526403,0.020846047243640174,-0.08172746530140872, ,0.010110278165184304,0.020697811447323064,-0.08193188301676929, ,0.0004122376289096782, ,0.005103919963164839,-0.0004460747695549235,-0.0036478251927495316,-0.03919668838131359,-0.033138793463001276,0.0063017856929411835, ,0.006289325109046614, ,0.05132796520026245, ,4.640481198499557e-05, ,0.17170724272550775,-0.24262509870951143,0.09240603265000001,1.6829714864067924,0.4985865876440922,-1.2427908721473178, ,0.055756134875717255,0.01758327618278132,0.004084310646153846,0.005231775445196433,0.022663925568944625,0.025777638031748706, ,0.5055100917816162
0.009882110947470258,0.020838607080378997,-0.08180000538521974, ,0.010256869473789816,0.020681854818939246,-0.08205103335629955, ,0.00047752514779865956, ,0.004631301236790045,-0.00045153994306962835,-0.003397886965599008,0.06904354196432477,0.047972082392759505,-0.010528007957946554, ,0.005761811806807644, ,0.08407336900365203, ,4.712296503850027e-05, ,0.17284248445801875,-0.24226985299729709,0.09249029150000002,1.6833908662937616,0.49981631614198113,-1.2433852395798828, ,0.05861454080202025,0.0176815616840825,0.00412556630924631,0.007671822374311934,0.10694049892129084,-0.08240902146518071, ,0.5339720249176025
0.01003816085948278,0.020823518131200064,-0.0819139794326452, ,0.01040281658829148,0.020665811229457175,-0.08217015498517359, ,0.0004727273856289425, ,0.0052022997893990015,-0.00047371712265125614,-0.0041956235119033495,-0.02322210862855726,-0.026646626683055948,0.028199366302013744, ,0.006700118481393451, ,0.035345566078965905, ,4.773670648286527e-05, ,0.17462643575196463,-0.2416983707646045,0.09262121679000002,1.6836005562372458,0.5014559541391664,-1.2442321819833966, ,0.056995160095177654,0.018186458711857183,0.004687702036492054,-0.021446736609302467,0.03686787275075987,0.004513918188895381, ,0.5626001358032227
0.01018762283568202,0.020813065290447793,-0.08204748205590254, ,0.010548120054645107,0.020649683767436137,-0.08228924885182995, ,0.00046379192592663204, ,0.004969128854752662,-0.0005554302849451513,-0.003911901302128149,-0.002996144629539814,-0.006652413612103341,0.0024833166467111804, ,0.0063485207863061815, ,0.0072959912686025976, ,4.823608620276594e-05, ,0.17628682331992288,-0.24115005673053455,0.09277158643000001,1.6833908662937616,0.5030955921363518,-1.2449974456467696, ,0.055723394925702156,0.019554284269208896,0.00442712938299055,0.00250700367718559,0.04996874110069326,-0.013124794708834087, ,0.590684175491333
0.010345656745827573,0.020797245122613394,-0.08216620489267858, ,0.010692780428437845,0.020633475505924107,-0.08240831589213633, ,0.0004537984954116821, ,0.005405846954134278,-0.0003110095389516176,-0.004570772333852709,-0.01704691005954074,-0.010257739753911218,-0.0009628872531328215, ,0.007086033301696732, ,0.0198951844787129, ,4.8915301945411086e-05, ,0.17807077461386875,-0.24054768356634504,0.09290769688000002,1.6838102461807307,0.5047352301335369,-1.245517673089721, ,0.059052234946154816,0.01915175409858139,0.0051750524756335285,0.011385918109707745,0.04782623536272116,0.003667476128526019, ,0.6164281368255615
0.01046482080208486,0.020788605776333256,-0.0822754509605139, ,0.010836798274863153,0.020617189502487254,-0.08252735702943079, ,0.0004808403547446182, ,0.005480288559125315,-0.0003784670711693877,-0.004707637739867247,-0.013640623087184816,-0.01701260340298768,-0.0024683888519704024, ,0.007234545811940218, ,0.02180585404064335, ,4.969301678320177e-05, ,0.1793836392024869,-0.2400920423267658,0.09303084443000001,1.6838102461807307,0.5061015951311915,-1.2462234584259826, ,0.05883257381182317,0.020105284228489572,0.00527968562147829,0.009040545701853985,0.04106650246796018,-0.0018547669554453763, ,0.6415331363677979
0.010577670050574011,0.020781796124252173,-0.08238198155447812, ,0.010980174168695669,0.02060082879923871,-0.08264637317456376, ,0.0005144527836438732, ,0.005371576279297569,-0.00047205484476345994,-0.004743011934787532,0.012552880452079163,0.021325429110981068,0.007321566633953175, ,0.007181422541134447, ,0.024745681077944476, ,5.059356633002047e-05, ,0.18059610826374015,-0.2396595692858092,0.09315010311000001,1.684019936124215,0.5071946871293149,-1.2466247292147106, ,0.061541466639734616,0.02117762587781093,0.005460682728830992,0.0007551650095992653,0.08508636901021231,-0.029047531222113152, ,0.6672470569610596
0.010747658207545084,0.020765059496147403,-0.08252634097846312, ,0.011122908694265729,0.020584396422867024,-0.08276536522593775, ,0.00048019232054667986, ,0.006114266181081354,-0.0006601720432402804,-0.00494363704858427,-0.04212590436229827,-0.043775616690845356,0.007461124367023359, ,0.00789047687582482, ,0.060752748349786834, ,5.125001089375243e-05, ,0.18246500961930248,-0.2389954142586259,0.09331343565000001,1.684019936124215,0.5089709616262656,-1.2473380533014988, ,0.06351870251571003,0.023471912332048178,0.005453204902430675,0.0007551650095992653,0.02070731777754945,0.021829275794837226, ,0.6920950412750244
0.010853820234676067,0.02075582861841083,-0.08261344237322385, ,0.011265002445433697,0.02056789538466524,-0.08288433406954876, ,0.0005270408161873172, ,0.005469544930596181,-0.0006956125405536084,-0.004437072439965233,0.04077915788379396,0.033296842831167565,-0.009193998388446374, ,0.00707724596095719, ,0.05264617230639899, ,5.209569300395871e-05, ,0.1836697559476815,-0.23857838668341777,0.09341454627000001,1.6844393160111841,0.5104739631236854,-1.2481552565414566, ,0.06403302399357003,0.023431343594684143,0.005190228582600197,0.010371283663180212,0.09710480144198409,-0.05863951165901495, ,0.7173671722412109
0.011042179782022557,0.020732923901623075,-0.08276614250749723, ,0.011406456025563942,0.0205513286805594,-0.0830032805790262, ,0.0004710716197037012, ,0.0054992732431128925,-0.0006307313876643904,-0.004677732109116975,0.04000565972130535,0.04323913949331729,-0.0035858350485569184, ,0.007247137777803481, ,0.0589073509132756, ,5.2612206444133426e-05, ,0.1856853892278541,-0.23782155886174378,0.09358565655000001,1.6844393160111841,0.5118403281213398,-1.2482892906967342, ,0.06468775839023229,0.023287593020483624,0.005500280220994476,0.007973992774617083,0.10868301500976421,-0.05728204050667347, ,0.7420871257781982
0.011157564456873405,0.020720397089978332,-0.08286822367432839, ,0.011547270047498654,0.020534699291137787,-0.08312220561567243, ,0.0005008602064325806, ,0.0061375676960553965,-0.0005880012024107431,-0.005481960505193489,-0.01394567725624955,-0.017119375417383138,-0.0013906484909487788, ,0.008250295365512708, ,0.02208064591142956, ,5.348572987700031e-05, ,0.18699825381647228,-0.23734274942354186,0.09370361894000001,1.6844393160111841,0.513753239118056,-1.2496041051280624, ,0.06442426446603583,0.024552895616680667,0.0061264659692307705,0.006952920313342687,0.04716969592493805,-0.006059044039395337, ,0.7637190818786621
0.011282016253220712,0.020711286074961296,-0.08297939688217629, ,0.01168744513353165,0.020518010181678994,-0.08324111002850366, ,0.0005198287399469445, ,0.006182627734108163,-0.000352729612585392,-0.005909073516595015,-0.0267508685290483,-0.011678638056379767,0.0023715175153058194, ,0.008559582565913052, ,0.0291890312738529, ,5.43981810728028e-05, ,0.18828795020646777,-0.23686393998533994,0.09382806278000001,1.6848586958981533,0.5145730581166488,-1.2496191826291165, ,0.06424979117025781,0.023230585448830058,0.006628718901373285,0.010065896471296212,0.05218532288981319,0.009878096458053525, ,0.785146951675415
0.011400495603588088,0.020696060526584913,-0.08308043493192538, ,0.011826981915381443,0.0205012643021813,-0.08335999465428849, ,0.0005458844031081515, ,0.006022558057900769,-0.000734135660311991,-0.004779146811658787,-0.013612675820133978,-0.002116199094741534,0.0001088786957019264, ,0.007723367463478321, ,0.013776183763999207, ,5.537807087937125e-05, ,0.18959309206221173,-0.23636196234851534,0.09394343259000001,1.6848586958981533,0.5160760596140685,-1.2503547071289336, ,0.06576364626366651,0.024483215056365006,0.005481352897453545,0.010065896471296212,0.06336473947644602,-0.004540062040721479, ,0.8082230091094971
0.011540180310296688,0.020678287651112015,-0.08319169108564325, ,0.01196588103416476,0.020484464587390897,-0.08347886031758746, ,0.0005488666997618504, ,0.0061468076482627905,-0.0005655142021441833,-0.00520729110504264,-0.010540771460892665,-0.0007056657168275529,0.00017461552380870933, ,0.008075823873155289, ,0.010564365729465492, ,5.6319802507569614e-05, ,0.19110674770555972,-0.23579820284869696,0.09407046901,1.6848586958981533,0.517442424611723,-1.250733777504633, ,0.06622256912663697,0.02373610344133836,0.005968082248032972,0.009763555162870871,0.06532188316612914,-0.006932470242097066, ,0.830312967300415
0.011667683564682141,0.020666362605876634,-0.08330778056744544, ,0.012104143140369478,0.02046761395683114,-0.08359770783079262, ,0.0005604068207459357, ,0.00628506198033827,-0.0006750357043890119,-0.005318965692235919,-0.0044987453002157994,-0.004088600427875622,0.0008392195733810484, ,0.00826129973636572, ,0.006079091912261393, ,5.7262548294436215e-05, ,0.19247367142429744,-0.2352807797461239,0.09420269059000001,1.6850683858416375,0.5189454261091428,-1.251305944524169, ,0.06725509678134002,0.02502556475698069,0.006070431219512196,0.005327618166892457,0.063783917689423,-0.015646062539208742, ,0.8518271446228027
0.011852396415608226,0.02064712556973274,-0.08346831205503108, ,0.01224176889382739,0.020450715314830264,-0.08371653799416591, ,0.0005018007890435779, ,0.00652326318609715,-0.00047377040117031435,-0.0058613274422483095,0.006407392752023023,-0.006844156330687574,-0.0023042126195096093, ,0.008782515606212637, ,0.009375348038317199, ,5.7916372671613735e-05, ,0.19446613650584738,-0.23454712012307258,0.09438676377,1.6850683858416375,0.5211316101053899,-1.252271843581906, ,0.06832033229551533,0.024165251224464168,0.006678746968553461,0.0044379642604881146,0.06201649554944267,-0.026619305804150645, ,0.8740341663360596
0.011926406592622207,0.020641538793809755,-0.08352798746249163, ,0.012378758963687078,0.020433771550551354,-0.08383535159587895, ,0.0005850321405462646, ,0.006868163032853195,-0.0007174621012900814,-0.005492177723661778,-0.06796442737815127,-0.0560135452991012,0.013755215973610086, ,0.008823289152063728, ,0.08807201962494844, ,5.9112527639987e-05, ,0.19521524159464715,-0.23428454720534894,0.09445417085,1.6852780757851225,0.5214048831049207,-1.2520046069484556, ,0.0686167328694655,0.02535995231386178,0.006119405117172494,0.00024114153554613533,0.013916824921462812,0.04670634660006591, ,0.8920700550079346
0.01212829886154145,0.0206271513335816,-0.08371526225401171, ,0.012515114028386332,0.02041678553802021,-0.08395414941205055, ,0.0005009459207532117, ,0.007132372093900996,-0.0002253488773770216,-0.007044932248490119,0.01487421502209243,-0.011145169233861373,-0.010731793171017023, ,0.010027591145843992, ,0.018586474986437562, ,5.992754066599207e-05, ,0.19733127040218468,-0.23351999665080073,0.09466805870000002,1.6854877657286067,0.5235910671011678,-1.252888827266052, ,0.07194612703447369,0.024874689792521828,0.00797237813813814,0.009421949133444464,0.05994746790433148,-0.03544615762491869, ,0.9156320095062256
0.01226993550600679,0.020613901969073287,-0.08383347108007014, ,0.01265083477562457,0.020399760136154056,-0.08407293220678529, ,0.0004982796498042587, ,0.006912235018633453,-0.0008444294463496392,-0.0054562381073132975,-0.0398208792500429,-0.05798262581622657,-0.005626059995585234, ,0.008846614512138685, ,0.07033979894736166, ,6.070046652775977e-05, ,0.19873680778529354,-0.23300257354822768,0.09480028028000001,1.6854877657286067,0.5240009766004642,-1.2528146872764387, ,0.06812415043680602,0.02694404927838466,0.00606349886562619,0.00832691249436297,0.008829899904421215,0.01652557675196094, ,0.9342160224914551
0.012335552293049171,0.020605241110154136,-0.08388707607948094, ,0.012785921902335153,0.020382698188790294,-0.08419170073221278, ,0.0005874983539292326, ,0.006536559330820154,-0.000730585906937011,-0.005329633703366902,0.05668462014248949,0.021365938566881904,-0.015662982451683106, ,0.008465539502288759, ,0.06057763190520009, ,6.178442080749425e-05, ,0.19944729920972218,-0.23273227789762982,0.0948625022,1.6854877657286067,0.5248207955990567,-1.2531564797380548, ,0.07172860284086982,0.026027685561840586,0.0062514958869701745,0.00786921191789184,0.09286822196606524,-0.07894519531729736, ,0.9521059989929199
0.012479612054070856,0.020593423972455532,-0.08401268345956166, ,0.012920376114657451,0.02036560252471563,-0.08431045572852487, ,0.0005786569737924099, ,0.007543713964849336,-0.0004128986867528077,-0.007112888228955255,-0.03137600656403041,-0.04774756482984646,-0.003259294303297493, ,0.01037647746909303, ,0.057133910393739246, ,6.27946637653779e-05, ,0.20090689572295062,-0.23220713206218255,0.0950050941,1.6854877657286067,0.5257772510974149,-1.253691368843508, ,0.07260668826202814,0.02670144669624952,0.00792872649079144,0.007094510661613822,0.024197133455343668,0.008685439638534074, ,0.969871997833252
0.012624114917100531,0.02058510816416693,-0.08415692672785524, ,0.013054198127908857,0.02034847595769355,-0.08442919792401417, ,0.0005613358830659874, ,0.0069315448116565904,-0.0005008437353713569,-0.007131425241987726,0.02538790966340158,0.018539701248630358,0.0009758126151308324, ,0.009957629432014621, ,0.031436705632435114, ,6.370408495743342e-05, ,0.20235876950330484,-0.2316588180281126,0.09516842664000001,1.6856974556720912,0.5271436160950693,-1.2543971541797696, ,0.071512390021455,0.02767481526931198,0.008131093169984687,0.0,0.09216938502337882,-0.04912198975243669, ,0.9887139797210693
0.012697681046917117,0.020579981410547475,-0.08422976002216888, ,0.013187388666556702,0.02033132128649446,-0.08454792803511176, ,0.0006347253693426379, ,0.007403678050625018,-0.0006593040773746512,-0.00706392341886245,-0.03523469272219919,-0.014709050495297088,0.0066523065037549945, ,0.010254176934854541, ,0.03818166733017891, ,6.50805669484222e-05, ,0.2031078745921046,-0.2313653541788921,0.09525138920000001,1.6859071456155759,0.5279634350936618,-1.2546572679012453, ,0.07396488040410817,0.029452806194435372,0.007968389954977489,0.006553097043526573,0.05997161319343149,0.012357069987107519, ,1.002838134765625
0.01284522958793439,0.02056689484792652,-0.08436209211849964, ,0.013319948464189959,0.020314141294923153,-0.08466664676642512, ,0.000618058171697605, ,0.007125502365332999,-0.0007481360033664822,-0.006332135461618923,0.009005577278258547,0.0094863312396583,-0.0017301132247977942, ,0.009561821528463665, ,0.013080171723762973, ,6.635819517665048e-05, ,0.2045906393039557,-0.23080931741194793,0.09540175884,1.6859071456155759,0.5290565270917854,-1.254731823729411, ,0.07460451380382924,0.02853185254313613,0.007364221692094315,0.006553097043526573,0.0846615460193366,-0.031873975993024696, ,1.0175890922546387
0.012872179040479981,0.020563859377327506,-0.08438582298790213, ,0.013451878263490981,0.02029693875184787,-0.08478535481077581, ,0.0007529432162884287, ,0.007330701236260231,-0.0007874786829966479,-0.006522859085287811,0.02156252421446102,0.004416783519578878,-0.007716669682048867, ,0.009844135002020398, ,0.022010234332002707, ,6.807478121743155e-05, ,0.2048686576874278,-0.23070119915170878,0.09542898093,1.6859071456155759,0.5293298000913162,-1.2548729807966632, ,0.07597833591550904,0.029553703381647704,0.007506508727615459,0.006553097043526573,0.08067343753653933,-0.04645190579571412, ,1.0319960117340088
0.013082398597470592,0.02054231764344494,-0.08458902035468925, ,0.013583178816207042,0.02027971641122887,-0.08490405284923691, ,0.0006472910529738894, ,0.00835395170888567,-0.0007188830304912903,-0.00822897624732006,0.010142146482957241,-0.0009230851390809859,-0.005369367629591943, ,0.01174824889270226, ,0.010184065186460875, ,6.93768365233488e-05, ,0.20699240922783954,-0.22983625306979563,0.09565972055000001,1.6859071456155759,0.5315159840875633,-1.2559205585945408, ,0.08338922808301474,0.033485159336087075,0.009342411448680353,0.006533371307129485,0.08296443758344944,-0.03827729860971231, ,1.0459671020507812
0.013171346075354766,0.02053608574528365,-0.08468152303455001, ,0.013713850883121671,0.020262477012147156,-0.08502274155117043, ,0.0006968524100434765, ,0.009043473613775943,-0.0005045082928703396,-0.009922864541522058,-0.005075185080901411,-0.013267728868953338,-0.003495177613958672, ,0.01343511013464469, ,0.014205282001537083, ,7.081294975605455e-05, ,0.20784963257687844,-0.22948873009045553,0.09576342375,1.6859071456155759,0.5321991665863905,-1.2560692544123202, ,0.08611337709480106,0.03555524224746001,0.011092487130919221,0.006170891440015251,0.07336071487667044,-0.025049350647346556, ,1.060215950012207
0.013359399099957618,0.02052196212659633,-0.08487796860128995, ,0.013843895234026217,0.020245223278832943,-0.08514142157426523, ,0.0006170318976830441, ,0.00932770835998273,-0.0008546296927599077,-0.009204041975115502,-0.0007411185613962638,-0.015868506382117793,-0.0027443053255863385, ,0.01313205710619348, ,0.015885801379480275, ,7.194058522449653e-05, ,0.20965675206944698,-0.22873190226878154,0.09598379305000002,1.6861168355590603,0.5337021680838104,-1.2565597426917159, ,0.0908974536000678,0.03743469095008709,0.010390614168297457,0.003193712431695604,0.07617781412455932,-0.03200749514103063, ,1.0753209590911865
0.013449442555524556,0.020514525630312717,-0.08496839539763641, ,0.013973312647691093,0.020227957920694258,-0.08526009356457348, ,0.0006645665852696717, ,0.009506944244730838,-0.0008312444260379434,-0.009652478771304115,-0.00755281661052777,-0.010041054549749203,0.001110792738358166, ,0.013573625256309257, ,0.01256454262728656, ,7.34414040525774e-05, ,0.2105371436171086,-0.2283766565565672,0.09608619996000001,1.6861168355590603,0.5345219870824031,-1.2569015351533321, ,0.09231219995960192,0.03838873040391213,0.010895219917920657,0.0031621824573871797,0.0837959879382862,-0.025260743320511897, ,1.0859110355377197
0.013546270438584139,0.02050448122130187,-0.08506367756039364, ,0.014102103911836757,0.020210683632345457,-0.08537875815654856, ,0.0007032379791635363, ,0.010101752563457335,-0.0012659584334119094,-0.009734308466986478,0.0037232260271837583,-0.008714098382895741,-0.003982884701633513, ,0.014085624478129758, ,0.009476171973610933, ,7.504045626120589e-05, ,0.21147931702776399,-0.2279673517142333,0.09619379203,1.686326525502545,0.5353418060809957,-1.2572433276149484, ,0.099368525192116,0.043650847083013235,0.011008162764340015,0.0036388631942490604,0.09202559988746516,-0.041957563324512434, ,1.0971081256866455
0.013684283771310032,0.02049120013003504,-0.08519913769956614, ,0.01423026982310517,0.020193403093636354,-0.08549741597308208, ,0.0006897490645838785, ,0.010819787193991409,-0.0010228046959417387,-0.010550943036225582,-0.02290779707539185,-0.010967001218350902,0.006628158996826927, ,0.015147155618233347, ,0.02539768004791417, ,7.656382575563299e-05, ,0.2128385180136275,-0.22741131494728914,0.09634805054000001,1.686326525502545,0.5367081710786501,-1.257867434211069, ,0.10555833321298196,0.04325293598836408,0.011994586987951809,0.0036388631942490604,0.09664240311206744,-0.013028338232101613, ,1.1077051162719727
0.013789815139666154,0.020478002735746664,-0.08530176180141409, ,0.01435781118703059,0.020176118969679947,-0.08561606762553986, ,0.0007159200158646395, ,0.010802943270950107,-0.0013005330466060424,-0.010475355452341033,0.024136333991606407,0.01673493474705121,-0.003495095937808448, ,0.015103908149004735, ,0.02937040233645168, ,7.814248984198928e-05, ,0.2138810869516478,-0.2269556737077099,0.09646471664,1.686326525502545,0.5378012630767736,-1.2582687049997971, ,0.10796011553864708,0.046291191004132086,0.011994586987951809,0.0036388631942490604,0.12674832844419703,-0.0639129068866238, ,1.1187021732330322
0.013900191405547725,0.02046682236610549,-0.08540973359866647, ,0.014484728818010611,0.020158833910881566,-0.08573471371380105, ,0.0007363103627906598, ,0.01136646846407499,-0.0009923079643885258,-0.010908057698801207,-0.031101014636618084,-0.009730136892675755,0.010782547745755974, ,0.015785024650008514, ,0.03258755162551186, ,7.975626120296899e-05, ,0.21496226955403921,-0.22650775520100486,0.09658786419000001,1.686326525502545,0.5388943550748971,-1.2586699757885254, ,0.11086091303559671,0.04391343894422526,0.012483394608150471,0.0036388631942490604,0.10354514261730349,-0.004565475728454879, ,1.1295220851898193
0.014015275630561267,0.02045535791377239,-0.08552226671071901, ,0.014611023539277145,0.020141550552967454,-0.08585335482629285, ,0.0007503399034497199, ,0.011594182327431615,-0.0013347878374858567,-0.011341119917219467,0.01269576325780618,-0.014849879445398213,-0.008669862144549846, ,0.016273528301802894, ,0.019537173199336455, ,8.138387623430917e-05, ,0.21608206582080178,-0.2260443912285514,0.09671619690000001,1.686326525502545,0.5399874470730207,-1.2590712465772533, ,0.11151226975143451,0.04869006750049809,0.012845815741935485,0.0036388631942490604,0.09791179199509185,-0.0562736016036053, ,1.1407830715179443
0.01413652559110984,0.020440362613172496,-0.08563779248825372, ,0.014736696182867158,0.02012427151701296,-0.08597199154002845, ,0.00075617942744351, ,0.012031729078138818,-0.0014103611045894605,-0.01119431956042666,-0.03011437061848003,-0.030450721533272107,0.0029260074819616034, ,0.016494375207203846, ,0.0428266457226847, ,8.326176128169806e-05, ,0.2172481984848097,-0.22553469085885258,0.09684712219000001,1.686326525502545,0.5409439025713787,-1.2592794207221443, ,0.11544640092271385,0.04911849977146521,0.012722692907348242,0.0036388631942490604,0.0867124222891635,-0.012151432331988468, ,1.1479151248931885
0.01413652559110984,0.020440362613172496,-0.08563779248825372, ,0.014861747589593511,0.020106999409471714,-0.08609062442064389, ,0.0009176789916188066, ,0.012031729078138818,-0.0014103611045894605,-0.01119431956042666,-0.03011437061848003,-0.030450721533272107,0.0029260074819616034, ,0.016494375207203846, ,0.0428266457226847, ,8.562388539822451e-05, ,0.2172481984848097,-0.22553469085885258,0.09684712219000001,1.686326525502545,0.5409439025713787,-1.2592794207221443, ,0.11544640092271385,0.04911849977146521,0.012722692907348242,0.0036388631942490604,0.0867124222891635,-0.012151432331988468, ,1.1550471782684326
0.014246756658642612,0.020427323242230705,-0.08574240153038068, ,0.014986178609015716,0.02008973682220356,-0.08620925402243433, ,0.0009373690100579461, ,0.012496301384839347,-0.0014986486032785855,-0.012082334536450454,0.03465060137574072,0.01077150522117157,-0.008914883709983253, ,0.017446670277951323, ,0.036286212849287805, ,8.801801427091668e-05, ,0.21831393562145265,-0.22507904961927333,0.09696638087000001,1.686326525502545,0.5419003580697368,-1.2598143098275976, ,0.12244766652705909,0.05280853731690082,0.013851140452173914,0.0036388631942490604,0.13516412675714382,-0.08122594054589884, ,1.1624910831451416
0.014334594956937414,0.02041749168265867,-0.08583038262541845, ,0.015109990099410468,0.02007248633250345,-0.08632788088839059, ,0.0009837534448563995, ,0.01326393714788561,-0.0013071797842824206,-0.013661812346240065,0.027926789174816644,0.020273222669484732,-0.0037028372838655206, ,0.019086274236617632, ,0.03450954411598062, ,9.052645345201782e-05, ,0.2191788817033658,-0.22470835844131057,0.09706749149,1.686326525502545,0.5429934500678604,-1.2604606168367474, ,0.12823911021414972,0.05498084678938052,0.015616481882352944,0.0036388631942490604,0.15105658240849673,-0.0752787458121812, ,1.1701991558074951
0.014527313151740948,0.020404079565021133,-0.08603936362523844, ,0.015233182927742424,0.020055250503130107,-0.08644650555023661, ,0.0008863963008628627, ,0.01365224730162999,-0.000863733761426512,-0.014720547243118354,-0.011529996262602621,-0.03921300372044203,-0.005623413122066743, ,0.020095382642098925, ,0.040872971305857986, ,9.270343923584135e-05, ,0.22098600119593434,-0.22395153061963655,0.09730471256,1.686326525502545,0.5449063610645766,-1.2613670375673727, ,0.12340304493949386,0.05208394157984127,0.016540821931464174,0.0034293142456036413,0.08545249686536077,-0.03502310459122328, ,1.1774351596832275
0.014527313151740948,0.020404079565021133,-0.08603936362523844, ,0.01535575796963463,0.02003803188233418,-0.08656512852846468, ,0.0010472537685584545, ,0.01365224730162999,-0.000863733761426512,-0.014720547243118354,-0.011529996262602621,-0.03921300372044203,-0.005623413122066743, ,0.020095382642098925, ,0.040872971305857986, ,9.534714135267194e-05, ,0.22098600119593434,-0.22395153061963655,0.09730471256,1.686326525502545,0.5449063610645766,-1.2613670375673727, ,0.12340304493949386,0.05208394157984127,0.016540821931464174,0.0034293142456036413,0.08545249686536077,-0.03502310459122328, ,1.1846411228179932
0.01467668302722751,0.02039333529044174,-0.08619774557697571, ,0.015477716109339172,0.020020833003887333,-0.0866837503323735, ,0.0010082720735966211, ,0.015324088631885007,-0.0010878261250206948,-0.01657608128507836,0.013140563610225134,0.006056272642412108,-0.0016191932870335446, ,0.022600387802992894, ,0.014468987486192696, ,9.78397565688039e-05, ,0.2223529249146721,-0.2233646029211955,0.09748360058000001,1.6865362154460295,0.5459994530627,-1.2616866296159601, ,0.1427021677570989,0.06017561290962003,0.01885066452071006,0.003588627978829179,0.15149523013437685,-0.06495596649940347, ,1.1917469501495361
0.014841573124203599,0.020383665856428555,-0.08639184445772277, ,0.015599058239707475,0.02000365638711015,-0.08680237146010307, ,0.0009416598731309139, ,0.01544917548654886,-0.0007063726886489402,-0.018970718406873765,0.05162292106472796,0.05549264382064828,-0.0034309210616128806, ,0.024475786860943826, ,0.07579153673321831, ,0.00010010030311423814, ,0.22378163049640362,-0.22274678429125752,0.0976884144,1.6865362154460295,0.5479123640594162,-1.2627564078268665, ,0.1420612897581898,0.06230921967069651,0.02155454874154263,0.003588627978829179,0.20292353264657145,-0.12319657485407783, ,1.1989669799804688
0.014841573124203599,0.020383665856428555,-0.08639184445772277, ,0.015719785262160956,0.019986504536901425,-0.08692099239867225, ,0.001099541366386566, ,0.01544917548654886,-0.0007063726886489402,-0.018970718406873765,0.05162292106472796,0.05549264382064828,-0.0034309210616128806, ,0.024475786860943826, ,0.07579153673321831, ,0.0001028091608255577, ,0.22378163049640362,-0.22274678429125752,0.0976884144,1.6865362154460295,0.5479123640594162,-1.2627564078268665, ,0.1420612897581898,0.06230921967069651,0.02155454874154263,0.003588627978829179,0.20292353264657145,-0.12319657485407783, ,1.2067711353302002
0.014988691602982092,0.020377053775045662,-0.0865669593398949, ,0.015839898086661128,0.019969379943766002,-0.08703961362401486, ,0.0010555342262875285, ,0.016885014050652403,-0.0008194923417303404,-0.01884687453308456,-0.008715498881940186,-0.00803770202417849,0.003072244649290144, ,0.025317581773437903, ,0.011855892909163567, ,0.00010567019705817624, ,0.22521805881100937,-0.22212896566131957,0.09790230225,1.6865362154460295,0.549688638556367,-1.2633880531735144, ,0.15256743015831317,0.06292900633850848,0.02138095506040269,0.0035289996099699033,0.14748199814601617,-0.04496925775965486, ,1.21128511428833
0.014988691602982092,0.020377053775045662,-0.0865669593398949, ,0.015959397631680267,0.019952285083843786,-0.08715823560101535, ,0.0012133862749103901, ,0.016885014050652403,-0.0008194923417303404,-0.01884687453308456,-0.008715498881940186,-0.00803770202417849,0.003072244649290144, ,0.025317581773437903, ,0.011855892909163567, ,0.00010898671226132657, ,0.22521805881100937,-0.22212896566131957,0.09790230225,1.6865362154460295,0.549688638556367,-1.2633880531735144, ,0.15256743015831317,0.06292900633850848,0.02138095506040269,0.0035289996099699033,0.14748199814601617,-0.04496925775965486, ,1.2150020599365234
0.015169870680385516,0.02036507027427441,-0.08676477541838544, ,0.01607828482417142,0.019935222418938255,-0.08727685878354628, ,0.001127925001160017, ,0.017430329318883254,-0.0013677315078069196,-0.019301683716395734,-0.02280418646423706,-0.004782999890741682,0.006177767605968656, ,0.026043080922385994, ,0.02330032895112028, ,0.00011202831909385998, ,0.22685527818034498,-0.22143391970263937,0.09812656042000001,1.6865362154460295,0.5511916400537868,-1.2635518264923478, ,0.157374695785192,0.06998299524960973,0.02185022156378601,0.0033657874298019487,0.15597827512981133,-0.036799622573215465, ,1.2186200618743896
0.015169870680385516,0.02036507027427441,-0.08676477541838544, ,0.016196560599538928,0.019918194396544672,-0.08739548361450364, ,0.0012851393188439285, ,0.017430329318883254,-0.0013677315078069196,-0.019301683716395734,-0.02280418646423706,-0.004782999890741682,0.006177767605968656, ,0.026043080922385994, ,0.02330032895112028, ,0.000626042358311081, ,0.22685527818034498,-0.22143391970263937,0.09812656042000001,1.6865362154460295,0.5511916400537868,-1.2635518264923478, ,0.157374695785192,0.06998299524960973,0.02185022156378601,0.0033657874298019487,0.15597827512981133,-0.036799622573215465, ,1.2221791744232178
0.015169870680385516,0.02036507027427441,-0.08676477541838544, ,0.01631422590160848,0.019901203449878824,-0.08751411052584346, ,0.0014443768228492963, ,0.017430329318883254,-0.0013677315078069196,-0.019301683716395734,-0.02280418646423706,-0.004782999890741682,0.006177767605968656, ,0.026043080922385994, ,0.02330032895112028, ,0.000639031794256132, ,0.22685527818034498,-0.22143391970263937,0.09812656042000001,1.6865362154460295,0.5511916400537868,-1.2635518264923478, ,0.157374695785192,0.06998299524960973,0.02185022156378601,0.0033657874298019487,0.15597827512981133,-0.036799622573215465, ,1.225715160369873
0.015343149425986313,0.020351515132580992,-0.08696623197335104, ,0.01643128168259742,0.01988425199790565,-0.08763273993861759, ,0.001358896431913762, ,0.01933198296521332,-0.0010674053868477821,-0.023926979416076275,0.06916374701633636,0.07424763888410965,-0.005948906017440408, ,0.030779299270849353, ,0.10147082309205172, ,0.0006502796792195324, ,0.22842299295381255,-0.22071570554533648,0.09835470746000001,1.6865362154460295,0.5531045510505029,-1.2643765684828328, ,0.1741228285476528,0.07914674024893309,0.027135965110732543,0.0032317126015496424,0.25282176014421504,-0.13720962073412185, ,1.2293369770050049
0.015343149425986313,0.020351515132580992,-0.08696623197335104, ,0.01654772890308494,0.019867342445367586,-0.08775137226301095, ,0.0015171948398732132, ,0.01933198296521332,-0.0010674053868477821,-0.023926979416076275,0.06916374701633636,0.07424763888410965,-0.005948906017440408, ,0.030779299270849353, ,0.10147082309205172, ,0.0006636168355372813, ,0.22842299295381255,-0.22071570554533648,0.09835470746000001,1.6865362154460295,0.5531045510505029,-1.2643765684828328, ,0.1741228285476528,0.07914674024893309,0.027135965110732543,0.0032317126015496424,0.25282176014421504,-0.13720962073412185, ,1.2330310344696045
0.015343149425986313,0.020351515132580992,-0.08724605670523043, ,0.01666356853198219,0.019850477182813374,-0.08787000789837628, ,0.0016767100420888245, ,0.02167391713875739,-0.00032501478791961463,-0.028849698374072988,0.10568121658279442,0.11047854492155249,-0.007942435350426281, ,0.030779299270849353, ,0.10147082309205172, ,0.0006789667326062441, ,0.23029189430937488,-0.21988937312779447,0.09866192819000001,1.6865362154460295,0.5563838270448734,-1.2663154895102817, ,0.1909395202383718,0.08346256953251607,0.03264100721311476,0.003099223136012708,0.30960525707500136,-0.17893933518830457, ,1.2378981113433838
0.015557379246095472,0.020344870666848806,-0.08724605670523043, ,0.016778801546502298,0.01983365858662617,-0.08798864723327125, ,0.0015181076770876972, ,0.02167391713875739,-0.00032501478791961463,-0.028849698374072988,0.10568121658279442,0.11047854492155249,-0.007942435350426281, ,0.03608558458754794, ,0.15288560573611984, ,0.0006914912243149225, ,0.23029189430937488,-0.21988937312779447,0.09866192819000001,1.6865362154460295,0.5563838270448734,-1.2663154895102817, ,0.1909395202383718,0.08346256953251607,0.03264100721311476,0.003099223136012708,0.30960525707500136,-0.17893933518830457, ,1.2415080070495605
0.015557379246095472,0.020344870666848806,-0.08724605670523043, ,0.0168934289321307,0.019816889019052344,-0.08810729064549402, ,0.0016749678456097763, ,0.02167391713875739,-0.00032501478791961463,-0.028849698374072988,0.10568121658279442,0.11047854492155249,-0.007942435350426281, ,0.03608558458754794, ,0.15288560573611984, ,0.0007059541158045526, ,0.23029189430937488,-0.21988937312779447,0.09866192819000001,1.6865362154460295,0.5563838270448734,-1.2663154895102817, ,0.1909395202383718,0.08346256953251607,0.03264100721311476,0.003099223136012708,0.30960525707500136,-0.17893933518830457, ,1.2450850009918213
0.01578331491920435,0.020344663077184518,-0.08754654591021402, ,0.01700745168259506,0.019800170828230167,-0.08822593850211975, ,0.00150218404950673, ,0.024167947142459754,9.681635239101351e-05,-0.032350296508162416,0.008443598259917725,0.052915457809306614,0.01644679595969481, ,0.04038119273440105, ,0.0535845555649893, ,0.000717493680061106, ,0.23229980485667326,-0.2190167043130071,0.09901322278000001,1.6867459053895137,0.5592531935399478,-1.2675117631259387, ,0.20364150549028065,0.08746261894789933,0.03645036961098399,-0.001465321421062103,0.2632882717763419,-0.08195856320603537, ,1.2486281394958496
0.01578331491920435,0.020344663077184518,-0.08754654591021402, ,0.017120870799835285,0.01978350634821779,-0.08834459115953604, ,0.00165554487352064, ,0.024167947142459754,9.681635239101351e-05,-0.032350296508162416,0.008443598259917725,0.052915457809306614,0.01644679595969481, ,0.04038119273440105, ,0.0535845555649893, ,0.0007308944113962422, ,0.23229980485667326,-0.2190167043130071,0.09901322278000001,1.6867459053895137,0.5592531935399478,-1.2675117631259387, ,0.20364150549028065,0.08746261894789933,0.03645036961098399,-0.001465321421062103,0.2632882717763419,-0.08195856320603537, ,1.2522101402282715
0.01578331491920435,0.020344663077184518,-0.08754654591021402, ,0.01723368729397357,0.019766897899022313,-0.0884632489634798, ,0.0018104521850789976, ,0.024167947142459754,9.681635239101351e-05,-0.032350296508162416,0.008443598259917725,0.052915457809306614,0.01644679595969481, ,0.04038119273440105, ,0.0535845555649893, ,0.0007460994504621965, ,0.23229980485667326,-0.2190167043130071,0.09901322278000001,1.6867459053895137,0.5592531935399478,-1.2675117631259387, ,0.20364150549028065,0.08746261894789933,0.03645036961098399,-0.001465321421062103,0.2632882717763419,-0.08195856320603537, ,1.2558720111846924
0.016041162432504877,0.020343239503107905,-0.08789232599980136, ,0.017345902183284564,0.019750347786628104,-0.08858191224907234, ,0.0015904073691726376, ,0.026428341460703865,-0.000128764043977432,-0.036034683629375654,0.01744824999488046,0.06892210794631408,0.014584013757855441, ,0.04468749530698463, ,0.0710959748061276, ,0.0007578259493331748, ,0.2344544473285819,-0.21805908543660327,0.09940210978000001,1.6867459053895137,0.5619859235352566,-1.2682699038773368, ,0.21966884620016383,0.09905735026980249,0.040531327022900764,-0.001465321421062103,0.2958571469810982,-0.10135245905135998, ,1.2595410346984863
0.016041162432504877,0.020343239503107905,-0.08789232599980136, ,0.017457516494165066,0.01973385830302507,-0.08870058134085565, ,0.0017408851114701673, ,0.026428341460703865,-0.000128764043977432,-0.036034683629375654,0.01744824999488046,0.06892210794631408,0.014584013757855441, ,0.04468749530698463, ,0.0710959748061276, ,0.0007712925131980651, ,0.2344544473285819,-0.21805908543660327,0.09940210978000001,1.6867459053895137,0.5619859235352566,-1.2682699038773368, ,0.21966884620016383,0.09905735026980249,0.040531327022900764,-0.001465321421062103,0.2958571469810982,-0.10135245905135998, ,1.2632050514221191
0.016041162432504877,0.020343239503107905,-0.08789232599980136, ,0.017568531261104196,0.019717431726237588,-0.0888192565528288, ,0.001893063961493106, ,0.026428341460703865,-0.000128764043977432,-0.036034683629375654,0.01744824999488046,0.06892210794631408,0.014584013757855441, ,0.04468749530698463, ,0.0710959748061276, ,0.0007864515868236738, ,0.2344544473285819,-0.21805908543660327,0.09940210978000001,1.6867459053895137,0.5619859235352566,-1.2682699038773368, ,0.21966884620016383,0.09905735026980249,0.040531327022900764,-0.001465321421062103,0.2958571469810982,-0.10135245905135998, ,1.2669410705566406
0.01628840464082694,0.020339067780942133,-0.08823751207526452, ,0.01767894752665322,0.019701070320352884,-0.08893793818848374, ,0.0016826309806727653, ,0.027229070452237242,-0.0006161823794871717,-0.037725147843330635,0.025830710896143118,0.0898149238228343,0.01747510558884507, ,0.046529439478880934, ,0.09345517511567074, ,0.0007984006454083283, ,0.23650097154025138,-0.2170937438273252,0.09978970049000001,1.6865362154460295,0.5649919265300962,-1.269414237916409, ,0.2243426514384652,0.10771503014582383,0.04236386042553192,-0.006596893378370046,0.32288255944571775,-0.11876140860873269, ,1.2706220149993896
0.01628840464082694,0.020339067780942133,-0.08823751207526452, ,0.017788766341395663,0.01968477633554926,-0.0890566265408405, ,0.0018303363176650307, ,0.027229070452237242,-0.0006161823794871717,-0.037725147843330635,0.025830710896143118,0.0898149238228343,0.01747510558884507, ,0.046529439478880934, ,0.09345517511567074, ,0.0008119787463590744, ,0.23650097154025138,-0.2170937438273252,0.09978970049000001,1.6865362154460295,0.5649919265300962,-1.269414237916409, ,0.2243426514384652,0.10771503014582383,0.04236386042553192,-0.006596893378370046,0.32288255944571775,-0.11876140860873269, ,1.2742090225219727
0.016596780369984382,0.020327988493285248,-0.0886412413489927, ,0.017897988763916864,0.019668552008125097,-0.08917532189248395, ,0.0015534612287844928, ,0.02902058783684498,-0.0016188666055521597,-0.03574030183134002,-0.028769549770514765,0.027247762957374355,0.02131556413476933, ,0.04606717293776441, ,0.03962409953209396, ,0.0008216083889879759, ,0.2390571961216197,-0.21588899749894616,0.10024469828000002,1.6865362154460295,0.5682712025244668,-1.2705363715424527, ,0.2427031753413575,0.11324217369745916,0.040428455634517774,-0.006473158607442966,0.278208667625142,-0.06952989235622932, ,1.2778041362762451
0.016596780369984382,0.020327988493285248,-0.0886412413489927, ,0.018006615860774153,0.01965239956052688,-0.08929402451559931, ,0.0016941612614391163, ,0.02902058783684498,-0.0016188666055521597,-0.03574030183134002,-0.028769549770514765,0.027247762957374355,0.02131556413476933, ,0.04606717293776441, ,0.03962409953209396, ,0.000832794964275811, ,0.2390571961216197,-0.21588899749894616,0.10024469828000002,1.6865362154460295,0.5682712025244668,-1.2705363715424527, ,0.2427031753413575,0.11324217369745916,0.040428455634517774,-0.006473158607442966,0.278208667625142,-0.06952989235622932, ,1.2816290855407715
0.016596780369984382,0.020327988493285248,-0.0886412413489927, ,0.018114648706466816,0.01963632120137801,-0.08941273467200798, ,0.00183780572342329, ,0.02902058783684498,-0.0016188666055521597,-0.03574030183134002,-0.028769549770514765,0.027247762957374355,0.02131556413476933, ,0.04606717293776441, ,0.03962409953209396, ,0.000845516619454893, ,0.2390571961216197,-0.21588899749894616,0.10024469828000002,1.6865362154460295,0.5682712025244668,-1.2705363715424527, ,0.2427031753413575,0.11324217369745916,0.040428455634517774,-0.006473158607442966,0.278208667625142,-0.06952989235622932, ,1.285228967666626
0.01690117315669782,0.020303586370584034,-0.08899991604350009, ,0.018222088383405523,0.019620319125507383,-0.08953145261320411, ,0.0015793043687888715, ,0.030278739769911266,-0.003319825839292338,-0.03400580856853214,-0.03202238340230551,0.005516449225381864,0.011857950285555441, ,0.04565324021421583, ,0.03249336511616192, ,0.0008546889663215678, ,0.24162886616873647,-0.21466108297194447,0.10065173334000001,1.6865362154460295,0.571140569019541,-1.2713242514574068, ,0.2578721238001923,0.12686756892843687,0.03866216388349515,-0.006171641962724499,0.271067050228888,-0.08054687662096689, ,1.288769006729126
0.01690117315669782,0.020303586370584034,-0.08899991604350009, ,0.018328935981882555,0.019604395513977378,-0.089650178580389, ,0.0017176192551968683, ,0.030278739769911266,-0.003319825839292338,-0.03400580856853214,-0.03202238340230551,0.005516449225381864,0.011857950285555441, ,0.04565324021421583, ,0.03249336511616192, ,0.0008653424266780531, ,0.24162886616873647,-0.21466108297194447,0.10065173334000001,1.6865362154460295,0.571140569019541,-1.2713242514574068, ,0.2578721238001923,0.12686756892843687,0.03866216388349515,-0.006171641962724499,0.271067050228888,-0.08054687662096689, ,1.292349100112915
0.01690117315669782,0.020303586370584034,-0.08899991604350009, ,0.01843519260004152,0.01958855253411308,-0.08976891280450824, ,0.0018589903330291735, ,0.030278739769911266,-0.003319825839292338,-0.03400580856853214,-0.03202238340230551,0.005516449225381864,0.011857950285555441, ,0.04565324021421583, ,0.03249336511616192, ,0.000877460084072579, ,0.24162886616873647,-0.21466108297194447,0.10065173334000001,1.6865362154460295,0.571140569019541,-1.2713242514574068, ,0.2578721238001923,0.12686756892843687,0.03866216388349515,-0.006171641962724499,0.271067050228888,-0.08054687662096689, ,1.2959401607513428
0.01690117315669782,0.020303586370584034,-0.08899991604350009, ,0.01854085934384711,0.019572792339530205,-0.08988765550628708, ,0.0020026762249403703, ,0.030278739769911266,-0.003319825839292338,-0.03400580856853214,-0.03202238340230551,0.005516449225381864,0.011857950285555441, ,0.04565324021421583, ,0.03249336511616192, ,0.0008910169050468897, ,0.24162886616873647,-0.21466108297194447,0.10065173334000001,1.6865362154460295,0.571140569019541,-1.2713242514574068, ,0.2578721238001923,0.12686756892843687,0.03866216388349515,-0.006171641962724499,0.271067050228888,-0.08054687662096689, ,1.299734115600586
0.01718650485071349,0.02026603620142814,-0.08930423622684391, ,0.01864593732705499,0.019557117070163995,-0.09000640689626656, ,0.0017679233967200132, ,0.0312480492888747,-0.004491921791592477,-0.03179233684892775,-0.010429250266396682,-0.007615750548723516,-0.00440069871453902, ,0.04480368989332704, ,0.012912646429800393, ,0.0009014562680429982, ,0.24408469522273984,-0.21344861391069123,0.10099913906,1.686326525502545,0.5736000260153189,-1.2721862713619743, ,0.2719110073308618,0.1340352281899305,0.036533971376146786,-0.0019340812689384523,0.270368648811229,-0.10988755826006848, ,1.3035130500793457
0.01718650485071349,0.02026603620142814,-0.08930423622684391, ,0.01875042767118154,0.0195415288522975,-0.09012516717483864, ,0.0019091079353196773, ,0.0312480492888747,-0.004491921791592477,-0.03179233684892775,-0.010429250266396682,-0.007615750548723516,-0.00440069871453902, ,0.04480368989332704, ,0.012912646429800393, ,0.0009133109935403709, ,0.24408469522273984,-0.21344861391069123,0.10099913906,1.686326525502545,0.5736000260153189,-1.2721862713619743, ,0.2719110073308618,0.1340352281899305,0.036533971376146786,-0.0019340812689384523,0.270368648811229,-0.10988755826006848, ,1.3071720600128174
0.017323888672325774,0.020244911134057096,-0.08944146170376312, ,0.018854331505473627,0.019526029798589993,-0.09024393653228226, ,0.0018716333750025441, ,0.031655273807428844,-0.004869547961169712,-0.030730058082008578,0.001278821824292046,-0.013636492676367185,-0.0015657795834695745, ,0.04438586854949494, ,0.013695324515504021, ,0.000924454277045745, ,0.24528944155111887,-0.21286168621225016,0.10115728644000001,1.6861168355590603,0.5748297545132081,-1.2727806387945395, ,0.2782901511978615,0.13498853706752598,0.03555538285714287,-0.01046592387451228,0.2722096804665584,-0.12537540560349217, ,1.3109560012817383
0.017323888672325774,0.020244911134057096,-0.08944146170376312, ,0.01895764996687847,0.01951062200810583,-0.09036271514879961, ,0.002014215578844622, ,0.031655273807428844,-0.004869547961169712,-0.030730058082008578,0.001278821824292046,-0.013636492676367185,-0.0015657795834695745, ,0.04438586854949494, ,0.013695324515504021, ,0.0009369802690204447, ,0.24528944155111887,-0.21286168621225016,0.10115728644000001,1.6861168355590603,0.5748297545132081,-1.2727806387945395, ,0.2782901511978615,0.13498853706752598,0.03555538285714287,-0.01046592387451228,0.2722096804665584,-0.12537540560349217, ,1.3146600723266602
0.017851049824591132,0.020147962198087392,-0.08991654914790083, ,0.019060384200013235,0.019495307566342664,-0.09048150319455156, ,0.0014858064391913405, ,0.032891140381232864,-0.006845032026747343,-0.028189791713071417,-0.07445758117913187,-0.11975183032612245,0.005792775548227332, ,0.04385596807563953, ,0.14101210749397114, ,0.000943216930045114, ,0.24992308127565357,-0.21056031181573126,0.10170820969000001,1.6856974556720912,0.5785189400068749,-1.2744003836119533, ,0.28669770863586336,0.14758466805360929,0.03264100721311476,-0.025875832651319344,0.17598460270988447,-0.06816533277738408, ,1.3183481693267822
0.017851049824591132,0.020147962198087392,-0.08991654914790083, ,0.019162535357134983,0.019480088545259865,-0.09060030082969316, ,0.0016228265096943813, ,0.032891140381232864,-0.006845032026747343,-0.028189791713071417,-0.07445758117913187,-0.11975183032612245,0.005792775548227332, ,0.04385596807563953, ,0.14101210749397114, ,0.0009508529927378024, ,0.24992308127565357,-0.21056031181573126,0.10170820969000001,1.6856974556720912,0.5785189400068749,-1.2744003836119533, ,0.28669770863586336,0.14758466805360929,0.03264100721311476,-0.025875832651319344,0.17598460270988447,-0.06816533277738408, ,1.3219001293182373
0.017851049824591132,0.020147962198087392,-0.08991654914790083, ,0.019264104598110177,0.0194649670033073,-0.09071910820440973, ,0.0017627555894797545, ,0.032891140381232864,-0.006845032026747343,-0.028189791713071417,-0.07445758117913187,-0.11975183032612245,0.005792775548227332, ,0.04385596807563953, ,0.14101210749397114, ,0.000959874132701602, ,0.24992308127565357,-0.21056031181573126,0.10170820969000001,1.6856974556720912,0.5785189400068749,-1.2744003836119533, ,0.28669770863586336,0.14758466805360929,0.03264100721311476,-0.025875832651319344,0.17598460270988447,-0.06816533277738408, ,1.3254749774932861
0.018180943944618923,0.02008032940494869,-0.09020449367248437, ,0.019365093090384575,0.01944994498545363,-0.09083792545895247, ,0.0014835193102443328, ,0.033581212761832006,-0.0069080057782233695,-0.030059885623611313,-0.0427185445743387,-0.10934097128948563,-0.005717981419959461, ,0.045596218243314765, ,0.11738951192321602, ,0.0009656284753119616, ,0.2527727697062424,-0.20906982437100594,0.10204135622,1.6856974556720912,0.5802952145038256,-1.2753587439191634, ,0.2875664895711236,0.15183510649355325,0.03470329307189543,-0.025875832651319344,0.18675784736251577,-0.10548119748747412, ,1.3290271759033203
0.018180943944618923,0.02008032940494869,-0.09020449367248437, ,0.019465502008953087,0.019435024523215123,-0.09095675272367457, ,0.0016224677165147796, ,0.033581212761832006,-0.0069080057782233695,-0.030059885623611313,-0.0427185445743387,-0.10934097128948563,-0.005717981419959461, ,0.045596218243314765, ,0.11738951192321602, ,0.0009727680322815575, ,0.2527727697062424,-0.20906982437100594,0.10204135622,1.6856974556720912,0.5802952145038256,-1.2753587439191634, ,0.2875664895711236,0.15183510649355325,0.03470329307189543,-0.025875832651319344,0.18675784736251577,-0.10548119748747412, ,1.33262300491333
0.018180943944618923,0.02008032940494869,-0.09020449367248437, ,0.019565332536329093,0.019420207634683266,-0.0910755901190661, ,0.0017638314952633505, ,0.033581212761832006,-0.0069080057782233695,-0.030059885623611313,-0.0427185445743387,-0.10934097128948563,-0.005717981419959461, ,0.045596218243314765, ,0.11738951192321602, ,0.0009812740910232973, ,0.2527727697062424,-0.20906982437100594,0.10204135622,1.6856974556720912,0.5802952145038256,-1.2753587439191634, ,0.2875664895711236,0.15183510649355325,0.03470329307189543,-0.025875832651319344,0.18675784736251577,-0.10548119748747412, ,1.3363840579986572
0.01836876978550734,0.020041891105732117,-0.09037728952466309, ,0.01966458586251445,0.01940549632455466,-0.09119443775579053, ,0.0016588757803327853, ,0.033893152789107206,-0.006787573738954317,-0.031526070109573354,-0.006867012262220766,-0.08438535625691727,-0.013447045697892603, ,0.04678365162961568, ,0.0846641191168007, ,0.0009884826196329727, ,0.2543790981440811,-0.2082048782890928,0.10224098488000001,1.6856974556720912,0.5815249430017145,-1.2761981475721502, ,0.2875664895711236,0.15355492161564852,0.0363671495890411,-0.025875832651319344,0.21161952471864537,-0.14367008694788466, ,1.3401939868927002
0.01836876978550734,0.020041891105732117,-0.09037728952466309, ,0.019763263184969182,0.019390892584158152,-0.09131329573472055, ,0.0018012547131097988, ,0.033893152789107206,-0.006787573738954317,-0.031526070109573354,-0.006867012262220766,-0.08438535625691727,-0.013447045697892603, ,0.04678365162961568, ,0.0846641191168007, ,0.0009970381153537812, ,0.2543790981440811,-0.2082048782890928,0.10224098488000001,1.6856974556720912,0.5815249430017145,-1.2761981475721502, ,0.2875664895711236,0.15355492161564852,0.0363671495890411,-0.025875832651319344,0.21161952471864537,-0.14367008694788466, ,1.343825101852417
0.01836876978550734,0.020041891105732117,-0.09037728952466309, ,0.01986136570858109,0.019376398391484178,-0.09143216414697301, ,0.0019451178913081253, ,0.033893152789107206,-0.006787573738954317,-0.031526070109573354,-0.006867012262220766,-0.08438535625691727,-0.013447045697892603, ,0.04678365162961568, ,0.0846641191168007, ,0.0010069139463533057, ,0.2543790981440811,-0.2082048782890928,0.10224098488000001,1.6856974556720912,0.5815249430017145,-1.2761981475721502, ,0.2875664895711236,0.15355492161564852,0.0363671495890411,-0.025875832651319344,0.21161952471864537,-0.14367008694788466, ,1.3474321365356445
0.018859573372613334,0.019948318640852045,-0.09084244187418819, ,0.019958894645635356,0.019362015711212995,-0.09155104307394493, ,0.0014333087758465677, ,0.034318842713562704,-0.006739462638354466,-0.03296471245996107,0.015016500758584335,-0.07386053719500343,-0.02825856194725809, ,0.04806116508596046, ,0.0753713163157458, ,0.0010113097693377723, ,0.25851076023179126,-0.20601162215281302,0.10277894523000002,1.6854877657286067,0.584804218996085,-1.2785454623003019, ,0.2849758004758882,0.15531414330355284,0.03801625661097852,-0.0180876605519215,0.2175702098118093,-0.16624581043703507, ,1.3509700298309326
0.018859573372613334,0.019948318640852045,-0.09084244187418819, ,0.020055851215784397,0.01934774649474313,-0.0916699325873497, ,0.0015736926196409616, ,0.034318842713562704,-0.006739462638354466,-0.03296471245996107,0.015016500758584335,-0.07386053719500343,-0.02825856194725809, ,0.04806116508596046, ,0.0753713163157458, ,0.0010170483698510701, ,0.25851076023179126,-0.20601162215281302,0.10277894523000002,1.6854877657286067,0.584804218996085,-1.2785454623003019, ,0.2849758004758882,0.15531414330355284,0.03801625661097852,-0.0180876605519215,0.2175702098118093,-0.16624581043703507, ,1.3545379638671875
0.019215761468154857,0.019876627704923253,-0.09118688882543437, ,0.0201522366460175,0.01933359268021992,-0.09178883274925223, ,0.00123863202131572, ,0.03497246944192135,-0.006799472623171097,-0.03437283249545102,-0.035868431896923375,-0.1060383139278695,-0.02332782143249237, ,0.049505535655921445, ,0.11194025391074318, ,0.0010192865885527331, ,0.2614222305253739,-0.2043975709821001,0.10317431368,1.6850683858416375,0.5867171299928012,-1.2797785979914895, ,0.2824313736859249,0.15789840525535903,0.03942775128712872,-0.015738194362204326,0.1822854044642589,-0.11656074558668547, ,1.3584301471710205
0.019215761468154857,0.019876627704923253,-0.09118688882543437, ,0.02024805217063034,0.01931955619256402,-0.09190774361210481, ,0.0013768022326264657, ,0.03497246944192135,-0.006799472623171097,-0.03437283249545102,-0.035868431896923375,-0.1060383139278695,-0.02332782143249237, ,0.049505535655921445, ,0.11194025391074318, ,0.0010228617449934705, ,0.2614222305253739,-0.2043975709821001,0.10317431368,1.6850683858416375,0.5867171299928012,-1.2797785979914895, ,0.2824313736859249,0.15789840525535903,0.03942775128712872,-0.015738194362204326,0.1822854044642589,-0.11656074558668547, ,1.3619880676269531
0.019215761468154857,0.019876627704923253,-0.09118688882543437, ,0.020343299031194865,0.019305638943499813,-0.0920266652187828, ,0.001517429903673769, ,0.03497246944192135,-0.006799472623171097,-0.03437283249545102,-0.035868431896923375,-0.1060383139278695,-0.02332782143249237, ,0.049505535655921445, ,0.11194025391074318, ,0.0010277584594358498, ,0.2640093460382391,-0.20294569720174588,0.10353597859000001,1.6844393160111841,0.5883567679899866,-1.280462182914722, ,0.2719110073308618,0.1558242061715448,0.039330398814814815,-0.0829554267329838,0.17047643319165437,-0.06764951948465464, ,1.3683350086212158
0.019537273574391178,0.01981102768992502,-0.09150243425355441, ,0.020437978476528694,0.01929184283158401,-0.09214559760262002, ,0.001222489808320061, ,0.03424951479698361,-0.007069222092326504,-0.03444147991059203,-0.09796891169911698,-0.12141383391682858,0.05362410369402684, ,0.049083792673866915, ,0.15601018640792239, ,0.0010296675903072635, ,0.2640093460382391,-0.20294569720174588,0.10353597859000001,1.6844393160111841,0.5883567679899866,-1.280462182914722, ,0.2719110073308618,0.1558242061715448,0.039330398814814815,-0.0829554267329838,0.17047643319165437,-0.06764951948465464, ,1.374439001083374
0.019537273574391178,0.01981102768992502,-0.09150243425355441, ,0.02053209176266496,0.019278169742234105,-0.09226454078744549, ,0.0013617662020835972, ,0.03424951479698361,-0.007069222092326504,-0.03444147991059203,-0.09796891169911698,-0.12141383391682858,0.05362410369402684, ,0.049083792673866915, ,0.15601018640792239, ,0.0010328918486740243, ,0.2640093460382391,-0.20294569720174588,0.10353597859000001,1.6844393160111841,0.5883567679899866,-1.280462182914722, ,0.2719110073308618,0.1558242061715448,0.039330398814814815,-0.0829554267329838,0.17047643319165437,-0.06764951948465464, ,1.3780691623687744
0.01987844809349358,0.01973769552646642,-0.09183750010584349, ,0.020625640152821978,0.019264621547756648,-0.09238349478761719, ,0.0010393291852829247, ,0.03079261153554802,-0.00674399866102956,-0.02859190746373716,-0.048800239059055554,-0.07086646881492834,-0.070327904751204, ,0.04255776798111059, ,0.08604359724290882, ,0.0010329537461414174, ,0.26674319347571457,-0.20136253696252987,0.10392097672000002,1.684019936124215,0.5902696789867028,-1.2813686036453475, ,0.24972879357492314,0.14488082680682562,0.033185024,0.04930755591735723,0.17215658819315416,-0.07246491958747867, ,1.3821191787719727
0.01987844809349358,0.01973769552646642,-0.09183750010584349, ,0.020718624917372704,0.019251200107376455,-0.0925024596080602, ,0.0011767523221848423, ,0.03079261153554802,-0.00674399866102956,-0.02859190746373716,-0.048800239059055554,-0.07086646881492834,-0.070327904751204, ,0.04255776798111059, ,0.08604359724290882, ,0.00103432325638945, ,0.26674319347571457,-0.20136253696252987,0.10392097672000002,1.684019936124215,0.5902696789867028,-1.2813686036453475, ,0.24972879357492314,0.14488082680682562,0.033185024,0.04930755591735723,0.17215658819315416,-0.07246491958747867, ,1.3856899738311768
0.02018395150464424,0.019660812479696654,-0.0921083406136941, ,0.020811047333814434,0.01923790726726389,-0.09262143524429989, ,0.0009139825477666052, ,0.02900741115636421,-0.007802817006519211,-0.024659037164966556,-0.0670135477380683,-0.08653777215110901,-0.05290248539028079, ,0.03886363298940013, ,0.10945132466863416, ,0.001033187966685461, ,0.26924535892696333,-0.19987977225067877,0.10423597519000001,1.684019936124215,0.591909316983888,-1.281888831088299, ,0.23903511727574503,0.14488082680682562,0.028804360795660042,0.0294130731080844,0.1494405631847567,-0.05981961857410947, ,1.3892250061035156
0.02018395150464424,0.019660812479696654,-0.0921083406136941, ,0.020902908686738636,0.019224744860564524,-0.09274042168249931, ,0.001051941479210039, ,0.02900741115636421,-0.007802817006519211,-0.024659037164966556,-0.0670135477380683,-0.08653777215110901,-0.05290248539028079, ,0.03886363298940013, ,0.10945132466863416, ,0.0010333632331576532, ,0.26924535892696333,-0.19987977225067877,0.10423597519000001,1.684019936124215,0.591909316983888,-1.281888831088299, ,0.23903511727574503,0.14488082680682562,0.028804360795660042,0.0294130731080844,0.1494405631847567,-0.05981961857410947, ,1.3928241729736328
0.02018395150464424,0.019660812479696654,-0.0921083406136941, ,0.02099421026780018,0.019211714707426872,-0.09285941889949402, ,0.0011926133756288372, ,0.02900741115636421,-0.007802817006519211,-0.024659037164966556,-0.0670135477380683,-0.08653777215110901,-0.05290248539028079, ,0.03886363298940013, ,0.10945132466863416, ,0.0010348377715138678, ,0.26924535892696333,-0.19987977225067877,0.10423597519000001,1.684019936124215,0.591909316983888,-1.281888831088299, ,0.23903511727574503,0.14488082680682562,0.028804360795660042,0.0294130731080844,0.1494405631847567,-0.05981961857410947, ,1.3964040279388428
0.020464873997422323,0.019586177441305152,-0.09235214070152845, ,0.021084953375687346,0.019198818615031445,-0.09297842686282824, ,0.0009626939552512602, ,0.02792792021745804,-0.007283078561998644,-0.025573663298500332,-0.030708081953152704,-0.049460618678924456,-0.029827748214796945, ,0.03856195295259317, ,0.05821793674348672, ,0.0010341759016398988, ,0.2715544560563564,-0.19848195760044413,0.10452115899000002,1.6842296260676997,0.5935489549810733,-1.2827357734918126, ,0.22648434739491832,0.13894134928033788,0.02977347947663552,0.0,0.17988960039474564,-0.09833970079550336, ,1.400050163269043
0.020464873997422323,0.019586177441305152,-0.09235214070152845, ,0.021175139316091243,0.019186058377618564,-0.09309744553078991, ,0.0011045593585451885, ,0.02792792021745804,-0.007283078561998644,-0.025573663298500332,-0.030708081953152704,-0.049460618678924456,-0.029827748214796945, ,0.03856195295259317, ,0.05821793674348672, ,0.0010348157512481287, ,0.2715544560563564,-0.19848195760044413,0.10452115899000002,1.6842296260676997,0.5935489549810733,-1.2827357734918126, ,0.22648434739491832,0.13894134928033788,0.02977347947663552,0.0,0.17988960039474564,-0.09833970079550336, ,1.4065051078796387
0.020612329330546884,0.019550012273086566,-0.09249160011076331, ,0.021264769401675408,0.01917343577651742,-0.09321647485244704, ,0.0010454335441880266, ,0.02761494292869368,-0.006507026752126612,-0.027069554889373706,0.0018093323060814728,-0.024402122713837522,-0.033731189165142714, ,0.039213355786220545, ,0.02446881161094095, ,0.00103491140704038, ,0.2727360341861128,-0.19776374344314124,0.10468319524000001,1.6842296260676997,0.5945054104794314,-1.2833523413374066, ,0.21966884620016383,0.13365766416686023,0.03141777420118344,0.0,0.1980908871443947,-0.1262197906648276, ,1.4105610847473145
0.020612329330546884,0.019550012273086566,-0.09249160011076331, ,0.02135384495204553,0.019160952580174438,-0.09333551476768275, ,0.0011888670277784865, ,0.02761494292869368,-0.006507026752126612,-0.027069554889373706,0.0018093323060814728,-0.024402122713837522,-0.033731189165142714, ,0.039213355786220545, ,0.02446881161094095, ,0.0010362860107969703, ,0.2727360341861128,-0.19776374344314124,0.10468319524000001,1.6842296260676997,0.5945054104794314,-1.2833523413374066, ,0.21966884620016383,0.13365766416686023,0.03141777420118344,0.0,0.1980908871443947,-0.1262197906648276, ,1.414186954498291
0.020612329330546884,0.019550012273086566,-0.09249160011076331, ,0.021442367293718963,0.019148610544181526,-0.09345456520723128, ,0.0013331872131438903, ,0.02761494292869368,-0.006507026752126612,-0.027069554889373706,0.0018093323060814728,-0.024402122713837522,-0.033731189165142714, ,0.039213355786220545, ,0.02446881161094095, ,0.0010389134550655272, ,0.2727360341861128,-0.19776374344314124,0.10468319524000001,1.6842296260676997,0.5945054104794314,-1.2833523413374066, ,0.21966884620016383,0.13365766416686023,0.03141777420118344,0.0,0.1980908871443947,-0.1262197906648276, ,1.4178240299224854
0.021010448558493804,0.01945767599047876,-0.09290932840699924, ,0.021530337760094352,0.019136411411304698,-0.09357362609271307, ,0.0009026555971230047, ,0.024473398193459613,-0.005488572434478431,-0.027085556224554753,-0.024470744082300575,-0.025614836040216252,0.028250727223756475, ,0.0369147531821312, ,0.0354248862188129, ,0.0010377182106976104, ,0.2758251273358026,-0.19584850569033357,0.10516411883000001,1.6833908662937616,0.5975114134742711,-1.2853134627778844, ,0.18390880146990463,0.11759224480603565,0.03092973110679612,-0.058815292539494295,0.1722608571712256,-0.10028633122085784, ,1.4220540523529053
0.021010448558493804,0.01945767599047876,-0.09290932840699924, ,0.02161775769142128,0.019124356911512593,-0.0936926973366717, ,0.0010457499085900722, ,0.024473398193459613,-0.005488572434478431,-0.027085556224554753,-0.024470744082300575,-0.025614836040216252,0.028250727223756475, ,0.0369147531821312, ,0.0354248862188129, ,0.0010377880515488492, ,0.2758251273358026,-0.19584850569033357,0.10516411883000001,1.6833908662937616,0.5975114134742711,-1.2853134627778844, ,0.18390880146990463,0.11759224480603565,0.03092973110679612,-0.058815292539494295,0.1722608571712256,-0.10028633122085784, ,1.4257049560546875
0.021246958268142675,0.01940612799641163,-0.09317934451357236, ,0.021704628434769734,0.01911244876200505,-0.09381177884260763, ,0.000834075928608643, ,0.023409108338146817,-0.005373473776633667,-0.027925538297588048,-0.07206291784537355,-0.06617145395787763,0.03886177414927748, ,0.03683335801722837, ,0.09783510854774134, ,0.0010360319125579853, ,0.27754729676675466,-0.19469781849207413,0.10547004327000001,1.683181176350277,0.5988777784719255,-1.2859375693740052, ,0.1650381592321231,0.11601093100057551,0.03129432518664047,-0.06753875287591948,0.11380038241373701,-0.05432956891333096, ,1.4292371273040771
0.021246958268142675,0.01940612799641163,-0.09317934451357236, ,0.02179095134399992,0.019100688667241406,-0.0939308705050156, ,0.0009767358733042027, ,0.023409108338146817,-0.005373473776633667,-0.027925538297588048,-0.07206291784537355,-0.06617145395787763,0.03886177414927748, ,0.03683335801722837, ,0.09783510854774134, ,0.0010355251088036794, ,0.27754729676675466,-0.19469781849207413,0.10547004327000001,1.683181176350277,0.5988777784719255,-1.2859375693740052, ,0.1650381592321231,0.11601093100057551,0.03129432518664047,-0.06753875287591948,0.11380038241373701,-0.05432956891333096, ,1.432819128036499
0.021246958268142675,0.01940612799641163,-0.09317934451357236, ,0.021876727779731656,0.01908907831896906,-0.09404997220941919, ,0.0011203225966073395, ,0.023409108338146817,-0.005373473776633667,-0.027925538297588048,-0.07206291784537355,-0.06617145395787763,0.03886177414927748, ,0.03683335801722837, ,0.09783510854774134, ,0.0010362437315816766, ,0.27754729676675466,-0.19469781849207413,0.10547004327000001,1.683181176350277,0.5988777784719255,-1.2859375693740052, ,0.1650381592321231,0.11601093100057551,0.03129432518664047,-0.06753875287591948,0.11380038241373701,-0.05432956891333096, ,1.4363880157470703
0.021246958268142675,0.01940612799641163,-0.09317934451357236, ,0.021961959109313933,0.01907761939625197,-0.094169083832407, ,0.0012644081708458419, ,0.023409108338146817,-0.005373473776633667,-0.027925538297588048,-0.07206291784537355,-0.06617145395787763,0.03886177414927748, ,0.03683335801722837, ,0.09783510854774134, ,0.0010381610798107872, ,0.27754729676675466,-0.19469781849207413,0.10547004327000001,1.683181176350277,0.5988777784719255,-1.2859375693740052, ,0.1650381592321231,0.11601093100057551,0.03129432518664047,-0.06753875287591948,0.11380038241373701,-0.05432956891333096, ,1.4400970935821533
0.021477782965703927,0.019360648803264883,-0.09347604594645216, ,0.022046646706794806,0.019066313565499076,-0.09428820524166773, ,0.0010343316242499845, ,0.022321848233448627,-0.003910060222813558,-0.03045979868645689,-0.02847205571057683,-0.012760604898165755,0.016500484933004596, ,0.0379651526471661, ,0.0312003970103747, ,0.0010381291676811138, ,0.2791227342730965,-0.1935548540266889,0.10580189351000001,1.683181176350277,0.6002441434695799,-1.2866433547102667, ,0.1480451506372399,0.10650610724856428,0.033963350788912584,-0.04361848213496793,0.1458367540770363,-0.08210645968974191, ,1.4437780380249023
0.021477782965703927,0.019360648803264883,-0.09347604594645216, ,0.022130791952890624,0.01905516248049287,-0.09440733629602623, ,0.0011777284686875606, ,0.022321848233448627,-0.003910060222813558,-0.03045979868645689,-0.02847205571057683,-0.012760604898165755,0.016500484933004596, ,0.0379651526471661, ,0.0312003970103747, ,0.001039282880912572, ,0.2791227342730965,-0.1935548540266889,0.10580189351000001,1.683181176350277,0.6002441434695799,-1.2866433547102667, ,0.1480451506372399,0.10650610724856428,0.033963350788912584,-0.04361848213496793,0.1458367540770363,-0.08210645968974191, ,1.4473910331726074
0.021691590782810508,0.019330970567823885,-0.09377775284820458, ,0.022214396234955698,0.019044167782417704,-0.09452647684547907, ,0.0009571671758915336, ,0.021048467173700645,-0.0026895225628890823,-0.030485378351902907,0.007684986624319934,0.0005410224997994199,0.0012234799398566558, ,0.03714336811918534, ,0.007702297990310869, ,0.001038609801363219, ,0.28051282619045687,-0.19257406695166238,0.10613892891000001,1.683181176350277,0.6017471449669998,-1.287542236690365, ,0.1338461799132169,0.09367911308832258,0.033963350788912584,-0.032394930694126856,0.1422619057621738,-0.10431305838294996, ,1.4510900974273682
0.021691590782810508,0.019330970567823885,-0.09377775284820458, ,0.02229746094695212,0.01903333109988864,-0.09464562673123009, ,0.001099487601343247, ,0.021048467173700645,-0.0026895225628890823,-0.030485378351902907,0.007684986624319934,0.0005410224997994199,0.0012234799398566558, ,0.03714336811918534, ,0.007702297990310869, ,0.0010391047428264712, ,0.28051282619045687,-0.19257406695166238,0.10613892891000001,1.683181176350277,0.6017471449669998,-1.287542236690365, ,0.1338461799132169,0.09367911308832258,0.033963350788912584,-0.032394930694126856,0.1422619057621738,-0.10431305838294996, ,1.454646110534668
0.02191237772198718,0.019305166455480118,-0.09411262728505929, ,0.022379987489419023,0.019022654048979574,-0.09476478578572595, ,0.0012422492186408408, ,0.020976775368614423,-0.001771542155659746,-0.033824575505478495,0.04196164301596419,0.05701714826933189,-0.015573793656525878, ,0.039840499176094724, ,0.07079329351032806, ,0.0010407430047282, ,0.28177163164895547,-0.1916705072053781,0.10647855689,1.682761796463308,0.6032501464644197,-1.2885227974106042, ,0.12772132107465783,0.09186538389009755,0.03670233069124424,-0.012900414510312968,0.17467822061982136,-0.107482629696442, ,1.4592220783233643
0.02191237772198718,0.019305166455480118,-0.09411262728505929, ,0.022461977269442327,0.01901213823325174,-0.0948839538326918, ,0.000991397924482353, ,0.020976775368614423,-0.001771542155659746,-0.033824575505478495,0.04196164301596419,0.05701714826933189,-0.015573793656525878, ,0.039840499176094724, ,0.07079329351032806, ,0.0010403482440862332, ,0.28177163164895547,-0.1916705072053781,0.10647855689,1.682761796463308,0.6032501464644197,-1.2885227974106042, ,0.12772132107465783,0.09186538389009755,0.03670233069124424,-0.012900414510312968,0.17467822061982136,-0.107482629696442, ,1.4628479480743408
0.02191237772198718,0.019305166455480118,-0.09411262728505929, ,0.02254343170062426,0.01900178524378235,-0.095003130687167, ,0.0011328131323083694, ,0.020976775368614423,-0.001771542155659746,-0.033824575505478495,0.04196164301596419,0.05701714826933189,-0.015573793656525878, ,0.039840499176094724, ,0.07079329351032806, ,0.0010410820924054566, ,0.28177163164895547,-0.1916705072053781,0.10647855689,1.682761796463308,0.6032501464644197,-1.2885227974106042, ,0.12772132107465783,0.09186538389009755,0.03670233069124424,-0.012900414510312968,0.17467822061982136,-0.107482629696442, ,1.4664201736450195
0.02209262951753122,0.019290817436418722,-0.09441772306935307, ,0.022624352203052926,0.018991596659193137,-0.09512231615554072, ,0.000932048016426905, ,0.020489566375276283,-0.0012345311837108962,-0.03544938786907489,-0.008996236688634798,0.009295905093204642,0.08861944519426258, ,0.04096346540250862, ,0.012934069145738109, ,0.0010402235563741293, ,0.2829223188472149,-0.19082872932208764,0.10684799954000002,1.6819230366893698,0.6050264209613704,-1.289889551418517, ,0.11297254947436998,0.08251907961606154,0.03894574943765281,-0.12012357973057146,0.14675976074925154,-0.10073783719753622, ,1.4700391292572021
0.02209262951753122,0.019290817436418722,-0.09441772306935307, ,0.022704740203271997,0.018981574045678618,-0.09524151003558723, ,0.0010718842904211988, ,0.020489566375276283,-0.0012345311837108962,-0.03544938786907489,-0.008996236688634798,0.009295905093204642,0.08861944519426258, ,0.04096346540250862, ,0.012934069145738109, ,0.0010404709058588722, ,0.2829223188472149,-0.19082872932208764,0.10684799954000002,1.6819230366893698,0.6050264209613704,-1.289889551418517, ,0.11297254947436998,0.08251907961606154,0.03894574943765281,-0.12012357973057146,0.14675976074925154,-0.10073783719753622, ,1.4738450050354004
0.02209262951753122,0.019290817436418722,-0.09441772306935307, ,0.02278459713424995,0.01897171895703455,-0.09536071211650186, ,0.001212382516030018, ,0.020489566375276283,-0.0012345311837108962,-0.03544938786907489,-0.008996236688634798,0.009295905093204642,0.08861944519426258, ,0.04096346540250862, ,0.012934069145738109, ,0.0010418035539997337, ,0.2829223188472149,-0.19082872932208764,0.10684799954000002,1.6819230366893698,0.6050264209613704,-1.289889551418517, ,0.11297254947436998,0.08251907961606154,0.03894574943765281,-0.12012357973057146,0.14675976074925154,-0.10073783719753622, ,1.4780280590057373
0.022311089799421317,0.019285558664128823,-0.0947965251742918, ,0.02286392443535013,0.01896203293468667,-0.0954799221789366, ,0.0009366570867991707, ,0.02000611377131691,-0.0003956902355834,-0.03532865582514796,-0.04501486391225994,-0.019955750459092866,0.03788960639274161, ,0.04060190982460274, ,0.04923936346924005, ,0.0010409947350212678, ,0.2840884515112228,-0.18998695143879715,0.10726410863000001,1.6815036568024009,0.6062561494592593,-1.290647276331363, ,0.10326108983511509,0.07610019371168467,0.03866216388349515,-0.05538188650055695,0.09530725568676099,-0.04037907069704382, ,1.4816510677337646
0.022311089799421317,0.019285558664128823,-0.0947965251742918, ,0.022942723552299767,0.01895251750771903,-0.09559913999503541, ,0.001074275644383414, ,0.02000611377131691,-0.0003956902355834,-0.03532865582514796,-0.04501486391225994,-0.019955750459092866,0.03788960639274161, ,0.04060190982460274, ,0.04923936346924005, ,0.0010412487877644904, ,0.2840884515112228,-0.18998695143879715,0.10726410863000001,1.6815036568024009,0.6062561494592593,-1.290647276331363, ,0.10326108983511509,0.07610019371168467,0.03866216388349515,-0.05538188650055695,0.09530725568676099,-0.04037907069704382, ,1.4852230548858643
0.02250200211188348,0.019283349683008214,-0.09514978518950941, ,0.023020995937160012,0.0189431741929025,-0.09571836532847033, ,0.0008416396670574986, ,0.017658286115010212,-0.00021202797941467452,-0.03361592135415393,0.006741528913362254,0.039253807443884944,-0.01757528359284625, ,0.03797222923232555, ,0.03982796359932715, ,0.001039736597456104, ,0.28504607038762664,-0.18923012361712316,0.10765040305000001,1.6812939668589162,0.6074858779571483,-1.2915683587244902, ,0.08642708702957265,0.07266228296973261,0.03670233069124424,0.0,0.12735791590867762,-0.07370033192748368, ,1.489267110824585
0.02250200211188348,0.019283349683008214,-0.09514978518950941, ,0.023098743048295234,0.01893400449472318,-0.09583759793447656, ,0.0009753092729522956, ,0.017658286115010212,-0.00021202797941467452,-0.03361592135415393,0.006741528913362254,0.039253807443884944,-0.01757528359284625, ,0.03797222923232555, ,0.03982796359932715, ,0.0010392521814823912, ,0.28504607038762664,-0.18923012361712316,0.10765040305000001,1.6812939668589162,0.6074858779571483,-1.2915683587244902, ,0.08642708702957265,0.07266228296973261,0.03670233069124424,0.0,0.12735791590867762,-0.07370033192748368, ,1.4928600788116455
0.02250200211188348,0.019283349683008214,-0.09514978518950941, ,0.023175966350342553,0.018925009905410836,-0.09595683755988801, ,0.0011108414465908194, ,0.017658286115010212,-0.00021202797941467452,-0.03361592135415393,0.006741528913362254,0.039253807443884944,-0.01757528359284625, ,0.03797222923232555, ,0.03982796359932715, ,0.001039786429729469, ,0.28504607038762664,-0.18923012361712316,0.10765040305000001,1.6812939668589162,0.6074858779571483,-1.2915683587244902, ,0.08642708702957265,0.07266228296973261,0.03670233069124424,0.0,0.12735791590867762,-0.07370033192748368, ,1.4965980052947998
0.02267345779203876,0.019281372263667718,-0.09547895603050228, ,0.02325266731418165,0.01891619190496767,-0.09607608394317377, ,0.0009085164329899023, ,0.016967304496141287,-0.0002794740869544634,-0.0328155807994968,0.0363403285500949,0.04727226827726376,-0.02633357908850252, ,0.03694360392325522, ,0.05962590689618259, ,0.00103881405938325, ,0.2858724028051687,-0.18851190945982027,0.10800947538000001,1.6815036568024009,0.6087156064550372,-1.2923260836373365, ,0.08152658209490615,0.07108385135465976,0.03579508206741574,0.0,0.1300130776166991,-0.10321693630625049, ,1.5002939701080322
0.02267345779203876,0.019281372263667718,-0.09547895603050228, ,0.023328847416903935,0.01890755196119655,-0.09619533681447273, ,0.001040422321253568, ,0.016967304496141287,-0.0002794740869544634,-0.0328155807994968,0.0363403285500949,0.04727226827726376,-0.02633357908850252, ,0.03694360392325522, ,0.05962590689618259, ,0.0010388258848381788, ,0.2858724028051687,-0.18851190945982027,0.10800947538000001,1.6815036568024009,0.6087156064550372,-1.2923260836373365, ,0.08152658209490615,0.07108385135465976,0.03579508206741574,0.0,0.1300130776166991,-0.10321693630625049, ,1.5038721561431885
0.02267345779203876,0.019281372263667718,-0.09547895603050228, ,0.023404508141782545,0.01889909152972945,-0.09631459589562971, ,0.0011742517437036562, ,0.016967304496141287,-0.0002794740869544634,-0.0328155807994968,0.0363403285500949,0.04727226827726376,-0.02633357908850252, ,0.03694360392325522, ,0.05962590689618259, ,0.001039814394756905, ,0.2858724028051687,-0.18851190945982027,0.10800947538000001,1.6815036568024009,0.6087156064550372,-1.2923260836373365, ,0.08152658209490615,0.07108385135465976,0.03579508206741574,0.0,0.1300130776166991,-0.10321693630625049, ,1.5074679851531982
0.022832475068855756,0.019279408960331444,-0.09578924116537113, ,0.023479650978241555,0.01889081205405606,-0.09643386090023094, ,0.0009926624883750102, ,0.016183734645803763,5.001727549216778e-05,-0.03145656515040785,0.03967551572918066,0.05010589260828816,-0.008365635859095576, ,0.03537557433986748, ,0.06391178468827197, ,0.0010394727142758768, ,0.2866292306268427,-0.18787092263125965,0.10834780707000001,1.6810842769154317,0.6099453349529261,-1.293165487290323, ,0.0774668910681394,0.06373199567392263,0.03440348060475163,-0.016965004856270165,0.13193757917828094,-0.10421239912996011, ,1.5111041069030762
0.022832475068855756,0.019279408960331444,-0.09578924116537113, ,0.02355427742182564,0.018882714965552244,-0.09655313153363917, ,0.0011233402231645708, ,0.016183734645803763,5.001727549216778e-05,-0.03145656515040785,0.03967551572918066,0.05010589260828816,-0.008365635859095576, ,0.03537557433986748, ,0.06391178468827197, ,0.0010400760776491768, ,0.2866292306268427,-0.18787092263125965,0.10834780707000001,1.6810842769154317,0.6099453349529261,-1.293165487290323, ,0.0774668910681394,0.06373199567392263,0.03440348060475163,-0.016965004856270165,0.13193757917828094,-0.10421239912996011, ,1.5148401260375977
0.023002509735295287,0.019275673332617684,-0.09611336336931751, ,0.023628388974169648,0.018874801683508493,-0.0966724074930302, ,0.000930028619436605, ,0.016183734645803763,5.001727549216778e-05,-0.03145656515040785,0.03967551572918066,0.05010589260828816,-0.008365635859095576, ,0.03537557433986748, ,0.06391178468827197, ,0.0010392900243762298, ,0.28747100851013313,-0.18720676760407634,0.10870299053000002,1.6802455171414936,0.611448336450346,-1.2944727629711241, ,0.08145660219611225,0.06544616659204881,0.03360508759493671,-0.09709015722379234,0.134309169668188,-0.1038894969559802, ,1.5194060802459717
0.023002509735295287,0.019275673332617684,-0.09611336336931751, ,0.023701987142968246,0.01886707361515852,-0.09679168846742839, ,0.0010565733820609516, ,0.016366659557587194,-0.0007229349567931708,-0.030706166003682506,0.015407775766134679,0.03361607809467977,0.06703593032888734, ,0.03480314368949192, ,0.03697854733094572, ,0.001039412601381086, ,0.28747100851013313,-0.18720676760407634,0.10870299053000002,1.6802455171414936,0.611448336450346,-1.2944727629711241, ,0.08145660219611225,0.06544616659204881,0.03360508759493671,-0.09709015722379234,0.134309169668188,-0.1038894969559802, ,1.5231521129608154
0.023002509735295287,0.019275673332617684,-0.09611336336931751, ,0.023775073441945217,0.018859532155707487,-0.09691097413774076, ,0.001185837719866257, ,0.016366659557587194,-0.0007229349567931708,-0.030706166003682506,0.015407775766134679,0.03361607809467977,0.06703593032888734, ,0.03480314368949192, ,0.03697854733094572, ,0.0010404437641873196, ,0.28747100851013313,-0.18720676760407634,0.10870299053000002,1.6802455171414936,0.611448336450346,-1.2944727629711241, ,0.08145660219611225,0.06544616659204881,0.03360508759493671,-0.09709015722379234,0.134309169668188,-0.1038894969559802, ,1.5267341136932373
0.023169895878909014,0.01927030162543299,-0.09642340423171954, ,0.023847649390823223,0.018852178688360536,-0.09703026417679486, ,0.0010012270503512004, ,0.01608805634037048,-0.0007172749677027155,-0.02984244774768955,0.0011459906524387796,0.014047825435532235,0.02371833417645799, ,0.033910348387532215, ,0.014093651956191434, ,0.0010401695214332207, ,0.28829734092767517,-0.1865271671111446,0.10904261851000001,1.6800358271980091,0.612678064948235,-1.2953938453642513, ,0.0779761228911017,0.06553656184977263,0.03257425668711657,-0.04898176945377016,0.10202043900363476,-0.07655390904712606, ,1.5303239822387695
0.023169895878909014,0.01927030162543299,-0.09642340423171954, ,0.023919716515293243,0.01884501458435168,-0.09714955824937208, ,0.0011271200962684814, ,0.01608805634037048,-0.0007172749677027155,-0.02984244774768955,0.0011459906524387796,0.014047825435532235,0.02371833417645799, ,0.033910348387532215, ,0.014093651956191434, ,0.0010407733448695765, ,0.28829734092767517,-0.1865271671111446,0.10904261851000001,1.6800358271980091,0.612678064948235,-1.2953938453642513, ,0.0779761228911017,0.06553656184977263,0.03257425668711657,-0.04898176945377016,0.10202043900363476,-0.07655390904712606, ,1.5338821411132812
0.023169895878909014,0.01927030162543299,-0.09642340423171954, ,0.02399127634698426,0.01883804120297174,-0.0972688560122456, ,0.001255509322688035, ,0.01608805634037048,-0.0007172749677027155,-0.02984244774768955,0.0011459906524387796,0.014047825435532235,0.02371833417645799, ,0.033910348387532215, ,0.014093651956191434, ,0.001042254282647635, ,0.28829734092767517,-0.1865271671111446,0.10904261851000001,1.6800358271980091,0.612678064948235,-1.2953938453642513, ,0.0779761228911017,0.06553656184977263,0.03257425668711657,-0.04898176945377016,0.10202043900363476,-0.07655390904712606, ,1.537451982498169
0.023332382742635323,0.019263967672715335,-0.09672047691038504, ,0.024062330423432574,0.018831259891596997,-0.09738815711421357, ,0.001079748348054371, ,0.016698653298985105,-0.0005729052400219409,-0.030833619885651812,-0.004287446953273232,0.003686471253126984,-0.02783187173158463, ,0.0350697213799399, ,0.005651937950933984, ,0.0010425110913148043, ,0.28907733694797183,-0.1858707348168355,0.10936669101000002,1.6798261372545245,0.6134978839468276,-1.2959806740462894, ,0.078687347892596,0.06846821180264846,0.03360508759493671,0.006587308732680699,0.08193775011682883,-0.05845156161622834, ,1.540977954864502
0.023332382742635323,0.019263967672715335,-0.09672047691038504, ,0.024132880288051568,0.018824671985717883,-0.09750746119613668, ,0.0012054548049810934, ,0.016698653298985105,-0.0005729052400219409,-0.030833619885651812,-0.004287446953273232,0.003686471253126984,-0.02783187173158463, ,0.0350697213799399, ,0.005651937950933984, ,0.0010436195519519902, ,0.28907733694797183,-0.1858707348168355,0.10936669101000002,1.6798261372545245,0.6134978839468276,-1.2959806740462894, ,0.078687347892596,0.06846821180264846,0.03360508759493671,0.006587308732680699,0.08193775011682883,-0.05845156161622834, ,1.5445189476013184
0.023332382742635323,0.019263967672715335,-0.09672047691038504, ,0.02420292749010112,0.01881827880896713,-0.0976267678909724, ,0.0013333604396799214, ,0.016698653298985105,-0.0005729052400219409,-0.030833619885651812,-0.004287446953273232,0.003686471253126984,-0.02783187173158463, ,0.0350697213799399, ,0.005651937950933984, ,0.0010455772606528546, ,0.28907733694797183,-0.1858707348168355,0.10936669101000002,1.6798261372545245,0.6134978839468276,-1.2959806740462894, ,0.078687347892596,0.06846821180264846,0.03360508759493671,0.006587308732680699,0.08193775011682883,-0.05845156161622834, ,1.548064947128296
0.023501002175568633,0.01926102942444718,-0.09704169293909978, ,0.024272473584657124,0.018812081673148528,-0.09774607682381152, ,0.0011370483171258372, ,0.016823856176820598,-0.00019600240290722345,-0.03277133789140275,0.005170085733629989,0.01857179747229201,-0.01770392161517819, ,0.03683803931797646, ,0.019277023879932787, ,0.0010461911603607268, ,0.2898496102353943,-0.18518341159102952,0.10971668931,1.6800358271980091,0.6144543394451857,-1.2967605993721643, ,0.07483985927324195,0.06735056178741716,0.03563492510067114,-0.005033830609648897,0.09522272557182923,-0.07001009541246465, ,1.551732063293457
0.023501002175568633,0.01926102942444718,-0.09704169293909978, ,0.024341520132581274,0.018806081878265345,-0.09786538761191356, ,0.0012617133667594134, ,0.016823856176820598,-0.00019600240290722345,-0.03277133789140275,0.005170085733629989,0.01857179747229201,-0.01770392161517819, ,0.03683803931797646, ,0.019277023879932787, ,0.0010476279750700514, ,0.2898496102353943,-0.18518341159102952,0.10971668931,1.6800358271980091,0.6144543394451857,-1.2967605993721643, ,0.07483985927324195,0.06735056178741716,0.03563492510067114,-0.005033830609648897,0.09522272557182923,-0.07001009541246465, ,1.5554571151733398
0.023501002175568633,0.01926102942444718,-0.09704169293909978, ,0.02441006870049032,0.018800280712548478,-0.09798469986474131, ,0.0013885076103707168, ,0.017451130241010075,-0.0004549702726988936,-0.032872903161740276,-3.2772359121266826e-05,0.012315779708472703,0.019963597141576573, ,0.037220648931995934, ,0.012314264749200068, ,0.0010498854560985326, ,0.2905369334612003,-0.18458876115971423,0.11003816923000001,1.6794067573675557,0.6154107949435438,-1.2975405246980394, ,0.080832147835154,0.06783198109969318,0.035875701621621625,-0.0460997413816117,0.10248691139544158,-0.07688578542396832, ,1.559509038925171
0.02365310454111837,0.019257350395202984,-0.0973370874091107, ,0.02447812086072565,0.018794679452485367,-0.09810401318399777, ,0.001217740314286944, ,0.017451130241010075,-0.0004549702726988936,-0.032872903161740276,-3.2772359121266826e-05,0.012315779708472703,0.019963597141576573, ,0.037220648931995934, ,0.012314264749200068, ,0.001050989764376088, ,0.2905369334612003,-0.18458876115971423,0.11003816923000001,1.6794067573675557,0.6154107949435438,-1.2975405246980394, ,0.080832147835154,0.06783198109969318,0.035875701621621625,-0.0460997413816117,0.10248691139544158,-0.07688578542396832, ,1.5637950897216797
0.02365310454111837,0.019257350395202984,-0.0973370874091107, ,0.024545678191322938,0.01878927936284842,-0.09822332716366133, ,0.0013420875958427341, ,0.017451130241010075,-0.0004549702726988936,-0.032872903161740276,-3.2772359121266826e-05,0.012315779708472703,0.019963597141576573, ,0.037220648931995934, ,0.012314264749200068, ,0.0010528923645817523, ,0.2905369334612003,-0.18458876115971423,0.11003816923000001,1.6794067573675557,0.6154107949435438,-1.2975405246980394, ,0.080832147835154,0.06783198109969318,0.035875701621621625,-0.0460997413816117,0.10248691139544158,-0.07688578542396832, ,1.5674569606781006
0.02384847537170858,0.019251290083398136,-0.09769961885376721, ,0.024612742275981737,0.018784081696723135,-0.09834264139002108, ,0.0011026629401939142, ,0.01786687427793763,-0.0008912322376786049,-0.03275992787041674,-0.024184271200826363,-0.01302994801948766,0.05033573174475041, ,0.037326027989058985, ,0.027470361964916763, ,0.0010532155501376756, ,0.29144049320748455,-0.18383965607091446,0.11043353768000001,1.678777687537102,0.6163672504419018,-1.2983204500239143, ,0.08338922808301474,0.06972589387102922,0.03571482403587444,-0.07829907106470761,0.08537287361634861,-0.06388292022143699, ,1.5709969997406006
0.02384847537170858,0.019251290083398136,-0.09769961885376721, ,0.024679314704034797,0.018779087695537086,-0.09846195544171249, ,0.001222467244780815, ,0.01786687427793763,-0.0008912322376786049,-0.03275992787041674,-0.024184271200826363,-0.01302994801948766,0.05033573174475041, ,0.037326027989058985, ,0.027470361964916763, ,0.001054307496554728, ,0.29144049320748455,-0.18383965607091446,0.11043353768000001,1.678777687537102,0.6163672504419018,-1.2983204500239143, ,0.08338922808301474,0.06972589387102922,0.03571482403587444,-0.07829907106470761,0.08537287361634861,-0.06388292022143699, ,1.5745749473571777
0.02384847537170858,0.019251290083398136,-0.09769961885376721, ,0.024745397070417775,0.018774298589087867,-0.09858126888975324, ,0.0013451008160037293, ,0.01786687427793763,-0.0008912322376786049,-0.03275992787041674,-0.024184271200826363,-0.01302994801948766,0.05033573174475041, ,0.037326027989058985, ,0.027470361964916763, ,0.0010561715562947857, ,0.29144049320748455,-0.18383965607091446,0.11043353768000001,1.678777687537102,0.6163672504419018,-1.2983204500239143, ,0.08338922808301474,0.06972589387102922,0.03571482403587444,-0.07829907106470761,0.08537287361634861,-0.06388292022143699, ,1.5781691074371338
0.024035257460375655,0.01924278507669596,-0.09803877124952479, ,0.024810990975638724,0.018769715595571924,-0.09870058129757854, ,0.0011240772928843795, ,0.019199808934501038,-0.0002730126719656268,-0.034991833733039886,0.02000713633644821,0.019874272391614826,-0.05850778839213821, ,0.03991410310956652, ,0.02819964089931405, ,0.001056604076910006, ,0.2923208847551461,-0.18310599644786313,0.11080427662000002,1.678358307650133,0.61732370594026,-1.2991003753497892, ,0.08977950951605561,0.0736205908133986,0.038382678361445786,0.03450360488034194,0.1041612327336029,-0.07985005420521699, ,1.5817620754241943
0.024035257460375655,0.01924278507669596,-0.09803877124952479, ,0.024876098025747622,0.0187653399216129,-0.0988198922210766, ,0.0012430272340883675, ,0.019199808934501038,-0.0002730126719656268,-0.034991833733039886,0.02000713633644821,0.019874272391614826,-0.05850778839213821, ,0.03991410310956652, ,0.02819964089931405, ,0.0010577839703098692, ,0.2923208847551461,-0.18310599644786313,0.11080427662000002,1.678358307650133,0.61732370594026,-1.2991003753497892, ,0.08977950951605561,0.0736205908133986,0.038382678361445786,0.03450360488034194,0.1041612327336029,-0.07985005420521699, ,1.5853581428527832
0.024035257460375655,0.01924278507669596,-0.09803877124952479, ,0.024940719832305922,0.018761172762290303,-0.09893920120862479, ,0.0013647661483249026, ,0.019199808934501038,-0.0002730126719656268,-0.034991833733039886,0.02000713633644821,0.019874272391614826,-0.05850778839213821, ,0.03991410310956652, ,0.02819964089931405, ,0.0010597146758319761, ,0.2923208847551461,-0.18310599644786313,0.11080427662000002,1.678358307650133,0.61732370594026,-1.2991003753497892, ,0.08977950951605561,0.0736205908133986,0.038382678361445786,0.03450360488034194,0.1041612327336029,-0.07985005420521699, ,1.5889451503753662
0.024222271298505425,0.019239769146238827,-0.09837863516559983, ,0.025004858012356065,0.018757215301167623,-0.09905850780112471, ,0.0011434714594707183, ,0.018811139693339286,-0.000619428134374417,-0.03375373382714117,0.008072176384798329,0.010232672296328004,-0.021080574521837758, ,0.0386465679595158, ,0.01303164610839384, ,0.0010602381557297184, ,0.29320127630280773,-0.18239550502343446,0.11117760814000001,1.6785679975936174,0.6184167979383834,-1.2999917185793606, ,0.08893808955807946,0.07211013796236382,0.037043747720930234,-0.004885999102498855,0.10083198618563433,-0.07764648485566657, ,1.5932950973510742
0.024222271298505425,0.019239769146238827,-0.09837863516559983, ,0.025068514188390983,0.018753468710321235,-0.09917781153203811, ,0.0012614666096766077, ,0.018811139693339286,-0.000619428134374417,-0.03375373382714117,0.008072176384798329,0.010232672296328004,-0.021080574521837758, ,0.0386465679595158, ,0.01303164610839384, ,0.0010614880219033014, ,0.29320127630280773,-0.18239550502343446,0.11117760814000001,1.6785679975936174,0.6184167979383834,-1.2999917185793606, ,0.08893808955807946,0.07211013796236382,0.037043747720930234,-0.004885999102498855,0.10083198618563433,-0.07764648485566657, ,1.5969059467315674
0.024418900972935892,0.01922454690001898,-0.0987217501516079, ,0.025131689988323873,0.018749934150368495,-0.09929711192742208, ,0.0010316814506700224, ,0.01803970060580318,-0.0015615384251825497,-0.030828419153495115,-0.017011249333220322,-0.014102359459223862,0.014235618551049876, ,0.0357527709094543, ,0.022095956657580296, ,0.0010613040307228493, ,0.29408939058334355,-0.18166184540038313,0.11153019902000001,1.677938927763164,0.6193732534367417,-1.3006899651650952, ,0.0885232663791705,0.0732794915509427,0.03374748203389831,-0.04234791754897879,0.08231840009417984,-0.06454361174242729, ,1.6004929542541504
0.024418900972935892,0.01922454690001898,-0.0987217501516079, ,0.025194387045457272,0.01874661277049634,-0.09941640850596438, ,0.0011455784172698293, ,0.01803970060580318,-0.0015615384251825497,-0.030828419153495115,-0.017011249333220322,-0.014102359459223862,0.014235618551049876, ,0.0357527709094543, ,0.022095956657580296, ,0.001061821051499211, ,0.29408939058334355,-0.18166184540038313,0.11153019902000001,1.677938927763164,0.6193732534367417,-1.3006899651650952, ,0.0885232663791705,0.0732794915509427,0.03374748203389831,-0.04234791754897879,0.08231840009417984,-0.06454361174242729, ,1.6040539741516113
