NicholasDascanio/dvrk_moveit_final/test/execution/third_experiment_notsharpbends/thirdexp_300vel4.0/thirdexp_300vel4.0_11.csv
Current Position (x),Current Position (y),Current Position (z), ,Planned Position (x),Planned Position (y),Planned Position (z), ,Position Error,,Cartesian linear Velocity(x),Cartesian linear Velocity(y),Cartesian linear Velocity(z),Cartesian Angular Velocity(x),Cartesian Angular Velocity(y),Cartesian Angular Velocity(z), ,Total Linear Velocity, ,Total Angular Velocity, ,MSE, ,Joint 1 Position,Joint 2 Position,Joint 3 Position,Joint 4 Position,Joint 5 Position,Joint 6 Position, ,Joint 1 Velocity,Joint 2 Velocity,Joint 3 Velocity,Joint 4 Velocity,Joint 5 Velocity,Joint 6 Velocity, ,Time Stamp
0.00897447231218123,0.020769666880262425,-0.0799120969808235, ,0.009176112263072939,0.02070483652403842,-0.08003113186739808, ,0.00024296285540297217, ,0.00019271123833768277,0.0001267279558990418,-0.0006090932061170422,0.2287779496394943,0.0040074905949891645,-0.08246327717617402, ,0.000651300337729016, ,0.22881304644211142, ,2.0246904616914348e-05, ,0.1662704387820537,-0.24710428377656163,0.09057307859000001,1.6842296260676997,0.5051451396328334,-1.2285360338910112, ,0.0011196414456947096,0.0002998734920613072,0.000639470760222889,-0.001321997701740462,0.0,-0.24413865184871364, ,0.03557896614074707
0.009019614967868204,0.020772425828099517,-0.07995859954169005, ,0.009248690086271358,0.02070802628292545,-0.08017741705061106, ,0.0003232704958706299, ,0.0014498508955253465,0.0002420970652712934,-0.0023253495134853155,0.10486972937356916,-0.07688822084724928,-0.060387562402049705, ,0.0027509869080268295, ,0.13003637431070209, ,2.5737879603345548e-05, ,0.16637855704229285,-0.24701933371494517,0.09060937471000001,1.6842296260676997,0.5015925906389319,-1.2360123683927555, ,0.005460664420252636,0.003667900460036145,0.0021560383757444506,-0.001242911661983807,-0.07651269324717282,-0.12138503518216492, ,0.0722341537475586
0.009093083836539331,0.020787123624997565,-0.08008074692813012, ,0.009321516709643637,0.020710804936309123,-0.08032306234238361, ,0.0003416473031397289, ,0.003397194814901517,0.0005433980407900493,-0.004833450129766192,0.08668487938831353,-0.212700217026766,-0.09682916089268413, ,0.005932828515814783, ,0.22968598267017026, ,2.8371270450416595e-05, ,0.1666797436243876,-0.24686487905746068,0.09072474452000001,1.6838102461807307,0.4980400416450304,-1.2441421328156246, ,0.010651746403978049,0.007003318394231058,0.004328481391304349,0.002213788068059693,-0.21273199920706798,-0.11503043865653861, ,0.10884404182434082
0.009150653888955843,0.02080484512764262,-0.08021634783682587, ,0.00939458834235745,0.02071317777749362,-0.08046807397650144, ,0.00036231611892882323, ,0.0005299442485088066,0.0003737491307701875,-0.004212100965877929,-0.14891080339340898,0.12811052816924365,0.09242395073335882, ,0.004261727802902106, ,0.1964350650819431, ,3.0242780317670342e-05, ,0.16716627579546373,-0.2465559697424917,0.09090492883000001,1.6842296260676997,0.49872322414385767,-1.2366947058003315, ,0.013677852631661975,0.009024050333232567,0.003957468700621119,-0.0021004486021259567,0.1249278542921141,0.13279615041270112, ,0.14717602729797363
0.009217859078912436,0.02080372090638671,-0.0803684356005505, ,0.009467901212418074,0.02071515007680368,-0.08061245815431868, ,0.0003604342757405599, ,0.001769899150087932,2.508270768471831e-05,-0.003641677664744413,0.07281678591840092,-0.0036233880474841685,-0.02679054456667244, ,0.00404907253054389, ,0.07290688068891989, ,3.135828940543681e-05, ,0.1677840944254017,-0.24613894216728358,0.09102678009000001,1.6842296260676997,0.49981631614198113,-1.2376677277700434, ,0.015127840197428789,0.010874578570480587,0.003752370204946997,-0.0021004486021259567,0.010597952577291387,-0.08829393283052694, ,0.18428897857666016
0.009276894557513597,0.020805716409301758,-0.08049645669679666, ,0.009541451566633425,0.020716727081623528,-0.08075622104482277, ,0.00038129650932114, ,0.0021737451205250686,0.00028374088933145065,-0.004789617757217864,-0.01031129167414759,-0.014691261031538633,-0.0091731373826671, ,0.0052674581157842945, ,0.017948701461820267, ,3.245044449038474e-05, ,0.16843280398683655,-0.2456755781948301,0.09120955698000001,1.6838102461807307,0.4999529526417466,-1.2384325755948644, ,0.018480417051308817,0.011407258256475221,0.004792061227436824,0.007229925893033043,0.0,0.0, ,0.22092413902282715
0.009363409927312279,0.020806950799434967,-0.08065429961867869, ,0.009615235670579071,0.020717914016436214,-0.08089936878469829, ,0.0003624950342172738, ,0.0020303904731320595,6.125109871457573e-05,-0.0036221875617531213,-0.011253065186347043,-0.015498074027613488,-0.006499222188608057, ,0.004152888139957322, ,0.019152591835833538, ,3.344257172705814e-05, ,0.16896567255515804,-0.24532805521549,0.09131714905,1.6838102461807307,0.4999529526417466,-1.2385959330751455, ,0.01715728467880506,0.010982977007181044,0.0037880645707491084,0.005643536291812163,0.0003548398440691297,0.0017318262072630126, ,0.25372910499572754
0.00942472438251939,0.020813927668467326,-0.08078415966280333, ,0.009689249808563161,0.02071871608286182,-0.0810419074783911, ,0.00038140907631756575, ,0.002299172432719761,0.000432253018939459,-0.0051087104816961056,-0.004267731046236354,-0.008641128762721245,-0.005822519905687483, ,0.005618893070129778, ,0.009637563545685218, ,3.444789586173367e-05, ,0.1694830956577311,-0.24500370043477257,0.09145455579,1.6838102461807307,0.5002262256412775,-1.2388187688825383, ,0.018099740903770888,0.010792085324755908,0.005322021891079186,0.004610999991024285,0.008539797457635992,-0.0053222108424358285, ,0.28613901138305664
0.009493871777855926,0.020822704657453804,-0.08091798367225891, ,0.00976349028359156,0.020719138459696144,-0.08118384319817337, ,0.0003925574906590815, ,0.0023507553540359606,0.00037405212403339,-0.004673325895846331,0.003419458571491092,-0.0038573291556244643,-0.005601048543860811, ,0.005244610629475799, ,0.00515477282795958, ,3.537515909660422e-05, ,0.17007002335617216,-0.24469479111980358,0.09159455511,1.6838102461807307,0.5004994986408083,-1.2389599259497905, ,0.020242521663496323,0.010350705224202773,0.004931520594427244,0.003922028681825363,0.015779442789391987,-0.01247072232221585, ,0.318850040435791
0.009582521500310444,0.020834059253892243,-0.08109576979349221, ,0.009837953417332752,0.02071918630295014,-0.08132518198420652, ,0.0003620375841541503, ,0.0024025148855269162,7.005618958327935e-05,-0.004092107774061776,-0.019123107801681846,-0.028828606001068333,-0.0051580169966042025, ,0.004745769872150794, ,0.03459453388632552, ,3.582068105869312e-05, ,0.1708654648422173,-0.24427776354459546,0.09178251716000001,1.6838102461807307,0.5014559541391664,-1.2398215300158062, ,0.019474028639128005,0.011768915582423507,0.00419289589892077,0.0032576671070383765,-0.01035588546799621,0.007787179526801492, ,0.35186195373535156
0.009654865111043503,0.020836444657321557,-0.08120822204688644, ,0.009912635550082942,0.020718864745888004,-0.08146592984460696, ,0.00038299339918759735, ,0.0025472123917319183,0.00017032802165979296,-0.004498482971146448,-0.0119670397192868,-0.020631857555023343,-0.004530205656194255, ,0.005172393222218294, ,0.02385128055202883, ,3.638710413962171e-05, ,0.17149100620502947,-0.24396113149675225,0.09189918326,1.6838102461807307,0.501319317639401,-1.2397917908522502, ,0.021315575372522634,0.011872506137679316,0.0046684676201641274,0.0028966684896923277,0.0,0.0007942673087805035, ,0.38377904891967773
0.009721125547807491,0.020845479933314835,-0.08134856322684986, ,0.009987533040730972,0.020718178899066325,-0.08160609275550942, ,0.00039179071420611004, ,0.0024920494158539555,0.000400283109270593,-0.00544433982133355,0.013257789098176164,0.010754086216162808,-0.004268364663775714, ,0.006000947670891958, ,0.017071008679427766, ,3.6941472906427875e-05, ,0.17206248843772207,-0.24363677671603484,0.09204696032000001,1.6838102461807307,0.5020025001382282,-1.2404305591108729, ,0.021755374039080875,0.012156923079486393,0.005760872159132007,0.0026270190505179713,0.032557559888956075,-0.023898690250387752, ,0.4162940979003906
0.009803730765185929,0.020846916449524446,-0.08149378269039165, ,0.010062642266723473,0.020717133850372684,-0.08174567666113113, ,0.00038383494000144615, ,0.0022886202924791094,-0.00018743687537145344,-0.003458439425977378,-0.014479512485282856,-0.019718287091255064,-0.0036720350132132744, ,0.004151351429179529, ,0.024463587781228063, ,3.7352366377176635e-05, ,0.1727652571292765,-0.24321202640795248,0.09219732996,1.6838102461807307,0.5021391366379937,-1.2405419770145694, ,0.020238204640322194,0.012843001970289723,0.0035515744749163884,0.002354248030801962,0.0,0.0023562479753142665, ,0.44836902618408203
0.009871977797574847,0.020844107611478757,-0.081613944787365, ,0.010137959624029863,0.020715734665064395,-0.08188468747383723, ,0.00040065889189390424, ,0.002265995953436087,2.3344099252675833e-05,-0.004717713125070705,0.0054755673140250895,0.006564848734115033,-0.003884248793845708, ,0.0052337462432203415, ,0.008548629947262746, ,3.81180803687292e-05, ,0.1733907984920887,-0.24281816703136702,0.0923217738,1.6838102461807307,0.5028223191368209,-1.241017387792911, ,0.019982510330273904,0.014102681164879,0.004908724659476118,0.0021612256358048035,0.02686088412150228,-0.018637383405316444, ,0.47816896438598633
0.00994484813449141,0.020846450011488413,-0.08176311823209782, ,0.010213481527107264,0.020713986385807768,-0.08202313107420416, ,0.00039663231060640844, ,0.0022761135540045954,7.518381239138129e-05,-0.0048439875489095325,0.024415175701176767,0.02280116405173342,-0.005359233557643603, ,0.00535262187066859, ,0.03340649463751684, ,3.876834751522973e-05, ,0.1740240625877751,-0.24238569399041046,0.09247862489000001,1.6838102461807307,0.503505501635648,-1.2414927985712525, ,0.02132994865328631,0.014060889251514413,0.005130052019323672,0.001990138058790152,0.04449353564579795,-0.03695419935605213, ,0.5073089599609375
0.009999854841863694,0.02084747390699814,-0.08186186009729748, ,0.010289204408865696,0.02071189403271611,-0.08216101331108318, ,0.00043771876764983126, ,0.0023916687950215005,-6.0476393088903857e-05,-0.0044053147272070416,0.008640539477102771,0.003965453906308465,-0.004988566933555628, ,0.005013036491483768, ,0.009507036629743367, ,3.9624535350988074e-05, ,0.17448742656022856,-0.24209995287406416,0.0925810318,1.6838102461807307,0.5036421381354135,-1.241604216474949, ,0.02178034004096185,0.014208255960244165,0.0046143718192352265,0.001891807598330929,0.02577211374913687,-0.021769872780273463, ,0.5358941555023193
0.010080541577119906,0.02084328485351431,-0.08200682193313569, ,0.01036512472063303,0.020709462603389146,-0.08229834000166689, ,0.0004288108493036703, ,0.002730816693568976,-0.0001315967237191086,-0.004876515736322846,-0.005863800053775588,-0.01211421006073437,-0.004931514371078814, ,0.005590624583905894, ,0.013458760481877566, ,4.033673004204391e-05, ,0.17519791798465723,-0.241613420702988,0.09273140144000001,1.6838102461807307,0.5041886841344753,-1.2420498880897346, ,0.023333400924138378,0.016260613700903148,0.005034390493046777,0.0017499399139581514,0.01099797486001546,-0.009640078450424236, ,0.5645880699157715
0.01016522432103562,0.020845886640490027,-0.0821600425830587, ,0.010441238932120058,0.02070669707295113,-0.08243511693155153, ,0.00041379185400695646, ,0.0028376980290890446,0.00017028818302704276,-0.005712181964015235,0.002664887620660653,-0.0036714198159285643,-0.003192379565899267, ,0.006380482031915414, ,0.004536622467657071, ,4.088883921580515e-05, ,0.1759084094090859,-0.24117322492915721,0.09289084511000001,1.684019936124215,0.5044619571340061,-1.2422727238971274, ,0.023653275562928906,0.015132664895307095,0.005965847011235956,0.0,0.020365735022073634,-0.017126062962620765, ,0.5936470031738281
0.010243159778732329,0.020846802876578405,-0.08231085202920743, ,0.010517543531385565,0.02070360239409055,-0.08257134985480225, ,0.00040453916873950835, ,0.0026030745986800937,8.617483356064819e-05,-0.00506101012255717,0.021251657714622715,0.01666633575545378,-0.0026007781205277885, ,0.005691857950516586, ,0.02700740083407942, ,4.1336402539580104e-05, ,0.17659573263489187,-0.24074075188820063,0.09304899249000001,1.6838102461807307,0.5052817761325988,-1.242941231319306, ,0.024208403458793566,0.014304633940076994,0.00537772164753545,-0.0008698718275565192,0.04187266619859093,-0.034557999556013526, ,0.6221671104431152
0.01032735143023957,0.020845769924884024,-0.08245090110131469, ,0.010594035024801314,0.020700183497097825,-0.082707044494017, ,0.000397397766965255, ,0.002819367052836662,-8.788360756292242e-06,-0.0046518475196348,-0.004365878674822894,-0.013995965967302949,-0.001955557882359784, ,0.005439539793019085, ,0.0146611035663359, ,4.193664114618118e-05, ,0.17733711499081742,-0.24030827884724407,0.09319547326000001,1.6838102461807307,0.505691685631895,-1.2432754850303953, ,0.02461020268632541,0.013992471477214802,0.004865244813683569,-0.0008698718275565192,0.011024829765681117,-0.00932605550117585, ,0.6498401165008545
0.010384732068693267,0.020846639248801764,-0.0825493864518478, ,0.010670709937017155,0.020696445289905087,-0.08284220654039122, ,0.00043598758091797674, ,0.002840851608197444,8.721102436853211e-05,-0.005377827453755657,0.014281492224880638,0.008265442141206754,-0.0025953714025203894, ,0.006082686227723527, ,0.016500865112496637, ,4.269830474454861e-05, ,0.17784681536051625,-0.24002253773089777,0.09329917646000001,1.6838102461807307,0.5061015951311915,-1.2436097387414846, ,0.025503074861185374,0.015103762781867067,0.005686830246340593,-0.0008680993141145309,0.034627682870480486,-0.028531572203659424, ,0.6751511096954346
0.010470802668771255,0.020849062050570803,-0.08270378041285287, ,0.010747564810926081,0.020692392658124087,-0.08297684165378164, ,0.000419171830109455, ,0.0030650445275808213,8.87860419167116e-05,-0.005931861874846587,-0.0021844520350363748,-0.009038010349062434,-0.002541898367760238, ,0.006677526953861799, ,0.009298250072930609, ,4.331832380072188e-05, ,0.1785881977164418,-0.23959006468994118,0.09346121271,1.6838102461807307,0.5066481411302531,-1.2440554103562702, ,0.02515825598050657,0.01646944490775265,0.0061787476803723835,-0.0008200280319195568,0.016625497183021313,-0.01380440995654664, ,0.7002091407775879
0.010532165047017917,0.020851848408416588,-0.0828221482651919, ,0.010824596207629236,0.02068803046508562,-0.08311095546277131, ,0.0004424498837465613, ,0.003062104327569125,0.00016818643041008032,-0.005750358038242329,0.006867167785083285,-0.0002819591164678057,-0.0018715129838686232, ,0.006517007530782039, ,0.006872953371324195, ,4.401096866212242e-05, ,0.17911334355188904,-0.23928115537497222,0.09358565655000001,1.6836005562372458,0.5071946871293149,-1.2445827607111966, ,0.02641161746687191,0.015108572131582676,0.006065807890327494,-0.0011759942522124053,0.026925808745700542,-0.021301470598296113, ,0.7256901264190674
0.010624384149194921,0.02085101385499184,-0.08298933170676565, ,0.010901800706401066,0.020683363551877863,-0.08324455356473308, ,0.0004125588044517619, ,0.0028898572485206156,-0.00016056084413532752,-0.004971666237481408,0.02021871166090842,0.017184583226705234,-0.0042114766836473284, ,0.005752783663445822, ,0.026534999507538307, ,4.4513286084319075e-05, ,0.17990878503793417,-0.23878690047102183,0.09376065570000001,1.6833908662937616,0.5078778696281421,-1.2450581714895381, ,0.027682888435959965,0.016849598998308023,0.005291963960132891,0.000861777774229204,0.04553765212838727,-0.03555655338367287, ,0.7508561611175537
0.01068361541884139,0.02084595070079449,-0.08309122317110441, ,0.010979174904654289,0.02067839673738534,-0.0833776415258945, ,0.000444370582136979, ,0.0030548918121681796,-0.000443398734182416,-0.0043025541147088,-0.004293244373720368,-0.010464139978107311,-0.0037441127819435906, ,0.005295369517939648, ,0.011310622054487086, ,4.51308562217458e-05, ,0.18046482180487836,-0.2384239320259333,0.09386824777000001,1.6833908662937616,0.5086976886267348,-1.245645000171576, ,0.02839525480504811,0.017983123281878108,0.004490784189455879,0.000861777774229204,0.018100447814389777,-0.012737050087054143, ,0.7756040096282959
0.010777834020928191,0.020834789527826438,-0.08323617377149013, ,0.011056715417905072,0.020673134818327835,-0.08351022488140254, ,0.000423097021411257, ,0.002995178376202779,-0.00016653587732809815,-0.005209420673225597,0.00777556790354204,0.0029988745985765927,-0.004379167283949595, ,0.006011396797279346, ,0.008333828726580332, ,4.561365364453425e-05, ,0.1812988769552946,-0.23786789525898913,0.09401861741,1.6833908662937616,0.5091075981260311,-1.2457342176622435, ,0.026776789378801007,0.01736131385994709,0.005475700075627365,0.000861777774229204,0.030138444925726773,-0.02401141676353154, ,0.8012170791625977
0.010836406129213196,0.02083152082921896,-0.08335067631714847, ,0.011134418879737994,0.020667582569298903,-0.08364230913538634, ,0.00044803688822945414, ,0.003204904361375971,-0.00013393255286114574,-0.005933272386008522,-0.003053498654893591,-0.002050513850615314,-0.002698393225380427, ,0.006744855157885444, ,0.003678104638789652, ,4.6378368409280955e-05, ,0.18185491372223875,-0.23748948134815212,0.09414046867,1.6833908662937616,0.5103373266239201,-1.2466553000553708, ,0.027159971825549738,0.01893772531599896,0.006190754574426739,0.000861777774229204,0.02549433232195063,-0.01451127677064347, ,0.823138952255249
0.010906743076655678,0.020825863237599877,-0.08346396815466063, ,0.011212281941771172,0.02066174474280438,-0.08377389976102306, ,0.00046513060429561215, ,0.0036488558404673133,-0.0002852174463646794,-0.006042359581883149,-0.017647544881459948,-0.0203851964939164,-0.002753762523701981, ,0.007064390083581053, ,0.02696279044135327, ,4.7176917100904574e-05, ,0.1824341186878056,-0.23709562197156667,0.09425713477000001,1.6833908662937616,0.5103373266239201,-1.2466553000553708, ,0.030611916631764772,0.020897806993717415,0.006256406724273371,0.000861777774229204,0.010334852379207204,-0.0021709500578379155, ,0.8443150520324707
0.01097819601601171,0.020827002643780027,-0.08360017635961596, ,0.011290301273621317,0.02065562606930208,-0.08390500220060217, ,0.00046871997550808705, ,0.003378448445174067,3.9685354490734046e-05,-0.007076495038350808,0.037298605709107514,0.033877916305849624,-0.006901194699788603, ,0.007841700762708542, ,0.050387490345561024, ,4.795049407133232e-05, ,0.1830287691191209,-0.2367249307936039,0.09439583780000001,1.6833908662937616,0.5110205091227473,-1.2471307108337122, ,0.030357306960483294,0.020351049015327208,0.007485343759398498,0.000861777774229204,0.053411913456258085,-0.04650037668447048, ,0.8659679889678955
0.011048915312474093,0.020825676623000267,-0.08372800451647308, ,0.011368473562868919,0.02064923125723979,-0.08403562186558877, ,0.0004773666054205257, ,0.0034737638839244128,-0.0002805998330604849,-0.0059739804150517155,-0.003391348325902499,-0.007706838853967325,-0.004418088062573844, ,0.006916228291995042, ,0.008420011934657395, ,4.8721484481871074e-05, ,0.18363886501618462,-0.23632334868414423,0.09453454083000001,1.6833908662937616,0.5115670551218091,-1.247576382448498, ,0.02962751843848604,0.020598424475465765,0.0062221920000000005,0.000861777774229204,0.02215902089953661,-0.016120315307230883, ,0.887423038482666
0.011122823959820125,0.020824055735955777,-0.08385831966157438, ,0.011446795515023115,0.02064256499309407,-0.0841657641366882, ,0.00048209808504406525, ,0.003382246435423221,-0.0003155931929557127,-0.005812890677783489,0.018249766874098898,0.015773391118090535,-0.0011480070915466994, ,0.006732673172316866, ,0.024121646952195937, ,4.947453677612837e-05, ,0.18458876115971423,-0.23572097551995472,0.09472768804000001,1.6836005562372458,0.5129334201194634,-1.2486905614854622, ,0.03371116929252958,0.019426190697742228,0.005658547609236235,-0.0031779687711469746,0.07639113541557131,-0.06042243432833248, ,0.9093320369720459
0.011226262650814688,0.020812066282488873,-0.08402313714166212, ,0.011525263853487006,0.02063563194140936,-0.08429543436391135, ,0.00044122168255458305, ,0.003860561617464282,-0.00017539290701577715,-0.0060431446916785715,-0.012525267475390723,-0.01996310088128147,0.004042664147642922, ,0.007173165022403484, ,0.023567089639297302, ,5.003412771371679e-05, ,0.18522974798827488,-0.23532711614336926,0.09484565043000001,1.6829714864067924,0.5133433296187598,-1.24877977897613, ,0.03311128456331849,0.01917884833437162,0.006341087388535033,-0.006406824661442148,0.015012712751412232,-0.006852644862334946, ,0.9314801692962646
0.011268469564353508,0.02081009350432772,-0.08409137046959138, ,0.011603875319522549,0.020628436744836547,-0.08442463786663797, ,0.0005065208355078365, ,0.004152197396427368,0.00010347443273052821,-0.00688225274783875,-0.022014330285197403,-0.02740542143682296,-0.024880891307282813, ,0.008038460864012534, ,0.03515235193547409, ,5.100884329143258e-05, ,0.18589390301545816,-0.2349255340339096,0.09498694604,1.682761796463308,0.514026512117587,-1.24909183227419, ,0.03359183771981267,0.019877867942704394,0.007513590339622642,0.02477475995851165,0.06334629502939343,-0.042538928078267806, ,0.949653148651123
0.011338457610993006,0.02081029501210786,-0.0842240876152608, ,0.011682626672215866,0.02062098402417182,-0.08455337993368109, ,0.0005125665067354195, ,0.003439209337890542,7.600885371968389e-05,-0.006620286804746145,0.03886043729304011,0.045917421772697184,-0.023018911648211987, ,0.007460706105508593, ,0.060154328158006115, ,5.196974735963503e-05, ,0.18623370326192404,-0.23473246571205397,0.09505953828000001,1.682761796463308,0.5148463311161796,-1.2497603396963686, ,0.03216845476558331,0.01963114223385825,0.007149376804308797,0.021413017177236995,0.07456149300200245,-0.05228976182662853, ,0.9681110382080078
0.011419787342816557,0.020810451583070613,-0.08436465068556415, ,0.011761514688442026,0.02061327837839537,-0.08468166582335201, ,0.0005061160429948804, ,0.004388356561681612,0.00014128341194384264,-0.007385522411988964,-0.03183281062315926,-0.03114135116684772,-0.01358153253128488, ,0.008592064688591203, ,0.044532140782731315, ,5.2871825404311614e-05, ,0.18690558102198157,-0.2343308836025943,0.09520731534000001,1.682761796463308,0.5152562406154759,-1.2497678784468957, ,0.03448290027560711,0.020238204640322194,0.007724932841901067,0.01573187477094728,0.0,0.015685940943489886, ,0.9863159656524658
0.011500345483274284,0.02080869447981136,-0.0845041784197716, ,0.011840536162830467,0.020605324384710102,-0.08480950076352364, ,0.0005003107310788262, ,0.0035625924704026147,-1.809032992699226e-05,-0.006539150615391477,0.06847065747121754,0.06401492726084522,-0.019429810546907962, ,0.00744666926491173, ,0.09373442182461857, ,5.372057218149603e-05, ,0.18763151791215868,-0.23390613329451196,0.09535638869000002,1.682761796463308,0.5163493326135995,-1.2504141854560453, ,0.03579665845283696,0.020152249216069396,0.007168682052205221,0.012543213875090314,0.09850967775814035,-0.08422987810782866, ,1.0071611404418945
0.01158212525379046,0.02080752037615247,-0.08464448628171409, ,0.011919687907729869,0.020597126598580765,-0.0849368899516958, ,0.0004936739745968785, ,0.0044457056439498295,0.00012297280563695082,-0.007612594525072656,-0.030841510735910755,-0.03746236449091722,-0.011138749716408512, ,0.008816519516608567, ,0.0485245042443258, ,5.4515876470151145e-05, ,0.18834200933658735,-0.2334891057193038,0.09550546204,1.682761796463308,0.5171691516121921,-1.251082692878224, ,0.033867573718226546,0.020611846559181315,0.00792872649079144,0.010549760036497477,-0.0059784845406296696,0.012852568702400754, ,1.024872064590454
0.011668048324502724,0.02079787141263423,-0.08476838782287417, ,0.011998966753173312,0.020588689553772244,-0.08506383855505949, ,0.0004904642613479665, ,0.003961309642975362,-0.0005553390005175651,-0.005699404043136761,0.011765085233835886,0.0019059783144395198,-0.014727935552489819, ,0.006963015290802475, ,0.01191847212862291, ,5.527242118889146e-05, ,0.1890833916925129,-0.23302574174685037,0.09563509104000001,1.682761796463308,0.517442424611723,-1.2510604924651951, ,0.03631723748889046,0.023202186200115105,0.006038215132676271,0.009079761390883163,0.03670443875908082,-0.0322912314974649, ,1.0429050922393799
0.011705012611579357,0.02079191953446145,-0.08482716334101577, ,0.012078369546843411,0.020580017762388582,-0.08519035171055991, ,0.0005623197968145203, ,0.00393056614903894,-0.00041700993388939017,-0.006406967174197106,0.051211769762794825,0.04700131751689398,-0.015454394252470999, ,0.007528112373508547, ,0.06951092863546998, ,5.6248386004147646e-05, ,0.18945408287047566,-0.2327863370277494,0.09569860925000001,1.682761796463308,0.5182622436103156,-1.2517289998873737, ,0.03881265503413938,0.02387945182648988,0.0069497432460732984,0.008520669478925639,0.085248426206144,-0.07152028565105212, ,1.060621976852417
0.0117907480819006,0.020787239839683037,-0.08496146660637693, ,0.012157893154037426,0.0205711157149119,-0.08531643452496272, ,0.0005545334656515984, ,0.004734452721559258,-0.00021540019659929886,-0.007683186644933118,-0.027821272702210346,-0.0219229768058904,0.0016564066166893394, ,0.009027336087587162, ,0.035420899198478205, ,5.735794802985475e-05, ,0.19020318795927546,-0.23233841852104437,0.09584120115000001,1.6829714864067924,0.5189454261091428,-1.2519593744452935, ,0.03894006629399704,0.024146804467804265,0.008061139433198382,0.0,0.01771135533415346,0.005611583513681021, ,1.0757570266723633
0.011848433208886539,0.020783956486350015,-0.08505739786913942, ,0.012237534457632274,0.020561987880240672,-0.08544209207491721, ,0.0005904739417049821, ,0.004251176336755407,-0.0002268481517509549,-0.007019395634331528,0.00424825800055047,-0.010353936527428182,-0.006654934437098699, ,0.00820949909564612, ,0.01119158972675974, ,5.855742360987323e-05, ,0.1906897201303516,-0.2320295092060754,0.09594231177000001,1.6829714864067924,0.5193553356084392,-1.2520485919359612, ,0.03548875899718429,0.02240248856432266,0.0073881315027829325,0.0,0.025463795691978448,-0.02603725501482496, ,1.090684175491333
0.011950119667839845,0.02077948324827234,-0.08524764967870636, ,0.01231729035804968,0.020552638705728987,-0.08556732940702048, ,0.000537092069319461, ,0.005009867764343633,0.00011701891770443391,-0.009786403844870957,0.011847338958291603,0.01865682575465648,-0.0010300869123452145, ,0.010994824630625778, ,0.022100599491088092, ,5.95504150029223e-05, ,0.1915701116780132,-0.23145030424050855,0.09614453301,1.682761796463308,0.520858337105859,-1.2531925101364811, ,0.04113434831316461,0.026192917901868833,0.010390614168297457,-0.0008735959299831424,0.061291803142724824,-0.035708206524073825, ,1.1055490970611572
0.011998071996492807,0.020779849528200323,-0.08533724425550925, ,0.012397157773221354,0.020543072617225357,-0.08569215153788248, ,0.0005842019700749317, ,0.005491744355378823,0.0001615602877531143,-0.009722662502458696,-0.017708538715173944,-0.016576136183335297,0.0009110657510946666, ,0.01116761048425895, ,0.024256144526986222, ,6.0670157106686845e-05, ,0.19195624832172442,-0.23120317678853336,0.09623916218,1.682761796463308,0.5212682466051554,-1.2534450851074297, ,0.043650847083013235,0.025366731237228223,0.01027002676982592,-0.0008560713270599222,0.028073671113345633,-0.005825933125171727, ,1.119987964630127
0.012081879366718859,0.02078168946225986,-0.08548863746617437, ,0.01247713363855398,0.02053329401911102,-0.08581656345419028, ,0.0005704924970560384, ,0.005410320062304717,-0.00040968946294410886,-0.009373015035091895,-0.01924221520839283,-0.019062617178615557,-0.0022995436084280734, ,0.010830180953275113, ,0.027085903113640945, ,6.171747937067818e-05, ,0.19261268061603348,-0.23080159467907368,0.09639860585000001,1.682761796463308,0.5216781561044516,-1.253615981338238, ,0.04303716170452189,0.03060204500434401,0.009778275948434624,-0.0008247970448951111,0.024776768937257554,-0.009874137865682578, ,1.1341581344604492
0.012130898702566957,0.02077593435499013,-0.08557506124250117, ,0.012557214906894402,0.020523307294339013,-0.0859405701127718, ,0.0006157618631353346, ,0.004865065930587139,-0.00048462778683351843,-0.008309540447076292,0.0454617260112905,0.04118345531338058,-0.007552714953187595, ,0.009641171767079336, ,0.06134203684144787, ,6.288117636011863e-05, ,0.1930528763898643,-0.23049268536410472,0.09649064244000001,1.682761796463308,0.5224979751030443,-1.254039452539995, ,0.04480497712864532,0.02901159937587,0.00892370393277311,-0.0008042003916496015,0.08759182207716769,-0.0724529334811014, ,1.14823317527771
0.01223994731933859,0.02076506113838028,-0.0857497915701916, ,0.012637398548494763,0.02051311680447302,-0.0860641764406605, ,0.000565933983540021, ,0.005724399238239915,-0.0005319710740857204,-0.008697153705971447,-0.009978744284290299,-0.001113290369500217,0.0005562241285361436, ,0.010425556217666207, ,0.01004065252747373, ,6.406020903030509e-05, ,0.1940027725333939,-0.2298903121999152,0.09667601191000001,1.6825521065198237,0.5235910671011678,-1.2548491170294256, ,0.05010398181545448,0.03042543813993933,0.009255555793143523,-3.322408659509682e-05,0.05027657075120818,-0.017584965003811806, ,1.1601121425628662
0.01229710731068786,0.02075948081673698,-0.08583743920812383, ,0.012717681550977489,0.020502726889725955,-0.08618738733516011, ,0.0006043748524276853, ,0.005935191089182126,-0.0006659637950374651,-0.009072023607275874,0.008933179004628764,-0.0031643103144099217,-0.00776177605657019, ,0.010861473812166485, ,0.009477050461233535, ,6.533635214280282e-05, ,0.1945047501702185,-0.22958140288494622,0.09676934479,1.6825521065198237,0.5241376131002295,-1.2550497524237896, ,0.05143465667125787,0.03284767793647309,0.009613042558841281,-6.761659196349387e-05,0.049071258472855504,-0.04026187588071839, ,1.1710729598999023
0.01235821875455419,0.020752557735022065,-0.08593422226860654, ,0.012798060919300547,0.020492141868999034,-0.08631020766390866, ,0.0006345412284838373, ,0.0061301595338041324,-0.0005643868359161233,-0.010278884962649676,-0.0007200596113919398,0.004616433424531585,-0.00321495102953165, ,0.011981354868537646, ,0.004672240218897037, ,6.66815428546293e-05, ,0.19502989600566578,-0.22923387990560612,0.09687175170000001,1.6825521065198237,0.5246841590992912,-1.2554137452984346, ,0.05157442476003847,0.03486294693551461,0.010865492169167804,-9.579361918461653e-05,0.05743859112528934,-0.031540768617918234, ,1.1818711757659912
0.01243719346800036,0.02074429173294103,-0.0860686274776148, ,0.012878533675722496,0.020481366039920127,-0.08643264226494218, ,0.0006296172364188719, ,0.006404852520919539,-0.0005390994893569032,-0.010773413724194946,0.014067327059363277,0.020654404418904575,-0.002328804742177298, ,0.01254508698044084, ,0.024989877297849745, ,6.79872346718177e-05, ,0.19570949649859753,-0.22877823866602687,0.09701434360000001,1.6823424165763388,0.5256406145976494,-1.2561119918841692, ,0.05523686935883049,0.03593220051437743,0.01147608899135447,-0.001607359393383325,0.0778084202642189,-0.04724930801717265, ,1.1940891742706299
0.012506956148539526,0.02074082365896647,-0.08618550324800181, ,0.012959096859767523,0.020470403678882778,-0.08655469594676038, ,0.0006433206332730662, ,0.007060067441742959,-7.914098693368468e-05,-0.012059695502760707,-0.004458383908506532,0.0005444477457181117,0.0005010163968252204, ,0.013974515061249125, ,0.0044914758532505214, ,6.931060494066593e-05, ,0.19629642419703858,-0.22841527022093833,0.09713878744000001,1.6823424165763388,0.5263237970964766,-1.2565057239223703, ,0.058005465500287755,0.034147873896535,0.012845815741935485,-0.001607359393383325,0.060306240893443,-0.02695237659724066, ,1.2048611640930176
0.012580462260946085,0.02073866974386897,-0.08631147475114953, ,0.013039747528190763,0.020459259041085042,-0.08667637348838972, ,0.0006497417840786509, ,0.0074858772333563665,-0.0005686537680910427,-0.01230957321524618,-0.010784721518228022,-0.001839038845410573,-6.376465346125747e-05, ,0.014418298020305776, ,0.010940383881418141, ,7.062944066979027e-05, ,0.19689107462835387,-0.22804457904297554,0.09727230531000002,1.6823424165763388,0.5268703430955384,-1.256869716797015, ,0.06222750266129232,0.04017652055820101,0.013045709680589684,-0.001607359393383325,0.0622128961115675,-0.02638193798918259, ,1.2154080867767334
0.012654425631936826,0.02073191797640467,-0.08642917908587353, ,0.013120482754943192,0.020447936360568242,-0.08679767963944893, ,0.0006585191402103799, ,0.007145143520927924,-0.0007125979015075972,-0.011035543992615639,0.01667284692622278,0.019295869018784714,-0.003079486661413134, ,0.013166020770029435, ,0.02550125922666338, ,7.19508336230477e-05, ,0.19753206145691452,-0.22764299693351586,0.09739804544000001,1.6823424165763388,0.527690162094131,-1.2574565454790532, ,0.063054446218253,0.03852900591086918,0.011834183893016346,-0.001607359393383325,0.0843574066568336,-0.052274360895613756, ,1.228607177734375
0.012665211072323893,0.020731004579684922,-0.08644530025766418, ,0.013201299631136983,0.020436439850255405,-0.08691861912021194, ,0.0007734274809946193, ,0.007127715219515295,-0.0007361314302382041,-0.010956494210342177,0.013497294338006718,0.01845966218666931,-0.0022197343936014432, ,0.013091637755237355, ,0.022867792298372075, ,7.380238013407276e-05, ,0.19761701151853098,-0.2275889378033963,0.09741489721,1.6823424165763388,0.527690162094131,-1.2573748667389126, ,0.06292900633850848,0.038560317577598854,0.01174691115044248,-0.001607359393383325,0.08343185174199524,-0.04900028334641966, ,1.2361760139465332
0.012805437607279717,0.020712224437353176,-0.08665286759998896, ,0.01328219526501033,0.020424773701990587,-0.08703919662167342, ,0.0006776251932011886, ,0.007750569353446123,-0.0009534302155759704,-0.011386156839592267,-0.061524197205568065,-0.04843369233363553,0.01095373435892796, ,0.013806698448736585, ,0.0783010166184554, ,7.535214748183021e-05, ,0.19879858964828734,-0.2268321099817223,0.09763397022,1.6819230366893698,0.5285099810927236,-1.2577166592005289, ,0.06272104531293508,0.04113434831316461,0.011931694022471913,-0.00798058313599806,0.01706439945052139,0.022030289624834377, ,1.2439191341400146
0.012805437607279717,0.020712224437353176,-0.08665286759998896, ,0.013363166781892867,0.02041294208657741,-0.08715941680561293, ,0.0008106934410853535, ,0.007750569353446123,-0.0009534302155759704,-0.011386156839592267,-0.061524197205568065,-0.04843369233363553,0.01095373435892796, ,0.013806698448736585, ,0.0783010166184554, ,7.727072058102117e-05, ,0.19879858964828734,-0.2268321099817223,0.09763397022,1.6819230366893698,0.5285099810927236,-1.2577166592005289, ,0.06272104531293508,0.04113434831316461,0.011931694022471913,-0.00798058313599806,0.01706439945052139,0.022030289624834377, ,1.2510759830474854
0.012881333815686085,0.020703025278302756,-0.08677279455013655, ,0.01344421132417067,0.02040094915381756,-0.08727928430465891, ,0.0008152379689255957, ,0.007869873570622035,-0.0006630837651543527,-0.013130923742324848,0.06774720812586667,0.0578658255944888,-0.005745999850330134, ,0.01532304631670664, ,0.08909622657672615, ,7.918024811791006e-05, ,0.19946274467547065,-0.22639963694076573,0.09776230293,1.6819230366893698,0.5294664365910817,-1.2582515483059822, ,0.07013816818807891,0.04323323077834659,0.01418415985752449,-0.00798058313599806,0.13174904902797582,-0.10945773389305699, ,1.2581961154937744
0.012968176524106749,0.020698771249512762,-0.08692436830781658, ,0.013525326051251216,0.020388799032549927,-0.08739880372235266, ,0.0007947246903501748, ,0.008662946312581882,-0.00029367076167694135,-0.015798313893731236,0.06624807164048604,0.05955140546266314,-0.005629239454428868, ,0.01801997789165684, ,0.08907960431282072, ,8.100888085961797e-05, ,0.20021184976427042,-0.22593627296831226,0.09792563547000001,1.6819230366893698,0.5308328015887361,-1.2592023698626653, ,0.0731101244672348,0.045999486940606286,0.016981675394456292,-0.00798058313599806,0.13650778608699257,-0.11045347662893984, ,1.2654509544372559
0.012968176524106749,0.020698771249512762,-0.08692436830781658, ,0.013606508139528867,0.020376495830689435,-0.08751797963321419, ,0.0009293562839220833, ,0.008662946312581882,-0.00029367076167694135,-0.015798313893731236,0.06624807164048604,0.05955140546266314,-0.005629239454428868, ,0.01801997789165684, ,0.08907960431282072, ,8.32012766373404e-05, ,0.20021184976427042,-0.22593627296831226,0.09792563547000001,1.6819230366893698,0.5308328015887361,-1.2592023698626653, ,0.0731101244672348,0.045999486940606286,0.016981675394456292,-0.00798058313599806,0.13650778608699257,-0.11045347662893984, ,1.273022174835205
0.013033590891969326,0.020697089508947906,-0.08704528863058304, ,0.013687754782349728,0.020364043635265307,-0.08763681658280446, ,0.0009427381755895413, ,0.009195628846816064,-0.0002371152147610017,-0.016429367151664105,0.026902402620962378,0.036800784222842844,0.002482481979380475, ,0.018829230428183897, ,0.04558547783196938, ,8.540677556437124e-05, ,0.200713827401095,-0.22561191818759482,0.09804489415,1.6819230366893698,0.5317892570870942,-1.2599006164483997, ,0.07519567476899429,0.047025243586952814,0.017542743964757714,-0.00798058313599806,0.11641265142877612,-0.07096391593556267, ,1.2824881076812744
0.013154207519912612,0.020694489503937312,-0.08725220616211125, ,0.01376906318997676,0.02035144651246063,-0.08775531908779172, ,0.0008653603902410003, ,0.009960001449634224,-0.00042475559959232893,-0.016808112008483336,-0.04280978441303464,-0.039697826178609195,0.005594238622503565, ,0.019542125664467072, ,0.0583831628407133, ,8.736877228502735e-05, ,0.20171005994186997,-0.2250018222905311,0.09827563377000001,1.6819230366893698,0.5327457125854522,-1.2603538268137124, ,0.0760392159923644,0.0491948893512031,0.01771836654060067,-0.00798058313599806,0.03925255518090659,-0.00469668313333756, ,1.2896380424499512
0.013257500200173144,0.020687436268870464,-0.08742129422470457, ,0.013850430589555107,0.020338708507650422,-0.08787349163601461, ,0.0008232010671116094, ,0.010693020318675223,-0.0007119747823258135,-0.0169938018004801,-0.0803001282240373,-0.07022112206977896,0.00793241712127694, ,0.020090716544221857, ,0.10667293546286771, ,8.919029903373957e-05, ,0.20249777869504088,-0.22448439918795804,0.0984532255,1.6817133467458854,0.5330189855849832,-1.2603316264006836, ,0.08110849705852202,0.052720523088039324,0.01783741491601344,-0.005581868022986937,0.013146515764281965,0.030139047686893385, ,1.2974190711975098
0.013257500200173144,0.020687436268870464,-0.08742129422470457, ,0.013931854225077046,0.020325833645440737,-0.08799133868654689, ,0.0009541805367185257, ,0.010693020318675223,-0.0007119747823258135,-0.0169938018004801,-0.0803001282240373,-0.07022112206977896,0.00793241712127694, ,0.020090716544221857, ,0.10667293546286771, ,9.161324087599387e-05, ,0.20249777869504088,-0.22448439918795804,0.0984532255,1.6817133467458854,0.5330189855849832,-1.2603316264006836, ,0.08110849705852202,0.052720523088039324,0.01783741491601344,-0.005581868022986937,0.013146515764281965,0.030139047686893385, ,1.3011679649353027
0.013361859370099425,0.020678731199365103,-0.08758811726673851, ,0.014013331357347208,0.020312825929707366,-0.08810886466976192, ,0.0009107580767072559, ,0.010301507791136852,-0.0009638945618631744,-0.016313598154280223,0.03661540010898373,0.01924422674424333,-0.004534045169281509, ,0.019317961596311804, ,0.04136455768748268, ,9.390135494256164e-05, ,0.20334727931120555,-0.22395153061963655,0.09863081723000001,1.6815036568024009,0.5338388045835759,-1.2609184550827215, ,0.08650587197672815,0.0540107806251968,0.01748497422612514,-0.01067114549449162,0.10969357838908197,-0.08980563980625537, ,1.3049249649047852
0.013361859370099425,0.020678731199365103,-0.08758811726673851, ,0.01409485926394768,0.020299689343634738,-0.08822607398739646, ,0.0010430485847791127, ,0.010301507791136852,-0.0009638945618631744,-0.016313598154280223,0.03661540010898373,0.01924422674424333,-0.004534045169281509, ,0.019317961596311804, ,0.04136455768748268, ,9.654521909252417e-05, ,0.20334727931120555,-0.22395153061963655,0.09863081723000001,1.6815036568024009,0.5338388045835759,-1.2609184550827215, ,0.08650587197672815,0.0540107806251968,0.01748497422612514,-0.01067114549449162,0.10969357838908197,-0.08980563980625537, ,1.3102190494537354
0.01347330630645043,0.020669384108560427,-0.08776958005930277, ,0.014176435239203117,0.020286427849754606,-0.08834297101261578, ,0.0011778115054229114, ,0.010301507791136852,-0.0009638945618631744,-0.016313598154280223,0.03661540010898373,0.01924422674424333,-0.004534045169281509, ,0.019317961596311804, ,0.04136455768748268, ,0.0005429931084793802, ,0.2042740072561125,-0.22337232565406973,0.09882526073,1.6812939668589162,0.5350685330814648,-1.26200289495613, ,0.09905735026980249,0.05897883254100111,0.022031551203319507,-0.015982174505835684,0.11531388628474436,-0.08811207098482048, ,1.3141119480133057
0.01347330630645043,0.020669384108560427,-0.08776958005930277, ,0.01425805659414592,0.02027304538998472,-0.08845956009007754, ,0.0011175821387031607, ,0.01230624986911679,-0.0004429547313308023,-0.020563692652406523,0.029418864482535344,0.010967263916554438,0.0013056387055508634, ,0.023968843322901157, ,0.031396604723384604, ,0.000551569064154362, ,0.2042740072561125,-0.22337232565406973,0.09882526073,1.6812939668589162,0.5350685330814648,-1.26200289495613, ,0.09905735026980249,0.05897883254100111,0.022031551203319507,-0.015982174505835684,0.11531388628474436,-0.08811207098482048, ,1.3187439441680908
0.01347330630645043,0.020669384108560427,-0.08776958005930277, ,0.014339720656481326,0.020259545885667897,-0.08857584553599603, ,0.001252479626097993, ,0.01230624986911679,-0.0004429547313308023,-0.020563692652406523,0.029418864482535344,0.010967263916554438,0.0013056387055508634, ,0.023968843322901157, ,0.031396604723384604, ,0.0005618765724182389, ,0.2042740072561125,-0.22337232565406973,0.09882526073,1.6812939668589162,0.5350685330814648,-1.26200289495613, ,0.09905735026980249,0.05897883254100111,0.022031551203319507,-0.015982174505835684,0.11531388628474436,-0.08811207098482048, ,1.3223800659179688
0.013602706421897051,0.020667771837267344,-0.08799265468048457, ,0.014421424770552582,0.020245933237610522,-0.08869183163820703, ,0.0011563286543174879, ,0.013530229278223397,-0.00013145108721985426,-0.024168104228508812,0.017573828675546056,-0.0018071092960822712,-0.0007283183914142727, ,0.027698044077329547, ,0.017666263127857632, ,0.0005704918199819962, ,0.2052856852626359,-0.222762229757006,0.09906377809000001,1.6812939668589162,0.5361616250795883,-1.2628942381857011, ,0.10292509930419824,0.06442426446603583,0.02573313654281099,-0.015192958103732123,0.10605983585503244,-0.08167397033951125, ,1.3259739875793457
0.013602706421897051,0.020667771837267344,-0.08799265468048457, ,0.014503166297306098,0.020232211326121366,-0.08880752265623162, ,0.001290174702894734, ,0.013530229278223397,-0.00013145108721985426,-0.024168104228508812,0.017573828675546056,-0.0018071092960822712,-0.0007283183914142727, ,0.027698044077329547, ,0.017666263127857632, ,0.0005807730040236067, ,0.2052856852626359,-0.222762229757006,0.09906377809000001,1.6812939668589162,0.5361616250795883,-1.2628942381857011, ,0.10292509930419824,0.06442426446603583,0.02573313654281099,-0.015192958103732123,0.10605983585503244,-0.08167397033951125, ,1.3295860290527344
0.013746745151444738,0.020667240910747214,-0.08825144794896814, ,0.014584942614256422,0.020218384011050597,-0.08892292282134091, ,0.0014255301364140835, ,0.013530229278223397,-0.00013145108721985426,-0.024168104228508812,0.017573828675546056,-0.0018071092960822712,-0.0007283183914142727, ,0.027698044077329547, ,0.017666263127857632, ,0.0005926709918037543, ,0.2052856852626359,-0.222762229757006,0.09906377809000001,1.6812939668589162,0.5361616250795883,-1.2628942381857011, ,0.10292509930419824,0.06442426446603583,0.02573313654281099,-0.015192958103732123,0.10605983585503244,-0.08167397033951125, ,1.3337740898132324
0.013746745151444738,0.020667240910747214,-0.08825144794896814, ,0.014666751115451588,0.020204455131828423,-0.08903803633661976, ,0.00129587921604061, ,0.015468941385682835,0.00010760610122582373,-0.02814022728548035,0.036146060271090616,0.014577415676264747,-0.005130667959584735, ,0.032111868808046735, ,0.038974620912280426, ,0.0006024377726959328, ,0.2063823133307758,-0.2220749065312,0.09933988786,1.6812939668589162,0.5373913535774772,-1.2638153205788285, ,0.11643796510241813,0.0718916223927809,0.02971793194029851,-0.013707612803729757,0.13658095077335242,-0.10684286136874613, ,1.3377790451049805
0.013746745151444738,0.020667240910747214,-0.08825144794896814, ,0.014748589211438148,0.02019042850750364,-0.08915286737703235, ,0.0014295448834236012, ,0.015468941385682835,0.00010760610122582373,-0.02814022728548035,0.036146060271090616,0.014577415676264747,-0.005130667959584735, ,0.032111868808046735, ,0.038974620912280426, ,0.0006137680070894625, ,0.2063823133307758,-0.2220749065312,0.09933988786,1.6812939668589162,0.5373913535774772,-1.2638153205788285, ,0.11643796510241813,0.0718916223927809,0.02971793194029851,-0.013707612803729757,0.13658095077335242,-0.10684286136874613, ,1.3413500785827637
0.013911222631030427,0.020669684546990773,-0.08856143472968944, ,0.014830454329226327,0.02017630793678279,-0.08926742008948486, ,0.0012596915188703573, ,0.016575021468051798,0.0003004322403430007,-0.031796184190366804,0.050495578719975884,0.031448543120797576,-0.01792812255635609, ,0.03585831737916807, ,0.05948766120221978, ,0.0006224967031946097, ,0.20760250512490327,-0.22130263324377755,0.09967044181000001,1.6810842769154317,0.5388943550748971,-1.2649592387793485, ,0.12150696742441842,0.07921280597535124,0.03389108834042554,-0.003983279218639809,0.1559706288505165,-0.12632342033093566, ,1.3450391292572021
0.013911222631030427,0.020669684546990773,-0.08856143472968944, ,0.014912343912255108,0.02016209719806881,-0.08938169859289154, ,0.0013902235582027077, ,0.016575021468051798,0.0003004322403430007,-0.031796184190366804,0.050495578719975884,0.031448543120797576,-0.01792812255635609, ,0.03585831737916807, ,0.05948766120221978, ,0.0006327330612613843, ,0.20760250512490327,-0.22130263324377755,0.09967044181000001,1.6810842769154317,0.5388943550748971,-1.2649592387793485, ,0.12150696742441842,0.07921280597535124,0.03389108834042554,-0.003983279218639809,0.1559706288505165,-0.12632342033093566, ,1.3490750789642334
0.013911222631030427,0.020669684546990773,-0.08856143472968944, ,0.014994255420357448,0.020147800049499617,-0.08949570697823751, ,0.0015225597150477, ,0.016575021468051798,0.0003004322403430007,-0.031796184190366804,0.050495578719975884,0.031448543120797576,-0.01792812255635609, ,0.03585831737916807, ,0.05948766120221978, ,0.0006444413067059412, ,0.20760250512490327,-0.22130263324377755,0.09967044181000001,1.6810842769154317,0.5388943550748971,-1.2649592387793485, ,0.12150696742441842,0.07921280597535124,0.03389108834042554,-0.003983279218639809,0.1559706288505165,-0.12632342033093566, ,1.3530230522155762
0.014067894682844683,0.020670374042994422,-0.08885999880831877, ,0.015076186329725412,0.02013342022898729,-0.08960944930864442, ,0.0013662530863586854, ,0.017764212672464634,0.0004344822370311596,-0.03273759179178746,0.04231710908006208,0.012172048770084308,0.002385544965998395, ,0.03724924083807022, ,0.04403247538112833, ,0.0006538154856624703, ,0.2087454695902885,-0.22056897362072622,0.09998803286,1.6804552070849783,0.5402607200725515,-1.2660734178163127, ,0.13107312369954527,0.07881805777281627,0.03500837696703297,-0.025262344864249785,0.15074598196905162,-0.12225508618498936, ,1.3568451404571533
0.014067894682844683,0.020670374042994422,-0.08885999880831877, ,0.015158134132875263,0.02011896145425661,-0.08972292961943373, ,0.0014957698640476246, ,0.017764212672464634,0.0004344822370311596,-0.03273759179178746,0.04231710908006208,0.012172048770084308,0.002385544965998395, ,0.03724924083807022, ,0.04403247538112833, ,0.000664609772564844, ,0.2087454695902885,-0.22056897362072622,0.09998803286,1.6804552070849783,0.5402607200725515,-1.2660734178163127, ,0.13107312369954527,0.07881805777281627,0.03500837696703297,-0.025262344864249785,0.15074598196905162,-0.12225508618498936, ,1.3604581356048584
0.014067894682844683,0.020670374042994422,-0.08885999880831877, ,0.015240096338612535,0.02010442742288362,-0.08983615191819168, ,0.0016270301756618674, ,0.017764212672464634,0.0004344822370311596,-0.03273759179178746,0.04231710908006208,0.012172048770084308,0.002385544965998395, ,0.03724924083807022, ,0.04403247538112833, ,0.0006767923093129076, ,0.21026684796651074,-0.21964224567581928,0.1003717347,1.6802455171414936,0.5417637215699714,-1.2672990147569734, ,0.14554745637802266,0.09107192088144989,0.03500837696703297,-0.05606197932878622,0.12417834251312232,-0.10074934404263092, ,1.3640179634094238
0.014272271155093432,0.020669467572143024,-0.0892190913130599, ,0.015322070471997358,0.0200898218123349,-0.08994912018483334, ,0.0014039266242429783, ,0.019429131101352505,-0.0008688711114165393,-0.03286228644456181,0.00209296209538163,-0.035175981345667046,0.029948973603818985, ,0.03818607000892116, ,0.03523764788362482, ,0.0006858814882495335, ,0.21026684796651074,-0.21964224567581928,0.1003717347,1.6802455171414936,0.5417637215699714,-1.2672990147569734, ,0.14554745637802266,0.09107192088144989,0.03500837696703297,-0.05606197932878622,0.12417834251312232,-0.10074934404263092, ,1.3675460815429688
0.014272271155093432,0.020669467572143024,-0.0892190913130599, ,0.015404054074309476,0.020075148280006082,-0.09006183837166729, ,0.0015311337635970112, ,0.019429131101352505,-0.0008688711114165393,-0.03286228644456181,0.00209296209538163,-0.035175981345667046,0.029948973603818985, ,0.03818607000892116, ,0.03523764788362482, ,0.0006963167015254282, ,0.21026684796651074,-0.21964224567581928,0.1003717347,1.6802455171414936,0.5417637215699714,-1.2672990147569734, ,0.14554745637802266,0.09107192088144989,0.03500837696703297,-0.05606197932878622,0.12417834251312232,-0.10074934404263092, ,1.3711400032043457
0.014472950776467467,0.020658731045389372,-0.08955307547501751, ,0.015486044703013376,0.02006041046326045,-0.09017431040345945, ,0.001330518567822174, ,0.02051465983546442,-0.0017210291672979836,-0.0329400942454694,0.023866201411285263,-0.01120984389312949,0.010489456398829894, ,0.038844086016534274, ,0.026366975337522067, ,0.000704050870626608, ,0.21178050360985873,-0.218669181333667,0.10072821445,1.6802455171414936,0.5431300865676258,-1.2684131937939376, ,0.15869053772319527,0.10106170560007538,0.03524073345132744,-0.039520825937979585,0.15806531761519316,-0.12848093187368415, ,1.3747661113739014
0.014472950776467467,0.020658731045389372,-0.08955307547501751, ,0.015568039931723534,0.02004561197946815,-0.09028654017749814, ,0.0014536525433337091, ,0.02051465983546442,-0.0017210291672979836,-0.0329400942454694,0.023866201411285263,-0.01120984389312949,0.010489456398829894, ,0.038844086016534274, ,0.026366975337522067, ,0.0007130822160809105, ,0.21178050360985873,-0.218669181333667,0.10072821445,1.6802455171414936,0.5431300865676258,-1.2684131937939376, ,0.15869053772319527,0.10106170560007538,0.03524073345132744,-0.039520825937979585,0.15806531761519316,-0.12848093187368415, ,1.3783421516418457
0.014472950776467467,0.020658731045389372,-0.08955307547501751, ,0.015650037350169385,0.02003075642604488,-0.09039853156365761, ,0.001579455894398069, ,0.02051465983546442,-0.0017210291672979836,-0.0329400942454694,0.023866201411285263,-0.01120984389312949,0.010489456398829894, ,0.038844086016534274, ,0.026366975337522067, ,0.000723396188441829, ,0.21178050360985873,-0.218669181333667,0.10072821445,1.6802455171414936,0.5431300865676258,-1.2684131937939376, ,0.15869053772319527,0.10106170560007538,0.03524073345132744,-0.039520825937979585,0.15806531761519316,-0.12848093187368415, ,1.3820700645446777
0.014673663032428983,0.020641375361604233,-0.08985876182383735, ,0.01573203456416064,0.020015847380490132,-0.09051028840446274, ,0.001391374298885134, ,0.020794647502567137,-0.0024162893501288936,-0.029775093147263617,0.013150860447208033,-0.03222080713017298,0.0026804366485659193, ,0.03639796685129257, ,0.034800892803763965, ,0.0007312547544470444, ,0.21337138658194899,-0.2176961169915147,0.10105747211,1.6802455171414936,0.5447697245648111,-1.2697502086382946, ,0.16648586238328208,0.10084690920135046,0.03204992257545272,-0.03098847918970046,0.14275758218264079,-0.11606870361018866, ,1.3860430717468262
0.014673663032428983,0.020641375361604233,-0.08985876182383735, ,0.015814029195552245,0.020000888400426787,-0.09062181451515372, ,0.001514235101680032, ,0.020794647502567137,-0.0024162893501288936,-0.029775093147263617,0.013150860447208033,-0.03222080713017298,0.0026804366485659193, ,0.03639796685129257, ,0.034800892803763965, ,0.0007403591770892885, ,0.21337138658194899,-0.2176961169915147,0.10105747211,1.6802455171414936,0.5447697245648111,-1.2697502086382946, ,0.16648586238328208,0.10084690920135046,0.03204992257545272,-0.03098847918970046,0.14275758218264079,-0.11606870361018866, ,1.38985013961792
0.014896454695255714,0.02060736756124007,-0.09016351953660928, ,0.015896018882209723,0.019985883023639354,-0.09073311368374967, ,0.0013075966835283705, ,0.022105515909201314,-0.0038366803238950053,-0.02963408941339262,0.017390792473199947,-0.02376955519388799,-0.031264302739451084, ,0.03716925079794674, ,0.029451800678173583, ,0.0007468791484276687, ,0.21517850607451752,-0.2165608752590037,0.10138543348000001,1.6800358271980091,0.546272726062231,-1.2709758055789553, ,0.18075607915899194,0.1168681546286586,0.03192146597194389,0.0,0.15895430172457858,-0.12933335038824423, ,1.3946571350097656
0.014896454695255714,0.02060736756124007,-0.09016351953660928, ,0.0159780012779742,0.019970834768112868,-0.0908441896711138, ,0.0014276655208145732, ,0.022105515909201314,-0.0038366803238950053,-0.02963408941339262,0.017390792473199947,-0.02376955519388799,-0.031264302739451084, ,0.03716925079794674, ,0.029451800678173583, ,0.0007546153572047926, ,0.21517850607451752,-0.2165608752590037,0.10138543348000001,1.6800358271980091,0.546272726062231,-1.2709758055789553, ,0.18075607915899194,0.1168681546286586,0.03192146597194389,0.0,0.15895430172457858,-0.12933335038824423, ,1.3982839584350586
0.014896454695255714,0.02060736756124007,-0.09016351953660928, ,0.016059974052627515,0.019955747132071912,-0.0909550462110171, ,0.001550774308204546, ,0.022105515909201314,-0.0038366803238950053,-0.02963408941339262,0.017390792473199947,-0.02376955519388799,-0.031264302739451084, ,0.03716925079794674, ,0.029451800678173583, ,0.0007635609633958011, ,0.21517850607451752,-0.2165608752590037,0.10138543348000001,1.6800358271980091,0.546272726062231,-1.2709758055789553, ,0.18075607915899194,0.1168681546286586,0.03192146597194389,0.0,0.15895430172457858,-0.12933335038824423, ,1.401879072189331
0.015131360730303627,0.02056321883570091,-0.09047896386903398, ,0.01614193489185746,0.019940623594019064,-0.09106568701020282, ,0.0013240577839913692, ,0.02250584762379632,-0.004409969934257155,-0.029252711297033284,0.011481118612719008,-0.03139855137231562,-0.015085892160088564, ,0.037170985059777055, ,0.03343147756724049, ,0.000769788705846863, ,0.2171014665601994,-0.21531751526625356,0.10172506146000002,1.6794067573675557,0.5480490005591817,-1.2723425595868683, ,0.18462439991920385,0.1204275908102421,0.031542201029702975,-0.018702500196543622,0.1590682335877252,-0.13099012215554878, ,1.4054961204528809
0.015131360730303627,0.02056321883570091,-0.09047896386903398, ,0.016223881497222894,0.01992546761277385,-0.09117611574845119, ,0.0014444199498309946, ,0.02250584762379632,-0.004409969934257155,-0.029252711297033284,0.011481118612719008,-0.03139855137231562,-0.015085892160088564, ,0.037170985059777055, ,0.03343147756724049, ,0.0007772022360005348, ,0.2171014665601994,-0.21531751526625356,0.10172506146000002,1.6794067573675557,0.5480490005591817,-1.2723425595868683, ,0.18462439991920385,0.1204275908102421,0.031542201029702975,-0.018702500196543622,0.1590682335877252,-0.13099012215554878, ,1.4090609550476074
0.015131360730303627,0.02056321883570091,-0.09047896386903398, ,0.016305811586118768,0.019910282627511648,-0.09128633607864323, ,0.0015676448544038302, ,0.02250584762379632,-0.004409969934257155,-0.029252711297033284,0.011481118612719008,-0.03139855137231562,-0.015085892160088564, ,0.037170985059777055, ,0.03343147756724049, ,0.000785794003591875, ,0.2171014665601994,-0.21531751526625356,0.10172506146000002,1.6794067573675557,0.5480490005591817,-1.2723425595868683, ,0.18462439991920385,0.1204275908102421,0.031542201029702975,-0.018702500196543622,0.1590682335877252,-0.13099012215554878, ,1.412593126296997
0.015350853782510538,0.020514401388973928,-0.09075437406350798, ,0.016387722891741438,0.019895072057802204,-0.09139635162682536, ,0.0013677724817855548, ,0.023321263227654127,-0.005502298930156439,-0.028679099486482968,-0.010064506689728081,-0.054475245110245214,0.04476977585414227, ,0.03737174546908294, ,0.0553969965212496, ,0.0007920518366907318, ,0.21891630878564217,-0.21412049167074876,0.10202191187000001,1.6789873774805866,0.5495520020566015,-1.2736498352676693, ,0.19366722767034852,0.12686756892843687,0.03092973110679612,-0.08280996214243296,0.15859979564162202,-0.12932749878257535, ,1.416152000427246
0.015350853782510538,0.020514401388973928,-0.09075437406350798, ,0.016469613163053738,0.019879839303648575,-0.09150616599227357, ,0.001489792836552437, ,0.023321263227654127,-0.005502298930156439,-0.028679099486482968,-0.010064506689728081,-0.054475245110245214,0.04476977585414227, ,0.03737174546908294, ,0.0553969965212496, ,0.0007994746132850053, ,0.21891630878564217,-0.21412049167074876,0.10202191187000001,1.6789873774805866,0.5495520020566015,-1.2736498352676693, ,0.19366722767034852,0.12686756892843687,0.03092973110679612,-0.08280996214243296,0.15859979564162202,-0.12932749878257535, ,1.4197649955749512
0.015350853782510538,0.020514401388973928,-0.09075437406350798, ,0.016551480164750085,0.019864587745526026,-0.09161578274755842, ,0.001614244839514188, ,0.023321263227654127,-0.005502298930156439,-0.028679099486482968,-0.010064506689728081,-0.054475245110245214,0.04476977585414227, ,0.03737174546908294, ,0.0553969965212496, ,0.0008080511419821545, ,0.21891630878564217,-0.21412049167074876,0.10202191187000001,1.6789873774805866,0.5495520020566015,-1.2736498352676693, ,0.19366722767034852,0.12686756892843687,0.03092973110679612,-0.08280996214243296,0.15859979564162202,-0.12932749878257535, ,1.423431158065796
0.015589229391852751,0.020461546806912107,-0.0910451905533074, ,0.016633321677221688,0.01984932074442069,-0.09172520543860833, ,0.0013882974091280014, ,0.024567916572051145,-0.004758970173791528,-0.030543654632473848,0.006840598318034373,-0.04297417970588379,-0.06610344518795859, ,0.03948601220830161, ,0.04351490921144654, ,0.0008140953739315905, ,0.22089332840144366,-0.2128462407465017,0.10233691034,1.6785679975936174,0.5511916400537868,-1.2749868501120265, ,0.19978303485993848,0.1287611147333389,0.03311603226611227,0.0329221794536975,0.1515303266404021,-0.12356282083989593, ,1.4271700382232666
0.015589229391852751,0.020461546806912107,-0.0910451905533074, ,0.01671513549652156,0.019834041641868205,-0.09183443758477443, ,0.0015114027144896834, ,0.024567916572051145,-0.004758970173791528,-0.030543654632473848,0.006840598318034373,-0.04297417970588379,-0.06610344518795859, ,0.03948601220830161, ,0.04351490921144654, ,0.0008212841094012615, ,0.22089332840144366,-0.2128462407465017,0.10233691034,1.6785679975936174,0.5511916400537868,-1.2749868501120265, ,0.19978303485993848,0.1287611147333389,0.03311603226611227,0.0329221794536975,0.1515303266404021,-0.12356282083989593, ,1.4319820404052734
0.01571489248682483,0.020434375287670357,-0.09119880352268422, ,0.016796919434329982,0.01981875375999271,-0.09194348267889513, ,0.0014506271837251838, ,0.025054371717313687,-0.005449670810030635,-0.030313321390819156,-0.006208257638080724,-0.05187541599169608,-0.05958749792030403, ,0.03970287027193528, ,0.05224534095473408, ,0.0008277059775066076, ,0.22191272914084129,-0.21217436298644418,0.10250283546000001,1.6785679975936174,0.551874822552614,-1.275462260890368, ,0.20451927060015251,0.1347967919864642,0.03284291035051547,0.02594703128079917,0.1489083842632548,-0.11765651853699804, ,1.4355900287628174
0.01571489248682483,0.020434375287670357,-0.09119880352268422, ,0.016878671317919144,0.019803460401545837,-0.09205234418736043, ,0.001575108385950838, ,0.025054371717313687,-0.005449670810030635,-0.030313321390819156,-0.006208257638080724,-0.05187541599169608,-0.05958749792030403, ,0.03970287027193528, ,0.05224534095473408, ,0.0008352554967838221, ,0.22191272914084129,-0.21217436298644418,0.10250283546000001,1.6785679975936174,0.551874822552614,-1.275462260890368, ,0.20451927060015251,0.1347967919864642,0.03284291035051547,0.02594703128079917,0.1489083842632548,-0.11765651853699804, ,1.4391961097717285
0.01571489248682483,0.020434375287670357,-0.09119880352268422, ,0.016960388990118824,0.019788164849944813,-0.09216102555017526, ,0.001701387874569453, ,0.025054371717313687,-0.005449670810030635,-0.030313321390819156,-0.006208257638080724,-0.05187541599169608,-0.05958749792030403, ,0.03970287027193528, ,0.05224534095473408, ,0.0008439168205616784, ,0.22191272914084129,-0.21217436298644418,0.10250283546000001,1.6785679975936174,0.551874822552614,-1.275462260890368, ,0.20451927060015251,0.1347967919864642,0.03284291035051547,0.02594703128079917,0.1489083842632548,-0.11765651853699804, ,1.4428181648254395
0.016080138092142142,0.020340476237881332,-0.09159967500904785, ,0.017042070309281072,0.019772870369312037,-0.09226953018102559, ,0.0013023808827794744, ,0.024174040190260027,-0.0068379060794889375,-0.02542613260120168,-0.031097681244807655,-0.05365786339478139,-0.02784999268237637, ,0.035743942112281206, ,0.062017912381185474, ,0.0008484560687024487, ,0.22497865409190843,-0.2101664524391458,0.10293968519,1.678777687537102,0.554061006548861,-1.276836553648808, ,0.2054046354079454,0.13576100366018712,0.027798972984293194,0.0,0.15404599172491323,-0.09773828135869117, ,1.446397066116333
0.016080138092142142,0.020340476237881332,-0.09159967500904785, ,0.017123713149245715,0.019757580204513507,-0.09237786146734095, ,0.0014263207386122614, ,0.024174040190260027,-0.0068379060794889375,-0.02542613260120168,-0.031097681244807655,-0.05365786339478139,-0.02784999268237637, ,0.035743942112281206, ,0.062017912381185474, ,0.0008541214086035254, ,0.22497865409190843,-0.2101664524391458,0.10293968519,1.678777687537102,0.554061006548861,-1.276836553648808, ,0.2054046354079454,0.13576100366018712,0.027798972984293194,0.0,0.15404599172491323,-0.09773828135869117, ,1.4499759674072266
0.016080138092142142,0.020340476237881332,-0.09159967500904785, ,0.017205315399305234,0.019742297581197398,-0.09248602277036032, ,0.0015522416151651792, ,0.024174040190260027,-0.0068379060794889375,-0.02542613260120168,-0.031097681244807655,-0.05365786339478139,-0.02784999268237637, ,0.035743942112281206, ,0.062017912381185474, ,0.0008608992746866482, ,0.22497865409190843,-0.2101664524391458,0.10293968519,1.678777687537102,0.554061006548861,-1.276836553648808, ,0.2054046354079454,0.13576100366018712,0.027798972984293194,0.0,0.15404599172491323,-0.09773828135869117, ,1.4535319805145264
0.016329079175952346,0.020270725650201812,-0.09187509447911608, ,0.01728687496417011,0.019727025705833186,-0.09259401742519513, ,0.001315231007782704, ,0.025494810115654937,-0.006827601136519047,-0.02940438192228748,-0.027040352386325003,-0.04418376257856137,-0.025604509094497633, ,0.0395122658973697, ,0.051801192564708394, ,0.000865267849043341, ,0.2270483465022006,-0.20876091505603694,0.10323912818000001,1.6785679975936174,0.5555640080462809,-1.2778171143690469, ,0.20948552220412975,0.1437832447855618,0.031985565301204825,-0.0056754730731064205,0.16890021513822082,-0.11070013205901175, ,1.4571030139923096
0.016329079175952346,0.020270725650201812,-0.09187509447911608, ,0.01736838976393377,0.019711767765750444,-0.09270184874089453, ,0.0014408757837681432, ,0.025494810115654937,-0.006827601136519047,-0.02940438192228748,-0.027040352386325003,-0.04418376257856137,-0.025604509094497633, ,0.0395122658973697, ,0.051801192564708394, ,0.0008707498293740535, ,0.2270483465022006,-0.20876091505603694,0.10323912818000001,1.6785679975936174,0.5555640080462809,-1.2778171143690469, ,0.20948552220412975,0.1437832447855618,0.031985565301204825,-0.0056754730731064205,0.16890021513822082,-0.11070013205901175, ,1.4607160091400146
0.016329079175952346,0.020270725650201812,-0.09187509447911608, ,0.017449857734037958,0.01969652692917728,-0.09280952000050931, ,0.00156811983040891, ,0.025494810115654937,-0.006827601136519047,-0.02940438192228748,-0.027040352386325003,-0.04418376257856137,-0.025604509094497633, ,0.0395122658973697, ,0.051801192564708394, ,0.0008773287916479673, ,0.2270483465022006,-0.20876091505603694,0.10323912818000001,1.6785679975936174,0.5578868285422933,-1.2793845037713236, ,0.21229740840821204,0.1346055908630791,0.033963350788912584,-0.10827560962968565,0.2339402687916584,-0.15426474020948389, ,1.465346097946167
0.016602139319402007,0.02020154305418237,-0.09220085396951319, ,0.01753127682523764,0.01968130634527962,-0.09291703446115639, ,0.001283299355041806, ,0.025708394009377016,-0.006155005436010475,-0.030901949722196304,0.0038071046593023744,-0.003817859762773285,0.0738329856462506, ,0.040666154368120905, ,0.005389055557935778, ,0.0008811229090628629, ,0.22930338450147414,-0.20727815034418584,0.10359560793000001,1.6777292378196795,0.5578868285422933,-1.2793845037713236, ,0.21229740840821204,0.1346055908630791,0.033963350788912584,-0.10827560962968565,0.2339402687916584,-0.15426474020948389, ,1.4692890644073486
0.016602139319402007,0.02020154305418237,-0.09220085396951319, ,0.017612645003566366,0.019666109144199483,-0.0930243953540832, ,0.0014092663416783687, ,0.025708394009377016,-0.006155005436010475,-0.030901949722196304,0.0038071046593023744,-0.003817859762773285,0.0738329856462506, ,0.040666154368120905, ,0.005389055557935778, ,0.000886013126031525, ,0.22930338450147414,-0.20727815034418584,0.10359560793000001,1.6777292378196795,0.5578868285422933,-1.2793845037713236, ,0.21229740840821204,0.1346055908630791,0.033963350788912584,-0.10827560962968565,0.2339402687916584,-0.15426474020948389, ,1.4730920791625977
0.016850330036096102,0.02014488855067185,-0.09250074604869109, ,0.01769396025030125,0.019650938437094107,-0.09313160588473146, ,0.0011634787431458202, ,0.025381026372975585,-0.005933870212846614,-0.030633248810606178,-0.01944651662614418,-0.019454692717596037,0.029880596977092087, ,0.04022192496812026, ,0.0275068191979474, ,0.0008885586821518397, ,0.2313421859802694,-0.20596528575556766,0.10392616188,1.6775195478761948,0.5602096490383058,-1.2809518931736008, ,0.20496099688654598,0.13309528970332507,0.03360508759493671,-0.05777979455655139,0.2002642336925253,-0.11834590575535622, ,1.476715087890625
0.016850330036096102,0.02014488855067185,-0.09250074604869109, ,0.017775220561928252,0.01963579731617496,-0.09323866923280227, ,0.0012880710366530372, ,0.025381026372975585,-0.005933870212846614,-0.030633248810606178,-0.01944651662614418,-0.019454692717596037,0.029880596977092087, ,0.04022192496812026, ,0.0275068191979474, ,0.0008921906126473051, ,0.2313421859802694,-0.20596528575556766,0.10392616188,1.6775195478761948,0.5602096490383058,-1.2809518931736008, ,0.20496099688654598,0.13309528970332507,0.03360508759493671,-0.05777979455655139,0.2002642336925253,-0.11834590575535622, ,1.4804799556732178
0.016850330036096102,0.02014488855067185,-0.09250074604869109, ,0.017856423950107062,0.019620688854745678,-0.09334558855232018, ,0.0014144854686271133, ,0.025381026372975585,-0.005933870212846614,-0.030633248810606178,-0.01944651662614418,-0.019454692717596037,0.029880596977092087, ,0.04022192496812026, ,0.0275068191979474, ,0.0008968959717101864, ,0.2313421859802694,-0.20596528575556766,0.10392616188,1.6775195478761948,0.5602096490383058,-1.2809518931736008, ,0.20496099688654598,0.13309528970332507,0.03360508759493671,-0.05777979455655139,0.2002642336925253,-0.11834590575535622, ,1.4842431545257568
0.017110737700751368,0.020086807005866538,-0.09282009491676159, ,0.017937568441636673,0.01960561610724194,-0.09345236697169756, ,0.0011467177972130074, ,0.025947532099546367,-0.005758854241030426,-0.03200642110747758,-0.0664372368829932,-0.06338051433857478,-0.020844811487847385, ,0.041603483223590906, ,0.0918202725674381, ,0.0008991265237236044, ,0.2333887101919389,-0.20460608476970416,0.10427486389000001,1.6773098579327104,0.5618492870354911,-1.2817171568369736, ,0.20062778342171414,0.1359555036654309,0.034855167439824954,0.0,0.13969955555920868,-0.061376351957497965, ,1.4878499507904053
0.017110737700751368,0.020086807005866538,-0.09282009491676159, ,0.01801865207842016,0.019590582109269384,-0.09355900759379839, ,0.001271432109656764, ,0.025947532099546367,-0.005758854241030426,-0.03200642110747758,-0.0664372368829932,-0.06338051433857478,-0.020844811487847385, ,0.041603483223590906, ,0.0918202725674381, ,0.0009024212634221279, ,0.2333887101919389,-0.20460608476970416,0.10427486389000001,1.6773098579327104,0.5618492870354911,-1.2817171568369736, ,0.20062778342171414,0.1359555036654309,0.034855167439824954,0.0,0.13969955555920868,-0.061376351957497965, ,1.4914500713348389
0.01737236540295227,0.020028111402978027,-0.09314204218836439, ,0.018099672917429914,0.019575589877642827,-0.09366551349600352, ,0.001003879555239955, ,0.024992041762332138,-0.005888979590287105,-0.030689697950012612,-0.05884205199142828,-0.039564503497301604,-0.01122425669370813, ,0.04001424486764657, ,0.07090634523688245, ,0.0009033112484380737, ,0.23541206620498573,-0.20322371558521798,0.10462615848000001,1.6775195478761948,0.563352288532911,-1.28228932385651, ,0.19406327517069688,0.13309528970332507,0.033534340042105266,-0.007358882859106127,0.15882575511178618,-0.06701865138479554, ,1.4954440593719482
0.01737236540295227,0.020028111402978027,-0.09314204218836439, ,0.018180629030672968,0.019560642410425176,-0.09377188773027416, ,0.0011262871559057283, ,0.024992041762332138,-0.005888979590287105,-0.030689697950012612,-0.05884205199142828,-0.039564503497301604,-0.01122425669370813, ,0.04001424486764657, ,0.07090634523688245, ,0.000905250169372575, ,0.23541206620498573,-0.20322371558521798,0.10462615848000001,1.6775195478761948,0.563352288532911,-1.28228932385651, ,0.19406327517069688,0.13309528970332507,0.033534340042105266,-0.007358882859106127,0.15882575511178618,-0.06701865138479554, ,1.4990251064300537
0.01737236540295227,0.020028111402978027,-0.09314204218836439, ,0.018261518505155772,0.01954574268696559,-0.09387813332321683, ,0.0012510407571913705, ,0.024992041762332138,-0.005888979590287105,-0.030689697950012612,-0.05884205199142828,-0.039564503497301604,-0.01122425669370813, ,0.04001424486764657, ,0.07090634523688245, ,0.0009082311227158405, ,0.23541206620498573,-0.20322371558521798,0.10462615848000001,1.6775195478761948,0.563352288532911,-1.28228932385651, ,0.19406327517069688,0.13309528970332507,0.033534340042105266,-0.007358882859106127,0.15882575511178618,-0.06701865138479554, ,1.502803087234497
0.01737236540295227,0.020028111402978027,-0.09314204218836439, ,0.018342339442849687,0.019530893667939076,-0.09398425327614723, ,0.001377459484157899, ,0.024992041762332138,-0.005888979590287105,-0.030689697950012612,-0.05884205199142828,-0.039564503497301604,-0.01122425669370813, ,0.04001424486764657, ,0.07090634523688245, ,0.0009122416215315846, ,0.23541206620498573,-0.20322371558521798,0.10462615848000001,1.6775195478761948,0.563352288532911,-1.28228932385651, ,0.19406327517069688,0.13309528970332507,0.033534340042105266,-0.007358882859106127,0.15882575511178618,-0.06701865138479554, ,1.5067191123962402
0.01759116258056148,0.019975739022505417,-0.09340751980236364, ,0.01842308996065605,0.01951609829538478,-0.09409025056515502, ,0.0011702538435060569, ,0.02389900351910979,-0.00572290346374251,-0.02813756184437677,-0.0004210638177828127,-0.0020136790957666294,-0.02305157405315848, ,0.03735821703197123, ,0.0020529395828458685, ,0.0009144281657856055, ,0.23541206620498573,-0.20322371558521798,0.10462615848000001,1.6775195478761948,0.563352288532911,-1.28228932385651, ,0.19406327517069688,0.13309528970332507,0.033534340042105266,-0.007358882859106127,0.15882575511178618,-0.06701865138479554, ,1.5106151103973389
0.01759116258056148,0.019975739022505417,-0.09340751980236364, ,0.01850376819037116,0.019501359492744817,-0.0941961281411676, ,0.0012960663753616613, ,0.02389900351910979,-0.00572290346374251,-0.02813756184437677,-0.0004210638177828127,-0.0020136790957666294,-0.02305157405315848, ,0.03735821703197123, ,0.0020529395828458685, ,0.0009176352095635556, ,0.2371342356359378,-0.2020653056540843,0.10491782373000001,1.6773098579327104,0.5649919265300962,-1.2832179450001642, ,0.1905561075471301,0.1255250549715222,0.031110960000000003,-0.003610760699483973,0.1919334181432481,-0.11823600513340325, ,1.5143160820007324
0.017853786425897713,0.019904316651956827,-0.09370403184359402, ,0.018584372278651572,0.019486680164903215,-0.09430188893001526, ,0.001032283400693171, ,0.02199137485257522,-0.006174459857517691,-0.024217569146935968,-0.05710741741167082,-0.03574542828123419,0.023571240877335763, ,0.03329016638326099, ,0.06737198554511503, ,0.0009185906111563024, ,0.2392502644434753,-0.20065976827097542,0.10524578510000002,1.676680788102257,0.5670414740265779,-1.2843174623746265, ,0.17638836720905351,0.11847308559109959,0.02677111179831933,-0.04133072711393304,0.1515179547763917,-0.06266877399094214, ,1.51798415184021
0.017853786425897713,0.019904316651956827,-0.09370403184359402, ,0.01866490038697918,0.019472063198224608,-0.0944075358324942, ,0.001157439747253895, ,0.02199137485257522,-0.006174459857517691,-0.024217569146935968,-0.05710741741167082,-0.03574542828123419,0.023571240877335763, ,0.03329016638326099, ,0.06737198554511503, ,0.0009205645709587617, ,0.2392502644434753,-0.20065976827097542,0.10524578510000002,1.676680788102257,0.5670414740265779,-1.2843174623746265, ,0.17638836720905351,0.11847308559109959,0.02677111179831933,-0.04133072711393304,0.1515179547763917,-0.06266877399094214, ,1.5215940475463867
0.017853786425897713,0.019904316651956827,-0.09370403184359402, ,0.01874535069162642,0.019457511460593303,-0.09451307172443245, ,0.0012841601332157998, ,0.02235605631906777,-0.006286702202291784,-0.02505310195116994,-0.026554915716640586,-0.031372323278616596,0.027067918673879695, ,0.03416099817185302, ,0.041102023634300926, ,0.000923544862452672, ,0.2392502644434753,-0.20065976827097542,0.10524578510000002,1.676680788102257,0.5670414740265779,-1.2843174623746265, ,0.17638836720905351,0.11847308559109959,0.02677111179831933,-0.04133072711393304,0.1515179547763917,-0.06266877399094214, ,1.525550127029419
0.01807012313466659,0.019842844038142817,-0.09393922358130609, ,0.018825721383621315,0.019443027801451403,-0.09461849945675306, ,0.0010918779473502432, ,0.02235605631906777,-0.006286702202291784,-0.02505310195116994,-0.026554915716640586,-0.031372323278616596,0.027067918673879695, ,0.03416099817185302, ,0.041102023634300926, ,0.0009249134241185059, ,0.24098787934017582,-0.1994859128740933,0.10550633939000001,1.676471098158772,0.5685444755239978,-1.285216344354725, ,0.17770962838664942,0.12012271083350731,0.02770228090434783,-0.05691507717970281,0.15969559452840917,-0.10018173951539378, ,1.5294861793518066
0.01807012313466659,0.019842844038142817,-0.09393922358130609, ,0.01890601066871274,0.019428615051838235,-0.09472382185553843, ,0.0012189700876547556, ,0.02235605631906777,-0.006286702202291784,-0.02505310195116994,-0.026554915716640586,-0.031372323278616596,0.027067918673879695, ,0.03416099817185302, ,0.041102023634300926, ,0.0009272848488244434, ,0.24098787934017582,-0.1994859128740933,0.10550633939000001,1.676471098158772,0.5685444755239978,-1.285216344354725, ,0.17770962838664942,0.12012271083350731,0.02770228090434783,-0.05691507717970281,0.15969559452840917,-0.10018173951539378, ,1.5333070755004883
0.01827803748169273,0.019792655015666835,-0.09418334888454513, ,0.01898621676733543,0.019414276024428873,-0.09482904172209561, ,0.0010303435359566484, ,0.021676512026091277,-0.004952408834909198,-0.026451449702002763,-0.01764026942974252,0.0033514164512349594,0.019997524620855668, ,0.03455541517943242, ,0.01795544899050526, ,0.000928109318321501, ,0.24261737597663718,-0.19840473027170188,0.10577726400000001,1.676471098158772,0.570184113521183,-1.2861449654983792, ,0.16795918859906334,0.10970744688840552,0.02933482784530387,-0.039843619132057,0.18192079911818804,-0.09341631354395852, ,1.536937952041626
0.01827803748169273,0.019792655015666835,-0.09418334888454513, ,0.019066337914575283,0.019400013513573268,-0.0949341618330195, ,0.0011572834593330584, ,0.021676512026091277,-0.004952408834909198,-0.026451449702002763,-0.01764026942974252,0.0033514164512349594,0.019997524620855668, ,0.03455541517943242, ,0.01795544899050526, ,0.0009299281607104816, ,0.24261737597663718,-0.19840473027170188,0.10577726400000001,1.676471098158772,0.570184113521183,-1.2861449654983792, ,0.16795918859906334,0.10970744688840552,0.02933482784530387,-0.039843619132057,0.18192079911818804,-0.09341631354395852, ,1.5405590534210205
0.01851092701086762,0.019743566129214327,-0.09447452831886519, ,0.019146372360134323,0.019385830295334316,-0.09503918494025806, ,0.0009222813121978192, ,0.02135702782733868,-0.0043351656912254495,-0.02758150544544932,0.028126725610748245,0.004811183993742299,-0.03317127831815338, ,0.03515189528070211, ,0.028534964918692764, ,0.0009298679493048701, ,0.24439360453770884,-0.19724632034056822,0.10610004021000001,1.6762614082152878,0.5720970245178991,-1.2873781011895669, ,0.15922305630615904,0.10686592517845808,0.030456618585086043,0.0,0.16563861515735287,-0.13000102577756065, ,1.5457661151885986
0.01851092701086762,0.019743566129214327,-0.09447452831886519, ,0.019226318368295976,0.019371729127527326,-0.09514411377117614, ,0.0010480420926915243, ,0.02135702782733868,-0.0043351656912254495,-0.02758150544544932,0.028126725610748245,0.004811183993742299,-0.03317127831815338, ,0.03515189528070211, ,0.028534964918692764, ,0.0009307911848000783, ,0.24439360453770884,-0.19724632034056822,0.10610004021000001,1.6762614082152878,0.5720970245178991,-1.2873781011895669, ,0.15922305630615904,0.10686592517845808,0.030456618585086043,0.0,0.16563861515735287,-0.13000102577756065, ,1.5501821041107178
0.01851092701086762,0.019743566129214327,-0.09447452831886519, ,0.019306174217890232,0.0193577127497587,-0.09524895102861985, ,0.0011751729592270066, ,0.02135702782733868,-0.0043351656912254495,-0.02758150544544932,0.028126725610748245,0.004811183993742299,-0.03317127831815338, ,0.03515189528070211, ,0.028534964918692764, ,0.0009326856171599769, ,0.24439360453770884,-0.19724632034056822,0.10610004021000001,1.6762614082152878,0.5720970245178991,-1.2873781011895669, ,0.15922305630615904,0.10686592517845808,0.030456618585086043,0.0,0.16563861515735287,-0.13000102577756065, ,1.554028034210205
0.0186253389686977,0.019720645306511207,-0.09462401097530423, ,0.019385938202258614,0.019343783883464295,-0.09535369939098083, ,0.0011193662985131436, ,0.02123329270092964,-0.003955397301340884,-0.028433399633192653,0.018881176892955424,-0.0023597077083515544,-0.031437999451957105, ,0.03570652743456926, ,0.01902757149845243, ,0.0009341216224011551, ,0.2452353824209993,-0.1966748381078756,0.10626466904000001,1.6762614082152878,0.5729168435164919,-1.2878832511314644, ,0.1543039700137736,0.10428235336095688,0.03129432518664047,0.0,0.15347209507321163,-0.11824222605627391, ,1.5577330589294434
0.0186253389686977,0.019720645306511207,-0.09462401097530423, ,0.01946560862921954,0.019329945231948868,-0.09545836151226109, ,0.0012469324236608383, ,0.02123329270092964,-0.003955397301340884,-0.028433399633192653,0.018881176892955424,-0.0023597077083515544,-0.031437999451957105, ,0.03570652743456926, ,0.01902757149845243, ,0.0009365094911130611, ,0.2452353824209993,-0.1966748381078756,0.10626466904000001,1.6762614082152878,0.5729168435164919,-1.2878832511314644, ,0.1543039700137736,0.10428235336095688,0.03129432518664047,0.0,0.15347209507321163,-0.11824222605627391, ,1.561249017715454
0.0186253389686977,0.019720645306511207,-0.09462401097530423, ,0.01954518382103332,0.019316199480424172,-0.0955629400221363, ,0.0013752377007603235, ,0.02123329270092964,-0.003955397301340884,-0.028433399633192653,0.018881176892955424,-0.0023597077083515544,-0.031437999451957105, ,0.03570652743456926, ,0.01902757149845243, ,0.0009398331896709949, ,0.2452353824209993,-0.1966748381078756,0.10626466904000001,1.6762614082152878,0.5729168435164919,-1.2878832511314644, ,0.1543039700137736,0.10428235336095688,0.03129432518664047,0.0,0.15347209507321163,-0.11824222605627391, ,1.564795970916748
0.018915556900112117,0.01966768589634775,-0.09502031158984925, ,0.01962466211436737,0.019302549296048428,-0.09566743752602162, ,0.0010270963533325918, ,0.02047274424502642,-0.003694302381759819,-0.027158679885318004,-0.07455568470421217,-0.08399289189659152,0.05411864994029251, ,0.034210744220541524, ,0.1123091324662833, ,0.0009404893036834882, ,0.24727418389979458,-0.19530791438913786,0.10669762990000001,1.675212958497865,0.5744198450139116,-1.2887821331115625, ,0.1427021677570989,0.09377168138188813,0.029662591284916204,-0.07552730494504717,0.07454945186407119,-0.03228999769095276, ,1.5683810710906982
0.018915556900112117,0.01966768589634775,-0.09502031158984925, ,0.019704041860261257,0.019288997327964658,-0.09577185660513465, ,0.0011532274165166926, ,0.02047274424502642,-0.003694302381759819,-0.027158679885318004,-0.07455568470421217,-0.08399289189659152,0.05411864994029251, ,0.034210744220541524, ,0.1123091324662833, ,0.0009420769015404523, ,0.24727418389979458,-0.19530791438913786,0.10669762990000001,1.675212958497865,0.5744198450139116,-1.2887821331115625, ,0.1427021677570989,0.09377168138188813,0.029662591284916204,-0.07552730494504717,0.07454945186407119,-0.03228999769095276, ,1.571998119354248
0.019126838460246195,0.019632139646399767,-0.09530422867321173, ,0.019783321424092025,0.019275546207339678,-0.09587619981656047, ,0.0009408930605675498, ,0.02047274424502642,-0.003694302381759819,-0.027158679885318004,-0.07455568470421217,-0.08399289189659152,0.05411864994029251, ,0.034210744220541524, ,0.1123091324662833, ,0.0009420681323480605, ,0.2487646713445199,-0.19431940458123712,0.10701003579000001,1.675212958497865,0.5756495735118006,-1.2896215367645494, ,0.14488082680682562,0.09423728059431061,0.03135592818897638,-0.05011674354051094,0.15602507499523663,-0.12573496469572057, ,1.5755939483642578
0.019126838460246195,0.019632139646399767,-0.09530422867321173, ,0.019862499185539114,0.019262198547402635,-0.0959804696933156, ,0.0010655304016013963, ,0.020329262927543144,-0.003264375825372113,-0.02833812899390942,0.03088098216872651,0.008141735684275918,0.014218656230924108, ,0.03502834046285812, ,0.031935945965664375, ,0.0009429759431513939, ,0.2487646713445199,-0.19431940458123712,0.10701003579000001,1.675212958497865,0.5756495735118006,-1.2896215367645494, ,0.14488082680682562,0.09423728059431061,0.03135592818897638,-0.05011674354051094,0.15602507499523663,-0.12573496469572057, ,1.57912015914917
0.019126838460246195,0.019632139646399767,-0.09530422867321173, ,0.019941573538549733,0.01924895694348417,-0.09608466874441246, ,0.0011915153949352813, ,0.020329262927543144,-0.003264375825372113,-0.02833812899390942,0.03088098216872651,0.008141735684275918,0.014218656230924108, ,0.03502834046285812, ,0.031935945965664375, ,0.0009447900997337581, ,0.2487646713445199,-0.19431940458123712,0.10701003579000001,1.675212958497865,0.5756495735118006,-1.2896215367645494, ,0.14488082680682562,0.09423728059431061,0.03135592818897638,-0.05011674354051094,0.15602507499523663,-0.12573496469572057, ,1.5827100276947021
0.019126838460246195,0.019632139646399767,-0.09530422867321173, ,0.020020542891303773,0.01923582397305503,-0.09618879945492424, ,0.0013184229939174033, ,0.019561904292011136,-0.0022878470434614957,-0.02874210453709869,0.09270122195136314,0.0764574934097649,-0.04092369347861144, ,0.03484265943991056, ,0.12016341054820479, ,0.0009474975844742193, ,0.24973001295379796,-0.19370158595129916,0.10722781251,1.6750032685543808,0.577015938509455,-1.2908173945416541, ,0.13853568110725661,0.08682245339292843,0.031985565301204825,0.008438960962014814,0.21517228106083972,-0.17293735324354245, ,1.586677074432373
0.01926284198043858,0.019612825503502018,-0.09550066647949572, ,0.02009940566617912,0.019222802195764926,-0.09629286428604802, ,0.001216361108217565, ,0.019561904292011136,-0.0022878470434614957,-0.02874210453709869,0.09270122195136314,0.0764574934097649,-0.04092369347861144, ,0.03484265943991056, ,0.12016341054820479, ,0.0009494318544292074, ,0.24973001295379796,-0.19370158595129916,0.10722781251,1.6750032685543808,0.577015938509455,-1.2908173945416541, ,0.13853568110725661,0.08682245339292843,0.031985565301204825,0.008438960962014814,0.21517228106083972,-0.17293735324354245, ,1.5905611515045166
0.01926284198043858,0.019612825503502018,-0.09550066647949572, ,0.020178160299716787,0.01920989415348114,-0.09639686567517038, ,0.00134288283061622, ,0.019561904292011136,-0.0022878470434614957,-0.02874210453709869,0.09270122195136314,0.0764574934097649,-0.04092369347861144, ,0.03484265943991056, ,0.12016341054820479, ,0.000952242218544829, ,0.24973001295379796,-0.19370158595129916,0.10722781251,1.6750032685543808,0.577015938509455,-1.2908173945416541, ,0.13853568110725661,0.08682245339292843,0.031985565301204825,0.008438960962014814,0.21517228106083972,-0.17293735324354245, ,1.5942051410675049
0.019518108231063903,0.019588678444300612,-0.09587190745331715, ,0.020256805242585912,0.019197102370327474,-0.09650080603593106, ,0.0010461923932783784, ,0.020554559284994244,-0.0016942364043955485,-0.029746827110511458,0.018014472231854782,-0.009851238029828322,-0.019375785152441417, ,0.036197155517208555, ,0.02053155641207406, ,0.0009529085318408117, ,0.25149079604912117,-0.19263584881465617,0.10764003273000002,1.675212958497865,0.579202122505702,-1.2926817597409375, ,0.1381323749031598,0.08131700219234857,0.03291076760330579,-0.005448389242534151,0.1305870623513466,-0.0965134880506808, ,1.597825050354004
0.019518108231063903,0.019588678444300612,-0.09587190745331715, ,0.020335338959549056,0.019184429352722902,-0.09660468775828697, ,0.0011697223461033105, ,0.020554559284994244,-0.0016942364043955485,-0.029746827110511458,0.018014472231854782,-0.009851238029828322,-0.019375785152441417, ,0.036197155517208555, ,0.02053155641207406, ,0.0009544353896877305, ,0.25149079604912117,-0.19263584881465617,0.10764003273000002,1.675212958497865,0.579202122505702,-1.2926817597409375, ,0.1381323749031598,0.08131700219234857,0.03291076760330579,-0.005448389242534151,0.1305870623513466,-0.0965134880506808, ,1.601473093032837
0.019518108231063903,0.019588678444300612,-0.09587190745331715, ,0.020413759929427285,0.01917187758942084,-0.09670851320857744, ,0.0012945362517690876, ,0.020554559284994244,-0.0016942364043955485,-0.029746827110511458,0.018014472231854782,-0.009851238029828322,-0.019375785152441417, ,0.036197155517208555, ,0.02053155641207406, ,0.0009568137173945932, ,0.25149079604912117,-0.19263584881465617,0.10764003273000002,1.675212958497865,0.579202122505702,-1.2926817597409375, ,0.1381323749031598,0.08131700219234857,0.03291076760330579,-0.005448389242534151,0.1305870623513466,-0.0965134880506808, ,1.605107069015503
0.019732966426541664,0.019570133286010906,-0.09619442590309474, ,0.020492066645065338,0.019159449551547338,-0.09681228472958757, ,0.0010614347841439579, ,0.019880685770925596,-0.0016313099681688052,-0.03056835138017568,-0.0011149233933236908,-0.03138506121604509,-0.00803554151158277, ,0.03650105402637599, ,0.031404433301692805, ,0.0009575402525803527, ,0.25288088796648156,-0.19177862546561725,0.10799391990000001,1.674793578610896,0.5802952145038256,-1.2934097454902278, ,0.12602515479212587,0.08055767534674939,0.03346388974789917,-0.018884121835039135,0.09902290011633774,-0.08077595415286691, ,1.6086499691009521
0.019732966426541664,0.019570133286010906,-0.09619442590309474, ,0.020570257613296714,0.01914714769264002,-0.09691600464061342, ,0.0011834902695231837, ,0.019880685770925596,-0.0016313099681688052,-0.03056835138017568,-0.0011149233933236908,-0.03138506121604509,-0.00803554151158277, ,0.03650105402637599, ,0.031404433301692805, ,0.0009590985285592688, ,0.25288088796648156,-0.19177862546561725,0.10799391990000001,1.674793578610896,0.5802952145038256,-1.2934097454902278, ,0.12602515479212587,0.08055767534674939,0.03346388974789917,-0.018884121835039135,0.09902290011633774,-0.08077595415286691, ,1.6122400760650635
0.019934324925300215,0.019549012125756292,-0.0965017672076756, ,0.020648331354908806,0.01913497444868713,-0.09701967523752583, ,0.0009744029489582748, ,0.019244117008571322,-0.0024144265785193495,-0.02876120502458226,0.005532592563404501,-0.015492917330393536,0.05273589752466934, ,0.03468965853981126, ,0.016450543681364747, ,0.0009592033533565223, ,0.2541783070893513,-0.190944570315201,0.10833095530000002,1.6741645087804424,0.5815249430017145,-1.2944125066234955, ,0.12602515479212587,0.08103923275702031,0.03160478476190477,-0.08492776846044228,0.12759962893878646,-0.10405654685493415, ,1.6163439750671387
0.019934324925300215,0.019549012125756292,-0.0965017672076756, ,0.0207262864046082,0.019122932238165993,-0.09712329879283411, ,0.0010931827691041927, ,0.019244117008571322,-0.0024144265785193495,-0.02876120502458226,0.005532592563404501,-0.015492917330393536,0.05273589752466934, ,0.03468965853981126, ,0.016450543681364747, ,0.0009601147779534452, ,0.2541783070893513,-0.190944570315201,0.10833095530000002,1.6741645087804424,0.5815249430017145,-1.2944125066234955, ,0.12602515479212587,0.08103923275702031,0.03160478476190477,-0.08492776846044228,0.12759962893878646,-0.10405654685493415, ,1.619987964630127
0.019934324925300215,0.019549012125756292,-0.0965017672076756, ,0.0208041213109856,0.019111023462082412,-0.09722687755575254, ,0.0012141519011007052, ,0.019244117008571322,-0.0024144265785193495,-0.02876120502458226,0.005532592563404501,-0.015492917330393536,0.05273589752466934, ,0.03468965853981126, ,0.016450543681364747, ,0.0009618312450017377, ,0.2541783070893513,-0.190944570315201,0.10833095530000002,1.6741645087804424,0.5815249430017145,-1.2944125066234955, ,0.12602515479212587,0.08103923275702031,0.03160478476190477,-0.08492776846044228,0.12759962893878646,-0.10405654685493415, ,1.6238491535186768
0.02006626755336371,0.019534577542476717,-0.09669651203893825, ,0.02088183463648113,0.019099250504008555,-0.09733041375226181, ,0.0011209329505553216, ,0.018535475769283306,-0.0020321967608008737,-0.02744548741769325,0.03446276816417164,0.014138259193536524,0.033909880198476516, ,0.03318054347449807, ,0.03724992872731604, ,0.0009628990416833053, ,0.25505097590413867,-0.19039625628113105,0.10854613944000001,1.6739548188369582,0.5824813985000726,-1.2951924319493704, ,0.12356372598759216,0.0754347707142057,0.030398495267175574,-0.06502195003827158,0.15111777176621982,-0.12252458877523252, ,1.627892017364502
0.02006626755336371,0.019534577542476717,-0.09669651203893825, ,0.020959424957349447,0.019087615730122496,-0.09743390958517568, ,0.0012414749901606932, ,0.018535475769283306,-0.0020321967608008737,-0.02744548741769325,0.03446276816417164,0.014138259193536524,0.033909880198476516, ,0.03318054347449807, ,0.03724992872731604, ,0.0009647562146731546, ,0.25505097590413867,-0.19039625628113105,0.10854613944000001,1.6739548188369582,0.5824813985000726,-1.2951924319493704, ,0.12356372598759216,0.0754347707142057,0.030398495267175574,-0.06502195003827158,0.15111777176621982,-0.12252458877523252, ,1.6317241191864014
0.02006626755336371,0.019534577542476717,-0.09669651203893825, ,0.021036890863624754,0.019076121489246495,-0.09753736723420413, ,0.0013635721552492733, ,0.018535475769283306,-0.0020321967608008737,-0.02744548741769325,0.03446276816417164,0.014138259193536524,0.033909880198476516, ,0.03318054347449807, ,0.03724992872731604, ,0.0009673973798425328, ,0.25505097590413867,-0.19039625628113105,0.10854613944000001,1.6739548188369582,0.5824813985000726,-1.2951924319493704, ,0.12356372598759216,0.0754347707142057,0.030398495267175574,-0.06502195003827158,0.15111777176621982,-0.12252458877523252, ,1.635444164276123
0.020302916939297297,0.019512557008192696,-0.09704007707592024, ,0.02111423095908612,0.01906477011288657,-0.09764078885601779, ,0.0011043541936633203, ,0.0191428989648375,-0.00200477321490046,-0.02697094685566617,0.023330498812823286,-0.006335086106110362,0.00702449619655973, ,0.03313459929910618, ,0.024175012284468007, ,0.0009682984115124063, ,0.2566341361433547,-0.18944636013760144,0.10892854499000001,1.6739548188369582,0.5843943094967888,-1.2967522826011204, ,0.12789345223513582,0.07531503298291331,0.02999776180790961,-0.03539597357884268,0.12917521811344623,-0.10409962438692351, ,1.6390769481658936
0.020302916939297297,0.019512557008192696,-0.09704007707592024, ,0.021191443861222466,0.019053563915269967,-0.09774417658431253, ,0.0012230743509921414, ,0.0191428989648375,-0.00200477321490046,-0.02697094685566617,0.023330498812823286,-0.006335086106110362,0.00702449619655973, ,0.03313459929910618, ,0.024175012284468007, ,0.0009699636137312282, ,0.2566341361433547,-0.18944636013760144,0.10892854499000001,1.6739548188369582,0.5843943094967888,-1.2967522826011204, ,0.12789345223513582,0.07531503298291331,0.02999776180790961,-0.03539597357884268,0.12917521811344623,-0.10409962438692351, ,1.6426990032196045
0.02051213596641265,0.019491257573227005,-0.09733086160520835, ,0.021268528201197914,0.01904250519338547,-0.09784753252987391, ,0.001020027821018456, ,0.019572378380507235,-0.0023010405445361487,-0.02704411569303171,0.004302338949678959,-0.021530364769408145,-0.000361343212180435, ,0.033462770009002996, ,0.021955688580105163, ,0.00097028870598634, ,0.2580319507935893,-0.18862002772005942,0.10925261749000001,1.6739548188369582,0.5857606744944432,-1.2976214254176628, ,0.12981797750816795,0.07842722442848825,0.03005436135849057,-0.025464064452470722,0.11402651808162292,-0.08536137543943842, ,1.6465060710906982
0.02051213596641265,0.019491257573227005,-0.09733086160520835, ,0.02134548262381677,0.019031596227021205,-0.09795085878064107, ,0.0011358484503431368, ,0.019572378380507235,-0.0023010405445361487,-0.02704411569303171,0.004302338949678959,-0.021530364769408145,-0.000361343212180435, ,0.033462770009002996, ,0.021955688580105163, ,0.0009713568333692871, ,0.2580319507935893,-0.18862002772005942,0.10925261749000001,1.6739548188369582,0.5857606744944432,-1.2976214254176628, ,0.12981797750816795,0.07842722442848825,0.03005436135849057,-0.025464064452470722,0.11402651808162292,-0.08536137543943842, ,1.650334119796753
0.02051213596641265,0.019491257573227005,-0.09733086160520835, ,0.021422305787488542,0.01902083927880363,-0.09805415740177112, ,0.0012541368682288617, ,0.019572378380507235,-0.0023010405445361487,-0.02704411569303171,0.004302338949678959,-0.021530364769408145,-0.000361343212180435, ,0.033462770009002996, ,0.021955688580105163, ,0.0009731695259004383, ,0.2580319507935893,-0.18862002772005942,0.10925261749000001,1.6739548188369582,0.5857606744944432,-1.2976214254176628, ,0.12981797750816795,0.07842722442848825,0.03005436135849057,-0.025464064452470722,0.11402651808162292,-0.08536137543943842, ,1.6538951396942139
0.02070133862792202,0.01947089892119099,-0.09758897148594896, ,0.021498996364193435,0.019010236594236365,-0.09815743043570375, ,0.0010824108375590176, ,0.01926890095129228,-0.0019429055127284558,-0.026384915232966856,0.026958534033802432,0.005072407598402202,-0.02331481878581453, ,0.03272963760191899, ,0.027431352296340805, ,0.0009738653304332955, ,0.2592907562520879,-0.1878863680970081,0.10954039387000002,1.6737451288934733,0.5868537664925667,-1.2981860536866718, ,0.12928738631944245,0.07466321129698723,0.02955252601113173,0.0,0.13556141798407426,-0.09756529868705585, ,1.6574530601501465
0.02070133862792202,0.01947089892119099,-0.09758897148594896, ,0.021575553039447196,0.01899979040173937,-0.09826067990222549, ,0.001198910451582993, ,0.01926890095129228,-0.0019429055127284558,-0.026384915232966856,0.026958534033802432,0.005072407598402202,-0.02331481878581453, ,0.03272963760191899, ,0.027431352296340805, ,0.0009752896666431037, ,0.2592907562520879,-0.1878863680970081,0.10954039387000002,1.6737451288934733,0.5868537664925667,-1.2981860536866718, ,0.12928738631944245,0.07466321129698723,0.02955252601113173,0.0,0.13556141798407426,-0.09756529868705585, ,1.6610710620880127
0.02070133862792202,0.01947089892119099,-0.09758897148594896, ,0.02165197451226631,0.018989502912687008,-0.09836390779853388, ,0.0013175647954348692, ,0.01926890095129228,-0.0019429055127284558,-0.026384915232966856,0.026958534033802432,0.005072407598402202,-0.02331481878581453, ,0.03272963760191899, ,0.027431352296340805, ,0.0009774423404090898, ,0.2592907562520879,-0.1878863680970081,0.10954039387000002,1.6737451288934733,0.5868537664925667,-1.2981860536866718, ,0.12928738631944245,0.07466321129698723,0.02955252601113173,0.0,0.13556141798407426,-0.09756529868705585, ,1.6649141311645508
0.020835097451588694,0.01945417667588137,-0.09777432343068312, ,0.021728259495133292,0.01897937632144736,-0.09846711609930188, ,0.0012260242633371158, ,0.019242089464999595,-0.0022831341814420073,-0.02648912592319056,0.01438763669684712,0.004605928290287452,-0.006807227419913419, ,0.03281987965919685, ,0.015106476204516063, ,0.00097899597742739, ,0.26019431599837217,-0.1873534995286866,0.10974780027000001,1.6733257490065043,0.5879468584906902,-1.2989957181761027, ,0.1284126408098387,0.07708931077048803,0.02960745635687733,-0.015512330796525035,0.1372335890798207,-0.09084724761560478, ,1.6686370372772217
0.020835097451588694,0.01945417667588137,-0.09777432343068312, ,0.021804406713961652,0.01896941280542102,-0.09857030675674198, ,0.0013446731616230886, ,0.019242089464999595,-0.0022831341814420073,-0.02648912592319056,0.01438763669684712,0.004605928290287452,-0.006807227419913419, ,0.03281987965919685, ,0.015106476204516063, ,0.0009812672642857483, ,0.26019431599837217,-0.1873534995286866,0.10974780027000001,1.6733257490065043,0.5879468584906902,-1.2989957181761027, ,0.1284126408098387,0.07708931077048803,0.02960745635687733,-0.015512330796525035,0.1372335890798207,-0.09084724761560478, ,1.672654151916504
0.020835097451588694,0.01945417667588137,-0.09777432343068312, ,0.02188041490806107,0.018959614525079445,-0.0986734817006707, ,0.001464843302301904, ,0.019242089464999595,-0.0022831341814420073,-0.02648912592319056,0.01438763669684712,0.004605928290287452,-0.006807227419913419, ,0.03281987965919685, ,0.015106476204516063, ,0.000984252301557453, ,0.26019431599837217,-0.1873534995286866,0.10974780027000001,1.6733257490065043,0.5879468584906902,-1.2989957181761027, ,0.1284126408098387,0.07708931077048803,0.02960745635687733,-0.015512330796525035,0.1372335890798207,-0.09084724761560478, ,1.676314115524292
0.021098688147690736,0.019418255421927984,-0.09813650093505635, ,0.02195628283010271,0.01894998362400458,-0.09877664283857346, ,0.0011681304604667297, ,0.018635536188737548,-0.002644955292411506,-0.025113241046345228,-0.025509992138588244,-0.02819858276677617,0.04942062942483017, ,0.03138397478638487, ,0.038025120383160756, ,0.0009853803884219271, ,0.2618469808334562,-0.18633409878928897,0.11013279840000001,1.6726966791760507,0.5895864964878755,-1.300087696800038, ,0.12135158767067875,0.07531503298291331,0.02775054271777004,-0.07355091193981653,0.10929408106351035,-0.06201400619169963, ,1.6798970699310303
