NicholasDascanio/dvrk_moveit_final/test/execution/third_experiment_notsharpbends/thirdexp_300vel4.0/thirdexp_300vel4.0_14.csv
Current Position (x),Current Position (y),Current Position (z), ,Planned Position (x),Planned Position (y),Planned Position (z), ,Position Error,,Cartesian linear Velocity(x),Cartesian linear Velocity(y),Cartesian linear Velocity(z),Cartesian Angular Velocity(x),Cartesian Angular Velocity(y),Cartesian Angular Velocity(z), ,Total Linear Velocity, ,Total Angular Velocity, ,MSE, ,Joint 1 Position,Joint 2 Position,Joint 3 Position,Joint 4 Position,Joint 5 Position,Joint 6 Position, ,Joint 1 Velocity,Joint 2 Velocity,Joint 3 Velocity,Joint 4 Velocity,Joint 5 Velocity,Joint 6 Velocity, ,Time Stamp
0.010139881925500489,0.01996851905988103,-0.08008869300076915, ,0.01028698612578984,0.01994281139905683,-0.08013728540629535, ,0.000157040604439247, ,-0.00010147285230214967,-1.088970919359563e-05,0.0003020985700022634,0.22386870645962234,0.005495135294452236,-0.07976885804707105, ,0.0003188712459882003, ,0.2239361387623911, ,1.3086717036603917e-05, ,0.18173134999625115,-0.23674037625935235,0.09074548516000001,1.6829714864067924,0.5211316101053899,-1.2391215664192756, ,-0.0005505939189009471,-0.0008444557863101329,-0.0003063801672739732,-0.0016215963551259468,0.0,-0.23777975807799834, ,0.03555798530578613
0.01018094338761135,0.019984721193147596,-0.08012292027255634, ,0.01031269332085852,0.020010998161519487,-0.08021842521794563, ,0.00016483239539381324, ,0.0009229684402956068,0.0008184057020998322,-0.0020567605675229673,0.26811393587556204,-0.04344139664643346,-0.1453135747913435, ,0.002398316631958471, ,0.271610451848306, ,1.4630590901502739e-05, ,0.1817390727291254,-0.2368253263209688,0.09077011467000001,1.6836005562372458,0.5168958786126612,-1.2455507389616947, ,0.0006130167677062791,-0.0020212257298289093,0.002051451915352276,0.03748477188749001,-0.0594855761333332,-0.2802719412962189, ,0.07116293907165527
0.010218950808002041,0.02000700666384638,-0.08016567504543368, ,0.010339118349075851,0.020077671448601897,-0.08030068029997879, ,0.00019406227991822716, ,0.0005308328087349656,0.0008308245525051817,-0.0012125293948186588,-0.11115500684350452,-0.03363077279032119,0.03348984297404322, ,0.0015627797161385834, ,0.11613123793730576, ,1.612297749222773e-05, ,0.18174679546199962,-0.23698750371132754,0.09080641079000001,1.6836005562372458,0.5132066931189944,-1.2478515736710278, ,0.0006407998903345433,-0.006379123533072204,0.0013057577243056847,0.0008655451875044138,-0.03183569278158849,0.12252946648604551, ,0.11020302772521973
0.01021853630086387,0.02003940858301918,-0.08021854446638935, ,0.010366254921509745,0.020142846277455946,-0.08038403812009712, ,0.00024476171459903893, ,-0.00020547160636810244,0.0011490840249953804,-0.0021525309548289556,0.0374317963177491,0.07925108908251191,0.01016129076859209, ,0.0024486735570549063, ,0.0876463033806417, ,1.8111833198817293e-05, ,0.18176996366062229,-0.23720374023180582,0.09087122529000001,1.6836005562372458,0.5147096946164142,-1.243931409982833, ,0.0006057148621729485,-0.006546878808724493,0.00265745937937938,0.0025766509197632844,0.0814947710090891,-0.026513473514001046, ,0.1466231346130371
0.01023312742978203,0.020080957094751745,-0.08029580017306552, ,0.01039409678001168,0.02020653759785604,-0.08046848620222005, ,0.0002673986894852767, ,0.0004559519297174686,0.0015227756666203063,-0.0027921427684579883,0.034949908958101024,0.00127839442115064,-0.007446674783473023, ,0.003212911317250484, ,0.03497328163478339, ,1.9771070842992365e-05, ,0.18178540912637073,-0.23744314495090676,0.09095807672,1.684019936124215,0.5148463311161796,-1.243716112925967, ,-0.0006981704936279155,-0.009766070637701362,0.003115355274789752,0.00015153041875364041,0.0,-0.026898381643750857, ,0.18275904655456543
0.010251540958577995,0.020132575259672995,-0.08037464922309388, ,0.0104226376971524,0.02026876029232607,-0.08055401212638492, ,0.00028282770045826337, ,0.0005354495425838246,0.0016374979394795117,-0.002354575309269462,-0.00021576017476415276,0.00031436329978000807,-0.0004042708635989247, ,0.0029175555866982647, ,0.0003812829197487179, ,2.149054728350601e-05, ,0.18183174552361608,-0.23780611339599533,0.09104881702,1.6842296260676997,0.5148463311161796,-1.2437977916661076, ,0.0011984871774765868,-0.01187910748509906,0.0027312776954732513,0.007631221858353741,0.0,0.014066542019742972, ,0.21508193016052246
0.010277916247384779,0.020200026021606123,-0.08047135709740542, ,0.010451871476157863,0.020329529176265286,-0.08064060352864676, ,0.000275092426598949, ,0.0009214449802913235,0.0019126037700099227,-0.0028935960772069566,0.0031036582982987273,-0.0008006885584374462,-0.00968292994655097, ,0.003588873401331919, ,0.0032052763995253832, ,2.2657368727040224e-05, ,0.181932141050981,-0.23827720010132303,0.09116159425,1.6848586958981533,0.5148463311161796,-1.2433893979654047, ,0.00461548708384006,-0.012881354901380586,0.0033654788759771817,0.017294702030747008,0.0,0.013392733487109131, ,0.24743413925170898
0.010305402257913779,0.02025749424582778,-0.08055004052257744, ,0.010481791950844794,0.020388858998075444,-0.08072824810097812, ,0.00028306883068402437, ,0.0005749276077109868,0.001827064185920022,-0.0019215736491731568,0.008639040198063433,0.0034677937274230452,-0.016704939589147573, ,0.0027131440401822592, ,0.009309060578463944, ,2.365929926046633e-05, ,0.1820634275098428,-0.2387173958751538,0.09125363084,1.6848586958981533,0.5145730581166488,-1.2427581684573092, ,0.0025907891459568573,-0.014347889561304924,0.0023682443532560215,0.02400622176043283,0.0006112693423321148,0.010343846042592489, ,0.2799811363220215
0.010331296570175215,0.020321777417909744,-0.08063411228272892, ,0.010512392985556746,0.020446764439286415,-0.0808169335911693, ,0.00028607918134059804, ,0.0008432177999556598,0.0019139984673228003,-0.0027964833072556842,0.02165603501937488,-0.0004565568187717378,-0.01104597309257034, ,0.00349209468354393, ,0.02166084709142587, ,2.449049798769816e-05, ,0.1821869912358304,-0.23919620531335573,0.09135344517,1.6852780757851225,0.5145730581166488,-1.2421047385361847, ,0.0039541756261606146,-0.01341489137100237,0.0032661085749436133,0.011884347829172779,0.0005671733154292967,-0.0067258630830389805, ,0.3123021125793457
0.01035700284653614,0.020380729676286256,-0.08073029350888908, ,0.010543668475099627,0.020503260114683283,-0.08090664780272844, ,0.0002845322515574431, ,0.0008156970787123114,0.0016429389288027554,-0.0031817129045571425,-0.017458993313395073,-0.0110727732965081,0.04287057563033766, ,0.00367258860410757, ,0.020674205079445524, ,2.5151505922421453e-05, ,0.18227966403032111,-0.23956689649131852,0.09146362982,1.6859071456155759,0.5145730581166488,-1.2417780235756224, ,0.0030387699065818285,-0.011603999114875498,0.0035682821505376348,-0.033949884891160756,0.0005186716374000687,0.024356258827330012, ,0.34512996673583984
0.010380228393707702,0.02042961529039095,-0.08081183181347998, ,0.010575612344677403,0.020558360572432387,-0.08099737859478108, ,0.0002986265962630572, ,0.0007623544376944716,0.0016116881489575499,-0.002737007138172083,0.005263752126047634,-0.002814337582409433,0.003943145094892195, ,0.003266486040467279, ,0.005968884512087434, ,2.6079263530837508e-05, ,0.18238005955768602,-0.2399066967377844,0.09155696270000001,1.6856974556720912,0.5145730581166488,-1.2416963448354819, ,0.0031591930508038883,-0.01068227483044768,0.0031257479434850873,0.0,0.0004735089060436537,0.005602597245178632, ,0.37517404556274414
0.010396062527946375,0.020464729521500157,-0.08087222892968408, ,0.010608218549827813,0.020612080294207396,-0.08108911388197024, ,0.00033728550275122183, ,0.0008871618877876747,0.0017619542930649898,-0.003206327895486319,0.005234327782829771,-0.0004860988394561378,-0.006594426352515636, ,0.0037645820112420006, ,0.005256850680868644, ,2.7217771446806728e-05, ,0.18246500961930248,-0.24021560605275338,0.09166196219000002,1.686326525502545,0.5145730581166488,-1.2412062723946387, ,0.002937656584181982,-0.010030152134978845,0.0038793988114953727,0.01365388134943596,0.0004337047759164918,0.010490999574171987, ,0.40349793434143066
0.01043430439631867,0.020533498327085162,-0.08100195180167902, ,0.010641481076358003,0.02066443369531592,-0.08118184163435647, ,0.00030401743257018547, ,0.0010343539990425015,0.0015586147532839997,-0.0032206736138708004,-0.006436636130095887,-0.01050957921890767,0.026924619617772018, ,0.0037245008620717703, ,0.012324022869308036, ,2.7930790132721867e-05, ,0.18260401881103852,-0.2405090699019739,0.09177214684000001,1.6865362154460295,0.5145730581166488,-1.2410429149143576, ,0.005476976314906703,-0.00970904994316342,0.003612794629167612,-0.021676651167755828,0.00039860954575920434,0.012947363886711163, ,0.43267202377319336
0.010455482475964884,0.020565332809436322,-0.08106516884188482, ,0.010675393940280095,0.020715435124825946,-0.08127554987731744, ,0.0003393404445277479, ,0.0011732489135467135,0.0018667284348409781,-0.0038095606376950244,0.0024806351394886035,-0.0028993362497544382,-0.0051044382367083935, ,0.004401583841625388, ,0.0038157175710521597, ,2.8829194190597624e-05, ,0.18277391893427147,-0.24080253375119443,0.09188492407000001,1.686326525502545,0.5145730581166488,-1.2407161999537952, ,0.005616923298089167,-0.009816180627542153,0.004272749871244636,0.01071147118330049,0.0003683843574602405,0.009653180182285347, ,0.46164894104003906
0.010490592853282868,0.02062138034962921,-0.0811769635825264, ,0.010709951187746822,0.020765098865691608,-0.08137022669144786, ,0.0003257663580358841, ,0.0012028238552097262,0.0017898753619577405,-0.0036945197047459698,-0.005585987323072015,-0.00270444529196146,-0.006181610966072169, ,0.004277839979097066, ,0.006206228969544588, ,2.9523594223525388e-05, ,0.18288975992738485,-0.24098787934017582,0.09196918292,1.6869555953329984,0.5145730581166488,-1.2403078062530923, ,0.006190615045150592,-0.009015045639484288,0.004147048039573028,0.014669388517115165,0.0003507570478852854,0.018126423285615378, ,0.49061107635498047
0.010524197741567574,0.020670071155798397,-0.0812746574443011, ,0.010745146894987075,0.02081343913487959,-0.08146586021245862, ,0.0003254710499779048, ,0.0011760283343064278,0.0016297240872250936,-0.003411056335124291,-0.0038137700886817574,-0.010328341171011616,0.020564177091324583, ,0.003959084308898305, ,0.011009971533675613, ,3.0348635129172794e-05, ,0.18307510551636622,-0.24125045225789946,0.09207936757000001,1.687165285276483,0.5145730581166488,-1.2401444487728113, ,0.006673601964640262,-0.009558225150469064,0.003831804551359154,-0.015716375806141176,0.000327808159004168,0.011106013578354728, ,0.5165860652923584
0.010549977681451796,0.02070543386330278,-0.08134847647093449, ,0.010780975168241448,0.020860470083495338,-0.08156243863107766, ,0.0003509642067901865, ,0.001249344425570695,0.0017812219740391448,-0.0032876454083864593,0.004538894505921997,-0.0035925486298535765,-0.010742029825534669, ,0.003942362939379002, ,0.005788606793492619, ,3.126601102907993e-05, ,0.1832218374409765,-0.2414512433126293,0.09216233013000001,1.6869555953329984,0.5145730581166488,-1.2400627700326705, ,0.0076112933099891636,-0.009914777786522874,0.003759455161670994,0.0162576815854422,0.0003121831597681169,0.008610836331689757, ,0.541719913482666
0.010588135920871895,0.020761927725189,-0.08146915252219764, ,0.010817430143697748,0.020906205796909508,-0.08165995019294922, ,0.00033135442318600605, ,0.0012032278249639765,0.0017769914610737826,-0.003941009773294705,0.0017418786196613024,-0.0010240911467706724,-0.012918517919286422, ,0.004487428426693963, ,0.0020206194228107937, ,3.1977987902386546e-05, ,0.18340718302995787,-0.24171381623035293,0.09229714429000001,1.687584665163452,0.5145730581166488,-1.2396543763319678, ,0.005569147684263047,-0.007895941900990171,0.004382066442916094,0.018609458895584505,0.00029256213971882674,0.009916439295605884, ,0.5675201416015625
0.010614177354129669,0.020795103336602276,-0.08154348073932396, ,0.010854505987426597,0.02095066029488318,-0.08175838319853315, ,0.000357964923178421, ,0.0012814772116234725,0.0017377451194456163,-0.00366313354096724,0.0037986274547387178,-0.002591691009759151,-0.013296323793927438, ,0.0042521158595488105, ,0.0045985249994304495, ,3.279083037427573e-05, ,0.18355391495456816,-0.24187599362071163,0.09238010685,1.687584665163452,0.5145730581166488,-1.2394910188516868, ,0.00711158880136048,-0.008193233394899148,0.004114908685094291,0.018386366919052582,0.0002811677236593012,0.008001784840863085, ,0.5924680233001709
0.010657799828072738,0.020847705196477537,-0.08166711011887179, ,0.010892196895316727,0.020993847531695312,-0.08185772600300481, ,0.00033560986660004704, ,0.0015413433338722063,0.0017833389226272977,-0.004030163779970159,0.0002971189806468041,-0.006369223532362114,-0.006954397710784555, ,0.004668860361931286, ,0.006376149859488841, ,3.3407539990439205e-05, ,0.18380104240654332,-0.2421153983398126,0.09251751359,1.687584665163452,0.5145730581166488,-1.2394093401115462, ,0.009415838093614457,-0.00787458677823739,0.0045124111954674235,0.012478459601559017,0.0002648944129523604,0.010276038871931192, ,0.6178760528564453
0.010687965403858933,0.020881783229930482,-0.08174469553192196, ,0.010930497093010628,0.02103578139626793,-0.081957967016155, ,0.0003578013156278725, ,0.0015218565392988962,0.0016289472454395937,-0.003822859548461534,-7.654427906100857e-06,-0.006282898658604996,-0.008543522888047272, ,0.004425355531694101, ,0.0062829032563055, ,3.429156288754728e-05, ,0.18398638799552472,-0.24225440753154864,0.09260436502000001,1.6880040450504212,0.5145730581166488,-1.2390826251509839, ,0.009616466565912005,-0.00662181684254643,0.004272749871244636,0.013633155532085259,0.00025520293701436947,0.009510639975077227, ,0.6394760608673096
0.010718984120654834,0.02091465347499475,-0.08182381805780338, ,0.01096940083583999,0.021076475712292247,-0.08205909470228953, ,0.000379802668722527, ,0.0017415385142903615,0.0017518905906439954,-0.004385693288925334,-0.002734145688200716,-0.008964348422140058,-0.002906971647073333, ,0.005033525867904958, ,0.009372037860321892, ,3.523750468861925e-05, ,0.18417945631738034,-0.24238569399041046,0.09269251274000001,1.6882137349939055,0.5145730581166488,-1.2388375889305623, ,0.010999667010015706,-0.006627321911632425,0.004872686301621292,0.008399316637064126,0.0002467362905176383,0.011424402888031582, ,0.6615729331970215
0.01075567846926698,0.020950960198053092,-0.08192228421780125, ,0.01100890240876098,0.021115944238355402,-0.08216109758012856, ,0.0003851933528935958, ,0.0018681162925130452,0.001865060705508892,-0.004798449798107371,-0.003064556803616895,-0.010130319047871308,-0.0013884495009228418, ,0.005476625820935979, ,0.01058370775627951, ,3.615207481894494e-05, ,0.18441113830360706,-0.24250925771639806,0.09280140110000001,1.6882137349939055,0.5147096946164142,-1.2389490068342588, ,0.01155015098197009,-0.006782485734577089,0.005313145937291528,0.00684345920135579,0.0,0.011625599788585236, ,0.6826369762420654
0.010789639369272661,0.020983875606796872,-0.08201042370821558, ,0.011048996126289859,0.021154200668065618,-0.08226396422270642, ,0.0004006985729884214, ,0.0017574677937463904,0.0016405045040105326,-0.004322356978384018,-0.0018337466524096812,-0.011447678423921791,0.0038149648787423316, ,0.004945979975931936, ,0.011593617493002228, ,3.708975912544878e-05, ,0.18477410674869563,-0.24270232603825367,0.09296732622000001,1.68842342493739,0.5147096946164142,-1.2384589343934151, ,0.011291877862740454,-0.005930296646511404,0.004786301538461539,0.0,0.0,0.008134806703364248, ,0.7044551372528076
0.01084971728366883,0.02104088954214924,-0.08216033854176581, ,0.011089676332438306,0.02119125863017899,-0.08236768325727095, ,0.000350974413268486, ,0.002008566876478691,0.0018416383166746392,-0.005224265763659987,0.0012027919944340472,-0.009011969743591794,-0.00992990891098851, ,0.005892276754878494, ,0.009091881177715946, ,3.7725580207210126e-05, ,0.18499806600204813,-0.2428104442984928,0.09306454797000001,1.6886331148808746,0.5147096946164142,-1.2383772556532748, ,0.012158184832810287,-0.00487973064927655,0.005735978221101909,0.013591328544192732,0.0,0.006390611503828645, ,0.7258670330047607
0.010893434741477236,0.02107916310927349,-0.0822686984393434, ,0.011130937400648798,0.021227131688725146,-0.08247224336518354, ,0.000346024205011401, ,0.0020588497097798067,0.0017309488542142017,-0.005040263416975897,-0.0015310036482306427,-0.01060070236396789,-0.007193383875874662, ,0.005713081600666264, ,0.010710689031405214, ,3.8300920225326186e-05, ,0.1852760843855202,-0.24292628529160618,0.09318380665,1.6886331148808746,0.5147096946164142,-1.2382138981729935, ,0.013143620714469636,-0.004226315227672165,0.005538529735744089,0.011219174310561205,0.0,0.008163213008859081, ,0.7472579479217529
0.010935168533962446,0.02111519836692103,-0.08237249507455512, ,0.011172773733729982,0.021261833343133463,-0.0825776332818185, ,0.00034646750393741875, ,0.00213807245536186,0.0018588164579472943,-0.0052822269303167465,-0.006114675128790711,-0.013618404810464984,0.004391631408550503, ,0.005994036519080969, ,0.014928167918403212, ,3.9028445590635055e-05, ,0.18553865730324384,-0.24301895808609686,0.09329788017000001,1.6888428048243591,0.5147096946164142,-1.238132219432853, ,0.013576100366018709,-0.005500789996560436,0.005813434861313869,0.0007995430101767003,0.0,0.012379221662776904, ,0.7655580043792725
0.010958052375798508,0.021134642869393025,-0.08243184035882482, ,0.011215179763792129,0.021295377028358903,-0.08268384179646208, ,0.0003942774252809014, ,0.002192853167175118,0.0018493169706250993,-0.005722273240344028,-0.0009979291029774422,-0.013116341998965077,0.0017630847096302368, ,0.006401014709230817, ,0.01315424964766077, ,3.99419097985604e-05, ,0.18567766649497988,-0.24306529448334221,0.09336269467000001,1.6888428048243591,0.5147096946164142,-1.2380505406927125, ,0.013226054572609168,-0.004132989842061125,0.0062416973040752355,0.0008927481374964187,0.0,0.0055395457631351045, ,0.7830960750579834
0.010993981596856451,0.021166544201687093,-0.08252340317761131, ,0.011258149952182432,0.02132777611500806,-0.08279085775221294, ,0.0004090386281320042, ,0.002407754901120936,0.002043665214262206,-0.006173595856809797,-0.0009218901023998093,-0.011265701738911487,-0.009935734633737535, ,0.006934488948370772, ,0.011303358264830475, ,4.0880605220709284e-05, ,0.18590934848120663,-0.24313479907921023,0.09346380529000001,1.6892621847113283,0.5148463311161796,-1.2380802798562682, ,0.014660426627293492,-0.004293838621097259,0.006752357575243748,0.014147902664045975,0.00014656400211824307,0.008161483894335884, ,0.8009700775146484
0.01105575623768896,0.021216688357601335,-0.08268825919690936, ,0.011301678789420368,0.021359043909465174,-0.08289867004588077, ,0.0003535756354182386, ,0.0024966908137945285,0.0020714500946952003,-0.006616957204936805,-0.004463870408049472,-0.01183288634818793,-0.00727757504121696, ,0.007369429636441604, ,0.012646870192421453, ,4.153487105103688e-05, ,0.18627231692629517,-0.2432197491408267,0.09364269331000001,1.6892621847113283,0.5148463311161796,-1.237753564895706, ,0.0146785679131432,-0.0034323952870795663,0.0071978362042476275,0.012056608790594515,0.00014656400211824307,0.010626515677934129, ,0.818972110748291
0.011103283280883114,0.02125174974080346,-0.08280708747372507, ,0.011345760795133,0.02138919365401816,-0.08300726762788643, ,0.00034315924629337675, ,0.002395926831205308,0.0016019355539226285,-0.005286919349569049,-0.0017422091016742278,-0.013016267649801213,-0.007155123842191389, ,0.006021476489056362, ,0.013132346018690467, ,4.211635127008492e-05, ,0.18658122624126416,-0.24326608553807205,0.09377232231,1.6892621847113283,0.514982967615945,-1.2377833040592618, ,0.016509558378300416,-0.0019421938521470544,0.005794402153510367,0.010269723199725663,0.0011734944442685627,0.00592472269537115, ,0.837028980255127
0.011128174846564514,0.02126896075782014,-0.08286479087018764, ,0.01139039051799035,0.02141823852698451,-0.0831166395021609, ,0.00039302499174327096, ,0.002552748215182049,0.0017176719259010256,-0.00572588737529287,-0.0067974222626088045,-0.014033198551055255,-0.004664342635761632, ,0.006500208191256796, ,0.015592806188584152, ,4.3063860074569864e-05, ,0.1867588490973713,-0.24328925373669472,0.09383584052,1.6892621847113283,0.5151196041157104,-1.2378130432228178, ,0.017370847804955295,-0.002001016051372479,0.006266251581431944,0.0095567677970782,0.0012939394028348952,0.011224194244253857, ,0.8513059616088867
0.011178841341116234,0.021302688231601464,-0.08297870759408628, ,0.011435562535640684,0.021446191642837294,-0.08322677472604535, ,0.0003847548605447116, ,0.00266049641150012,0.0017970061524378075,-0.006347752549996819,-0.0066833407455721755,-0.01337463503464672,-0.006928497953491974, ,0.0071134685423846124, ,0.01495151816790496, ,4.394560040754261e-05, ,0.1870986493438372,-0.2433124219353174,0.09396028436000001,1.6896815645982974,0.5151196041157104,-1.237568007002396, ,0.017191474920012825,-0.0010243928298320805,0.006898575799047208,0.011470133393809723,0.0012939394028348952,0.010454137753746783, ,0.8662490844726562
0.011204415861037723,0.021319529674050063,-0.08304314252056388, ,0.011481271454645956,0.02147306605233088,-0.08333766241019044, ,0.00043239380725606955, ,0.0028478397868396824,0.0019648070940830615,-0.007105228203505356,-0.0014239587348115735,-0.01175062282068526,-0.008299945470255345, ,0.007902842918365148, ,0.011836586376301033, ,4.499299389989322e-05, ,0.18726854946707014,-0.2433124219353174,0.09403028402000001,1.6896815645982974,0.5152562406154759,-1.237597746165952, ,0.01789495409362074,-0.0007187117342862266,0.00770252007736944,0.011470133393809723,0.0035994040232004134,0.004733608932482882, ,0.8808751106262207
0.011234751772051087,0.021340118734239952,-0.08312214357075705, ,0.011527511910416795,0.021498874742627388,-0.08344929171845525, ,0.00046683817255809663, ,0.003126724475159822,0.0022617022290700836,-0.008319322922079193,0.0029673908169900493,-0.008089042363021047,-0.00861021353197981, ,0.00917075988118631, ,0.008616146166381055, ,4.614506698004793e-05, ,0.18767013157652981,-0.2433124219353174,0.09421435720000002,1.6896815645982974,0.5155295136150068,-1.2376572244930637, ,0.020220954945337904,-0.00043465014003249674,0.009613042558841281,0.01062812070792076,0.012381734319600084,0.0004465919213030127, ,0.8952639102935791
0.011306626863870548,0.021390088215101775,-0.08331198286952338, ,0.011574278567148166,0.021523630637422003,-0.08356165186780706, ,0.0003896224089173301, ,0.0033593669662503067,0.0022196002234922216,-0.00833458808342271,0.0020187418002750837,-0.008912648309778998,-0.006315579433713737, ,0.009256204950539523, ,0.00913841223254689, ,4.695551022509591e-05, ,0.1878554771655112,-0.24332014466819163,0.09430380121000001,1.6896815645982974,0.5155295136150068,-1.2375755457529232, ,0.02065221796702302,0.0,0.009138732943201378,0.009888159843999504,0.011149866741562965,0.00038647468960015165, ,0.9106969833374023
0.011334774872897874,0.02140849161645024,-0.08338239088360727, ,0.011621566117754369,0.02154734659706947,-0.08367473212822168, ,0.000432427250611948, ,0.0032596188231494667,0.0021535405885693675,-0.008115654589938981,-0.001990573930322657,-0.014744224514552337,-0.006450286596494502, ,0.00900703621409638, ,0.014877987293364583, ,4.809441928734849e-05, ,0.1880794364188637,-0.24332014466819163,0.09439713409000001,1.6896815645982974,0.5156661501147722,-1.237605284916479, ,0.020324896457158015,0.0,0.008776204694214878,0.0091800686886821,0.003576230183722237,0.004150929547118891, ,0.9212911128997803
0.011366808801554062,0.021430252445954565,-0.08346430512024103, ,0.011669369283804503,0.021570035418709457,-0.08378852182258129, ,0.00046497160662583003, ,0.003351698090149647,0.0021618208607194736,-0.008260792397485062,-2.6613600774232158e-05,-0.007710724943518992,0.0015996010867046233, ,0.009173224109096085, ,0.007710768377377244, ,4.9332598240104415e-05, ,0.188295672939342,-0.2433124219353174,0.09448657810000001,1.6898912545417817,0.5159394231143032,-1.2377464419837312, ,0.022074189708878988,0.00011165718505275817,0.008973978321126761,0.0026788314198748376,0.014264448654151917,0.0015166316623458093, ,0.9318530559539795
0.011440354230607836,0.021478892958346017,-0.0836501671669821, ,0.011717682815457623,0.021591709836393,-0.08390301032657457, ,0.000391878112810291, ,0.0037448676607165676,0.002690079760255454,-0.010307333340838706,0.010940910280961686,-0.00425629181532643,-0.0019136712146493836, ,0.011291664337553698, ,0.011739651675096045, ,5.026343914884479e-05, ,0.18875131417892124,-0.2433046992024432,0.09468750305000001,1.6901009444852664,0.5160760596140685,-1.2376945024071466, ,0.022318189454014765,6.203218237353231e-05,0.011139029034965036,0.0034014322328500923,0.01770833627974531,-0.009659615610024694, ,0.9478180408477783
0.011479093483040152,0.02150445094360784,-0.08375097470515766, ,0.011766501491398056,0.02161238252120803,-0.08401818706859701, ,0.0004070074150262708, ,0.003866603555822222,0.0025105011961499605,-0.009630969390015834,0.004329281712945664,-0.009190330955393282,-0.0003022490218301, ,0.010677490843133016, ,0.010158975359687402, ,5.123029612084379e-05, ,0.18899071889802221,-0.24329697646956897,0.09479639141000001,1.6901009444852664,0.516212696113834,-1.2377242415707024, ,0.02497287935749231,0.00023198052944366614,0.010451976062992127,0.0034014322328500923,0.015470236828749517,-0.0029948475808739463, ,0.9586360454559326
0.011518466881037758,0.021529070431381376,-0.08384788385790425, ,0.011815820118770597,0.02163206608140542,-0.08413404152964853, ,0.00042533900010719057, ,0.004005253413323081,0.0024789461254333283,-0.009693712657510366,-0.0029002245936643155,-0.018645688214808248,-0.0005849805482388011, ,0.010777536540606753, ,0.01886989417304926, ,5.224390847809998e-05, ,0.1892455690828716,-0.24328925373669472,0.09490139090000001,1.6901009444852664,0.5163493326135995,-1.2378356594743989, ,0.025537390085702577,0.0007202878472611931,0.010486380197498356,0.0034014322328500923,0.0063678777733960365,0.0034699493322225207, ,0.9698300361633301
0.011537776124889501,0.02154153847864711,-0.08389538217620007, ,0.011865633533115868,0.021650773062524886,-0.08425056324323463, ,0.0004955565203119277, ,0.003948685971977945,0.002429050770259438,-0.00947904044347734,0.003798983274595701,-0.013475055463573615,-0.001378261371864417, ,0.010551995843387755, ,0.014000332751001869, ,5.36923110831212e-05, ,0.18937685554173342,-0.24328925373669472,0.0949532425,1.6901009444852664,0.516485969113365,-1.2378653986379549, ,0.02584339367060751,0.0007202878472611931,0.010283286972240156,0.0034014322328500923,0.011922861014301933,-0.003211574012996028, ,0.9771080017089844
0.011537776124889501,0.02154153847864711,-0.08389538217620007, ,0.011915936598305454,0.021668515947520787,-0.08436774179526446, ,0.0006182655020121997, ,0.003948685971977945,0.002429050770259438,-0.00947904044347734,0.003798983274595701,-0.013475055463573615,-0.001378261371864417, ,0.010551995843387755, ,0.014000332751001869, ,5.557054961196663e-05, ,0.18937685554173342,-0.24328925373669472,0.0949532425,1.6901009444852664,0.516485969113365,-1.2378653986379549, ,0.02584339367060751,0.0007202878472611931,0.010283286972240156,0.0034014322328500923,0.011922861014301933,-0.003211574012996028, ,0.9841799736022949
0.011598707894437295,0.021577291861118324,-0.08403922266850823, ,0.011966724206477165,0.021685307156888056,-0.08448556682395128, ,0.000588495042583893, ,0.00429503701767114,0.0027049244477096715,-0.010683057658593516,0.02571365502593198,0.01349295006306413,-0.00044244849594944646, ,0.011827581332961377, ,0.02903879503437932, ,5.731271728846283e-05, ,0.18980160584981579,-0.24326608553807205,0.09511009359000001,1.6901009444852664,0.5168958786126612,-1.2381179736089034, ,0.030040184095748903,0.0013860466668338329,0.011686582186353635,0.0034014322328500923,0.04384735578945359,-0.02471750528474593, ,0.9913120269775391
0.011651787245838234,0.021609931194769283,-0.0841753042416063, ,0.012017991277970277,0.02170115904878817,-0.08460402801971051, ,0.0005711672193067523, ,0.00547214008394089,0.0036288702751320527,-0.014832879749234277,0.012063142602729022,-0.009034652540547576,-0.0021825064740434385, ,0.016221200270857085, ,0.015071285213190875, ,5.8966854189657847e-05, ,0.1901259606305332,-0.24323519460657517,0.09525657436000001,1.6901009444852664,0.5170325151124266,-1.2381477127724594, ,0.032410157636089745,0.002709216088849644,0.01597674174523571,0.0034014322328500923,0.023151714962260858,-0.013192899568304928, ,0.9985949993133545
0.011651787245838234,0.021609931194769283,-0.0841753042416063, ,0.012069732761260842,0.021716083919174935,-0.08472311512506078, ,0.0006971682858476829, ,0.00547214008394089,0.0036288702751320527,-0.014832879749234277,0.012063142602729022,-0.009034652540547576,-0.0021825064740434385, ,0.016221200270857085, ,0.015071285213190875, ,6.105043180645053e-05, ,0.1901259606305332,-0.24323519460657517,0.09525657436000001,1.6901009444852664,0.5170325151124266,-1.2381477127724594, ,0.032410157636089745,0.002709216088849644,0.01597674174523571,0.0034014322328500923,0.023151714962260858,-0.013192899568304928, ,1.0057590007781982
0.011708214421161184,0.021648189813237836,-0.08433046057688971, ,0.012121943632896755,0.021730094001920247,-0.08484281793452207, ,0.0006636190312875864, ,0.006050772847491397,0.004046891830915342,-0.016523759465216243,0.004635568214352974,-0.017483497635157146,-0.001381105212371204, ,0.01805612949686039, ,0.018087563418458925, ,6.298442526243156e-05, ,0.19045803814412485,-0.24321202640795248,0.09542379577000001,1.6901009444852664,0.5173057881119575,-1.2382888698397116, ,0.03462128477142312,0.0028386242495114017,0.017757872374581943,0.0033577688440006625,0.01682954982298546,-0.005939690395726242, ,1.0141279697418213
0.011764601637083311,0.021687830432532765,-0.08449834052204869, ,0.012174618897433051,0.021743201468940095,-0.08496312629451559, ,0.0006222587241213951, ,0.005697455973269287,0.0040784113202792325,-0.017387880675213796,0.050575841785262116,0.03913623464591788,-0.002610839507947721, ,0.01874654202353589, ,0.06394966024263175, ,6.47443184312136e-05, ,0.19079783839059072,-0.24316569001070715,0.09560527637,1.6901009444852664,0.5179889706107847,-1.2388459593581937, ,0.03373513741858186,0.005228860061082562,0.018783975849056604,0.0031652492844013347,0.07379265638686498,-0.052871037177755084, ,1.0211679935455322
0.011830618018266877,0.02172897899468508,-0.084681058530029, ,0.012227753587367097,0.021755418430320396,-0.08508403010326232, ,0.0005663936730185196, ,0.006720207825673484,0.003957081959939943,-0.017895759985434308,0.008897856410540037,-0.012424042776713053,-0.0022271420257636144, ,0.01952121708076105, ,0.015281585393395487, ,6.628271644584773e-05, ,0.19114536136993085,-0.24310390814771335,0.09578805326,1.6901009444852664,0.5182622436103156,-1.2389054376853053, ,0.03975573588540879,0.007460073616258596,0.019030838136200722,0.0029981218731820417,0.02894780251960545,-0.01610187216115413, ,1.028270959854126
0.011830618018266877,0.02172897899468508,-0.084681058530029, ,0.012281342763073837,0.021766756934442768,-0.0852055193106842, ,0.0006925598015760765, ,0.006720207825673484,0.003957081959939943,-0.017895759985434308,0.008897856410540037,-0.012424042776713053,-0.0022271420257636144, ,0.01952121708076105, ,0.015281585393395487, ,6.848017990244501e-05, ,0.19114536136993085,-0.24310390814771335,0.09578805326,1.6901009444852664,0.5182622436103156,-1.2389054376853053, ,0.03975573588540879,0.007460073616258596,0.019030838136200722,0.0029981218731820417,0.02894780251960545,-0.01610187216115413, ,1.0319321155548096
0.011830618018266877,0.02172897899468508,-0.084681058530029, ,0.012335381512740988,0.021777228968110646,-0.08532758391830152, ,0.0008216503654050284, ,0.006720207825673484,0.003957081959939943,-0.017895759985434308,0.008897856410540037,-0.012424042776713053,-0.0022271420257636144, ,0.01952121708076105, ,0.015281585393395487, ,7.1113642089517e-05, ,0.19114536136993085,-0.24310390814771335,0.09578805326,1.6901009444852664,0.5182622436103156,-1.2389054376853053, ,0.03975573588540879,0.007460073616258596,0.019030838136200722,0.0029981218731820417,0.02894780251960545,-0.01610187216115413, ,1.0355250835418701
0.011901799669055533,0.021771023337139515,-0.08487013072591472, ,0.012389864952304215,0.021786846456674686,-0.08545021397913335, ,0.0007582576557405515, ,0.007696354250495843,0.004343134001494537,-0.019642604354457575,-0.01845868670760649,-0.043975454519562814,-0.0004770389952815663, ,0.021539001544403562, ,0.04769235568778992, ,0.00039805206213853605, ,0.19158555714376163,-0.24301895808609686,0.09600323740000001,1.6901009444852664,0.5183988801100811,-1.2388534981087207, ,0.0445734812393005,0.008404651992183055,0.020986576442687747,0.002830579351091,0.0001369753878026468,0.01139026748545471, ,1.039452075958252
0.011901799669055533,0.021771023337139515,-0.08487013072591472, ,0.012444788225382256,0.021795621264159,-0.08557339959759634, ,0.0008888356069554022, ,0.007696354250495843,0.004343134001494537,-0.019642604354457575,-0.01845868670760649,-0.043975454519562814,-0.0004770389952815663, ,0.021539001544403562, ,0.04769235568778992, ,0.00040714064630181134, ,0.19158555714376163,-0.24301895808609686,0.09600323740000001,1.6901009444852664,0.5183988801100811,-1.2388534981087207, ,0.0445734812393005,0.008404651992183055,0.020986576442687747,0.002830579351091,0.0001369753878026468,0.01139026748545471, ,1.0431201457977295
0.011982597753691468,0.021817675111013356,-0.08508802922281411, ,0.012500146503212297,0.02180356519338675,-0.0856971309294049, ,0.0007994127137329077, ,0.008558309533606433,0.004964709226719221,-0.023967299699479146,0.05799317636620372,0.04272757594445295,-0.003369873990374612, ,0.025929220093623005, ,0.0720336472948917, ,0.0004142728657096495, ,0.19208753478058624,-0.2428953943601093,0.09623786589000001,1.6903106344287508,0.5190820626089083,-1.2394105876272028, ,0.053493202682339785,0.014465997188791277,0.025816550275526744,0.00309338911847401,0.09773154269987035,-0.06855097554836723, ,1.046895980834961
0.011982597753691468,0.021817675111013356,-0.08508802922281411, ,0.01255593498458495,0.02181068998610609,-0.0858213981814695, ,0.0009309105229923366, ,0.008558309533606433,0.004964709226719221,-0.023967299699479146,0.05799317636620372,0.04272757594445295,-0.003369873990374612, ,0.025929220093623005, ,0.0720336472948917, ,0.00042349853816112603, ,0.19208753478058624,-0.2428953943601093,0.09623786589000001,1.6903106344287508,0.5190820626089083,-1.2394105876272028, ,0.053493202682339785,0.014465997188791277,0.025816550275526744,0.00309338911847401,0.09773154269987035,-0.06855097554836723, ,1.0505061149597168
0.011982597753691468,0.021817675111013356,-0.08508802922281411, ,0.012612148895779574,0.021817007323116172,-0.08594619161179669, ,0.001064320333503687, ,0.008558309533606433,0.004964709226719221,-0.023967299699479146,0.05799317636620372,0.04272757594445295,-0.003369873990374612, ,0.025929220093623005, ,0.0720336472948917, ,0.0004347410257987148, ,0.19208753478058624,-0.2428953943601093,0.09623786589000001,1.6903106344287508,0.5190820626089083,-1.2394105876272028, ,0.053493202682339785,0.014465997188791277,0.025816550275526744,0.00309338911847401,0.09773154269987035,-0.06855097554836723, ,1.0540540218353271
0.012076106140526309,0.021872989522642522,-0.08535542547852107, ,0.01266878349049947,0.021822528824392437,-0.0860715015293882, ,0.000930901516737702, ,0.010111843952878672,0.0058629284247241845,-0.02893578361686184,0.04762789138917682,0.02659231718284662,0.0018506332795593184, ,0.031207417249151808, ,0.05454857547429599, ,0.0004432955170218008, ,0.19265901701327884,-0.24272549423687634,0.09652564227,1.6905203243722353,0.5201751546070318,-1.2402202521166337, ,0.05901551091944699,0.018048106040028676,0.030989905680933853,-0.0038196509921406665,0.08854198881563748,-0.06334580723610699, ,1.0576350688934326
0.012076106140526309,0.021872989522642522,-0.08535542547852107, ,0.012725834049806883,0.021827266049213118,-0.08619731829414035, ,0.0010644343592311877, ,0.010111843952878672,0.0058629284247241845,-0.02893578361686184,0.04762789138917682,0.02659231718284662,0.0018506332795593184, ,0.031207417249151808, ,0.05454857547429599, ,0.0004538232940084006, ,0.19265901701327884,-0.24272549423687634,0.09652564227,1.6905203243722353,0.5201751546070318,-1.2402202521166337, ,0.05901551091944699,0.018048106040028676,0.030989905680933853,-0.0038196509921406665,0.08854198881563748,-0.06334580723610699, ,1.0612249374389648
0.012076106140526309,0.021872989522642522,-0.08535542547852107, ,0.012783295882058376,0.02183123049628454,-0.08632363231674327, ,0.001199702308237667, ,0.010111843952878672,0.0058629284247241845,-0.02893578361686184,0.04762789138917682,0.02659231718284662,0.0018506332795593184, ,0.031207417249151808, ,0.05454857547429599, ,0.00046625461091222173, ,0.19265901701327884,-0.24272549423687634,0.09652564227,1.6905203243722353,0.5201751546070318,-1.2402202521166337, ,0.05901551091944699,0.018048106040028676,0.030989905680933853,-0.0038196509921406665,0.08854198881563748,-0.06334580723610699, ,1.0647900104522705
0.012181955863706597,0.021932169388395286,-0.08565416685303626, ,0.012841164322839901,0.021834433603867304,-0.08645043405858036, ,0.0010383397992927042, ,0.01204208582015078,0.006567775706218196,-0.033624042141448277,0.014307729480180506,-0.015037446799840428,0.0011165448424474054, ,0.03631423575620112, ,0.020755552288462417, ,0.00047563305662337715, ,0.19326139017746835,-0.2425247031821465,0.09684452961000001,1.6905203243722353,0.520858337105859,-1.2407773416351158, ,0.06697031867217415,0.0231795167460847,0.03579508206741574,-0.0038196509921406665,0.05412937064324422,-0.03596230994378467, ,1.0683670043945312
0.012181955863706597,0.021932169388395286,-0.08565416685303626, ,0.01289943473490198,0.02183688674990179,-0.08657771403162769, ,0.0011733686986170526, ,0.01204208582015078,0.006567775706218196,-0.033624042141448277,0.014307729480180506,-0.015037446799840428,0.0011165448424474054, ,0.03631423575620112, ,0.020755552288462417, ,0.00048688685730069453, ,0.19326139017746835,-0.2425247031821465,0.09684452961000001,1.6905203243722353,0.520858337105859,-1.2407773416351158, ,0.06697031867217415,0.0231795167460847,0.03579508206741574,-0.0038196509921406665,0.05412937064324422,-0.03596230994378467, ,1.0719959735870361
0.012181955863706597,0.021932169388395286,-0.08565416685303626, ,0.012958102508094886,0.0218386012521343,-0.0867054627983526, ,0.0013101075430502443, ,0.01204208582015078,0.006567775706218196,-0.033624042141448277,0.014307729480180506,-0.015037446799840428,0.0011165448424474054, ,0.03631423575620112, ,0.020755552288462417, ,0.0004999538523125922, ,0.19326139017746835,-0.2425247031821465,0.09684452961000001,1.6905203243722353,0.520858337105859,-1.2407773416351158, ,0.06697031867217415,0.0231795167460847,0.03579508206741574,-0.0038196509921406665,0.05412937064324422,-0.03596230994378467, ,1.0766229629516602
0.012306652484532297,0.02199760481253809,-0.08600926846735049, ,0.013017163059303753,0.021839588368242534,-0.08683367097161439, ,0.0010997426801604355, ,0.01204208582015078,0.006567775706218196,-0.033624042141448277,0.014307729480180506,-0.015037446799840428,0.0011165448424474054, ,0.03631423575620112, ,0.020755552288462417, ,0.0005093255527477147, ,0.19326139017746835,-0.2425247031821465,0.09684452961000001,1.6905203243722353,0.520858337105859,-1.2407773416351158, ,0.06697031867217415,0.0231795167460847,0.03579508206741574,-0.0038196509921406665,0.05412937064324422,-0.03596230994378467, ,1.0803449153900146
0.012306652484532297,0.02199760481253809,-0.08600926846735049, ,0.01307661183238383,0.021839859295961626,-0.08696232921456236, ,0.0012353322764422437, ,0.01316963129277688,0.006987701562008166,-0.03828290126176995,0.026070360263635805,0.003230784969335659,0.003036562519260352, ,0.04108342354923463, ,0.026268220856081628, ,0.0005204948869583998, ,0.19394871340327433,-0.24224668479867442,0.09722175000000001,1.6903106344287508,0.5215415196046862,-1.2413344311535979, ,0.07097751799436858,0.03124693498797194,0.04063472326530613,-0.008065868095322625,0.07788590456428848,-0.05590560718609347, ,1.0842080116271973
0.012469768548108495,0.022078961487596784,-0.08646954514527197, ,0.013136444298095525,0.02183942517320989,-0.08709142824053552, ,0.000942641387647179, ,0.01404765170671577,0.00648586578734363,-0.03831748235012924,0.033672182885582845,0.007673365048660749,0.0014792569337559866, ,0.041323509375863696, ,0.03453424142123988, ,0.0005268910460597449, ,0.19479821401943903,-0.2418605481549632,0.09768063666000001,1.6903106344287508,0.5224979751030443,-1.2421143564794728, ,0.08090105844711916,0.03656914896280184,0.040531327022900764,-0.008065868095322625,0.092951141173527,-0.06869949063619975, ,1.0880069732666016
0.012469768548108495,0.022078961487596784,-0.08646954514527197, ,0.013196655954039646,0.02183829707821476,-0.08722095881296252, ,0.0010728034110854964, ,0.01404765170671577,0.00648586578734363,-0.03831748235012924,0.033672182885582845,0.007673365048660749,0.0014792569337559866, ,0.041323509375863696, ,0.03453424142123988, ,0.0005350389918063979, ,0.19479821401943903,-0.2418605481549632,0.09768063666000001,1.6903106344287508,0.5224979751030443,-1.2421143564794728, ,0.08090105844711916,0.03656914896280184,0.040531327022900764,-0.008065868095322625,0.092951141173527,-0.06869949063619975, ,1.0916099548339844
0.012469768548108495,0.022078961487596784,-0.08646954514527197, ,0.01325724232459252,0.02183648602963831,-0.08735091174526005, ,0.00120653072067674, ,0.01404765170671577,0.00648586578734363,-0.03831748235012924,0.033672182885582845,0.007673365048660749,0.0014792569337559866, ,0.041323509375863696, ,0.03453424142123988, ,0.0005449138701721382, ,0.19479821401943903,-0.2418605481549632,0.09768063666000001,1.6903106344287508,0.5224979751030443,-1.2421143564794728, ,0.08090105844711916,0.03656914896280184,0.040531327022900764,-0.008065868095322625,0.092951141173527,-0.06869949063619975, ,1.0952911376953125
0.012606241139903778,0.022132987121016058,-0.08682373933125312, ,0.013318198960841144,0.021834002986703304,-0.08748127790073264, ,0.0010142151752551333, ,0.014497384769176619,0.004900694376435042,-0.03594076810225638,0.01718358720410921,-0.008736208567081325,-0.0009344447707165105, ,0.03906315120797279, ,0.019275296079510434, ,0.0005517153383617469, ,0.1956708828342264,-0.24142807511400663,0.09808637543000001,1.6903106344287508,0.5233177941016369,-1.2427828639016514, ,0.0902062182114741,0.047495966745981374,0.038107204593301434,-0.007775136402946086,0.08518309335872017,-0.06280728137906377, ,1.098844051361084
0.012606241139903778,0.022132987121016058,-0.08682373933125312, ,0.013379521440518318,0.0218308588493189,-0.0876120481924718, ,0.001144847053781909, ,0.014497384769176619,0.004900694376435042,-0.03594076810225638,0.01718358720410921,-0.008736208567081325,-0.0009344447707165105, ,0.03906315120797279, ,0.019275296079510434, ,0.0005601886485820349, ,0.1956708828342264,-0.24142807511400663,0.09808637543000001,1.6903106344287508,0.5233177941016369,-1.2427828639016514, ,0.0902062182114741,0.047495966745981374,0.038107204593301434,-0.007775136402946086,0.08518309335872017,-0.06280728137906377, ,1.1024301052093506
0.012606241139903778,0.022132987121016058,-0.08682373933125312, ,0.013441205367937813,0.02182706445820637,-0.08774321358325551, ,0.0012791351913743934, ,0.014497384769176619,0.004900694376435042,-0.03594076810225638,0.01718358720410921,-0.008736208567081325,-0.0009344447707165105, ,0.03906315120797279, ,0.019275296079510434, ,0.0005703146562269977, ,0.1956708828342264,-0.24142807511400663,0.09808637543000001,1.6903106344287508,0.5233177941016369,-1.2427828639016514, ,0.0902062182114741,0.047495966745981374,0.038107204593301434,-0.007775136402946086,0.08518309335872017,-0.06280728137906377, ,1.1060011386871338
0.012761615931247004,0.022176671473906142,-0.08719135616704721, ,0.013503246373929497,0.021822630595025306,-0.08787476508544745, ,0.0010688350701493347, ,0.015570493784088502,0.0038162524499992996,-0.035293149507585116,0.02981441945187441,-0.0031803406022565825,0.004541372181303676, ,0.03876351972676397, ,0.029982651901241792, ,0.000577238550864808, ,0.19669028357362403,-0.24088748381281092,0.09847655872000001,1.6898912545417817,0.5244108860997605,-1.243592528391082, ,0.10485849895963623,0.057132415146580844,0.03747955651764706,-0.017761977333089693,0.10808527681249382,-0.08658334848228544, ,1.1095900535583496
0.012761615931247004,0.022176671473906142,-0.08719135616704721, ,0.013565640115774531,0.02181756798249867,-0.08800669376089643, ,0.001200077330337519, ,0.015570493784088502,0.0038162524499992996,-0.035293149507585116,0.02981441945187441,-0.0031803406022565825,0.004541372181303676, ,0.03876351972676397, ,0.029982651901241792, ,0.0005857705889397766, ,0.19669028357362403,-0.24088748381281092,0.09847655872000001,1.6898912545417817,0.5244108860997605,-1.243592528391082, ,0.10485849895963623,0.057132415146580844,0.03747955651764706,-0.017761977333089693,0.10808527681249382,-0.08658334848228544, ,1.1132469177246094
0.012761615931247004,0.022176671473906142,-0.08719135616704721, ,0.013628382277140413,0.021811887284539404,-0.08813899072083499, ,0.0013350515535805836, ,0.015570493784088502,0.0038162524499992996,-0.035293149507585116,0.02981441945187441,-0.0031803406022565825,0.004541372181303676, ,0.03876351972676397, ,0.029982651901241792, ,0.0005958960073808685, ,0.19669028357362403,-0.24088748381281092,0.09847655872000001,1.6898912545417817,0.5244108860997605,-1.243592528391082, ,0.10485849895963623,0.057132415146580844,0.03747955651764706,-0.017761977333089693,0.10808527681249382,-0.08658334848228544, ,1.1171379089355469
0.012881723021414566,0.022201101542277977,-0.08746020446633485, ,0.013691468568016181,0.02180559910637552,-0.08827164712577987, ,0.0012126620372606436, ,0.015377307543887714,0.0026812881876836074,-0.03393247009502284,0.051684745298151924,0.027669762456595453,0.01274065333543806, ,0.03735054779242651, ,0.05862494063911411, ,0.0006041195544459322, ,0.19751661599116607,-0.24041639710748322,0.09876174252000001,1.6894718746548125,0.5253673415981185,-1.244372453716957, ,0.10845364749539518,0.06508706554078929,0.03603803511312218,-0.028835647473490437,0.14583652689298185,-0.11757135766859733, ,1.1208651065826416
0.012881723021414566,0.022201101542277977,-0.08746020446633485, ,0.013754894724647545,0.021798713994676602,-0.08840465418543074, ,0.0013477128157332867, ,0.015377307543887714,0.0026812881876836074,-0.03393247009502284,0.051684745298151924,0.027669762456595453,0.01274065333543806, ,0.03735054779242651, ,0.05862494063911411, ,0.0006139036763049764, ,0.19751661599116607,-0.24041639710748322,0.09876174252000001,1.6894718746548125,0.5253673415981185,-1.244372453716957, ,0.10845364749539518,0.06508706554078929,0.03603803511312218,-0.028835647473490437,0.14583652689298185,-0.11757135766859733, ,1.124547004699707
0.013072643588325595,0.022224035235226418,-0.08785902230017924, ,0.013818656509471963,0.021791242437678895,-0.08853800315856895, ,0.0010976610998782747, ,0.015669969716338727,0.0007998041711134563,-0.03106395213645989,0.027193892163859392,0.003554000747697641,0.033400163744108244, ,0.03480167754518989, ,0.02742461971762986, ,0.0006201862402474867, ,0.19891443064140069,-0.23955145102557007,0.09918562935000001,1.6892621847113283,0.5272802525948347,-1.245932304368707, ,0.11615292724415029,0.07591755324677663,0.03284291035051547,-0.05285721571999641,0.1348248600575612,-0.1086563225565713, ,1.128364086151123
0.013072643588325595,0.022224035235226418,-0.08785902230017924, ,0.013882749711053863,0.0217831948653115,-0.08867168535295769, ,0.0012292409849902282, ,0.015669969716338727,0.0007998041711134563,-0.03106395213645989,0.027193892163859392,0.003554000747697641,0.033400163744108244, ,0.03480167754518989, ,0.02742461971762986, ,0.0006279946344108552, ,0.19891443064140069,-0.23955145102557007,0.09918562935000001,1.6892621847113283,0.5272802525948347,-1.245932304368707, ,0.11615292724415029,0.07591755324677663,0.03284291035051547,-0.05285721571999641,0.1348248600575612,-0.1086563225565713, ,1.1319160461425781
0.013072643588325595,0.022224035235226418,-0.08785902230017924, ,0.013947170144019756,0.02177458164932221,-0.08880569212524102, ,0.0013649135431150745, ,0.015669969716338727,0.0007998041711134563,-0.03106395213645989,0.027193892163859392,0.003554000747697641,0.033400163744108244, ,0.03480167754518989, ,0.02742461971762986, ,0.0006373227218628073, ,0.19891443064140069,-0.23955145102557007,0.09918562935000001,1.6892621847113283,0.5272802525948347,-1.245932304368707, ,0.11615292724415029,0.07591755324677663,0.03284291035051547,-0.05285721571999641,0.1348248600575612,-0.1086563225565713, ,1.13565993309021
0.01323790592937633,0.022228260430246952,-0.08817719314931168, ,0.014011913648993261,0.02176541310340303,-0.08894001488084323, ,0.0011811911750813093, ,0.017267303352001547,-0.00016555984444184665,-0.03316662926278347,-0.03281979096922506,-0.058521378839361815,0.015705736599918137, ,0.03739267938737555, ,0.06709582943116876, ,0.0006441210775280386, ,0.2001114542369055,-0.2387096731422796,0.09952007217000002,1.6892621847113283,0.5282367080931928,-1.2466305509544413, ,0.12276447808340334,0.09177653922482666,0.03462785113043479,-0.037793269812174304,0.07454413445425645,-0.06287381145649508, ,1.1392099857330322
0.01323790592937633,0.022228260430246952,-0.08817719314931168, ,0.014076976092530377,0.02175569948331611,-0.08907464507386757, ,0.0013163481849984137, ,0.017267303352001547,-0.00016555984444184665,-0.03316662926278347,-0.03281979096922506,-0.058521378839361815,0.015705736599918137, ,0.03739267938737555, ,0.06709582943116876, ,0.0006524201776202655, ,0.2001114542369055,-0.2387096731422796,0.09952007217000002,1.6892621847113283,0.5282367080931928,-1.2466305509544413, ,0.12276447808340334,0.09177653922482666,0.03462785113043479,-0.037793269812174304,0.07454413445425645,-0.06287381145649508, ,1.1428000926971436
0.01323790592937633,0.022228260430246952,-0.08817719314931168, ,0.01414235336705455,0.02174545098701962,-0.08920957420699663, ,0.0014549710561584676, ,0.017267303352001547,-0.00016555984444184665,-0.03316662926278347,-0.03281979096922506,-0.058521378839361815,0.015705736599918137, ,0.03739267938737555, ,0.06709582943116876, ,0.0006622073834560972, ,0.2001114542369055,-0.2387096731422796,0.09952007217000002,1.6892621847113283,0.5282367080931928,-1.2466305509544413, ,0.12276447808340334,0.09177653922482666,0.03462785113043479,-0.037793269812174304,0.07454413445425645,-0.06287381145649508, ,1.1464009284973145
0.013404964858226997,0.022230308926715153,-0.08850350526925194, ,0.01420804139079171,0.02173467775479321,-0.08934479383139063, ,0.001264258130494824, ,0.01757420264459532,-8.113563505877941e-06,-0.03499796883687401,0.00549068249512682,-0.010498518008029535,0.00694704963784357, ,0.03916261593829016, ,0.01184541970512293, ,0.0006694610069143952, ,0.20130075509953607,-0.237829281594618,0.09986229273000001,1.6892621847113283,0.5291931635915509,-1.2474921550204567, ,0.12535923587644754,0.09508711579005087,0.03670233069124424,-0.029829460418884297,0.12421892605978188,-0.1017009864322749, ,1.1500489711761475
0.013404964858226997,0.022230308926715153,-0.08850350526925194, ,0.014274036107705576,0.021723389869364354,-0.08948029554658711, ,0.0014022735158563781, ,0.01757420264459532,-8.113563505877941e-06,-0.03499796883687401,0.00549068249512682,-0.010498518008029535,0.00694704963784357, ,0.03916261593829016, ,0.01184541970512293, ,0.0006781849653541807, ,0.20130075509953607,-0.237829281594618,0.09986229273000001,1.6892621847113283,0.5291931635915509,-1.2474921550204567, ,0.12535923587644754,0.09508711579005087,0.03670233069124424,-0.029829460418884297,0.12421892605978188,-0.1017009864322749, ,1.1550819873809814
0.013404964858226997,0.022230308926715153,-0.08850350526925194, ,0.014340333487432612,0.021711597356033493,-0.08961607100040068, ,0.0015433012253567272, ,0.018108429086809017,-0.000836507000269609,-0.036069625664589676,0.040432716503152846,0.029419098558087022,0.001046301931693966, ,0.04036871119489842, ,0.05000226865483933, ,0.0006883628037071518, ,0.20130075509953607,-0.237829281594618,0.09986229273000001,1.6892621847113283,0.5291931635915509,-1.2474921550204567, ,0.12535923587644754,0.09508711579005087,0.03670233069124424,-0.029829460418884297,0.12421892605978188,-0.1017009864322749, ,1.1590509414672852
0.013579535582335073,0.022223401182559534,-0.08885121478636918, ,0.014406929525217299,0.021699310182800316,-0.08975211188882112, ,0.0013307395319720264, ,0.018108429086809017,-0.000836507000269609,-0.036069625664589676,0.040432716503152846,0.029419098558087022,0.001046301931693966, ,0.04036871119489842, ,0.05000226865483933, ,0.0006958323005474411, ,0.2025672832909089,-0.23684077178671725,0.10022655022000002,1.68842342493739,0.5306961650889708,-1.2487177519611175, ,0.13180130772009832,0.10638670578303898,0.03783565681710214,-0.029788326526728165,0.17113786683764992,-0.14724990340378982, ,1.1632180213928223
0.013579535582335073,0.022223401182559534,-0.08885121478636918, ,0.01447382024184703,0.021686538260489236,-0.08988840995591442, ,0.0014709658966339985, ,0.018108429086809017,-0.000836507000269609,-0.036069625664589676,0.040432716503152846,0.029419098558087022,0.001046301931693966, ,0.04036871119489842, ,0.05000226865483933, ,0.0007047418821116544, ,0.2025672832909089,-0.23684077178671725,0.10022655022000002,1.68842342493739,0.5306961650889708,-1.2487177519611175, ,0.13180130772009832,0.10638670578303898,0.03783565681710214,-0.029788326526728165,0.17113786683764992,-0.14724990340378982, ,1.1667671203613281
0.013772493954254665,0.022207562419218188,-0.0892230590812116, ,0.01454100168358752,0.021673291442875383,-0.09002495699372026, ,0.0012325136381770318, ,0.01839164575132862,-0.002425197640841796,-0.03445569520765528,-0.001263316443665794,-0.013058509703956243,0.060136357913211654, ,0.039132200925610455, ,0.01311762482968593, ,0.0007107392884305792, ,0.20398054340689198,-0.23569780732133203,0.10061543722,1.687584665163452,0.532335803086156,-1.2500547668054744, ,0.13556705936924396,0.11488733844851184,0.035875701621621625,-0.09339404909735027,0.1466900433331251,-0.127068201378808, ,1.170332908630371
0.013772493954254665,0.022207562419218188,-0.0892230590812116, ,0.01460846992211771,0.021659579526810063,-0.09016174484215282, ,0.0013712301145359697, ,0.01839164575132862,-0.002425197640841796,-0.03445569520765528,-0.001263316443665794,-0.013058509703956243,0.060136357913211654, ,0.039132200925610455, ,0.01311762482968593, ,0.0007181605336677183, ,0.20398054340689198,-0.23569780732133203,0.10061543722,1.687584665163452,0.532335803086156,-1.2500547668054744, ,0.13556705936924396,0.11488733844851184,0.035875701621621625,-0.09339404909735027,0.1466900433331251,-0.127068201378808, ,1.173893928527832
0.013772493954254665,0.022207562419218188,-0.0892230590812116, ,0.014676221054464936,0.02164541225234705,-0.09029876538889908, ,0.001513234794130227, ,0.01839164575132862,-0.002425197640841796,-0.03445569520765528,-0.001263316443665794,-0.013058509703956243,0.060136357913211654, ,0.039132200925610455, ,0.01311762482968593, ,0.0007269946921173016, ,0.20398054340689198,-0.23569780732133203,0.10061543722,1.687584665163452,0.532335803086156,-1.2500547668054744, ,0.13556705936924396,0.11488733844851184,0.035875701621621625,-0.09339404909735027,0.1466900433331251,-0.127068201378808, ,1.177480936050415
0.013965650881131757,0.022177412151761486,-0.08957707644590034, ,0.014744251202940057,0.021630799302867647,-0.09043601056931816, ,0.0012817066341668717, ,0.019546524317952334,-0.0027351061664894925,-0.03620105699692453,0.00298098484581957,0.001291481849166689,-0.05445597555982016, ,0.041231831712268734, ,0.0032391391422998397, ,0.00073309042774422, ,0.2054092489886235,-0.23443900186283345,0.10098358358000001,1.687165285276483,0.5338388045835759,-1.2512803637461352, ,0.14163722620667282,0.12772132107465783,0.03765676482269504,0.02415236982065595,0.13951622824097396,-0.12085219993903666, ,1.181075096130371
0.013965650881131757,0.022177412151761486,-0.08957707644590034, ,0.014812556515072607,0.021615750305207473,-0.09057347236634189, ,0.00142320694663418, ,0.019546524317952334,-0.0027351061664894925,-0.03620105699692453,0.00298098484581957,0.001291481849166689,-0.05445597555982016, ,0.041231831712268734, ,0.0032391391422998397, ,0.0007405916942538935, ,0.2054092489886235,-0.23443900186283345,0.10098358358000001,1.687165285276483,0.5338388045835759,-1.2512803637461352, ,0.14163722620667282,0.12772132107465783,0.03765676482269504,0.02415236982065595,0.13951622824097396,-0.12085219993903666, ,1.1847951412200928
0.014159927347058957,0.02215007323813188,-0.08993449124131105, ,0.014881133163545923,0.021600274829781035,-0.09071114281037203, ,0.001193986507161886, ,0.019546524317952334,-0.0027351061664894925,-0.03620105699692453,0.00298098484581957,0.001291481849166689,-0.05445597555982016, ,0.041231831712268734, ,0.0032391391422998397, ,0.0007454669072959149, ,0.2054092489886235,-0.23443900186283345,0.10098358358000001,1.687165285276483,0.5338388045835759,-1.2512803637461352, ,0.14163722620667282,0.12772132107465783,0.03765676482269504,0.02415236982065595,0.13951622824097396,-0.12085219993903666, ,1.1896319389343262
0.014159927347058957,0.02215007323813188,-0.08993449124131105, ,0.014949977346132032,0.021584382390708506,-0.09084901397918146, ,0.0013343676307434728, ,0.019703369597561436,-0.0028368667514052015,-0.036283288594135175,0.011012373001680172,0.008686759198911665,-0.031830642017151425, ,0.041385355111061166, ,0.014023881827559731, ,0.0007517318086091868, ,0.20681478637173237,-0.23318019640433485,0.10135561881,1.6873749752199676,0.5352051695812303,-1.2523945427830994, ,0.14334885431793168,0.12703740503142005,0.03783565681710214,0.0,0.15451779222485543,-0.13262603834328393, ,1.1932690143585205
0.014159927347058957,0.02215007323813188,-0.08993449124131105, ,0.015019085285627114,0.021568082445940884,-0.09098707799781251, ,0.0014781084282156256, ,0.019703369597561436,-0.0028368667514052015,-0.036283288594135175,0.011012373001680172,0.008686759198911665,-0.031830642017151425, ,0.041385355111061166, ,0.014023881827559731, ,0.0007593778782892546, ,0.20681478637173237,-0.23318019640433485,0.10135561881,1.6873749752199676,0.5352051695812303,-1.2523945427830994, ,0.14334885431793168,0.12703740503142005,0.03783565681710214,0.0,0.15451779222485543,-0.13262603834328393, ,1.1969361305236816
0.014360886719863577,0.022116093070625134,-0.09030571971041754, ,0.015088453229786391,0.021551384397386086,-0.09112532703847658, ,0.0012328848625077476, ,0.019319272356239627,-0.0038262055797595347,-0.03527506513475459,0.003529131675868928,0.010605024423072887,-0.025034363653486668, ,0.04040054892912133, ,0.011174376715547866, ,0.0007643102427081972, ,0.2082743828849608,-0.231844163617094,0.10174191323000001,1.687165285276483,0.5368448075784156,-1.2537315576274564, ,0.1403800910628266,0.13328222128998704,0.03661795751724139,-0.008772309626853114,0.1554697932952353,-0.1329880762855715, ,1.2005901336669922
0.014360886719863577,0.022116093070625134,-0.09030571971041754, ,0.015158077451259208,0.02153429759103455,-0.0912637533204527, ,0.001375437181499809, ,0.019319272356239627,-0.0038262055797595347,-0.03527506513475459,0.003529131675868928,0.010605024423072887,-0.025034363653486668, ,0.04040054892912133, ,0.011174376715547866, ,0.0007706105204276984, ,0.2082743828849608,-0.231844163617094,0.10174191323000001,1.687165285276483,0.5368448075784156,-1.2537315576274564, ,0.1403800910628266,0.13328222128998704,0.03661795751724139,-0.008772309626853114,0.1554697932952353,-0.1329880762855715, ,1.204272985458374
0.014360886719863577,0.022116093070625134,-0.09030571971041754, ,0.015227954247524338,0.021516831317085157,-0.09140234910998846, ,0.0015210249132682967, ,0.019319272356239627,-0.0038262055797595347,-0.03527506513475459,0.003529131675868928,0.010605024423072887,-0.025034363653486668, ,0.04040054892912133, ,0.011174376715547866, ,0.0007782678101505616, ,0.2082743828849608,-0.231844163617094,0.10174191323000001,1.687165285276483,0.5368448075784156,-1.2537315576274564, ,0.1403800910628266,0.13328222128998704,0.03661795751724139,-0.008772309626853114,0.1554697932952353,-0.1329880762855715, ,1.2078440189361572
0.014553911359232116,0.022071246731903357,-0.0906560430602557, ,0.015298079940824912,0.02149899481007083,-0.09154110672019738, ,0.0012901925523038154, ,0.019572729572419578,-0.0050018835928942375,-0.035700517813949596,-0.04696119944858749,-0.03704455938118354,0.05691464800389155, ,0.041019965316612166, ,0.0598130056158065, ,0.0007834387671420086, ,0.20966447480232123,-0.23049268536410472,0.10210357814000001,1.686326525502545,0.53821117257607,-1.2548457366644206, ,0.13894134928033788,0.14100585669906504,0.03670233069124424,-0.09598129456517661,0.12571693678083382,-0.10836755361949063, ,1.2120311260223389
0.014553911359232116,0.022071246731903357,-0.0906560430602557, ,0.015368450878103589,0.021480797248984353,-0.09168001851095983, ,0.0014354897921362694, ,0.019572729572419578,-0.0050018835928942375,-0.035700517813949596,-0.04696119944858749,-0.03704455938118354,0.05691464800389155, ,0.041019965316612166, ,0.0598130056158065, ,0.0007899592773919511, ,0.20966447480232123,-0.23049268536410472,0.10210357814000001,1.686326525502545,0.53821117257607,-1.2548457366644206, ,0.13894134928033788,0.14100585669906504,0.03670233069124424,-0.09598129456517661,0.12571693678083382,-0.10836755361949063, ,1.2156109809875488
0.014755011520636414,0.022022935064857516,-0.09103111045687938, ,0.015439063430937641,0.02146224775740441,-0.09181907688882127, ,0.0011845625228720505, ,0.019977921622868634,-0.004803375306332225,-0.03844632158889835,-0.021999216267945928,0.0025868973899974145,0.019103615324811796, ,0.043592538471852675, ,0.022148895131318028, ,0.0007938662402184868, ,0.21107001218543006,-0.22903308885087628,0.10248987256000001,1.6859071456155759,0.5395775375737243,-1.2560415944415253, ,0.1381323749031598,0.14667224352159317,0.03962390925373134,-0.057779632473894595,0.15622529656323217,-0.13050176690317172, ,1.2191970348358154
0.014755011520636414,0.022022935064857516,-0.09103111045687938, ,0.015509913995474155,0.02144335540362065,-0.09195827430689198, ,0.001328692264975515, ,0.019977921622868634,-0.004803375306332225,-0.03844632158889835,-0.021999216267945928,0.0025868973899974145,0.019103615324811796, ,0.043592538471852675, ,0.022148895131318028, ,0.0007991096326180656, ,0.21107001218543006,-0.22903308885087628,0.10248987256000001,1.6859071456155759,0.5395775375737243,-1.2560415944415253, ,0.1381323749031598,0.14667224352159317,0.03962390925373134,-0.057779632473894595,0.15622529656323217,-0.13050176690317172, ,1.2228169441223145
0.014755011520636414,0.022022935064857516,-0.09103111045687938, ,0.015580998992364984,0.0214241292007607,-0.0920976032647464, ,0.0014758830155406563, ,0.019977921622868634,-0.004803375306332225,-0.03844632158889835,-0.021999216267945928,0.0025868973899974145,0.019103615324811796, ,0.043592538471852675, ,0.022148895131318028, ,0.0008056802479862459, ,0.21107001218543006,-0.22903308885087628,0.10248987256000001,1.6859071456155759,0.5395775375737243,-1.2560415944415253, ,0.1381323749031598,0.14667224352159317,0.03962390925373134,-0.057779632473894595,0.15622529656323217,-0.13050176690317172, ,1.226531982421875
0.014942898520855384,0.02197805012513779,-0.09139641135102414, ,0.015652314866701968,0.02140457810691422,-0.09223705630832225, ,0.0012404941159354557, ,0.019671452980920656,-0.00462467817689453,-0.03757701888229191,-0.005747683157105512,0.023427536610991402,-0.030350244315142837, ,0.04266598245324417, ,0.02412074648399476, ,0.0008098611505626806, ,0.2123674313082998,-0.22763527420064164,0.10286709295000002,1.6856974556720912,0.5412171755709096,-1.257460288026023, ,0.1359555036654309,0.14422027592472764,0.03885075980487805,-0.004991915848432595,0.16302472657520692,-0.133321189033263, ,1.230255126953125
0.014942898520855384,0.02197805012513779,-0.09139641135102414, ,0.01572385808795208,0.021384711025260236,-0.09237662602981996, ,0.0013866398052162483, ,0.019671452980920656,-0.00462467817689453,-0.03757701888229191,-0.005747683157105512,0.023427536610991402,-0.030350244315142837, ,0.04266598245324417, ,0.02412074648399476, ,0.0008153542806070003, ,0.2123674313082998,-0.22763527420064164,0.10286709295000002,1.6856974556720912,0.5412171755709096,-1.257460288026023, ,0.1359555036654309,0.14422027592472764,0.03885075980487805,-0.004991915848432595,0.16302472657520692,-0.133321189033263, ,1.2338659763336182
0.014942898520855384,0.02197805012513779,-0.09139641135102414, ,0.015795625149892308,0.02136453680419216,-0.09251630506760196, ,0.0015354814343641206, ,0.019671452980920656,-0.00462467817689453,-0.03757701888229191,-0.005747683157105512,0.023427536610991402,-0.030350244315142837, ,0.04266598245324417, ,0.02412074648399476, ,0.0008221479330009355, ,0.2123674313082998,-0.22763527420064164,0.10286709295000002,1.6856974556720912,0.5412171755709096,-1.257460288026023, ,0.1359555036654309,0.14422027592472764,0.03885075980487805,-0.004991915848432595,0.16302472657520692,-0.133321189033263, ,1.237462043762207
0.015134583871263346,0.021928442540338395,-0.09175973822102605, ,0.015867612570545038,0.02134406423744361,-0.09265608610609188, ,0.0012970229781799506, ,0.019749197374164744,-0.005363859084273635,-0.03800518035216664,-0.014685698273944572,0.018264602842432365,-0.012658147653622285, ,0.04316474852006408, ,0.02343472128261195, ,0.0008265860175353187, ,0.21368801862979217,-0.22621429135178434,0.10324172076000002,1.6852780757851225,0.5427201770683294,-1.2587675637068243, ,0.1346055908630791,0.15063006596582662,0.039137129041769046,-0.026618230244266235,0.16119838959866378,-0.13539382192182225, ,1.2409939765930176
0.015134583871263346,0.021928442540338395,-0.09175973822102605, ,0.015939816892112952,0.02132330206421425,-0.09279596187567393, ,0.0014451140702941576, ,0.019749197374164744,-0.005363859084273635,-0.03800518035216664,-0.014685698273944572,0.018264602842432365,-0.012658147653622285, ,0.04316474852006408, ,0.02343472128261195, ,0.0008323131291349376, ,0.21368801862979217,-0.22621429135178434,0.10324172076000002,1.6852780757851225,0.5427201770683294,-1.2587675637068243, ,0.1346055908630791,0.15063006596582662,0.039137129041769046,-0.026618230244266235,0.16119838959866378,-0.13539382192182225, ,1.2446229457855225
0.015349067596870086,0.021864560815197744,-0.09217555532663269, ,0.016012234680914245,0.021302258969295416,-0.0929359251525924, ,0.0015955539810086265, ,0.018370695189237552,-0.00580653956572473,-0.034834489743280544,-0.05985446091477464,-0.031199799441603247,0.0777202510413443, ,0.0398075372151923, ,0.06749764947666016, ,0.0008393153387851549, ,0.21368801862979217,-0.22621429135178434,0.10324172076000002,1.6852780757851225,0.5427201770683294,-1.2587675637068243, ,0.1346055908630791,0.15063006596582662,0.039137129041769046,-0.026618230244266235,0.16119838959866378,-0.13539382192182225, ,1.2491481304168701
0.015349067596870086,0.021864560815197744,-0.09217555532663269, ,0.01608486252731759,0.021280943583196255,-0.09307596875885053, ,0.0013010563408552501, ,0.018370695189237552,-0.00580653956572473,-0.034834489743280544,-0.05985446091477464,-0.031199799441603247,0.0777202510413443, ,0.0398075372151923, ,0.06749764947666016, ,0.0008435129842585195, ,0.21513216967727217,-0.22456934924957453,0.10366820017000002,1.684019936124215,0.5443598150655148,-1.2602679360314624, ,0.12324278124476726,0.14121568684296246,0.03563492510067114,-0.11824116859851753,0.12000750868182158,-0.10091265715405084, ,1.2528400421142578
0.015349067596870086,0.021864560815197744,-0.09217555532663269, ,0.01615769704567755,0.02125936448226908,-0.09321608556210989, ,0.0014501197736087915, ,0.018370695189237552,-0.00580653956572473,-0.034834489743280544,-0.05985446091477464,-0.031199799441603247,0.0777202510413443, ,0.0398075372151923, ,0.06749764947666016, ,0.0008489779102887021, ,0.21513216967727217,-0.22456934924957453,0.10366820017000002,1.684019936124215,0.5443598150655148,-1.2602679360314624, ,0.12324278124476726,0.14121568684296246,0.03563492510067114,-0.11824116859851753,0.12000750868182158,-0.10091265715405084, ,1.2564361095428467
0.01553596362202388,0.02180056773946584,-0.09252052277381377, ,0.016230734874269244,0.02123753018883539,-0.09335626847559028, ,0.0012240054143689233, ,0.018777739642254217,-0.007109211480412902,-0.03416317158352505,-0.05290910878933092,0.002496506513416659,-0.03494617185232408, ,0.03962659065060851, ,0.05296753535377554, ,0.0008523263701465612, ,0.216398697868645,-0.22307113907197496,0.10402079105,1.6836005562372458,0.5455895435634037,-1.2615157333851519, ,0.1284126408098387,0.15789840525535903,0.034855167439824954,0.0,0.13296096147456427,-0.09860367188458777, ,1.2600300312042236
0.01553596362202388,0.02180056773946584,-0.09252052277381377, ,0.016303972675223804,0.021215449171311383,-0.09349651045796836, ,0.001372863286790643, ,0.018777739642254217,-0.007109211480412902,-0.03416317158352505,-0.05290910878933092,0.002496506513416659,-0.03494617185232408, ,0.03962659065060851, ,0.05296753535377554, ,0.0008569328915327921, ,0.216398697868645,-0.22307113907197496,0.10402079105,1.6836005562372458,0.5455895435634037,-1.2615157333851519, ,0.1284126408098387,0.15789840525535903,0.034855167439824954,0.0,0.13296096147456427,-0.09860367188458777, ,1.2637050151824951
0.01553596362202388,0.02180056773946584,-0.09252052277381377, ,0.016377407134463312,0.021193129844334132,-0.09363680451327737, ,0.0015241695781402817, ,0.018777739642254217,-0.007109211480412902,-0.03416317158352505,-0.05290910878933092,0.002496506513416659,-0.03494617185232408, ,0.03962659065060851, ,0.05296753535377554, ,0.0008627858449240858, ,0.216398697868645,-0.22307113907197496,0.10402079105,1.6836005562372458,0.5455895435634037,-1.2615157333851519, ,0.1284126408098387,0.15789840525535903,0.034855167439824954,0.0,0.13296096147456427,-0.09860367188458777, ,1.2673790454864502
0.015721258546810876,0.021735762791046036,-0.09287518873671143, ,0.01645103496163585,0.021170580568886765,-0.0937771436908056, ,0.0012905530981306853, ,0.018719719422993678,-0.006056040359595289,-0.03768796210839383,0.04317848402093937,0.0818788555425689,-0.04497199126858312, ,0.04251453878376646, ,0.0925659355938022, ,0.0008665055601693606, ,0.2176575033271436,-0.22151886976425583,0.10438504854000001,1.6838102461807307,0.5473658180603544,-1.2631275236134865, ,0.12502890850918416,0.1545552794111902,0.03885075980487805,-0.0027830030347518343,0.21003118702998902,-0.19248852157223723, ,1.2710621356964111
0.015721258546810876,0.021735762791046036,-0.09287518873671143, ,0.01652485289005085,0.021147809652424847,-0.09391752108499736, ,0.0014414955726553798, ,0.018719719422993678,-0.006056040359595289,-0.03768796210839383,0.04317848402093937,0.0818788555425689,-0.04497199126858312, ,0.04251453878376646, ,0.0925659355938022, ,0.0008714623706218262, ,0.2176575033271436,-0.22151886976425583,0.10438504854000001,1.6838102461807307,0.5473658180603544,-1.2631275236134865, ,0.12502890850918416,0.1545552794111902,0.03885075980487805,-0.0027830030347518343,0.21003118702998902,-0.19248852157223723, ,1.2746529579162598
0.015721258546810876,0.021735762791046036,-0.09287518873671143, ,0.016598857676613843,0.021124825349001577,-0.09405792983535027, ,0.001594459562714646, ,0.018719719422993678,-0.006056040359595289,-0.03768796210839383,0.04317848402093937,0.0818788555425689,-0.04497199126858312, ,0.04251453878376646, ,0.0925659355938022, ,0.0008776418338021068, ,0.2176575033271436,-0.22151886976425583,0.10438504854000001,1.6838102461807307,0.5473658180603544,-1.2631275236134865, ,0.12502890850918416,0.1545552794111902,0.03885075980487805,-0.0027830030347518343,0.21003118702998902,-0.19248852157223723, ,1.2782390117645264
0.01590938636851137,0.021674628781579858,-0.09325856673300686, ,0.016673046101761877,0.02110163585939411,-0.09419836312631638, ,0.0013396694883219436, ,0.019499021195013063,-0.006012958362868989,-0.03935989439782027,0.0446606626084919,0.05736412743695281,0.03774484917415289, ,0.04433473562394083, ,0.07269885443744359, ,0.0008815573223997325, ,0.21890858605276795,-0.2199974913880336,0.10478041699000001,1.6829714864067924,0.5495520020566015,-1.2652369250331914, ,0.12858664167814468,0.15232253861712805,0.04063472326530613,-0.0972937995620891,0.20906354241286668,-0.21325411918455628, ,1.2817959785461426
0.01590938636851137,0.021674628781579858,-0.09325856673300686, ,0.01674741496939841,0.021078249331228923,-0.09433881418719998, ,0.0014916081747551179, ,0.019499021195013063,-0.006012958362868989,-0.03935989439782027,0.0446606626084919,0.05736412743695281,0.03774484917415289, ,0.04433473562394083, ,0.07269885443744359, ,0.000886683800150618, ,0.21890858605276795,-0.2199974913880336,0.10478041699000001,1.6829714864067924,0.5495520020566015,-1.2652369250331914, ,0.12858664167814468,0.15232253861712805,0.04063472326530613,-0.0972937995620891,0.20906354241286668,-0.21325411918455628, ,1.2853460311889648
0.01609780741580266,0.02162098020198122,-0.09363392961181255, ,0.016821961106828476,0.02105467385910737,-0.09447927629205807, ,0.0012488844830518145, ,0.020829621274414272,-0.00536642444848953,-0.04172245923906819,-0.08194961204707894,-0.07665768891809337,0.05384708995441025, ,0.04694076308234225, ,0.11221414240244865, ,0.0008897021391747947, ,0.22008244144965008,-0.21859967673779898,0.10516541512000001,1.6819230366893698,0.5506450940547251,-1.266291625743044, ,0.12453666871190391,0.14897479051565274,0.04270458852546917,-0.10343489010560979,0.0705886917941618,-0.08610994007306948, ,1.2908589839935303
0.01609780741580266,0.02162098020198122,-0.09363392961181255, ,0.0168966813646938,0.021030917484732348,-0.09461974275959908, ,0.0013993574092607103, ,0.020829621274414272,-0.00536642444848953,-0.04172245923906819,-0.08194961204707894,-0.07665768891809337,0.05384708995441025, ,0.04694076308234225, ,0.11221414240244865, ,0.0008939141662002981, ,0.22008244144965008,-0.21859967673779898,0.10516541512000001,1.6819230366893698,0.5506450940547251,-1.266291625743044, ,0.12453666871190391,0.14897479051565274,0.04270458852546917,-0.10343489010560979,0.0705886917941618,-0.08610994007306948, ,1.2945959568023682
0.01609780741580266,0.02162098020198122,-0.09363392961181255, ,0.01697157261690792,0.02100698819703298,-0.09476020695308175, ,0.0015520800424782557, ,0.020829621274414272,-0.00536642444848953,-0.04172245923906819,-0.08194961204707894,-0.07665768891809337,0.05384708995441025, ,0.04694076308234225, ,0.11221414240244865, ,0.0008993089684648716, ,0.22008244144965008,-0.21859967673779898,0.10516541512000001,1.6819230366893698,0.5506450940547251,-1.266291625743044, ,0.12453666871190391,0.14897479051565274,0.04270458852546917,-0.10343489010560979,0.0705886917941618,-0.08610994007306948, ,1.2984249591827393
0.01609780741580266,0.02162098020198122,-0.09363392961181255, ,0.01704663176059113,0.020982893932291028,-0.09490066228021592, ,0.0017064681005019506, ,0.020829621274414272,-0.00536642444848953,-0.04172245923906819,-0.08194961204707894,-0.07665768891809337,0.05384708995441025, ,0.04694076308234225, ,0.11221414240244865, ,0.0009058712378310267, ,0.22102461486030547,-0.21741809860804262,0.10550893197000001,1.6817133467458854,0.5510550035540214,-1.266707558194274, ,0.11936722208612675,0.15659561313279005,0.04617046817391306,-0.0421451088204496,0.026943739680189812,-0.032935019219857975, ,1.302428960800171
0.01626156541447979,0.02158189995908513,-0.09396984263115658, ,0.017121855716005777,0.020958642574266384,-0.09504110219305989, ,0.001508690233149284, ,0.02159824738133191,-0.005155979765474631,-0.04530823809427672,-0.12911731994236672,-0.1016237419616319,0.0011420496613764632, ,0.05045696043654297, ,0.16431213072759132, ,0.0009107326813416578, ,0.22102461486030547,-0.21741809860804262,0.10550893197000001,1.6817133467458854,0.5510550035540214,-1.266707558194274, ,0.11936722208612675,0.15659561313279005,0.04617046817391306,-0.0421451088204496,0.026943739680189812,-0.032935019219857975, ,1.3060479164123535
0.01626156541447979,0.02158189995908513,-0.09396984263115658, ,0.017197241426491296,0.020934241954323064,-0.09518152018792125, ,0.001662261409091042, ,0.02159824738133191,-0.005155979765474631,-0.04530823809427672,-0.12911731994236672,-0.1016237419616319,0.0011420496613764632, ,0.05045696043654297, ,0.16431213072759132, ,0.0009167449111636528, ,0.22102461486030547,-0.21741809860804262,0.10550893197000001,1.6817133467458854,0.5510550035540214,-1.266707558194274, ,0.11936722208612675,0.15659561313279005,0.04617046817391306,-0.0421451088204496,0.026943739680189812,-0.032935019219857975, ,1.3097000122070312
0.01656922976216875,0.02149736211110788,-0.09459265760339829, ,0.017272785858399205,0.02090969985155478,-0.09532190980525557, ,0.0011713867362061878, ,0.01760821610349741,-0.0066202854822879145,-0.03234386890347904,-0.05846279699800661,-0.035524730312040835,-0.04060164125626724, ,0.03741661809757659, ,0.06840957316130955, ,0.0009187658780290698, ,0.22280856615425132,-0.21511672421152372,0.10614541036000001,1.6815036568024009,0.5520114590523794,-1.2678958772208515, ,0.11060249598889368,0.1422742752001061,0.03297890583850932,0.0,0.07566608197908341,-0.08026499688605715, ,1.3132729530334473
0.01656922976216875,0.02149736211110788,-0.09459265760339829, ,0.017348486001028344,0.020885023992910787,-0.09546226462956559, ,0.0013184895284977767, ,0.01760821610349741,-0.0066202854822879145,-0.03234386890347904,-0.05846279699800661,-0.035524730312040835,-0.04060164125626724, ,0.03741661809757659, ,0.06840957316130955, ,0.0009219133083477211, ,0.22280856615425132,-0.21511672421152372,0.10614541036000001,1.6815036568024009,0.5520114590523794,-1.2678958772208515, ,0.11060249598889368,0.1422742752001061,0.03297890583850932,0.0,0.07566608197908341,-0.08026499688605715, ,1.3168020248413086
0.01656922976216875,0.02149736211110788,-0.09459265760339829, ,0.01742433886655987,0.020860222053321574,-0.09560257828930109, ,0.00146870651440746, ,0.01760821610349741,-0.0066202854822879145,-0.03234386890347904,-0.05846279699800661,-0.035524730312040835,-0.04060164125626724, ,0.03741661809757659, ,0.06840957316130955, ,0.0009261851302700628, ,0.22280856615425132,-0.21511672421152372,0.10614541036000001,1.6815036568024009,0.5520114590523794,-1.2678958772208515, ,0.11060249598889368,0.1422742752001061,0.03297890583850932,0.0,0.07566608197908341,-0.08026499688605715, ,1.3204190731048584
0.016743445475438677,0.02141487140208899,-0.09491936886964375, ,0.017500341489992403,0.020835301655824496,-0.09574284445675718, ,0.0012597240611356972, ,0.017893672107785114,-0.008394817181821954,-0.034954817180178774,0.07593544894444251,0.05334039881147129,0.030025597584740528, ,0.04015589248313205, ,0.09279729720214933, ,0.0009287707033775484, ,0.22395925335251077,-0.2135644549038046,0.10647855689,1.6806648970284628,0.5536510970495647,-1.2699680007264738, ,0.11672440536097266,0.16002856923856792,0.03571482403587444,-0.1125511388414488,0.1942097105786998,-0.25954544818554026, ,1.3239550590515137
0.016743445475438677,0.02141487140208899,-0.09491936886964375, ,0.0175764909290771,0.020810270371689994,-0.09588305684797503, ,0.0014100360468326356, ,0.017893672107785114,-0.008394817181821954,-0.034954817180178774,0.07593544894444251,0.05334039881147129,0.030025597584740528, ,0.04015589248313205, ,0.09279729720214933, ,0.000932472744481049, ,0.22395925335251077,-0.2135644549038046,0.10647855689,1.6806648970284628,0.5536510970495647,-1.2699680007264738, ,0.11672440536097266,0.16002856923856792,0.03571482403587444,-0.1125511388414488,0.1942097105786998,-0.25954544818554026, ,1.3275160789489746
0.016743445475438677,0.02141487140208899,-0.09491936886964375, ,0.017652784264252746,0.020785135720546598,-0.0960232092226396, ,0.0015626668187273638, ,0.017893672107785114,-0.008394817181821954,-0.034954817180178774,0.07593544894444251,0.05334039881147129,0.030025597584740528, ,0.04015589248313205, ,0.09279729720214933, ,0.0009372833862691889, ,0.22395925335251077,-0.2135644549038046,0.10647855689,1.6806648970284628,0.5536510970495647,-1.2699680007264738, ,0.11672440536097266,0.16002856923856792,0.03571482403587444,-0.1125511388414488,0.1942097105786998,-0.25954544818554026, ,1.3311009407043457
0.016943929669718964,0.021335053121792284,-0.09530700622508934, ,0.01772921859858094,0.020759905170507856,-0.09616329538398015, ,0.0012964200674525986, ,0.01968979249807715,-0.006806964694069182,-0.03670317573768142,-0.02223921263013041,-0.04473357489420004,0.026556236101863254, ,0.04220362314061159, ,0.04995606764425493, ,0.0009400041187023966, ,0.22517944514663826,-0.211996740130337,0.10686225873,1.6791970674240708,0.5551540985469845,-1.2720920638086806, ,0.12150696742441842,0.14758466805360929,0.03756795169811321,-0.08988302486318993,0.10219514328128894,-0.14940430578215802, ,1.3347220420837402
0.016943929669718964,0.021335053121792284,-0.09530700622508934, ,0.01780579105768094,0.02073458613829642,-0.0963033091786689, ,0.0014477517831588875, ,0.01968979249807715,-0.006806964694069182,-0.03670317573768142,-0.02223921263013041,-0.04473357489420004,0.026556236101863254, ,0.04220362314061159, ,0.04995606764425493, ,0.0009438217703148515, ,0.22517944514663826,-0.211996740130337,0.10686225873,1.6791970674240708,0.5551540985469845,-1.2720920638086806, ,0.12150696742441842,0.14758466805360929,0.03756795169811321,-0.08988302486318993,0.10219514328128894,-0.14940430578215802, ,1.338958978652954
0.01713714520727702,0.021271047009618706,-0.0956567568774856, ,0.01788249878966517,0.02070918598937167,-0.09644324449672095, ,0.0012205746777900943, ,0.019764646392900737,-0.006301915249758814,-0.0359236492793538,-0.041780826679718934,-0.036591310010347274,-0.027354288176007716, ,0.04148329736650118, ,0.05553828966238964, ,0.0009458870905198907, ,0.22643052787226262,-0.2105139754184859,0.10723559025000001,1.6789873774805866,0.5561105540453426,-1.2732803828352584, ,0.12260586764660306,0.14356572096591644,0.037043747720930234,-0.019485975890671074,0.09047756885953905,-0.10296727844030656, ,1.3425841331481934
0.01713714520727702,0.021271047009618706,-0.0956567568774856, ,0.01795933896507386,0.020683712038053876,-0.09658309527139293, ,0.001370790926512854, ,0.019764646392900737,-0.006301915249758814,-0.0359236492793538,-0.041780826679718934,-0.036591310010347274,-0.027354288176007716, ,0.04148329736650118, ,0.05553828966238964, ,0.0009490345263420607, ,0.22643052787226262,-0.2105139754184859,0.10723559025000001,1.6789873774805866,0.5561105540453426,-1.2732803828352584, ,0.12260586764660306,0.14356572096591644,0.037043747720930234,-0.019485975890671074,0.09047756885953905,-0.10296727844030656, ,1.3464460372924805
0.01713714520727702,0.021271047009618706,-0.0956567568774856, ,0.018036308776810544,0.020658171547651084,-0.09672285547908253, ,0.0015233770659246661, ,0.019764646392900737,-0.006301915249758814,-0.0359236492793538,-0.041780826679718934,-0.036591310010347274,-0.027354288176007716, ,0.04148329736650118, ,0.05553828966238964, ,0.0009532576332507564, ,0.22643052787226262,-0.2105139754184859,0.10723559025000001,1.6789873774805866,0.5561105540453426,-1.2732803828352584, ,0.12260586764660306,0.14356572096591644,0.037043747720930234,-0.019485975890671074,0.09047756885953905,-0.10296727844030656, ,1.3500030040740967
0.017333132290077165,0.021213357518044696,-0.09603186287785144, ,0.018113405440076728,0.020632571730584064,-0.09686251913922761, ,0.0012791122484324595, ,0.01963456364417894,-0.005839901504541492,-0.03967645475210281,0.008665071179381558,0.012435099802467611,-0.04206785922355929, ,0.04465245346871458, ,0.01515311323008555, ,0.0009556361340914988, ,0.22761210600201898,-0.2090929925696286,0.10762318096000001,1.6789873774805866,0.5572036460434662,-1.274498441025392, ,0.11474841784579294,0.1462202489344696,0.04094810159383034,-0.013745754874525026,0.13050040945350086,-0.15534625539083569, ,1.3535959720611572
0.017333132290077165,0.021213357518044696,-0.09603186287785144, ,0.01819062619230746,0.02060691974851269,-0.09700208031420654, ,0.0014298197209734363, ,0.01963456364417894,-0.005839901504541492,-0.03967645475210281,0.008665071179381558,0.012435099802467611,-0.04206785922355929, ,0.04465245346871458, ,0.01515311323008555, ,0.0009590722470399187, ,0.22761210600201898,-0.2090929925696286,0.10762318096000001,1.6789873774805866,0.5572036460434662,-1.274498441025392, ,0.11474841784579294,0.1462202489344696,0.04094810159383034,-0.013745754874525026,0.13050040945350086,-0.15534625539083569, ,1.3571619987487793
0.017333132290077165,0.021213357518044696,-0.09603186287785144, ,0.018267968293106084,0.020581222712461274,-0.09714153310923596, ,0.0015826815179972376, ,0.01963456364417894,-0.005839901504541492,-0.03967645475210281,0.008665071179381558,0.012435099802467611,-0.04206785922355929, ,0.04465245346871458, ,0.01515311323008555, ,0.0009635586446727052, ,0.22761210600201898,-0.2090929925696286,0.10762318096000001,1.6789873774805866,0.5572036460434662,-1.274498441025392, ,0.11474841784579294,0.1462202489344696,0.04094810159383034,-0.013745754874525026,0.13050040945350086,-0.15534625539083569, ,1.3607220649719238
0.01753118012484452,0.02114889588921574,-0.09643605056630593, ,0.01834542902417943,0.020555487682944556,-0.09728087167227092, ,0.0013148601714334548, ,0.01991052383231559,-0.006043654915771013,-0.04170519248495112,0.0002632393277698388,0.02998829819315193,-0.008401110350698049, ,0.0466077011257255, ,0.02998734991707888, ,0.0009660679412924248, ,0.22876279320027842,-0.20759478239202905,0.10803929005000001,1.6781486177066482,0.5585700110411206,-1.2760210137630588, ,0.11378530162886184,0.1499161793972682,0.04305084194594595,-0.04512184990997866,0.15407402194368855,-0.15627283661784103, ,1.3643519878387451
0.01753118012484452,0.02114889588921574,-0.09643605056630593, ,0.018423005689272933,0.02052972167009341,-0.09742009019390444, ,0.0014652861630678198, ,0.01991052383231559,-0.006043654915771013,-0.04170519248495112,0.0002632393277698388,0.02998829819315193,-0.008401110350698049, ,0.0466077011257255, ,0.02998734991707888, ,0.0009696084960567892, ,0.22876279320027842,-0.20759478239202905,0.10803929005000001,1.6781486177066482,0.5585700110411206,-1.2760210137630588, ,0.11378530162886184,0.1499161793972682,0.04305084194594595,-0.04512184990997866,0.15407402194368855,-0.15627283661784103, ,1.3681111335754395
0.01753118012484452,0.02114889588921574,-0.09643605056630593, ,0.018500695614105757,0.0205039316337805,-0.0975591829072664, ,0.0016178273795488588, ,0.01991052383231559,-0.006043654915771013,-0.04170519248495112,0.0002632393277698388,0.02998829819315193,-0.008401110350698049, ,0.0466077011257255, ,0.02998734991707888, ,0.0009741734177715221, ,0.22876279320027842,-0.20759478239202905,0.10833095530000002,1.6773098579327104,0.559663103039244,-1.277157393213052, ,0.11488733844851184,0.1437832447855618,0.042476830720000004,-0.14767522495386468,0.1397916121697447,-0.14271725559232368, ,1.372908115386963
0.017667300209135615,0.021106286103823486,-0.09671841507258683, ,0.018578496146305683,0.020478124483745964,-0.09769814408792245, ,0.0014780845714451388, ,0.020021746703555072,-0.006127203248048191,-0.041144699153227965,-0.030337854355327546,-0.006178270261546727,0.09175684818694861, ,0.046165996459665515, ,0.03095865816215342, ,0.0009776972719930158, ,0.22955051195344933,-0.20659082711837987,0.10833095530000002,1.6773098579327104,0.559663103039244,-1.277157393213052, ,0.11488733844851184,0.1437832447855618,0.042476830720000004,-0.14767522495386468,0.1397916121697447,-0.14271725559232368, ,1.3765249252319336
0.017667300209135615,0.021106286103823486,-0.09671841507258683, ,0.018656404655344617,0.020452307079723724,-0.09783696805377444, ,0.0016300849490736942, ,0.020021746703555072,-0.006127203248048191,-0.041144699153227965,-0.030337854355327546,-0.006178270261546727,0.09175684818694861, ,0.046165996459665515, ,0.03095865816215342, ,0.0009822277419727428, ,0.22955051195344933,-0.20659082711837987,0.10833095530000002,1.6773098579327104,0.559663103039244,-1.277157393213052, ,0.11488733844851184,0.1437832447855618,0.042476830720000004,-0.14767522495386468,0.1397916121697447,-0.14271725559232368, ,1.38018798828125
0.017937452045013583,0.021029961010695656,-0.09725394967937376, ,0.018734418532473183,0.02042648623156654,-0.09797564916495875, ,0.0012329588552227823, ,0.0209988100183637,-0.006109513448793985,-0.039682858735581535,-0.03673319611880839,7.979361885062947e-05,-0.012074305672832271, ,0.04531010322429697, ,0.0367319433146503, ,0.0009839569220641223, ,0.23111050399404268,-0.20469875756419487,0.10888576742000002,1.676680788102257,0.5613027410364293,-1.2787394442778308, ,0.12535923587644754,0.145102357123044,0.04126635108808291,-0.029753464520032337,0.13272133964064275,-0.10994373540495708, ,1.3838081359863281
0.017937452045013583,0.021029961010695656,-0.09725394967937376, ,0.018812535190656232,0.020400668699371953,-0.09811418182374579, ,0.001379049914647713, ,0.0209988100183637,-0.006109513448793985,-0.039682858735581535,-0.03673319611880839,7.979361885062947e-05,-0.012074305672832271, ,0.04531010322429697, ,0.0367319433146503, ,0.0009866630384516811, ,0.23111050399404268,-0.20469875756419487,0.10888576742000002,1.676680788102257,0.5613027410364293,-1.2787394442778308, ,0.12535923587644754,0.145102357123044,0.04126635108808291,-0.029753464520032337,0.13272133964064275,-0.10994373540495708, ,1.3873820304870605
0.017937452045013583,0.021029961010695656,-0.09725394967937376, ,0.018890752064507618,0.020374861193608457,-0.09825256047443984, ,0.001528123102874084, ,0.0209988100183637,-0.006109513448793985,-0.039682858735581535,-0.03673319611880839,7.979361885062947e-05,-0.012074305672832271, ,0.04531010322429697, ,0.0367319433146503, ,0.000990346440250473, ,0.23111050399404268,-0.20469875756419487,0.10888576742000002,1.676680788102257,0.5613027410364293,-1.2787394442778308, ,0.12535923587644754,0.145102357123044,0.04126635108808291,-0.029753464520032337,0.13272133964064275,-0.10994373540495708, ,1.3909740447998047
0.01813866265137953,0.020970119727529768,-0.09762301820700946, ,0.018969066610225602,0.020349070375240755,-0.09839077960327766, ,0.0012902443933013367, ,0.02106167593030493,-0.006701634699696396,-0.037792901347398655,0.006118458172314894,0.009927281622805248,-0.034992436131434275, ,0.04378138294864117, ,0.011658016614953325, ,0.000992372777771087, ,0.23233841852104437,-0.20330866564683445,0.10927076555000001,1.676680788102257,0.5626691060340837,-1.2800986595352166, ,0.13017413108157858,0.14667224352159317,0.03942775128712872,-0.018976789197754473,0.14460631849802624,-0.15371085338343912, ,1.3946161270141602
0.01813866265137953,0.020970119727529768,-0.09762301820700946, ,0.01904747630552768,0.020323302855855707,-0.09852883373832795, ,0.0014369467979804043, ,0.02106167593030493,-0.006701634699696396,-0.037792901347398655,0.006118458172314894,0.009927281622805248,-0.034992436131434275, ,0.04378138294864117, ,0.011658016614953325, ,0.0009953564960275255, ,0.23233841852104437,-0.20330866564683445,0.10927076555000001,1.676680788102257,0.5626691060340837,-1.2800986595352166, ,0.13017413108157858,0.14667224352159317,0.03942775128712872,-0.018976789197754473,0.14460631849802624,-0.15371085338343912, ,1.3982651233673096
0.01813866265137953,0.020970119727529768,-0.09762301820700946, ,0.01912597864958576,0.020297565197788137,-0.09866671744939122, ,0.0015863261279882564, ,0.02106167593030493,-0.006701634699696396,-0.037792901347398655,0.006118458172314894,0.009927281622805248,-0.034992436131434275, ,0.04378138294864117, ,0.011658016614953325, ,0.0009992962935739301, ,0.23233841852104437,-0.20330866564683445,0.10927076555000001,1.676680788102257,0.5626691060340837,-1.2800986595352166, ,0.13017413108157858,0.14667224352159317,0.03942775128712872,-0.018976789197754473,0.14460631849802624,-0.15371085338343912, ,1.4018449783325195
0.018367015937682696,0.02089476409395446,-0.09802633000497969, ,0.01920457116296136,0.020271863914246395,-0.09880442534789832, ,0.0013018969820779186, ,0.020829542660401122,-0.006826317995728807,-0.03633167177568417,0.003938903325010935,0.008621198879838745,-0.011038041464783457, ,0.04243181399417573, ,0.009475058107889992, ,0.001001300271643493, ,0.23376712410277592,-0.20174095087336685,0.1096920598,1.6758420283283186,0.564308744031269,-1.2816807105999952, ,0.13053224423448526,0.1427021677570989,0.03801625661097852,-0.04243933869078605,0.14835448268122173,-0.15282780668700097, ,1.4056529998779297
0.018367015937682696,0.02089476409395446,-0.09802633000497969, ,0.019283251387540543,0.020246205469438526,-0.09894195208681059, ,0.0014486129523604812, ,0.020829542660401122,-0.006826317995728807,-0.03633167177568417,0.003938903325010935,0.008621198879838745,-0.011038041464783457, ,0.04243181399417573, ,0.009475058107889992, ,0.0010042431182271574, ,0.23376712410277592,-0.20174095087336685,0.1096920598,1.6758420283283186,0.564308744031269,-1.2816807105999952, ,0.13053224423448526,0.1427021677570989,0.03801625661097852,-0.04243933869078605,0.14835448268122173,-0.15282780668700097, ,1.4094219207763672
0.018565199832981102,0.020821764730970752,-0.09837637657611092, ,0.019362016886469133,0.020220596278697444,-0.09907929236051799, ,0.0012208241170236743, ,0.020068300038465086,-0.007653172283859866,-0.03541804744607032,-0.02050682408408072,-0.01740185087461335,0.06007841544383474, ,0.0414215619856662, ,0.026894209665097278, ,0.0010056586803107949, ,0.2349950386297776,-0.20034313622313224,0.11005631729000001,1.6745838886674116,0.5656751090289234,-1.2830399258573812, ,0.12324278124476726,0.1437832447855618,0.036787093579676675,-0.12025850246272828,0.1299550557853044,-0.1481092912821487, ,1.4131379127502441
0.018565199832981102,0.020821764730970752,-0.09837637657611092, ,0.019440865244087693,0.020195042708607103,-0.09921644090473936, ,0.001365751983984645, ,0.020068300038465086,-0.007653172283859866,-0.03541804744607032,-0.02050682408408072,-0.01740185087461335,0.06007841544383474, ,0.0414215619856662, ,0.026894209665097278, ,0.0010079969485164693, ,0.2349950386297776,-0.20034313622313224,0.11005631729000001,1.6745838886674116,0.5656751090289234,-1.2830399258573812, ,0.12324278124476726,0.1437832447855618,0.036787093579676675,-0.12025850246272828,0.1299550557853044,-0.1481092912821487, ,1.4168009757995605
0.018565199832981102,0.020821764730970752,-0.09837637657611092, ,0.019519794065866767,0.020169551077128454,-0.099353392496422, ,0.0015136686917083904, ,0.020068300038465086,-0.007653172283859866,-0.03541804744607032,-0.02050682408408072,-0.01740185087461335,0.06007841544383474, ,0.0414215619856662, ,0.026894209665097278, ,0.0010112593468596428, ,0.2349950386297776,-0.20034313622313224,0.11005631729000001,1.6745838886674116,0.5656751090289234,-1.2830399258573812, ,0.12324278124476726,0.1437832447855618,0.036787093579676675,-0.12025850246272828,0.1299550557853044,-0.1481092912821487, ,1.4203860759735107
0.01876891162490719,0.020747045397809367,-0.09872865494585396, ,0.019598800978341768,0.020144127653724118,-0.0994901419536397, ,0.0012775322336846847, ,0.02008619745917383,-0.007367573373575868,-0.03479560678207314,-0.01656784134527461,-0.002946480128623803,-0.011814850225240554, ,0.04084691808590459, ,0.016826292101827216, ,0.0010129662243392905, ,0.236246121355402,-0.1988835397099038,0.11042316736,1.674374198723927,0.5669048375268124,-1.2842060444709302, ,0.12340304493949386,0.1427021677570989,0.03628430870159454,-0.039476095675413096,0.1287569195691027,-0.1317166863974677, ,1.4239869117736816
0.01876891162490719,0.020747045397809367,-0.09872865494585396, ,0.019677883629048345,0.020118778659485703,-0.09962668413549312, ,0.0014238699463926504, ,0.02008619745917383,-0.007367573373575868,-0.03479560678207314,-0.01656784134527461,-0.002946480128623803,-0.011814850225240554, ,0.04084691808590459, ,0.016826292101827216, ,0.0010155834454988661, ,0.236246121355402,-0.1988835397099038,0.11042316736,1.674374198723927,0.5669048375268124,-1.2842060444709302, ,0.12340304493949386,0.1427021677570989,0.03628430870159454,-0.039476095675413096,0.1287569195691027,-0.1317166863974677, ,1.4275460243225098
0.01876891162490719,0.020747045397809367,-0.09872865494585396, ,0.019757039686457256,0.0200935102672585,-0.09976301394200866, ,0.0015727058739042682, ,0.02008619745917383,-0.007367573373575868,-0.03479560678207314,-0.01656784134527461,-0.002946480128623803,-0.011814850225240554, ,0.04084691808590459, ,0.016826292101827216, ,0.0010191095368178875, ,0.236246121355402,-0.1988835397099038,0.11042316736,1.674374198723927,0.5669048375268124,-1.2842060444709302, ,0.12340304493949386,0.1427021677570989,0.03628430870159454,-0.039476095675413096,0.1287569195691027,-0.1317166863974677, ,1.4311439990997314
0.018978121690099485,0.020677055683913877,-0.09909467747159723, ,0.01983626683990938,0.020068328601767292,-0.09989912631403824, ,0.0013244242895634453, ,0.02092539840890372,-0.006350401037459121,-0.03760152083814777,0.04397153765342871,0.02830188283503014,-0.03773160905908829, ,0.04349797996746025, ,0.052291658308404425, ,0.0010210297553886144, ,0.23752809501252325,-0.1974393886624238,0.1108068692,1.674374198723927,0.5684078390242323,-1.285758356372153, ,0.12619274143413667,0.13853568110725661,0.039525586898263035,-0.023714579868995687,0.1593314850990209,-0.18600832920307706, ,1.4346849918365479
0.018978121690099485,0.020677055683913877,-0.09909467747159723, ,0.01991556279955121,0.020043239739742553,-0.1000350162331576, ,0.0014713108003643414, ,0.02092539840890372,-0.006350401037459121,-0.03760152083814777,0.04397153765342871,0.02830188283503014,-0.03773160905908829, ,0.04349797996746025, ,0.052291658308404425, ,0.0010238440119197125, ,0.23752809501252325,-0.1974393886624238,0.1108068692,1.674374198723927,0.5684078390242323,-1.285758356372153, ,0.12619274143413667,0.13853568110725661,0.039525586898263035,-0.023714579868995687,0.1593314850990209,-0.18600832920307706, ,1.4382879734039307
0.018978121690099485,0.020677055683913877,-0.09909467747159723, ,0.01999492529626952,0.020018249710045854,-0.10017067872156692, ,0.001620399202252617, ,0.02092539840890372,-0.006350401037459121,-0.03760152083814777,0.04397153765342871,0.02830188283503014,-0.03773160905908829, ,0.04349797996746025, ,0.052291658308404425, ,0.0010275493236609108, ,0.23752809501252325,-0.1974393886624238,0.1108068692,1.674374198723927,0.5684078390242323,-1.285758356372153, ,0.12619274143413667,0.13853568110725661,0.039525586898263035,-0.023714579868995687,0.1593314850990209,-0.18600832920307706, ,1.4421701431274414
0.01918442052201093,0.020612319999496774,-0.09946044428890385, ,0.020074352081626695,0.019993364493795785,-0.10030610884198886, ,0.0013748573144810963, ,0.022088227887328424,-0.006543862961096599,-0.038011215692019804,0.017830687608417238,0.014433723461389887,-0.023962685253676765, ,0.04444732243950605, ,0.02293875413749797, ,0.0010296932001474552, ,0.23878690047102183,-0.19609563314230874,0.11119186733000001,1.673535438949989,0.5700474770214176,-1.2875854436573535, ,0.13518082843087004,0.14017273494604252,0.04012295093198993,-0.031394105561134485,0.15621464650848416,-0.16217138826395316, ,1.4464521408081055
0.01918442052201093,0.020612319999496774,-0.09946044428890385, ,0.020153840927795715,0.019968590024493683,-0.10044130169756894, ,0.0015219216339886256, ,0.022088227887328424,-0.006543862961096599,-0.038011215692019804,0.017830687608417238,0.014433723461389887,-0.023962685253676765, ,0.04444732243950605, ,0.02293875413749797, ,0.001032713006490039, ,0.23878690047102183,-0.19609563314230874,0.11119186733000001,1.673535438949989,0.5700474770214176,-1.2875854436573535, ,0.13518082843087004,0.14017273494604252,0.04012295093198993,-0.031394105561134485,0.15621464650848416,-0.16217138826395316, ,1.4500370025634766
