NicholasDascanio/dvrk_moveit_final/test/execution/third_experiment_notsharpbends/thirdexp_300vel4.0/thirdexp_300vel4.0_26.csv
Current Position (x),Current Position (y),Current Position (z), ,Planned Position (x),Planned Position (y),Planned Position (z), ,Position Error,,Cartesian linear Velocity(x),Cartesian linear Velocity(y),Cartesian linear Velocity(z),Cartesian Angular Velocity(x),Cartesian Angular Velocity(y),Cartesian Angular Velocity(z), ,Total Linear Velocity, ,Total Angular Velocity, ,MSE, ,Joint 1 Position,Joint 2 Position,Joint 3 Position,Joint 4 Position,Joint 5 Position,Joint 6 Position, ,Joint 1 Velocity,Joint 2 Velocity,Joint 3 Velocity,Joint 4 Velocity,Joint 5 Velocity,Joint 6 Velocity, ,Time Stamp
0.00985863098554511,0.020608966356596363,-0.07804589061078261, ,0.01002320660790819,0.02054262201887333,-0.07820209629993183, ,0.0002364041538270532, ,0.00015037346989480767,0.0002461618725257714,-0.001053889287089165,0.2305036193880141,0.005828103158625605,-0.08330536988850329, ,0.0010926529537666145, ,0.23057728712386386, ,1.9700346152254434e-05, ,0.1829129281260075,-0.24993852674140205,0.08890475336,1.69073001431572,0.5216781561044516,-1.2232314900059489, ,-0.0005492620182964172,0.00023891148737718434,0.0010937629668207295,-0.0012870891105099438,0.0,-0.24599714677628093, ,0.03612518310546875
0.009916255832478278,0.020619242494493505,-0.078140161829657, ,0.010064404666169076,0.020543217796178088,-0.07838761662863629, ,0.000298264495399262, ,0.0012520437131766568,0.0005378712749308568,-0.003667186542768926,0.2825545102495247,-0.060826717025652406,-0.12311942146571853, ,0.0039121830360511565, ,0.2890275778637816, ,2.430312041937796e-05, ,0.18289748266025907,-0.24980724028254023,0.08898382705,1.69073001431572,0.516485969113365,-1.2323112443083966, ,0.00023634067257732487,0.004365990790434707,0.003531887254988914,-0.0012494714527040121,-0.06953089471466399,-0.3105856339797739, ,0.07267904281616211
0.009987159290650137,0.020644947355628374,-0.07834332943014022, ,0.010106228090755412,0.020543543588125976,-0.07857336839686882, ,0.00027816906628119753, ,0.000903944723255044,0.0006810541102909575,-0.0052976760169231776,-0.1353407456131564,0.014335713365553964,0.04962157932096946, ,0.005417224560983961, ,0.13609786955221467, ,2.540117860960977e-05, ,0.18292065085888173,-0.24953694463194237,0.08917827055000001,1.6903106344287508,0.5125235106201671,-1.2348793156511801, ,0.0009426831793781294,0.00836294861101633,0.005451338644763861,-0.0005234245596992696,0.01890609403760983,0.13630901028832648, ,0.11293816566467285
0.009997509460753775,0.020652521023490057,-0.07846607136972021, ,0.010148670932042223,0.02054360321642376,-0.07875934121583769, ,0.00034744795544079654, ,0.0006582517520760223,0.00019515286792396152,-0.004481369435164963,-0.04099115045555006,0.02550221103446801,0.016993272685882545, ,0.004533657687276448, ,0.048276673264721605, ,2.7625849308293074e-05, ,0.1829438190575044,-0.2492357580498476,0.08930660326,1.6903106344287508,0.5142997851171178,-1.2326522050929083, ,0.0006701334812594683,0.01164857444978203,0.004551089005714286,-0.000511695448687291,0.028053067470604594,0.03344603275575103, ,0.1492011547088623
0.010031506720758504,0.020658244113578333,-0.0786544129647363, ,0.010191727267766704,0.020543400486338934,-0.07894552475557085, ,0.00035157610437002985, ,0.0010323330974702006,0.000325528866488144,-0.0054656528547723454,0.009846602280380992,0.0036387924515100347,-0.0009782817106809135, ,0.005571807767316687, ,0.010497446455949426, ,2.907426490996806e-05, ,0.18293609632463018,-0.24874922587877146,0.08949326902,1.6898912545417817,0.5142997851171178,-1.2333056350140328, ,0.0009499021380565137,0.012491370482884135,0.00548890817367333,-0.0082885218155387,0.006356300732474058,-0.024570462237665108, ,0.18533611297607422
0.010063320823245677,0.02066569187594785,-0.07881963768408198, ,0.010235391202976623,0.020542939186728254,-0.07913190874479975, ,0.00037708043393047295, ,0.0009527479825770516,3.563069977606013e-05,-0.005063856549825949,0.011818782530394563,0.0018247443994309528,-0.0037975176057190438, ,0.0051528284875674195, ,0.011958817219704466, ,3.096626572539036e-05, ,0.18295154179037865,-0.24833219830356335,0.08965789785000002,1.6898912545417817,0.5142997851171178,-1.2341224224154383, ,0.0006436957516211075,0.014640071206181852,0.0049824246230841425,-0.008002179342915264,0.004011831969041286,-0.028892527224121875, ,0.2181990146636963
0.010110103604364101,0.020669570689416532,-0.07904453203384765, ,0.010279656869978854,0.020542223090064392,-0.07931848297084088, ,0.00034643157595815093, ,0.0011402582198210775,0.0001553592424658002,-0.005471482672778374,-0.014289744291238025,0.0025119434251253134,-0.008586264983675086, ,0.00559119378492671, ,0.014508847189776517, ,3.193391121724233e-05, ,0.18302104638624667,-0.24773754787224805,0.08988085973000001,1.6890524947678438,0.5142997851171178,-1.234775852336563, ,0.0017932023208347672,0.015227365461885554,0.005451338644763861,0.007118924217189305,0.0026764084196180048,0.0008122194793154496, ,0.2529630661010742
0.010146626967173115,0.020668331648336605,-0.07920464015817219, ,0.010324518428287788,0.02054125595246471,-0.0795052372794808, ,0.0003716883556931351, ,0.0012554873081356982,5.107505392883317e-05,-0.005504945278328777,-0.005452357942616604,0.0009323995956967879,-0.012594316712460765, ,0.005646528097815326, ,0.0055315071259973295, ,3.300078659367213e-05, ,0.18310599644786313,-0.24723557023542345,0.09003900711000001,1.6890524947678438,0.5142997851171178,-1.2348575310767034, ,0.0030750631250491115,0.016529688479092627,0.005470058901098901,0.007118924217189305,0.0021373508192580257,-0.009973922596842669, ,0.2865021228790283
0.010179584785872171,0.020667499257407608,-0.07936392500546109, ,0.010369970064573568,0.020540041513718615,-0.07969216157485785, ,0.00040028899093261683, ,0.0011427731350579068,-1.8366661028303675e-05,-0.005230835353311617,-0.01028453827983419,-0.003195337949193857,0.001877693642263031, ,0.005354241894601146, ,0.010769489696490725, ,3.417444467991722e-05, ,0.18317550104373115,-0.2467413153314731,0.09019715449000001,1.6890524947678438,0.5145730581166488,-1.2352437243643775, ,0.0022532326997898276,0.015649231787346764,0.0051700134761441105,-0.007137958046558316,0.000688574256286474,-0.006706832596740748, ,0.31981515884399414
0.010229063016808803,0.020665715632923073,-0.07959735465761257, ,0.01041600599261081,0.020538583497315445,-0.07987924581934591, ,0.00036134870024567557, ,0.0011607956128173434,-6.52608357009949e-05,-0.005650392446266313,-0.006303338924759497,-0.004595620500031891,0.006711597328852626, ,0.0057687641855284555, ,0.007800756605682025, ,3.472886424823083e-05, ,0.18326817383822183,-0.24603854663991864,0.09042789411,1.6886331148808746,0.5147096946164142,-1.2358452147089174, ,0.0015226768498356406,0.016915675857124918,0.0055636784910932605,-0.01504226785056824,0.0003181767983371765,-0.013770997530612134, ,0.3537330627441406
0.01026339854569459,0.020661427144172444,-0.07975787558482123, ,0.010462620453226852,0.020536885610472098,-0.08006648003343737, ,0.00038786166059937493, ,0.0014045874618909189,1.5845517628700382e-05,-0.005936184577819191,-0.009162020879959723,-0.006367228137675787,0.004444248837393799, ,0.006100115110427712, ,0.011157249364912877, ,3.543925936488458e-05, ,0.18333767843408985,-0.24550567807159715,0.09058604149,1.6886331148808746,0.5148463311161796,-1.2366100625337382, ,0.0037985892545476813,0.017009668678700626,0.00588865490573013,-0.01150178181828314,1.9456272087001927e-05,-0.010191857423765252, ,0.3874189853668213
0.01030106980471599,0.020659912624083066,-0.07994147423584352, ,0.010509807714250113,0.020534951544161455,-0.08025385429562651, ,0.0003959395005829459, ,0.0012090221896384386,-3.2412916735272005e-06,-0.005928986553274823,-0.0147166749441834,0.001825796967403606,0.005157239111196669, ,0.006051002124435548, ,0.014829499271800727, ,3.642544730930449e-05, ,0.18339946029708365,-0.24497280950327568,0.09076752209000001,1.6880040450504212,0.514982967615945,-1.2370481953979968, ,0.001972538241406594,0.01729171675628112,0.005877790228782289,-0.008348240035836034,0.005967498311500819,-0.003545609087812893, ,0.41755199432373047
0.010343611272982202,0.02066436270818546,-0.08013230612784611, ,0.010557562070458736,0.020532784973139255,-0.080441358742292, ,0.0003982476146778186, ,0.0014856637162270808,0.0001379490518832115,-0.0063145780190127015,-0.005193787284728636,-0.003821987659465394,-0.0011022293030789887, ,0.006488460693941785, ,0.00644848865924358, ,3.73012180978568e-05, ,0.18349985582444858,-0.24445538640070263,0.09095807672,1.6880040450504212,0.5151196041157104,-1.2373229707819744, ,0.0040106941518487085,0.01685259129079573,0.006300953924050633,-0.006303096014001835,0.001499205393266555,-0.01315517799665052, ,0.4480431079864502
0.010383703985138115,0.020663649298070217,-0.08031340357076207, ,0.010605877843528696,0.020530389555972577,-0.0806289835675805, ,0.0004083015020888461, ,0.0013080127926505282,-0.0001270084477441976,-0.0057543105667341755,-0.002631762230598707,-0.0006973873233810455,0.006629643540806567, ,0.005902467171443176, ,0.0027225934709632785, ,3.814653930790289e-05, ,0.1836079740846877,-0.24393024056525536,0.09113826103000001,1.687584665163452,0.5153928771152414,-1.2378725215499295, ,0.0036321980621257795,0.017764309539212052,0.005694963003217733,-0.015002558882797954,0.006416845784512999,-0.018097663039333228, ,0.4786961078643799
0.010423792561935085,0.02066024138538473,-0.08048092421987574, ,0.010654749381982433,0.02052776893506757,-0.08081671902328982, ,0.00042854189155708017, ,0.0011365588886745569,-0.00023247516406154137,-0.004849827097848682,-0.005631863133722083,0.0028785033390522387,-0.0053136161977511715, ,0.004986645534661348, ,0.006324844752786212, ,3.9040521750612e-05, ,0.1837315378106753,-0.2434050947298081,0.09130418615000001,1.6873749752199676,0.5155295136150068,-1.2380656181937664, ,0.003470725856539114,0.017064726048996722,0.004777687918416317,0.0,0.006343921708672158,-0.011362841511716251, ,0.5113010406494141
0.010465775611947052,0.020658219693010897,-0.08065801166424987, ,0.010704171061137092,0.020524926736697095,-0.08100455541875146, ,0.0004412391371823822, ,0.0015131099868404875,8.264875797800566e-05,-0.006510115575161342,-0.011648490079775095,-0.004720528211475494,0.009997377732543932, ,0.006684155702213258, ,0.012568639387001382, ,3.9923500950457796e-05, ,0.18387054700241134,-0.24287994889436082,0.09148048159000001,1.6869555953329984,0.5158027866145377,-1.2387785264420026, ,0.004064928591615094,0.017339108634838438,0.006488314264765784,-0.015962992116391458,0.0031187812397674005,-0.00851056262485638, ,0.5414340496063232
0.010511915537364901,0.020663148118569057,-0.08085352757181753, ,0.010754137283053057,0.020521866571028436,-0.0811924831207143, ,0.0004399121661054585, ,0.0016176975838181017,0.00017842870897404945,-0.006994900450789761,-2.5544007817170222e-05,-0.0016457395877226516,0.0024350622104367396, ,0.007181741752063762, ,0.001645932726773437, ,4.070612535631361e-05, ,0.18400183346127316,-0.2423625257917878,0.09167622138,1.6869555953329984,0.5159394231143032,-1.239134980566121, ,0.004093268862693945,0.017671683716661224,0.0069406586143790855,-0.011795784210603736,0.00534487906869699,-0.020467081918352344, ,0.5704541206359863
0.010561327655488473,0.020666053737169517,-0.08106122257165412, ,0.010804642476482159,0.0205185920321517,-0.08138049255322737, ,0.00042764515394861486, ,0.0015511062849447828,3.926872850426995e-05,-0.006715131923575705,0.01216200161700508,0.0011940941647924823,0.0003452818483450295, ,0.006892058436436758, ,0.01222047996406122, ,4.159247489950877e-05, ,0.18414856538588342,-0.24182193449059208,0.09188362778,1.686326525502545,0.5160760596140685,-1.2397364709106606, ,0.0045303981212424,0.018444497873366526,0.006704045252525254,-0.013631371994999008,0.0085835555775853,-0.03411550000063488, ,0.5959069728851318
0.010592977536551518,0.0206707923213312,-0.08120149319222307, ,0.010855681096816231,0.02051510669810691,-0.08156857419752293, ,0.00047749307671048947, ,0.0017725043607204909,0.00039075603456996107,-0.0077473162544538145,0.031613385688270185,0.002421825895563443,-0.007414818416910346, ,0.007957095646895937, ,0.031706014688603915, ,4.2701675806734524e-05, ,0.18424123818037413,-0.24146668877837774,0.09202492339000001,1.686326525502545,0.5163493326135995,-1.2403677004187563, ,0.004933120404348446,0.01742827209521961,0.007815903591756624,-0.011865545635449372,0.00942165991068448,-0.05332298672840918, ,0.6224520206451416
0.010649356095933779,0.020675372564704923,-0.08142856683178046, ,0.010907247626035326,0.02051141413091238,-0.08175671859189984, ,0.00044841274176730283, ,0.001703665811795961,1.8170357969803075e-05,-0.006843618904729837,0.019995518173540408,0.0027810495842829634,-0.014985930538474707, ,0.007052512110827372, ,0.020187990707520958, ,4.3555967298849735e-05, ,0.18440341557073284,-0.24088748381281092,0.09224658898000002,1.6861168355590603,0.5163493326135995,-1.2408577728595995, ,0.005684946894641196,0.019382545252955633,0.006749496406779663,-0.00040761484214186004,0.008295820838920108,-0.04143380504012585, ,0.6486129760742188
0.010701720999822332,0.02067093116084774,-0.08163110097225051, ,0.010959336572656186,0.02050751787659211,-0.08194491633160608, ,0.0004376639859586241, ,0.001897648167298699,-3.267292701244248e-05,-0.007263556579781759,-0.014623382310806446,0.002442641985121878,0.004475147337473931, ,0.007507422345565924, ,0.014825983605046065, ,4.4285484962952345e-05, ,0.18462737482408537,-0.2402542197171245,0.09245399538000001,1.6856974556720912,0.5167592421128957,-1.2415187415312512, ,0.007697398067749345,0.021013494587792468,0.007276752635906807,-0.007927315989035602,0.01231361979777642,-0.007003034676309727, ,0.6756889820098877
0.010741203788701907,0.020669816665793782,-0.08177906938151891, ,0.011011942471680566,0.02050342146520415,-0.08213315806872235, ,0.00047577893568939657, ,0.001906814306461932,-0.00024197397853767852,-0.00661996266240206,-0.017370372837458434,-0.004277479274247512,0.001978717048352729, ,0.0068933589676742225, ,0.01788928921841398, ,4.5162630682257794e-05, ,0.18477410674869563,-0.23982946940904215,0.09259658728,1.6856974556720912,0.5168958786126612,-1.2416301594349475, ,0.008533381044257313,0.021402106801639776,0.006587597816377173,-0.006399885072120151,0.005936531882703817,-0.004840843689155499, ,0.7022809982299805
0.010800345395686101,0.02066178865562779,-0.08198288370663548, ,0.011065059884543565,0.02049912841086784,-0.08232143451204466, ,0.0004595092639758601, ,0.002186584256321482,-0.00011330843205490976,-0.007301719790834208,-0.010837578007613004,-0.0071753293512589415,0.003963735757975663, ,0.00762293259937589, ,0.01299763161560552, ,4.589411460674788e-05, ,0.18507529333079037,-0.23916531438185884,0.09280528997000001,1.6850683858416375,0.5173057881119575,-1.2422094493664586, ,0.010380827657442599,0.021725490283532687,0.0073067942752293585,-0.011342408123613512,0.005826009012186938,-0.012898987734334351, ,0.7282440662384033
0.01084350774817584,0.02065919235601588,-0.08212722436774851, ,0.011118683399062083,0.02049464221179195,-0.08250973642696789, ,0.0004991130776217301, ,0.0021469241523329272,6.17762385596346e-05,-0.007646933097982973,-0.002771606823029402,-0.00026831353998837276,-0.02050814655817117, ,0.007942838625110579, ,0.002784559280986138, ,4.700177990368473e-05, ,0.18526836165264599,-0.23873284134090228,0.09294917816,1.6848586958981533,0.5173057881119575,-1.24245448558688, ,0.00884967410307658,0.022022961605586165,0.007567131363420429,0.012700322081573102,0.0049459946616129975,-0.016613440783144487, ,0.7510221004486084
0.010886554568727539,0.020660248864094035,-0.08228581396475029, ,0.011172807629382955,0.020489966350302733,-0.08269805463536858, ,0.0005299804899706188, ,0.002320460313487973,9.217473184105628e-05,-0.008608292132208555,0.006388411939369852,0.0030080712691297824,0.005561842534125387, ,0.008916037554940333, ,0.007061179263927138, ,4.819394245439872e-05, ,0.18547687544025004,-0.23827720010132303,0.09310991812000001,1.6850683858416375,0.5178523341110194,-1.2431451934220876, ,0.010086451543656519,0.022670076817599326,0.008680551237057221,-0.017149493459280882,0.017064939294886887,-0.03247010037107988, ,0.7734761238098145
0.010963720745035491,0.020659669741104496,-0.08254618291244324, ,0.011227427215931507,0.02048510429287107,-0.08288638001548806, ,0.00046448710146726073, ,0.0024829288289412135,-5.224713150170498e-05,-0.00885410663504253,0.0073042485381031395,-0.0059336033942394666,0.023529284097931754, ,0.009195807177025934, ,0.009410613238831573, ,4.901321089711306e-05, ,0.18581667568671592,-0.23757443140976858,0.09337047241000002,1.6842296260676997,0.5178523341110194,-1.2437169446030716, ,0.011257622780899344,0.023718305813164406,0.008893808777219432,-0.03919568833986915,0.01422222325523994,-0.0389598236728486, ,0.7970311641693115
0.011013158304502748,0.020660907035809205,-0.08271976973621654, ,0.011282536825359837,0.020480059490141055,-0.08307470350181519, ,0.0004808831461336305, ,0.0025660065460792426,1.0108041672119035e-05,-0.00880238099142818,0.011677473282375762,-0.006811404654240633,-0.0015239009644168633, ,0.009168773248656776, ,0.013518822536736952, ,4.9862319445981025e-05, ,0.18602518947431998,-0.23712651290306358,0.09353639753000001,1.6842296260676997,0.5181256071105501,-1.2442664953710265, ,0.01158312794398865,0.023576879890303302,0.0087185613136289,-0.015030512862285402,0.007837607073896365,-0.04140015027463417, ,0.8199830055236816
0.011063645083902007,0.020661054500894692,-0.08289269413423932, ,0.011338131150495038,0.020474835376957438,-0.08326301608496989, ,0.000497150389788208, ,0.0024851012231937902,-0.00018420055658896543,-0.008420291959159512,-0.004824551565491665,-0.008043219928363722,-0.001477455310277107, ,0.008781285476059487, ,0.009379213308979353, ,5.0738321539398386e-05, ,0.18626459419342095,-0.23660908980049053,0.09371917442000001,1.6842296260676997,0.5182622436103156,-1.2447046282352852, ,0.011114522806417271,0.025278886936193606,0.008410143357972546,-0.010034334169389434,0.005130186731305918,-0.022805560194841, ,0.843609094619751
0.01112756987137972,0.02064623755945655,-0.083110155864845, ,0.011394204910287562,0.020469435372393555,-0.08345130881158591, ,0.0004676949758054356, ,0.0021960381135435873,-0.0006054868337325302,-0.006590570634463809,0.0050477795433147375,-0.004021759596131966,0.005442152496946855, ,0.006973149861419602, ,0.00645403874584474, ,5.144205018840289e-05, ,0.18658894897413839,-0.23585998471169076,0.09393565485000001,1.6836005562372458,0.5188087896093774,-1.245722051031055, ,0.012467926790954854,0.024470588333798553,0.006541606373716633,-0.018991572619880458,0.012610928259756108,-0.03363195989939637, ,0.867171049118042
0.011139461967122597,0.02064399859661991,-0.08314754488684818, ,0.011450752849759731,0.020463862879779054,-0.08363957278419404, ,0.0006094606975526473, ,0.0020428636057250884,-0.0005325977312220139,-0.006605553512112372,0.012024351699820126,0.006335229364446965,0.005540973946415798, ,0.006934716234733692, ,0.013591179210245722, ,5.292833899266716e-05, ,0.1866584535700064,-0.23572869825282894,0.09397324726,1.6836005562372458,0.5189454261091428,-1.2458334689347514, ,0.011513824503575682,0.023724235389617696,0.006593051125827815,-0.01854491381838625,0.022107090388291752,-0.03949757570295279, ,0.886789083480835
0.011208699815876914,0.020641193128750457,-0.08337432067041099, ,0.011507769739953723,0.020458121286727807,-0.08382779916110498, ,0.0005732371763510944, ,0.0022817878112077025,-0.00014304740806046916,-0.008032998699495746,0.001363813420464146,0.0007510426761261654,0.0021010277238540736, ,0.00835201091249462, ,0.0015569260412072294, ,5.4203526932285995e-05, ,0.18696736288497537,-0.23506454322564563,0.09420009801000001,1.6836005562372458,0.5189454261091428,-1.2461601838953136, ,0.010291393727195616,0.023362122491007085,0.008061139433198382,-0.012712476938472213,0.013914160389682026,-0.027266765840948642, ,0.9051251411437988
0.011261033782500573,0.02064172680182243,-0.08357883076365186, ,0.011565250377880138,0.020452213965165864,-0.0840159791562925, ,0.0005652977705159005, ,0.0026580502029874826,0.0005424788819629565,-0.011007125773370775,0.06824036651215284,0.047023221200424424,-0.006008038248196146, ,0.01133650439993655, ,0.08287297986801052, ,5.539494448635268e-05, ,0.18720676760407634,-0.23453167465732414,0.09440750441000001,1.6829714864067924,0.5197652451077354,-1.2472370850181949, ,0.012695243017855622,0.023909534280289944,0.011345307350427351,-0.01567071795591052,0.06347887904210442,-0.09592485156845762, ,0.923112154006958
0.011326772904104842,0.020655247264875387,-0.0838223052222542, ,0.011623189586466163,0.020446144271359167,-0.08420410403927618, ,0.0005266471761615363, ,0.003588687077971387,0.000592547328854761,-0.012281498092954528,-0.02466545553323925,-0.027031096247569407,0.005207956606285459, ,0.012808785371290184, ,0.03659323136302743, ,5.6385708191629556e-05, ,0.18746161778892576,-0.2340219742876253,0.0946550958,1.682761796463308,0.5200385181072663,-1.24778663578615, ,0.013783143290990672,0.026294525230942303,0.012405616448598132,-0.014926483669637761,-0.010228949596685848,-0.004840989001523413, ,0.9407320022583008
0.011363214614071582,0.02066126710753602,-0.08394556506459065, ,0.011681582214503994,0.020439915545941167,-0.0843921651350053, ,0.0005914440512169713, ,0.0032395456076256416,0.00034336329775353023,-0.011149577869301151,0.000879244379490196,-0.015036487827141369,-0.0006919191622953378, ,0.011615749685738789, ,0.015062166661935427, ,5.759004869847323e-05, ,0.1876006269806618,-0.23375167863702745,0.09477953964000001,1.682761796463308,0.5199018816075008,-1.2479202541028753, ,0.0132278981821119,0.02599204096370057,0.01125711061484099,-0.014926483669637761,0.0010436269625325133,-0.030854718483016803, ,0.9582390785217285
0.011424201276494987,0.020665088187405173,-0.08416395218119752, ,0.011740423136599036,0.020433531113941205,-0.08458015382374064, ,0.0005716981286784607, ,0.0032403565847064957,2.4893795559091864e-05,-0.011087538108817891,0.026930197746964032,0.009840454963847653,-0.0019007842860765828, ,0.011551364932837899, ,0.02867176201463846, ,5.889785687427617e-05, ,0.18787864536413387,-0.2332033646029575,0.09500120523000001,1.6825521065198237,0.5204484276065626,-1.248692640678223, ,0.015951746773990718,0.029370764951553937,0.011241221961891321,-0.01742230343923062,0.02953987345672371,-0.060517848500048134, ,0.9728820323944092
0.011462272890641178,0.020666710444813653,-0.0842834207994242, ,0.011799707253118156,0.02042699428481177,-0.0847680615409386, ,0.0006373401248014447, ,0.0033273229097247332,0.00012568585873007918,-0.011616803621983158,-0.008474211799703405,0.008553662130696832,0.007763516554679988, ,0.012084576991867973, ,0.012040647404209832, ,6.041388969429255e-05, ,0.18805626822024105,-0.23289445528798855,0.09512176020000002,1.6825521065198237,0.5204484276065626,-1.2489376768986449, ,0.015587539677804005,0.029711002366459228,0.011781665325443788,-0.014760946681635218,0.028002426627294325,-0.02286594420518747, ,0.9870200157165527
0.011533252785740336,0.020665748310672156,-0.08452288184846578, ,0.011859429490138084,0.020420308352456666,-0.08495587977713376, ,0.000595079172725242, ,0.003794520940118978,-0.00021610828766512004,-0.012632519503842065,-0.011638263787341866,-0.023694054234926952,0.04652958501933757, ,0.01319187784100312, ,0.026398050465371154, ,6.172773212532627e-05, ,0.18838062300095845,-0.23228435939092482,0.09536287014000001,1.6815036568024009,0.5207217006060936,-1.2494872276666, ,0.01710162940322054,0.03337915636949376,0.012662012337042927,-0.06530203979874612,0.007967395289017217,-0.034541757407635154, ,1.0012400150299072
0.011569314788698867,0.02066606963960697,-0.08465400696298908, ,0.011919584799393567,0.02041347659525901,-0.08514360007782164, ,0.0006528351587778354, ,0.0035798082369703902,-0.0001434313730715466,-0.012927631947736393,0.04896099689944658,0.02129474377992825,0.021298748576291625, ,0.013414889762811952, ,0.0533914316062747, ,6.321463406773115e-05, ,0.18855824585706563,-0.23192911367871047,0.09549638801000002,1.6815036568024009,0.5212682466051554,-1.2503412929820885, ,0.017691450700684334,0.03435805270038768,0.013110132938271608,-0.049225117193031055,0.04994328461266914,-0.09389433875945119, ,1.0180821418762207
0.011649265348162484,0.02066407366964638,-0.08490239448751939, ,0.011980168158225911,0.020406502276108424,-0.08533121404334287, ,0.0005997715431175487, ,0.00398792913263064,-0.0004159729477640911,-0.012018076131173847,0.0029696597567767115,-0.0018856454436469146,-0.0029911559751455985, ,0.012669284358433442, ,0.0035177104909838042, ,6.446702759425326e-05, ,0.18894438250077686,-0.23123406772003027,0.09574657198000001,1.6815036568024009,0.5214048831049207,-1.2507794258463472, ,0.021239243858207427,0.03682457957255366,0.012131615780654989,-0.013376961715902911,0.023072843190899365,-0.04306395733694609, ,1.0335941314697266
0.011690296583369557,0.02065944856677561,-0.08501885456442299, ,0.012041174569530839,0.020399388642429492,-0.08551871332876437, ,0.0006637810706192246, ,0.0038796400639685216,-0.00042830475430673075,-0.011572315123453818,0.0035524615455163363,-0.004000971747396555,-0.014532911752975022, ,0.012212842801945392, ,0.0053504719806857556, ,6.591155770187679e-05, ,0.18916061902125514,-0.23087882200781595,0.09586323808000001,1.6812939668589162,0.5214048831049207,-1.2511061408069093, ,0.020611846559181315,0.035959432193433415,0.01164386807017544,-0.0018077478328451754,0.016721893644619228,-0.040462336559869166, ,1.0485901832580566
0.011770925412807701,0.02064576885516385,-0.08526484486527082, ,0.012102599061707063,0.020392138926209523,-0.08570608964376408, ,0.0006074804562972904, ,0.004131349505143703,-0.0003584631294098514,-0.013582951526993532,0.033492175931549496,0.020451751029226507,0.002945963392190087, ,0.01419730288925237, ,0.039242827452178386, ,6.735432454410094e-05, ,0.18960853752796017,-0.23008338052177083,0.09611082947,1.680874586971947,0.522088065603748,-1.2521533027662348, ,0.021971970724350726,0.0392622844677165,0.013767339256698359,-0.0260130371727967,0.048268171477807306,-0.07824041792535144, ,1.0606451034545898
0.011815044086431378,0.020643255432714586,-0.08541138831923059, ,0.012164436688604532,0.020384756344025815,-0.08589333475251354, ,0.0006489756034400736, ,0.004536013233689329,-0.0001452348697977133,-0.015223322345734482,0.0031753118833254515,0.002173926757252102,0.006517048744630444, ,0.015885403755200832, ,0.0038480833528341542, ,6.891151140754265e-05, ,0.18981705131556423,-0.22967407567943693,0.09625860653000001,1.6806648970284628,0.5223613386032788,-1.252539496053909, ,0.021144594821406144,0.04100991424307294,0.015375300694980696,-0.024778001376833995,0.02885533169119441,-0.048981836253367994, ,1.0721120834350586
0.011864169024250679,0.020644617507226303,-0.08556820164402741, ,0.012226682529472552,0.02037724409707427,-0.08608044047356003, ,0.0006821240359388646, ,0.004820205531333816,-2.898666163022928e-05,-0.016025450898781525,0.0067373504535736825,-0.008564184211828085,0.0016359976683873374, ,0.016734703406398068, ,0.010896608894792473, ,7.055078555139175e-05, ,0.1900332878360425,-0.22927249356997725,0.09641675391000001,1.6806648970284628,0.5223613386032788,-1.252866211014471, ,0.0215527916326302,0.04165800770784494,0.01617138225380711,-0.024370461811652103,0.017974895824328346,-0.054110888045441535, ,1.0839650630950928
0.011914592311428586,0.02064207628558681,-0.08573053998709673, ,0.012289331688908204,0.02036960537119664,-0.08626739867971107, ,0.0007091454406946492, ,0.005321376492866485,-0.0001359325557442545,-0.016564390977422634,-0.02339986383759433,-0.026515281425667222,-0.004979236599186678, ,0.017398694603086278, ,0.03536400047603438, ,7.224871416586435e-05, ,0.19026496982226926,-0.22882457506327222,0.09658008645,1.6804552070849783,0.5224979751030443,-1.2531409863984486, ,0.024208403458793566,0.0448261415014033,0.016644526144200627,-0.012083121290687697,0.0,-0.02443550704831224, ,1.0948741436004639
0.01196212404015671,0.020641985671443763,-0.08589090412212147, ,0.012352379296804356,0.020361843336908853,-0.08645420129791617, ,0.0007403260100780447, ,0.004881509712825839,0.00015766395729173378,-0.01683976452042226,0.04763635084528037,0.03866548068102371,-0.005018720130578092, ,0.017533729326732358, ,0.0613534022199079, ,7.401756506985237e-05, ,0.1905043745413702,-0.2284075474880641,0.09674341899000001,1.6802455171414936,0.523044521102106,-1.253995051713937, ,0.024777269336415348,0.042101571232684466,0.01722033677837838,-0.018750764818692405,0.06789001570622936,-0.09349454143016658, ,1.1061861515045166
0.012019386074987624,0.020640772475703853,-0.08607492332177911, ,0.012415820508298281,0.020353961149428175,-0.08664084030915085, ,0.0007481196651540857, ,0.005246970563236232,-0.00032895358232349904,-0.01659578826024734,0.014534949371652997,0.010551528353667995,0.0012854111429570162, ,0.01740859266367487, ,0.017961020153098632, ,7.577698637401467e-05, ,0.1907901156577165,-0.2279287380498622,0.09693008475,1.6798261372545245,0.5234544306014023,-1.254574341645448, ,0.02708246049043116,0.04633639724534706,0.01682028671594509,-0.022671263508346452,0.042728748250442226,-0.06527840612892181, ,1.1173169612884521
0.01207619236870424,0.02063659567310075,-0.08624473344262798, ,0.012479650503719528,0.020345961948701818,-0.08682730774829873, ,0.0007659237886994832, ,0.005607228470872019,-0.0004292027778971561,-0.016798327302862025,-0.0009140424327916113,-0.03383877777792158,0.029709800586287586, ,0.01771465569304671, ,0.03385110068314449, ,7.781808210807265e-05, ,0.19106041130831436,-0.22747309681028294,0.09709471358,1.6794067573675557,0.5235910671011678,-1.2550941532498474, ,0.027578303271860147,0.04566744059599171,0.01694554417021277,-0.0601268382654156,0.005856483994883295,-0.058024637342016565, ,1.1247401237487793
0.012129703547243454,0.02063376742736572,-0.08640851994911801, ,0.012543864488538494,0.020337848859434005,-0.0870135957040355, ,0.0007907045929613137, ,0.006014281832084444,-6.555650206715709e-05,-0.018545046347616348,-0.01807783905958753,-0.016795012519969208,-0.03851250100111541, ,0.019496015686440722, ,0.024675463867986115, ,7.991401751647256e-05, ,0.191322984226038,-0.22700973283782946,0.09726582386,1.6791970674240708,0.5235910671011678,-1.2554208682104095, ,0.027666746810049787,0.05018346988813896,0.018717757367802585,0.021702594648764256,0.005556783209818337,-0.0284694655391508, ,1.13248610496521
0.012191939414697721,0.0206348972306354,-0.0866155236359443, ,0.012608457693314317,0.02032962499111449,-0.08719969631871126, ,0.0007797027253607576, ,0.006014281832084444,-6.555650206715709e-05,-0.018545046347616348,-0.01807783905958753,-0.016795012519969208,-0.03851250100111541, ,0.019496015686440722, ,0.024675463867986115, ,8.194639355033424e-05, ,0.191631893541007,-0.22646914153663375,0.09747711913000001,1.6794067573675557,0.524274249599995,-1.2563863514295945, ,0.02926208497023459,0.050263210571223925,0.02167185240816327,-0.008964109299554034,0.07352669418648339,-0.10242763880962794, ,1.1408300399780273
0.012191939414697721,0.0206348972306354,-0.0866155236359443, ,0.012673425373643495,0.0203212934380459,-0.08738560178823407, ,0.0009608311131632229, ,0.006121685525577255,0.0004220602488173304,-0.021178499372283607,0.05015318907446042,0.04209890858137117,-0.017747035127438002, ,0.022049535237494484, ,0.06548019713952158, ,8.454228386324158e-05, ,0.191631893541007,-0.22646914153663375,0.09747711913000001,1.6794067573675557,0.524274249599995,-1.2563863514295945, ,0.02926208497023459,0.050263210571223925,0.02167185240816327,-0.008964109299554034,0.07352669418648339,-0.10242763880962794, ,1.1487610340118408
0.012260518330212602,0.020641522913704705,-0.08684639273315403, ,0.012738762810107758,0.02031285727937178,-0.08757130436195254, ,0.0009285665034390149, ,0.006999898111175807,0.0008188350297808791,-0.023985279899616806,0.04643038372353959,0.027333871619184547,-0.019974576893883274, ,0.024999254313595055, ,0.05387868903540747, ,8.700015420535333e-05, ,0.1919485255888502,-0.2259517184340607,0.09771304391,1.6791970674240708,0.5248207955990567,-1.257240416745083, ,0.03172749634184914,0.05277916660649098,0.02454362329738059,-0.010238727421545734,0.06111110430710725,-0.10220962101554526, ,1.1561319828033447
0.012336416545450798,0.020647511641978023,-0.08710244170204122, ,0.012804465308222584,0.020304319579104255,-0.08775679634253897, ,0.0008746601808089174, ,0.008013924283839895,0.0008558877154097003,-0.026485973450321935,-0.012858461146730168,-0.02244650867412582,0.02843810848542368, ,0.027685055821140517, ,0.025868373367108816, ,8.925307984007427e-05, ,0.19228060310244185,-0.22538795893424232,0.09797359820000001,1.6785679975936174,0.5252307050983531,-1.2579013854167345, ,0.03432077452385923,0.05605253488391659,0.02695230375634518,-0.05395921952327918,0.023511156190611615,-0.05386793969524999, ,1.1650891304016113
0.012414076778206056,0.020653683618160237,-0.08735336294385576, ,0.012870528198385321,0.020295683386152053,-0.08794207008587274, ,0.0008264914785788034, ,0.00788419933424413,0.0003738092236875445,-0.024756479377332174,-0.01903604001940677,-0.022497669633303637,0.025088664480383854, ,0.025984295326948598, ,0.029470437040783445, ,9.132332047553323e-05, ,0.19262812608178195,-0.22483192216729814,0.09822896733000001,1.6781486177066482,0.525503978097884,-1.2584509361846894, ,0.036470769238459176,0.056960949314808385,0.025163999241706165,-0.04804205614113025,0.024425022597092966,-0.04704490343969715, ,1.1732470989227295
0.01248930561347113,0.020654518717818416,-0.08758929413737082, ,0.012936946835823346,0.020286951734348184,-0.08812711800092313, ,0.0007904066418576709, ,0.007559920349023649,-0.0002080822440242759,-0.022781318139593006,0.04047298335879917,0.03712833848749752,-0.050065384774783665, ,0.024003836153440337, ,0.05492330802745008, ,9.325271730380817e-05, ,0.19301426272549316,-0.2242449944688571,0.09847007727000001,1.677938927763164,0.5261871605967111,-1.2593347406637339, ,0.04083345161724216,0.06198363263126765,0.02328773614035088,0.023560408483394225,0.07284263960468727,-0.098062994809399, ,1.1810040473937988
0.01248930561347113,0.020654518717818416,-0.08758929413737082, ,0.013003716600542404,0.020278127642477852,-0.0883119325496322, ,0.0009635845474535743, ,0.007559920349023649,-0.0002080822440242759,-0.022781318139593006,0.04047298335879917,0.03712833848749752,-0.050065384774783665, ,0.024003836153440337, ,0.05492330802745008, ,9.570407097209195e-05, ,0.19301426272549316,-0.2242449944688571,0.09847007727000001,1.677938927763164,0.5261871605967111,-1.2593347406637339, ,0.04083345161724216,0.06198363263126765,0.02328773614035088,0.023560408483394225,0.07284263960468727,-0.098062994809399, ,1.189216136932373
0.012568985665208768,0.02064925290016688,-0.08782252929814785, ,0.013070832897274702,0.02026921411430619,-0.0884965062467976, ,0.0009222391503302879, ,0.007855362132466003,-0.0005768050583422474,-0.02236205654048249,0.011593796630554935,0.013219251059020687,-0.01597183275605969, ,0.023708669111260666, ,0.01758292145751024, ,9.830323788831268e-05, ,0.19343901303357552,-0.22358083944167378,0.09870729834000001,1.6781486177066482,0.5267337065957729,-1.260107127239082, ,0.04373130947394967,0.06301257739606293,0.022787999313304726,-0.007938608516374332,0.058908301386250646,-0.07563642533548233, ,1.1930279731750488
0.012568985665208768,0.02064925290016688,-0.08782252929814785, ,0.013138291155427317,0.020260214138606014,-0.08868083165995651, ,0.0011009735889094313, ,0.007855362132466003,-0.0005768050583422474,-0.02236205654048249,0.011593796630554935,0.013219251059020687,-0.01597183275605969, ,0.023708669111260666, ,0.01758292145751024, ,0.000101446405132893, ,0.19343901303357552,-0.22358083944167378,0.09870729834000001,1.6781486177066482,0.5267337065957729,-1.260107127239082, ,0.04373130947394967,0.06301257739606293,0.022787999313304726,-0.007938608516374332,0.058908301386250646,-0.07563642533548233, ,1.1971549987792969
0.012652679218003025,0.020641776368902756,-0.08805548066561841, ,0.013206086829030236,0.020251130689186044,-0.08886490140926824, ,0.0010554742873584442, ,0.00933028522331852,-0.0006525510243702212,-0.02579940223946906,-0.03145788596675856,-0.04329735894848987,0.014355357107426832, ,0.027442470754321737, ,0.053518673856511434, ,0.0005663877546568019, ,0.19388693154028053,-0.22293985261311314,0.09894322312,1.6775195478761948,0.5270069795953038,-1.2607383567471775, ,0.04856547674435557,0.0701900455314133,0.026112805770491805,-0.04224097233033717,0.014021022411255784,-0.04723530617249422, ,1.2017030715942383
0.012652679218003025,0.020641776368902756,-0.08805548066561841, ,0.013274215396684639,0.02024196672491815,-0.08904870816739666, ,0.0012380047831579207, ,0.00933028522331852,-0.0006525510243702212,-0.02579940223946906,-0.03145788596675856,-0.04329735894848987,0.014355357107426832, ,0.027442470754321737, ,0.053518673856511434, ,0.0005775813717984872, ,0.19388693154028053,-0.22293985261311314,0.09894322312,1.6775195478761948,0.5270069795953038,-1.2607383567471775, ,0.04856547674435557,0.0701900455314133,0.026112805770491805,-0.04224097233033717,0.014021022411255784,-0.04723530617249422, ,1.2054309844970703
0.012652679218003025,0.020641776368902756,-0.08805548066561841, ,0.0133426723615111,0.020232725189765464,-0.08923224465939408, ,0.0014241442701807391, ,0.00933028522331852,-0.0006525510243702212,-0.02579940223946906,-0.03145788596675856,-0.04329735894848987,0.014355357107426832, ,0.027442470754321737, ,0.053518673856511434, ,0.0005914594520998356, ,0.19388693154028053,-0.22293985261311314,0.09894322312,1.6775195478761948,0.5270069795953038,-1.2607383567471775, ,0.04856547674435557,0.0701900455314133,0.026112805770491805,-0.04224097233033717,0.014021022411255784,-0.04723530617249422, ,1.2093641757965088
0.012752074674658744,0.020637229865065432,-0.0883521052522162, ,0.01341145325109788,0.020223409012810067,-0.08941550366258377, ,0.0013178937681014075, ,0.010800116438919993,0.00040287166159697616,-0.0342554693914355,0.057638510700985156,0.02917163686532713,0.02942938737016628, ,0.03591993880698465, ,0.06459980762352394, ,0.00060317613461599, ,0.19440435464285358,-0.22218302479143914,0.09924525869,1.676680788102257,0.527690162094131,-1.2618671974466436, ,0.053735527496302816,0.0782332576739248,0.03508548792951543,-0.07522239122783726,0.09914953842025548,-0.15130618891016917, ,1.2131199836730957
0.012752074674658744,0.020637229865065432,-0.0883521052522162, ,0.013480553617449037,0.020214021108281167,-0.08959847800644355, ,0.0015044042888758323, ,0.010800116438919993,0.00040287166159697616,-0.0342554693914355,0.057638510700985156,0.02917163686532713,0.02942938737016628, ,0.03591993880698465, ,0.06459980762352394, ,0.0006174813434137653, ,0.19440435464285358,-0.22218302479143914,0.09924525869,1.676680788102257,0.527690162094131,-1.2618671974466436, ,0.053735527496302816,0.0782332576739248,0.03508548792951543,-0.07522239122783726,0.09914953842025548,-0.15130618891016917, ,1.2168080806732178
0.012752074674658744,0.020637229865065432,-0.0883521052522162, ,0.013549969036932567,0.020204564375582407,-0.08978116057248799, ,0.001692936486562628, ,0.010800116438919993,0.00040287166159697616,-0.0342554693914355,0.057638510700985156,0.02917163686532713,0.02942938737016628, ,0.03591993880698465, ,0.06459980762352394, ,0.0006342853300254663, ,0.19496811414267198,-0.2213798605725198,0.09964581230000001,1.676680788102257,0.5290565270917854,-1.2637164851448728, ,0.05872335492479627,0.08360964013962183,0.04376047120879121,-0.04292565715366794,0.13343111199443147,-0.16657621307454842, ,1.2205641269683838
0.012869087623271647,0.020653304328304263,-0.08874033373352468, ,0.013619695110228869,0.020195041699320036,-0.08996354429415268, ,0.001506539183769094, ,0.01266162481466467,0.0019037251388508611,-0.04245976741175284,0.07487674874035243,0.06493039811970121,0.00016333712154325457, ,0.04434831181693136, ,0.09910774994448801, ,0.0006477046200830606, ,0.19496811414267198,-0.2213798605725198,0.09964581230000001,1.676680788102257,0.5290565270917854,-1.2637164851448728, ,0.05872335492479627,0.08360964013962183,0.04376047120879121,-0.04292565715366794,0.13343111199443147,-0.16657621307454842, ,1.225654125213623
0.012869087623271647,0.020653304328304263,-0.08874033373352468, ,0.013689727462278718,0.02018545594933053,-0.09014562215667583, ,0.0016932712137506406, ,0.01266162481466467,0.0019037251388508611,-0.04245976741175284,0.07487674874035243,0.06493039811970121,0.00016333712154325457, ,0.04434831181693136, ,0.09910774994448801, ,0.0006635465381689329, ,0.19496811414267198,-0.2213798605725198,0.09964581230000001,1.676680788102257,0.5290565270917854,-1.2637164851448728, ,0.05872335492479627,0.08360964013962183,0.04376047120879121,-0.04292565715366794,0.13343111199443147,-0.16657621307454842, ,1.2294390201568604
0.013006321188693905,0.020677401565936095,-0.08920402789475348, ,0.013760061742231511,0.020175809980708313,-0.09032738719698255, ,0.0014427941857115547, ,0.014505810874281296,0.003350013087982078,-0.04890187624079782,0.046257040857408796,0.02945466265177126,-0.026311535606760406, ,0.051117850470069406, ,0.054836222723483215, ,0.0006751771000725542, ,0.19556276457398725,-0.22050719175773242,0.10012284702000002,1.6762614082152878,0.530149619089909,-1.2653429370357094, ,0.060637023360045235,0.0843528369408629,0.05040763139240506,-0.01401663451940864,0.09297076423927007,-0.1338418057539529, ,1.233246088027954
0.013006321188693905,0.020677401565936095,-0.08920402789475348, ,0.013830693623393541,0.020166106633834027,-0.09050883250356727, ,0.0016258928273006053, ,0.014505810874281296,0.003350013087982078,-0.04890187624079782,0.046257040857408796,0.02945466265177126,-0.026311535606760406, ,0.051117850470069406, ,0.054836222723483215, ,0.0006891582137082608, ,0.19556276457398725,-0.22050719175773242,0.10012284702000002,1.6762614082152878,0.530149619089909,-1.2653429370357094, ,0.060637023360045235,0.0843528369408629,0.05040763139240506,-0.01401663451940864,0.09297076423927007,-0.1338418057539529, ,1.2369799613952637
0.013159382419169124,0.02070513280365148,-0.08970991118922286, ,0.013901618803176188,0.020156348734401815,-0.09068995121637692, ,0.00134631246715992, ,0.014505810874281296,0.003350013087982078,-0.04890187624079782,0.046257040857408796,0.02945466265177126,-0.026311535606760406, ,0.051117850470069406, ,0.054836222723483215, ,0.000698682188395966, ,0.19621147413542211,-0.2196113547443224,0.10064265931000001,1.675212958497865,0.5309694380885015,-1.2665831956388716, ,0.06730279543153955,0.09823699954293041,0.05473818391752577,-0.1367647379106825,0.07401602000426478,-0.11208881554173944, ,1.2413489818572998
0.013159382419169124,0.02070513280365148,-0.08970991118922286, ,0.013972833003044017,0.020146539093447303,-0.090870736526694, ,0.0015235630113654816, ,0.01617779785299246,0.0024022342639332104,-0.0534275801782827,-0.012422306544199218,-0.022719982752795048,0.09125647693329698, ,0.055874844040390205, ,0.02588582579747407, ,0.0007104662001526734, ,0.19621147413542211,-0.2196113547443224,0.10064265931000001,1.675212958497865,0.5309694380885015,-1.2665831956388716, ,0.06730279543153955,0.09823699954293041,0.05473818391752577,-0.1367647379106825,0.07401602000426478,-0.11208881554173944, ,1.2458970546722412
0.013159382419169124,0.02070513280365148,-0.08970991118922286, ,0.014044331968463093,0.02013668050737529,-0.0910511816770194, ,0.0017044882631955006, ,0.01617779785299246,0.0024022342639332104,-0.0534275801782827,-0.012422306544199218,-0.022719982752795048,0.09125647693329698, ,0.055874844040390205, ,0.02588582579747407, ,0.0007244665108997556, ,0.19621147413542211,-0.2196113547443224,0.10064265931000001,1.675212958497865,0.5309694380885015,-1.2665831956388716, ,0.06730279543153955,0.09823699954293041,0.05473818391752577,-0.1367647379106825,0.07401602000426478,-0.11208881554173944, ,1.2495901584625244
0.013331019762896357,0.020727999965024786,-0.09026307145045456, ,0.014116111468849146,0.02012677575798814,-0.09123127996095631, ,0.0013839318096245644, ,0.01662364489797412,0.0018765424242439877,-0.05199348024483856,0.005731039754610459,0.018027576966745094,0.011218699808654508, ,0.05461857714307785, ,0.01890656981630495, ,0.0007336257511598223, ,0.1969605792242219,-0.21853789487480518,0.10121043433000002,1.6745838886674116,0.5319258935868597,-1.26785319340559, ,0.07652979157941192,0.1039396950257073,0.053452387651006725,-0.048800386046765586,0.1055201493697613,-0.11761989913949217, ,1.2533071041107178
0.013331019762896357,0.020727999965024786,-0.09026307145045456, ,0.014188167297515746,0.02011682761251251,-0.09141102472309173, ,0.0015575719106153258, ,0.01662364489797412,0.0018765424242439877,-0.05199348024483856,0.005731039754610459,0.018027576966745094,0.011218699808654508, ,0.05461857714307785, ,0.01890656981630495, ,0.0007449126848509936, ,0.1969605792242219,-0.21853789487480518,0.10121043433000002,1.6745838886674116,0.5319258935868597,-1.26785319340559, ,0.07652979157941192,0.1039396950257073,0.053452387651006725,-0.048800386046765586,0.1055201493697613,-0.11761989913949217, ,1.2569351196289062
0.013331019762896357,0.020727999965024786,-0.09026307145045456, ,0.014260495271622499,0.020106838823628386,-0.09159040935888144, ,0.0017353938481075772, ,0.01676197023922141,8.673752277630676e-05,-0.047617966741475524,0.05117817356899637,0.04363953924568949,-0.021293592571445676, ,0.05048209510599447, ,0.06725600353347558, ,0.000758297565435542, ,0.19777918890888968,-0.21750304866965908,0.10172117259,1.6745838886674116,0.5332922585845141,-1.2693757661432572, ,0.08918885484818684,0.11283821826215314,0.049011727753846164,-0.026868472892832975,0.13881664057743553,-0.168653758071168, ,1.2612981796264648
0.013495399454098793,0.020743623105493693,-0.09075790858050697, ,0.014333091232123311,0.020096812129495833,-0.09176942731453136, ,0.0014639884230838297, ,0.01676197023922141,8.673752277630676e-05,-0.047617966741475524,0.05117817356899637,0.04363953924568949,-0.021293592571445676, ,0.05048209510599447, ,0.06725600353347558, ,0.0007677067768708526, ,0.19777918890888968,-0.21750304866965908,0.10172117259,1.6745838886674116,0.5332922585845141,-1.2693757661432572, ,0.08918885484818684,0.11283821826215314,0.049011727753846164,-0.026868472892832975,0.13881664057743553,-0.168653758071168, ,1.2661991119384766
0.013495399454098793,0.020743623105493693,-0.09075790858050697, ,0.014405951043714473,0.020086750253783286,-0.0919480720868816, ,0.0016361770419400703, ,0.01676197023922141,8.673752277630676e-05,-0.047617966741475524,0.05117817356899637,0.04363953924568949,-0.021293592571445676, ,0.05048209510599447, ,0.06725600353347558, ,0.0007791340172007107, ,0.19777918890888968,-0.21750304866965908,0.10172117259,1.6745838886674116,0.5332922585845141,-1.2693757661432572, ,0.08918885484818684,0.11283821826215314,0.049011727753846164,-0.026868472892832975,0.13881664057743553,-0.168653758071168, ,1.2699470520019531
0.01367192256605268,0.020735041150176017,-0.09123535417333625, ,0.014479070594782935,0.02007665590569541,-0.09212633722328933, ,0.0013706968540624215, ,0.016718979915625765,-0.0016548379239502268,-0.04328635657309079,0.0037479418495615997,0.021154915038383505,-0.03851148308354324, ,0.04643243955842081, ,0.02148081770635844, ,0.000786816651445668, ,0.19874453051816776,-0.2162751341426574,0.10221117021000001,1.674374198723927,0.5345219870824031,-1.2707052422370873, ,0.09499193349196275,0.12104201729396784,0.044369948523676886,0.0,0.11672527168234587,-0.12272876909021978, ,1.273672103881836
0.01367192256605268,0.020735041150176017,-0.09123535417333625, ,0.014552445797354477,0.02006653178000062,-0.09230421632151126, ,0.0015377555822287702, ,0.016718979915625765,-0.0016548379239502268,-0.04328635657309079,0.0037479418495615997,0.021154915038383505,-0.03851148308354324, ,0.04643243955842081, ,0.02148081770635844, ,0.0007964440736351949, ,0.19874453051816776,-0.2162751341426574,0.10221117021000001,1.674374198723927,0.5345219870824031,-1.2707052422370873, ,0.09499193349196275,0.12104201729396784,0.044369948523676886,0.0,0.11672527168234587,-0.12272876909021978, ,1.2774219512939453
0.01367192256605268,0.020735041150176017,-0.09123535417333625, ,0.014626072587041915,0.020056380557059068,-0.09248170302958765, ,0.0017100783416799283, ,0.016807361071196018,-0.003820013420069109,-0.040445249576131125,-0.035135825625562604,-0.02356987367808035,0.09997609615057143, ,0.043964737028470875, ,0.04230788295457059, ,0.0008080090643699384, ,0.1996635357302005,-0.21510127874577528,0.10261690898,1.6733257490065043,0.5356150790805265,-1.2719233004272208, ,0.10127741895247683,0.1287611147333389,0.041159719689922485,-0.14737268163236836,0.10948735160562006,-0.12034371133301425, ,1.2819011211395264
0.013829550378912196,0.020708524048116465,-0.0916328171477257, ,0.014699946922993264,0.020046204902850494,-0.09265879104572514, ,0.0014996263646356292, ,0.016807361071196018,-0.003820013420069109,-0.040445249576131125,-0.035135825625562604,-0.02356987367808035,0.09997609615057143, ,0.043964737028470875, ,0.04230788295457059, ,0.0008166542806232595, ,0.1996635357302005,-0.21510127874577528,0.10261690898,1.6733257490065043,0.5356150790805265,-1.2719233004272208, ,0.10127741895247683,0.1287611147333389,0.041159719689922485,-0.14737268163236836,0.10948735160562006,-0.12034371133301425, ,1.2860350608825684
0.013829550378912196,0.020708524048116465,-0.0916328171477257, ,0.014774064787839998,0.02003600746900173,-0.09283547411817877, ,0.0016705597284849734, ,0.016807361071196018,-0.003820013420069109,-0.040445249576131125,-0.035135825625562604,-0.02356987367808035,0.09997609615057143, ,0.043964737028470875, ,0.04230788295457059, ,0.0008271963231894535, ,0.1996635357302005,-0.21510127874577528,0.10261690898,1.6733257490065043,0.5356150790805265,-1.2719233004272208, ,0.10127741895247683,0.1287611147333389,0.041159719689922485,-0.14737268163236836,0.10948735160562006,-0.12034371133301425, ,1.2898290157318115
0.014003762082837755,0.02066614453511539,-0.09204789836577712, ,0.014848422187645063,0.02002579089281468,-0.09301174604513635, ,0.0014326569124766195, ,0.016941438163890935,-0.00414365043708728,-0.04066811474084912,-0.0345602023133209,-0.0025863436619656703,0.026040601115386645, ,0.04425017200622596, ,0.03465523791742914, ,0.0008345799889124678, ,0.20072155013396922,-0.21371890956128908,0.10303949952000001,1.6724869892325662,0.5368448075784156,-1.2730894190407698, ,0.10116944729048058,0.1353736684143663,0.04137353641558442,-0.06769921787247592,0.11351237410793355,-0.11133147322697087, ,1.2938439846038818
0.014003762082837755,0.02066614453511539,-0.09204789836577712, ,0.014923015151851342,0.020015557797294352,-0.09318760067460143, ,0.001602251747091877, ,0.016941438163890935,-0.00414365043708728,-0.04066811474084912,-0.0345602023133209,-0.0025863436619656703,0.026040601115386645, ,0.04425017200622596, ,0.03465523791742914, ,0.0008438290462399304, ,0.20072155013396922,-0.21371890956128908,0.10303949952000001,1.6724869892325662,0.5368448075784156,-1.2730894190407698, ,0.10116944729048058,0.1353736684143663,0.04137353641558442,-0.06769921787247592,0.11351237410793355,-0.11133147322697087, ,1.2976901531219482
0.014181212565011661,0.020624730593248538,-0.09247265518691185, ,0.014997839733229674,0.020005310791176012,-0.09336303190427521, ,0.001357693456526212, ,0.01749602481085625,-0.004354893507825992,-0.04153981100929624,-0.02236478574468895,0.02563236941729894,-0.03777542543375566, ,0.045283903104024185, ,0.034015853903299365, ,0.0008499464796957195, ,0.201779564537738,-0.212305649445306,0.10347246038,1.6722772992890815,0.5380745360763045,-1.2743372163944593, ,0.10532401948775891,0.14184894104405196,0.04236386042553192,0.0,0.13192225911330654,-0.11588979338270818, ,1.3023021221160889
0.014181212565011661,0.020624730593248538,-0.09247265518691185, ,0.015072892007827035,0.01999505246895353,-0.0935380336814409, ,0.001525325573626888, ,0.01749602481085625,-0.004354893507825992,-0.04153981100929624,-0.02236478574468895,0.02563236941729894,-0.03777542543375566, ,0.045283903104024185, ,0.034015853903299365, ,0.0008578921160949098, ,0.201779564537738,-0.212305649445306,0.10347246038,1.6722772992890815,0.5380745360763045,-1.2743372163944593, ,0.10532401948775891,0.14184894104405196,0.04236386042553192,0.0,0.13192225911330654,-0.11588979338270818, ,1.3061599731445312
0.014181212565011661,0.020624730593248538,-0.09247265518691185, ,0.015148168074914824,0.019984785410907188,-0.09371260000284595, ,0.0016976442327813713, ,0.01749602481085625,-0.004354893507825992,-0.04153981100929624,-0.02236478574468895,0.02563236941729894,-0.03777542543375566, ,0.045283903104024185, ,0.034015853903299365, ,0.0008676566755912641, ,0.201779564537738,-0.212305649445306,0.10347246038,1.6722772992890815,0.5380745360763045,-1.2743372163944593, ,0.10532401948775891,0.14184894104405196,0.04236386042553192,0.0,0.13192225911330654,-0.11588979338270818, ,1.3098349571228027
0.014354245667187605,0.020580167612128497,-0.0928790626873241, ,0.015223664056936915,0.019974512183130802,-0.09388672491458562, ,0.001462220913322715, ,0.018272138896526215,-0.004739165236973879,-0.04268393985776568,-0.0189805764864297,0.01740652825129324,-0.04050473081308823, ,0.04667172022519253, ,0.02575088008146187, ,0.0008744907472893267, ,0.20282985620863253,-0.21089238932932292,0.10388727318000002,1.6724869892325662,0.5394409010739589,-1.2754513954314235, ,0.10970744688840552,0.14712704117592368,0.04352134295081967,-0.0029286516050918226,0.12840940943699342,-0.12575547790555344, ,1.313608169555664
0.014354245667187605,0.020580167612128497,-0.0928790626873241, ,0.01529937609945803,0.019964235337560483,-0.09406040251198597, ,0.0016334649926430455, ,0.018272138896526215,-0.004739165236973879,-0.04268393985776568,-0.0189805764864297,0.01740652825129324,-0.04050473081308823, ,0.04667172022519253, ,0.02575088008146187, ,0.0008831154546228917, ,0.20282985620863253,-0.21089238932932292,0.10388727318000002,1.6724869892325662,0.5394409010739589,-1.2754513954314235, ,0.10970744688840552,0.14712704117592368,0.04352134295081967,-0.0029286516050918226,0.12840940943699342,-0.12575547790555344, ,1.3174071311950684
0.014544466127086646,0.020530823335107518,-0.09331763969740066, ,0.015375300371111778,0.01995395741200157,-0.09423362693948624, ,0.0013645850878377793, ,0.01941577061979528,-0.004915761559336568,-0.04448467550466803,-0.05930516206622721,-0.012136604851358741,0.015792167917976274, ,0.04878548160287412, ,0.0605328441709248, ,0.0008885252257826095, ,0.20397282067401776,-0.2094096246174718,0.10433449323,1.6718579194021128,0.5406706295718479,-1.2766991927851128, ,0.11586928151217434,0.14920902760765847,0.045381229401709404,-0.05516362883170889,0.11614899524143567,-0.09685218470224745, ,1.3220629692077637
0.014544466127086646,0.020530823335107518,-0.09331763969740066, ,0.015451433063548965,0.019943680930156808,-0.09440639239052359, ,0.0015338538568943222, ,0.01941577061979528,-0.004915761559336568,-0.04448467550466803,-0.05930516206622721,-0.012136604851358741,0.015792167917976274, ,0.04878548160287412, ,0.0605328441709248, ,0.000895695543906073, ,0.20397282067401776,-0.2094096246174718,0.10433449323,1.6718579194021128,0.5406706295718479,-1.2766991927851128, ,0.11586928151217434,0.14920902760765847,0.045381229401709404,-0.05516362883170889,0.11614899524143567,-0.09685218470224745, ,1.3261990547180176
0.014544466127086646,0.020530823335107518,-0.09331763969740066, ,0.015527770391385674,0.019933408401654154,-0.09457869310741383, ,0.0017070581659122208, ,0.01941577061979528,-0.004915761559336568,-0.04448467550466803,-0.05930516206622721,-0.012136604851358741,0.015792167917976274, ,0.04878548160287412, ,0.0605328441709248, ,0.0009046116166753714, ,0.20397282067401776,-0.2094096246174718,0.10433449323,1.6718579194021128,0.5406706295718479,-1.2766991927851128, ,0.11586928151217434,0.14920902760765847,0.045381229401709404,-0.05516362883170889,0.11614899524143567,-0.09685218470224745, ,1.3300609588623047
0.014757611399642382,0.020475263417211727,-0.09379379788864255, ,0.015604308592151474,0.0199231423220744,-0.0947505233812366, ,0.0013917821336968503, ,0.020519890622150896,-0.004938581998945249,-0.04565169072964156,-0.040236079965458124,-0.025617868239208245,0.033098608625032215, ,0.05029445665061094, ,0.047697159471321846, ,0.0009099069483821267, ,0.20526251706401324,-0.20781101891250733,0.10482060198000001,1.6708094696846902,0.5419003580697368,-1.2777836326585212, ,0.12356372598759216,0.14944400245428469,0.04671205724340176,-0.08322154742089481,0.11535736412805943,-0.12350390080164786, ,1.3337721824645996
0.014757611399642382,0.020475263417211727,-0.09379379788864255, ,0.015681043926237724,0.019912885172979136,-0.09492187755171747, ,0.0015625494062600422, ,0.020519890622150896,-0.004938581998945249,-0.04565169072964156,-0.040236079965458124,-0.025617868239208245,0.033098608625032215, ,0.05029445665061094, ,0.047697159471321846, ,0.0009169246092195235, ,0.20526251706401324,-0.20781101891250733,0.10482060198000001,1.6708094696846902,0.5419003580697368,-1.2777836326585212, ,0.12356372598759216,0.14944400245428469,0.04671205724340176,-0.08322154742089481,0.11535736412805943,-0.12350390080164786, ,1.3374590873718262
0.014958450246866858,0.02042817617905097,-0.09422595876709637, ,0.01575797267684568,0.019902639421938324,-0.09509275000711087, ,0.001291027518251098, ,0.02092046536952897,-0.005273434412687743,-0.04424208873541652,-0.04171305275837787,-0.023053674296774986,-0.0033366620279331534, ,0.04922232620930313, ,0.04765796015066851, ,0.0009209044274007105, ,0.20526251706401324,-0.20781101891250733,0.10482060198000001,1.6708094696846902,0.5419003580697368,-1.2777836326585212, ,0.12356372598759216,0.14944400245428469,0.04671205724340176,-0.08322154742089481,0.11535736412805943,-0.12350390080164786, ,1.3419909477233887
0.014958450246866858,0.02042817617905097,-0.09422595876709637, ,0.015835091149934612,0.019892407522558213,-0.09526313518408376, ,0.0014598911761382432, ,0.02092046536952897,-0.005273434412687743,-0.04424208873541652,-0.04171305275837787,-0.023053674296774986,-0.0033366620279331534, ,0.04922232620930313, ,0.04765796015066851, ,0.0009265779721242635, ,0.20649043159101493,-0.20635914513215312,0.10526393316000002,1.6708094696846902,0.5429934500678604,-1.2788383333683737, ,0.12928738631944245,0.15063006596582662,0.045381229401709404,-0.04260060539340725,0.11543309396973059,-0.11456121247909107, ,1.3460400104522705
0.014958450246866858,0.02042817617905097,-0.09422595876709637, ,0.01591239567417018,0.019882191914509205,-0.09543302756759825, ,0.0016325212968121355, ,0.02092046536952897,-0.005273434412687743,-0.04424208873541652,-0.04171305275837787,-0.023053674296774986,-0.0033366620279331534, ,0.04922232620930313, ,0.04765796015066851, ,0.0009339315484230955, ,0.20649043159101493,-0.20635914513215312,0.10526393316000002,1.6708094696846902,0.5429934500678604,-1.2788383333683737, ,0.12928738631944245,0.15063006596582662,0.045381229401709404,-0.04260060539340725,0.11543309396973059,-0.11456121247909107, ,1.3497810363769531
0.01517292669869032,0.02037343857016151,-0.09468142398582399, ,0.015989882600872467,0.01987199502355311,-0.09560242169079461, ,0.0013293228912143941, ,0.02106131971741731,-0.005247936287322376,-0.04399965284429455,-0.00796046040825354,-0.007182857250340518,-0.05167190988890596, ,0.04906209814035172, ,0.010714357585590624, ,0.0009380077478333151, ,0.20781874164538156,-0.20479915309155977,0.10573189385000001,1.6705997797412053,0.5443598150655148,-1.2802792273659, ,0.1303529417011961,0.15063006596582662,0.04525230545454546,0.0,0.12326686454527269,-0.14085625942659943, ,1.3535840511322021
0.01517292669869032,0.02037343857016151,-0.09468142398582399, ,0.016067548303964285,0.019861819261571982,-0.09577131213487498, ,0.0014999861035977587, ,0.02106131971741731,-0.005247936287322376,-0.04399965284429455,-0.00796046040825354,-0.007182857250340518,-0.05167190988890596, ,0.04906209814035172, ,0.010714357585590624, ,0.0009437422208513197, ,0.20781874164538156,-0.20479915309155977,0.10573189385000001,1.6705997797412053,0.5443598150655148,-1.2802792273659, ,0.1303529417011961,0.15063006596582662,0.04525230545454546,0.0,0.12326686454527269,-0.14085625942659943, ,1.357375144958496
0.01517292669869032,0.02037343857016151,-0.09468142398582399, ,0.016145389179919218,0.019851667026594653,-0.09593969352898583, ,0.0016736699388836232, ,0.021349676454907027,-0.005097813979349502,-0.04465544546937515,-0.016211154835760883,-0.005437810118702142,-0.02763000322736009, ,0.04975846864771463, ,0.017093675700656695, ,0.0009511152281041712, ,0.20912388350112548,-0.20330094291396023,0.10619078051000001,1.6701803998542366,0.5455895435634037,-1.2813636672393085, ,0.13125441432706886,0.1482764711851106,0.04603702751445087,-0.02081012186855551,0.1304327633719382,-0.13371741683092134, ,1.3619401454925537
0.015385462892569314,0.020320410065593007,-0.09512759839142168, ,0.01622340164770997,0.01984154070282539,-0.09610756055010118, ,0.0013754210469554132, ,0.021349676454907027,-0.005097813979349502,-0.04465544546937515,-0.016211154835760883,-0.005437810118702142,-0.02763000322736009, ,0.04975846864771463, ,0.017093675700656695, ,0.0009553582862926836, ,0.20912388350112548,-0.20330094291396023,0.10619078051000001,1.6701803998542366,0.5455895435634037,-1.2813636672393085, ,0.13125441432706886,0.1482764711851106,0.04603702751445087,-0.02081012186855551,0.1304327633719382,-0.13371741683092134, ,1.366042137145996
0.015385462892569314,0.020320410065593007,-0.09512759839142168, ,0.016301582148756516,0.01983144266067123,-0.09627490792290552, ,0.0015474762601302165, ,0.021349676454907027,-0.005097813979349502,-0.04465544546937515,-0.016211154835760883,-0.005437810118702142,-0.02763000322736009, ,0.04975846864771463, ,0.017093675700656695, ,0.0009612208404890948, ,0.20912388350112548,-0.20330094291396023,0.10619078051000001,1.6701803998542366,0.5455895435634037,-1.2813636672393085, ,0.13125441432706886,0.1482764711851106,0.04603702751445087,-0.02081012186855551,0.1304327633719382,-0.13371741683092134, ,1.3699100017547607
0.015590036603517043,0.02026867702529272,-0.09555692402186743, ,0.016379927146874283,0.019821375256770083,-0.09644173041967793, ,0.0012676309810883775, ,0.02101954888081073,-0.005064737698342997,-0.04424776461481604,-0.01855105177758893,-0.021289534844635697,0.06500393976864625, ,0.049247717475168075, ,0.028235017335154676, ,0.0009642248614753624, ,0.21037496622674987,-0.20189540553085136,0.10663281540000001,1.669131950136814,0.5468192720612927,-1.282611464592998, ,0.12806604798714005,0.14100585669906504,0.04564129375358167,-0.12025619270605703,0.1309567851304089,-0.1453802315506718, ,1.373708963394165
0.015590036603517043,0.02026867702529272,-0.09555692402186743, ,0.01645843312822227,0.019811340834018126,-0.0966080228601735, ,0.0014380812507845502, ,0.02101954888081073,-0.005064737698342997,-0.04424776461481604,-0.01855105177758893,-0.021289534844635697,0.06500393976864625, ,0.049247717475168075, ,0.028235017335154676, ,0.0009688254089443837, ,0.21037496622674987,-0.20189540553085136,0.10663281540000001,1.669131950136814,0.5468192720612927,-1.282611464592998, ,0.12806604798714005,0.14100585669906504,0.04564129375358167,-0.12025619270605703,0.1309567851304089,-0.1453802315506718, ,1.3774371147155762
0.015590036603517043,0.02026867702529272,-0.09555692402186743, ,0.01653709660125145,0.019801341721597986,-0.09677378011150754, ,0.0016112304826691865, ,0.02101954888081073,-0.005064737698342997,-0.04424776461481604,-0.01855105177758893,-0.021289534844635697,0.06500393976864625, ,0.049247717475168075, ,0.028235017335154676, ,0.0009750023808071222, ,0.21037496622674987,-0.20189540553085136,0.10663281540000001,1.669131950136814,0.5468192720612927,-1.282611464592998, ,0.12806604798714005,0.14100585669906504,0.04564129375358167,-0.12025619270605703,0.1309567851304089,-0.1453802315506718, ,1.3811390399932861
0.01580281177931833,0.020222158222541278,-0.09600421523999493, ,0.01661591409665268,0.019791380235006033,-0.09693899708803835, ,0.001311686760027289, ,0.020998766644441197,-0.004599236823084114,-0.04392179823014793,-0.0185117631710638,-0.02134343509458201,-0.004138506000998493, ,0.04890015889250601, ,0.028250029052245267, ,0.000978208898704457, ,0.21166466261674535,-0.20047442268199406,0.10709559093000001,1.6689222601933293,0.5481856370589472,-1.2838073223701028, ,0.1255250549715222,0.13793160110242844,0.045381229401709404,-0.0452846535430297,0.11322746161739496,-0.127001283247512, ,1.3863270282745361
0.01580281177931833,0.020222158222541278,-0.09600421523999493, ,0.016694882167305136,0.01978145867608055,-0.09710366875125054, ,0.0014828363668274083, ,0.020998766644441197,-0.004599236823084114,-0.04392179823014793,-0.0185117631710638,-0.02134343509458201,-0.004138506000998493, ,0.04890015889250601, ,0.028250029052245267, ,0.000982969535196183, ,0.21166466261674535,-0.20047442268199406,0.10709559093000001,1.6689222601933293,0.5481856370589472,-1.2838073223701028, ,0.1255250549715222,0.13793160110242844,0.045381229401709404,-0.0452846535430297,0.11322746161739496,-0.127001283247512, ,1.3908171653747559
0.016013902571306915,0.020178799275170644,-0.09643451869715577, ,0.016773997388224434,0.019771579333029598,-0.09726779010963785, ,0.0011991302926880392, ,0.020732130737885504,-0.004237750544028401,-0.04259161528885196,-0.0339741473337054,-0.025482797477711018,-0.01247070138324241, ,0.0475586529195241, ,0.0424673462260451, ,0.000984989729191434, ,0.2129389135409924,-0.19912294442900474,0.10754151469,1.6689222601933293,0.5492787290570706,-1.2847803443398147, ,0.12372482602147429,0.13125441432706886,0.044124131634349036,-0.02806247630587428,0.10419878249999882,-0.1003815691301307, ,1.3946051597595215
0.016013902571306915,0.020178799275170644,-0.09643451869715577, ,0.016853256356510755,0.019761744480458213,-0.09743135621858598, ,0.0013682596693097978, ,0.020732130737885504,-0.004237750544028401,-0.04259161528885196,-0.0339741473337054,-0.025482797477711018,-0.01247070138324241, ,0.0475586529195241, ,0.0424673462260451, ,0.0009885385249332706, ,0.2129389135409924,-0.19912294442900474,0.10754151469,1.6689222601933293,0.5492787290570706,-1.2847803443398147, ,0.12372482602147429,0.13125441432706886,0.044124131634349036,-0.02806247630587428,0.10419878249999882,-0.1003815691301307, ,1.3983190059661865
0.01622907131059717,0.02013330574375015,-0.09686140761803427, ,0.016932655691297163,0.019751956379396775,-0.09759436218025654, ,0.0010852099837082882, ,0.02012124991195643,-0.004316456303786461,-0.039047718365222354,-0.057274699871355174,-0.05995443458130527,-0.03564724588180919, ,0.04413865429044737, ,0.08291462291899024, ,0.0009894254190504724, ,0.2142286099309879,-0.19777918890888968,0.10798354958,1.6687125702498449,0.5500985480556632,-1.2856122092422742, ,0.12058061189132248,0.12486439678746157,0.040428455634517774,0.0,0.060723727881612864,-0.06528135170088976, ,1.4028761386871338
0.01622907131059717,0.02013330574375015,-0.09686140761803427, ,0.017012192033697707,0.01974221727732841,-0.09775680314346903, ,0.0012521826554006414, ,0.02012124991195643,-0.004316456303786461,-0.039047718365222354,-0.057274699871355174,-0.05995443458130527,-0.03564724588180919, ,0.04413865429044737, ,0.08291462291899024, ,0.0009918141211991104, ,0.2142286099309879,-0.19777918890888968,0.10798354958,1.6687125702498449,0.5500985480556632,-1.2856122092422742, ,0.12058061189132248,0.12486439678746157,0.040428455634517774,0.0,0.060723727881612864,-0.06528135170088976, ,1.4068310260772705
0.01622907131059717,0.02013330574375015,-0.09686140761803427, ,0.01709186204675565,0.019732529408216862,-0.09791867430358495, ,0.001422266631085637, ,0.02012124991195643,-0.004316456303786461,-0.039047718365222354,-0.057274699871355174,-0.05995443458130527,-0.03564724588180919, ,0.04413865429044737, ,0.08291462291899024, ,0.0009956920717386286, ,0.2142286099309879,-0.19777918890888968,0.10798354958,1.6687125702498449,0.5500985480556632,-1.2856122092422742, ,0.12058061189132248,0.12486439678746157,0.040428455634517774,0.0,0.060723727881612864,-0.06528135170088976, ,1.4105710983276367
0.016429862611365923,0.020086208035358606,-0.0972464303965843, ,0.017171662415391697,0.019722894992534414,-0.09807997090239026, ,0.0011734790544181465, ,0.019715743464919635,-0.004474412449753143,-0.03751275854970253,-0.0392232534687675,-0.029000675624930538,-0.014109318107910301, ,0.042613823592272344, ,0.048779386173098314, ,0.0009972794555125528, ,0.2154565244579896,-0.19653582891613955,0.10838280690000002,1.6680835004193915,0.5509183670542559,-1.286444074144734, ,0.12181892369508443,0.12166274558778303,0.03904120470588236,-0.020330407224111353,0.09735464107981794,-0.08357550801150468, ,1.4142730236053467
0.016429862611365923,0.020086208035358606,-0.0972464303965843, ,0.01725158984635217,0.019713316237289318,-0.09824068822797842, ,0.0013426960106718217, ,0.019715743464919635,-0.004474412449753143,-0.03751275854970253,-0.0392232534687675,-0.029000675624930538,-0.014109318107910301, ,0.042613823592272344, ,0.048779386173098314, ,0.0010003362391865285, ,0.2154565244579896,-0.19653582891613955,0.10838280690000002,1.6680835004193915,0.5509183670542559,-1.286444074144734, ,0.12181892369508443,0.12166274558778303,0.03904120470588236,-0.020330407224111353,0.09735464107981794,-0.08357550801150468, ,1.418006181716919
0.01661249144888084,0.020043031930066367,-0.09759925751980643, ,0.017331641068157155,0.019703795336054108,-0.0984008216146341, ,0.0011290538692813662, ,0.019715743464919635,-0.004474412449753143,-0.03751275854970253,-0.0392232534687675,-0.029000675624930538,-0.014109318107910301, ,0.042613823592272344, ,0.048779386173098314, ,0.0010014653412049044, ,0.21657632072475214,-0.195416032649377,0.10874965697000001,1.6672447406454531,0.551874822552614,-1.2873056782107497, ,0.12073402233902134,0.11460983280008549,0.03875623240875913,-0.09368588122176259,0.10837634846832452,-0.09609336704434387, ,1.4228780269622803
0.01661249144888084,0.020043031930066367,-0.09759925751980643, ,0.01741181283104885,0.019694334468992842,-0.0985603664427157, ,0.0012977807800418027, ,0.01949479238709209,-0.004265530474775652,-0.037130685041436795,-0.03549617779070293,-0.031053593168302526,0.05556843083853119, ,0.04215364103008709, ,0.047161782294026754, ,0.0010040419971947905, ,0.21657632072475214,-0.195416032649377,0.10874965697000001,1.6672447406454531,0.551874822552614,-1.2873056782107497, ,0.12073402233902134,0.11460983280008549,0.03875623240875913,-0.09368588122176259,0.10837634846832452,-0.09609336704434387, ,1.4274280071258545
0.01661249144888084,0.020043031930066367,-0.09759925751980643, ,0.017492101906939613,0.01968493580288884,-0.09871931813853835, ,0.0014684969131258125, ,0.01949479238709209,-0.004265530474775652,-0.037130685041436795,-0.03549617779070293,-0.031053593168302526,0.05556843083853119, ,0.04215364103008709, ,0.047161782294026754, ,0.001008045918883851, ,0.21657632072475214,-0.195416032649377,0.10874965697000001,1.6672447406454531,0.551874822552614,-1.2873056782107497, ,0.12073402233902134,0.11460983280008549,0.03875623240875913,-0.09368588122176259,0.10837634846832452,-0.09609336704434387, ,1.4311511516571045
0.016814672291928248,0.020008115280278443,-0.09798632652986732, ,0.017572505089360202,0.01967560149117294,-0.09887767217425765, ,0.0012162947942758204, ,0.019485544124641745,-0.0031860320114964896,-0.03743943800255669,-0.006033668732143187,-0.03266433098265938,0.00392159842823688, ,0.04232669072534406, ,0.03321581123631714, ,0.001009825823801731, ,0.21781195798462807,-0.19427306818399176,0.10915539574000001,1.6672447406454531,0.5529679145507375,-1.2885237364008832, ,0.11759224480603565,0.10603010229996734,0.03923352591133005,-0.04566696830254379,0.09365413712952268,-0.10857834794220236, ,1.4349300861358643
0.016814672291928248,0.020008115280278443,-0.09798632652986732, ,0.01765301919340807,0.019666333673951247,-0.09903542406775244, ,0.001385729352233345, ,0.019485544124641745,-0.0031860320114964896,-0.03743943800255669,-0.006033668732143187,-0.03266433098265938,0.00392159842823688, ,0.04232669072534406, ,0.03321581123631714, ,0.0010130114469240328, ,0.21781195798462807,-0.19427306818399176,0.10915539574000001,1.6672447406454531,0.5529679145507375,-1.2885237364008832, ,0.11759224480603565,0.10603010229996734,0.03923352591133005,-0.04566696830254379,0.09365413712952268,-0.10857834794220236, ,1.4386401176452637
0.016814672291928248,0.020008115280278443,-0.09798632652986732, ,0.017733641055695415,0.019657134478032003,-0.0991925693825072, ,0.0015565066436961064, ,0.019485544124641745,-0.0031860320114964896,-0.03743943800255669,-0.006033668732143187,-0.03266433098265938,0.00392159842823688, ,0.04232669072534406, ,0.03321581123631714, ,0.0010175786334515292, ,0.21781195798462807,-0.19427306818399176,0.10915539574000001,1.6672447406454531,0.5529679145507375,-1.2885237364008832, ,0.11759224480603565,0.10603010229996734,0.03923352591133005,-0.04566696830254379,0.09365413712952268,-0.10857834794220236, ,1.4423611164093018
0.017012506806695398,0.01998230926618427,-0.0983725925164341, ,0.017814367534297514,0.01964800601695456,-0.09934910372749645, ,0.001307024649441084, ,0.019951399738461655,-0.002310978775812417,-0.03973100841668774,-0.008173514193827587,-0.034370157510993274,-0.009020618692638637, ,0.04451911953569, ,0.035327256597444415, ,0.0010199906835847755, ,0.21898581338151019,-0.19323049924597147,0.10956113451,1.6672447406454531,0.5539243700490956,-1.2895486979471797, ,0.11558701773260752,0.10193011982649922,0.0416984594764398,-0.029471760839297353,0.08684995273044518,-0.09879148465969997, ,1.4469070434570312
0.017012506806695398,0.01998230926618427,-0.0983725925164341, ,0.01789519550870085,0.01963895039101648,-0.09950502275706674, ,0.0014762902532035722, ,0.019951399738461655,-0.002310978775812417,-0.03973100841668774,-0.008173514193827587,-0.034370157510993274,-0.009020618692638637, ,0.04451911953569, ,0.035327256597444415, ,0.0010237617544080714, ,0.21898581338151019,-0.19323049924597147,0.10956113451,1.6672447406454531,0.5539243700490956,-1.2895486979471797, ,0.11558701773260752,0.10193011982649922,0.0416984594764398,-0.029471760839297353,0.08684995273044518,-0.09879148465969997, ,1.4506251811981201
0.017207662801878743,0.019966019403246132,-0.09876506311394327, ,0.01797612187975137,0.019629969687301064,-0.09966032217082031, ,0.001226763035338112, ,0.020691771775474804,-0.0011629456589359278,-0.04212203975941111,-0.008515601594325775,-0.058311062760938726,-0.03877559252400232, ,0.04694430844423405, ,0.058928455857689896, ,0.0010254256993337274, ,0.2200901641825243,-0.19228832583531608,0.10997335473000001,1.6670350507019687,0.5546075525479227,-1.2903508236860837, ,0.11405882398854661,0.0959524181582111,0.044246698666666674,0.0,0.05523066698834776,-0.08729819239320447, ,1.4546380043029785
0.017207662801878743,0.019966019403246132,-0.09876506311394327, ,0.018057143569602675,0.019621065979705962,-0.09981499771349824, ,0.0013939057007156432, ,0.020691771775474804,-0.0011629456589359278,-0.04212203975941111,-0.008515601594325775,-0.058311062760938726,-0.03877559252400232, ,0.04694430844423405, ,0.058928455857689896, ,0.001028421471702686, ,0.2200901641825243,-0.19228832583531608,0.10997335473000001,1.6670350507019687,0.5546075525479227,-1.2903508236860837, ,0.11405882398854661,0.0959524181582111,0.044246698666666674,0.0,0.05523066698834776,-0.08729819239320447, ,1.4584569931030273
0.017421709709240715,0.019953776870466965,-0.09920273453483752, ,0.018138257521664116,0.019612241328970163,-0.09996904517486263, ,0.0011033219342558031, ,0.020330271745366734,-0.0005843598976022399,-0.04245050823493626,0.003909217105884801,-0.03632543201215181,-0.016232852069902794, ,0.04707129778468801, ,0.03653328806453367, ,0.0010290255076910177, ,0.22127174231228064,-0.191322984226038,0.11043353768000001,1.6664059808715153,0.55529073504675,-1.2912346281651281, ,0.11060249598889368,0.08927275781605906,0.04474385258426967,-0.020641422520227378,0.07797474144562704,-0.09703660991615236, ,1.4632999897003174
0.017421709709240715,0.019953776870466965,-0.09920273453483752, ,0.01821946070054918,0.01960349778270201,-0.10012246038958154, ,0.001266885050564459, ,0.020330271745366734,-0.0005843598976022399,-0.04245050823493626,0.003909217105884801,-0.03632543201215181,-0.016232852069902794, ,0.04707129778468801, ,0.03653328806453367, ,0.0010309283840340053, ,0.22127174231228064,-0.191322984226038,0.11043353768000001,1.6664059808715153,0.55529073504675,-1.2912346281651281, ,0.11060249598889368,0.08927275781605906,0.04474385258426967,-0.020641422520227378,0.07797474144562704,-0.09703660991615236, ,1.4671690464019775
0.017421709709240715,0.019953776870466965,-0.09920273453483752, ,0.018300750092023685,0.019594837375407303,-0.1002752392371099, ,0.0014324161029789088, ,0.020330271745366734,-0.0005843598976022399,-0.04245050823493626,0.003909217105884801,-0.03632543201215181,-0.016232852069902794, ,0.04707129778468801, ,0.03653328806453367, ,0.001034114794501822, ,0.22127174231228064,-0.191322984226038,0.11043353768000001,1.6664059808715153,0.55529073504675,-1.2912346281651281, ,0.11060249598889368,0.08927275781605906,0.04474385258426967,-0.020641422520227378,0.07797474144562704,-0.09703660991615236, ,1.4708449840545654
0.017633348551012923,0.0199468044515913,-0.0996429628757919, ,0.018382122702953706,0.01958626212851633,-0.10042737764157411, ,0.0011427860788967026, ,0.02011040612122595,-0.000514589664864464,-0.04202199975503151,0.026786824660794507,-0.01014920692858756,0.030679285849760398, ,0.046589072756341644, ,0.028642788670342905, ,0.001034970473906506, ,0.22244559770916278,-0.19041942447975374,0.11089890579000002,1.665567221097577,0.5563838270448734,-1.2924526863552614, ,0.11138138680571688,0.08488098529380213,0.044493886927374306,-0.07121995948403423,0.11462610484562803,-0.12648934388411542, ,1.4745230674743652
0.017633348551012923,0.0199468044515913,-0.0996429628757919, ,0.01846357556125419,0.019577774050412427,-0.10057887157165465, ,0.0013043716542917954, ,0.02011040612122595,-0.000514589664864464,-0.04202199975503151,0.026786824660794507,-0.01014920692858756,0.030679285849760398, ,0.046589072756341644, ,0.028642788670342905, ,0.001037075170628266, ,0.22244559770916278,-0.19041942447975374,0.11089890579000002,1.665567221097577,0.5563838270448734,-1.2924526863552614, ,0.11138138680571688,0.08488098529380213,0.044493886927374306,-0.07121995948403423,0.11462610484562803,-0.12648934388411542, ,1.4783480167388916
0.01783739854396567,0.019943845644824817,-0.10005996868471105, ,0.018545105715836868,0.019569375136459108,-0.10072971704046939, ,0.0010438584495967834, ,0.02011040612122595,-0.000514589664864464,-0.04202199975503151,0.026786824660794507,-0.01014920692858756,0.030679285849760398, ,0.046589072756341644, ,0.028642788670342905, ,0.0010371277541861615, ,0.22357311670879956,-0.18957764659646326,0.11134094068000001,1.6653575311540925,0.5573402825432316,-1.2935593266416987, ,0.1120388920406975,0.08166690323448432,0.04213971301587302,0.0034255289412770252,0.1016792227286383,-0.09064853084115128, ,1.482957124710083
0.01783739854396567,0.019943845644824817,-0.10005996868471105, ,0.018626710236558538,0.01956106736902826,-0.10087991010545595, ,0.0012007647937621975, ,0.01987637802830946,-0.0003533440088571813,-0.03963206439562809,0.01166803676560232,-0.010080259291128265,-0.03092760625534068, ,0.044338423334305314, ,0.015416125747665356, ,0.0010383865006444385, ,0.22357311670879956,-0.18957764659646326,0.11134094068000001,1.6653575311540925,0.5573402825432316,-1.2935593266416987, ,0.1120388920406975,0.08166690323448432,0.04213971301587302,0.0034255289412770252,0.1016792227286383,-0.09064853084115128, ,1.4878780841827393
0.01783739854396567,0.019943845644824817,-0.10005996868471105, ,0.01870838621416941,0.01955285271752783,-0.10102944686825593, ,0.0013606553344667014, ,0.01987637802830946,-0.0003533440088571813,-0.03963206439562809,0.01166803676560232,-0.010080259291128265,-0.03092760625534068, ,0.044338423334305314, ,0.015416125747665356, ,0.0010408465680781962, ,0.22357311670879956,-0.18957764659646326,0.11134094068000001,1.6653575311540925,0.5573402825432316,-1.2935593266416987, ,0.1120388920406975,0.08166690323448432,0.04213971301587302,0.0034255289412770252,0.1016792227286383,-0.09064853084115128, ,1.4917330741882324
0.018027792934993656,0.019939378539845204,-0.10043461157441305, ,0.0187901307602611,0.019544733138429176,-0.10117832347459706, ,0.0011357866627001811, ,0.01897400064916496,-0.00043881248362752476,-0.03674872645164639,0.023065096271365798,-0.018862278791107228,-0.038456449364783055, ,0.04136029681769988, ,0.029794583502949206, ,0.0010415658112192718, ,0.2246620220440652,-0.1887976505761666,0.11174019800000001,1.6653575311540925,0.5584333745413551,-1.2946957060916917, ,0.10771503014582383,0.07652979157941192,0.039137129041769046,0.006967184599165994,0.08745921457309005,-0.09734694451863926, ,1.4954540729522705
0.018027792934993656,0.019939378539845204,-0.10043461157441305, ,0.018871941007214944,0.019536710575295557,-0.1013265361141769, ,0.001292384169719833, ,0.01897400064916496,-0.00043881248362752476,-0.03674872645164639,0.023065096271365798,-0.018862278791107228,-0.038456449364783055, ,0.04136029681769988, ,0.029794583502949206, ,0.001043451663538825, ,0.2246620220440652,-0.1887976505761666,0.11174019800000001,1.6653575311540925,0.5584333745413551,-1.2946957060916917, ,0.10771503014582383,0.07652979157941192,0.039137129041769046,0.006967184599165994,0.08745921457309005,-0.09734694451863926, ,1.4992029666900635
0.018217729130690054,0.01993218496668518,-0.10079349149150707, ,0.01895381410815029,0.01952878695880921,-0.10147408102054543, ,0.0010806262785244484, ,0.018576859623926398,-0.0010531736837022549,-0.03391530985258303,-0.018818831648653136,-0.02866974521692346,-0.018919144302833407, ,0.03868406817659985, ,0.03429369975753686, ,0.0010437290860387178, ,0.22575092737933086,-0.1880176545558699,0.11212260355,1.665567221097577,0.5592531935399478,-1.2953642135138703, ,0.10882676784228298,0.07628371507915659,0.03620184436363637,0.0,0.08082602491168006,-0.05458200562222515, ,1.5040199756622314
0.018217729130690054,0.01993218496668518,-0.10079349149150707, ,0.019035747236872517,0.019520964206799576,-0.1016209544709886, ,0.0012340790565501373, ,0.018576859623926398,-0.0010531736837022549,-0.03391530985258303,-0.018818831648653136,-0.02866974521692346,-0.018919144302833407, ,0.03868406817659985, ,0.03429369975753686, ,0.0010451390858202837, ,0.22575092737933086,-0.1880176545558699,0.11212260355,1.665567221097577,0.5592531935399478,-1.2953642135138703, ,0.10882676784228298,0.07628371507915659,0.03620184436363637,0.0,0.08082602491168006,-0.05458200562222515, ,1.5077760219573975
0.018217729130690054,0.01993218496668518,-0.10079349149150707, ,0.019117737587821454,0.019513244224270865,-0.10176715278641149, ,0.0013905189267887194, ,0.018576859623926398,-0.0010531736837022549,-0.03391530985258303,-0.018818831648653136,-0.02866974521692346,-0.018919144302833407, ,0.03868406817659985, ,0.03429369975753686, ,0.0010476786434744632, ,0.22575092737933086,-0.1880176545558699,0.11212260355,1.665567221097577,0.5592531935399478,-1.2953642135138703, ,0.10882676784228298,0.07628371507915659,0.03620184436363637,0.0,0.08082602491168006,-0.05458200562222515, ,1.5114800930023193
0.0184021325556487,0.01991868594798089,-0.10113097650602784, ,0.01919978237601941,0.019505628903429648,-0.10191267233122031, ,0.0011907601442415546, ,0.018463779203589978,-0.0009832711912003854,-0.034035830925537254,0.005582919176712122,-0.009127206114498961,0.01149585643435747, ,0.038733909581994484, ,0.01069715862508966, ,0.0010487230339910113, ,0.2268398327145965,-0.18726082673419592,0.11248297217000001,1.6649381512671235,0.5602096490383058,-1.2963074963200265, ,0.10882676784228298,0.07379233402680464,0.03645036961098399,-0.036417494329419826,0.10705728401699918,-0.08507761662113932, ,1.5151841640472412
0.0184021325556487,0.01991868594798089,-0.10113097650602784, ,0.019281878837019522,0.019498120123713204,-0.10205750951320738, ,0.0013450994556243473, ,0.018463779203589978,-0.0009832711912003854,-0.034035830925537254,0.005582919176712122,-0.009127206114498961,0.01149585643435747, ,0.038733909581994484, ,0.01069715862508966, ,0.0010508706892202386, ,0.2268398327145965,-0.18726082673419592,0.11248297217000001,1.6649381512671235,0.5602096490383058,-1.2963074963200265, ,0.10882676784228298,0.07379233402680464,0.03645036961098399,-0.036417494329419826,0.10705728401699918,-0.08507761662113932, ,1.5189831256866455
0.018594116317797577,0.01990717795828731,-0.10148459933292187, ,0.019364024226853953,0.019490719751816585,-0.10220166078343262, ,0.0011315355716781357, ,0.018463779203589978,-0.0009832711912003854,-0.034035830925537254,0.005582919176712122,-0.009127206114498961,0.01149585643435747, ,0.038733909581994484, ,0.01069715862508966, ,0.0010514510121156192, ,0.2279673517142333,-0.18649627617964767,0.11286148885000001,1.66430908143667,0.5613027410364293,-1.2972805182897382, ,0.10983442310008192,0.07356352058796184,0.037216849345794396,-0.0871934760508634,0.1059686351403843,-0.08830448051010718, ,1.523705005645752
0.018594116317797577,0.01990717795828731,-0.10148459933292187, ,0.019446215821981968,0.01948342964172077,-0.1023451226361071, ,0.0012830185330497284, ,0.018812936993225563,-0.0011142493724720984,-0.03477299108392205,-0.002572404668672994,-0.020469778657776078,0.058699252686907455, ,0.039551599953701645, ,0.020629548311271305, ,0.001053105065836577, ,0.2279673517142333,-0.18649627617964767,0.11286148885000001,1.66430908143667,0.5613027410364293,-1.2972805182897382, ,0.10983442310008192,0.07356352058796184,0.037216849345794396,-0.0871934760508634,0.1059686351403843,-0.08830448051010718, ,1.5275781154632568
0.018594116317797577,0.01990717795828731,-0.10148459933292187, ,0.019528450919238265,0.019476251634720557,-0.10248789160847671, ,0.0014371061317731912, ,0.018812936993225563,-0.0011142493724720984,-0.03477299108392205,-0.002572404668672994,-0.020469778657776078,0.058699252686907455, ,0.039551599953701645, ,0.020629548311271305, ,0.0010558284776517304, ,0.2279673517142333,-0.18649627617964767,0.11286148885000001,1.66430908143667,0.5613027410364293,-1.2972805182897382, ,0.10983442310008192,0.07356352058796184,0.037216849345794396,-0.0871934760508634,0.1059686351403843,-0.08830448051010718, ,1.5313150882720947
0.018772650991887144,0.019902094483991183,-0.10181303321370554, ,0.019610726835781335,0.019469187559451744,-0.10262996428070456, ,0.0012478605265258294, ,0.019450400473001648,-0.0006162056257883736,-0.036536595877020746,0.00928563896955918,-0.016784512593940322,0.01806112473129209, ,0.0413959010798669, ,0.019180141948944688, ,0.0010571808160240834, ,0.2290021979193794,-0.18581667568671592,0.11321407973000001,1.66430908143667,0.5622591965347875,-1.2979787648754728, ,0.11138138680571688,0.07448739525782637,0.03885075980487805,-0.04823359068762298,0.1018036425396426,-0.09074288349982385, ,1.53513503074646
0.018772650991887144,0.019902094483991183,-0.10181303321370554, ,0.01969304090904132,0.01946223923191964,-0.10277133727575447, ,0.001399620276258339, ,0.019450400473001648,-0.0006162056257883736,-0.036536595877020746,0.00928563896955918,-0.016784512593940322,0.01806112473129209, ,0.0413959010798669, ,0.019180141948944688, ,0.001059575497564183, ,0.2290021979193794,-0.18581667568671592,0.11321407973000001,1.66430908143667,0.5622591965347875,-1.2979787648754728, ,0.11138138680571688,0.07448739525782637,0.03885075980487805,-0.04823359068762298,0.1018036425396426,-0.09074288349982385, ,1.5388410091400146
0.018772650991887144,0.019902094483991183,-0.10181303321370554, ,0.01977539049666848,0.019455408455526266,-0.10291200725927362, ,0.0015533057893754058, ,0.019450400473001648,-0.0006162056257883736,-0.036536595877020746,0.00928563896955918,-0.016784512593940322,0.01806112473129209, ,0.0413959010798669, ,0.019180141948944688, ,0.0010630041801462055, ,0.2290021979193794,-0.18581667568671592,0.11321407973000001,1.66430908143667,0.5622591965347875,-1.2979787648754728, ,0.11138138680571688,0.07448739525782637,0.03885075980487805,-0.04823359068762298,0.1018036425396426,-0.09074288349982385, ,1.5429861545562744
0.01897475509591736,0.019899879036195594,-0.10219068672285768, ,0.01985777297648136,0.01944869702109827,-0.10305197093947607, ,0.0013134292100981234, ,0.02040403641233491,-0.0002781563310429021,-0.038016439320652615,0.004391648945488253,-0.015099458093948777,0.008183021536076678, ,0.043146862359634566, ,0.015722620916497045, ,0.0010647312493182876, ,0.23015288511763884,-0.18507529333079037,0.11361981850000001,1.66430908143667,0.563352288532911,-1.2989517868451845, ,0.11586928151217434,0.07339283956571599,0.040843106461538464,-0.03240198990022817,0.10731903394830382,-0.08258047452044413, ,1.5473051071166992
0.01897475509591736,0.019899879036195594,-0.10219068672285768, ,0.019940185746415037,0.019442106706914986,-0.10319122506702605, ,0.0014637926166388951, ,0.02040403641233491,-0.0002781563310429021,-0.038016439320652615,0.004391648945488253,-0.015099458093948777,0.008183021536076678, ,0.043146862359634566, ,0.015722620916497045, ,0.00106746454635473, ,0.23015288511763884,-0.18507529333079037,0.11361981850000001,1.66430908143667,0.563352288532911,-1.2989517868451845, ,0.11586928151217434,0.07339283956571599,0.040843106461538464,-0.03240198990022817,0.10731903394830382,-0.08258047452044413, ,1.551509141921997
0.019183394273400996,0.019898875613298485,-0.10258140074318171, ,0.020022626224469257,0.01943563927873564,-0.10332976643492056, ,0.0012161206263873767, ,0.02015078856733759,-0.0002513717631268481,-0.03735365875718204,-0.003276514555955578,-0.02440803280315623,0.0016953452179327548, ,0.04244305938780619, ,0.02462549270509395, ,0.0010684758122052921, ,0.23132674051452096,-0.1843261882419906,0.11403981646000001,1.66430908143667,0.5644453805310344,-1.299843130074756, ,0.11297254947436998,0.07167442715896584,0.04012295093198993,-0.024371795054384963,0.09355320546215427,-0.07149132599054904, ,1.5553481578826904
0.019183394273400996,0.019898875613298485,-0.10258140074318171, ,0.020105091848656734,0.019429296489827663,-0.10346759187837248, ,0.0013621180938239669, ,0.02015078856733759,-0.0002513717631268481,-0.03735365875718204,-0.003276514555955578,-0.02440803280315623,0.0016953452179327548, ,0.04244305938780619, ,0.02462549270509395, ,0.0010704598816756888, ,0.23132674051452096,-0.1843261882419906,0.11403981646000001,1.66430908143667,0.5644453805310344,-1.299843130074756, ,0.11297254947436998,0.07167442715896584,0.04012295093198993,-0.024371795054384963,0.09355320546215427,-0.07149132599054904, ,1.5591061115264893
0.019183394273400996,0.019898875613298485,-0.10258140074318171, ,0.020187580076951272,0.019423080080994012,-0.10360469827469419, ,0.001510598674238907, ,0.02051019681739988,-0.0010639550330030314,-0.035835420303337855,-0.008066983611109338,-0.03170211449247622,-0.015903251573970205, ,0.041303480750629375, ,0.03271148408852176, ,0.0010734138333036297, ,0.2324774277127804,-0.18358480588606504,0.11443129604,1.6638897015497007,0.5652651995296272,-1.3005116374969345, ,0.11832536353924038,0.07696426728180923,0.038568550895883784,-0.007258481463058569,0.08840783857272887,-0.06806916396647879, ,1.5637171268463135
0.01938635695409903,0.019890899685147338,-0.10294605838138116, ,0.020270088387236065,0.019416991780601363,-0.10374108254318015, ,0.0012797004984564913, ,0.02051019681739988,-0.0010639550330030314,-0.035835420303337855,-0.008066983611109338,-0.03170211449247622,-0.015903251573970205, ,0.041303480750629375, ,0.03271148408852176, ,0.0010747890777379823, ,0.2324774277127804,-0.18358480588606504,0.11443129604,1.6638897015497007,0.5652651995296272,-1.3005116374969345, ,0.11832536353924038,0.07696426728180923,0.038568550895883784,-0.007258481463058569,0.08840783857272887,-0.06806916396647879, ,1.5679521560668945
0.01938635695409903,0.019890899685147338,-0.10294605838138116, ,0.02035261427725187,0.019411033304607403,-0.10387674164498996, ,0.0014248144773550422, ,0.02051019681739988,-0.0010639550330030314,-0.035835420303337855,-0.008066983611109338,-0.03170211449247622,-0.015903251573970205, ,0.041303480750629375, ,0.03271148408852176, ,0.0010771071267420688, ,0.2324774277127804,-0.18358480588606504,0.11443129604,1.6638897015497007,0.5652651995296272,-1.3005116374969345, ,0.11832536353924038,0.07696426728180923,0.038568550895883784,-0.007258481463058569,0.08840783857272887,-0.06806916396647879, ,1.5716259479522705
0.019590180265122076,0.01987895757093232,-0.10330577247445977, ,0.02043515526454532,0.019405206356589048,-0.1040116725830325, ,0.0011986316890625864, ,0.020366368423425953,-0.0008543037522700438,-0.0356135273062693,0.0005448092196677183,-0.022618271713488066,0.03460147153651349, ,0.04103464542132969, ,0.022623566096037342, ,0.0010779066304415458, ,0.23365900584253677,-0.18282797806439105,0.11481888675000002,1.6632606317192473,0.5663582915277506,-1.3014846594666465, ,0.1181780094127905,0.07178286048295822,0.03847539014492755,-0.06058249296699295,0.10705331110824168,-0.08383148490694006, ,1.5753400325775146
0.019590180265122076,0.01987895757093232,-0.10330577247445977, ,0.020517708886416984,0.019399512627769816,-0.10414587240184717, ,0.0013401286075752754, ,0.020366368423425953,-0.0008543037522700438,-0.0356135273062693,0.0005448092196677183,-0.022618271713488066,0.03460147153651349, ,0.04103464542132969, ,0.022623566096037342, ,0.0010796204995731388, ,0.23365900584253677,-0.18282797806439105,0.11481888675000002,1.6632606317192473,0.5663582915277506,-1.3014846594666465, ,0.1181780094127905,0.07178286048295822,0.03847539014492755,-0.06058249296699295,0.10705331110824168,-0.08383148490694006, ,1.57948899269104
0.019590180265122076,0.01987895757093232,-0.10330577247445977, ,0.020600272699869703,0.019393953797047798,-0.10427933818748886, ,0.0014843670654533063, ,0.020209286281169685,-0.0016457237506170442,-0.03332639582954199,-0.0012676527323658476,-0.024399046117820084,0.03616065742401711, ,0.039009900251666015, ,0.024431113062083093, ,0.001082248724026906, ,0.23482513850654466,-0.18211748663996238,0.11518703311000002,1.6630509417757626,0.5673147470261087,-1.3022645847925214, ,0.12104201729396784,0.07460451380382924,0.03611975401360545,-0.06330747873198674,0.1085705064100521,-0.08548065066144525, ,1.5839600563049316
0.01978990015183975,0.019869819899681573,-0.10364600220169877, ,0.020682844281556777,0.01938853153102344,-0.10441206706740956, ,0.001271158169182026, ,0.020209286281169685,-0.0016457237506170442,-0.03332639582954199,-0.0012676527323658476,-0.024399046117820084,0.03616065742401711, ,0.039009900251666015, ,0.024431113062083093, ,0.00108346749464081, ,0.23482513850654466,-0.18211748663996238,0.11518703311000002,1.6630509417757626,0.5673147470261087,-1.3022645847925214, ,0.12104201729396784,0.07460451380382924,0.03611975401360545,-0.06330747873198674,0.1085705064100521,-0.08548065066144525, ,1.5884840488433838
0.01978990015183975,0.019869819899681573,-0.10364600220169877, ,0.020765421227730164,0.019383247484027293,-0.10454405621034288, ,0.0014124075501156838, ,0.020209286281169685,-0.0016457237506170442,-0.03332639582954199,-0.0012676527323658476,-0.024399046117820084,0.03616065742401711, ,0.039009900251666015, ,0.024431113062083093, ,0.001085576084740008, ,0.23482513850654466,-0.18211748663996238,0.11518703311000002,1.6630509417757626,0.5673147470261087,-1.3022645847925214, ,0.12104201729396784,0.07460451380382924,0.03611975401360545,-0.06330747873198674,0.1085705064100521,-0.08548065066144525, ,1.592177152633667
0.020000937303858934,0.01985205670453454,-0.10398954865571379, ,0.02084800115418878,0.01937810329814768,-0.10467530282618571, ,0.0011884476346398153, ,0.019621364908613534,-0.0016831837746688807,-0.031499979134140474,0.014603086183195746,-0.010040615700359723,-0.03604759799870715, ,0.0371494246785541, ,0.017720978420417487, ,0.0010862313175419175, ,0.2360993894307917,-0.18132204515391726,0.11556036463000001,1.6628412518322782,0.5685444755239978,-1.3032673459257893, ,0.11832536353924038,0.07466321129698723,0.034255508645161296,0.012038163158307058,0.10654435195069364,-0.08417868501373513, ,1.595858097076416
0.020000937303858934,0.01985205670453454,-0.10398954865571379, ,0.020930581696226604,0.019373100603258465,-0.10480580416588242, ,0.0013266162599225469, ,0.019621364908613534,-0.0016831837746688807,-0.031499979134140474,0.014603086183195746,-0.010040615700359723,-0.03604759799870715, ,0.0371494246785541, ,0.017720978420417487, ,0.001087752741227871, ,0.2360993894307917,-0.18132204515391726,0.11556036463000001,1.6628412518322782,0.5685444755239978,-1.3032673459257893, ,0.11832536353924038,0.07466321129698723,0.034255508645161296,0.012038163158307058,0.10654435195069364,-0.08417868501373513, ,1.5995609760284424
0.020203320500599486,0.019834243962280413,-0.1043123356435591, ,0.021013160508580975,0.01936824101704714,-0.10493555752130758, ,0.001123122919540815, ,0.02019698168624699,-0.0019566794778760844,-0.03209593406213296,0.012860813963152374,-0.011592072806795412,-0.02569811208477535, ,0.037972301051352214, ,0.017313076772349813, ,0.0010879751951795246, ,0.2373195812249192,-0.18054977186649482,0.11591165922,1.6630509417757626,0.5696375675221212,-1.304240367895501, ,0.12181892369508443,0.07734062066705036,0.034931604210526324,0.0,0.11068690499048148,-0.08777680208892089, ,1.6045989990234375
0.020203320500599486,0.019834243962280413,-0.1043123356435591, ,0.02109573526538083,0.019363526145041887,-0.10506456022514875, ,0.001258499581650015, ,0.02019698168624699,-0.0019566794778760844,-0.03209593406213296,0.012860813963152374,-0.011592072806795412,-0.02569811208477535, ,0.037972301051352214, ,0.017313076772349813, ,0.0010890409725949652, ,0.2373195812249192,-0.18054977186649482,0.11591165922,1.6630509417757626,0.5696375675221212,-1.304240367895501, ,0.12181892369508443,0.07734062066705036,0.034931604210526324,0.0,0.11068690499048148,-0.08777680208892089, ,1.6082730293273926
0.020203320500599486,0.019834243962280413,-0.1043123356435591, ,0.02117830366009487,0.01935895758063995,-0.1051928096507901, ,0.0013970410814582016, ,0.02019698168624699,-0.0019566794778760844,-0.03209593406213296,0.012860813963152374,-0.011592072806795412,-0.02569811208477535, ,0.037972301051352214, ,0.017313076772349813, ,0.0010909540167493952, ,0.2373195812249192,-0.18054977186649482,0.11591165922,1.6630509417757626,0.5696375675221212,-1.304240367895501, ,0.12181892369508443,0.07734062066705036,0.034931604210526324,0.0,0.11068690499048148,-0.08777680208892089, ,1.6120240688323975
0.020406050805916065,0.019814780774617836,-0.10462974406417624, ,0.021260863405479745,0.01935453690513549,-0.10532030321219521, ,0.0011913861408802684, ,0.020657440598441896,-0.0018068189700926251,-0.03192070718211723,0.006699889938493382,-0.02475529581032701,-0.02448642809690336, ,0.038064760525653024, ,0.025645273542707778, ,0.001091573968132919, ,0.23854749575192088,-0.17978522131194657,0.11625776865000001,1.6630509417757626,0.5707306595202447,-1.3051317111250724, ,0.12486439678746157,0.07531503298291331,0.034855167439824954,-0.0001833868783158403,0.10056314555784038,-0.07969032025760579, ,1.6158599853515625
0.020406050805916065,0.019814780774617836,-0.10462974406417624, ,0.02134341223352846,0.01935026568774678,-0.10544703836379019, ,0.0013275506333424018, ,0.020657440598441896,-0.0018068189700926251,-0.03192070718211723,0.006699889938493382,-0.02475529581032701,-0.02448642809690336, ,0.038064760525653024, ,0.025645273542707778, ,0.0010930216777354312, ,0.23854749575192088,-0.17978522131194657,0.11625776865000001,1.6630509417757626,0.5707306595202447,-1.3051317111250724, ,0.12486439678746157,0.07531503298291331,0.034855167439824954,-0.0001833868783158403,0.10056314555784038,-0.07969032025760579, ,1.6195991039276123
