NicholasDascanio/dvrk_moveit_final/test/execution/third_experiment_notsharpbends/thirdexp_300vel4.0/thirdexp_300vel4.0_3.csv
Current Position (x),Current Position (y),Current Position (z), ,Planned Position (x),Planned Position (y),Planned Position (z), ,Position Error,,Cartesian linear Velocity(x),Cartesian linear Velocity(y),Cartesian linear Velocity(z),Cartesian Angular Velocity(x),Cartesian Angular Velocity(y),Cartesian Angular Velocity(z), ,Total Linear Velocity, ,Total Angular Velocity, ,MSE, ,Joint 1 Position,Joint 2 Position,Joint 3 Position,Joint 4 Position,Joint 5 Position,Joint 6 Position, ,Joint 1 Velocity,Joint 2 Velocity,Joint 3 Velocity,Joint 4 Velocity,Joint 5 Velocity,Joint 6 Velocity, ,Time Stamp
0.01044683473869015,0.01976288516317618,-0.08003832379151307, ,0.010502753187026339,0.01978087658079368,-0.0801393420820625, ,0.00011685571872074867, ,-4.487999772789277e-05,0.0001140213048308554,1.9116106573136612e-05,-0.5319333023539353,-0.004152304443452846,0.019450605441620968, ,0.00012401813448807407, ,0.5319495086804332, ,9.73797656006239e-06, ,0.1502998271981574,-0.23944333276533092,0.08973697154000002,1.6068540369219102,0.1830929096856902,-1.283490976545052, ,-0.0005143924765671137,-0.001403896669108881,3.0633121987774237e-06,0.0,0.0,0.5336887252095606, ,0.03655195236206055
0.010362485059622313,0.019778175464054464,-0.08005220266544653, ,0.010495223460308843,0.019869284002189548,-0.08021545969878457, ,0.00022928826326759053, ,-0.0008028961016044416,0.0008845973234336954,-0.0014158051428877312,-0.2168395942221988,0.1032374325605357,0.03703266913447732, ,0.0018524736913718954, ,0.24016114819873197, ,1.5733817363106326e-05, ,0.15028438173240896,-0.23958234195706696,0.08975771218,1.6068540369219102,0.19252082816950558,-1.274598027651571, ,-0.000474950219307795,-0.006265227611988281,0.001642912365600596,0.0,0.10838973135063014,0.22329099845774203, ,0.07412600517272949
0.010428249962569582,0.019833311298981755,-0.08014453926052932, ,0.010488956354710147,0.019955813725390188,-0.080292659292896, ,0.00020157295084158506, ,0.0050478003720926656,0.002267347138593344,-0.004158969454072192,0.009813940221529517,-0.4830129792924194,-0.11744934484013742, ,0.006922295758149303, ,0.4831126696603667, ,1.7116154150935133e-05, ,0.15025349080091205,-0.23996075586790397,0.08985882280000002,1.6068540369219102,0.1865088221798262,-1.2843978131142295, ,-0.0010873208391196916,-0.01449250787392651,0.004428360166805671,0.0,-0.4986603234682899,0.004474214936902199, ,0.10980105400085449
0.010441331214118185,0.01991269019681873,-0.08023253628293217, ,0.010483941171858255,0.020040483765877432,-0.08037092947024047, ,0.00019313073055503128, ,-0.001304416816300851,0.001706758332845324,-0.0007186617733105906,-0.05552319951264064,0.13186543867408507,0.03778091011646615, ,0.0022651715126681513, ,0.14307801927909541, ,1.763923008059418e-05, ,0.15012992707492448,-0.24064035636083572,0.08996252600000001,1.6066443469784255,0.18541573018170268,-1.2808927502001601, ,-0.0024590697818406863,-0.01789495409362074,0.0011373786798272688,0.0,0.13406552195871377,0.07324935451097478, ,0.15212607383728027
0.010427668075318808,0.01997347851383971,-0.08027042420866443, ,0.010480167260823672,0.020123312059811167,-0.08045025888462597, ,0.00023988907156276894, ,-0.00024387019746892878,0.002199053642106299,-0.0019094879043833144,0.02746518185054445,0.014720175287004165,0.0022312247448714184, ,0.0029225765432338456, ,0.031161190197715797, ,1.886032182591778e-05, ,0.1499831951503142,-0.241235006792151,0.09001308131,1.6070637268653947,0.18623554918029533,-1.278702501717419, ,-0.00554496111024984,-0.020195135466795227,0.00234834314020345,0.0027190367068019596,0.008715082702319644,-0.007106565572890925, ,0.18834996223449707
0.010431335361317219,0.02006394681016599,-0.0803660815812122, ,0.010477624018030787,0.020204316464175184,-0.08053063623774381, ,0.000221188866115016, ,4.3269335500067136e-05,0.002225729521006625,-0.0023931653082985655,0.014936553992669537,0.0032020388317336025,0.00021069302346945863, ,0.0032684834906908686, ,0.015275918884877704, ,1.9703698378077713e-05, ,0.14983646322570393,-0.24201500281244767,0.09012715483000001,1.6070637268653947,0.1860989126805299,-1.279244513734847, ,-0.004043416924536518,-0.0190098039980911,0.0028424003426124203,0.0025439087303888008,-0.0014530773901317853,0.004232283544986999, ,0.22128796577453613
0.01043519773324025,0.02012986596715238,-0.08044222175826282, ,0.010476300887169256,0.020283514756920647,-0.0806120502790898, ,0.00023267820341932175, ,0.00013815875518136667,0.0019276717698719383,-0.0021082611536780904,0.012858945321529196,0.0027421981778842056,0.00024389953964773237, ,0.002860029962448392, ,0.013148084483574723, ,2.049434006402946e-05, ,0.1497283449654648,-0.24256331684651763,0.09021659884000001,1.6070637268653947,0.18596227618076444,-1.2792147745712912, ,-0.0021952349231023774,-0.016282934378598284,0.002511242553996532,0.002424143750881006,0.0,0.0035958007023377003, ,0.2538919448852539
0.010440876092352726,0.02018909105983785,-0.08050156387600575, ,0.010476187359105323,0.02036092463711207,-0.08069448980588356, ,0.00026075674153844334, ,0.0001526567957474872,0.0019594831918826293,-0.0020513257883809947,-0.0005460063260393585,-0.01651303739490949,0.006341305062532902, ,0.002840918155567903, ,0.01652206182283046, ,2.1460260076208932e-05, ,0.14962794943809987,-0.24307301721621644,0.09028789479,1.6074831067523636,0.18541573018170268,-1.2786057454762245, ,-0.003991092617417337,-0.017055525082399492,0.0024382077942752185,-0.008105749003029131,-0.018970864563847674,0.016243432616086323, ,0.28932905197143555
0.010451783837829298,0.020273965334002466,-0.08062046139693414, ,0.010477272971793104,0.020436563725071053,-0.08077794366298914, ,0.00022779068648681662, ,0.00027953219978222096,0.0019449287769530224,-0.002558324111607141,0.0062837504995589145,-0.00788566981165059,0.006746484788349308, ,0.0032258190367975594, ,0.01008311998388855, ,2.18539912784923e-05, ,0.14952755391073497,-0.24371400404477708,0.09042400524000001,1.6074831067523636,0.18527909368193726,-1.2784126488323875, ,-0.0022441233181094665,-0.015278850677583446,0.0029547044184752374,-0.006558443422282714,-0.008736440156945592,0.007879795332565807, ,0.32097887992858887
0.010455852083914871,0.02033113324327028,-0.08067416451428032, ,0.010479547310185942,0.020510449562522102,-0.08086240074283511, ,0.00026105302878647334, ,7.464514294705446e-05,0.0018740712264608739,-0.001884377303742246,-0.010920270452323112,-0.02483460477146585,0.0016009480789859168, ,0.002658682508701076, ,0.027129502407582707, ,2.2517569704059747e-05, ,0.14938854471899893,-0.24422370441447588,0.09048881974,1.6074831067523636,0.1844592746833446,-1.2774991051897873, ,-0.005828520428954851,-0.016486612501471647,0.002232489351086195,-0.005683165336958904,-0.029949898325785942,0.026414003259414807, ,0.3528459072113037
0.010457946885478579,0.020394228782941125,-0.08076844195805674, ,0.010483000006147538,0.02058259961273637,-0.08094784998533448, ,0.00026133975706863426, ,0.00012077627918818197,0.0022947761486098125,-0.003467364453083396,0.010894573518091566,0.004812135869646708,0.00267210709883908, ,0.0041597116164884965, ,0.01191001189201162, ,2.3071169984551222e-05, ,0.14924181279438864,-0.24468706838692936,0.09059511552,1.6072734168088794,0.1844592746833446,-1.2772540689693654, ,-0.004865003897208369,-0.016552754501739188,0.003908910802453988,0.0,0.0,0.005478487155291061, ,0.38495492935180664
0.010460316764713382,0.020456871965836405,-0.08085625380644243, ,0.010487620738363373,0.02065303126067706,-0.0810342803778049, ,0.0002663032783135386, ,3.968359928720975e-05,0.001994279413247329,-0.0025410114046649037,0.005769517379540809,0.006129869989411648,-0.005472603893606729, ,0.0032303968989570936, ,0.008417994819075358, ,2.3788134181368145e-05, ,0.14909508086977838,-0.24515043235938283,0.09069492985000001,1.607692796695848,0.18432263818357916,-1.2767342573649663, ,-0.004155681475310647,-0.01555687566532308,0.002935104389165285,0.008550191836281425,0.0,0.01085544787251049, ,0.41513800621032715
0.010462935872211669,0.020492773510456586,-0.08090362840979155, ,0.010493399232251722,0.020721761813143568,-0.08112168095488848, ,0.00031766424333821454, ,0.00013275998929409262,0.002314037154848971,-0.0032180974326163664,-0.0006542632796981301,0.003015097550536241,-0.005435132078127212, ,0.003965922875522283, ,0.003085267141313776, ,2.4832061803394944e-05, ,0.14902557627391036,-0.2454284507428549,0.09074937403000001,1.607692796695848,0.18418600168381372,-1.2763778032408482, ,-0.004644185997451856,-0.01726968909162344,0.003671078939847892,0.008189814087135474,-0.0035513644482792627,0.01892545762642626, ,0.4434189796447754
0.010471588969770677,0.020582971814899903,-0.081025798042066, ,0.010500325259874991,0.020788808498916227,-0.08121004079847194, ,0.00027774072107606643, ,0.0001609162042309457,0.002283232200864089,-0.0028166695518878934,-0.0022738101598480287,-0.006444814737792146,-0.006122349163053742, ,0.0036294174012338554, ,0.006834167796462339, ,2.5440402008386534e-05, ,0.14886339888355166,-0.2461157739686609,0.09088937335000001,1.607692796695848,0.1837760921845174,-1.2756351558290562, ,-0.004578733277218073,-0.018058409430727073,0.003268118900287239,0.006717001231346382,-0.012858713385243399,0.02111038754754588, ,0.47168803215026855
0.01048359618681747,0.020655328846451524,-0.08112373076102111, ,0.010508388639850832,0.020854188468901386,-0.08129934903760651, ,0.00026646124340912614, ,0.00022977332635121646,0.002483327748670848,-0.0032249761277730084,0.02282506866002106,0.02040963019826951,0.0015756352213538458, ,0.004076785929323112, ,0.03061922212950462, ,2.589647467028533e-05, ,0.14878617155480942,-0.24666408800273085,0.09100215058000001,1.607692796695848,0.18336618268522106,-1.2750558658975453, ,-0.0010543776367970014,-0.019025048427921167,0.003765676482269504,0.005920771449255348,0.01845070100011149,-0.003155809086867985, ,0.5009100437164307
0.01049067637920551,0.02072774669915775,-0.08121332662807815, ,0.010517579237263278,0.020917918796275043,-0.08138959484842816, ,0.00026069076661635845, ,0.0001871945289235171,0.0024179790911094327,-0.002687566010537713,0.015591519324661329,0.0038556847557315965,-0.0019447503412256984, ,0.003620038085117185, ,0.016061188612511008, ,2.6263042952847492e-05, ,0.14872438969181562,-0.24723557023542345,0.09110715007,1.607692796695848,0.1835028191849865,-1.2750039263209603, ,-0.0026070253345047813,-0.019861226780759897,0.0032011277170418016,0.005288907242188817,0.0,0.004814049551152179, ,0.5290548801422119
0.010500945242706127,0.020798102900070725,-0.08130343114161764, ,0.010527886963573999,0.020980016476628578,-0.08148076745407713, ,0.00025547323416773315, ,0.00033835866646302965,0.002243407653087544,-0.002821677574160805,-0.019440997972871604,-0.00014198282298342335,0.003755440144791611, ,0.0036206669023295156, ,0.019441516430678714, ,2.6557646138204332e-05, ,0.14867805329457026,-0.24760626141338624,0.09117585344000001,1.6079024866393328,0.1835028191849865,-1.2746772113603981, ,-0.0016936412664252877,-0.0181377946403805,0.0037532543638077293,0.0,0.0,0.014692045116046179, ,0.5578479766845703
0.010508133948791113,0.020842187998953952,-0.08135997876912379, ,0.010539301776533207,0.02104049842811232,-0.08157285612461818, ,0.00029260080020638977, ,0.00038780846357679404,0.0021572891630231945,-0.0028291188860530276,-0.0133974944909162,-0.0007263888173071513,0.0033102690578907493, ,0.0035788553489546114, ,0.01341717180208996, ,2.722036214589973e-05, ,0.1486548850959476,-0.24811596178308504,0.09127826035000002,1.6079024866393328,0.18336618268522106,-1.2735856485750152, ,-0.0005443074225703697,-0.01642668193845781,0.0032978905838509324,0.0,-0.0010232710353556497,0.029665547602784906, ,0.5826990604400635
0.010519624423997656,0.020914000453420345,-0.08147087466046078, ,0.010551813680090965,0.021099381491580426,-0.08166585017696006, ,0.0002709570621912421, ,0.00037019391618730966,0.002367126957925904,-0.003939926131094623,-0.013987814979636946,0.0027313192056348,-0.001408752877280308, ,0.004611220173555356, ,0.014251984828726298, ,2.7699020045720828e-05, ,0.1485931032329538,-0.24861021668703542,0.09140400048000001,1.6081121765828172,0.18336618268522106,-1.273177254874312, ,-0.002752148777596353,-0.015495908157816913,0.00441608303853618,0.004812951658171081,-0.0009555270163901401,0.030026404143749692, ,0.6120040416717529
0.01052898797647169,0.02095695406773938,-0.08154628770335233, ,0.010565412724308196,0.021156682430735724,-0.08175973897477595, ,0.0002945838191627535, ,0.0004646050792538376,0.0021789278613840984,-0.0034822214921094497,0.004978116946518326,0.0009489771307537446,-0.0020578283676756857, ,0.004133938923701378, ,0.005067761381112217, ,2.8274395353393443e-05, ,0.1485699350343311,-0.24888051233763328,0.09148825933000002,1.6081121765828172,0.18336618268522106,-1.27285053991375, ,-0.0007814813410834042,-0.014604023016077375,0.003941799435783223,0.00457475256236832,-0.000892649033672449,0.01012879265930018, ,0.6370649337768555
0.010543612618705074,0.02101969944651606,-0.08164829016704733, ,0.010580089005267752,0.021212417932273624,-0.08185451192842311, ,0.00028460210187959825, ,0.0005238516040545248,0.002021741581715499,-0.003450407383063197,0.0007754496667688191,0.0001115346272048535,-0.0016966999556319064, ,0.004033258067047658, ,0.0007834294286718905, ,2.8750666421557425e-05, ,0.1485622123014569,-0.2492975399128414,0.09160362914,1.6081121765828172,0.18336618268522106,-1.2727688611736094, ,0.0,-0.012851279306583654,0.003880343853836785,0.004048547786841481,-0.0007942140999897326,0.012524417602131627, ,0.6624889373779297
0.010552516884997353,0.0210621294109788,-0.08172927652636972, ,0.010595832664985474,0.021266604606027046,-0.0819501584948624, ,0.00030409736301257185, ,0.00044664765290702596,0.002174916985522574,-0.004470203178602064,-0.004648586182119576,0.0028079500723483517,-0.0014313904886364996, ,0.004991239773617969, ,0.0054308319175244224, ,2.929480768114298e-05, ,0.14852359863708578,-0.2495446673648166,0.09169307315000001,1.6081121765828172,0.18336618268522106,-1.2726055036933284, ,-0.0027505035783112006,-0.01166802036709568,0.004889137974217312,0.00377201628082816,-0.000738689891233338,0.01674180400955403, ,0.6870479583740234
0.0105724545136586,0.021123503115872907,-0.08185022989047828, ,0.010612633891321282,0.02131925898511064,-0.08204666817757846, ,0.00028021909886592246, ,0.0005286507333179913,0.0018794745264389839,-0.0033876188515791703,-0.0003908488105303214,-0.002420267374159999,0.0014524477861877268, ,0.003909968999486475, ,0.0024516232396056942, ,2.98304500030869e-05, ,0.14851587590421156,-0.24977634935104331,0.09178640603,1.6081121765828172,0.18322954618545564,-1.2723307283093508, ,0.0,-0.011873991686495344,0.004383272294991745,0.0035306008185913063,0.0,0.010644986059389225, ,0.70853590965271
0.010584467046496694,0.021162837397073433,-0.08192620576663595, ,0.01063048291789016,0.021370397526065562,-0.0821440305264995, ,0.0003043785366561567, ,0.0007221288153746792,0.0022348379412187886,-0.004680469134816639,-0.0001507834537925479,-0.0024079617336533843,0.0014356640976665727, ,0.005236674705524174, ,0.002412677581958342, ,3.045430988685623e-05, ,0.14852359863708578,-0.25010842686463497,0.09191084987,1.608321866526302,0.1830929096856902,-1.2718925954450921, ,0.0,-0.011655237233906999,0.005138326296774195,0.00013785468584761915,-0.002409581216434004,0.011705253985460304, ,0.7298769950866699
0.010600815357194203,0.021212827729877,-0.08203528746327471, ,0.010649370023973235,0.02142003660900361,-0.08224223513791708, ,0.00029685083003894993, ,0.0009240184117051717,0.002500655555313648,-0.005844975378959717,0.011567383069120984,-0.004168288809895461,0.007050155806785682, ,0.006424237340893972, ,0.012295485994805556, ,3.100563824781185e-05, ,0.14852359863708578,-0.2503478315837359,0.09203010855,1.6087412464132707,0.1830929096856902,-1.2714842017443893, ,0.00034088360949622833,-0.01133819726252421,0.006348669398166602,-0.006273762135908179,-0.002359587627820549,-0.0012565284717899628, ,0.7515571117401123
0.010618614994053144,0.02126252088100774,-0.08214560230232767, ,0.010669285534428738,0.02146819253775175,-0.08234127165440577, ,0.0002883657909538573, ,0.0006873939509572757,0.002033562826145761,-0.004063509112528291,0.0003413039591638991,-0.004450374765250676,0.007508320503201301, ,0.004595649520937715, ,0.00446344293520222, ,3.1486069991788315e-05, ,0.14853904410283422,-0.2505872363028369,0.09215066352000001,1.6087412464132707,0.1830929096856902,-1.2713208442641082, ,0.0007192067530733243,-0.011224460156460569,0.0044920506260575305,-0.006273762135908179,-0.0021553353830725784,0.009865821909770468, ,0.7730190753936768
0.01063173991212255,0.02130390985373113,-0.08222898364433073, ,0.010690219819603039,0.021514881539996377,-0.08244112976474316, ,0.0003048523058639576, ,0.0006029532461135747,0.0020905590690415226,-0.0043744636813494,-0.0038688647551656683,-0.0027833858985546983,0.007664363972161358, ,0.004885685452175119, ,0.004766062310983568, ,3.2015457598698026e-05, ,0.14854676683570844,-0.2508111955561894,0.09224270011,1.6087412464132707,0.1830929096856902,-1.271157486783827, ,-0.0008268234178790245,-0.010982108477833779,0.0047949462733293206,-0.006273762135908179,-0.001991508530449201,0.013839563662076029, ,0.7945001125335693
0.010644252709596541,0.021344696849883264,-0.08231259578872661, ,0.01071216329524167,0.0215601197674283,-0.08254179920382897, ,0.00032179665402371914, ,0.0006006110406286071,0.0020242172026613066,-0.004231573289013607,-0.010501705750263046,-0.0028888028688138505,0.007645694854887197, ,0.004729101543207587, ,0.010891786094263665, ,3.259191941394928e-05, ,0.14854676683570844,-0.25102743207666767,0.0923347367,1.6087412464132707,0.1830929096856902,-1.2709124505634053, ,-0.0005842808953983009,-0.010614686219475693,0.004641262097902099,-0.006024145922076299,-0.0018527973856332224,0.020149895591252485, ,0.8154780864715576
0.01065827458194909,0.021387458018561893,-0.08240629176824507, ,0.01073510642240027,0.021603923295886722,-0.0826432697526058, ,0.0003300286549166687, ,0.000734092537624456,0.0022991910315777403,-0.005056643149892097,-0.003989956325102743,-0.0027402323615346425,0.007114490355800595, ,0.00560310728068222, ,0.00484031213511722, ,3.3318306621979375e-05, ,0.14854676683570844,-0.2512359458642717,0.09243714361000001,1.6087412464132707,0.1830929096856902,-1.2706674143429835, ,-0.0004518285317435359,-0.011264891074268745,0.005519338711018712,-0.005569555375347621,-0.0017320510781894398,0.014342085677718153, ,0.8339099884033203
0.010675590170624165,0.021437350047345847,-0.08252199678973282, ,0.010759039707355488,0.021646308125503458,-0.08274553123797812, ,0.0003171670745211824, ,0.0009215815130286988,0.0025237475907966844,-0.0059116444986001965,0.003149307609140611,-0.003191150514882496,0.00648103490552678, ,0.00649354718663369, ,0.0044834777578965914, ,3.395905360670825e-05, ,0.14854676683570844,-0.2514599051176243,0.09256288374,1.6087412464132707,0.1830929096856902,-1.2705857356028432, ,0.00026798382144873305,-0.0112315183340117,0.006420319032648127,-0.005169081902118075,-0.0016229063315207535,0.007221924603908651, ,0.8516099452972412
0.010696431551598232,0.02148761665724218,-0.08264005401496297, ,0.010783953701516157,0.02168729018084778,-0.08284857353273187, ,0.00030167869007589405, ,0.0009743887506584071,0.002391147600172292,-0.005885631092457858,-0.004947211471287172,-0.0006951357260836814,0.00015369862657459602, ,0.006427104607809495, ,0.004995809039255193, ,3.450856786521805e-05, ,0.1485699350343311,-0.2516838643709768,0.09269121645,1.6085315564697864,0.18295627318592475,-1.2703109602188656, ,0.0011165748797576746,-0.009617989977364176,0.006371524608000002,0.0019315479780083835,8.136964876179982e-05,0.014747463978786278, ,0.8697960376739502
0.010705082572811045,0.02150762646553241,-0.08268906517811342, ,0.010809839001334053,0.021726885311070757,-0.0829523865554551, ,0.0003583106172426738, ,0.001045079736815362,0.002497073807911041,-0.006171637955901042,-0.0024890867706161956,0.000293273559828211,-0.004853942064427949, ,0.00673919018259433, ,0.002506302730888215, ,3.5266803693449e-05, ,0.14858538050007958,-0.251761091699719,0.09274436434000001,1.6087412464132707,0.18295627318592475,-1.2702292814787248, ,0.0014416055888182718,-0.009850691251311364,0.006681548456375841,0.007137738992808361,8.136964876179982e-05,0.013264796781005249, ,0.8876519203186035
0.010728806225208155,0.021559616196769868,-0.08281688096784086, ,0.010836686248214905,0.02176510929004912,-0.08305696027045643, ,0.0003339215211599787, ,0.0009397841808014727,0.0021254783087287445,-0.00525663616230142,-0.00041516800165859025,9.414240383636996e-05,-0.005635856771499293, ,0.005747440829636795, ,0.0004257032395347859, ,3.5897153704219944e-05, ,0.14863943963019913,-0.25196188275444886,0.09288306737,1.6091606263002398,0.18295627318592475,-1.2702292814787248, ,0.0018133838154250539,-0.0083005280631523,0.005696999828326181,0.007581963971771087,0.00010657832128930496,0.009719091551632942, ,0.9070930480957031
0.010746544839596098,0.02160259541892164,-0.08292216927218309, ,0.010864486128429407,0.021801977816530302,-0.08316228468768543, ,0.0003336448723563759, ,0.0008431004667030974,0.002005434680044103,-0.0049982046942746855,-0.0026965362401973926,-0.006501185782682923,0.02235534014648218, ,0.005451113355888691, ,0.007038232814866439, ,3.6501699209456313e-05, ,0.14866260782882182,-0.2521317828776818,0.09299714089000001,1.6093703162437245,0.18295627318592475,-1.2702292814787248, ,0.0011494490137759967,-0.008269933476411319,0.005406928553971487,-0.02171869066348806,0.00013824714700965088,0.007766091123316608, ,0.9247989654541016
0.010753417086266275,0.021617141843127855,-0.0829593327692669, ,0.010893229373024085,0.021837506514276652,-0.0832683498626521, ,0.00040447450824891435, ,0.0009316569141288565,0.002016135637028266,-0.005378591152562808,-1.1503842525596857e-05,-0.006306391575368116,0.020041003547646326, ,0.005819109064020573, ,0.0063064017108742775, ,3.749964404115936e-05, ,0.14867805329457026,-0.25218584200780136,0.09303732588000001,1.6093703162437245,0.18295627318592475,-1.2701476027385845, ,0.0015207356864012252,-0.00721927372500352,0.005785983116600074,-0.019598572509909352,0.00014711394097778624,0.004343221134095181, ,0.939276933670044
0.010781517104901656,0.021667280038367702,-0.08310325346975306, ,0.010922906757732212,0.02187171093220943,-0.08337514589634665, ,0.0003683863677220203, ,0.001402804474470714,0.0023395143480531024,-0.006955311900349125,0.004035580485392477,-0.007711865461354525,0.014718659984654239, ,0.007471114469038708, ,0.008703950969001827, ,3.8330015872176024e-05, ,0.1487552806233125,-0.2523248511995374,0.09319158439000001,1.6093703162437245,0.18295627318592475,-1.2700659239984438, ,0.004283695759035417,-0.006029266334408888,0.007439893283512378,-0.014397162988170576,0.00017053061607970793,-0.00013905628285470784, ,0.9536318778991699
0.010801005259709576,0.021700608511133153,-0.0832065647483107, ,0.010953509102884755,0.021904606544553607,-0.08348266293515917, ,0.000375636564518984, ,0.0015789012739984782,0.0025544995009746463,-0.008237414241720033,7.626454909589954e-05,-0.006856149348261009,0.012923291531984446, ,0.008767747163508182, ,0.006856570734673509, ,3.916266194345048e-05, ,0.1488170624863063,-0.2523943557954054,0.09330176904000001,1.6093703162437245,0.1830929096856902,-1.2700139844218592, ,0.004108766774130459,-0.004651762098107129,0.008747288039538717,-0.01255468620971459,0.00042547808063552833,0.002724109988154353, ,0.9682469367980957
0.010817371088618532,0.021726512367677857,-0.08328947950707652, ,0.010985027273321357,0.021936208750981838,-0.08359089117079871, ,0.00040364608318136345, ,0.001741662166788593,0.0026143178408716654,-0.008713161345971185,-0.0018859865778362908,-0.007668029283700096,0.011832984739977945, ,0.009262139359632255, ,0.007896554200866428, ,4.007408421432709e-05, ,0.14886339888355166,-0.25244069219265075,0.09338991676000001,1.6093703162437245,0.1830929096856902,-1.2699323056817184, ,0.005175728418436681,-0.003870421503035739,0.009239449837587009,-0.01148394242709706,0.00042547808063552833,0.004067880559832349, ,0.9826960563659668
0.010853376393827423,0.021778646841861184,-0.08346829665202647, ,0.011017452178301157,0.021966532876759544,-0.08369982084021348, ,0.0003403314191727682, ,0.0019323125401669026,0.00253615023639579,-0.008747893155950549,0.0009363277878490056,-0.006926497912209488,0.0005545314260350432, ,0.009310828343513973, ,0.006989494389794371, ,4.072875724092876e-05, ,0.14897151714379078,-0.2525024740556446,0.09357917510000001,1.6091606263002398,0.1830929096856902,-1.269850626941578, ,0.007323539077171767,-0.0025960459972712083,0.009277117949912638,0.0,0.00042547808063552833,0.0016325703143034239, ,0.9975600242614746
0.010872235933223616,0.02180229671271639,-0.08355012359259191, ,0.011050774771413694,0.021995594172888256,-0.08380944222551057, ,0.0003694403581499421, ,0.0019430781023436013,0.002272274128715069,-0.008164509092125204,-0.0013543040513272408,-0.008075022957405567,0.0004024622949966929, ,0.00869471051520579, ,0.008187801838557131, ,4.1618160429515654e-05, ,0.14904874447253302,-0.25252564225426727,0.09366602653000002,1.6091606263002398,0.1830929096856902,-1.2697689482014374, ,0.008462889868258392,-0.0013118534514964743,0.008652260467137426,0.0,0.00042547808063552833,0.0026539732531294154, ,1.0084030628204346
0.010889976975084963,0.021824316383750136,-0.08362825902503875, ,0.01108498605048984,0.02202340781625067,-0.0839197456538746, ,0.0004032745873167178, ,0.0018576269337957578,0.0020892257769688774,-0.007401600103815716,-0.000803854979173186,-0.0067629879723337975,0.0008905356646660633, ,0.00791197360139172, ,0.006810592259664772, ,4.260897931217819e-05, ,0.1491336945341495,-0.2525410877200157,0.09374898909000001,1.6091606263002398,0.18322954618545564,-1.2697986873649931, ,0.008989830297656522,-0.0014697714119485889,0.007866079762962965,0.0,0.002322540069775837,0.0022609453599381803, ,1.0190539360046387
0.010908812526955766,0.02184571040947207,-0.083705275977628, ,0.011120077057512699,0.022049988909754726,-0.08403072149748791, ,0.00043849423479227215, ,0.0019921800076660077,0.0023424197519984107,-0.008424645734888278,-0.0008108910004415262,-0.006224531062247854,-0.0003494578006161025, ,0.008968297900709347, ,0.006277124239742288, ,4.370287824476881e-05, ,0.14921864459576598,-0.2525488104528899,0.09383065536000001,1.6093703162437245,0.18322954618545564,-1.2697986873649931, ,0.008744802796350773,-0.0012975131659616161,0.00892870600896861,0.0012630318527548634,0.0022993570618911213,0.0022798495483821665, ,1.0296618938446045
0.010917457617163649,0.021855103861180156,-0.08374084985975387, ,0.01115603887852851,0.02207535248247832,-0.0841423601734508, ,0.000516372932543131, ,0.0020102990760199986,0.002360293144954896,-0.008571284807153978,-0.0010581860667588836,-0.006197520244262391,-0.0003819673291997602, ,0.009114779720350708, ,0.0062872067460334165, ,4.5045262557691544e-05, ,0.1492572582601371,-0.2525488104528899,0.09386824777000001,1.6093703162437245,0.18322954618545564,-1.2697986873649931, ,0.00868801058416517,-0.0010721223968572554,0.009076245880341883,0.0012553243348034089,0.002270779821311608,0.00230315237189026, ,1.04339599609375
0.010972860662411817,0.021917609880266913,-0.08397610234568723, ,0.011192862643557464,0.02209951348981312,-0.0842546521436998, ,0.00039884807238696116, ,0.0024522964780154845,0.002651583128207725,-0.009845500571635099,4.111213600120344e-05,-0.007348213010388716,0.00035060773373019196, ,0.01048706501400416, ,0.0073483217229312146, ,4.5954615263601495e-05, ,0.14951983117786075,-0.2525488104528899,0.09411713545000001,1.609580006187209,0.1835028191849865,-1.2700215231723861, ,0.011776259454170043,-0.0005188365965086899,0.010431441728880159,0.0008871536950005934,0.004352875496033562,0.0006053429595359937, ,1.0550780296325684
0.010997314080469495,0.02194481456354358,-0.084076304920947, ,0.011230539526504614,0.02212248681360912,-0.08436758791492782, ,0.00041328842193323254, ,0.0025821715478311423,0.0026757996305167855,-0.010101928096823818,0.0021827066017474257,-0.0056572592764975935,0.0009653302496174208, ,0.010764593110680076, ,0.006063718778890335, ,4.689463088183504e-05, ,0.14964339490384831,-0.25255653318576415,0.09422343123000002,1.609580006187209,0.18363945568475198,-1.2701329410760827, ,0.013141800520491728,0.0,0.010704846451612904,0.0008871536950005934,0.007488006921713309,-0.002047838608842892, ,1.0656850337982178
0.010997314080469495,0.02194481456354358,-0.084076304920947, ,0.011269060745070803,0.022144287262319155,-0.08448115803850387, ,0.0005268222224567397, ,0.0025821715478311423,0.0026757996305167855,-0.010101928096823818,0.0021827066017474257,-0.0056572592764975935,0.0009653302496174208, ,0.010764593110680076, ,0.006063718778890335, ,4.836253922316748e-05, ,0.14964339490384831,-0.25255653318576415,0.09422343123000002,1.609580006187209,0.18363945568475198,-1.2701329410760827, ,0.013141800520491728,0.0,0.010704846451612904,0.0008871536950005934,0.007488006921713309,-0.002047838608842892, ,1.072861909866333
0.011021032866909525,0.021971335771971058,-0.08417905542797369, ,0.011308417560663388,0.02216492957114294,-0.08459535311039248, ,0.0005416385156809536, ,0.002544068152711368,0.0027441658993496328,-0.010489499270780625,0.024733596757355113,0.01979212784550158,0.007089048210691463, ,0.01113698003053345, ,0.031677736759700495, ,4.986056426436148e-05, ,0.14978240409558435,-0.2525488104528899,0.09433231959,1.609580006187209,0.1840493651840483,-1.2704671947871717, ,0.014925596344521987,0.0004223811162180667,0.011131244947589101,0.0008856924583570324,0.03542545419223535,-0.025004096863199602, ,1.080204963684082
0.011050876716629918,0.022001752876103457,-0.08429639919507766, ,0.011348601278307302,0.022184428402171736,-0.08471016377107268, ,0.000541489969250269, ,0.0028890621286295328,0.0031716719740458466,-0.012048075691199426,0.022376503230324113,0.015832332958049457,0.006428437573205415, ,0.012789148171590624, ,0.02741113660275067, ,5.1338052025972006e-05, ,0.1499523042188173,-0.2525410877200157,0.09445676343000001,1.609580006187209,0.18432263818357916,-1.2705266731142837, ,0.01582670806512188,0.00022215986365756708,0.0127737061106656,0.0008777207892725479,0.03228787499555327,-0.022452913129518196, ,1.0874249935150146
0.01108523724786148,0.022033799942156016,-0.08442259983740458, ,0.01138960324655574,0.0222027983445324,-0.0848255807054582, ,0.0005325342253641328, ,0.0038675068688140872,0.0038528500736779102,-0.014980119386227607,0.007087604858331888,-0.0005541741371454283,0.0038635800314773434, ,0.015943840186611134, ,0.00710918400704957, ,5.276615209677662e-05, ,0.15012992707492448,-0.25252564225426727,0.09459028130000001,1.609580006187209,0.18432263818357916,-1.270199958153721, ,0.020760652277066454,0.0013027361804624625,0.015865350119521913,0.0008667216355845109,0.02058461346452867,-0.008235937505016142, ,1.094538927078247
0.01108523724786148,0.022033799942156016,-0.08442259983740458, ,0.011431414857401118,0.022220053914531912,-0.08494159464281678, ,0.0006510645802201421, ,0.0038675068688140872,0.0038528500736779102,-0.014980119386227607,0.007087604858331888,-0.0005541741371454283,0.0038635800314773434, ,0.015943840186611134, ,0.00710918400704957, ,5.456658865131982e-05, ,0.15012992707492448,-0.25252564225426727,0.09459028130000001,1.609580006187209,0.18432263818357916,-1.270199958153721, ,0.020760652277066454,0.0013027361804624625,0.015865350119521913,0.0008667216355845109,0.02058461346452867,-0.008235937505016142, ,1.1015570163726807
0.011124821049571179,0.02207586471964066,-0.08458536305263359, ,0.01147402754618585,0.022236209555801353,-0.08505819635668944, ,0.0006092839873044989, ,0.004288760304767923,0.004502492299971196,-0.017607453890203288,0.008196452544080335,0.0019716756300850622,0.0037067030380522692, ,0.018673198289492026, ,0.008430162915176523, ,5.6206427372637385e-05, ,0.15034616359540276,-0.25251019678851877,0.09476268787000001,1.6097896961306934,0.18473254768287548,-1.2703708543845293, ,0.021253514346801967,0.0017285553128879917,0.018608424672897198,0.0016713379012530689,0.023484956981412192,-0.009643500318837844, ,1.1085269451141357
0.011124821049571179,0.02207586471964066,-0.08458536305263359, ,0.011517432791513273,0.02225127963944109,-0.08517537666481027, ,0.0007300893346386971, ,0.004288760304767923,0.004502492299971196,-0.017607453890203288,0.008196452544080335,0.0019716756300850622,0.0037067030380522692, ,0.018673198289492026, ,0.008430162915176523, ,5.8218402877176224e-05, ,0.15060101378025217,-0.2524715831241477,0.09496102024000001,1.6099993860741781,0.185825639680999,-1.2712621976141008, ,0.025578690447027166,0.004288317536400726,0.020011069748743723,0.01005391836002941,0.13164178940048682,-0.0978381449362376, ,1.115638017654419
0.011165379822663728,0.02212236719691909,-0.08477276698441591, ,0.011561622115158484,0.022265278464163697,-0.08529312642902519, ,0.0006694815428830248, ,0.0038928487353239055,0.004637941325301459,-0.018914479899244583,0.09515154654360283,0.10516954733377458,0.01917269598050011, ,0.019860068501190507, ,0.14182541406658186, ,6.00081916704729e-05, ,0.15060101378025217,-0.2524715831241477,0.09496102024000001,1.6099993860741781,0.185825639680999,-1.2712621976141008, ,0.025578690447027166,0.004288317536400726,0.020011069748743723,0.01005391836002941,0.13164178940048682,-0.0978381449362376, ,1.1229689121246338
0.011210183989714741,0.02216984492685464,-0.08496247569148076, ,0.011606587081979047,0.022278220256439815,-0.0854114365552128, ,0.0006086431473223211, ,0.0050827525142859795,0.004744153941189272,-0.019016981305730356,0.00796558173380935,0.005384198282185048,-0.002330026240808073, ,0.020248134425711422, ,0.009614447270435322, ,6.157933882153841e-05, ,0.15087130943085003,-0.25244069219265075,0.09516194519000001,1.6099993860741781,0.18664545867959165,-1.2716039900757172, ,0.02866977086358634,0.0034941249022860375,0.020137561972187107,0.01005391836002941,0.032507422555317855,-0.009924800650865883, ,1.1301190853118896
0.011210183989714741,0.02216984492685464,-0.08496247569148076, ,0.011652319299826032,0.02229011917064149,-0.08553029799320225, ,0.0007296380558180869, ,0.0050827525142859795,0.004744153941189272,-0.019016981305730356,0.00796558173380935,0.005384198282185048,-0.002330026240808073, ,0.020248134425711422, ,0.009614447270435322, ,6.372055265806582e-05, ,0.15087130943085003,-0.25244069219265075,0.09516194519000001,1.6099993860741781,0.18664545867959165,-1.2716039900757172, ,0.02866977086358634,0.0034941249022860375,0.020137561972187107,0.01005391836002941,0.032507422555317855,-0.009924800650865883, ,1.1337809562683105
0.011265344805241382,0.02221441668963047,-0.08514881074038419, ,0.011698810419454668,0.02230098928918652,-0.08564970173669385, ,0.0006680411992409449, ,0.005299930655727862,0.004031666984496795,-0.017537920276199957,-0.015036971515797401,-0.013585065367756327,-0.006165488054912582, ,0.01875959091355009, ,0.020264818139937826, ,6.565128954810697e-05, ,0.151180218745819,-0.2523866330625312,0.09535898127,1.6099993860741781,0.18664545867959165,-1.2713589538552954, ,0.03196259399072778,0.0071506361588697005,0.018543435995343426,0.01005391836002941,0.016487057965849206,0.00946102221309236, ,1.1374731063842773
0.011265344805241382,0.02221441668963047,-0.08514881074038419, ,0.011746052134435345,0.0223108446226837,-0.08576963882317787, ,0.0007910786250424068, ,0.005299930655727862,0.004031666984496795,-0.017537920276199957,-0.015036971515797401,-0.013585065367756327,-0.006165488054912582, ,0.01875959091355009, ,0.020264818139937826, ,0.0003679298664413774, ,0.151180218745819,-0.2523866330625312,0.09535898127,1.6099993860741781,0.18664545867959165,-1.2713589538552954, ,0.03196259399072778,0.0071506361588697005,0.018543435995343426,0.01005391836002941,0.016487057965849206,0.00946102221309236, ,1.1410760879516602
0.011324172750821898,0.02225628654262808,-0.08533492042487528, ,0.011794036181064206,0.022319699110075527,-0.08589010033385439, ,0.0009165747216192512, ,0.0065431364357818045,0.0043766549687997815,-0.019976675230963983,-0.007187983143548741,-0.02603000684320368,-0.007724161355433125, ,0.01875959091355009, ,0.027004169614070966, ,0.0003772289317833752, ,0.151558632656656,-0.2523016830009147,0.09555601735000001,1.6099993860741781,0.1869187316791225,-1.2712550747021258, ,0.04149407151660287,0.010598078957875321,0.021125744721485415,0.009862628425690018,0.013420178908133072,-0.0018336258820383453, ,1.1451349258422852
0.011324172750821898,0.02225628654262808,-0.08533492042487528, ,0.011842754338274277,0.02232756661878442,-0.08601107739355253, ,0.0008550999698235792, ,0.0065431364357818045,0.0043766549687997815,-0.019976675230963983,-0.007187983143548741,-0.02603000684320368,-0.007724161355433125, ,0.021471732496857004, ,0.027004169614070966, ,0.00038519344908404527, ,0.151558632656656,-0.2523016830009147,0.09555601735000001,1.6099993860741781,0.1869187316791225,-1.2712550747021258, ,0.04149407151660287,0.010598078957875321,0.021125744721485415,0.009862628425690018,0.013420178908133072,-0.0018336258820383453, ,1.1488399505615234
0.011324172750821898,0.02225628654262808,-0.08533492042487528, ,0.011892198427546,0.022334460944855476,-0.08613256117064957, ,0.0009823416747246616, ,0.0065431364357818045,0.0043766549687997815,-0.019976675230963983,-0.007187983143548741,-0.02603000684320368,-0.007724161355433125, ,0.021471732496857004, ,0.027004169614070966, ,0.00039498276425848164, ,0.151558632656656,-0.2523016830009147,0.09555601735000001,1.6099993860741781,0.1869187316791225,-1.2712550747021258, ,0.04149407151660287,0.010598078957875321,0.021125744721485415,0.009862628425690018,0.013420178908133072,-0.0018336258820383453, ,1.1526319980621338
0.011391888222963617,0.022306297410331372,-0.08557290642347176, ,0.011942360312818215,0.022340395813101634,-0.08625454287699119, ,0.0008768183834448937, ,0.006616137897985581,0.0053441814276164986,-0.02484885513922904,0.13910162585541372,0.11255010708776989,0.02419726760816923, ,0.026264027824132986, ,0.17893233203398373, ,0.0004027543065034238, ,0.15204516482773214,-0.2521549510763045,0.09580749761000001,1.6099993860741781,0.18814846017701148,-1.2720944783551125, ,0.049042347058641224,0.01407757625848847,0.02628516752475248,0.009195995879063007,0.16315666974621829,-0.15163513604370793, ,1.1566178798675537
0.011391888222963617,0.022306297410331372,-0.08557290642347176, ,0.01199323190039898,0.022345384877247725,-0.0863770137678101, ,0.0010048535563355835, ,0.006616137897985581,0.0053441814276164986,-0.02484885513922904,0.13910162585541372,0.11255010708776989,0.02419726760816923, ,0.026264027824132986, ,0.17893233203398373, ,0.0004123114374531406, ,0.15204516482773214,-0.2521549510763045,0.09580749761000001,1.6099993860741781,0.18814846017701148,-1.2720944783551125, ,0.049042347058641224,0.01407757625848847,0.02628516752475248,0.009195995879063007,0.16315666974621829,-0.15163513604370793, ,1.1603050231933594
0.011391888222963617,0.022306297410331372,-0.08557290642347176, ,0.012044805138876232,0.022349441720074872,-0.08649996514164558, ,0.0011347245469673117, ,0.006616137897985581,0.0053441814276164986,-0.02484885513922904,0.13910162585541372,0.11255010708776989,0.02419726760816923, ,0.026264027824132986, ,0.17893233203398373, ,0.0004235991422892995, ,0.15204516482773214,-0.2521549510763045,0.09580749761000001,1.6099993860741781,0.18814846017701148,-1.2720944783551125, ,0.049042347058641224,0.01407757625848847,0.02628516752475248,0.009195995879063007,0.16315666974621829,-0.15163513604370793, ,1.1639130115509033
0.01146620313940138,0.022365931229830514,-0.08584619736745733, ,0.012097072019028793,0.02235257985356468,-0.08662338834026362, ,0.0010010992012493701, ,0.00860494203971096,0.0064164388877340685,-0.03030041208230898,0.09254513274454228,0.06500541318685535,0.019894201070911194, ,0.032145461388266725, ,0.11309411919732067, ,0.0004324837585809929, ,0.15257031066317941,-0.2520082191516942,0.09609657028000002,1.6102090760176624,0.18965146167443137,-1.273401754035914, ,0.05789929320223964,0.017969502283368827,0.031985565301204825,0.004565352583782977,0.1247561340441797,-0.10959598194419216, ,1.167510986328125
0.01146620313940138,0.022365931229830514,-0.08584619736745733, ,0.01215002457373699,0.02235481271904371,-0.08674727474857527, ,0.0011312275730821354, ,0.00860494203971096,0.0064164388877340685,-0.03030041208230898,0.09254513274454228,0.06500541318685535,0.019894201070911194, ,0.032145461388266725, ,0.11309411919732067, ,0.0004430707860734345, ,0.15257031066317941,-0.2520082191516942,0.09609657028000002,1.6102090760176624,0.18965146167443137,-1.273401754035914, ,0.05789929320223964,0.017969502283368827,0.031985565301204825,0.004565352583782977,0.1247561340441797,-0.10959598194419216, ,1.1711039543151855
0.01146620313940138,0.022365931229830514,-0.08584619736745733, ,0.012203654877893672,0.022356153687327688,-0.08687161579455634, ,0.001263096836183554, ,0.00860494203971096,0.0064164388877340685,-0.03030041208230898,0.09254513274454228,0.06500541318685535,0.019894201070911194, ,0.032145461388266725, ,0.11309411919732067, ,0.00045530998085119745, ,0.15257031066317941,-0.2520082191516942,0.09609657028000002,1.6102090760176624,0.18965146167443137,-1.273401754035914, ,0.05789929320223964,0.017969502283368827,0.031985565301204825,0.004565352583782977,0.1247561340441797,-0.10959598194419216, ,1.1746690273284912
0.011566997783490253,0.022435280228046903,-0.08618740168519864, ,0.012257955048314794,0.0223566160588659,-0.08699640294916766, ,0.0010668144348621347, ,0.010802206423225026,0.007098252151027835,-0.035927217986353406,0.019510540808420043,-0.001522524633752175,-0.007663180741244842, ,0.03818164270233133, ,0.019568327125334427, ,0.0004643026934101818, ,0.1532035747588658,-0.25176881443259325,0.09645564261,1.6106284559046316,0.19047128067302396,-1.2740702614580923, ,0.06603823351320166,0.026799475164775707,0.03774599886255925,0.01809762393265717,0.06159422580133451,-0.04327554370932341, ,1.1782948970794678
0.011566997783490253,0.022435280228046903,-0.08618740168519864, ,0.012312917243650317,0.02235621306388547,-0.08712162772627316, ,0.0011980925478925965, ,0.010802206423225026,0.007098252151027835,-0.035927217986353406,0.019510540808420043,-0.001522524633752175,-0.007663180741244842, ,0.03818164270233133, ,0.019568327125334427, ,0.0004749373289823907, ,0.1532035747588658,-0.25176881443259325,0.09645564261,1.6106284559046316,0.19047128067302396,-1.2740702614580923, ,0.06603823351320166,0.026799475164775707,0.03774599886255925,0.01809762393265717,0.06159422580133451,-0.04327554370932341, ,1.1818780899047852
0.011566997783490253,0.022435280228046903,-0.08618740168519864, ,0.012368533664295094,0.022354957862535677,-0.0872472816825603, ,0.0013312614541953229, ,0.010802206423225026,0.007098252151027835,-0.035927217986353406,0.019510540808420043,-0.001522524633752175,-0.007663180741244842, ,0.03818164270233133, ,0.019568327125334427, ,0.00048717053077114685, ,0.1532035747588658,-0.25176881443259325,0.09645564261,1.6106284559046316,0.19047128067302396,-1.2740702614580923, ,0.06603823351320166,0.026799475164775707,0.03774599886255925,0.01809762393265717,0.06159422580133451,-0.04327554370932341, ,1.1854920387268066
0.01167123389089037,0.022500106095909446,-0.08652858683803814, ,0.012424796552299448,0.022352863545032117,-0.08737335641745841, ,0.0011415658963777329, ,0.011959673842033478,0.007140581648164404,-0.03797026511809619,-0.00527073958751036,-0.038725967188318264,-0.015165080208198104, ,0.040444563761035106, ,0.039081994637219286, ,0.0004963873669064509, ,0.15382911612167802,-0.25149079604912117,0.09681341865000001,1.6106284559046316,0.1908811901723203,-1.2743228364290409, ,0.07172860284086982,0.03202731743451596,0.039822028800000006,0.017434481390319265,0.029388991791105892,-0.02377512327638533, ,1.1900279521942139
0.01167123389089037,0.022500106095909446,-0.08652858683803814, ,0.01248169819128015,0.022349943131801612,-0.08749984357305969, ,0.0012738684953010903, ,0.011959673842033478,0.007140581648164404,-0.03797026511809619,-0.00527073958751036,-0.038725967188318264,-0.015165080208198104, ,0.040444563761035106, ,0.039081994637219286, ,0.000507185715911932, ,0.15382911612167802,-0.25149079604912117,0.09681341865000001,1.6106284559046316,0.1908811901723203,-1.2743228364290409, ,0.07172860284086982,0.03202731743451596,0.039822028800000006,0.017434481390319265,0.029388991791105892,-0.02377512327638533, ,1.1936519145965576
0.01167123389089037,0.022500106095909446,-0.08652858683803814, ,0.012539230906331168,0.022346209573625316,-0.08762673483403649, ,0.0014082016828212034, ,0.011959673842033478,0.007140581648164404,-0.03797026511809619,-0.00527073958751036,-0.038725967188318264,-0.015165080208198104, ,0.040444563761035106, ,0.039081994637219286, ,0.0005195284003901411, ,0.15382911612167802,-0.25149079604912117,0.09681341865000001,1.6106284559046316,0.1908811901723203,-1.2743228364290409, ,0.07172860284086982,0.03202731743451596,0.039822028800000006,0.017434481390319265,0.029388991791105892,-0.02377512327638533, ,1.1973390579223633
0.011840928815302866,0.022590766358915562,-0.08704479338012812, ,0.012597387063934384,0.02234167575178458,-0.08775402192756245, ,0.0010664334695513588, ,0.012485650896765144,0.005507871465839121,-0.03631098844433183,0.04216516048052099,0.017396811096018806,0.0013488164161597738, ,0.038790669086837065, ,0.045612352178577, ,0.0005269190094328604, ,0.15494891238844055,-0.2509888184122966,0.09735526787000001,1.6106284559046316,0.19197428217044385,-1.2752141796586125, ,0.08714136047609806,0.04497485381918047,0.03801625661097852,0.01488439769432685,0.10335629017805296,-0.0843422053616058, ,1.2009611129760742
0.011840928815302866,0.022590766358915562,-0.08704479338012812, ,0.01265615907187041,0.022336354478203934,-0.08788169662323116, ,0.001195714353257832, ,0.012485650896765144,0.005507871465839121,-0.03631098844433183,0.04216516048052099,0.017396811096018806,0.0013488164161597738, ,0.038790669086837065, ,0.045612352178577, ,0.00053583628068386, ,0.15494891238844055,-0.2509888184122966,0.09735526787000001,1.6106284559046316,0.19197428217044385,-1.2752141796586125, ,0.08714136047609806,0.04497485381918047,0.03801625661097852,0.01488439769432685,0.10335629017805296,-0.0843422053616058, ,1.2045118808746338
0.011840928815302866,0.022590766358915562,-0.08704479338012812, ,0.012715539379129519,0.02233025849559628,-0.08800975073297543, ,0.0013281380493090468, ,0.012485650896765144,0.005507871465839121,-0.03631098844433183,0.04216516048052099,0.017396811096018806,0.0013488164161597738, ,0.038790669086837065, ,0.045612352178577, ,0.000546261303955244, ,0.15494891238844055,-0.2509888184122966,0.09735526787000001,1.6106284559046316,0.19197428217044385,-1.2752141796586125, ,0.08714136047609806,0.04497485381918047,0.03801625661097852,0.01488439769432685,0.10335629017805296,-0.0843422053616058, ,1.208043098449707
0.01196444945691125,0.022637181143042126,-0.08739474218572832, ,0.012775520475822148,0.022323400477606545,-0.08813817611098682, ,0.001144110355229605, ,0.013495522966795936,0.004364151557247559,-0.035855235238558596,0.05345201531136337,0.0296370683163634,0.00674518985309075, ,0.038558693610835894, ,0.06111803742813312, ,0.0005540255773484175, ,0.1558447494018506,-0.25048684077547195,0.09772082165000001,1.6106284559046316,0.19320401066833282,-1.2762169407918802, ,0.10127741895247683,0.055986396199687774,0.03747955651764706,0.013546587232258584,0.1306975399202994,-0.10670123414680825, ,1.2116270065307617
0.01196444945691125,0.022637181143042126,-0.08739474218572832, ,0.012836094893089912,0.02231579302895666,-0.08826696465363498, ,0.0012742951462701615, ,0.013495522966795936,0.004364151557247559,-0.035855235238558596,0.05345201531136337,0.0296370683163634,0.00674518985309075, ,0.038558693610835894, ,0.06111803742813312, ,0.0005632598025910041, ,0.1558447494018506,-0.25048684077547195,0.09772082165000001,1.6106284559046316,0.19320401066833282,-1.2762169407918802, ,0.10127741895247683,0.055986396199687774,0.03747955651764706,0.013546587232258584,0.1306975399202994,-0.10670123414680825, ,1.215174913406372
0.01196444945691125,0.022637181143042126,-0.08739474218572832, ,0.012897255203016315,0.022307448685589176,-0.08839610829938706, ,0.0014076875175437886, ,0.013495522966795936,0.004364151557247559,-0.035855235238558596,0.05345201531136337,0.0296370683163634,0.00674518985309075, ,0.038558693610835894, ,0.06111803742813312, ,0.000573948761008128, ,0.15699543660011006,-0.24986129941265978,0.0981032272,1.6106284559046316,0.19429710266645633,-1.2771082840214518, ,0.1144715820970697,0.06351870251571003,0.034779064454148474,0.01232734082757599,0.0932683884330053,-0.07605411685887906, ,1.2187869548797607
0.012115212620667708,0.02267647024515453,-0.08776045650948847, ,0.01295899401853739,0.02229837991481199,-0.08852559902872703, ,0.0012001509988481378, ,0.014692327213360817,0.0029863176891854323,-0.033280136917856105,0.015181764382841965,-0.02037139638338062,-0.0015076710130164052, ,0.036501371009271054, ,0.025405490261911457, ,0.0005817762889811281, ,0.15699543660011006,-0.24986129941265978,0.0981032272,1.6106284559046316,0.19429710266645633,-1.2771082840214518, ,0.1144715820970697,0.06351870251571003,0.034779064454148474,0.01232734082757599,0.0932683884330053,-0.07605411685887906, ,1.2224340438842773
0.012115212620667708,0.02267647024515453,-0.08776045650948847, ,0.013021303993352789,0.022288599115442828,-0.08865542886407488, ,0.0013313230653722284, ,0.014692327213360817,0.0029863176891854323,-0.033280136917856105,0.015181764382841965,-0.02037139638338062,-0.0015076710130164052, ,0.036501371009271054, ,0.025405490261911457, ,0.0005910299528871911, ,0.15699543660011006,-0.24986129941265978,0.0981032272,1.6106284559046316,0.19429710266645633,-1.2771082840214518, ,0.1144715820970697,0.06351870251571003,0.034779064454148474,0.01232734082757599,0.0932683884330053,-0.07605411685887906, ,1.226196050643921
0.012235410570273579,0.02269525952885139,-0.08802660903135918, ,0.013084177821836214,0.022278118617953004,-0.08878558986970654, ,0.001212627024211806, ,0.015022014931949174,0.0018751918623590828,-0.03293945610815401,0.017138727758052807,-0.015084309639241594,0.011356692549644855, ,0.036251690248005904, ,0.022830541140118687, ,0.0005986104049765157, ,0.15794533274363967,-0.2492975399128414,0.09838063326000002,1.610838145848116,0.19511692166504896,-1.2778584701837707, ,0.11936722208612675,0.07390727535706447,0.034255508645161296,0.0,0.10678595912170373,-0.09012515786511932, ,1.229996919631958
0.012235410570273579,0.02269525952885139,-0.08802660903135918, ,0.013147608238946428,0.02226695068461227,-0.08891607415167249, ,0.0013441358759588248, ,0.015022014931949174,0.0018751918623590828,-0.03293945610815401,0.017138727758052807,-0.015084309639241594,0.011356692549644855, ,0.036251690248005904, ,0.022830541140118687, ,0.000607592639566664, ,0.15794533274363967,-0.2492975399128414,0.09838063326000002,1.610838145848116,0.19511692166504896,-1.2778584701837707, ,0.11936722208612675,0.07390727535706447,0.034255508645161296,0.0,0.10678595912170373,-0.09012515786511932, ,1.233597993850708
0.012235410570273579,0.02269525952885139,-0.08802660903135918, ,0.013211588020137867,0.022255107509632704,-0.08904687385771753, ,0.0014790525783588168, ,0.015022014931949174,0.0018751918623590828,-0.03293945610815401,0.017138727758052807,-0.015084309639241594,0.011356692549644855, ,0.036251690248005904, ,0.022830541140118687, ,0.0006179671626475229, ,0.15794533274363967,-0.2492975399128414,0.09838063326000002,1.610838145848116,0.19511692166504896,-1.2778584701837707, ,0.11936722208612675,0.07390727535706447,0.034255508645161296,0.0,0.10678595912170373,-0.09012515786511932, ,1.2372961044311523
0.01242815299497437,0.022710069556437708,-0.08843630992185865, ,0.013276109981271541,0.022242601219313138,-0.08917798117720004, ,0.001219686003782883, ,0.01605937952425793,0.0005493909284934658,-0.032995347126389823,0.028802966801201552,-0.0012729323258925899,-0.002039830163934944, ,0.036700114892019436, ,0.02883040314401352, ,0.0006250462078373506, ,0.15950532478423302,-0.248285861906318,0.09880581638000001,1.6110478357916007,0.19661992316246882,-1.2792474246047125, ,0.13180130772009832,0.08811229485466182,0.034181998969957085,0.016332625859132695,0.12948226157912673,-0.1132878631453614, ,1.2409110069274902
0.01242815299497437,0.022710069556437708,-0.08843630992185865, ,0.013341166978525679,0.022229443872183643,-0.08930938834101165, ,0.0013516144082228575, ,0.01605937952425793,0.0005493909284934658,-0.032995347126389823,0.028802966801201552,-0.0012729323258925899,-0.002039830163934944, ,0.036700114892019436, ,0.02883040314401352, ,0.0006334946752836937, ,0.15950532478423302,-0.248285861906318,0.09880581638000001,1.6110478357916007,0.19661992316246882,-1.2792474246047125, ,0.13180130772009832,0.08811229485466182,0.034181998969957085,0.016332625859132695,0.12948226157912673,-0.1132878631453614, ,1.2444610595703125
0.01242815299497437,0.022710069556437708,-0.08843630992185865, ,0.013406751908306657,0.022215647459149782,-0.08944108762149604, ,0.0014871742564845337, ,0.01605937952425793,0.0005493909284934658,-0.032995347126389823,0.028802966801201552,-0.0012729323258925899,-0.002039830163934944, ,0.036700114892019436, ,0.02883040314401352, ,0.0006433070842630137, ,0.15950532478423302,-0.248285861906318,0.09880581638000001,1.6110478357916007,0.19661992316246882,-1.2792474246047125, ,0.13180130772009832,0.08811229485466182,0.034181998969957085,0.016332625859132695,0.12948226157912673,-0.1132878631453614, ,1.248025894165039
0.012589803088698,0.022708579965623372,-0.08876808072675942, ,0.013472857707159572,0.022201223903636578,-0.08957307133236864, ,0.0012981546548621085, ,0.01671439687349545,-0.0006822397072326775,-0.03367168860206881,0.019062865843562093,-0.014856933033278629,-0.0007348471841038515, ,0.037598126644522195, ,0.024167706337479496, ,0.0006507485339289126, ,0.16083363483859964,-0.24732824302991416,0.09914803694,1.6112575257350852,0.1979862881601232,-1.2806066398620986, ,0.1359555036654309,0.10225963530007626,0.03462785113043479,0.010009827376474682,0.12128592467705573,-0.11846191943109498, ,1.2516210079193115
0.012589803088698,0.022708579965623372,-0.08876808072675942, ,0.013539477351679164,0.022186185061733445,-0.08970533182863594, ,0.0014329051850515916, ,0.01671439687349545,-0.0006822397072326775,-0.03367168860206881,0.019062865843562093,-0.014856933033278629,-0.0007348471841038515, ,0.037598126644522195, ,0.024167706337479496, ,0.0006595368109078191, ,0.16083363483859964,-0.24732824302991416,0.09914803694,1.6112575257350852,0.1979862881601232,-1.2806066398620986, ,0.1359555036654309,0.10225963530007626,0.03462785113043479,0.010009827376474682,0.12128592467705573,-0.11846191943109498, ,1.2551729679107666
0.012589803088698,0.022708579965623372,-0.08876808072675942, ,0.01360660385842046,0.02217054272233776,-0.08983786150651502, ,0.0015709229125597049, ,0.01671439687349545,-0.0006822397072326775,-0.03367168860206881,0.019062865843562093,-0.014856933033278629,-0.0007348471841038515, ,0.037598126644522195, ,0.024167706337479496, ,0.0006696633231483955, ,0.16083363483859964,-0.24732824302991416,0.09914803694,1.6112575257350852,0.1979862881601232,-1.2806066398620986, ,0.1359555036654309,0.10225963530007626,0.03462785113043479,0.010009827376474682,0.12128592467705573,-0.11846191943109498, ,1.2589099407196045
0.012769148400864664,0.022697683854496296,-0.08911725061996112, ,0.013674230283809598,0.02215430860729955,-0.08997065280335206, ,0.0013574701325324643, ,0.018381541191461213,-0.0011887596718214404,-0.035861548602534016,0.03699157647759137,-0.02341174290078686,-0.0014871495320187352, ,0.040315566153815124, ,0.04377701592834858, ,0.0006772216397350337, ,0.1623009540847023,-0.24623161496177426,0.09950710927,1.6112575257350852,0.19921601665801217,-1.281854437215788, ,0.1496797185464839,0.1131072009040176,0.036872248888888896,0.008852134567206424,0.12658794500109546,-0.14728280616510664, ,1.2625489234924316
0.012769148400864664,0.022697683854496296,-0.08911725061996112, ,0.013742349724054699,0.0221374943715663,-0.09010369819754317, ,0.0014946611306786946, ,0.018381541191461213,-0.0011887596718214404,-0.035861548602534016,0.03699157647759137,-0.02341174290078686,-0.0014871495320187352, ,0.040315566153815124, ,0.04377701592834858, ,0.000686106851593117, ,0.1623009540847023,-0.24623161496177426,0.09950710927,1.6112575257350852,0.19921601665801217,-1.281854437215788, ,0.1496797185464839,0.1131072009040176,0.036872248888888896,0.008852134567206424,0.12658794500109546,-0.14728280616510664, ,1.2663888931274414
0.012959535466765166,0.022680314322059934,-0.08948370208717676, ,0.013810955315056318,0.022120111603325904,-0.09023699020845244, ,0.0016348602685900347, ,0.019136693061165486,-0.002208355203960523,-0.03659935971083523,0.015888787872718114,-0.024545051854600857,-0.0011256845088557952, ,0.041359436471828624, ,0.02923777489046412, ,0.0006963085012382452, ,0.1623009540847023,-0.24623161496177426,0.09950710927,1.6112575257350852,0.19921601665801217,-1.281854437215788, ,0.1496797185464839,0.1131072009040176,0.036872248888888896,0.008852134567206424,0.12658794500109546,-0.14728280616510664, ,1.2707240581512451
0.012959535466765166,0.022680314322059934,-0.08948370208717676, ,0.013880040232318506,0.022102171824152556,-0.09037052139633182, ,0.0014028635922224409, ,0.019136693061165486,-0.002208355203960523,-0.03659935971083523,0.015888787872718114,-0.024545051854600857,-0.0011256845088557952, ,0.041359436471828624, ,0.02923777489046412, ,0.0007038250447593537, ,0.1638455006595472,-0.24502686863339523,0.09988303337000001,1.6112575257350852,0.20044574515590113,-1.283183913309618, ,0.1558242061715448,0.12502890850918416,0.03747955651764706,0.007951124377627595,0.1320403074308537,-0.13805499816038921, ,1.274583101272583
0.012959535466765166,0.022680314322059934,-0.08948370208717676, ,0.0139495976908595,0.022083686489149833,-0.09050428436224021, ,0.0015420039425226217, ,0.019136693061165486,-0.002208355203960523,-0.03659935971083523,0.015888787872718114,-0.024545051854600857,-0.0011256845088557952, ,0.041359436471828624, ,0.02923777489046412, ,0.0007126479805252828, ,0.1638455006595472,-0.24502686863339523,0.09988303337000001,1.6112575257350852,0.20044574515590113,-1.283183913309618, ,0.1558242061715448,0.12502890850918416,0.03747955651764706,0.007951124377627595,0.1320403074308537,-0.13805499816038921, ,1.2782270908355713
0.013120017304958527,0.022658772999920012,-0.08978390272993711, ,0.014019620945122322,0.02206466698709545,-0.09063827174796381, ,0.0013755708207264922, ,0.019628336397979403,-0.003005994997450174,-0.03556232512536617,0.017400102353193836,-0.042765176890471816,-0.005252909503773775, ,0.04073065877197653, ,0.04616889686286276, ,0.0007195534267773787, ,0.16515836524816535,-0.2439688542296265,0.10019025410000001,1.6112575257350852,0.20153883715402465,-1.284483650239892, ,0.16057012108032281,0.12999581035406957,0.0363671495890411,0.007324648017007932,0.11819930417422836,-0.144555970831952, ,1.2818689346313477
0.013120017304958527,0.022658772999920012,-0.08978390272993711, ,0.01409010328888577,0.022045124640585768,-0.09077247623593376, ,0.0015148956075862836, ,0.019628336397979403,-0.003005994997450174,-0.03556232512536617,0.017400102353193836,-0.042765176890471816,-0.005252909503773775, ,0.04073065877197653, ,0.04616889686286276, ,0.0007277528307032437, ,0.16515836524816535,-0.2439688542296265,0.10019025410000001,1.6112575257350852,0.20153883715402465,-1.284483650239892, ,0.16057012108032281,0.12999581035406957,0.0363671495890411,0.007324648017007932,0.11819930417422836,-0.144555970831952, ,1.2855138778686523
0.013120017304958527,0.022658772999920012,-0.08978390272993711, ,0.01416103805517498,0.022025070706179838,-0.09090689054914694, ,0.001657227938928872, ,0.019628336397979403,-0.003005994997450174,-0.03556232512536617,0.017400102353193836,-0.042765176890471816,-0.005252909503773775, ,0.04073065877197653, ,0.04616889686286276, ,0.0007372372705830971, ,0.16515836524816535,-0.2439688542296265,0.10019025410000001,1.6112575257350852,0.20153883715402465,-1.284483650239892, ,0.16057012108032281,0.12999581035406957,0.0363671495890411,0.007324648017007932,0.11819930417422836,-0.144555970831952, ,1.2891809940338135
0.013367624322983435,0.022610441778094015,-0.09022006249064835, ,0.01423241861617224,0.0220045163745436,-0.09104150745108473, ,0.0013378290575503276, ,0.021259788811994675,-0.004769006850748895,-0.037313924417620256,-0.017699172223716506,-0.045881460618395035,-0.00529338368866353, ,0.043209385579026476, ,0.0491761811231565, ,0.0007433038542898369, ,0.16719716672696064,-0.24226213026442286,0.10063488157000001,1.6112575257350852,0.2030418386514445,-1.286035962141115, ,0.17444290727660072,0.1520784319847288,0.03792574171428572,0.006572433318436649,0.12956982139021844,-0.13130652065345583, ,1.2928009033203125
0.013367624322983435,0.022610441778094015,-0.09022006249064835, ,0.014304238383127853,0.02198347277059435,-0.09117631974563221, ,0.0014780947100015655, ,0.021259788811994675,-0.004769006850748895,-0.037313924417620256,-0.017699172223716506,-0.045881460618395035,-0.00529338368866353, ,0.043209385579026476, ,0.0491761811231565, ,0.0007506517628469542, ,0.16719716672696064,-0.24226213026442286,0.10063488157000001,1.6112575257350852,0.2030418386514445,-1.286035962141115, ,0.17444290727660072,0.1520784319847288,0.03792574171428572,0.006572433318436649,0.12956982139021844,-0.13130652065345583, ,1.2963778972625732
0.013367624322983435,0.022610441778094015,-0.09022006249064835, ,0.014376490806270695,0.02196195095364513,-0.09131132027699818, ,0.001621479412994174, ,0.021259788811994675,-0.004769006850748895,-0.037313924417620256,-0.017699172223716506,-0.045881460618395035,-0.00529338368866353, ,0.043209385579026476, ,0.0491761811231565, ,0.0007592738187890059, ,0.16719716672696064,-0.24226213026442286,0.10063488157000001,1.6112575257350852,0.2030418386514445,-1.286035962141115, ,0.17444290727660072,0.1520784319847288,0.03792574171428572,0.006572433318436649,0.12956982139021844,-0.13130652065345583, ,1.3030779361724854
0.013367624322983435,0.022610441778094015,-0.09022006249064835, ,0.014449169374719205,0.021939961917548902,-0.09144650192963391, ,0.0017673247126179029, ,0.021259788811994675,-0.004769006850748895,-0.037313924417620256,-0.017699172223716506,-0.045881460618395035,-0.00529338368866353, ,0.043209385579026476, ,0.0491761811231565, ,0.0007691566706892892, ,0.16888072249354158,-0.2407561973539491,0.10100562051,1.6112575257350852,0.2044082036490989,-1.287721892359063, ,0.16707208020857534,0.15039134953798858,0.03620184436363637,0.006063076084751164,0.13789701481068622,-0.15714127816041515, ,1.3066880702972412
0.01378933065095405,0.022501703373655008,-0.0909484820132646, ,0.014522267616391823,0.021917516590842553,-0.09158185762815223, ,0.0015192606934375395, ,0.020420398278206544,-0.006140947875429141,-0.03285908335375273,-0.02434714415945843,-0.06543427655223896,-0.005619380212945728, ,0.03914034140733907, ,0.06981682941610576, ,0.000776439234016942, ,0.17066467378748745,-0.2391498689161104,0.10137376687,1.6114672156785694,0.2057745686467533,-1.28924446509673, ,0.16825698857884888,0.15232253861712805,0.03325430379958247,0.0,0.1046606913207455,-0.12587667255871568, ,1.310802936553955
0.01378933065095405,0.022501703373655008,-0.0909484820132646, ,0.014595779097918139,0.02189462583689199,-0.09171738033724813, ,0.0012688998644013391, ,0.020420398278206544,-0.006140947875429141,-0.03285908335375273,-0.02434714415945843,-0.06543427655223896,-0.005619380212945728, ,0.03917171512071163, ,0.06981682941610576, ,0.0007811744323860226, ,0.17066467378748745,-0.2391498689161104,0.10137376687,1.6114672156785694,0.2057745686467533,-1.28924446509673, ,0.16825698857884888,0.15232253861712805,0.03325430379958247,0.0,0.1046606913207455,-0.12587667255871568, ,1.3143889904022217
0.01378933065095405,0.022501703373655008,-0.0909484820132646, ,0.014669697424549148,0.021871300454035205,-0.09185306306161668, ,0.0014109289032949804, ,0.020420398278206544,-0.006140947875429141,-0.03285908335375273,-0.02434714415945843,-0.06543427655223896,-0.005619380212945728, ,0.03917171512071163, ,0.06981682941610576, ,0.0007871720940137271, ,0.17066467378748745,-0.2391498689161104,0.10137376687,1.6114672156785694,0.2057745686467533,-1.28924446509673, ,0.16825698857884888,0.15232253861712805,0.03325430379958247,0.0,0.1046606913207455,-0.12587667255871568, ,1.3180010318756104
0.013994223830236336,0.022432421324761233,-0.09127515410857473, ,0.014744016240068623,0.021847551175727935,-0.09198889884587333, ,0.0011889883511177837, ,0.02023022537482323,-0.007798718614863895,-0.03202056848080958,-0.03293557318192706,-0.04141867599744871,-0.016622738311943486, ,0.03867038707569633, ,0.05291715260475484, ,0.0007909628134203692, ,0.17235595228694262,-0.23755126321114592,0.10170302453,1.6116769056220543,0.20686766064487683,-1.2904625232868638, ,0.16855584646264793,0.16648586238328208,0.03211453935483872,0.01387466407723169,0.12630255066135831,-0.1288785883670124, ,1.321549892425537
0.013994223830236336,0.022432421324761233,-0.09127515410857473, ,0.014818729226703296,0.02182338867068716,-0.09212488077447314, ,0.0013314523383397853, ,0.02023022537482323,-0.007798718614863895,-0.03202056848080958,-0.03293557318192706,-0.04141867599744871,-0.016622738311943486, ,0.03867038707569633, ,0.05291715260475484, ,0.0007960141173915787, ,0.17235595228694262,-0.23755126321114592,0.10170302453,1.6116769056220543,0.20686766064487683,-1.2904625232868638, ,0.16855584646264793,0.16648586238328208,0.03211453935483872,0.01387466407723169,0.12630255066135831,-0.1288785883670124, ,1.3251490592956543
0.013994223830236336,0.022432421324761233,-0.09127515410857473, ,0.014893830105033928,0.021798823543035438,-0.09226100197162945, ,0.001477373888950462, ,0.02023022537482323,-0.007798718614863895,-0.03202056848080958,-0.03293557318192706,-0.04141867599744871,-0.016622738311943486, ,0.03867038707569633, ,0.05291715260475484, ,0.000802323004165272, ,0.17235595228694262,-0.23755126321114592,0.10170302453,1.6116769056220543,0.20686766064487683,-1.2904625232868638, ,0.16855584646264793,0.16648586238328208,0.03211453935483872,0.01387466407723169,0.12630255066135831,-0.1288785883670124, ,1.3288979530334473
0.014144706983038562,0.02237200753607336,-0.09151962765853548, ,0.014969312633905923,0.021773866332445133,-0.09239725560123409, ,0.0013446107930273328, ,0.020827892765575073,-0.008111424278378616,-0.033458177479100695,-0.042502886070571844,-0.05253006688086301,-0.019226226825075125, ,0.04023737020608038, ,0.06757115747221906, ,0.0008072981214942818, ,0.17362248047831544,-0.23627701228689887,0.10194802334000001,1.6116769056220543,0.2080973891427658,-1.2917103206405531, ,0.17037152883028864,0.17253989374267414,0.033534340042105266,0.012954454806793919,0.1169645533950302,-0.1253817880884811, ,1.3325750827789307
0.014144706983038562,0.02237200753607336,-0.09151962765853548, ,0.015045170610340098,0.0217485275142832,-0.0925336348667764, ,0.0014925725108111316, ,0.020827892765575073,-0.008111424278378616,-0.033458177479100695,-0.042502886070571844,-0.05253006688086301,-0.019226226825075125, ,0.04023737020608038, ,0.06757115747221906, ,0.0008135278886698894, ,0.17362248047831544,-0.23627701228689887,0.10194802334000001,1.6116769056220543,0.2080973891427658,-1.2917103206405531, ,0.17037152883028864,0.17253989374267414,0.033534340042105266,0.012954454806793919,0.1169645533950302,-0.1253817880884811, ,1.3385748863220215
0.014409451058601653,0.022274402248895313,-0.09195412135043353, ,0.01512139786944356,0.02172281749975488,-0.09267013301126271, ,0.001150559296775115, ,0.02079871699731395,-0.007518987081931304,-0.03488365411576653,0.0022276989181759356,-0.018638590164820588,-0.011466691397538026, ,0.04130364535898788, ,0.01876987030057602, ,0.0008165642076618284, ,0.1757616774844756,-0.23413009254786446,0.10238487307000001,1.6116769056220543,0.20960039064018565,-1.2934259900220573, ,0.16885576789763485,0.16855584646264793,0.03516293933774835,0.011592698799330803,0.15018555825792512,-0.16638346327560902, ,1.342452049255371
0.014409451058601653,0.022274402248895313,-0.09195412135043353, ,0.015197988284320292,0.02169674663604845,-0.09280674331713526, ,0.001297089504043518, ,0.02079871699731395,-0.007518987081931304,-0.03488365411576653,0.0022276989181759356,-0.018638590164820588,-0.011466691397538026, ,0.04130364535898788, ,0.01876987030057602, ,0.0008208546120938078, ,0.1757616774844756,-0.23413009254786446,0.10238487307000001,1.6116769056220543,0.20960039064018565,-1.2934259900220573, ,0.16885576789763485,0.16855584646264793,0.03516293933774835,0.011592698799330803,0.15018555825792512,-0.16638346327560902, ,1.3460419178009033
0.014409451058601653,0.022274402248895313,-0.09195412135043353, ,0.015274935765981964,0.021670325206479296,-0.09294345910619237, ,0.0014466381879561995, ,0.02079871699731395,-0.007518987081931304,-0.03488365411576653,0.0022276989181759356,-0.018638590164820588,-0.011466691397538026, ,0.04130364535898788, ,0.01876987030057602, ,0.0008263925198448024, ,0.1757616774844756,-0.23413009254786446,0.10238487307000001,1.6116769056220543,0.20960039064018565,-1.2934259900220573, ,0.16885576789763485,0.16855584646264793,0.03516293933774835,0.011592698799330803,0.15018555825792512,-0.16638346327560902, ,1.3496160507202148
0.0146089501738848,0.022200827017546228,-0.09228465241770435, ,0.01535223426325866,0.021643563430634054,-0.09308027373950681, ,0.0012231219197288712, ,0.020145300896740173,-0.007639196266146727,-0.032654511189833126,0.02250230904185607,-0.03147867361897509,-0.0151460037262229, ,0.03912170201895423, ,0.038693974670428524, ,0.0008298726022999258, ,0.17737572865518852,-0.23251604137715154,0.10271801960000002,1.6116769056220543,0.21096675563784006,-1.2950302414998647, ,0.1630531641898123,0.1630531641898123,0.03291076760330579,0.010716051806361204,0.131039915190654,-0.18134296207658906, ,1.353200912475586
0.0146089501738848,0.022200827017546228,-0.09228465241770435, ,0.01542987776270976,0.021616471464515254,-0.09321718061734612, ,0.0013729538818107497, ,0.020145300896740173,-0.007639196266146727,-0.032654511189833126,0.02250230904185607,-0.03147867361897509,-0.0151460037262229, ,0.03912170201895423, ,0.038693974670428524, ,0.0008345950482087156, ,0.17737572865518852,-0.23251604137715154,0.10271801960000002,1.6116769056220543,0.21096675563784006,-1.2950302414998647, ,0.1630531641898123,0.1630531641898123,0.03291076760330579,0.010716051806361204,0.131039915190654,-0.18134296207658906, ,1.356760025024414
0.0146089501738848,0.022200827017546228,-0.09228465241770435, ,0.0155078602885344,0.021589059400685506,-0.09335417317909131, ,0.0015251798812915614, ,0.020145300896740173,-0.007639196266146727,-0.032654511189833126,0.02250230904185607,-0.03147867361897509,-0.0151460037262229, ,0.03912170201895423, ,0.038693974670428524, ,0.0008405483657352918, ,0.17898977982590147,-0.23080159467907368,0.10304986984000002,1.6116769056220543,0.212196484135729,-1.2964413963338353, ,0.15816156926411795,0.17573507696013105,0.034931604210526324,0.0099497623491485,0.12716251150757701,-0.1396823100320251, ,1.360400915145874
0.014810968261189527,0.02211645268354652,-0.09261575516131205, ,0.015586175902482659,0.021561337268411446,-0.0934912449031568, ,0.001294442852858026, ,0.020238151425666248,-0.008480396142739006,-0.03489697684405824,-0.03168228713379106,-0.030901445842599552,-0.016437862300746963, ,0.041222553107743296, ,0.04425624159115225, ,0.0008444278057961698, ,0.17898977982590147,-0.23080159467907368,0.10304986984000002,1.6116769056220543,0.212196484135729,-1.2964413963338353, ,0.15816156926411795,0.17573507696013105,0.034931604210526324,0.0099497623491485,0.12716251150757701,-0.1396823100320251, ,1.3639578819274902
0.014810968261189527,0.02211645268354652,-0.09261575516131205, ,0.01566481870376567,0.02153331503380846,-0.09362838930690895, ,0.0014472518818983294, ,0.020238151425666248,-0.008480396142739006,-0.03489697684405824,-0.03168228713379106,-0.030901445842599552,-0.016437862300746963, ,0.041222553107743296, ,0.04425624159115225, ,0.0008495364844072051, ,0.17898977982590147,-0.23080159467907368,0.10304986984000002,1.6116769056220543,0.212196484135729,-1.2964413963338353, ,0.15816156926411795,0.17573507696013105,0.034931604210526324,0.0099497623491485,0.12716251150757701,-0.1396823100320251, ,1.367577075958252
0.014810968261189527,0.02211645268354652,-0.09261575516131205, ,0.015743782828967018,0.02150500259998456,-0.09376559994658618, ,0.0016019229859041044, ,0.020238151425666248,-0.008480396142739006,-0.03489697684405824,-0.03168228713379106,-0.030901445842599552,-0.016437862300746963, ,0.041222553107743296, ,0.04425624159115225, ,0.0008558590600500362, ,0.18056521733224326,-0.22905625704949895,0.10341671991000001,1.6116769056220543,0.21383612213291428,-1.2981051261387546, ,0.15763611554563253,0.1716038726192962,0.03713009678321679,0.0092863410874513,0.18313560473702237,-0.20785504862471468, ,1.3712339401245117
0.01501301789273269,0.02203591550209783,-0.09298106025589647, ,0.01582306245195322,0.021476409807185383,-0.09390287041721823, ,0.0013486855764329535, ,0.020164937547221998,-0.007726360617268571,-0.03686015554657983,0.04041628216875796,0.024606341016207726,-0.005162020714436751, ,0.04271993002790971, ,0.047316802926445724, ,0.0008599659476865605, ,0.18056521733224326,-0.22905625704949895,0.10341671991000001,1.6116769056220543,0.21383612213291428,-1.2981051261387546, ,0.15763611554563253,0.1716038726192962,0.03713009678321679,0.0092863410874513,0.18313560473702237,-0.20785504862471468, ,1.3748888969421387
0.01501301789273269,0.02203591550209783,-0.09298106025589647, ,0.015902651783784263,0.021447546432937357,-0.09404019435254529, ,0.0015031272921267953, ,0.020164937547221998,-0.007726360617268571,-0.03686015554657983,0.04041628216875796,0.024606341016207726,-0.005162020714436751, ,0.04271993002790971, ,0.047316802926445724, ,0.0008652813306984634, ,0.18056521733224326,-0.22905625704949895,0.10341671991000001,1.6116769056220543,0.21383612213291428,-1.2981051261387546, ,0.15763611554563253,0.1716038726192962,0.03713009678321679,0.0092863410874513,0.18313560473702237,-0.20785504862471468, ,1.3785638809204102
0.015167195202911867,0.021979464038299187,-0.09326351957547548, ,0.015982545072624803,0.02141842219219339,-0.09417756542493745, ,0.0013472353833096007, ,0.020492462795957737,-0.007038714854022664,-0.03762842699604077,0.015112777178516997,0.01961922467571243,-0.003929092254801109, ,0.04342099787471864, ,0.02476357354329456, ,0.0008692317737526529, ,0.18176224092774806,-0.22777428339237768,0.10370190371000002,1.6116769056220543,0.21520248713056872,-1.2995460201362814, ,0.15816156926411795,0.16561420865352666,0.038107204593301434,0.008843570711016518,0.1789028045706833,-0.17667556851503272, ,1.382188081741333
0.015167195202911867,0.021979464038299187,-0.09326351957547548, ,0.016062736603654485,0.021389046737475687,-0.09431497734531405, ,0.0015020487446516723, ,0.020492462795957737,-0.007038714854022664,-0.03762842699604077,0.015112777178516997,0.01961922467571243,-0.003929092254801109, ,0.04342099787471864, ,0.02476357354329456, ,0.0008743766271745962, ,0.18176224092774806,-0.22777428339237768,0.10370190371000002,1.6116769056220543,0.21520248713056872,-1.2995460201362814, ,0.15816156926411795,0.16561420865352666,0.038107204593301434,0.008843570711016518,0.1789028045706833,-0.17667556851503272, ,1.385828971862793
0.015167195202911867,0.021979464038299187,-0.09326351957547548, ,0.0161432206989789,0.0213594296590211,-0.09445242386306317, ,0.0016584817772601723, ,0.020492462795957737,-0.007038714854022664,-0.03762842699604077,0.015112777178516997,0.01961922467571243,-0.003929092254801109, ,0.04342099787471864, ,0.02476357354329456, ,0.0008807000558043185, ,0.18176224092774806,-0.22777428339237768,0.10370190371000002,1.6116769056220543,0.21520248713056872,-1.2995460201362814, ,0.15816156926411795,0.16561420865352666,0.038107204593301434,0.008843570711016518,0.1789028045706833,-0.17667556851503272, ,1.389564037322998
0.015419901267453347,0.02189443044165057,-0.09373551233912955, ,0.01622399171754042,0.021329580484925118,-0.0945898987659609, ,0.0013021494122748014, ,0.021024902416481975,-0.006883733124569814,-0.04008284246249781,-0.014463431284523952,0.013759978159358368,-0.005164937754038708, ,0.045782819520277546, ,0.019960570600143182, ,0.0008840716506560823, ,0.18368520141342995,-0.22574320464645664,0.10418023472000001,1.6116769056220543,0.21738867112681573,-1.3016554215559861, ,0.15659561313279005,0.16825698857884888,0.04063472326530613,0.008213362138160579,0.17160643251280314,-0.1497260358610267, ,1.393160104751587
0.015419901267453347,0.02189443044165057,-0.09373551233912955, ,0.01630504405502861,0.021299508681285644,-0.0947273958800908, ,0.0014564486308078402, ,0.021024902416481975,-0.006883733124569814,-0.04008284246249781,-0.014463431284523952,0.013759978159358368,-0.005164937754038708, ,0.045782819520277546, ,0.019960570600143182, ,0.0008886143251017313, ,0.18368520141342995,-0.22574320464645664,0.10418023472000001,1.6116769056220543,0.21738867112681573,-1.3016554215559861, ,0.15659561313279005,0.16825698857884888,0.04063472326530613,0.008213362138160579,0.17160643251280314,-0.1497260358610267, ,1.3966989517211914
0.015419901267453347,0.02189443044165057,-0.09373551233912955, ,0.016386372143791433,0.02126922365234843,-0.09486490906976315, ,0.0016126023872502062, ,0.021024902416481975,-0.006883733124569814,-0.04008284246249781,-0.014463431284523952,0.013759978159358368,-0.005164937754038708, ,0.045782819520277546, ,0.019960570600143182, ,0.0008943150185044751, ,0.18368520141342995,-0.22574320464645664,0.10418023472000001,1.6116769056220543,0.21738867112681573,-1.3016554215559861, ,0.15659561313279005,0.16825698857884888,0.04063472326530613,0.008213362138160579,0.17160643251280314,-0.1497260358610267, ,1.4002690315246582
0.01563979887929652,0.021825442466972808,-0.09415558351208028, ,0.01646797045274552,0.021238734740649814,-0.09500243223743457, ,0.0013218346624409081, ,0.021372852482865967,-0.006431815741330461,-0.04111881314210089,-0.00836989086040904,-0.0019435346229383958,-0.008708280596391338, ,0.04678593668186825, ,0.008585735565430113, ,0.0008976550157227285, ,0.1852992525841429,-0.22402103521550457,0.10460671413000001,1.6116769056220543,0.21902830912400104,-1.3031557938806244, ,0.15506036202364507,0.16475163465012285,0.04180790425196851,0.00774564483295658,0.15393979093059124,-0.15239419088808506, ,1.4039859771728516
0.01563979887929652,0.021825442466972808,-0.09415558351208028, ,0.016549833487287377,0.021208051227162544,-0.09513995932362707, ,0.0014759168909846906, ,0.021372852482865967,-0.006431815741330461,-0.04111881314210089,-0.00836989086040904,-0.0019435346229383958,-0.008708280596391338, ,0.04678593668186825, ,0.008585735565430113, ,0.0009021376659185577, ,0.1852992525841429,-0.22402103521550457,0.10460671413000001,1.6116769056220543,0.21902830912400104,-1.3031557938806244, ,0.15506036202364507,0.16475163465012285,0.04180790425196851,0.00774564483295658,0.15393979093059124,-0.15239419088808506, ,1.4076669216156006
0.015803868738445265,0.02177480370135455,-0.09446536378389266, ,0.01663195578920376,0.02117718233143901,-0.09527748430684746, ,0.0013047678756077702, ,0.020973624586709178,-0.0066937580543917725,-0.03884843622901774,-0.011915654024680434,-0.008035061989631569,-0.009556373050700881, ,0.04465311100735317, ,0.014368595874672591, ,0.0009052348213777054, ,0.18648855344677345,-0.222762229757006,0.10492171260000001,1.6116769056220543,0.22012140112212455,-1.3042104945904769, ,0.15355492161564852,0.16111535069349878,0.039525586898263035,0.007432014218061621,0.1462539671723572,-0.1452809762035946, ,1.4114179611206055
0.015803868738445265,0.02177480370135455,-0.09446536378389266, ,0.016714331936582595,0.021146137211755806,-0.09541500120350699, ,0.0014580727070481188, ,0.020973624586709178,-0.0066937580543917725,-0.03884843622901774,-0.011915654024680434,-0.008035061989631569,-0.009556373050700881, ,0.04465311100735317, ,0.014368595874672591, ,0.0009094549579095406, ,0.18648855344677345,-0.222762229757006,0.10492171260000001,1.6116769056220543,0.22012140112212455,-1.3042104945904769, ,0.15355492161564852,0.16111535069349878,0.039525586898263035,0.007432014218061621,0.1462539671723572,-0.1452809762035946, ,1.415252923965454
0.015803868738445265,0.02177480370135455,-0.09446536378389266, ,0.01679695654372384,0.021114924965258325,-0.09555250406784066, ,0.0016135480570244915, ,0.020973624586709178,-0.0066937580543917725,-0.03884843622901774,-0.011915654024680434,-0.008035061989631569,-0.009556373050700881, ,0.04465311100735317, ,0.014368595874672591, ,0.0009147889965391994, ,0.18648855344677345,-0.222762229757006,0.10492171260000001,1.6116769056220543,0.22012140112212455,-1.3042104945904769, ,0.15355492161564852,0.16111535069349878,0.039525586898263035,0.007432014218061621,0.1462539671723572,-0.1452809762035946, ,1.4188909530639648
0.016051184290686443,0.021685409441248867,-0.09492254223152063, ,0.016879824261049944,0.02108355462810466,-0.0956899869918266, ,0.0012797831365938326, ,0.019621606798314307,-0.007857188654769443,-0.03560701592881807,0.016095965260619946,0.024628750623620282,-0.005465628751029057, ,0.04140775833415032, ,0.029421050589936746, ,0.0009175333133817153, ,0.18833428660371312,-0.22076976467545606,0.10538578442000002,1.6116769056220543,0.22230758511837162,-1.3064015747503224, ,0.14689929033819007,0.16361541648012204,0.03603803511312218,0.006977652407375541,0.17268203024762313,-0.17581580738296593, ,1.4225070476531982
0.016051184290686443,0.021685409441248867,-0.09492254223152063, ,0.01696292977501679,0.021052035175609992,-0.09582744410510509, ,0.0014322325891373284, ,0.019621606798314307,-0.007857188654769443,-0.03560701592881807,0.016095965260619946,0.024628750623620282,-0.005465628751029057, ,0.04140775833415032, ,0.029421050589936746, ,0.0009213743527530259, ,0.18833428660371312,-0.22076976467545606,0.10538578442000002,1.6116769056220543,0.22230758511837162,-1.3064015747503224, ,0.14689929033819007,0.16361541648012204,0.03603803511312218,0.006977652407375541,0.17268203024762313,-0.17581580738296593, ,1.4260549545288086
0.016051184290686443,0.021685409441248867,-0.09492254223152063, ,0.017046267808024387,0.02102037552239085,-0.09596486957489847, ,0.0015871066789798353, ,0.019621606798314307,-0.007857188654769443,-0.03560701592881807,0.016095965260619946,0.024628750623620282,-0.005465628751029057, ,0.04140775833415032, ,0.029421050589936746, ,0.0009263057033176688, ,0.18833428660371312,-0.22076976467545606,0.10538578442000002,1.6116769056220543,0.22230758511837162,-1.3064015747503224, ,0.14689929033819007,0.16361541648012204,0.03603803511312218,0.006977652407375541,0.17268203024762313,-0.17581580738296593, ,1.4296720027923584
0.01619335670487059,0.021627655195148456,-0.0951733150002018, ,0.017129833118327723,0.020988584522509422,-0.09610225760593012, ,0.00146571953740344, ,0.019960293562287797,-0.008106504702144472,-0.03530209186392026,0.01686493698747713,0.02889649558394513,-0.004044249394966851, ,0.04135657659365997, ,0.033457117757658576, ,0.0009302719815094759, ,0.18940774647323033,-0.21959590927857392,0.10563985726000001,1.6116769056220543,0.22353731361626059,-1.3075676933638714, ,0.1508695414284114,0.16475163465012285,0.03579508206741574,0.006739837466479288,0.18112574944255408,-0.1777173863866451, ,1.4333469867706299
0.01619335670487059,0.021627655195148456,-0.0951733150002018, ,0.01721362049994739,0.020956670969618195,-0.09623960244034394, ,0.0016211498843289646, ,0.019960293562287797,-0.008106504702144472,-0.03530209186392026,0.01686493698747713,0.02889649558394513,-0.004044249394966851, ,0.04135657659365997, ,0.033457117757658576, ,0.0009353148859096181, ,0.18940774647323033,-0.21959590927857392,0.10563985726000001,1.6116769056220543,0.22353731361626059,-1.3075676933638714, ,0.1508695414284114,0.16475163465012285,0.03579508206741574,0.006739837466479288,0.18112574944255408,-0.1777173863866451, ,1.4369959831237793
0.01619335670487059,0.021627655195148456,-0.0951733150002018, ,0.01729762478258026,0.020924643597103207,-0.09637689835762411, ,0.0017782705622876101, ,0.019960293562287797,-0.008106504702144472,-0.03530209186392026,0.01686493698747713,0.02889649558394513,-0.004044249394966851, ,0.04135657659365997, ,0.033457117757658576, ,0.0009414232603761252, ,0.18940774647323033,-0.21959590927857392,0.10563985726000001,1.6116769056220543,0.22353731361626059,-1.3075676933638714, ,0.1508695414284114,0.16475163465012285,0.03579508206741574,0.006739837466479288,0.18112574944255408,-0.1777173863866451, ,1.440674066543579
0.016463035087047318,0.02152795094407603,-0.09565690259757349, ,0.01738184083151044,0.020892511078229575,-0.09651413967451403, ,0.0014081346616169005, ,0.021183802546891516,-0.007256963424748434,-0.037977246345759115,0.04357918427504545,0.03826532899605017,-0.0009795102461004441, ,0.04408727989454893, ,0.057993979920546286, ,0.0009447808963562748, ,0.19142337975340293,-0.21746443500528798,0.10613244746000002,1.6116769056220543,0.22599677061203852,-1.3100632880712504, ,0.15789840525535903,0.16111535069349878,0.03885075980487805,0.00634156670906534,0.19771423800255913,-0.20090388019702027, ,1.4447178840637207
0.016463035087047318,0.02152795094407603,-0.09565690259757349, ,0.017466263547519994,0.02086028202628512,-0.09665132074493549, ,0.001562407302686889, ,0.021183802546891516,-0.007256963424748434,-0.037977246345759115,0.04357918427504545,0.03826532899605017,-0.0009795102461004441, ,0.04408727989454893, ,0.057993979920546286, ,0.0009491925135443506, ,0.19142337975340293,-0.21746443500528798,0.10613244746000002,1.6116769056220543,0.22599677061203852,-1.3100632880712504, ,0.15789840525535903,0.16111535069349878,0.03885075980487805,0.00634156670906534,0.19771423800255913,-0.20090388019702027, ,1.4483449459075928
0.016670111059929237,0.021459881728577386,-0.09602490042580401, ,0.017550887866799446,0.020827964994724286,-0.0967884359599088, ,0.0013259234721071681, ,0.021183802546891516,-0.007256963424748434,-0.037977246345759115,0.04357918427504545,0.03826532899605017,-0.0009795102461004441, ,0.04408727989454893, ,0.057993979920546286, ,0.0009518643643142996, ,0.1929524808624994,-0.2159276111633173,0.10650966785000002,1.6118865955655386,0.2277730451089892,-1.311838435779866, ,0.15531414330355284,0.15531414330355284,0.03866216388349515,0.0,0.1729302514546957,-0.1339187231695056, ,1.4523019790649414
0.016670111059929237,0.021459881728577386,-0.09602490042580401, ,0.017635708760858803,0.020795568477313404,-0.0969254797474717, ,0.001478084615460436, ,0.021222447537852594,-0.00686471090663235,-0.037685378645647825,-0.01874387067868504,0.014701983229885893,0.002792234638034108, ,0.04379160078136436, ,0.023820264272602053, ,0.0009555701407308216, ,0.1929524808624994,-0.2159276111633173,0.10650966785000002,1.6118865955655386,0.2277730451089892,-1.311838435779866, ,0.15531414330355284,0.15531414330355284,0.03866216388349515,0.0,0.1729302514546957,-0.1339187231695056, ,1.4559829235076904
0.016670111059929237,0.021459881728577386,-0.09602490042580401, ,0.017720721236438284,0.020763100908274316,-0.09706244657259867, ,0.0016327238778357583, ,0.021222447537852594,-0.00686471090663235,-0.037685378645647825,-0.01874387067868504,0.014701983229885893,0.002792234638034108, ,0.04379160078136436, ,0.023820264272602053, ,0.0009603054815497372, ,0.1929524808624994,-0.2159276111633173,0.10650966785000002,1.6118865955655386,0.2277730451089892,-1.311838435779866, ,0.15531414330355284,0.15531414330355284,0.03866216388349515,0.0,0.1729302514546957,-0.1339187231695056, ,1.4596080780029297
0.016881843745620767,0.0213836212524189,-0.09639073015476551, ,0.01780592033541882,0.020730570662428366,-0.09719933093712047, ,0.001390765200213474, ,0.021045602078275806,-0.008043178807170603,-0.036316865588153405,0.00938186328987945,0.024008733529556833,0.001550521722996251, ,0.04273786164876814, ,0.025775481954488543, ,0.0009632947851515687, ,0.19452019563596695,-0.21432900545835282,0.10688429566000002,1.6118865955655386,0.22954931960593997,-1.3135319047483414, ,0.1558242061715448,0.16277348466290012,0.03713009678321679,0.0,0.1825846385120124,-0.169359297768786, ,1.4632399082183838
0.016881843745620767,0.0213836212524189,-0.09639073015476551, ,0.017891301134733154,0.020697986055341525,-0.09733612737964366, ,0.0015436566187828902, ,0.021045602078275806,-0.008043178807170603,-0.036316865588153405,0.00938186328987945,0.024008733529556833,0.001550521722996251, ,0.04273786164876814, ,0.025775481954488543, ,0.0009672972805559227, ,0.19452019563596695,-0.21432900545835282,0.10688429566000002,1.6118865955655386,0.22954931960593997,-1.3135319047483414, ,0.1558242061715448,0.16277348466290012,0.03713009678321679,0.0,0.1825846385120124,-0.169359297768786, ,1.4668428897857666
0.016881843745620767,0.0213836212524189,-0.09639073015476551, ,0.017976858746276282,0.020665355343467987,-0.09747283047546969, ,0.0016987951235183589, ,0.021045602078275806,-0.008043178807170603,-0.036316865588153405,0.00938186328987945,0.024008733529556833,0.001550521722996251, ,0.04273786164876814, ,0.025775481954488543, ,0.0009723075397542956, ,0.19452019563596695,-0.21432900545835282,0.10688429566000002,1.6118865955655386,0.22954931960593997,-1.3135319047483414, ,0.1558242061715448,0.16277348466290012,0.03713009678321679,0.0,0.1825846385120124,-0.169359297768786, ,1.4704411029815674
0.01710561474600267,0.021299311518245215,-0.09677104678390744, ,0.01806258831681635,0.020632686724294587,-0.09760943483651467, ,0.001436343119835977, ,0.02252500412480993,-0.007834520939685358,-0.0386754016359187,-0.05312357550735943,-0.043411847167017625,-0.01113163302059578, ,0.045437233860312135, ,0.06860478276077071, ,0.0009754642443807015, ,0.1961419695395541,-0.21263000422602343,0.10727318266000001,1.6118865955655386,0.2310523211033598,-1.3147575016890016, ,0.15869053772319527,0.16475163465012285,0.03962390925373134,0.0,0.11700647564732883,-0.1086471532837711, ,1.4740180969238281
0.01710561474600267,0.021299311518245215,-0.09677104678390744, ,0.01814848502790549,0.020599988336485534,-0.0977459351112281, ,0.0015896661876534427, ,0.02252500412480993,-0.007834520939685358,-0.0386754016359187,-0.05312357550735943,-0.043411847167017625,-0.01113163302059578, ,0.045437233860312135, ,0.06860478276077071, ,0.0009796142575109227, ,0.1961419695395541,-0.21263000422602343,0.10727318266000001,1.6118865955655386,0.2310523211033598,-1.3147575016890016, ,0.15869053772319527,0.16475163465012285,0.03962390925373134,0.0,0.11700647564732883,-0.1086471532837711, ,1.4776270389556885
0.017333458733346893,0.02122148425750578,-0.0971648150774218, ,0.018234544095790346,0.02056726826002589,-0.0978823259845131, ,0.0013246793210295955, ,0.022401711637612745,-0.007703395557887585,-0.03819436690756055,0.0032677136294024635,0.010032326125598704,-0.0006093625323230997, ,0.04494428385106823, ,0.010547238379919822, ,0.000981930130420444, ,0.19776374344314124,-0.21097733939093938,0.10767762514000001,1.6118865955655386,0.23255532260077963,-1.3162281348500842, ,0.16221699411704404,0.16138935639195712,0.039330398814814815,0.0,0.17478468744936643,-0.1617815139068408, ,1.48173189163208
0.017333458733346893,0.02122148425750578,-0.0971648150774218, ,0.01832076077132304,0.02053453451636647,-0.09801860217764512, ,0.001474997516455856, ,0.022401711637612745,-0.007703395557887585,-0.03819436690756055,0.0032677136294024635,0.010032326125598704,-0.0006093625323230997, ,0.04494428385106823, ,0.010547238379919822, ,0.0009852172463273468, ,0.19776374344314124,-0.21097733939093938,0.10767762514000001,1.6118865955655386,0.23255532260077963,-1.3162281348500842, ,0.16221699411704404,0.16138935639195712,0.039330398814814815,0.0,0.17478468744936643,-0.1617815139068408, ,1.4853498935699463
0.017333458733346893,0.02122148425750578,-0.0971648150774218, ,0.01840713033987175,0.020501795068567877,-0.0981547584481917, ,0.0016281004651627067, ,0.022401711637612745,-0.007703395557887585,-0.03819436690756055,0.0032677136294024635,0.010032326125598704,-0.0006093625323230997, ,0.04494428385106823, ,0.010547238379919822, ,0.0009894747510878457, ,0.19776374344314124,-0.21097733939093938,0.10767762514000001,1.6118865955655386,0.23255532260077963,-1.3162281348500842, ,0.16221699411704404,0.16138935639195712,0.039330398814814815,0.0,0.17478468744936643,-0.1617815139068408, ,1.4890189170837402
0.01755251726352504,0.021145831991664664,-0.09753408407158545, ,0.01849364812123166,0.02046905782144495,-0.09829078958993176, ,0.0013843243154333235, ,0.02274529538909015,-0.007886098595030809,-0.038049456051807234,0.042253509338550814,0.03896238411125111,0.004555445463099654, ,0.04502554962713862, ,0.05747474815021673, ,0.0009920724455901187, ,0.19937007188097994,-0.2094096246174718,0.10805873440000001,1.6118865955655386,0.2344682335974958,-1.3180330217222558, ,0.1676624409160261,0.1619401733079706,0.039330398814814815,0.0,0.20952003172208242,-0.20132588309200464, ,1.4927899837493896
0.01755251726352504,0.021145831991664664,-0.09753408407158545, ,0.018580309469535542,0.02043633062171097,-0.09842669043277502, ,0.001535087987295252, ,0.02274529538909015,-0.007886098595030809,-0.038049456051807234,0.042253509338550814,0.03896238411125111,0.004555445463099654, ,0.04502554962713862, ,0.05747474815021673, ,0.000995621566777734, ,0.19937007188097994,-0.2094096246174718,0.10805873440000001,1.6118865955655386,0.2344682335974958,-1.3180330217222558, ,0.1676624409160261,0.1619401733079706,0.039330398814814815,0.0,0.20952003172208242,-0.20132588309200464, ,1.4964179992675781
0.01755251726352504,0.021145831991664664,-0.09753408407158545, ,0.018667109773164447,0.02040362125812122,-0.09856245584268099, ,0.0016884139703039476, ,0.02274529538909015,-0.007886098595030809,-0.038049456051807234,0.042253509338550814,0.03896238411125111,0.004555445463099654, ,0.04502554962713862, ,0.05747474815021673, ,0.0010001202187486834, ,0.19937007188097994,-0.2094096246174718,0.10805873440000001,1.6118865955655386,0.2344682335974958,-1.3180330217222558, ,0.1676624409160261,0.1619401733079706,0.039330398814814815,0.0,0.20952003172208242,-0.20132588309200464, ,1.5000131130218506
0.017786698202398452,0.021066392948903744,-0.0979210979177296, ,0.018754044454658853,0.020370937461619002,-0.09869808072157946, ,0.0014223640124929645, ,0.023407425753044477,-0.007915205537710007,-0.03844567520345536,0.058541465976959486,0.009866743822612167,-0.001941441939159991, ,0.045701509832149614, ,0.05936642047893279, ,0.001002844372256711, ,0.20107679584618357,-0.20778012798101042,0.10845928801000002,1.6116769056220543,0.23638114459421197,-1.320082944814849, ,0.16945882421155498,0.1619401733079706,0.039822028800000006,-0.0006926634379323778,0.1814664810914971,-0.21772927845333195, ,1.5036249160766602
0.017786698202398452,0.021066392948903744,-0.0979210979177296, ,0.018841108970628746,0.020338286905477686,-0.09883356000728823, ,0.0015730567515240008, ,0.023407425753044477,-0.007915205537710007,-0.03844567520345536,0.058541465976959486,0.009866743822612167,-0.001941441939159991, ,0.045701509832149614, ,0.05936642047893279, ,0.0010064995798161167, ,0.20107679584618357,-0.20778012798101042,0.10845928801000002,1.6116769056220543,0.23638114459421197,-1.320082944814849, ,0.16945882421155498,0.1619401733079706,0.039822028800000006,-0.0006926634379323778,0.1814664810914971,-0.21772927845333195, ,1.5072040557861328
0.017786698202398452,0.021066392948903744,-0.0979210979177296, ,0.018928298811665075,0.020305677205446963,-0.09896888867343409, ,0.0017262114184423405, ,0.023407425753044477,-0.007915205537710007,-0.03844567520345536,0.058541465976959486,0.009866743822612167,-0.001941441939159991, ,0.045701509832149614, ,0.05936642047893279, ,0.0010110837316545003, ,0.20107679584618357,-0.20778012798101042,0.10845928801000002,1.6116769056220543,0.23638114459421197,-1.320082944814849, ,0.16945882421155498,0.1619401733079706,0.039822028800000006,-0.0006926634379323778,0.1814664810914971,-0.21772927845333195, ,1.5107789039611816
0.01802711763351268,0.02098247809218233,-0.09830548790637351, ,0.019015609502250216,0.0202731159198962,-0.09910406172937145, ,0.0014553456691825, ,0.02379070874383825,-0.008542858446279885,-0.037164904771313005,-0.03548675936775132,-0.04501587833051971,-0.010906739798385917, ,0.044946728464128304, ,0.05732075094771082, ,0.0010138955160692346, ,0.20279896527713562,-0.20611974041305217,0.10885724904,1.6116769056220543,0.23788414609163183,-1.3215535779759313, ,0.16945882421155498,0.16418155978974183,0.03847539014492755,-0.0006926634379323778,0.1261834977214453,-0.12571039266044723, ,1.5144259929656982
0.01802711763351268,0.02098247809218233,-0.09830548790637351, ,0.01910303660066826,0.020240610549957964,-0.09923907422010135, ,0.001606098527261351, ,0.02379070874383825,-0.008542858446279885,-0.037164904771313005,-0.03548675936775132,-0.04501587833051971,-0.010906739798385917, ,0.044946728464128304, ,0.05732075094771082, ,0.0010176200633094366, ,0.20279896527713562,-0.20611974041305217,0.10885724904,1.6116769056220543,0.23788414609163183,-1.3215535779759313, ,0.16945882421155498,0.16418155978974183,0.03847539014492755,-0.0006926634379323778,0.1261834977214453,-0.12571039266044723, ,1.5182409286499023
0.018268954305182758,0.020892357348182043,-0.09867984464902743, ,0.019190575698916842,0.020208168539674425,-0.09937392122619197, ,0.0013413584957213613, ,0.023161076746673646,-0.00903842814161466,-0.035804096144948006,-0.01193309486342942,-0.023043677944391782,-0.014976809405626169, ,0.043589700160624176, ,0.025949007831824442, ,0.001019643428512011, ,0.20452885744096191,-0.20443618464647123,0.10924483975000002,1.6114672156785694,0.23925051108928622,-1.3230761507135984, ,0.1661942934474094,0.1650381592321231,0.037043747720930234,0.005780211255495005,0.14368212428877336,-0.14882848685679412, ,1.5259270668029785
0.018268954305182758,0.020892357348182043,-0.09867984464902743, ,0.019278222422616717,0.020175797276139235,-0.09950859786369688, ,0.001489601409954901, ,0.023161076746673646,-0.00903842814161466,-0.035804096144948006,-0.01193309486342942,-0.023043677944391782,-0.014976809405626169, ,0.043589700160624176, ,0.025949007831824442, ,0.0010225624221855694, ,0.20452885744096191,-0.20443618464647123,0.10924483975000002,1.6114672156785694,0.23925051108928622,-1.3230761507135984, ,0.1661942934474094,0.1650381592321231,0.037043747720930234,0.005780211255495005,0.14368212428877336,-0.14882848685679412, ,1.5295729637145996
0.018498313275063995,0.0208018022788917,-0.09902583459432124, ,0.019365972430923473,0.020143504089643684,-0.09964309928407512, ,0.001251880431163838, ,0.022925362614723856,-0.009214695615910273,-0.033886146337288064,0.01403468133303772,0.006853211737306253,-0.008545994465313025, ,0.0419374984936221, ,0.015617109574700447, ,0.0010239779654508674, ,0.20620469047466863,-0.20281441074288406,0.10960391208,1.6114672156785694,0.24089014908647152,-1.324494844298096, ,0.16945882421155498,0.1619401733079706,0.03524073345132744,0.005534010093758617,0.177365256729232,-0.17181492595927225, ,1.533268928527832
0.018498313275063995,0.0208018022788917,-0.09902583459432124, ,0.019453821416437454,0.02011129625381954,-0.09977742067411068, ,0.0013980972835340075, ,0.022925362614723856,-0.009214695615910273,-0.033886146337288064,0.01403468133303772,0.006853211737306253,-0.008545994465313025, ,0.0419374984936221, ,0.015617109574700447, ,0.0010262731759912548, ,0.20620469047466863,-0.20281441074288406,0.10960391208,1.6114672156785694,0.24089014908647152,-1.324494844298096, ,0.16945882421155498,0.1619401733079706,0.03524073345132744,0.005534010093758617,0.177365256729232,-0.17181492595927225, ,1.5369539260864258
