NicholasDascanio/dvrk_moveit_final/test/execution/third_experiment_notsharpbends/thirdexp_300vel4.0/thirdexp_300vel4.0_21.csv
Current Position (x),Current Position (y),Current Position (z), ,Planned Position (x),Planned Position (y),Planned Position (z), ,Position Error,,Cartesian linear Velocity(x),Cartesian linear Velocity(y),Cartesian linear Velocity(z),Cartesian Angular Velocity(x),Cartesian Angular Velocity(y),Cartesian Angular Velocity(z), ,Total Linear Velocity, ,Total Angular Velocity, ,MSE, ,Joint 1 Position,Joint 2 Position,Joint 3 Position,Joint 4 Position,Joint 5 Position,Joint 6 Position, ,Joint 1 Velocity,Joint 2 Velocity,Joint 3 Velocity,Joint 4 Velocity,Joint 5 Velocity,Joint 6 Velocity, ,Time Stamp
0.009477666251865786,0.02022655102762327,-0.0797709796561346, ,0.009669924503120937,0.020185395915826285,-0.0798813094826372, ,0.00022545431692209167, ,0.00024012783896415496,-1.6132739650617136e-05,-0.00014308545124906003,0.1476724915387773,0.0005194632706941194,-0.05283728310020736, ,0.00027999123324378724, ,0.14767340518644462, ,1.878785974350764e-05, ,0.17346802582083093,-0.2409801566073016,0.09038770912,1.6829714864067924,0.5123868741204016,-1.235993078849592, ,0.00265004123953995,0.0006031661994466988,0.0001615541342304847,-0.0014654953572474513,0.0,-0.15811029771219332, ,0.036015987396240234
0.009520144057263749,0.020234657956656986,-0.07981383740608843, ,0.009736523947346708,0.020224416686810173,-0.08000647770588401, ,0.0002898886433541711, ,0.0014163891067376687,0.000466690803116616,-0.0022983199556972284,0.10840581840045657,-0.07409180716570904,-0.06128522259805426, ,0.0027397505408622283, ,0.13130657771828969, ,2.34246800125574e-05, ,0.17357614408107008,-0.2409801566073016,0.09042270895000001,1.682761796463308,0.5091075981260311,-1.2410785294742315, ,0.005102510254696484,0.0009519238190125804,0.002194655761917884,0.0010966643962499385,-0.07447874499482453,-0.12154441723216092, ,0.07151913642883301
0.00957019948259311,0.0202505808674519,-0.07987967938816402, ,0.009803254256140878,0.020262444712455956,-0.080131818425005, ,0.00034355403096278153, ,0.0016296912296118735,0.0010944098025946068,-0.0038951521048772933,-0.1139850603045463,-0.04171431012661269,0.03156638843824204, ,0.00436186155672312, ,0.12137824204145334, ,2.6840530976220136e-05, ,0.17385416246454216,-0.24097243387442738,0.09052641215000001,1.683181176350277,0.5061015951311915,-1.244998277323874, ,0.00841073229430557,-0.0013631602057364628,0.004083263655472956,0.0010298887826342396,-0.03221941408590653,0.12030035628690744, ,0.10717511177062988
0.009627348615528816,0.020295624117695546,-0.08004947819971657, ,0.009870113328361435,0.020299490531249086,-0.08025732874853991, ,0.00031961149165296907, ,0.001050121036995639,0.0008961553902248826,-0.00321972954749946,0.025258118065188653,0.06005359521629323,0.011077394293354003, ,0.0035032138151718612, ,0.06514911224453783, ,2.8059725783143177e-05, ,0.1741785172452596,-0.2409801566073016,0.09066900405000002,1.683181176350277,0.5070580506295495,-1.2416125869025803, ,0.013305796629062085,-0.0001497031345366321,0.0037461927375352783,0.0009909278753981422,0.07532765230111296,-0.0209495173082498, ,0.142808198928833
0.009670294185638993,0.02032144549691807,-0.08013767274204335, ,0.00993709907747706,0.020335564634424142,-0.08038300579271346, ,0.0003627292462757033, ,0.0014505865705157586,0.0008261969949188935,-0.003071734300552791,0.0466629344401014,-0.008868287514744175,-0.026069065512888345, ,0.003496048410157706, ,0.047498168109221785, ,2.9639187099379167e-05, ,0.17456465388897083,-0.24098787934017582,0.09076752209000001,1.6836005562372458,0.5076045966286112,-1.2420582585173658, ,0.010909702540409062,0.00013007521252607785,0.003326819448621555,0.009940792319597236,-0.0013626875235038195,-0.04803249602018284, ,0.17949414253234863
0.009744050020819666,0.02036196928139224,-0.08029730171756479, ,0.010004209431530886,0.020370677466053,-0.08050884668143647, ,0.0003354251379982833, ,0.0020077301710760363,0.001074696054029233,-0.004113530576209847,-0.0011540373769226599,-0.01665246098681447,-0.002418102760908177, ,0.0047018172922614005, ,0.016692401205545798, ,3.0764965035508196e-05, ,0.17512069065591498,-0.2409801566073016,0.09093992866,1.6836005562372458,0.5076045966286112,-1.2422216159976474, ,0.015402847193389187,0.0,0.004455611613986015,0.0025711732029618634,-0.0018981135950924823,0.0015477843629332572, ,0.212785005569458
0.00980768982342798,0.02039564937440936,-0.0804200895624187, ,0.010071442333104287,0.020404839423131902,-0.08063484854630734, ,0.00034025176636860705, ,0.00204276988522995,0.0011079526132196083,-0.004088193198917196,2.7468351848809205e-05,-0.013462293675368157,-0.009554815956928047, ,0.004702530321945342, ,0.013462321656023324, ,3.167020905049439e-05, ,0.17561494555986534,-0.2409801566073016,0.09107344653,1.684019936124215,0.5074679601288459,-1.24202851935381, ,0.01596785151581201,0.0,0.004451875774175518,0.01065771503014223,0.0,0.0018912674999617038, ,0.24512314796447754
0.009869169101897172,0.020426543291942514,-0.08053539437203272, ,0.010138795739280598,0.020438060855669613,-0.08076100852661214, ,0.0003517569112433849, ,0.0022003055740337026,0.0010058689964303842,-0.003653968369404921,0.01286319472353737,-0.012957836026158784,-0.012284706405311867, ,0.004382305546366582, ,0.01825834856511108, ,3.2514829680734076e-05, ,0.17614009139531261,-0.24098787934017582,0.09120048295000001,1.684019936124215,0.5077412331283767,-1.2421696764210624, ,0.019140165703604432,0.0,0.004042845563451777,0.0097606387868221,0.0037502207673137363,-0.011618465107838632, ,0.27829599380493164
0.009956189870799112,0.0204614293169572,-0.08066859756590541, ,0.010206267621608764,0.02047035206677483,-0.0808873237693265, ,0.00033235470355830004, ,0.0024819736350072206,0.0011426417506236112,-0.004238623868288339,-0.003947774767196495,-0.018589412061366207,0.0002343019327379816, ,0.005042990738833728, ,0.019003977610796644, ,3.296620736745786e-05, ,0.1769200874156093,-0.24097243387442738,0.09134826001000002,1.6842296260676997,0.5078778696281421,-1.24244445180504, ,0.021111666642596394,-0.0002439790989503448,0.0046684676201641274,0.002132570417101266,0.0021902542029114463,0.004995371606129706, ,0.3109431266784668
0.01002745846184477,0.02049940772234648,-0.08080772449243591, ,0.010273855966066923,0.02050172331274371,-0.08101379142911616, ,0.0003212174877533544, ,0.002315645199359709,0.0011430183564987582,-0.004050966952911627,0.0022324298599064175,-0.010317040173255836,-0.00807487856100678, ,0.00480406462344054, ,0.010555806929129346, ,3.321900758855306e-05, ,0.17750701511405034,-0.2409801566073016,0.09150122223000001,1.6844393160111841,0.508151142627673,-1.2423405726518706, ,0.019877867942704394,-0.00033918301667920284,0.004489518466741827,0.010604322779583855,0.007295597935042739,0.00045506799821206506, ,0.3436319828033447
0.010092958780196712,0.020528414035160956,-0.08091695723607908, ,0.010341558773025991,0.020532184803147845,-0.08114040866833801, ,0.00033428538362377216, ,0.002271021750307729,0.0012071916225458892,-0.004321976734375101,0.001911737392731408,-0.0006762510560724478,-0.003202088235005621, ,0.00502934730321892, ,0.0020278199726724124, ,3.387170590203256e-05, ,0.17810166554536563,-0.2409801566073016,0.09162307349000001,1.6844393160111841,0.5085610521269693,-1.242266432662257, ,0.019704514443204067,-0.00033918301667920284,0.004803622291917975,0.008505968082759876,0.017642212989234032,0.0011818052956265226, ,0.3721890449523926
0.010162886556180164,0.020565439424780035,-0.08105430206781483, ,0.010409374057213183,0.02056174670092123,-0.08126717265704077, ,0.0003257047929220524, ,0.0022675002506439843,0.0011619982567179297,-0.004524919941542601,-0.001355387536496392,-0.010765436124947906,-0.0023522197013459336, ,0.005192946929505051, ,0.010850423422036543, ,3.435605232420771e-05, ,0.17865770231230982,-0.24097243387442738,0.09177344313000001,1.6848586958981533,0.5086976886267348,-1.2422144930856724, ,0.018089390308515207,0.0004612141550837946,0.0049437652141527,0.004896877067532715,0.00642750027103257,0.0023304722603354044, ,0.40135812759399414
0.010205974899369929,0.020586760778335017,-0.08113574244749285, ,0.010477299847675424,0.02059041912244835,-0.08139408057296614, ,0.00037465877559145336, ,0.002367855103842887,0.0011159447173219109,-0.004307087657384157,0.002796743567945631,-0.0108795582957786,-0.0033463466805528277, ,0.005040146276974949, ,0.011233279210179463, ,3.518093130766053e-05, ,0.17901294802452414,-0.24097243387442738,0.09186288714000002,1.6848586958981533,0.5088343251265002,-1.2422442322492282, ,0.019894537014354462,0.0004317862601831245,0.0047421290622209,0.004896877067532715,0.008093346135756171,-0.0019211113192699155, ,0.42995309829711914
0.010279425383164079,0.02062379715096479,-0.08127951842562758, ,0.010545334187742878,0.02061821213765114,-0.08152112960154934, ,0.0003593252635934911, ,0.002358846030981479,0.0013360334119612892,-0.004955418082304389,0.01135881407701513,-0.002896146328771226,-0.0040443953136767965, ,0.005648478400966344, ,0.01172221471419579, ,3.5784635285429577e-05, ,0.17962304392158787,-0.24096471114155316,0.09202103452,1.6848586958981533,0.5092442346257966,-1.2422517709997551, ,0.018990782781362972,-0.00021209203337631431,0.005449473664043792,0.004896877067532715,0.015269061507217423,-0.009803003600738842, ,0.4586141109466553
0.010352434448382346,0.02066299485143374,-0.08142276393797832, ,0.01061347513499225,0.020645135770076973,-0.08164831693592013, ,0.00034544947783028885, ,0.0025125331185917293,0.0011286866689656921,-0.004271442537117948,0.017324257918476586,-0.007927824752791298,-0.007417177548170507, ,0.005082516858469017, ,0.01905204231348851, ,3.6216550581392e-05, ,0.18022541708577738,-0.24097243387442738,0.0921791819,1.6850683858416375,0.5096541441250929,-1.2420142735298605, ,0.02203318819560501,0.00030938611078658263,0.004750614828511781,0.005285789230703089,0.012969140490199373,-0.016771581460279825, ,0.4872150421142578
0.01042189471272147,0.020692204798714888,-0.08154204522695985, ,0.010681720761210153,0.020671199996985686,-0.08177563977690323, ,0.0003500245576130047, ,0.0023601512462073262,0.0009560096450087119,-0.0040754010876877115,-0.003431847777227911,0.0005039538317608788,0.005436499089730403, ,0.0048055345563058705, ,0.0034686521166570434, ,3.6886749911553535e-05, ,0.18083551298284112,-0.24093382021005624,0.09231140348000001,1.6852780757851225,0.5100640536243892,-1.242103491020528, ,0.02151370246168007,0.001575378786685895,0.00454071023945268,0.0013755424807491178,0.022561756559652306,0.003921552277171343, ,0.5126111507415771
0.010458640610802969,0.020708867287331116,-0.08160790630656085, ,0.010750069152356509,0.020696414749437387,-0.08190309533301966, ,0.0004149966528464021, ,0.0027020829655727235,0.001196268726100742,-0.004895832493975173,-0.01357903924971978,-0.021546601325966676,0.0030376394058948797, ,0.005718521402158791, ,0.02546853613447029, ,3.7925090331855033e-05, ,0.1811444222978101,-0.24092609747718202,0.09238399572000001,1.6852780757851225,0.5102006901241547,-1.242133230184084, ,0.021606771757393162,0.0010245951725220935,0.0053416537625754525,0.0013755424807491178,0.0,0.013593850272649331, ,0.5379869937896729
0.010557605181976805,0.020759122194583847,-0.0818008631155893, ,0.010818518408527695,0.020720789912379484,-0.08203068082048706, ,0.00034980173403324413, ,0.00253350526723436,0.0012293149914442952,-0.0047024687109624855,0.009620680131503799,0.0029190354183187468,-0.0018664020451274646, ,0.005481156471482557, ,0.010053768033261539, ,3.8458799836350346e-05, ,0.18195530924960368,-0.24091065201143358,0.09259658728,1.6854877657286067,0.5107472361232164,-1.2420888293580263, ,0.022234522389519864,0.000502910097339937,0.005243190098749178,0.005627374376057559,0.02452064768450976,-0.0078703973624622, ,0.5631082057952881
0.010614479225511337,0.020783448440300483,-0.08189713407137535, ,0.010887066643919986,0.020744335324734072,-0.0821583934632199, ,0.00037959215786287126, ,0.0029345195612592054,0.0012706005421805678,-0.005217144580137759,0.007684681269366171,-0.02271493792151086,-0.005648812091680083, ,0.006119185269565162, ,0.023979631505190134, ,3.912777292124985e-05, ,0.1824341186878056,-0.24088748381281092,0.09270288306,1.6856974556720912,0.5108838726229818,-1.241955211041301, ,0.023500976116510842,0.0012186639290142302,0.005701077852541161,0.0025627792149978917,0.0,-0.00894449373565515, ,0.5881531238555908
0.010695775701599824,0.02081628493857693,-0.08204151435220525, ,0.01095571198679254,0.02076706077948618,-0.08228623049283118, ,0.0003603829625285186, ,0.002484452831755533,0.0008735780555797967,-0.004538290864181857,0.016339990558917966,0.004862433589000876,-0.0026463470459177478, ,0.005247068558759754, ,0.017048124528751988, ,3.9630613340318284e-05, ,0.18313688737936,-0.24082570194981712,0.09286232673000001,1.6856974556720912,0.5114304186220436,-1.242319203915946, ,0.02212049919777874,0.0039482383053572245,0.0050043391517436385,0.0025627792149978917,0.02694925855863946,-0.018981168697635102, ,0.6136372089385986
0.010755949663115855,0.020839638374006222,-0.08214888599583589, ,0.011024452579430773,0.02078897602376989,-0.08241418914863269, ,0.0003808493832015562, ,0.002842739528680988,0.0010835625434564196,-0.00520366783154527,0.008033669492451745,-0.006955385070339275,-0.002291279225998835, ,0.0060277221829283245, ,0.01062625160511364, ,4.043435324570956e-05, ,0.18361569681756193,-0.24077164281969754,0.09297899283000001,1.6856974556720912,0.5114304186220436,-1.2422375251758055, ,0.023873444417225356,0.003431866153314498,0.005701077852541161,0.0025627792149978917,0.016691634420654154,-0.010387258677498235, ,0.6357851028442383
0.010811764738163959,0.020865853946886045,-0.08226398151671517, ,0.011093286578109509,0.0208100907589564,-0.08254226667763503, ,0.00039975831483860284, ,0.0028202934305950203,0.0012359327346934635,-0.00620862328777501,0.029229682579463998,0.01758474516366407,-0.008869615127942786, ,0.006930266076338373, ,0.03411154638743327, ,4.128844126399404e-05, ,0.18408678352288962,-0.24070213822382952,0.09310602925000001,1.6861168355590603,0.5121136011208708,-1.2427129359541471, ,0.023541786543902453,0.004968929776950492,0.006815922772785623,0.007909155209006723,0.03999563008241704,-0.031733319640312486, ,0.6569180488586426
0.010876819653284435,0.020892200119184797,-0.082388177328967, ,0.011162212153055965,0.0208304146407414,-0.08267046033454883, ,0.00040614039384508, ,0.0031414331461097223,0.0012072710320722468,-0.0058034045828400166,0.008150208666761447,-0.0018020163545503154,-0.005568379787841359, ,0.0067086220871715625, ,0.008347044846588877, ,4.212217677063149e-05, ,0.18459648389258845,-0.2406326336279615,0.09324084341000001,1.6861168355590603,0.5122502376206363,-1.2424976388972815, ,0.02655945747508278,0.004124746923236498,0.006376625908726983,0.007909155209006723,0.02351326135131689,-0.009711579964749781, ,0.6790502071380615
0.01093236283587305,0.020915034149159524,-0.08250392115132707, ,0.011231227488413091,0.02084995727923192,-0.08279876738178547, ,0.0004248404161011325, ,0.003358097241161988,0.0013476630853104287,-0.006408638387228271,-0.0035039460689042564,-0.010272511482540525,-0.003768691252329221, ,0.007359596378257706, ,0.01085366847672428, ,4.300027552306692e-05, ,0.18503667966641926,-0.24054768356634504,0.09336658354,1.6861168355590603,0.5126601471199326,-1.2426685351280895, ,0.02693640123714754,0.004197154928175287,0.006989386362439668,0.007909155209006723,0.015359359090383651,0.0019727083254291646, ,0.7011392116546631
0.010999786884486325,0.020938573126006922,-0.08263366212744869, ,0.011300330782202467,0.020868728239034125,-0.0829271850894574, ,0.00042586461688783403, ,0.0034456428042558968,0.0009746271867425932,-0.005995728037207855,-0.02879226450330068,-0.03275373220243294,-0.002153972513557854, ,0.006983631375138481, ,0.043609648710673694, ,4.383128029410371e-05, ,0.1856236073648603,-0.24042411984035744,0.09350917544000001,1.6861168355590603,0.5134799661185252,-1.2430920063298463, ,0.026619057940665016,0.007047765633497862,0.006420319032648127,0.00722351216588521,-0.007653291806265284,0.02400072086013722, ,0.7223482131958008
0.011101640025802592,0.020969881509748572,-0.08281295945272568, ,0.011369520246287467,0.020886737039340204,-0.08305571073537835, ,0.0003709460886921807, ,0.003287956272300534,0.0009882085554228206,-0.006163330012163888,0.00269175654604078,-0.003031638524950767,-0.004132911650350245, ,0.007055058428986354, ,0.004054180133581745, ,4.4350311096640054e-05, ,0.18644993978240235,-0.2402233287856276,0.09370361894000001,1.6865362154460295,0.513753239118056,-1.242988127176677, ,0.02719110073308618,0.007521326532576512,0.006692777949579833,0.0063668351536488865,0.023316532112904607,-0.0077537901413628815, ,0.7441999912261963
0.011135617130842487,0.020980375933557657,-0.0828759615441245, ,0.011438794106336234,0.020903993154016212,-0.08318434160506438, ,0.0004391456130548303, ,0.0031355975072679706,0.0010626826893277619,-0.006228440541885885,0.03918477569883009,0.019049411500399013,-0.010520263951966605, ,0.007053703836254379, ,0.04356979132042947, ,4.537094047491062e-05, ,0.18673568089874865,-0.24015382418975958,0.09377232231,1.6865362154460295,0.514026512117587,-1.243129284243929, ,0.027308472390926843,0.007005485227245791,0.006845213373442201,0.0063668351536488865,0.04559494492473535,-0.04426914322234502, ,0.7622392177581787
0.011206214505781952,0.021000424916073013,-0.08300489854516085, ,0.011508150601784858,0.02092050601168858,-0.08331307499173478, ,0.00043877689042429646, ,0.0034658521875769346,0.0008246425488445299,-0.005692346329698404,-0.013948711156204803,-0.023935610499527492,-0.00411320955099371, ,0.006715279104901562, ,0.027703429154667662, ,4.634306060357917e-05, ,0.1872917176656928,-0.23999936953227508,0.09391102534000001,1.6865362154460295,0.5141631486173524,-1.2430773446673444, ,0.02829366176460071,0.007921248692856734,0.006143004828384112,0.0063668351536488865,0.003107530734626042,0.007987539242870479, ,0.7808670997619629
0.011273113168403409,0.02101907327491239,-0.08312965235024852, ,0.01157758798580013,0.020936284995831993,-0.08344190819631105, ,0.0004439172524041865, ,0.0034516211215330013,0.001140317691273018,-0.0069074925680684745,0.028023603275274565,0.017132204502148907,-0.007065154748654892, ,0.007805604805622955, ,0.032845620041460855, ,4.729463885194818e-05, ,0.18786319989838543,-0.23983719214191637,0.09404713579000001,1.6865362154460295,0.5148463311161796,-1.2435527554456858, ,0.02935259559494921,0.008067463490612999,0.007563538233618236,0.0063668351536488865,0.045937933347561064,-0.03351290449498117, ,0.7986030578613281
0.011351765522863273,0.02104358844809652,-0.08328188327993298, ,0.011647104525242726,0.020951339444856363,-0.08357083852741941, ,0.0004233558077731256, ,0.003823271113613246,0.0011750955354869175,-0.007617309373387798,-0.007077458772660405,-0.014666683334829936,-0.004294871355148175, ,0.008603583765827608, ,0.016285023705158514, ,4.811429943753321e-05, ,0.18845785032970072,-0.23966729201868345,0.09421046833,1.6865362154460295,0.514982967615945,-1.2435008158691012, ,0.02894964660111982,0.009402642910286705,0.008172812478193948,0.006137404380617712,0.013289815459199002,-0.0001285573336043365, ,0.8164050579071045
0.011389926013756716,0.02105452566394474,-0.08335491462178266, ,0.011716698500630078,0.02096567865219418,-0.08369986330138986, ,0.00048338767178855317, ,0.003926429151230255,0.001183979008600162,-0.0074102586796560115,-0.00871320639803023,-0.01594826467234938,-0.0029474250518458454, ,0.00846939111576823, ,0.018173252032855254, ,4.915642894225805e-05, ,0.18876675964466968,-0.23957461922419274,0.09428954202,1.6865362154460295,0.5152562406154759,-1.2435602941962132, ,0.030611916631764772,0.008752391232616931,0.007992379086803815,0.005817593931257709,0.013811061613667972,0.002260717919963749, ,0.8341331481933594
0.011465206278929314,0.02107812812796676,-0.08350680732829227, ,0.011786368206099355,0.02097931186638756,-0.08382897984225686, ,0.0004655155913289336, ,0.003958312224171349,0.0011925855620456515,-0.007870356856979977,0.003765640207292055,-0.007319567137067628,-0.0031213233842303117, ,0.008890051352103417, ,0.008231408084115146, ,5.0290985379219655e-05, ,0.1893691328088592,-0.23938155090233712,0.09445417085,1.6867459053895137,0.5159394231143032,-1.2440357049745545, ,0.030730874857017743,0.009848300552003293,0.008481795271565496,0.00335060801015469,0.023201309583674116,-0.011892365610555483, ,0.8493101596832275
0.011508771250787305,0.021089647526022645,-0.08358546273909391, ,0.011856111949370364,0.02099224829117571,-0.0839581854817606, ,0.0005187045543870915, ,0.004092991289750258,0.0010483275657178904,-0.0073773571682531685,-0.0055117040537013854,-0.017578498313285743,-0.00224134780098526, ,0.00850158615618238, ,0.01842233597221403, ,5.160858128324544e-05, ,0.18970121032245085,-0.23928115537497222,0.09453842970000001,1.6867459053895137,0.5159394231143032,-1.2438723474942734, ,0.032543532770394644,0.010074307519976304,0.007956449310689312,0.0032234111161770734,0.014657908524035248,-0.002943390325223081, ,0.8636221885681152
0.011587452931057009,0.021112417279021304,-0.08374587953784574, ,0.011925928051708478,0.021004497085582045,-0.08408747755934631, ,0.0004928502650350335, ,0.00419783446656517,0.0012436241651408845,-0.008985118757145725,0.038345266267216474,0.03204709729092235,-0.004122891576199449, ,0.009995037486313736, ,0.049973751423273594, ,5.277762593590687e-05, ,0.19033447441813728,-0.23906491885449394,0.09471213256000001,1.6867459053895137,0.5167592421128957,-1.2443774974361708, ,0.03497859991097338,0.012724180954474494,0.009784282260442262,0.0029634170710742523,0.06776147337655725,-0.04835357720686321, ,0.8785121440887451
0.011638197576970905,0.021128658209788848,-0.08384405089311724, ,0.011995814847887552,0.021016067364001325,-0.08421685342216584, ,0.0005287234973765158, ,0.004232368289288172,0.0014660642873585046,-0.008803972859660092,0.01328636252233602,0.00463850483901528,9.814036405484164e-05, ,0.0098778653536314, ,0.01407277880605244, ,5.405318012720361e-05, ,0.1907283337947227,-0.23894907786138056,0.09481842834000001,1.6869555953329984,0.5170325151124266,-1.244518654503423, ,0.03297322500294329,0.009365809598882377,0.009549647194244606,0.0009580582643568859,0.03832687124092388,-0.020832896623039665, ,0.8927600383758545
0.011736596599155703,0.021156065023143555,-0.0840405182150234, ,0.012065770686152746,0.02102696819628678,-0.08434631042507705, ,0.00046747240130763174, ,0.005102359987532586,0.0014810398983527212,-0.00973285336375656,-0.016191921500746713,-0.02961259431915934,0.0009605709365410088, ,0.011088552260023558, ,0.033750318174202786, ,5.5046301395183125e-05, ,0.1914542706848998,-0.23868650494365692,0.09502842732000001,1.6869555953329984,0.5173057881119575,-1.2445781328305348, ,0.03805009685584233,0.011696821309497089,0.010445122308196723,0.0009580582643568859,0.00862256685755684,0.005810025763046752, ,0.9071722030639648
0.01178154158407664,0.021168341304286954,-0.08413407924722038, ,0.012135793928183413,0.02103720860783762,-0.08447584593064505, ,0.0005094064912055162, ,0.004229772889419731,0.0011553388128997346,-0.009152726186376569,0.07498494665291448,0.07760373652602896,-0.001897267097404206, ,0.010148802053023109, ,0.10791238150976754, ,5.639109665697987e-05, ,0.19184040732861105,-0.23854749575192088,0.09513083423,1.6869555953329984,0.5181256071105501,-1.2452466402527134, ,0.03940902888640813,0.014443978928229951,0.010145739821656051,0.0009580582643568859,0.11930345662330827,-0.0856006178775668, ,0.9181501865386963
0.011824678605912891,0.021179714189244202,-0.08422136614175342, ,0.012205882949056033,0.021046797579685934,-0.08460545730914197, ,0.0005572338837450206, ,0.005018127083018821,0.0014044155326485188,-0.010302146392888883,0.045988811492055304,0.03761822963698416,-0.0023510204248320997, ,0.01154505100509239, ,0.05941466037456097, ,5.788940010784504e-05, ,0.19221882123944806,-0.23841620929305907,0.09522675969000001,1.6869555953329984,0.5189454261091428,-1.2456701114544702, ,0.04234580167714001,0.014669491661535132,0.01126507179632249,0.0009580582643568859,0.08145611735033101,-0.057880509654660024, ,0.928706169128418
0.01188382007409599,0.02119361868965069,-0.08433578747452858, ,0.012276036137206937,0.02105574404858415,-0.08473514193854811, ,0.0005764779655319098, ,0.005472479290882187,0.0011520503943072192,-0.010264153179824308,-0.031877430606386065,-0.01808810931216131,0.008236809966690267, ,0.011688801914612775, ,0.036651741658883706, ,5.942684195978541e-05, ,0.19268218521190153,-0.2382385864369519,0.09534990724,1.6869555953329984,0.5193553356084392,-1.245514292724716, ,0.042251532305641486,0.017009668678700626,0.011000560441988952,0.0009580582643568859,0.026036673268573493,0.01755329338692201, ,0.939643144607544
0.011939228820434413,0.021206679883112936,-0.08444207573980875, ,0.0123462518943952,0.021064056907091507,-0.08486489720455163, ,0.0006039760649835531, ,0.0061583181109672765,0.0015518928641160465,-0.01164002189942232,-0.05776483922501724,-0.0385767096975464,0.012862208811533514, ,0.013259840241744736, ,0.06946178062861869, ,6.103324022055596e-05, ,0.19310693551998387,-0.2380764090465932,0.09546398076000001,1.6869555953329984,0.5196286086079701,-1.2454104135715467, ,0.0454487268000339,0.016271766385197322,0.012444384000000001,0.0009580582643568859,0.007788496315574439,0.045065615300631565, ,0.950200080871582
0.012000721793655017,0.021223694422575823,-0.08457378887232109, ,0.012416528635665381,0.021071745003662413,-0.08499472050054911, ,0.0006108742844591268, ,0.005786758587134104,0.0015911538079167462,-0.012993867600407293,0.026063848048426996,0.03709169978996572,0.002434864536687327, ,0.014312894207781061, ,0.04533340929140831, ,6.262941396606886e-05, ,0.19357802222531156,-0.2378910634576118,0.09560268379,1.6869555953329984,0.5204484276065626,-1.2459972422535845, ,0.04510310910573705,0.01976196200717842,0.014021841126760566,0.0009580582643568859,0.08393514223022042,-0.04171110691561575, ,0.9607582092285156
0.012064240639309613,0.02123943283150563,-0.08470397995497432, ,0.012486864789310518,0.021078817142732312,-0.08512460922764656, ,0.000617525349012404, ,0.006540983603073293,0.0015608066798407884,-0.012560473363852296,0.006419164706568584,-0.020927134096288134,-0.0053129682460011825, ,0.014247318172608919, ,0.021889502150220883, ,6.445262330340318e-05, ,0.19407999986213614,-0.23768254967000774,0.09574657198000001,1.6869555953329984,0.5209949736056244,-1.2462795563880893, ,0.04939976135266568,0.018858692678551427,0.01347615187817259,0.000957503121978125,0.028773836458988265,-0.024141904625780367, ,0.9680709838867188
0.012122177360378954,0.021252291573327198,-0.08481586110809435, ,0.012557258796834666,0.021085282084805927,-0.08525456079465844, ,0.0006400354994810369, ,0.0070591139466179564,0.0016049078248394954,-0.013969680779715794,-0.012763809186119031,-0.03601843928879047,-0.004152437976240373, ,0.01573400139585376, ,0.03821311635701134, ,6.633177864485256e-05, ,0.1945047501702185,-0.23750492681390056,0.09586583066000001,1.6869555953329984,0.5211316101053899,-1.246309295551645, ,0.05074702757137475,0.02212049919777874,0.014858965970149254,0.000939898192804527,0.01486237479222913,-0.008210056469248946, ,0.975553035736084
0.012122177360378954,0.021252291573327198,-0.08481586110809435, ,0.01262770911291583,0.02109114854654363,-0.08538457261810992, ,0.0007777931662904774, ,0.0070591139466179564,0.0016049078248394954,-0.013969680779715794,-0.012763809186119031,-0.03601843928879047,-0.004152437976240373, ,0.01573400139585376, ,0.03821311635701134, ,6.868626626894297e-05, ,0.1945047501702185,-0.23750492681390056,0.09586583066000001,1.6869555953329984,0.5211316101053899,-1.246309295551645, ,0.05074702757137475,0.02212049919777874,0.014858965970149254,0.000939898192804527,0.01486237479222913,-0.008210056469248946, ,0.9828791618347168
0.01220318519244872,0.021270143406122616,-0.08498203245318996, ,0.012698214205368782,0.02109642520084896,-0.08551464212223525, ,0.000747599356632046, ,0.007414760255224644,0.001742195360797716,-0.01568405810588148,0.016589696112417326,-0.0025320273946127666,-0.005939693025806684, ,0.01743569880980716, ,0.016781782705440063, ,7.089723302290731e-05, ,0.19510712333440802,-0.23722690843042848,0.09604342239000001,1.6869555953329984,0.5216781561044516,-1.2466732884262903, ,0.05416492098086232,0.025530519655224855,0.016749538927444796,0.0009162119964920605,0.0524493319348566,-0.04015022587554924, ,0.9900569915771484
0.012276106968811925,0.021288902971648465,-0.0851432911316359, ,0.012768772555107624,0.02110112067695596,-0.08564476673897924, ,0.0007276395775934874, ,0.008019397491302654,0.0023466787368516735,-0.018021113697987135,0.059747664744994454,0.042984692266382726,-0.006702328270071678, ,0.019863991948580795, ,0.0736034327395108, ,7.300458953926586e-05, ,0.19566316010135218,-0.23697205824557907,0.09621712525000001,1.6869555953329984,0.5226346116028098,-1.2475348924923058, ,0.06036701116951067,0.025661693228358783,0.01944909831501832,0.0008962653437851274,0.10516017141698661,-0.08223634210912234, ,0.9971411228179932
0.012276106968811925,0.021288902971648465,-0.0851432911316359, ,0.012839382656108815,0.021105243560515408,-0.08577494390799817, ,0.0008660228109488106, ,0.008019397491302654,0.0023466787368516735,-0.018021113697987135,0.059747664744994454,0.042984692266382726,-0.006702328270071678, ,0.019863991948580795, ,0.0736034327395108, ,7.557606679594541e-05, ,0.19566316010135218,-0.23697205824557907,0.09621712525000001,1.6869555953329984,0.5226346116028098,-1.2475348924923058, ,0.06036701116951067,0.025661693228358783,0.01944909831501832,0.0008962653437851274,0.10516017141698661,-0.08223634210912234, ,1.0044450759887695
0.012364425659410035,0.0213153080740699,-0.08534348715999435, ,0.012910043015373641,0.021108802393683537,-0.08590517107665852, ,0.0008098343765238371, ,0.009042378618240123,0.0025627708410767376,-0.02047149566926648,0.03200498372827737,0.01656349884936367,-0.00554881425807903, ,0.02252586381021326, ,0.036036993245479675, ,7.791181943045587e-05, ,0.1963041469299128,-0.236694039862107,0.09643230939000001,1.6869555953329984,0.5235910671011678,-1.2481514603378994, ,0.06407626033657716,0.029776260294468393,0.02191033221458047,0.0008755200111422556,0.082105171958818,-0.05878713749369536, ,1.0120670795440674
0.012458241033821326,0.021339221880547713,-0.08554867131870474, ,0.012980752152891179,0.0211118056752073,-0.0860354457000385, ,0.0007494566687447198, ,0.009274365448324846,0.002213130356573413,-0.019727403027760805,-0.017534972542138826,-0.016714980457057195,0.0021416452222196938, ,0.02191077886940523, ,0.02422525223700861, ,8.000207657793405e-05, ,0.1969683019570961,-0.23637740781426378,0.09665138240000001,1.6869555953329984,0.524274249599995,-1.2483818348958193, ,0.06513173751439313,0.031308789692666046,0.021014263218997364,0.0008554308727069719,0.04972415532452208,-0.010198294523223156, ,1.0193970203399658
0.012458241033821326,0.021339221880547713,-0.08554867131870474, ,0.013051508601600852,0.0211142618605131,-0.086165765240928, ,0.00088508662086708, ,0.009274365448324846,0.002213130356573413,-0.019727403027760805,-0.017534972542138826,-0.016714980457057195,0.0021416452222196938, ,0.02191077886940523, ,0.02422525223700861, ,8.282693462807141e-05, ,0.1969683019570961,-0.23637740781426378,0.09665138240000001,1.6869555953329984,0.524274249599995,-1.2483818348958193, ,0.06513173751439313,0.031308789692666046,0.021014263218997364,0.0008554308727069719,0.04972415532452208,-0.010198294523223156, ,1.0229911804199219
0.01255199726762843,0.021356712827132744,-0.08573982401163689, ,0.013122310907355267,0.021116179361792893,-0.08629612716982925, ,0.000832218240260125, ,0.009515423290457889,0.001565037075864042,-0.019391541351332035,-0.0072752199241607795,-0.0018253354987520748,0.0006507519407100029, ,0.021656973413333586, ,0.00750052882565697, ,8.54471839484632e-05, ,0.1976479024500279,-0.23602988483492368,0.09685489993000002,1.6869555953329984,0.5248207955990567,-1.2485824702901833, ,0.07013816818807891,0.037642578960123275,0.02065993712062257,0.0008362764528474627,0.07000193007018315,-0.02620302501871369, ,1.0266141891479492
0.01255199726762843,0.021356712827132744,-0.08573982401163689, ,0.013193157628882854,0.02111756654809159,-0.08642652896495646, ,0.0009694540961472951, ,0.009515423290457889,0.001565037075864042,-0.019391541351332035,-0.0072752199241607795,-0.0018253354987520748,0.0006507519407100029, ,0.021656973413333586, ,0.00750052882565697, ,0.0004793839378378825, ,0.1976479024500279,-0.23602988483492368,0.09685489993000002,1.6869555953329984,0.5248207955990567,-1.2485824702901833, ,0.07013816818807891,0.037642578960123275,0.02065993712062257,0.0008362764528474627,0.07000193007018315,-0.02620302501871369, ,1.0302422046661377
0.01255199726762843,0.021356712827132744,-0.08573982401163689, ,0.013264047337750577,0.02111843174539452,-0.08655696811223658, ,0.0011097376525198031, ,0.009515423290457889,0.001565037075864042,-0.019391541351332035,-0.0072752199241607795,-0.0018253354987520748,0.0006507519407100029, ,0.021656973413333586, ,0.00750052882565697, ,0.0004910571547764366, ,0.1976479024500279,-0.23602988483492368,0.09685489993000002,1.6869555953329984,0.5248207955990567,-1.2485824702901833, ,0.07013816818807891,0.037642578960123275,0.02065993712062257,0.0008362764528474627,0.07000193007018315,-0.02620302501871369, ,1.0339159965515137
0.012652673996513042,0.021372388049995823,-0.08595029785494702, ,0.013334978618326741,0.021118783236714064,-0.08668744210530994, ,0.0010359713529394152, ,0.010765412438569388,0.0019027288461687052,-0.022955452287342536,0.04110627469719925,0.0575269529650848,3.74762179697727e-05, ,0.02542572067318853, ,0.0707041000414833, ,0.0005009646856521271, ,0.19842017573745033,-0.23560513452684134,0.09708045439000001,1.6869555953329984,0.5260505240969456,-1.24942187394317, ,0.08237581732506143,0.04415865126034006,0.024657602972136226,0.0008173639055334576,0.14304000912940332,-0.0790337107587202, ,1.0376980304718018
0.012652673996513042,0.021372388049995823,-0.08595029785494702, ,0.013405950067743477,0.02111862926217698,-0.08681794844553006, ,0.001176705532077904, ,0.010765412438569388,0.0019027288461687052,-0.022955452287342536,0.04110627469719925,0.0575269529650848,3.74762179697727e-05, ,0.02542572067318853, ,0.0707041000414833, ,0.0005130314864811588, ,0.19842017573745033,-0.23560513452684134,0.09708045439000001,1.6869555953329984,0.5260505240969456,-1.24942187394317, ,0.08237581732506143,0.04415865126034006,0.024657602972136226,0.0008173639055334576,0.14304000912940332,-0.0790337107587202, ,1.0415680408477783
0.012652673996513042,0.021372388049995823,-0.08595029785494702, ,0.013476960295859658,0.021117978019111458,-0.08694848464196356, ,0.0013192987640710924, ,0.010765412438569388,0.0019027288461687052,-0.022955452287342536,0.04110627469719925,0.0575269529650848,3.74762179697727e-05, ,0.02542572067318853, ,0.0707041000414833, ,0.0005271765264388769, ,0.19931601275086036,-0.23512632508863943,0.09737989738000001,1.687165285276483,0.5278267985938964,-1.2505435917306613, ,0.09081047039088112,0.04756738925236631,0.03192146597194389,-0.0016513955565629942,0.19121984680406875,-0.15263917026451487, ,1.0454990863800049
0.01277417241467492,0.021401215402790084,-0.08622877711582559, ,0.01354800792522333,0.021116837662134427,-0.08707904821139183, ,0.0011843365369359927, ,0.012537781957190311,0.0032541923269038906,-0.02968858107933134,0.10994786057431406,0.09652624705551872,-0.010922084960207742, ,0.03239131967997843, ,0.146307297667696, ,0.0005385068714474479, ,0.19931601275086036,-0.23512632508863943,0.09737989738000001,1.687165285276483,0.5278267985938964,-1.2505435917306613, ,0.09081047039088112,0.04756738925236631,0.03192146597194389,-0.0016513955565629942,0.19121984680406875,-0.15263917026451487, ,1.049194097518921
0.01277417241467492,0.021401215402790084,-0.08622877711582559, ,0.013619091591034662,0.02111521630323818,-0.0872096366783098, ,0.0013258089533721086, ,0.012537781957190311,0.0032541923269038906,-0.02968858107933134,0.10994786057431406,0.09652624705551872,-0.010922084960207742, ,0.03239131967997843, ,0.146307297667696, ,0.0005518509745309167, ,0.19931601275086036,-0.23512632508863943,0.09737989738000001,1.687165285276483,0.5278267985938964,-1.2505435917306613, ,0.09081047039088112,0.04756738925236631,0.03192146597194389,-0.0016513955565629942,0.19121984680406875,-0.15263917026451487, ,1.05277419090271
0.012910355772479225,0.021437358244896516,-0.086550301373302, ,0.01369020994110836,0.021113122011878017,-0.08734024757492732, ,0.00115642408336758, ,0.014853561872738903,0.004017928830041065,-0.03511584481758697,0.03244434202042434,0.0426553670413586,0.0007606683019565417, ,0.038339204603687435, ,0.0535916249961245, ,0.0005619271930115277, ,0.20027363162726422,-0.23462434745181482,0.09772471052000001,1.687165285276483,0.5296030730908472,-1.2518286669984335, ,0.09968166130091469,0.05334285641285598,0.03747955651764706,-0.0016271515405365488,0.14608529204928278,-0.07971386963911123, ,1.0563061237335205
0.012910355772479225,0.021437358244896516,-0.086550301373302, ,0.013761361635836545,0.021110562815058985,-0.08747087844116876, ,0.001295557165976629, ,0.014853561872738903,0.004017928830041065,-0.03511584481758697,0.03244434202042434,0.0426553670413586,0.0007606683019565417, ,0.038339204603687435, ,0.0535916249961245, ,0.0005739539138798081, ,0.20027363162726422,-0.23462434745181482,0.09772471052000001,1.687165285276483,0.5296030730908472,-1.2518286669984335, ,0.09968166130091469,0.05334285641285598,0.03747955651764706,-0.0016271515405365488,0.14608529204928278,-0.07971386963911123, ,1.0599181652069092
0.012910355772479225,0.021437358244896516,-0.086550301373302, ,0.013832545348151142,0.021107546697423207,-0.08760152682467381, ,0.0014367617129978688, ,0.014853561872738903,0.004017928830041065,-0.03511584481758697,0.03244434202042434,0.0426553670413586,0.0007606683019565417, ,0.038339204603687435, ,0.0535916249961245, ,0.000587870168704293, ,0.20027363162726422,-0.23462434745181482,0.09772471052000001,1.687165285276483,0.5296030730908472,-1.2518286669984335, ,0.09968166130091469,0.05334285641285598,0.03747955651764706,-0.0016271515405365488,0.14608529204928278,-0.07971386963911123, ,1.063446044921875
0.013062119422213466,0.02147720528030013,-0.0869139480615904, ,0.013903759763486852,0.021104081601336748,-0.0877321902807974, ,0.0012317061634800487, ,0.01635871466943492,0.00419571498616863,-0.0395209104236124,0.01707717875832216,0.021381287932167935,-0.0034093635346045016, ,0.04297806336484161, ,0.027362256763291338, ,0.0005980897876689875, ,0.20125441870229072,-0.23406831068487066,0.09811100494000001,1.6869555953329984,0.5308328015887361,-1.2525863919112799, ,0.10405366398955129,0.06259692714938705,0.04191792505263159,-0.0019993183646108293,0.12875120662253922,-0.07439601045267097, ,1.067014217376709
0.013062119422213466,0.02147720528030013,-0.0869139480615904, ,0.01397500357974353,0.021100175426976748,-0.08786286637260987, ,0.0013696550501328664, ,0.01635871466943492,0.00419571498616863,-0.0395209104236124,0.01707717875832216,0.021381287932167935,-0.0034093635346045016, ,0.04297806336484161, ,0.027362256763291338, ,0.0006101454948949856, ,0.20125441870229072,-0.23406831068487066,0.09811100494000001,1.6869555953329984,0.5308328015887361,-1.2525863919112799, ,0.10405366398955129,0.06259692714938705,0.04191792505263159,-0.0019993183646108293,0.12875120662253922,-0.07439601045267097, ,1.0705749988555908
0.013062119422213466,0.02147720528030013,-0.0869139480615904, ,0.014046275507248962,0.02109583603241879,-0.0879935526708984, ,0.0015098184710027338, ,0.01635871466943492,0.00419571498616863,-0.0395209104236124,0.01707717875832216,0.021381287932167935,-0.0034093635346045016, ,0.04297806336484161, ,0.027362256763291338, ,0.0006239866176043356, ,0.20125441870229072,-0.23406831068487066,0.09811100494000001,1.6869555953329984,0.5308328015887361,-1.2525863919112799, ,0.10405366398955129,0.06259692714938705,0.04191792505263159,-0.0019993183646108293,0.12875120662253922,-0.07439601045267097, ,1.0742521286010742
0.013236877163293474,0.02151912925436609,-0.08733155114159673, ,0.014117574268721508,0.021091071233723686,-0.08812424675416496, ,0.0012598521320895276, ,0.017391517768806892,0.004248762304911304,-0.0412514209201382,0.03058819561255606,0.03971459541922206,-0.002914463725002473, ,0.04496884031589848, ,0.05012751088805109, ,0.0006336209435813839, ,0.2023819377019275,-0.2333809874590647,0.09855433612000002,1.6869555953329984,0.532335803086156,-1.2536486313716593, ,0.11297254947436998,0.06645444086727646,0.043881023471074386,-0.0019993183646108293,0.1565852372800679,-0.09077213504561563, ,1.078221082687378
0.013236877163293474,0.02151912925436609,-0.08733155114159673, ,0.014188898599232658,0.0210858888050245,-0.08825494620862909, ,0.0013952421120555045, ,0.017391517768806892,0.004248762304911304,-0.0412514209201382,0.03058819561255606,0.03971459541922206,-0.002914463725002473, ,0.04496884031589848, ,0.05012751088805109, ,0.0006449884237078633, ,0.2023819377019275,-0.2333809874590647,0.09855433612000002,1.6869555953329984,0.532335803086156,-1.2536486313716593, ,0.11297254947436998,0.06645444086727646,0.043881023471074386,-0.0019993183646108293,0.1565852372800679,-0.09077213504561563, ,1.081923007965088
0.013419583169261723,0.021555296181027788,-0.08775124498182107, ,0.014260247246169724,0.02108029647861408,-0.0883856486282267, ,0.001155339254967756, ,0.018376504365663973,0.002895460974049276,-0.04044408963473268,0.03315743561722663,0.024606981086090537,-0.009072733105277694, ,0.04451745717508807, ,0.04128935507981854, ,0.000652493582991097, ,0.2023819377019275,-0.2333809874590647,0.09855433612000002,1.6869555953329984,0.532335803086156,-1.2536486313716593, ,0.11297254947436998,0.06645444086727646,0.043881023471074386,-0.0019993183646108293,0.1565852372800679,-0.09077213504561563, ,1.0865111351013184
0.013419583169261723,0.021555296181027788,-0.08775124498182107, ,0.014331618969198373,0.021074301945031647,-0.08851635161461063, ,0.0012839598572253624, ,0.018376504365663973,0.002895460974049276,-0.04044408963473268,0.03315743561722663,0.024606981086090537,-0.009072733105277694, ,0.04451745717508807, ,0.04128935507981854, ,0.0006616452681249269, ,0.20359440676318075,-0.23263960510313914,0.09900025988000001,1.6867459053895137,0.5339754410833412,-1.2549039674758755, ,0.124210656490145,0.07842722442848825,0.04293480194070081,-0.004914380136934811,0.15288392521883093,-0.10687354525966267, ,1.0903100967407227
0.013419583169261723,0.021555296181027788,-0.08775124498182107, ,0.014403012540225454,0.021067912853150125,-0.08864705277715061, ,0.0014167383111006744, ,0.018376504365663973,0.002895460974049276,-0.04044408963473268,0.03315743561722663,0.024606981086090537,-0.009072733105277694, ,0.04451745717508807, ,0.04128935507981854, ,0.000672432311596009, ,0.20359440676318075,-0.23263960510313914,0.09900025988000001,1.6867459053895137,0.5339754410833412,-1.2549039674758755, ,0.124210656490145,0.07842722442848825,0.04293480194070081,-0.004914380136934811,0.15288392521883093,-0.10687354525966267, ,1.093907117843628
0.013595616152679534,0.021574771891630994,-0.08811833102666013, ,0.014474426743361355,0.021061136810263,-0.08877774973293506, ,0.0012128322560402776, ,0.019235387989046455,0.001559108350572813,-0.03699587682547784,0.002174999029076614,-0.02073411026036087,0.003355827502375806, ,0.04172680040482264, ,0.020846214134397165, ,0.0006800435784191677, ,0.204806875824434,-0.2318750545485909,0.09938914688000001,1.686326525502545,0.5352051695812303,-1.255825049869003, ,0.13793160110242844,0.08280710432676333,0.039330398814814815,-0.018421329821303404,0.12381917804499422,-0.08350122369275736, ,1.0974490642547607
0.013595616152679534,0.021574771891630994,-0.08811833102666013, ,0.014545860374882752,0.0210539813821719,-0.08890844010676878, ,0.001341066439459061, ,0.019235387989046455,0.001559108350572813,-0.03699587682547784,0.002174999029076614,-0.02073411026036087,0.003355827502375806, ,0.04172680040482264, ,0.020846214134397165, ,0.0006892244514891663, ,0.204806875824434,-0.2318750545485909,0.09938914688000001,1.686326525502545,0.5352051695812303,-1.255825049869003, ,0.13793160110242844,0.08280710432676333,0.039330398814814815,-0.018421329821303404,0.12381917804499422,-0.08350122369275736, ,1.1010661125183105
0.013595616152679534,0.021574771891630994,-0.08811833102666013, ,0.014617312243195256,0.02104645409327323,-0.08903912153117546, ,0.001473376309923, ,0.019235387989046455,0.001559108350572813,-0.03699587682547784,0.002174999029076614,-0.02073411026036087,0.003355827502375806, ,0.04172680040482264, ,0.020846214134397165, ,0.0006999662577690818, ,0.204806875824434,-0.2318750545485909,0.09938914688000001,1.686326525502545,0.5352051695812303,-1.255825049869003, ,0.13793160110242844,0.08280710432676333,0.039330398814814815,-0.018421329821303404,0.12381917804499422,-0.08350122369275736, ,1.1046221256256104
0.013801860460747559,0.021579774439511847,-0.08849149331404507, ,0.014688781168795939,0.021038562426645084,-0.08916979164639668, ,0.00124081723590032, ,0.019455992659657598,-0.0005469236567557427,-0.033138711629527216,-0.0003421211238102109,-0.022501975381860696,0.010670687364672249, ,0.03843187458768999, ,0.022503688100116305, ,0.0007072750547708552, ,0.20633597693353045,-0.23092515840506128,0.09978581162000001,1.6861168355590603,0.5365715345788846,-1.256775871425686, ,0.14897479051565274,0.09451886609409439,0.03524073345132744,-0.029635307544906522,0.13577717788192373,-0.0945781314905286, ,1.1081981658935547
0.013801860460747559,0.021579774439511847,-0.08849149331404507, ,0.014760265984235991,0.02103031382413503,-0.08930044810039287, ,0.001369253797386887, ,0.019455992659657598,-0.0005469236567557427,-0.033138711629527216,-0.0003421211238102109,-0.022501975381860696,0.010670687364672249, ,0.03843187458768999, ,0.022503688100116305, ,0.0007161014380057357, ,0.20633597693353045,-0.23092515840506128,0.09978581162000001,1.6861168355590603,0.5365715345788846,-1.256775871425686, ,0.14897479051565274,0.09451886609409439,0.03524073345132744,-0.029635307544906522,0.13577717788192373,-0.0945781314905286, ,1.1138482093811035
0.01397812468140335,0.021570785535504105,-0.0887882605875723, ,0.014831765534083262,0.021021715686446396,-0.08943108854884264, ,0.0012014192408561317, ,0.019376264230066997,-0.0016173674261142313,-0.031599483820839123,0.031433799996260024,0.007458187929530904,0.004518822938414153, ,0.03710232971995024, ,0.03230598772538824, ,0.0007224871985695566, ,0.2077106233851424,-0.23002159865877703,0.10010210638000001,1.6861168355590603,0.5380745360763045,-1.2579197896262062, ,0.15355492161564852,0.10171162010554209,0.03367613429175476,-0.029635307544906522,0.1706139823577958,-0.13337694792772786, ,1.117650032043457
0.01397812468140335,0.021570785535504105,-0.0887882605875723, ,0.014903278674884904,0.021012775373225944,-0.08956171065514447, ,0.0013287250505232273, ,0.019376264230066997,-0.0016173674261142313,-0.031599483820839123,0.031433799996260024,0.007458187929530904,0.004518822938414153, ,0.03710232971995024, ,0.03230598772538824, ,0.0007303604174260978, ,0.2077106233851424,-0.23002159865877703,0.10010210638000001,1.6861168355590603,0.5380745360763045,-1.2579197896262062, ,0.15355492161564852,0.10171162010554209,0.03367613429175476,-0.029635307544906522,0.1706139823577958,-0.13337694792772786, ,1.1212751865386963
0.01397812468140335,0.021570785535504105,-0.0887882605875723, ,0.01497480427512999,0.021003500203150473,-0.08969231209041535, ,0.0014603054408744228, ,0.019376264230066997,-0.0016173674261142313,-0.031599483820839123,0.031433799996260024,0.007458187929530904,0.004518822938414153, ,0.03710232971995024, ,0.03230598772538824, ,0.0007397186869574865, ,0.2077106233851424,-0.23002159865877703,0.10010210638000001,1.6861168355590603,0.5380745360763045,-1.2579197896262062, ,0.15355492161564852,0.10171162010554209,0.03367613429175476,-0.029635307544906522,0.1706139823577958,-0.13337694792772786, ,1.124831199645996
0.014178280456867975,0.021547250417208424,-0.08910346668151731, ,0.015046341215211987,0.020993897454014247,-0.08982289053349209, ,0.0012559059124165254, ,0.018972235712239795,-0.0029249665775926284,-0.02875379722084525,-0.0004118709018291246,-0.011286539486754255,-0.0016677331009329805, ,0.034572850793915, ,0.011293181840870328, ,0.0007462527024696263, ,0.2093169518229811,-0.22892497059063713,0.10043784549000001,1.6859071456155759,0.5398508105732552,-1.2592865436341192, ,0.15256743015831317,0.10796011553864708,0.030514964597701155,-0.020805158240071512,0.14864970196646562,-0.10578119187071457, ,1.1286242008209229
0.014178280456867975,0.021547250417208424,-0.08910346668151731, ,0.015117888387391512,0.020983974362815985,-0.08995344367093128, ,0.0013865799144253729, ,0.018972235712239795,-0.0029249665775926284,-0.02875379722084525,-0.0004118709018291246,-0.011286539486754255,-0.0016677331009329805, ,0.034572850793915, ,0.011293181840870328, ,0.0007542567926190732, ,0.2093169518229811,-0.22892497059063713,0.10043784549000001,1.6859071456155759,0.5398508105732552,-1.2592865436341192, ,0.15256743015831317,0.10796011553864708,0.030514964597701155,-0.020805158240071512,0.14864970196646562,-0.10578119187071457, ,1.1324961185455322
0.014377722419967546,0.021512084691873875,-0.08940146262270607, ,0.015189444695758801,0.020973738125845624,-0.09008396919700921, ,0.0011893381782054925, ,0.01980646048621041,-0.0033504059056122075,-0.029560605339336937,-0.028345412252560494,-0.04258196739620815,-0.00625534416870544, ,0.035740040357450785, ,0.0511533358763372, ,0.0007596281677497697, ,0.21090783479507136,-0.22775883792662924,0.10075284396,1.6856974556720912,0.5412171755709096,-1.2602373651908023, ,0.15608049598432694,0.11392189862961677,0.031232963764705888,-0.017269937234199697,0.11953038687639449,-0.08361326906429803, ,1.136620044708252
0.014377722419967546,0.021512084691873875,-0.08940146262270607, ,0.01526100905619636,0.0209631958987719,-0.09021446481372282, ,0.0013200177087946184, ,0.01980646048621041,-0.0033504059056122075,-0.029560605339336937,-0.028345412252560494,-0.04258196739620815,-0.00625534416870544, ,0.035740040357450785, ,0.0511533358763372, ,0.0007664621865429995, ,0.21090783479507136,-0.22775883792662924,0.10075284396,1.6856974556720912,0.5412171755709096,-1.2602373651908023, ,0.15608049598432694,0.11392189862961677,0.031232963764705888,-0.017269937234199697,0.11953038687639449,-0.08361326906429803, ,1.1402230262756348
0.014377722419967546,0.021512084691873875,-0.08940146262270607, ,0.015332580396341479,0.02095235479672899,-0.09034492823078916, ,0.0014543653819447907, ,0.01980646048621041,-0.0033504059056122075,-0.029560605339336937,-0.028345412252560494,-0.04258196739620815,-0.00625534416870544, ,0.035740040357450785, ,0.0511533358763372, ,0.0007747501768490452, ,0.21090783479507136,-0.22775883792662924,0.10075284396,1.6856974556720912,0.5412171755709096,-1.2602373651908023, ,0.15608049598432694,0.11392189862961677,0.031232963764705888,-0.017269937234199697,0.11953038687639449,-0.08361326906429803, ,1.1437721252441406
0.014377722419967546,0.021512084691873875,-0.08940146262270607, ,0.015404157655548785,0.020941221894403794,-0.09047535716564603, ,0.0015914468623659142, ,0.020856497137772902,-0.0038452757632358855,-0.03214617840604132,-0.0518565693481584,-0.05286334747035749,0.03160829401845232, ,0.03851176969013883, ,0.07405135354921141, ,0.0007844727564385317, ,0.2123442631096771,-0.2266776553242378,0.10104969437000001,1.6850683858416375,0.5423102675690331,-1.261047029680233, ,0.16084227382791658,0.12308293327946923,0.03381913273885351,-0.05593872268990162,0.12288341333820733,-0.07643498765029641, ,1.1474170684814453
0.014562412264025132,0.02147795536100406,-0.08968356147442802, ,0.015475739784853053,0.020929804226122905,-0.09060574934345234, ,0.0014089241614610715, ,0.020856497137772902,-0.0038452757632358855,-0.03214617840604132,-0.0518565693481584,-0.05286334747035749,0.03160829401845232, ,0.03851176969013883, ,0.07405135354921141, ,0.0007918192435564439, ,0.2123442631096771,-0.2266776553242378,0.10104969437000001,1.6850683858416375,0.5423102675690331,-1.261047029680233, ,0.16084227382791658,0.12308293327946923,0.03381913273885351,-0.05593872268990162,0.12288341333820733,-0.07643498765029641, ,1.1510920524597168
0.014562412264025132,0.02147795536100406,-0.08968356147442802, ,0.015547325746931472,0.020918108785939662,-0.09073610249708769, ,0.0015463910762816432, ,0.020856497137772902,-0.0038452757632358855,-0.03214617840604132,-0.0518565693481584,-0.05286334747035749,0.03160829401845232, ,0.03851176969013883, ,0.07405135354921141, ,0.0008005933346346439, ,0.2123442631096771,-0.2266776553242378,0.10104969437000001,1.6850683858416375,0.5423102675690331,-1.261047029680233, ,0.16084227382791658,0.12308293327946923,0.03381913273885351,-0.05593872268990162,0.12288341333820733,-0.07643498765029641, ,1.1547021865844727
0.014791953362998109,0.021437230356852178,-0.09003096138701933, ,0.015618914516066373,0.0209061425277214,-0.09086641436715354, ,0.0012899227546446213, ,0.021348779580160012,-0.0036665404358851425,-0.032497794850724356,-0.05641818771360878,-0.09963933033585999,0.02192721292861165, ,0.039055352750807466, ,0.11450315195610973, ,0.0008062178107267127, ,0.2140973234721261,-0.22534162253699697,0.10141524815000001,1.6848586958981533,0.5434033595671567,-1.261775015429523, ,0.15975916087284645,0.12088782364136405,0.03410880411134904,-0.05685292191185064,0.07365105742123952,-0.07294741948441191, ,1.1582520008087158
0.014791953362998109,0.021437230356852178,-0.09003096138701933, ,0.01569050507810786,0.020893912365236352,-0.09099668270197285, ,0.001426606912536069, ,0.021348779580160012,-0.0036665404358851425,-0.032497794850724356,-0.05641818771360878,-0.09963933033585999,0.02192721292861165, ,0.039055352750807466, ,0.11450315195610973, ,0.0008132676868836372, ,0.2140973234721261,-0.22534162253699697,0.10141524815000001,1.6848586958981533,0.5434033595671567,-1.261775015429523, ,0.15975916087284645,0.12088782364136405,0.03410880411134904,-0.05685292191185064,0.07365105742123952,-0.07294741948441191, ,1.1618950366973877
0.014791953362998109,0.021437230356852178,-0.09003096138701933, ,0.015762096430436197,0.020881425172240727,-0.09112690525759012, ,0.001565627651129365, ,0.021348779580160012,-0.0036665404358851425,-0.032497794850724356,-0.05641818771360878,-0.09963933033585999,0.02192721292861165, ,0.039055352750807466, ,0.11450315195610973, ,0.0008217211696279711, ,0.2140973234721261,-0.22534162253699697,0.10141524815000001,1.6848586958981533,0.5434033595671567,-1.261775015429523, ,0.15975916087284645,0.12088782364136405,0.03410880411134904,-0.05685292191185064,0.07365105742123952,-0.07294741948441191, ,1.1654341220855713
0.015011509827201794,0.021396581679832063,-0.09036393500541053, ,0.01583368758192459,0.020868687782565645,-0.09125707979777244, ,0.0013237657826274815, ,0.022614386869040378,-0.0043933922769741895,-0.035835440946930246,-0.03890853946158446,-0.06453182024536626,0.000265513848573231, ,0.0426015400780644, ,0.07535364072452873, ,0.0008272994431057435, ,0.21574998830721012,-0.22404420341412726,0.10176524645000001,1.6848586958981533,0.5443598150655148,-1.2625549407553982, ,0.16736673996202958,0.1371343086105069,0.03756795169811321,-0.0381399181422683,0.11279776956245607,-0.10159593226352422, ,1.169032096862793
0.015011509827201794,0.021396581679832063,-0.09036393500541053, ,0.015905277552901533,0.020855706990204278,-0.0913872040940086, ,0.001462342574454694, ,0.022614386869040378,-0.0043933922769741895,-0.035835440946930246,-0.03890853946158446,-0.06453182024536626,0.000265513848573231, ,0.0426015400780644, ,0.07535364072452873, ,0.0008342779390546331, ,0.21574998830721012,-0.22404420341412726,0.10176524645000001,1.6848586958981533,0.5443598150655148,-1.2625549407553982, ,0.16736673996202958,0.1371343086105069,0.03756795169811321,-0.0381399181422683,0.11279776956245607,-0.10159593226352422, ,1.1726021766662598
0.015240415074494546,0.021358906334559714,-0.09074219479612722, ,0.015976865375113523,0.020842489549399316,-0.09151727592550994, ,0.0011873483475384888, ,0.02279064617214517,-0.0029508085740963283,-0.03892666587011685,0.01490690659296226,-0.004153743117652393,-0.035932512188589054, ,0.04520405003922321, ,0.015471912194248642, ,0.0008381156608859794, ,0.21741809860804262,-0.22268500242826375,0.10216320748,1.6846490059546686,0.5457261800631692,-1.2636691197923624, ,0.1644661032209199,0.13071204071414708,0.041159719689922485,0.0,0.16256002070876852,-0.1401864559196646, ,1.1767160892486572
0.015240415074494546,0.021358906334559714,-0.09074219479612722, ,0.016048450091687684,0.020829042174729438,-0.09164729307921118, ,0.0013239635640471762, ,0.02279064617214517,-0.0029508085740963283,-0.03892666587011685,0.01490690659296226,-0.004153743117652393,-0.035932512188589054, ,0.04520405003922321, ,0.015471912194248642, ,0.0008433398318877127, ,0.21741809860804262,-0.22268500242826375,0.10216320748,1.6846490059546686,0.5457261800631692,-1.2636691197923624, ,0.1644661032209199,0.13071204071414708,0.041159719689922485,0.0,0.16256002070876852,-0.1401864559196646, ,1.1804380416870117
0.015240415074494546,0.021358906334559714,-0.09074219479612722, ,0.01612003075709411,0.020815371541196517,-0.09177725334976918, ,0.0014630447806334738, ,0.02279064617214517,-0.0029508085740963283,-0.03892666587011685,0.01490690659296226,-0.004153743117652393,-0.035932512188589054, ,0.04520405003922321, ,0.015471912194248642, ,0.0008499324377254336, ,0.21741809860804262,-0.22268500242826375,0.10216320748,1.6846490059546686,0.5457261800631692,-1.2636691197923624, ,0.1644661032209199,0.13071204071414708,0.041159719689922485,0.0,0.16256002070876852,-0.1401864559196646, ,1.1844470500946045
0.01547541832399124,0.0213209392224264,-0.09114336564724282, ,0.016191606437108576,0.02080148428431307,-0.0919071545395645, ,0.001168816631527318, ,0.022604525245478534,-0.004389202524828496,-0.0374956963433093,-0.045465740313597285,-0.06317024124853451,0.08659025201095419, ,0.04400178297122851, ,0.07783019212677142, ,0.0008532891134496639, ,0.21910937710749778,-0.221318078709526,0.10258579802000001,1.6836005562372458,0.5473658180603544,-1.2650061346367196, ,0.16221699411704404,0.13441493138593594,0.039330398814814815,-0.12823116642327323,0.12886174132997544,-0.11120269279712276, ,1.1885221004486084
0.01547541832399124,0.0213209392224264,-0.09114336564724282, ,0.016263176208775036,0.020787387000188534,-0.0920369944587008, ,0.0013053018469158023, ,0.022604525245478534,-0.004389202524828496,-0.0374956963433093,-0.045465740313597285,-0.06317024124853451,0.08659025201095419, ,0.04400178297122851, ,0.07783019212677142, ,0.0008579975794232694, ,0.21910937710749778,-0.221318078709526,0.10258579802000001,1.6836005562372458,0.5473658180603544,-1.2650061346367196, ,0.16221699411704404,0.13441493138593594,0.039330398814814815,-0.12823116642327323,0.12886174132997544,-0.11120269279712276, ,1.1920931339263916
0.01547541832399124,0.0213209392224264,-0.09114336564724282, ,0.01633473916036824,0.02077308624561739,-0.09216677092500539, ,0.0014442761323868927, ,0.022604525245478534,-0.004389202524828496,-0.0374956963433093,-0.045465740313597285,-0.06317024124853451,0.08659025201095419, ,0.04400178297122851, ,0.07783019212677142, ,0.0008640416882167088, ,0.21910937710749778,-0.221318078709526,0.10258579802000001,1.6836005562372458,0.5473658180603544,-1.2650061346367196, ,0.16221699411704404,0.13441493138593594,0.039330398814814815,-0.12823116642327323,0.12886174132997544,-0.11120269279712276, ,1.1957051753997803
0.015696863490400365,0.02127994522224659,-0.09151106265405623, ,0.01640629439135628,0.02075858853816528,-0.09229648176402933, ,0.0011798254843739852, ,0.02221557528284319,-0.004288170785177029,-0.03729629483080321,-0.07041597172142575,-0.0841484673218769,0.026039599867492408, ,0.04362262947068548, ,0.10972375066861967, ,0.0008672639718509667, ,0.2206616464152169,-0.2199974913880336,0.10297079615000002,1.6829714864067924,0.5483222735587124,-1.2657860599625943, ,0.15305958315882384,0.1346055908630791,0.03894574943765281,-0.06304712910916692,0.08369437600340487,-0.07337854117661412, ,1.1992590427398682
0.015696863490400365,0.02127994522224659,-0.09151106265405623, ,0.016477841012363027,0.020743900356256496,-0.09242612480904806, ,0.0013170454569465617, ,0.02221557528284319,-0.004288170785177029,-0.03729629483080321,-0.07041597172142575,-0.0841484673218769,0.026039599867492408, ,0.04362262947068548, ,0.10972375066861967, ,0.0008718072191751646, ,0.2206616464152169,-0.2199974913880336,0.10297079615000002,1.6829714864067924,0.5483222735587124,-1.2657860599625943, ,0.15305958315882384,0.1346055908630791,0.03894574943765281,-0.06304712910916692,0.08369437600340487,-0.07337854117661412, ,1.202834129333496
0.01591840881172257,0.021237630864242154,-0.09189206864889223, ,0.016549378145130897,0.020729028139260818,-0.0925556979010609, ,0.001047474494149687, ,0.02204154775960085,-0.004235065166356643,-0.03843948543404872,-0.03169794039284465,-0.03158059408122624,-0.04101672731102576, ,0.04451246617562878, ,0.04474381994591316, ,0.0008735638919249098, ,0.2221675793256907,-0.21862284493642165,0.10336875718,1.682761796463308,0.5492787290570706,-1.2664843065483287, ,0.1496797185464839,0.13914507559893075,0.04022427151515152,0.004913429290923231,0.11853081356512118,-0.10140208897138629, ,1.2066822052001953
0.01591840881172257,0.021237630864242154,-0.09189206864889223, ,0.016620904922483172,0.020713978287581085,-0.09268519888879155, ,0.001181849560697262, ,0.02204154775960085,-0.004235065166356643,-0.03843948543404872,-0.03169794039284465,-0.03158059408122624,-0.04101672731102576, ,0.04451246617562878, ,0.04474381994591316, ,0.0008766162252790916, ,0.2221675793256907,-0.21862284493642165,0.10336875718,1.682761796463308,0.5492787290570706,-1.2664843065483287, ,0.1496797185464839,0.13914507559893075,0.04022427151515152,0.004913429290923231,0.11853081356512118,-0.10140208897138629, ,1.210400104522705
0.01591840881172257,0.021237630864242154,-0.09189206864889223, ,0.016692420488286713,0.02069875716273951,-0.09281462562868878, ,0.0013193143380559977, ,0.02204154775960085,-0.004235065166356643,-0.03843948543404872,-0.03169794039284465,-0.03158059408122624,-0.04101672731102576, ,0.04451246617562878, ,0.04474381994591316, ,0.0008809564028553358, ,0.2221675793256907,-0.21862284493642165,0.10336875718,1.682761796463308,0.5492787290570706,-1.2664843065483287, ,0.1496797185464839,0.13914507559893075,0.04022427151515152,0.004913429290923231,0.11853081356512118,-0.10140208897138629, ,1.2140510082244873
0.01613424178783864,0.021196660937501614,-0.09226678194884505, ,0.016763923997414505,0.02068337108746522,-0.09294397598492603, ,0.0010576189851313996, ,0.02204154775960085,-0.004235065166356643,-0.03843948543404872,-0.03169794039284465,-0.03158059408122624,-0.04101672731102576, ,0.04451246617562878, ,0.04474381994591316, ,0.0008826715735570452, ,0.22365806677041603,-0.21726364395055814,0.10376282934000002,1.6829714864067924,0.5507817305544904,-1.26779158222913, ,0.14577103157983223,0.13235277762687694,0.038107204593301434,0.0,0.14551667690265582,-0.12737416840014165, ,1.2176580429077148
0.01613424178783864,0.021196660937501614,-0.09226678194884505, ,0.016835414615707978,0.02066782634578134,-0.09307324782940142, ,0.0011923491839405914, ,0.021076110671459494,-0.0041928129298329795,-0.036230377722793895,0.00010158802470337136,-0.002062943656608951,-0.03745277312060634, ,0.04212389335325622, ,0.0020502757935051854, ,0.0008856492428876562, ,0.22365806677041603,-0.21726364395055814,0.10376282934000002,1.6829714864067924,0.5507817305544904,-1.26779158222913, ,0.14577103157983223,0.13235277762687694,0.038107204593301434,0.0,0.14551667690265582,-0.12737416840014165, ,1.2212409973144531
0.01613424178783864,0.021196660937501614,-0.09226678194884505, ,0.016906891519939928,0.020652129183091807,-0.0932024390417395, ,0.001330021291393678, ,0.021076110671459494,-0.0041928129298329795,-0.036230377722793895,0.00010158802470337136,-0.002062943656608951,-0.03745277312060634, ,0.04212389335325622, ,0.0020502757935051854, ,0.0008898813576353326, ,0.22365806677041603,-0.21726364395055814,0.10376282934000002,1.6829714864067924,0.5507817305544904,-1.26779158222913, ,0.14577103157983223,0.13235277762687694,0.038107204593301434,0.0,0.14551667690265582,-0.12737416840014165, ,1.2247881889343262
0.016333235462224427,0.021150850835053716,-0.0926032593967301, ,0.016978353897776823,0.020636285806268376,-0.09333154750928875, ,0.001100617344780951, ,0.020320944135577012,-0.0050041471662880055,-0.034138802405084,-0.025841862877757863,-0.026068795524337843,-0.016468804102127612, ,0.04004297802457354, ,0.03670609767629889, ,0.000891869432985763, ,0.22503271322202797,-0.2159893930263111,0.10411542022,1.6825521065198237,0.5520114590523794,-1.268957700842679, ,0.13975985501983915,0.133469678703897,0.03571482403587444,-0.02213102327047531,0.1198314686893268,-0.10782869440336086, ,1.2283680438995361
0.016333235462224427,0.021150850835053716,-0.0926032593967301, ,0.01704980094774126,0.020620302383738055,-0.09346057112712497, ,0.0012369038593601632, ,0.020320944135577012,-0.0050041471662880055,-0.034138802405084,-0.025841862877757863,-0.026068795524337843,-0.016468804102127612, ,0.04004297802457354, ,0.03670609767629889, ,0.0008950940537930004, ,0.22503271322202797,-0.2159893930263111,0.10411542022,1.6825521065198237,0.5520114590523794,-1.268957700842679, ,0.13975985501983915,0.133469678703897,0.03571482403587444,-0.02213102327047531,0.1198314686893268,-0.10782869440336086, ,1.231990098953247
0.016333235462224427,0.021150850835053716,-0.0926032593967301, ,0.017121231879174793,0.02060418504556976,-0.09358950779804866, ,0.0013756699268436961, ,0.020320944135577012,-0.0050041471662880055,-0.034138802405084,-0.025841862877757863,-0.026068795524337843,-0.016468804102127612, ,0.04004297802457354, ,0.03670609767629889, ,0.0008995438303953217, ,0.22503271322202797,-0.2159893930263111,0.10411542022,1.6825521065198237,0.5520114590523794,-1.268957700842679, ,0.13975985501983915,0.133469678703897,0.03571482403587444,-0.02213102327047531,0.1198314686893268,-0.10782869440336086, ,1.2356750965118408
0.016542693884527008,0.021090940155471426,-0.0929575831167209, ,0.017192645912200256,0.02058793988356166,-0.0937183554325871, ,0.0011199202777011797, ,0.01962259211275187,-0.0058742657681192505,-0.033490648174266086,-0.028678340875392734,-0.01396213666126662,0.05731268456645862, ,0.03925782259206949, ,0.03189586749033794, ,0.0009015656326641827, ,0.22647686426950797,-0.2145684101774538,0.10448486287000001,1.6815036568024009,0.5533778240500338,-1.2701535586197836, ,0.1353736684143663,0.1359555036654309,0.034931604210526324,-0.10022344823171198,0.14443785432313025,-0.12408684391215917, ,1.2393231391906738
0.016542693884527008,0.021090940155471426,-0.0929575831167209, ,0.01726404227768437,0.02057157295132805,-0.09384711194899373, ,0.001257516338062884, ,0.01962259211275187,-0.0058742657681192505,-0.033490648174266086,-0.028678340875392734,-0.01396213666126662,0.05731268456645862, ,0.03925782259206949, ,0.03189586749033794, ,0.0009048015481678073, ,0.22647686426950797,-0.2145684101774538,0.10448486287000001,1.6815036568024009,0.5533778240500338,-1.2701535586197836, ,0.1353736684143663,0.1359555036654309,0.034931604210526324,-0.10022344823171198,0.14443785432313025,-0.12408684391215917, ,1.2429330348968506
0.016734024834023416,0.0210378996715913,-0.09328683270720038, ,0.017335420217200324,0.02055509026438645,-0.09397577527324862, ,0.0010341291940106536, ,0.01930439789091924,-0.0053351040857819885,-0.03332387665462032,-0.04356509337158712,-0.03203058119960475,0.005335936773828134, ,0.03887935015955647, ,0.05407249206886669, ,0.0009059666620943194, ,0.22776656065950346,-0.2132478228559614,0.10482837972000002,1.6812939668589162,0.5546075525479227,-1.2711563197530513, ,0.12806604798714005,0.13161850424198443,0.03470329307189543,-0.04338835271435494,0.10641715963824103,-0.09308351679133746, ,1.2470672130584717
0.016734024834023416,0.0210378996715913,-0.09328683270720038, ,0.01740677898299022,0.020538497800244623,-0.0941043433390583, ,0.0011706083919301741, ,0.01930439789091924,-0.0053351040857819885,-0.03332387665462032,-0.04356509337158712,-0.03203058119960475,0.005335936773828134, ,0.03887935015955647, ,0.05407249206886669, ,0.0009083295346821394, ,0.22776656065950346,-0.2132478228559614,0.10482837972000002,1.6812939668589162,0.5546075525479227,-1.2711563197530513, ,0.12806604798714005,0.13161850424198443,0.03470329307189543,-0.04338835271435494,0.10641715963824103,-0.09308351679133746, ,1.2507410049438477
0.016734024834023416,0.0210378996715913,-0.09328683270720038, ,0.01747811783792771,0.020521801498487785,-0.09423281408785687, ,0.0013095466754907447, ,0.01930439789091924,-0.0053351040857819885,-0.03332387665462032,-0.04356509337158712,-0.03203058119960475,0.005335936773828134, ,0.03887935015955647, ,0.05407249206886669, ,0.0009118801288485873, ,0.22776656065950346,-0.2132478228559614,0.10482837972000002,1.6812939668589162,0.5546075525479227,-1.2711563197530513, ,0.12806604798714005,0.13161850424198443,0.03470329307189543,-0.04338835271435494,0.10641715963824103,-0.09308351679133746, ,1.254568099975586
0.01692969695149469,0.020982119357964107,-0.09362083568713478, ,0.017549436055480507,0.02050500726086553,-0.09436118546880495, ,0.0010769541816744207, ,0.01870889710654711,-0.005553656365451292,-0.03263777773920496,-0.046915774907070426,-0.03062772739310447,-0.01099559585228479, ,0.03802749618003567, ,0.0560277662075041, ,0.0009133281468558313, ,0.22905625704949895,-0.21188862187009788,0.10517578544000002,1.6812939668589162,0.5555640080462809,-1.272017923819067, ,0.12181892369508443,0.1319846196918926,0.03389108834042554,-0.0263678601805931,0.09783695513376932,-0.08645995015569931, ,1.2581632137298584
0.01692969695149469,0.020982119357964107,-0.09362083568713478, ,0.01762073291967286,0.020488120951378797,-0.09448945543879063, ,0.0012149343225011937, ,0.01870889710654711,-0.005553656365451292,-0.03263777773920496,-0.046915774907070426,-0.03062772739310447,-0.01099559585228479, ,0.03802749618003567, ,0.0560277662075041, ,0.0009159508092527476, ,0.22905625704949895,-0.21188862187009788,0.10517578544000002,1.6812939668589162,0.5555640080462809,-1.272017923819067, ,0.12181892369508443,0.1319846196918926,0.03389108834042554,-0.0263678601805931,0.09783695513376932,-0.08645995015569931, ,1.2617881298065186
0.01692969695149469,0.020982119357964107,-0.09362083568713478, ,0.01769200772504817,0.02047114839636713,-0.09461762196242987, ,0.001354913989036834, ,0.01870889710654711,-0.005553656365451292,-0.03263777773920496,-0.046915774907070426,-0.03062772739310447,-0.01099559585228479, ,0.03802749618003567, ,0.0560277662075041, ,0.0009197349745957139, ,0.22905625704949895,-0.21188862187009788,0.10517578544000002,1.6812939668589162,0.5555640080462809,-1.272017923819067, ,0.12181892369508443,0.1319846196918926,0.03389108834042554,-0.0263678601805931,0.09783695513376932,-0.08645995015569931, ,1.265334129333496
0.01711356561731279,0.02092725825932509,-0.09395244850547543, ,0.017763259776631523,0.02045409538459547,-0.09474568301206622, ,0.0011292504545589548, ,0.01836945636589886,-0.0050332273999810166,-0.03397563054404331,0.0010211571796782321,0.022669784688561578,-0.02372584145360704, ,0.038950144750744, ,0.02269177443442906, ,0.0009215257051936903, ,0.23024555791212953,-0.2105757572814797,0.10552059858000001,1.680874586971947,0.5567937365441699,-1.2732657211727565, ,0.11803102183889398,0.12946376747403926,0.035476194922048995,-0.016063515977768575,0.14564905783288468,-0.12922559949868126, ,1.2689270973205566
0.01711356561731279,0.02092725825932509,-0.09395244850547543, ,0.017834488389892173,0.020436967667341554,-0.09487363656777129, ,0.0012683461494117055, ,0.01836945636589886,-0.0050332273999810166,-0.03397563054404331,0.0010211571796782321,0.022669784688561578,-0.02372584145360704, ,0.038950144750744, ,0.02269177443442906, ,0.0009244648615006226, ,0.23024555791212953,-0.2105757572814797,0.10552059858000001,1.680874586971947,0.5567937365441699,-1.2732657211727565, ,0.11803102183889398,0.12946376747403926,0.035476194922048995,-0.016063515977768575,0.14564905783288468,-0.12922559949868126, ,1.2724971771240234
0.01711356561731279,0.02092725825932509,-0.09395244850547543, ,0.01790569289070615,0.02041977095848274,-0.09500148061734467, ,0.001409069675176743, ,0.01836945636589886,-0.0050332273999810166,-0.03397563054404331,0.0010211571796782321,0.022669784688561578,-0.02372584145360704, ,0.038950144750744, ,0.02269177443442906, ,0.0009285371708592456, ,0.23024555791212953,-0.2105757572814797,0.10552059858000001,1.680874586971947,0.5567937365441699,-1.2732657211727565, ,0.11803102183889398,0.12946376747403926,0.035476194922048995,-0.016063515977768575,0.14564905783288468,-0.12922559949868126, ,1.2761139869689941
0.01729032350020239,0.02087921621795154,-0.09429104419307527, ,0.01797687261531863,0.02040251093458294,-0.09512921315631456, ,0.0011836911867527207, ,0.018869294269214697,-0.00474424490471174,-0.03682364445454694,-0.008158807872806921,0.015290158503031486,0.09149954365702062, ,0.04164779606232468, ,0.01732880220646563, ,0.0009306634543250245, ,0.2313730769117663,-0.20935556548735224,0.10587448575000001,1.6798261372545245,0.5584333745413551,-1.2747660934973946, ,0.11744670984959255,0.12602515479212587,0.03847539014492755,-0.1376155868998982,0.1629863512422368,-0.14391876768001216, ,1.279717206954956
0.01729032350020239,0.02087921621795154,-0.09429104419307527, ,0.018048026910306707,0.020385193234979976,-0.09525683218793761, ,0.0013232231922121285, ,0.018869294269214697,-0.00474424490471174,-0.03682364445454694,-0.008158807872806921,0.015290158503031486,0.09149954365702062, ,0.04164779606232468, ,0.01732880220646563, ,0.0009339077496794635, ,0.2313730769117663,-0.20935556548735224,0.10587448575000001,1.6798261372545245,0.5584333745413551,-1.2747660934973946, ,0.11744670984959255,0.12602515479212587,0.03847539014492755,-0.1376155868998982,0.1629863512422368,-0.14391876768001216, ,1.2833280563354492
0.01729032350020239,0.02087921621795154,-0.09429104419307527, ,0.01811915513254185,0.02036782346187243,-0.0953843357231992, ,0.0014641621479799985, ,0.018869294269214697,-0.00474424490471174,-0.03682364445454694,-0.008158807872806921,0.015290158503031486,0.09149954365702062, ,0.04164779606232468, ,0.01732880220646563, ,0.000938254097206517, ,0.2325392095757742,-0.20811992822747633,0.10626078017000001,1.6791970674240708,0.5597997395390095,-1.2759619512744993, ,0.1170122583951551,0.12372482602147429,0.039525586898263035,-0.03952474347378878,0.13885850509686132,-0.12274272449960306, ,1.2873380184173584
0.017481383007367134,0.02083751692845509,-0.09466022417483103, ,0.018190256649152293,0.02035040718040669,-0.09551172178081371, ,0.001210299929627271, ,0.019379074576103432,-0.003939147636132507,-0.03772100423097502,-0.005415061068932973,0.012343246075654074,-0.00015363775228162564, ,0.04259036951845643, ,0.013475987578572983, ,0.0009404658519416452, ,0.2325392095757742,-0.20811992822747633,0.10626078017000001,1.6791970674240708,0.5597997395390095,-1.2759619512744993, ,0.1170122583951551,0.12372482602147429,0.039525586898263035,-0.03952474347378878,0.13885850509686132,-0.12274272449960306, ,1.2917840480804443
0.017481383007367134,0.02083751692845509,-0.09466022417483103, ,0.01826133083748568,0.020332949918764307,-0.09563898838722476, ,0.001349402041067693, ,0.019379074576103432,-0.003939147636132507,-0.03772100423097502,-0.005415061068932973,0.012343246075654074,-0.00015363775228162564, ,0.04259036951845643, ,0.013475987578572983, ,0.0009437637244345971, ,0.2325392095757742,-0.20811992822747633,0.10626078017000001,1.6791970674240708,0.5597997395390095,-1.2759619512744993, ,0.1170122583951551,0.12372482602147429,0.039525586898263035,-0.03952474347378878,0.13885850509686132,-0.12274272449960306, ,1.2954730987548828
0.017680880254834885,0.02079687829846932,-0.09505016907990568, ,0.0183323770850716,0.020315457168248306,-0.09576613357660527, ,0.0010811195979012, ,0.01874925755011962,-0.004031702414926093,-0.036515262392331674,-0.008076964418048444,0.01145725471372028,-0.037197006276378806, ,0.04124504419471593, ,0.014015745457860702, ,0.00094486257142233, ,0.23372851043840479,-0.20683795457035503,0.10666911152000001,1.6789873774805866,0.5611661045366639,-1.2770761303114637, ,0.1111205404665934,0.12276447808340334,0.038198588776978425,0.0,0.12373493055088003,-0.11041046353564071, ,1.2991211414337158
0.017680880254834885,0.02079687829846932,-0.09505016907990568, ,0.018403394789584148,0.020297934383371165,-0.09589315539085773, ,0.001217209186536956, ,0.01874925755011962,-0.004031702414926093,-0.036515262392331674,-0.008076964418048444,0.01145725471372028,-0.037197006276378806, ,0.04124504419471593, ,0.014015745457860702, ,0.0009470240524946682, ,0.23372851043840479,-0.20683795457035503,0.10666911152000001,1.6789873774805866,0.5611661045366639,-1.2770761303114637, ,0.1111205404665934,0.12276447808340334,0.038198588776978425,0.0,0.12373493055088003,-0.11041046353564071, ,1.3027420043945312
0.017680880254834885,0.02079687829846932,-0.09505016907990568, ,0.018474383358804372,0.02028038698194133,-0.09602005187961458, ,0.0013553903870210983, ,0.01874925755011962,-0.004031702414926093,-0.036515262392331674,-0.008076964418048444,0.01145725471372028,-0.037197006276378806, ,0.04124504419471593, ,0.014015745457860702, ,0.0009502395354436952, ,0.23372851043840479,-0.20683795457035503,0.10666911152000001,1.6789873774805866,0.5611661045366639,-1.2770761303114637, ,0.1111205404665934,0.12276447808340334,0.038198588776978425,0.0,0.12373493055088003,-0.11041046353564071, ,1.3063020706176758
0.01786928737174383,0.020757188762736835,-0.09541937006858618, ,0.018545342210582835,0.020262820345150163,-0.0961468211002379, ,0.0011093400204066936, ,0.018201409129097852,-0.004214469277038089,-0.035714047006152674,-0.011942251162248731,0.01060062436724645,-0.028181223708816056, ,0.04030565964141497, ,0.015966605689044917, ,0.0009514825079824686, ,0.23483286123941888,-0.20560231731047912,0.10705540594000001,1.6791970674240708,0.562395833034553,-1.2780788914447314, ,0.10638670578303898,0.12135158767067875,0.03730400824355972,-0.009190340153889006,0.12001520414704926,-0.10724586018849384, ,1.3098790645599365
0.01786928737174383,0.020757188762736835,-0.09541937006858618, ,0.0186162707728022,0.020245239817659497,-0.09627346111782024, ,0.0012448081957491565, ,0.018201409129097852,-0.004214469277038089,-0.035714047006152674,-0.011942251162248731,0.01060062436724645,-0.028181223708816056, ,0.04030565964141497, ,0.015966605689044917, ,0.0009537563505232957, ,0.23483286123941888,-0.20560231731047912,0.10705540594000001,1.6791970674240708,0.562395833034553,-1.2780788914447314, ,0.10638670578303898,0.12135158767067875,0.03730400824355972,-0.009190340153889006,0.12001520414704926,-0.10724586018849384, ,1.3134620189666748
0.018050720610501086,0.020708907561259697,-0.0957766883297159, ,0.018687168483339674,0.020227650707688127,-0.09639997000518427, ,0.0010124989387278506, ,0.017359191309549046,-0.0047233275867180746,-0.0340846418237146,-0.0018246688286096,0.029020580231687652,0.030463488933595906, ,0.03854107101085658, ,0.029077095617022826, ,0.0009542082165864076, ,0.23591404384181033,-0.2043666800506032,0.10742873746,1.678358307650133,0.5638988345319728,-1.279304488385392, ,0.10359928117736984,0.11906768075090436,0.03563492510067114,-0.07149872667689333,0.14852848245874128,-0.12908407153937895, ,1.317244052886963
0.018050720610501086,0.020708907561259697,-0.0957766883297159, ,0.018758034790029587,0.020210058287099167,-0.09652634584288329, ,0.0011450459964302178, ,0.017359191309549046,-0.0047233275867180746,-0.0340846418237146,-0.0018246688286096,0.029020580231687652,0.030463488933595906, ,0.03854107101085658, ,0.029077095617022826, ,0.0009556649935317802, ,0.23591404384181033,-0.2043666800506032,0.10742873746,1.678358307650133,0.5638988345319728,-1.279304488385392, ,0.10359928117736984,0.11906768075090436,0.03563492510067114,-0.07149872667689333,0.14852848245874128,-0.12908407153937895, ,1.3209750652313232
0.018050720610501086,0.020708907561259697,-0.0957766883297159, ,0.018828869150625926,0.02019246779148719,-0.0966525867192014, ,0.0012803996153562336, ,0.017359191309549046,-0.0047233275867180746,-0.0340846418237146,-0.0018246688286096,0.029020580231687652,0.030463488933595906, ,0.03854107101085658, ,0.029077095617022826, ,0.0009581251043031775, ,0.23591404384181033,-0.2043666800506032,0.10742873746,1.678358307650133,0.5638988345319728,-1.279304488385392, ,0.10359928117736984,0.11906768075090436,0.03563492510067114,-0.07149872667689333,0.14852848245874128,-0.12908407153937895, ,1.3245840072631836
0.018050720610501086,0.020708907561259697,-0.0957766883297159, ,0.018899671032764874,0.02017488442026491,-0.09677869073015359, ,0.0014177116579413048, ,0.017359191309549046,-0.0047233275867180746,-0.0340846418237146,-0.0018246688286096,0.029020580231687652,0.030463488933595906, ,0.03854107101085658, ,0.029077095617022826, ,0.0009615806423004566, ,0.23591404384181033,-0.2043666800506032,0.10742873746,1.678358307650133,0.5638988345319728,-1.279304488385392, ,0.10359928117736984,0.11906768075090436,0.03563492510067114,-0.07149872667689333,0.14852848245874128,-0.12908407153937895, ,1.3284010887145996
0.018209090868804678,0.02066432847382586,-0.0960806259686007, ,0.018970439913927183,0.020157313336750717,-0.09690465597948607, ,0.00123115481421794, ,0.017051992617145646,-0.0050906039944996345,-0.03243363655228016,-0.015990506841200673,0.01545316476035737,0.04866195521295274, ,0.03699493858961532, ,0.02223647273636289, ,0.0009635923898520795, ,0.23686393998533994,-0.203293220181086,0.10774632851000002,1.6775195478761948,0.5651285630298617,-1.2803889282588004, ,0.10303685294079346,0.11759224480603565,0.03389108834042554,-0.08908757666897997,0.1377256381040774,-0.1176546064017742, ,1.3322560787200928
0.018209090868804678,0.02066432847382586,-0.0960806259686007, ,0.019041175281400983,0.020139759668255156,-0.09703048057867635, ,0.001367391926897904, ,0.017051992617145646,-0.0050906039944996345,-0.03243363655228016,-0.015990506841200673,0.01545316476035737,0.04866195521295274, ,0.03699493858961532, ,0.02223647273636289, ,0.0009665834975339006, ,0.23686393998533994,-0.203293220181086,0.10774632851000002,1.6775195478761948,0.5651285630298617,-1.2803889282588004, ,0.10303685294079346,0.11759224480603565,0.03389108834042554,-0.08908757666897997,0.1377256381040774,-0.1176546064017742, ,1.3359620571136475
0.018382496631135177,0.020615606318206914,-0.09640119606654766, ,0.019111876632244087,0.0201222285061686,-0.09715616264693336, ,0.0011599100779494142, ,0.017249996500287527,-0.0041711145406229415,-0.03127370875908529,-0.018593438178469066,-0.003444715003854723,-0.051365587980534845, ,0.035958384770718166, ,0.018909047813364402, ,0.000968005016507544, ,0.23791423165623446,-0.20212708751707809,0.10808206762000001,1.6771001679892257,0.5663582915277506,-1.281391689392068, ,0.10326108983511509,0.11060249598889368,0.03284291035051547,0.019778754151748613,0.09667564955867382,-0.08362463409515034, ,1.3395991325378418
0.018382496631135177,0.020615606318206914,-0.09640119606654766, ,0.019182543473246556,0.020104724906047613,-0.09728170031119775, ,0.0012947441800251831, ,0.017249996500287527,-0.0041711145406229415,-0.03127370875908529,-0.018593438178469066,-0.003444715003854723,-0.051365587980534845, ,0.035958384770718166, ,0.018909047813364402, ,0.000970389973905483, ,0.23791423165623446,-0.20212708751707809,0.10808206762000001,1.6771001679892257,0.5663582915277506,-1.281391689392068, ,0.10326108983511509,0.11060249598889368,0.03284291035051547,0.019778754151748613,0.09667564955867382,-0.08362463409515034, ,1.3431940078735352
0.018571280155847116,0.020567175773302214,-0.09674065825290246, ,0.01925317532089336,0.020087253887702997,-0.09740709170614241, ,0.001067445352225529, ,0.01791400910432011,-0.004611277989642476,-0.032680367001712535,-0.01634957340946839,0.004639821811432941,-0.03461164538820109, ,0.03755238999390114, ,0.01699409369918386, ,0.0009710932737483818, ,0.23897224606000322,-0.20098412305169286,0.10841391786000001,1.6773098579327104,0.5674513835258741,-1.2824463901019207, ,0.10734948140098505,0.1168681546286586,0.034181998969957085,0.0,0.1126604903412755,-0.09569271195172893, ,1.3474061489105225
0.018571280155847116,0.020567175773302214,-0.09674065825290246, ,0.019323771701326695,0.0200698204352855,-0.09753233497417203, ,0.0012001491112658092, ,0.01791400910432011,-0.004611277989642476,-0.032680367001712535,-0.01634957340946839,0.004639821811432941,-0.03461164538820109, ,0.03755238999390114, ,0.01699409369918386, ,0.0009727411574715288, ,0.23897224606000322,-0.20098412305169286,0.10841391786000001,1.6773098579327104,0.5674513835258741,-1.2824463901019207, ,0.10734948140098505,0.1168681546286586,0.034181998969957085,0.0,0.1126604903412755,-0.09569271195172893, ,1.3509631156921387
0.018571280155847116,0.020567175773302214,-0.09674065825290246, ,0.019394332150308634,0.02005242949737394,-0.09765742826542338, ,0.0013352324030020872, ,0.01791400910432011,-0.004611277989642476,-0.032680367001712535,-0.01634957340946839,0.004639821811432941,-0.03461164538820109, ,0.03755238999390114, ,0.01699409369918386, ,0.00097533038065389, ,0.23897224606000322,-0.20098412305169286,0.10841391786000001,1.6773098579327104,0.5674513835258741,-1.2824463901019207, ,0.10734948140098505,0.1168681546286586,0.034181998969957085,0.0,0.1126604903412755,-0.09569271195172893, ,1.354504108428955
0.01874602858281118,0.020520415012434196,-0.09706875469787082, ,0.019464856213183664,0.020035085987061992,-0.09778236973776665, ,0.0011231668844037261, ,0.0175799897954597,-0.004427753281805079,-0.03352806198462582,0.0030268878056262,0.026751317182320704,0.04990439280630085, ,0.038115508402458885, ,0.026921230513452382, ,0.0009763788664960874, ,0.24005342866239465,-0.19981026765481075,0.10877169390000001,1.676680788102257,0.5688177485235285,-1.2838056053593065, ,0.10451205017452729,0.1111205404665934,0.03531887254988914,-0.05192847635673757,0.1504174702419563,-0.1313637925453133, ,1.3580610752105713
0.01874602858281118,0.020520415012434196,-0.09706875469787082, ,0.019535343444841178,0.02001779478204493,-0.09790715755680354, ,0.0012564093287159843, ,0.0175799897954597,-0.004427753281805079,-0.03352806198462582,0.0030268878056262,0.026751317182320704,0.04990439280630085, ,0.038115508402458885, ,0.026921230513452382, ,0.0009783509120046782, ,0.24005342866239465,-0.19981026765481075,0.10877169390000001,1.676680788102257,0.5688177485235285,-1.2838056053593065, ,0.10451205017452729,0.1111205404665934,0.03531887254988914,-0.05192847635673757,0.1504174702419563,-0.1313637925453133, ,1.3616960048675537
0.01874602858281118,0.020520415012434196,-0.09706875469787082, ,0.019605793409678003,0.020000560724707024,-0.09803178989586955, ,0.001391718660710604, ,0.0175799897954597,-0.004427753281805079,-0.03352806198462582,0.0030268878056262,0.026751317182320704,0.04990439280630085, ,0.038115508402458885, ,0.026921230513452382, ,0.0009812415955620624, ,0.24005342866239465,-0.19981026765481075,0.10877169390000001,1.676680788102257,0.5688177485235285,-1.2838056053593065, ,0.10451205017452729,0.1111205404665934,0.03531887254988914,-0.05192847635673757,0.1504174702419563,-0.1313637925453133, ,1.3653781414031982
0.01891712739728435,0.020478724735707443,-0.09739486570411902, ,0.01967620568156085,0.019983388622208383,-0.0981562649360328, ,0.0011837594761417536, ,0.017805986876379423,-0.00442621504991235,-0.03395787351096284,0.007015851125455945,0.008926311725713553,0.04652184075402028, ,0.03859769062646648, ,0.011351478026858472, ,0.0009826479697327547, ,0.24109599760041497,-0.19870591685379663,0.10912687736000001,1.6756323383848342,0.570184113521183,-1.285246499356833, ,0.10326108983511509,0.11099057492218804,0.03571482403587444,-0.0947501216235267,0.13140596293713966,-0.13755755728695793, ,1.3690361976623535
0.01891712739728435,0.020478724735707443,-0.09739486570411902, ,0.019746579843789056,0.019966283246572087,-0.09828058086609477, ,0.0013172239706874562, ,0.017805986876379423,-0.00442621504991235,-0.03395787351096284,0.007015851125455945,0.008926311725713553,0.04652184075402028, ,0.03859769062646648, ,0.011351478026858472, ,0.0009849553904289939, ,0.24109599760041497,-0.19870591685379663,0.10912687736000001,1.6756323383848342,0.570184113521183,-1.285246499356833, ,0.10326108983511509,0.11099057492218804,0.03571482403587444,-0.0947501216235267,0.13140596293713966,-0.13755755728695793, ,1.3726441860198975
0.01891712739728435,0.020478724735707443,-0.09739486570411902, ,0.019816915489056786,0.019949249334771334,-0.09840473588259048, ,0.0014525152624526546, ,0.017805986876379423,-0.00442621504991235,-0.03395787351096284,0.007015851125455945,0.008926311725713553,0.04652184075402028, ,0.03859769062646648, ,0.011351478026858472, ,0.0009881578553058684, ,0.24109599760041497,-0.19870591685379663,0.10912687736000001,1.6756323383848342,0.570184113521183,-1.285246499356833, ,0.10326108983511509,0.11099057492218804,0.03571482403587444,-0.0947501216235267,0.13140596293713966,-0.13755755728695793, ,1.3762550354003906
0.019109130427120247,0.020439851318168202,-0.09775299718913834, ,0.019887212219415806,0.019932291588816046,-0.0985287281897881, ,0.0012102837434795944, ,0.018942270904482743,-0.0037074582076236026,-0.035228143282125354,-0.027402626158814603,-0.04174119647770811,-0.009485944067181682, ,0.04016935339890403, ,0.04993172486171209, ,0.0009896689157696352, ,0.24218490293568062,-0.19757839785415984,0.10950409775000002,1.6754226484413495,0.571140569019541,-1.286189782162989, ,0.10544104617607865,0.1087021094598749,0.037043747720930234,-0.03176553291307342,0.06994059479909114,-0.08667516591456412, ,1.379885196685791
0.019109130427120247,0.020439851318168202,-0.09775299718913834, ,0.019957469646238114,0.019915414675840883,-0.09865255599969086, ,0.0013431006202633267, ,0.018942270904482743,-0.0037074582076236026,-0.035228143282125354,-0.027402626158814603,-0.04174119647770811,-0.009485944067181682, ,0.04016935339890403, ,0.04993172486171209, ,0.000992056967827025, ,0.24218490293568062,-0.19757839785415984,0.10950409775000002,1.6754226484413495,0.571140569019541,-1.286189782162989, ,0.10544104617607865,0.1087021094598749,0.037043747720930234,-0.03176553291307342,0.06994059479909114,-0.08667516591456412, ,1.3835041522979736
0.019293839746091192,0.020405011274519918,-0.09810335287588075, ,0.020027687390177948,0.0198986232281909,-0.09877621753203482, ,0.001477719394837685, ,0.019741360949508544,-0.0034268821665300346,-0.03811266527816949,0.0010867796904973834,-0.003616815916083563,-0.02974459532019342, ,0.042698107721629554, ,0.0037659037030354538, ,0.0009953164472029355, ,0.24321202640795248,-0.19650493798464264,0.10987354040000001,1.6754226484413495,0.5720970245178991,-1.287133064969145, ,0.10820631876678537,0.1121713257192326,0.04022427151515152,-0.012416546027018908,0.10743581038098252,-0.1134249617065686, ,1.3877811431884766
0.019293839746091192,0.020405011274519918,-0.09810335287588075, ,0.020097865081134824,0.019881921843509915,-0.09889971101429067, ,0.0012467018796962267, ,0.019741360949508544,-0.0034268821665300346,-0.03811266527816949,0.0010867796904973834,-0.003616815916083563,-0.02974459532019342, ,0.043058566024983334, ,0.0037659037030354538, ,0.000996992350086224, ,0.24321202640795248,-0.19650493798464264,0.10987354040000001,1.6754226484413495,0.5720970245178991,-1.287133064969145, ,0.10820631876678537,0.1121713257192326,0.04022427151515152,-0.012416546027018908,0.10743581038098252,-0.1134249617065686, ,1.3916490077972412
0.019293839746091192,0.020405011274519918,-0.09810335287588075, ,0.020168002358215992,0.01986531508482697,-0.09902303468166379, ,0.0013788570895833618, ,0.019741360949508544,-0.0034268821665300346,-0.03811266527816949,0.0010867796904973834,-0.003616815916083563,-0.02974459532019342, ,0.043058566024983334, ,0.0037659037030354538, ,0.0009995212556458077, ,0.24321202640795248,-0.19650493798464264,0.10987354040000001,1.6754226484413495,0.5720970245178991,-1.287133064969145, ,0.10820631876678537,0.1121713257192326,0.04022427151515152,-0.012416546027018908,0.10743581038098252,-0.1134249617065686, ,1.3955891132354736
0.019293839746091192,0.020405011274519918,-0.09810335287588075, ,0.0202380988696986,0.019848807480642938,-0.09914618677709358, ,0.0015127757594428047, ,0.019741360949508544,-0.0034268821665300346,-0.03811266527816949,0.0010867796904973834,-0.003616815916083563,-0.02974459532019342, ,0.043058566024983334, ,0.0037659037030354538, ,0.001002897930012893, ,0.24321202640795248,-0.19650493798464264,0.10987354040000001,1.6754226484413495,0.5720970245178991,-1.287133064969145, ,0.10820631876678537,0.1121713257192326,0.04022427151515152,-0.012416546027018908,0.10743581038098252,-0.1134249617065686, ,1.3995661735534668
0.01955829196844673,0.020355835902386633,-0.09860237781664224, ,0.02030815427299261,0.019832403525018607,-0.09926916555125473, ,0.0011317600507553041, ,0.017954868421461205,-0.003990120018959315,-0.03233607196058942,0.00534609441710605,0.003904240312838504,0.03519618260903504, ,0.03720107401188979, ,0.0066172852530102435, ,0.0010037401660961769, ,0.24471023658555205,-0.19502989600566578,0.11040242672000002,1.6745838886674116,0.5738732990148498,-1.289071570158042, ,0.10532401948775891,0.10203972210588257,0.034329335172413794,-0.07788356979359037,0.12490554852333766,-0.1230875053961534, ,1.4031610488891602
0.01955829196844673,0.020355835902386633,-0.09860237781664224, ,0.020378168234603176,0.019816107677660896,-0.09939196926255701, ,0.0012597453313404287, ,0.017954868421461205,-0.003990120018959315,-0.03233607196058942,0.00534609441710605,0.003904240312838504,0.03519618260903504, ,0.03720107401188979, ,0.0066172852530102435, ,0.0010054025372990617, ,0.24471023658555205,-0.19502989600566578,0.11040242672000002,1.6745838886674116,0.5738732990148498,-1.289071570158042, ,0.10532401948775891,0.10203972210588257,0.034329335172413794,-0.07788356979359037,0.12490554852333766,-0.1230875053961534, ,1.4067280292510986
0.01955829196844673,0.020355835902386633,-0.09860237781664224, ,0.020448140430093128,0.0197999243640103,-0.09951459617714487, ,0.001390327393254009, ,0.017954868421461205,-0.003990120018959315,-0.03233607196058942,0.00534609441710605,0.003904240312838504,0.03519618260903504, ,0.03720107401188979, ,0.0066172852530102435, ,0.001007885923466513, ,0.24471023658555205,-0.19502989600566578,0.11040242672000002,1.6745838886674116,0.5738732990148498,-1.289071570158042, ,0.10532401948775891,0.10203972210588257,0.034329335172413794,-0.07788356979359037,0.12490554852333766,-0.1230875053961534, ,1.4103271961212158
0.019745086384039164,0.020310022696345693,-0.09892565360439468, ,0.020518070544045513,0.019783857975327546,-0.09963704456889869, ,0.0011749174139669444, ,0.018718137551962447,-0.005127901700170027,-0.03153934705914575,-0.03242836569149069,-0.04080785648432379,0.029310216942914583, ,0.03703234346052163, ,0.0521234001619429, ,0.0010089566381492078, ,0.24580686465369192,-0.19394871340327433,0.11074464728000001,1.6739548188369582,0.5748297545132081,-1.289851495483917, ,0.11073155374383986,0.11099057492218804,0.033323873472803356,-0.0729642668690037,0.08413584534031443,-0.09343930008098972, ,1.413905143737793
0.019745086384039164,0.020310022696345693,-0.09892565360439468, ,0.02058795827002612,0.019767912868781237,-0.09975931271943356, ,0.0013035733970193563, ,0.018718137551962447,-0.005127901700170027,-0.03153934705914575,-0.03242836569149069,-0.04080785648432379,0.029310216942914583, ,0.03703234346052163, ,0.0521234001619429, ,0.0010108331780146228, ,0.24580686465369192,-0.19394871340327433,0.11074464728000001,1.6739548188369582,0.5748297545132081,-1.289851495483917, ,0.11073155374383986,0.11099057492218804,0.033323873472803356,-0.0729642668690037,0.08413584534031443,-0.09343930008098972, ,1.4174962043762207
0.01993800172201859,0.02026247990182924,-0.09926058517565939, ,0.020657803310546105,0.019752093367534418,-0.09988139891810138, ,0.0010788968644133909, ,0.018718137551962447,-0.005127901700170027,-0.03153934705914575,-0.03242836569149069,-0.04080785648432379,0.029310216942914583, ,0.03703234346052163, ,0.0521234001619429, ,0.0010112639608399316, ,0.2469343836533287,-0.19281347167076332,0.11109983074000002,1.6737451288934733,0.5759228465113315,-1.2910695536740506, ,0.10882676784228298,0.10698640536467957,0.03555538285714287,-0.02344503294452332,0.12549159156128306,-0.10968317457183088, ,1.4214890003204346
0.01993800172201859,0.02026247990182924,-0.09926058517565939, ,0.020727605377024276,0.01973640376083184,-0.10000330146198953, ,0.0012049305042636659, ,0.018778284918724637,-0.004141521956857088,-0.03341726673715053,0.0007937018411222826,0.01136262921894805,-0.013730663578998156, ,0.03855502437802105, ,0.011388486835103162, ,0.0010124819894149237, ,0.2469343836533287,-0.19281347167076332,0.11109983074000002,1.6737451288934733,0.5759228465113315,-1.2910695536740506, ,0.10882676784228298,0.10698640536467957,0.03555538285714287,-0.02344503294452332,0.12549159156128306,-0.10968317457183088, ,1.4252681732177734
0.01993800172201859,0.02026247990182924,-0.09926058517565939, ,0.020797364189749905,0.01972084830408684,-0.100125018655921, ,0.0013338342777179742, ,0.018778284918724637,-0.004141521956857088,-0.03341726673715053,0.0007937018411222826,0.01136262921894805,-0.013730663578998156, ,0.03855502437802105, ,0.011388486835103162, ,0.0010144904412168177, ,0.2469343836533287,-0.19281347167076332,0.11109983074000002,1.6737451288934733,0.5759228465113315,-1.2910695536740506, ,0.10882676784228298,0.10698640536467957,0.03555538285714287,-0.02344503294452332,0.12549159156128306,-0.10968317457183088, ,1.4289731979370117
0.020114473643298766,0.020226543087241807,-0.09957132333555103, ,0.02086707947784498,0.019705431218968696,-0.10024654881245615, ,0.0011374983807064664, ,0.01851077678358816,-0.004114260786167502,-0.03145378651339167,0.036041021839523214,0.03216046914099623,-0.025029556178852833, ,0.03672760113291421, ,0.048303418551870723, ,0.0010152544656856974, ,0.24798467532422322,-0.19183268459573682,0.11143297727000001,1.6737451288934733,0.5774258480087513,-1.2922951506147111, ,0.11190677070574384,0.10292509930419824,0.03374748203389831,-0.01634293607818078,0.14793268343642593,-0.1398035147577865, ,1.4328529834747314
0.020114473643298766,0.020226543087241807,-0.09957132333555103, ,0.02093675097922685,0.019690156693489193,-0.100367890251891, ,0.0012642662823912037, ,0.01851077678358816,-0.004114260786167502,-0.03145378651339167,0.036041021839523214,0.03216046914099623,-0.025029556178852833, ,0.03672760113291421, ,0.048303418551870723, ,0.001016791575665361, ,0.24798467532422322,-0.19183268459573682,0.11143297727000001,1.6737451288934733,0.5774258480087513,-1.2922951506147111, ,0.11190677070574384,0.10292509930419824,0.03374748203389831,-0.01634293607818078,0.14793268343642593,-0.1398035147577865, ,1.436479091644287
0.020114473643298766,0.020226543087241807,-0.09957132333555103, ,0.021006378440570943,0.019675028882090374,-0.10048904130225864, ,0.0013935093657018872, ,0.01851077678358816,-0.004114260786167502,-0.03145378651339167,0.036041021839523214,0.03216046914099623,-0.025029556178852833, ,0.03672760113291421, ,0.048303418551870723, ,0.0010191027277514748, ,0.24798467532422322,-0.19183268459573682,0.11143297727000001,1.6737451288934733,0.5774258480087513,-1.2922951506147111, ,0.11190677070574384,0.10292509930419824,0.03374748203389831,-0.01634293607818078,0.14793268343642593,-0.1398035147577865, ,1.4401311874389648
