NicholasDascanio/dvrk_moveit_final/test/execution/third_experiment_notsharpbends/thirdexp_300vel4.0/thirdexp_300vel4.0_17.csv
Current Position (x),Current Position (y),Current Position (z), ,Planned Position (x),Planned Position (y),Planned Position (z), ,Position Error,,Cartesian linear Velocity(x),Cartesian linear Velocity(y),Cartesian linear Velocity(z),Cartesian Angular Velocity(x),Cartesian Angular Velocity(y),Cartesian Angular Velocity(z), ,Total Linear Velocity, ,Total Angular Velocity, ,MSE, ,Joint 1 Position,Joint 2 Position,Joint 3 Position,Joint 4 Position,Joint 5 Position,Joint 6 Position, ,Joint 1 Velocity,Joint 2 Velocity,Joint 3 Velocity,Joint 4 Velocity,Joint 5 Velocity,Joint 6 Velocity, ,Time Stamp
0.009280868376232192,0.02046418640272587,-0.0787272780623647, ,0.009477317577507851,0.020420831851794777,-0.07889274801481655, ,0.000260484569471399, ,0.00014482511263105727,0.00013231831935288802,-0.0007176902488775133,0.19944649212234472,0.004169119140493121,-0.07195568773735815, ,0.0007440173010211781, ,0.1994900618434812, ,2.1707047455949913e-05, ,0.1732054529031073,-0.24672586986572465,0.08941549162000001,1.686326525502545,0.5117036916215745,-1.2295551200409895, ,0.0002476135530387811,0.0005473873358431512,0.0007407187915349699,-0.0012267134334619592,0.0,-0.2131487676840913, ,0.036514997482299805
0.009340508466107489,0.020486971570167975,-0.07884118499750045, ,0.009547927517123203,0.02044171627956267,-0.07907057385715573, ,0.00031255392012575594, ,0.0010826889557949972,0.0007798158865245828,-0.003746928160341496,0.21499997369554602,-0.01343397064274978,-0.07401324858165192, ,0.00397741107136749, ,0.21541926621260502, ,2.604720407259795e-05, ,0.17330584843047223,-0.2466872562013535,0.08952178740000001,1.6861168355590603,0.5077412331283767,-1.2372689520126288, ,0.004106487314567448,0.0016599361200710242,0.003876566444390363,-0.008838928266875412,-0.012572507624426993,-0.23284878260608366, ,0.07517600059509277
0.009402864965821761,0.020515352413127068,-0.07899174511777159, ,0.009618885478604936,0.020461853572586307,-0.07924828895025324, ,0.0003396199727146282, ,0.0013924281409297009,0.0005751166572428982,-0.003434610767873506,-0.1277373467754071,-0.039958900449547544,0.024532847058329404, ,0.0037504888246579038, ,0.1338414864153843, ,2.852057694724322e-05, ,0.17346802582083093,-0.24659458340686283,0.08966956446,1.6859071456155759,0.5048718666333024,-1.2395031854828753, ,0.006279041482127026,0.004054270007405603,0.003472598979725311,0.010129741188398567,-0.034738012826978346,0.13059073740758415, ,0.11083102226257324
0.009442176529959207,0.020538923536734373,-0.07913896526764701, ,0.009690185860590929,0.020481252807094,-0.07942588857277946, ,0.00038361376952056846, ,0.0011671403971963837,0.0010625311767402234,-0.00509744851984313,0.030875389248756747,0.05168679722589332,-0.0028693101555134874, ,0.005336213134870422, ,0.06020643375330602, ,3.086362456743694e-05, ,0.17377693513579992,-0.24641696055075565,0.08982511926,1.6859071456155759,0.5062382316309569,-1.2362883912923897, ,0.00951260833337614,0.0044876812200909996,0.005519338711018712,0.00782687458627835,0.07570726382358517,-0.04316268490898275, ,0.1470780372619629
0.00951552845916192,0.020569534782406418,-0.07934919288114856, ,0.009761823096557324,0.020499923016463386,-0.07960336803221434, ,0.0003607102074889936, ,0.0017877514567473459,0.0006422112349710445,-0.004731372470755596,0.015848778285244603,-0.002529085997637392,-0.012737548493928169, ,0.005098468005043202, ,0.016049300506478896, ,3.1865046910025866e-05, ,0.17424802184112761,-0.24612349670153513,0.09004678485,1.6859071456155759,0.5065115046304878,-1.2373280145011882, ,0.012574031037714139,0.007395337842632908,0.004956070790292471,0.0062015308026646685,0.008364962003264823,-0.022834116307476456, ,0.18501901626586914
0.009590072020271177,0.020587207161968553,-0.0795268103991973, ,0.00983379165473679,0.020517873191302397,-0.07978072266478864, ,0.0003587170170623533, ,0.001748841361738533,0.00027627060703602866,-0.0039517030974983445,-0.004654278289959984,-0.0077562634115354795,-0.0065639034513205715, ,0.0043302111874154075, ,0.009045547387851214, ,3.304425338333932e-05, ,0.1747808904094491,-0.24578369645506926,0.09023085803000001,1.6859071456155759,0.5065115046304878,-1.2374096932413288, ,0.013345090923705635,0.009266445353716634,0.0040948101593830345,0.005150378667715534,0.004425011057273022,-0.0034920580687098487, ,0.2241220474243164
0.009641773850652091,0.02059923781999151,-0.07965766814702298, ,0.00990608603803684,0.02053511227953161,-0.07995794783542715, ,0.00040514307177525464, ,0.001985335580199205,0.0004867942685865744,-0.004879609500398613,-0.00889963439542706,-0.01218705234804748,-0.005755847072994847, ,0.005290473977094496, ,0.015090650567150905, ,3.458346468798504e-05, ,0.1751593043202861,-0.24552112353734562,0.09036696848,1.6859071456155759,0.5067847776300186,-1.2376325290487218, ,0.013811227122467002,0.009497289655706318,0.005053556954314722,0.0045732812887054235,0.0005400763787814028,0.0003814038256103377, ,0.2560279369354248
0.009703660552765489,0.020621890388021445,-0.07982759921500535, ,0.009978700783958025,0.02055164918646587,-0.0801350389376906, ,0.00041844968425749744, ,0.0022442065384649518,0.0009033358546882942,-0.0064041525998405225,-0.006608281276226049,-0.010249100838434931,-0.005370323436347664, ,0.006845849047101346, ,0.01219481195631279, ,3.5940407752106966e-05, ,0.17557633189549424,-0.2452662733524962,0.09054456021000001,1.6859071456155759,0.5070580506295495,-1.2378553648561144, ,0.013821284817720766,0.009116467308986935,0.0066647746945606694,0.004111688354935563,0.002637319163500069,-0.0015762299020339143, ,0.2884490489959717
0.009791547123807164,0.020656753868073852,-0.08006734074827587, ,0.01005163046451214,0.020567492774896296,-0.08031199139371703, ,0.0003680554648178561, ,0.0020756506802033737,0.0006027456485812597,-0.004985676383551975,-0.0033408308956235956,-0.008692208502264435,-0.004890615185452747, ,0.005434022181093879, ,0.009312123100533887, ,3.644713269584439e-05, ,0.17617098232680953,-0.24494191857177877,0.09079604047,1.6859071456155759,0.5074679601288459,-1.2381896185672039, ,0.015048674525605897,0.008403970573932306,0.005217429256469047,0.0036211785268247133,0.005596090096795371,-0.00416375053205548, ,0.32094693183898926
0.009858044906934975,0.020676671820235786,-0.0802184991963854, ,0.01012486968614061,0.020582651865171876,-0.08048880065416557, ,0.0003912775138267415, ,0.0021886404983962778,0.000700017623757061,-0.005180341714726209,0.005113182341849398,-0.0012840928325666958,-0.004709128413842713, ,0.005667107920811397, ,0.005271956404688389, ,3.7099228773825233e-05, ,0.17668068269650833,-0.24471023658555205,0.09095548414000001,1.6859071456155759,0.5077412331283767,-1.2384124543745967, ,0.01687056738817258,0.007922514873738544,0.005481352897453545,0.0033231342517271935,0.015083023929869517,-0.011976079891357908, ,0.35378503799438477
0.00993146599097733,0.020699039237253643,-0.08038967811667769, ,0.010198413089632517,0.020597135235281644,-0.08066546219815778, ,0.0003971171599114632, ,0.0024093654800634162,0.0007437094734464707,-0.00560696192536378,0.000260174724503134,-0.007411744993726987,-0.004532927660457781, ,0.006147858800419407, ,0.007416309675146449, ,3.8054689056881064e-05, ,0.17722899673057826,-0.2444476636678284,0.09113566845000001,1.6859071456155759,0.5080145061279076,-1.2386352901819895, ,0.018068724592245004,0.008630002703684412,0.005910505202226346,0.003071876432627558,0.01011678362971926,-0.007978666378912229, ,0.38771605491638184
0.00999373045814283,0.020711909534318094,-0.08051887300694785, ,0.01027225535004304,0.02061095162093605,-0.08084197153322027, ,0.00043836203458088273, ,0.0022849446033999777,0.00026903787391718614,-0.004031446509431125,-0.0038459602267606596,-0.01275132962947853,-0.004454302012695388, ,0.004641757660263293, ,0.013318701750566854, ,3.9239861819056584e-05, ,0.17773097436740287,-0.24420053621585322,0.0912717789,1.6859071456155759,0.5082877791274385,-1.2388581259893825, ,0.019550255780484298,0.009490087167710694,0.00424655065849107,0.0028816893733748746,0.006228633559004059,-0.004841890347912271, ,0.4162571430206299
0.010077251362747628,0.020731564329124118,-0.08070769116494719, ,0.010346391176611605,0.020624109715649114,-0.08101832419522703, ,0.0004248242140752269, ,0.002643354597372142,0.0009090865038204061,-0.007045497328127714,0.002399947454788261,-0.0024604789084149443,-0.004669448099908025, ,0.007579762159826098, ,0.0034371044331177373, ,4.0156434707674554e-05, ,0.1783719611959635,-0.24385301323651312,0.09147011127000002,1.6859071456155759,0.5086976886267348,-1.2391923797004716, ,0.018110103350853203,0.010876662468252455,0.0073881315027829325,0.0026716312113821213,0.015307159456319738,-0.012277405806660905, ,0.4456031322479248
0.010157020115767499,0.020754489089086423,-0.08091570977327779, ,0.010420815312680026,0.020636618170819982,-0.08119451574834118, ,0.00040151492004424603, ,0.002568184198562669,0.00059372654706445,-0.006439307808944881,0.0021978727262025833,-0.0011158727010076263,-0.004890006889910238, ,0.006957928308683165, ,0.00246491487362299, ,4.0778631935448585e-05, ,0.1789357206957819,-0.24349004479142455,0.09168788799000001,1.6859071456155759,0.5092442346257966,-1.2396380513152572, ,0.018614543263725143,0.012717360165970353,0.006726694054054055,0.002506373588713425,0.017233074546058547,-0.01387056527723746, ,0.4764289855957031
0.010232401819814356,0.02076387158758073,-0.08107903231436289, ,0.010495522535610806,0.02064848559581516,-0.0813705417849585, ,0.00040929721428797396, ,0.002312401130393037,0.00019423408930295218,-0.005119972591056358,-0.007868876283841444,-0.011158596256733997,-0.004774119655964099, ,0.00562130280295046, ,0.013654064628265726, ,4.1384968861028036e-05, ,0.17951492566134872,-0.24310390814771335,0.09185770198000001,1.6859071456155759,0.5095175076253274,-1.2397792083825094, ,0.0172039415443203,0.013310619784081096,0.005281436180371354,0.0023591156313792663,0.005583091351606137,-0.00469842514869473, ,0.5056109428405762
0.010283396754896621,0.020771327560322732,-0.08120493192732701, ,0.010570507656705405,0.020659720558049696,-0.08154639792564773, ,0.0004598780500339089, ,0.002413882913217917,0.0005849624960914793,-0.006172716588975262,-0.0010605145025623225,-0.004358880983191681,-0.004536579884318653, ,0.006653678826661938, ,0.004486036722348013, ,4.2566797111074655e-05, ,0.17989333957218573,-0.2428104442984928,0.09198862727000001,1.6859071456155759,0.5099274171246237,-1.2401134620935987, ,0.01668957818474688,0.011851747415820004,0.006430686927735164,0.002262101014712735,0.012017222234034433,-0.009938072518893512, ,0.5312399864196777
0.01036936564313074,0.020792585980418346,-0.0814243674036299, ,0.010645765521122313,0.020670331583069534,-0.08172207981909502, ,0.0004242354447084186, ,0.002910917665532524,0.0007926516407365301,-0.007386908809994879,-0.005234511026134679,-0.010818301354781281,-0.004564144177204351, ,0.007979233048749208, ,0.01201814161553726, ,4.340300813710708e-05, ,0.18047254453775258,-0.2424011394561589,0.09221677431000001,1.6859071456155759,0.5102006901241547,-1.2403362979009915, ,0.019554284269208896,0.012969378373441406,0.0076987972547124224,0.0021421650787386793,0.008381922008525035,-0.006965158335030784, ,0.5557751655578613
0.01042936268975313,0.020809780816619158,-0.08158638531715187, ,0.010721291007795404,0.020680327154632878,-0.08189758314204507, ,0.00044589738695680216, ,0.002789093518374121,0.0006765925282801163,-0.007074081988768461,0.015375803570328205,0.012400046882717815,-0.005058514023264213, ,0.007634098249785586, ,0.01975288536927045, ,4.430222541556944e-05, ,0.1808895721129607,-0.2421153983398126,0.0923865883,1.6859071456155759,0.5107472361232164,-1.2407819695157773, ,0.02113047017556686,0.013565312377456678,0.007457308764044945,0.002068042786986275,0.03368382052910509,-0.027591891134939827, ,0.5813391208648682
0.010515938890024642,0.020826938176669762,-0.0817918848839617, ,0.01079707902935206,0.020689715714792264,-0.08207290359924332, ,0.0004205250293660218, ,0.0029014501370672875,0.0003432879375146709,-0.005977371245162169,-0.008820921216408428,-0.016546055906486418,-0.0026508210105911562, ,0.0066532117438439006, ,0.018750482914746246, ,4.497137360621814e-05, ,0.18149966801002443,-0.24169064803173027,0.09260047615000001,1.6861168355590603,0.5110205091227473,-1.2409231265830296, ,0.022094747743532196,0.01390431378146092,0.0062221920000000005,0.0,0.005656833699249218,-0.004730648983708787, ,0.6062941551208496
0.010570365650400418,0.020830266616397978,-0.08190827301663375, ,0.010873124532031295,0.020698505663976217,-0.08224803692337884, ,0.0004737756867085465, ,0.0027670731312267874,0.00025700531671586733,-0.006350307349737177,0.01895637534202746,0.017561191210692148,-0.0030203284929969944, ,0.00693174933782977, ,0.0258406577416158, ,4.589565309147988e-05, ,0.18194758651672946,-0.2413894614496355,0.09272232741000001,1.6859071456155759,0.5115670551218091,-1.2413687981978154, ,0.023044424856355213,0.016147173993273912,0.006689967039059219,-0.0007320735019093485,0.041580550224189744,-0.03401982169676472, ,0.6321589946746826
0.010635847418542586,0.02083815337136909,-0.08204799178585823, ,0.01094942249560214,0.020706705361071075,-0.08242297887502616, ,0.000506184971533973, ,0.0034001708561607145,0.0004297897479996235,-0.0071436238011134325,-0.015926520824086365,-0.024962836020569503,-0.002271037863638928, ,0.00792320907779194, ,0.02961076204940486, ,4.7192344400384904e-05, ,0.1824341186878056,-0.24106510666891806,0.09286751189,1.6859071456155759,0.5117036916215745,-1.2414802161015117, ,0.024790214618200305,0.016169184112876264,0.007408749544186048,-0.0007320735019093485,0.0,-0.00010961922007988389, ,0.6534521579742432
0.010737682992479748,0.020856780890601185,-0.08228637698004862, ,0.011025967933281746,0.02071432312350275,-0.08259772524258792, ,0.0004475937478184029, ,0.003518093220899292,0.0007664591110884465,-0.008411172804220213,0.013080898449793415,0.007191737025904734,-0.0029229691180867696, ,0.009149440825665892, ,0.01492752302304407, ,4.808603832112453e-05, ,0.1831986692423538,-0.2405708517649677,0.09311769586000002,1.6859071456155759,0.5125235106201671,-1.24214872352369, ,0.02654459903733448,0.01613893563919571,0.008869048730512249,-0.0007320735019093485,0.03457345197838656,-0.028296390261344097, ,0.6752440929412842
0.010795344297369315,0.020866774212223875,-0.082421111345878, ,0.011102755891653502,0.02072136722731848,-0.0827722718422372, ,0.0004888340963587415, ,0.003658484203001313,0.0006579156650251859,-0.008092138942232886,-0.016022158589121618,-0.025899557162003484,-0.0015437956498374772, ,0.008905058806448032, ,0.03045482871966076, ,4.9140342881292925e-05, ,0.1836002513518135,-0.24030055611436985,0.09325769518,1.6856974556720912,0.5126601471199326,-1.2422601414273866, ,0.025544264214931566,0.016122484124782666,0.00841458611727417,-0.0015012301632898876,0.0,-0.0001013832723750032, ,0.6968791484832764
0.010879089229150447,0.020881569732167506,-0.08262233197097288, ,0.01117978145058534,0.0207278459072687,-0.08294661451785938, ,0.00046819440042376317, ,0.003401400949527887,0.0006698370673842402,-0.008767490975439052,0.020414509172129367,0.0193710212904387,-0.002852240409710367, ,0.009427995975852787, ,0.028142291995642287, ,5.002479361157867e-05, ,0.1842257927146257,-0.2398758058062875,0.09346899045000001,1.6856974556720912,0.5134799661185252,-1.2429286488495652, ,0.025225130664133646,0.018110103350853203,0.009223399837869139,-0.0014437875769995967,0.045806414637688427,-0.03744951806951654, ,0.7179961204528809
0.010955093718139164,0.020895089436368308,-0.0827946435606109, ,0.011257039723147856,0.02073376735688863,-0.08312074914099495, ,0.0004728012825976344, ,0.003680187506162956,0.0006110090590962652,-0.008767290056028824,-0.003311330046969354,-0.008452054074079304,-0.0024449165386825197, ,0.009527984418404425, ,0.009077558755054508, ,5.087950906171809e-05, ,0.1847432158171987,-0.23952828282694738,0.09364787847000001,1.6856974556720912,0.5134799661185252,-1.2429286488495652, ,0.025773205203278318,0.01854542535830971,0.009133492844036696,-0.0014007436397255075,0.01799414061071771,-0.014767524111547914, ,0.7395360469818115
0.011025560521700738,0.020903286366907258,-0.08296149261684431, ,0.011334525855532549,0.02073913972858016,-0.08329467161078181, ,0.00048312724864687254, ,0.0031849889135601075,0.00036002839074849734,-0.007642206859900085,0.02940883171128018,0.029758355855417824,-0.004389575770914861, ,0.008287164805357117, ,0.041838249243639554, ,5.1734558072663104e-05, ,0.18528380711839443,-0.23914214618323618,0.09382287762000001,1.6854877657286067,0.5142997851171178,-1.2436788350118841, ,0.02596359550163359,0.018480417051308817,0.008085691126903554,-0.0001379686237746988,0.05682057840750827,-0.04633337171144352, ,0.7608730792999268
0.011101277334328724,0.020906485102115548,-0.08311154674725275, ,0.011412235026969933,0.02074397113369371,-0.08346837785389698, ,0.0005004337270947072, ,0.0036190775278137936,0.00012896923876593778,-0.007202701469136369,-0.00520788942778301,-0.01142483353940493,-0.0037353510702359005, ,0.008061839968045378, ,0.012555831884412231, ,5.286958594464147e-05, ,0.18585528935108706,-0.2387405640737765,0.09397843242000001,1.6854877657286067,0.5144364216168833,-1.2438719316557212, ,0.028192793095208196,0.019606806107122062,0.007502972925105982,-0.0001379686237746988,0.01712805453885197,-0.013688129086438346, ,0.7798831462860107
0.01113914620827763,0.020908049956512464,-0.08318685038500526, ,0.011490162449647812,0.020748269642609594,-0.08364186382449977, ,0.0005964724474250069, ,0.003873741150239724,0.00022854669796968567,-0.008248594402948485,-0.010671141019044124,-0.016033055160923116,-0.0039750027307448475, ,0.0091157782836446, ,0.019259596835238226, ,5.439309290657633e-05, ,0.1865348898440188,-0.2382385864369519,0.09418583882,1.6852780757851225,0.514982967615945,-1.2443992820106473, ,0.02777200513856329,0.022418365593780007,0.009730489627367138,-0.005436985540925002,0.017482241352190855,-0.01398735009225348, ,0.7988870143890381
0.011228508631607974,0.020916222721791257,-0.08340161489594881, ,0.011568303368629396,0.020752043284820425,-0.08381512550417355, ,0.0005598270929009343, ,0.004054588937052506,0.0005604664773659783,-0.009613220836310712,0.004885308498243958,0.0022228848613469127,-0.010028499700578933, ,0.010448340967273132, ,0.005367250145982392, ,5.568395222661244e-05, ,0.18679746276174244,-0.23803007264934783,0.09428046799,1.6850683858416375,0.5153928771152414,-1.2447335357217368, ,0.028976165361365123,0.02174042189197498,0.010043386834804543,0.005720816960378193,0.0304146220400548,-0.024536855295510574, ,0.8166680335998535
0.01131931073340774,0.020928468285073328,-0.08361452423079246, ,0.011646653061771366,0.020755300049012212,-0.08398815890186828, ,0.0005260637844871787, ,0.004520199327386837,0.0005362768616739941,-0.010558778227888862,-0.023118178724971846,-0.027984097333956306,-0.00991213437163336, ,0.011498156047706746, ,0.036298206015111, ,5.677011022377962e-05, ,0.18739983592593196,-0.23755898594402014,0.09450083729000001,1.6850683858416375,0.5155295136150068,-1.2448449536254331, ,0.029325383670726447,0.02433878983289838,0.010887772740943269,0.005720816960378193,0.0,0.00025606754703801294, ,0.834758996963501
0.011402025328026229,0.020936945503626136,-0.08381324273565113, ,0.011725206839642384,0.0207580478831465,-0.08416096005384287, ,0.0005073046239038538, ,0.004235875074638554,0.00023362654396147495,-0.009991281132559437,0.019856905680527316,0.021612343536024106,-0.011603141853125932, ,0.010854626556442454, ,0.0293494462768834, ,5.772914057907986e-05, ,0.18802537728874413,-0.23708017650581822,0.09470953998000001,1.6850683858416375,0.5166226056131303,-1.2457362968550045, ,0.03208145421178863,0.026477941283055466,0.010451976062992127,0.005720816960378193,0.053321674389284396,-0.043684901496269704, ,0.8526430130004883
0.011444734963547403,0.020941006938116607,-0.08391292397928157, ,0.011803960045440863,0.020760294694542065,-0.08433352502360726, ,0.0005818975965983772, ,0.004313424617353662,0.0004876489000419492,-0.010082641942587548,-0.008840706814223996,-0.011033325605462867,-0.009785852380834157, ,0.010977390487804025, ,0.01413832616296103, ,5.921007321318137e-05, ,0.1883265638708389,-0.23684077178671725,0.09481324318,1.6850683858416375,0.5168958786126612,-1.2460408114025379, ,0.029118423307293886,0.023477719336583564,0.01042461486910995,0.005720816960378193,0.017320134341472535,-0.012773975756395693, ,0.8669769763946533
0.01153893111867759,0.02094940005265414,-0.08412424249319607, ,0.011882908054913436,0.02076204834995654,-0.08450584990186544, ,0.000546850077733595, ,0.004955711411528093,0.0005798114468395289,-0.011534677484228267,-0.012247564262410329,-0.020852508155353666,-0.002042648352669552, ,0.012567578986161116, ,0.024183252935540786, ,6.049642086828872e-05, ,0.18897527343227374,-0.23632334868414423,0.09503231619000001,1.6852780757851225,0.5171691516121921,-1.2465086834303527, ,0.03312284173070533,0.02593521223243257,0.01195856720720721,-0.004274834405905183,0.01346432615198556,-0.013877756054320378, ,0.8813819885253906
0.011586735984940238,0.02095381923973703,-0.0842490229775502, ,0.01196204627627298,0.02076331667566827,-0.08467793080645622, ,0.0006009250929973856, ,0.004628335304916825,0.0005512618781813099,-0.01204766660605254,0.06123188127888651,0.05555510261861144,0.0021052177914976655, ,0.012917880940915543, ,0.08267836753409327, ,6.196147968267333e-05, ,0.1893305191444881,-0.2360376075677979,0.09516324148000001,1.6848586958981533,0.5179889706107847,-1.2471771908525309, ,0.03579665845283696,0.027690966314114614,0.012743049216000004,-0.01377673805258209,0.09608578200590062,-0.08954036212891098, ,0.8955249786376953
0.01169226826460379,0.0209666538828803,-0.08450022402250465, ,0.012041370150116793,0.020764107457558148,-0.08484976388229787, ,0.0005339244276709747, ,0.005324429968135176,0.0004724275991158581,-0.012334107752049973,-0.024088449701425662,-0.0222424011502592,0.010620068104586258, ,0.01344257997414044, ,0.03278684999342701, ,6.31103893571323e-05, ,0.19005645603466517,-0.23548157080085375,0.09542509206000001,1.6846490059546686,0.5186721531096119,-1.2478159591111537, ,0.035702385838401345,0.02866977086358634,0.0127737061106656,-0.014332201456321495,0.017273777567867087,-0.005863062758570293, ,0.9104690551757812
0.011745120768858522,0.0209719459724217,-0.08462020202902112, ,0.012120875149344894,0.02076442844119093,-0.08502134530132871, ,0.0005875123872229842, ,0.005482850091598911,0.0003850649854395392,-0.011643314586443772,-0.03579995943326393,-0.04082625027323287,0.010578214379752293, ,0.012875429885205856, ,0.05429935167947289, ,6.443477998873093e-05, ,0.19041170174687952,-0.23520355241738167,0.09554953590000001,1.6846490059546686,0.5188087896093774,-1.2479273770148502, ,0.03736100061357117,0.02764256963544153,0.012039918004535148,-0.014332201456321495,0.0,0.006384202703796149, ,0.9246921539306641
0.011797409268977469,0.020975254106621852,-0.08473417845072369, ,0.012200556779077942,0.020764287331897578,-0.08519267126244953, ,0.0006459493427057917, ,0.005375842049910671,7.919943852584976e-05,-0.01143543649133563,-0.014017673586008274,-0.01880828714215059,0.007740136499664332, ,0.012636263610894684, ,0.023457336644060845, ,6.620292453068248e-05, ,0.19079783839059072,-0.23491781130103537,0.09566879458000001,1.6846490059546686,0.5192186991086737,-1.2484249882062204, ,0.03865455867962149,0.030582320837405984,0.011851794285714288,-0.014332201456321495,0.023625983131282877,-0.018088408452872136, ,0.9353270530700684
0.011849113602343602,0.020978247839440654,-0.08485461333288895, ,0.012280410576575635,0.020763691794856508,-0.08536373799146688, ,0.000700898918690415, ,0.005370191420815721,0.0003819014324115789,-0.012660451720197157,0.04341388301294354,0.04468920396033796,0.005717038210692879, ,0.013757610343359922, ,0.06230481412859473, ,6.814226872025147e-05, ,0.1911994205000504,-0.23460890198606638,0.09579583100000001,1.6846490059546686,0.5200385181072663,-1.2491751743685395, ,0.041989797149765834,0.03098169819081645,0.013385555899159665,-0.014332201456321495,0.09163481048120448,-0.07455552220849741, ,0.94606614112854
0.011909755912649228,0.020983055216298806,-0.08499409073491682, ,0.012360432111154805,0.020762649455175818,-0.08553454174103495, ,0.0007374110288365248, ,0.006179384890602647,0.000560829504473323,-0.014277745304255263,0.007621725024346165,0.002509512377908087,0.006004034924573787, ,0.015567701767842269, ,0.008024197865774397, ,7.017655964649486e-05, ,0.19164733900675543,-0.2342691017396005,0.09594231177000001,1.6846490059546686,0.5207217006060936,-1.2497322638870216, ,0.043751471442356284,0.033053619490933744,0.014928595613870667,-0.014332201456321495,0.05046558601692879,-0.04170838889484717, ,0.957211971282959
0.011974258724659702,0.020991012210540595,-0.08514339075568268, ,0.012440616984107478,0.020761167897974216,-0.08570507879059741, ,0.0007653834873712912, ,0.006985182718760875,0.001039467752862046,-0.016567336553001164,-0.03079918065217848,-0.03069222008147552,0.005653130537586266, ,0.01800971713503919, ,0.04348103786979745, ,7.22703476028413e-05, ,0.19207981204771202,-0.2339524696917573,0.09609786657000001,1.6844393160111841,0.5209949736056244,-1.250036778434555, ,0.04459442742409342,0.033867573718226546,0.01722033677837838,-0.009529935937709401,0.01660323731571292,-0.0032855447192354954, ,0.9679279327392578
0.012045791205486493,0.021002879672577995,-0.08531761782684061, ,0.012520960828619174,0.02075925466846373,-0.08587534544633059, ,0.0007721395022401663, ,0.007494908669501262,0.0014084478651823131,-0.018108865797739484,-0.02498945382314629,-0.03115382330638833,0.003909435445909202, ,0.019649132343023207, ,0.03993784623111213, ,7.434246872012355e-05, ,0.19253545328729124,-0.2336126694452914,0.09627934717000002,1.6842296260676997,0.5212682466051554,-1.2501779355018074, ,0.04695543867316713,0.03389176484231099,0.018872999431279625,-0.009367447355313831,0.01840062145809505,-0.009318972320616643, ,0.9787001609802246
0.012115037585578135,0.021015911136181845,-0.08549757502020876, ,0.012601459309686942,0.020756917272030825,-0.0860453380410851, ,0.0007769995124788979, ,0.006875110182867839,0.0009829903527588466,-0.017416455691353836,0.03799867909857168,0.04522985841516574,0.0007428210498202051, ,0.01875010237062938, ,0.05907315890477672, ,7.666955973878521e-05, ,0.19299881725974471,-0.2332574237330771,0.09646860551000001,1.6842296260676997,0.522088065603748,-1.2508464429239858, ,0.04841680691758713,0.03714166010116273,0.01835116534562212,-0.008768160688773443,0.09745992241022301,-0.07378653109819124, ,0.9858710765838623
0.012187879108715714,0.02102273215861327,-0.08566984410177239, ,0.012682108124037679,0.02075416317431815,-0.08621505293432866, ,0.0007833545110668591, ,0.007476014840435842,0.0006665759757427832,-0.01708070849466429,0.019784673045498382,0.021582587356216213,-0.004499589771821689, ,0.018657055611900588, ,0.029278659645263036, ,7.898579279609878e-05, ,0.1935316858280662,-0.23286356435649164,0.09665008611,1.684019936124215,0.523044521102106,-1.2516263682498607, ,0.05394936984563433,0.03990619914149318,0.01795807386696731,-0.0033968900232262773,0.07774221429190874,-0.05770806225559175, ,0.9929370880126953
0.012187879108715714,0.02102273215861327,-0.08566984410177239, ,0.012762903000046125,0.020750999801306694,-0.08638448651208842, ,0.0009566633285699137, ,0.007476014840435842,0.0006665759757427832,-0.01708070849466429,0.019784673045498382,0.021582587356216213,-0.004499589771821689, ,0.018657055611900588, ,0.029278659645263036, ,8.190072616463058e-05, ,0.1935316858280662,-0.23286356435649164,0.09665008611,1.684019936124215,0.523044521102106,-1.2516263682498607, ,0.05394936984563433,0.03990619914149318,0.01795807386696731,-0.0033968900232262773,0.07774221429190874,-0.05770806225559175, ,1.0001230239868164
0.012264533310012291,0.021029641645800318,-0.08584536573490605, ,0.012843839697653103,0.020747434539396883,-0.08655363518689309, ,0.0009575397424044973, ,0.008513374193437374,0.0008774248794547934,-0.019563642617750572,0.013065938890737035,0.011290174071884738,-0.005997356524297643, ,0.021353770792336378, ,0.017268002891242265, ,8.477658953446839e-05, ,0.19407227712926192,-0.23245425951415774,0.09683415929000001,1.684019936124215,0.5237277036009332,-1.2521017790282023, ,0.05949651508368074,0.04415865126034006,0.02052681896907217,-0.003178193077304534,0.07282485522881336,-0.05531585170177954, ,1.0076210498809814
0.012356786461113232,0.021040969952592643,-0.08605998918435444, ,0.012924914008283626,0.0207434747354909,-0.0867224953977151, ,0.0009220557449491528, ,0.009371458090714246,0.00138039153094509,-0.021464627238009674,0.018909324003621043,0.011664619901132123,-0.006998315536838554, ,0.023461882490359236, ,0.022217590674175287, ,8.748343329662745e-05, ,0.19471326395782257,-0.2319986182745785,0.09705971375000001,1.6838102461807307,0.5245475225995259,-1.252770286450381, ,0.06517647085059805,0.04373130947394967,0.02262615272727273,-0.0023969782467226698,0.0787720069926752,-0.06051620290368449, ,1.014862060546875
0.012454605104112264,0.021053942945449076,-0.08629083237451828, ,0.013006121754765145,0.020739127697074068,-0.08689106360991364, ,0.000873817367932815, ,0.009779086959667314,0.001274110254262632,-0.023788024380198114,0.014963077799571265,0.01392729952913174,0.0077802134263998774, ,0.025751194197894053, ,0.02044152030234746, ,8.997932794426873e-05, ,0.19537741898500588,-0.23151980883637657,0.09730211998,1.6836005562372458,0.5253673415981185,-1.2534387938725593, ,0.06486462170777224,0.049893239515494625,0.02492771755868545,-0.019511029912785794,0.08471854049428007,-0.06577814319368783, ,1.0220749378204346
0.012454605104112264,0.021053942945449076,-0.08629083237451828, ,0.01308745879124561,0.02073440069229667,-0.08705933631517622, ,0.0010455665199664607, ,0.009779086959667314,0.001274110254262632,-0.023788024380198114,0.014963077799571265,0.01392729952913174,0.0077802134263998774, ,0.025751194197894053, ,0.02044152030234746, ,9.304885937716917e-05, ,0.19537741898500588,-0.23151980883637657,0.09730211998,1.6836005562372458,0.5253673415981185,-1.2534387938725593, ,0.06486462170777224,0.049893239515494625,0.02492771755868545,-0.019511029912785794,0.08471854049428007,-0.06577814319368783, ,1.0292489528656006
0.012557989602467835,0.02106641614533097,-0.08654109849607469, ,0.013168921003111645,0.020729300950055776,-0.08722731003146175, ,0.000978657295725274, ,0.010471224240566335,0.001343731641041487,-0.025627933888415402,0.01923108514752699,0.01899320652636719,0.008047754118896445, ,0.027717199483503933, ,0.02702897472842372, ,9.583956211298232e-05, ,0.19605701947793763,-0.23098694026805508,0.09756397056,1.6833908662937616,0.5261871605967111,-1.254107301294738, ,0.06901595749706967,0.05376597255437438,0.02686140222596965,-0.021055961265812592,0.09440909630195703,-0.07400469573230703, ,1.0364179611206055
0.012557989602467835,0.02106641614533097,-0.08654109849607469, ,0.013250504306906797,0.020723835660076653,-0.08739498130294211, ,0.0011515441166560017, ,0.010601565193241527,0.0012608062133128365,-0.02615972137230033,0.024603942801441073,0.02690686605888042,0.008047754118896445, ,0.028254448129993004, ,0.036459857263235654, ,9.954378862015081e-05, ,0.19672117450512094,-0.2304617944326078,0.09782711743000001,1.6833908662937616,0.5272802525948347,-1.2550803232644498, ,0.069623581480903,0.055854585967316524,0.027416198829604135,-0.02040521964112109,0.10288913534070841,-0.08118128519738035, ,1.041100025177002
0.012658323586997913,0.02108046167255064,-0.0867915038695981, ,0.013332204650249445,0.02071801197299486,-0.08756234669994507, ,0.001086132653599196, ,0.010601565193241527,0.0012608062133128365,-0.02615972137230033,0.024603942801441073,0.02690686605888042,0.0065865282535004415, ,0.028254448129993004, ,0.036459857263235654, ,0.00010299340003616146, ,0.19672117450512094,-0.2304617944326078,0.09782711743000001,1.6833908662937616,0.5272802525948347,-1.2550803232644498, ,0.069623581480903,0.055854585967316524,0.027416198829604135,-0.02040521964112109,0.10288913534070841,-0.08118128519738035, ,1.0449459552764893
0.012658323586997913,0.02108046167255064,-0.0867915038695981, ,0.01341401801175128,0.02071183700043787,-0.08772940281889688, ,0.00125960813413908, ,0.010601565193241527,0.0012608062133128365,-0.02615972137230033,0.024603942801441073,0.02690686605888042,0.0065865282535004415, ,0.028254448129993004, ,0.036459857263235654, ,0.0005795418970656841, ,0.19672117450512094,-0.2304617944326078,0.09782711743000001,1.6833908662937616,0.5272802525948347,-1.2550803232644498, ,0.069623581480903,0.055854585967316524,0.027416198829604135,-0.02040521964112109,0.10288913534070841,-0.08118128519738035, ,1.0486891269683838
0.012778316037134124,0.02109303025986701,-0.0870775712976268, ,0.013495940400935194,0.020705317815106514,-0.08789614628226342, ,0.0011555823955114056, ,0.01233061205750292,0.0009277964728351939,-0.02909168812961067,0.010562003365003517,0.011387771219241657,0.001263148487667223, ,0.03161061717585046, ,0.0155311432603002, ,0.0005902093137035679, ,0.19750889325829182,-0.2298285303369214,0.09812656042000001,1.6833908662937616,0.5282367080931928,-1.255860248590325, ,0.08145660219611225,0.06715990202298003,0.030398495267175574,-0.017213589395818886,0.09837912523671069,-0.07773075272715028, ,1.0524561405181885
0.012778316037134124,0.02109303025986701,-0.0870775712976268, ,0.013577967858153517,0.020698461450857037,-0.08806257373849402, ,0.001328667523655769, ,0.01233061205750292,0.0009277964728351939,-0.02909168812961067,0.010562003365003517,0.011387771219241657,0.001263148487667223, ,0.03161061717585046, ,0.0155311432603002, ,0.0006036358266117897, ,0.19750889325829182,-0.2298285303369214,0.09812656042000001,1.6833908662937616,0.5282367080931928,-1.255860248590325, ,0.08145660219611225,0.06715990202298003,0.030398495267175574,-0.017213589395818886,0.09837912523671069,-0.07773075272715028, ,1.056107997894287
0.012778316037134124,0.02109303025986701,-0.0870775712976268, ,0.013660096454506205,0.020691274902782816,-0.08822868186196285, ,0.0015046592978919787, ,0.01233061205750292,0.0009277964728351939,-0.02909168812961067,0.010562003365003517,0.011387771219241657,0.001263148487667223, ,0.03161061717585046, ,0.0155311432603002, ,0.0006197255314560788, ,0.19750889325829182,-0.2298285303369214,0.09812656042000001,1.6833908662937616,0.5282367080931928,-1.255860248590325, ,0.08145660219611225,0.06715990202298003,0.030398495267175574,-0.017213589395818886,0.09837912523671069,-0.07773075272715028, ,1.0597519874572754
0.012907824892354022,0.021102478844892615,-0.08738590181799792, ,0.013742322291759018,0.020683765127295663,-0.08839446735291184, ,0.0013743767769915805, ,0.014048976433723019,0.0014084266697615023,-0.03418813890627662,0.04132623707749802,0.04537208602019305,0.0031988564585030558, ,0.03698900169502099, ,0.061371307256013904, ,0.0006329650269917893, ,0.19837383934020497,-0.22912576164536697,0.09844933663000001,1.6829714864067924,0.5294664365910817,-1.2568630097235927, ,0.09276338373262051,0.0749580896986341,0.035875701621621625,-0.0225266656862245,0.14554603916612893,-0.11637771252795766, ,1.0635781288146973
0.012907824892354022,0.021102478844892615,-0.08738590181799792, ,0.013824641502261415,0.02067593904220824,-0.0885599269373922, ,0.0015494592219367587, ,0.014048976433723019,0.0014084266697615023,-0.03418813890627662,0.04132623707749802,0.04537208602019305,0.0031988564585030558, ,0.03698900169502099, ,0.061371307256013904, ,0.0006487666510425646, ,0.19837383934020497,-0.22912576164536697,0.09844933663000001,1.6829714864067924,0.5294664365910817,-1.2568630097235927, ,0.09276338373262051,0.0749580896986341,0.035875701621621625,-0.0225266656862245,0.14554603916612893,-0.11637771252795766, ,1.0671730041503906
0.013061325822078886,0.021120053560331763,-0.08777153918793593, ,0.013907050248865137,0.020667803526815007,-0.08872505736720776, ,0.0013523966936815227, ,0.01593022036209678,0.0024326114739686177,-0.04091502598544648,0.06491178334472807,0.06685582402315733,0.04099425929289076, ,0.04397418413976554, ,0.09318329336432783, ,0.0006606925839686487, ,0.19936234914810572,-0.22832259742644762,0.09885377911000001,1.6823424165763388,0.531106074588267,-1.2581183458278091, ,0.1014940551427495,0.07881805777281627,0.04305084194594595,-0.06527613939189995,0.18586828822894058,-0.15156312605827416, ,1.0708520412445068
0.013061325822078886,0.021120053560331763,-0.08777153918793593, ,0.013989544724841943,0.02065936542197456,-0.08888985541985696, ,0.0015246163736651055, ,0.01593022036209678,0.0024326114739686177,-0.04091502598544648,0.06491178334472807,0.06685582402315733,0.04099425929289076, ,0.04397418413976554, ,0.09318329336432783, ,0.000675091313796923, ,0.19936234914810572,-0.22832259742644762,0.09885377911000001,1.6823424165763388,0.531106074588267,-1.2581183458278091, ,0.1014940551427495,0.07881805777281627,0.04305084194594595,-0.06527613939189995,0.18586828822894058,-0.15156312605827416, ,1.0743930339813232
0.013061325822078886,0.021120053560331763,-0.08777153918793593, ,0.014072121153802046,0.020650631530190863,-0.0890543178984746, ,0.0016992896943211844, ,0.01593022036209678,0.0024326114739686177,-0.04091502598544648,0.06491178334472807,0.06685582402315733,0.04099425929289076, ,0.04397418413976554, ,0.09318329336432783, ,0.0006918814511825666, ,0.19936234914810572,-0.22832259742644762,0.09885377911000001,1.6823424165763388,0.531106074588267,-1.2581183458278091, ,0.1014940551427495,0.07881805777281627,0.04305084194594595,-0.06527613939189995,0.18586828822894058,-0.15156312605827416, ,1.0780220031738281
0.013061325822078886,0.021120053560331763,-0.08777153918793593, ,0.014154775789612002,0.020641608615695473,-0.08921844163177524, ,0.0018756516410395536, ,0.01593022036209678,0.0024326114739686177,-0.04091502598544648,0.06491178334472807,0.06685582402315733,0.04099425929289076, ,0.04397418413976554, ,0.09318329336432783, ,0.0007109745187609051, ,0.19936234914810572,-0.22832259742644762,0.09885377911000001,1.6823424165763388,0.531106074588267,-1.2581183458278091, ,0.1014940551427495,0.07881805777281627,0.04305084194594595,-0.06527613939189995,0.18586828822894058,-0.15156312605827416, ,1.081766128540039
0.01323691812564498,0.02115036753460129,-0.08822550762647655, ,0.014237504916313117,0.020632303404528804,-0.08938222347399481, ,0.001614792841335143, ,0.017898170600910118,0.0028014543818405406,-0.046916118561069545,0.07352079778660386,0.08155195075234792,0.028696791625332695, ,0.05029229402551798, ,0.10979891198443788, ,0.0007253208413414486, ,0.20046669994911984,-0.22747309681028294,0.09933211012000001,1.6819230366893698,0.5331556220847486,-1.2597896143832554, ,0.11047373871766097,0.09012055228724672,0.04931520594427245,-0.0558527953036386,0.20756450848284488,-0.169254938882634, ,1.0855109691619873
0.01323691812564498,0.02115036753460129,-0.08822550762647655, ,0.01432030484803943,0.020622722584622093,-0.089545660304833, ,0.0017874392514630722, ,0.017898170600910118,0.0028014543818405406,-0.046916118561069545,0.07352079778660386,0.08155195075234792,0.028696791625332695, ,0.05029229402551798, ,0.10979891198443788, ,0.0007419164414995989, ,0.20046669994911984,-0.22747309681028294,0.09933211012000001,1.6819230366893698,0.5331556220847486,-1.2597896143832554, ,0.11047373871766097,0.09012055228724672,0.04931520594427245,-0.0558527953036386,0.20756450848284488,-0.169254938882634, ,1.0891621112823486
0.013418833574488202,0.021179120032046087,-0.08870213078912233, ,0.014403171928935886,0.020612872805879066,-0.08970874902939646, ,0.0015175105267612532, ,0.019285186270597946,0.002563601898287177,-0.049738242523052006,0.03859728998522903,0.0470290064961731,0.007070964984341088, ,0.053407707622275834, ,0.06083727345092879, ,0.0007538486581959321, ,0.2015633280172597,-0.22653864613250177,0.09983247806000001,1.6819230366893698,0.5350685330814648,-1.2613494650350052, ,0.11488733844851184,0.09978647903098925,0.052054939607843145,-0.03438665696218071,0.17204433124976687,-0.14029061607702373, ,1.0927691459655762
0.013418833574488202,0.021179120032046087,-0.08870213078912233, ,0.014486102533076544,0.020602760680257442,-0.08987148657813951, ,0.0016848282089484575, ,0.019285186270597946,0.002563601898287177,-0.049738242523052006,0.03859728998522903,0.0470290064961731,0.007070964984341088, ,0.053407707622275834, ,0.06083727345092879, ,0.0007679544089649097, ,0.2015633280172597,-0.22653864613250177,0.09983247806000001,1.6819230366893698,0.5350685330814648,-1.2613494650350052, ,0.11488733844851184,0.09978647903098925,0.052054939607843145,-0.03438665696218071,0.17204433124976687,-0.14029061607702373, ,1.0963921546936035
0.013418833574488202,0.021179120032046087,-0.08870213078912233, ,0.014569093064382654,0.020592392781851012,-0.09003386990680828, ,0.0018549595245688489, ,0.019285186270597946,0.002563601898287177,-0.049738242523052006,0.03859728998522903,0.0470290064961731,0.007070964984341088, ,0.053407707622275834, ,0.06083727345092879, ,0.0007841783659142223, ,0.2015633280172597,-0.22653864613250177,0.09983247806000001,1.6819230366893698,0.5350685330814648,-1.2613494650350052, ,0.11488733844851184,0.09978647903098925,0.052054939607843145,-0.03438665696218071,0.17204433124976687,-0.14029061607702373, ,1.0999829769134521
0.013624577172056385,0.02120344872086307,-0.08921345453036379, ,0.014652139956540784,0.02058177564697114,-0.09019589599638143, ,0.0015516294406237802, ,0.020971301083884324,0.0018955780324196167,-0.050762986653098086,0.02134831364798693,0.025689814404779028,-0.027645089247861993, ,0.05495697862119545, ,0.033397304944513755, ,0.0007954644111305393, ,0.20280668801000984,-0.22548835446160723,0.10036784583000001,1.6817133467458854,0.5367081710786501,-1.2626864798793624, ,0.12789345223513582,0.11034528088194276,0.053096038400000004,0.0,0.1557149619295441,-0.1269751103266045, ,1.1035480499267578
0.013624577172056385,0.02120344872086307,-0.08921345453036379, ,0.014735239672921048,0.020570915774228447,-0.09035756185301407, ,0.001715415601289437, ,0.020971301083884324,0.0018955780324196167,-0.050762986653098086,0.02134831364798693,0.025689814404779028,-0.027645089247861993, ,0.05495697862119545, ,0.033397304944513755, ,0.0008087970370748712, ,0.20280668801000984,-0.22548835446160723,0.10036784583000001,1.6817133467458854,0.5367081710786501,-1.2626864798793624, ,0.12789345223513582,0.11034528088194276,0.053096038400000004,0.0,0.1557149619295441,-0.1269751103266045, ,1.107100009918213
0.013835876094960165,0.021214344050976428,-0.0897119922380522, ,0.01481838870649516,0.020559819624614784,-0.09051886450797889, ,0.0014299566834369518, ,0.020971301083884324,0.0018955780324196167,-0.050762986653098086,0.02134831364798693,0.025689814404779028,-0.027645089247861993, ,0.05495697862119545, ,0.033397304944513755, ,0.0008176707463086151, ,0.20412727533150224,-0.2243685581948447,0.10088895441000001,1.680874586971947,0.5383478090758353,-1.2640234947237192, ,0.13934940023270306,0.11744670984959255,0.05222561154098361,-0.09790163029867079,0.173187157173939,-0.14122251398848787, ,1.110671043395996
0.013835876094960165,0.021214344050976428,-0.0897119922380522, ,0.014901583579754714,0.02054849362158444,-0.09067980101760914, ,0.0015861094133937054, ,0.02181595601355717,0.0004953778678959196,-0.04994908151784322,0.009432333579710541,0.009816332184978852,0.06342089670099915, ,0.05450772496163832, ,0.013602146238362096, ,0.0008284938261267149, ,0.20412727533150224,-0.2243685581948447,0.10088895441000001,1.680874586971947,0.5383478090758353,-1.2640234947237192, ,0.13934940023270306,0.11744670984959255,0.05222561154098361,-0.09790163029867079,0.173187157173939,-0.14122251398848787, ,1.1146910190582275
0.013835876094960165,0.021214344050976428,-0.0897119922380522, ,0.014984820844629133,0.020536944151136327,-0.09084036846324087, ,0.0017470482442297655, ,0.02181595601355717,0.0004953778678959196,-0.04994908151784322,0.009432333579710541,0.009816332184978852,0.06342089670099915, ,0.05450772496163832, ,0.013602146238362096, ,0.0008412515263781461, ,0.20412727533150224,-0.2243685581948447,0.10088895441000001,1.680874586971947,0.5383478090758353,-1.2640234947237192, ,0.13934940023270306,0.11744670984959255,0.05222561154098361,-0.09790163029867079,0.173187157173939,-0.14122251398848787, ,1.118265151977539
0.014060697089975609,0.021209196035114296,-0.09019778714770042, ,0.015068097082403975,0.020525177561895425,-0.09100056395115477, ,0.0014584877828126405, ,0.021958968288907976,-0.0012821388654498237,-0.044291814739771194,0.011881191611179912,0.007031143039108981,0.028539282634115214, ,0.04945305876612463, ,0.013799609724330872, ,0.0008497068175621804, ,0.20561776277622756,-0.2231174754692203,0.10139710009000001,1.6800358271980091,0.5401240835727862,-1.265471927471773, ,0.15183510649355325,0.12324278124476726,0.04643968373177843,-0.06309058386767473,0.17495580470024943,-0.14266472745339404, ,1.1220459938049316
0.014060697089975609,0.021209196035114296,-0.09019778714770042, ,0.015151408903638964,0.020513200165194857,-0.09116038461251963, ,0.0016126550749264662, ,0.021958968288907976,-0.0012821388654498237,-0.044291814739771194,0.011881191611179912,0.007031143039108981,0.028539282634115214, ,0.04945305876612463, ,0.013799609724330872, ,0.0008600169291481843, ,0.20561776277622756,-0.2231174754692203,0.10139710009000001,1.6800358271980091,0.5401240835727862,-1.265471927471773, ,0.15183510649355325,0.12324278124476726,0.04643968373177843,-0.06309058386767473,0.17495580470024943,-0.14266472745339404, ,1.1258001327514648
0.014060697089975609,0.021209196035114296,-0.09019778714770042, ,0.015234752948086268,0.020501018235157112,-0.0913198276033334, ,0.0017716934662613678, ,0.021958968288907976,-0.0012821388654498237,-0.044291814739771194,0.011881191611179912,0.007031143039108981,0.028539282634115214, ,0.04945305876612463, ,0.013799609724330872, ,0.0008721726163096934, ,0.20561776277622756,-0.2231174754692203,0.10139710009000001,1.6800358271980091,0.5401240835727862,-1.265471927471773, ,0.15183510649355325,0.12324278124476726,0.04643968373177843,-0.06309058386767473,0.17495580470024943,-0.14266472745339404, ,1.1295790672302246
0.014288023087873677,0.02118506283462694,-0.09062788503754717, ,0.015318125884608496,0.020488638008775782,-0.0914788901043664, ,0.0015067610738450602, ,0.022717351498235793,-0.003672011957764282,-0.040120701381036086,-0.03687196725646099,-0.04323516090079186,-0.03348500936716725, ,0.04625183683075334, ,0.05682180174148819, ,0.0008805224644351589, ,0.20721636848119204,-0.22178144268197947,0.10184691272000002,1.6798261372545245,0.541627085070206,-1.2666975244124337, ,0.16277348466290012,0.14017273494604252,0.04180790425196851,0.0,0.12098816864628498,-0.09865773893344228, ,1.1331639289855957
0.014288023087873677,0.02118506283462694,-0.09062788503754717, ,0.015401524411096894,0.02047606568599795,-0.09163756932110362, ,0.0016619339656089832, ,0.022717351498235793,-0.003672011957764282,-0.040120701381036086,-0.03687196725646099,-0.04323516090079186,-0.03348500936716725, ,0.04625183683075334, ,0.05682180174148819, ,0.0008906706657491046, ,0.20721636848119204,-0.22178144268197947,0.10184691272000002,1.6798261372545245,0.541627085070206,-1.2666975244124337, ,0.16277348466290012,0.14017273494604252,0.04180790425196851,0.0,0.12098816864628498,-0.09865773893344228, ,1.1367571353912354
0.014517644240734682,0.02114471543970594,-0.09102300729110377, ,0.015484945254389565,0.020463307429805087,-0.09179586248368661, ,0.001413256266809762, ,0.022717351498235793,-0.003672011957764282,-0.040120701381036086,-0.03687196725646099,-0.04323516090079186,-0.03348500936716725, ,0.04625183683075334, ,0.05682180174148819, ,0.0008973704811473182, ,0.20885358785052763,-0.22035273710024794,0.10225783665000002,1.6800358271980091,0.5425835405685641,-1.2674774497383083, ,0.16915675857124915,0.1464458974667759,0.04137353641558442,0.0,0.10047537824879241,-0.08193093380467993, ,1.1409809589385986
0.014517644240734682,0.02114471543970594,-0.09102300729110377, ,0.015568385170189452,0.020450369366295098,-0.09195376684685592, ,0.0015660416089990964, ,0.023549431695159478,-0.004457655612876938,-0.039761693449316904,-0.059937623761777484,-0.06991293801223891,-0.03429600034261289, ,0.046426702367123235, ,0.09208820911444464, ,0.0009058346726391127, ,0.20885358785052763,-0.22035273710024794,0.10225783665000002,1.6800358271980091,0.5425835405685641,-1.2674774497383083, ,0.16915675857124915,0.1464458974667759,0.04137353641558442,0.0,0.10047537824879241,-0.08193093380467993, ,1.1446330547332764
0.014517644240734682,0.02114471543970594,-0.09102300729110377, ,0.015651840942982602,0.02043725758476426,-0.0921112796898941, ,0.0017237272376677258, ,0.023549431695159478,-0.004457655612876938,-0.039761693449316904,-0.059937623761777484,-0.06991293801223891,-0.03429600034261289, ,0.046426702367123235, ,0.09208820911444464, ,0.0009160583297019703, ,0.20885358785052763,-0.22035273710024794,0.10225783665000002,1.6800358271980091,0.5425835405685641,-1.2674774497383083, ,0.16915675857124915,0.1464458974667759,0.04137353641558442,0.0,0.10047537824879241,-0.08193093380467993, ,1.14817214012146
0.014742858797832662,0.021095930886127552,-0.09140291969683534, ,0.015735309385956322,0.02042397813778839,-0.09226839831656701, ,0.0014783544592147683, ,0.023322664031907647,-0.00535141538143465,-0.038933684339283306,-0.04695737181495035,-0.04943143401973347,0.009577007029042673, ,0.04569919124405648, ,0.06817897019828269, ,0.0009230002572268197, ,0.21049080721986324,-0.2189240315185164,0.1026532051,1.6794067573675557,0.543813269066453,-1.2684802108715763, ,0.17006620350980425,0.15039134953798858,0.040531327022900764,-0.048524427877206774,0.1327430569433437,-0.10824306214131288, ,1.1516749858856201
0.014742858797832662,0.021095930886127552,-0.09140291969683534, ,0.015818787340917198,0.020410537041305098,-0.09242512005506724, ,0.0016347111441211719, ,0.023322664031907647,-0.00535141538143465,-0.038933684339283306,-0.04695737181495035,-0.04943143401973347,0.009577007029042673, ,0.04569919124405648, ,0.06817897019828269, ,0.0009316796582865069, ,0.21049080721986324,-0.2189240315185164,0.1026532051,1.6794067573675557,0.543813269066453,-1.2684802108715763, ,0.17006620350980425,0.15039134953798858,0.040531327022900764,-0.048524427877206774,0.1327430569433437,-0.10824306214131288, ,1.1553311347961426
0.014742858797832662,0.021095930886127552,-0.09140291969683534, ,0.015902271678209377,0.02039694027469515,-0.09258144225795553, ,0.0017949210370162168, ,0.023322664031907647,-0.00535141538143465,-0.038933684339283306,-0.04695737181495035,-0.04943143401973347,0.009577007029042673, ,0.04569919124405648, ,0.06817897019828269, ,0.0009420801568254191, ,0.21049080721986324,-0.2189240315185164,0.1026532051,1.6794067573675557,0.543813269066453,-1.2684802108715763, ,0.17006620350980425,0.15039134953798858,0.040531327022900764,-0.048524427877206774,0.1327430569433437,-0.10824306214131288, ,1.1590039730072021
0.014982055824324582,0.021034897064679602,-0.0917956852471071, ,0.01598575929663257,0.02038319378086439,-0.0927373623021035, ,0.0015227913535233032, ,0.024491244401359007,-0.00604780980095612,-0.04070789314060444,-0.054458954812834394,-0.05860279691142746,0.051145376576176974, ,0.047890809344408765, ,0.07999971110996511, ,0.0009489933853575368, ,0.2122438675823122,-0.21735631674504882,0.10306153645,1.6785679975936174,0.5451796340641073,-1.2697577473888217, ,0.17770962838664942,0.15842561195070248,0.04236386042553192,-0.09580781921040521,0.14128205479630573,-0.11853788428366352, ,1.162661075592041
0.014982055824324582,0.021034897064679602,-0.0917956852471071, ,0.016069247123360313,0.020369303466325265,-0.09289287758863636, ,0.0016819128375690983, ,0.024491244401359007,-0.00604780980095612,-0.04070789314060444,-0.054458954812834394,-0.05860279691142746,0.051145376576176974, ,0.047890809344408765, ,0.07999971110996511, ,0.0009576159671482611, ,0.2122438675823122,-0.21735631674504882,0.10306153645,1.6785679975936174,0.5451796340641073,-1.2697577473888217, ,0.17770962838664942,0.15842561195070248,0.04236386042553192,-0.09580781921040521,0.14128205479630573,-0.11853788428366352, ,1.1662960052490234
0.014982055824324582,0.021034897064679602,-0.0917956852471071, ,0.01615273211385802,0.020355275201278524,-0.09304798554287444, ,0.0018440783288319116, ,0.024491244401359007,-0.00604780980095612,-0.04070789314060444,-0.054458954812834394,-0.05860279691142746,0.051145376576176974, ,0.047890809344408765, ,0.07999971110996511, ,0.0009679236690283034, ,0.2122438675823122,-0.21735631674504882,0.10306153645,1.6785679975936174,0.5451796340641073,-1.2697577473888217, ,0.17770962838664942,0.15842561195070248,0.04236386042553192,-0.09580781921040521,0.14128205479630573,-0.11853788428366352, ,1.170032024383545
0.015243990979165262,0.02097454195556234,-0.09223846814788361, ,0.01623621125180117,0.020341114819695257,-0.0932026836142765, ,0.0015216578036844246, ,0.026306451679656333,-0.005798435802137053,-0.04537473094513597,-0.05056452136239559,-0.05272167579311395,-0.007209904071811145, ,0.05276852723043422, ,0.0730489806823561, ,0.0009742884291967645, ,0.21411276893787454,-0.21565731551271944,0.10352301569000001,1.678358307650133,0.5466826355615272,-1.2711467018097635, ,0.18390880146990463,0.16825698857884888,0.04726650302670624,-0.03809537493198039,0.14078889602784672,-0.12033267017036431, ,1.1736760139465332
0.015243990979165262,0.02097454195556234,-0.09223846814788361, ,0.016319681548993475,0.020326828119398288,-0.09335696927638104, ,0.0016815731295503388, ,0.026306451679656333,-0.005798435802137053,-0.04537473094513597,-0.05056452136239559,-0.05272167579311395,-0.007209904071811145, ,0.05276852723043422, ,0.0730489806823561, ,0.000982325755337146, ,0.21411276893787454,-0.21565731551271944,0.10352301569000001,1.678358307650133,0.5466826355615272,-1.2711467018097635, ,0.18390880146990463,0.16825698857884888,0.04726650302670624,-0.03809537493198039,0.14078889602784672,-0.12033267017036431, ,1.1773250102996826
0.01550760935256501,0.020918977736909514,-0.09269192502673733, ,0.01640314004528497,0.020312420862143802,-0.0935108400267495, ,0.0013566533238723807, ,0.027086203054146586,-0.00525834554868569,-0.04657648042682546,-0.004986521065661799,-0.05400802102029455,-0.045639569751336, ,0.054135765652203516, ,0.05423571268552102, ,0.000986531683073497, ,0.21594305662906574,-0.21398920521188694,0.10399616154,1.678358307650133,0.5480490005591817,-1.272750953287571, ,0.18680500306785586,0.16532568215761462,0.04871196183486239,-0.012825571477527773,0.13600701184492905,-0.16034976172326937, ,1.1814141273498535
0.01550760935256501,0.020918977736909514,-0.09269192502673733, ,0.01648658380849005,0.02029789877370344,-0.09366429338690813, ,0.0015131524350679615, ,0.027086203054146586,-0.00525834554868569,-0.04657648042682546,-0.004986521065661799,-0.05400802102029455,-0.045639569751336, ,0.054135765652203516, ,0.05423571268552102, ,0.0009923830247623245, ,0.21594305662906574,-0.21398920521188694,0.10399616154,1.678358307650133,0.5480490005591817,-1.272750953287571, ,0.18680500306785586,0.16532568215761462,0.04871196183486239,-0.012825571477527773,0.13600701184492905,-0.16034976172326937, ,1.1850700378417969
0.01550760935256501,0.020918977736909514,-0.09269192502673733, ,0.016570009934305834,0.020283267543945722,-0.09381732690229039, ,0.0016731263631356852, ,0.027086203054146586,-0.00525834554868569,-0.04657648042682546,-0.004986521065661799,-0.05400802102029455,-0.045639569751336, ,0.054135765652203516, ,0.05423571268552102, ,0.0009998637207884052, ,0.21594305662906574,-0.21398920521188694,0.10399616154,1.678358307650133,0.5480490005591817,-1.272750953287571, ,0.18680500306785586,0.16532568215761462,0.04871196183486239,-0.012825571477527773,0.13600701184492905,-0.16034976172326937, ,1.1886420249938965
0.01577505433154329,0.02086353187937583,-0.09314259351321406, ,0.016653415546230226,0.020268532826917637,-0.09396993814217973, ,0.0013453778023182897, ,0.02696142577300704,-0.0061446485300488025,-0.044261961186333354,-0.03427650800026384,-0.1015685452641629,0.0038045196299003586, ,0.052190002810228696, ,0.10719551531413353, ,0.0010036193086311214, ,0.21778106705313116,-0.21237515404117402,0.10446671481000001,1.6777292378196795,0.5491420925573052,-1.2742140476981263, ,0.1860724344283741,0.16475163465012285,0.04617046817391306,-0.06788768912608964,0.09856380000791179,-0.1433637898274397, ,1.19228196144104
0.01577505433154329,0.02086353187937583,-0.09314259351321406, ,0.01673679779547988,0.02025370024092687,-0.09412212469965112, ,0.001502107340665398, ,0.02696142577300704,-0.0061446485300488025,-0.044261961186333354,-0.03427650800026384,-0.1015685452641629,0.0038045196299003586, ,0.052190002810228696, ,0.10719551531413353, ,0.0010089793949970814, ,0.21778106705313116,-0.21237515404117402,0.10446671481000001,1.6777292378196795,0.5491420925573052,-1.2742140476981263, ,0.1860724344283741,0.16475163465012285,0.04617046817391306,-0.06788768912608964,0.09856380000791179,-0.1433637898274397, ,1.1959631443023682
0.01577505433154329,0.02086353187937583,-0.09314259351321406, ,0.01682015386090864,0.020238775368622917,-0.09427388419151429, ,0.0016620386044905286, ,0.02696142577300704,-0.0061446485300488025,-0.044261961186333354,-0.03427650800026384,-0.1015685452641629,0.0038045196299003586, ,0.052190002810228696, ,0.10719551531413353, ,0.0010159268333959479, ,0.21778106705313116,-0.21237515404117402,0.10446671481000001,1.6777292378196795,0.5491420925573052,-1.2742140476981263, ,0.1860724344283741,0.16475163465012285,0.04617046817391306,-0.06788768912608964,0.09856380000791179,-0.1433637898274397, ,1.1996181011199951
0.01605140459857722,0.020794021432383302,-0.09358871566108186, ,0.01690348094892533,0.020223763757079075,-0.09442521425825492, ,0.0013232376302608844, ,0.02678841312814418,-0.007267745992053683,-0.043217862457060566,-0.09893970722564788,-0.12783934235271396,0.048988816911100595, ,0.05136363348797031, ,0.16165337097802035, ,0.0010191616838892631, ,0.2196808593401904,-0.21065298461022194,0.10493078663000001,1.6768904780457412,0.5499619115558978,-1.2753726275611483, ,0.18319872887735672,0.17037152883028864,0.0448698916056338,-0.10330948193757683,0.07720220002156132,-0.09001457064883285, ,1.2032370567321777
0.01605140459857722,0.020794021432383302,-0.09358871566108186, ,0.016986776293412262,0.0202086709178742,-0.09457611256397842, ,0.0014807120166272635, ,0.02678841312814418,-0.007267745992053683,-0.043217862457060566,-0.09893970722564788,-0.12783934235271396,0.048988816911100595, ,0.05136363348797031, ,0.16165337097802035, ,0.001023969499855284, ,0.2196808593401904,-0.21065298461022194,0.10493078663000001,1.6768904780457412,0.5499619115558978,-1.2753726275611483, ,0.18319872887735672,0.17037152883028864,0.0448698916056338,-0.10330948193757683,0.07720220002156132,-0.09001457064883285, ,1.2068099975585938
0.01605140459857722,0.020794021432383302,-0.09358871566108186, ,0.017070037155643078,0.02019350232717431,-0.09472657679635119, ,0.0016410251202196562, ,0.02678841312814418,-0.007267745992053683,-0.043217862457060566,-0.09893970722564788,-0.12783934235271396,0.048988816911100595, ,0.05136363348797031, ,0.16165337097802035, ,0.0010303308980033703, ,0.2196808593401904,-0.21065298461022194,0.10493078663000001,1.6768904780457412,0.5499619115558978,-1.2753726275611483, ,0.18319872887735672,0.17037152883028864,0.0448698916056338,-0.10330948193757683,0.07720220002156132,-0.09001457064883285, ,1.2104101181030273
0.016314800363661133,0.020726374615405562,-0.0940152513127521, ,0.01715326082420099,0.020178263425814493,-0.09487660466654357, ,0.0013211250584753396, ,0.025675571546783807,-0.0069008664380314,-0.04159587239795731,-0.006530987975759504,-0.05195047282332628,-0.0198183189697832, ,0.049366724951091394, ,0.05235819808821445, ,0.0010332981853551251, ,0.2215034242985074,-0.20897715157651522,0.10537671039000002,1.676680788102257,0.5511916400537868,-1.2767021036549782, ,0.17804304232358495,0.16475163465012285,0.04352134295081967,-0.04362296080642831,0.13524692012281245,-0.16589536076307287, ,1.2139711380004883
0.016314800363661133,0.020726374615405562,-0.0940152513127521, ,0.017236444614896998,0.020162959619380142,-0.0950261939091711, ,0.001479482854526144, ,0.025675571546783807,-0.0069008664380314,-0.04159587239795731,-0.006530987975759504,-0.05195047282332628,-0.0198183189697832, ,0.049366724951091394, ,0.05235819808821445, ,0.0010378051012053374, ,0.2215034242985074,-0.20897715157651522,0.10537671039000002,1.676680788102257,0.5511916400537868,-1.2767021036549782, ,0.17804304232358495,0.16475163465012285,0.04352134295081967,-0.04362296080642831,0.13524692012281245,-0.16589536076307287, ,1.217604160308838
0.01658189598635346,0.02065612737137781,-0.09443503351340704, ,0.017319585870687937,0.020147596278289135,-0.09517534228223865, ,0.0011622595713937326, ,0.02544844312936306,-0.006624871093090813,-0.039888435009336885,-0.0003742374260502484,-0.0285762314835719,-0.05286715231406834, ,0.04777655724518656, ,0.02857691515090269, ,0.0010390496459072214, ,0.22337232565406973,-0.2073013185428085,0.10581744899000001,1.676471098158772,0.5525580050514411,-1.2783063551327858, ,0.17905083312919012,0.15922305630615904,0.04202852643799473,0.0,0.15141737414707707,-0.1549735900348703, ,1.2218270301818848
0.01658189598635346,0.02065612737137781,-0.09443503351340704, ,0.017402681961594547,0.020132178737873402,-0.09532404756708127, ,0.0013185438086517555, ,0.02544844312936306,-0.006624871093090813,-0.039888435009336885,-0.0003742374260502484,-0.0285762314835719,-0.05286715231406834, ,0.04777655724518656, ,0.02857691515090269, ,0.0010418169148452862, ,0.22337232565406973,-0.2073013185428085,0.10581744899000001,1.676471098158772,0.5525580050514411,-1.2783063551327858, ,0.17905083312919012,0.15922305630615904,0.04202852643799473,0.0,0.15141737414707707,-0.1549735900348703, ,1.225512981414795
0.01658189598635346,0.02065612737137781,-0.09443503351340704, ,0.017485730284619846,0.020116712298460564,-0.09547230756830694, ,0.0014777762092351738, ,0.02544844312936306,-0.006624871093090813,-0.039888435009336885,-0.0003742374260502484,-0.0285762314835719,-0.05286715231406834, ,0.04777655724518656, ,0.02857691515090269, ,0.0010460910255745987, ,0.22337232565406973,-0.2073013185428085,0.10581744899000001,1.676471098158772,0.5525580050514411,-1.2783063551327858, ,0.17905083312919012,0.15922305630615904,0.04202852643799473,0.0,0.15141737414707707,-0.1549735900348703, ,1.229274034500122
0.016829162090193892,0.020588734508692925,-0.09483022848702642, ,0.017568728263667007,0.02010120222545566,-0.0956201201137394, ,0.0011868338696277064, ,0.025039293314030146,-0.006638296796787448,-0.04035484834585284,0.002639098080275515,-0.02350407308101361,-0.034368305206582565, ,0.04795359193058487, ,0.023649508804855352, ,0.001047457460953755, ,0.22510221781789602,-0.20573360376934094,0.10623355808000001,1.676051718271803,0.5541976430486265,-1.2800517636778457, ,0.17253989374267414,0.15789840525535903,0.042476830720000004,-0.021191847007748826,0.15421291910858806,-0.16153586763446764, ,1.233078956604004
0.016829162090193892,0.020588734508692925,-0.09483022848702642, ,0.01765167334945764,0.020085653749423085,-0.09576748305435959, ,0.0013446416422043582, ,0.025039293314030146,-0.006638296796787448,-0.04035484834585284,0.002639098080275515,-0.02350407308101361,-0.034368305206582565, ,0.04795359193058487, ,0.023649508804855352, ,0.0010503150011580877, ,0.22510221781789602,-0.20573360376934094,0.10623355808000001,1.676051718271803,0.5541976430486265,-1.2800517636778457, ,0.17253989374267414,0.15789840525535903,0.042476830720000004,-0.021191847007748826,0.15421291910858806,-0.16153586763446764, ,1.236678123474121
0.016829162090193892,0.020588734508692925,-0.09483022848702642, ,0.017734563019449843,0.02007007206616774,-0.09591439426424891, ,0.0015047182475414402, ,0.025039293314030146,-0.006638296796787448,-0.04035484834585284,0.002639098080275515,-0.02350407308101361,-0.034368305206582565, ,0.04795359193058487, ,0.023649508804855352, ,0.0010546426511236435, ,0.22510221781789602,-0.20573360376934094,0.10623355808000001,1.676051718271803,0.5541976430486265,-1.2800517636778457, ,0.17253989374267414,0.15789840525535903,0.042476830720000004,-0.021191847007748826,0.15421291910858806,-0.16153586763446764, ,1.240218162536621
0.017074015869248678,0.020519665818105094,-0.09522606256910982, ,0.017817394777756485,0.020054462336817486,-0.09606085164053076, ,0.001210743273522593, ,0.02519776205446134,-0.0068964610554727735,-0.04007504651411075,-0.1331799152087297,-0.12931648202032064,0.058197624326577636, ,0.04783824558604804, ,0.18563280683357058, ,0.0010561152985047657, ,0.2267394371872316,-0.20419677992737026,0.10664707459000002,1.6750032685543808,0.5551540985469845,-1.280913367743861, ,0.1659037439833405,0.1543039700137736,0.04180790425196851,-0.09718654210799571,0.05702096361331869,-0.03748750685730258, ,1.243772029876709
0.017074015869248678,0.020519665818105094,-0.09522606256910982, ,0.017900166155063228,0.02003882968790411,-0.09620685310331341, ,0.0013695538510191888, ,0.02519776205446134,-0.0068964610554727735,-0.04007504651411075,-0.1331799152087297,-0.12931648202032064,0.058197624326577636, ,0.04783824558604804, ,0.18563280683357058, ,0.0010590446307712556, ,0.2267394371872316,-0.20419677992737026,0.10664707459000002,1.6750032685543808,0.5551540985469845,-1.280913367743861, ,0.1659037439833405,0.1543039700137736,0.04180790425196851,-0.09718654210799571,0.05702096361331869,-0.03748750685730258, ,1.247318983078003
0.017074015869248678,0.020519665818105094,-0.09522606256910982, ,0.017982874708546575,0.020023179211445634,-0.09635239659563218, ,0.0015300822460456885, ,0.02519776205446134,-0.0068964610554727735,-0.04007504651411075,-0.1331799152087297,-0.12931648202032064,0.058197624326577636, ,0.04783824558604804, ,0.18563280683357058, ,0.0010634060901719448, ,0.2267394371872316,-0.20419677992737026,0.10664707459000002,1.6750032685543808,0.5551540985469845,-1.280913367743861, ,0.1659037439833405,0.1543039700137736,0.04180790425196851,-0.09718654210799571,0.05702096361331869,-0.03748750685730258, ,1.2509069442749023
0.0173357275133555,0.020451742213004737,-0.09565576328028191, ,0.018065518021792265,0.020007515965027766,-0.09649748008339187, ,0.0011993407865297258, ,0.023576019847670836,-0.006128861057858686,-0.039781480945644196,-0.008757531275641182,-0.004062934190577429,-0.012967693500075721, ,0.04664716364317297, ,0.009648945793754776, ,0.0010646531974779795, ,0.2284693293510579,-0.2025672832909089,0.10709818351000001,1.674793578610896,0.5563838270448734,-1.2821611650975506, ,0.15659561313279005,0.1480451506372399,0.04191792505263159,-0.03385616684764712,0.16065415872739558,-0.14196407712149106, ,1.2544951438903809
0.0173357275133555,0.020451742213004737,-0.09565576328028191, ,0.018148093704713108,0.019991844971885445,-0.0966421015553084, ,0.001358052831826596, ,0.023576019847670836,-0.006128861057858686,-0.039781480945644196,-0.008757531275641182,-0.004062934190577429,-0.012967693500075721, ,0.04664716364317297, ,0.009648945793754776, ,0.0010673204668811486, ,0.2284693293510579,-0.2025672832909089,0.10709818351000001,1.674793578610896,0.5563838270448734,-1.2821611650975506, ,0.15659561313279005,0.1480451506372399,0.04191792505263159,-0.03385616684764712,0.16065415872739558,-0.14196407712149106, ,1.258113145828247
0.0173357275133555,0.020451742213004737,-0.09565576328028191, ,0.0182305993934674,0.01997617122098495,-0.09678625902285258, ,0.0015182174001888195, ,0.022496974452202844,-0.005961129794161962,-0.03863060118481754,0.043657238836747075,0.03918431364970649,-0.037934581775179256, ,0.04509958176997143, ,0.05866241477794111, ,0.001071382601415452, ,0.2298903121999152,-0.2012080823050454,0.10748447793000002,1.674793578610896,0.5580234650420588,-1.2835798586820484, ,0.1496797185464839,0.1437832447855618,0.040843106461538464,-0.015218888244362842,0.19317584101467639,-0.18678426986909427, ,1.2619891166687012
0.01755011425710807,0.020396664625626178,-0.09602164178605832, ,0.018313032750376868,0.019960499667105173,-0.09692995052019072, ,0.0012638470061341976, ,0.022496974452202844,-0.005961129794161962,-0.03863060118481754,0.043657238836747075,0.03918431364970649,-0.037934581775179256, ,0.04509958176997143, ,0.05866241477794111, ,0.0010731010336004407, ,0.2298903121999152,-0.2012080823050454,0.10748447793000002,1.674793578610896,0.5580234650420588,-1.2835798586820484, ,0.1496797185464839,0.1437832447855618,0.040843106461538464,-0.015218888244362842,0.19317584101467639,-0.18678426986909427, ,1.2656121253967285
0.01755011425710807,0.020396664625626178,-0.09602164178605832, ,0.01839539146384481,0.019944835230919656,-0.09707317410412848, ,0.001422801312234261, ,0.022496974452202844,-0.005961129794161962,-0.03863060118481754,0.043657238836747075,0.03918431364970649,-0.037934581775179256, ,0.04509958176997143, ,0.05866241477794111, ,0.0010761957263317136, ,0.2298903121999152,-0.2012080823050454,0.10748447793000002,1.674793578610896,0.5580234650420588,-1.2835798586820484, ,0.1496797185464839,0.1437832447855618,0.040843106461538464,-0.015218888244362842,0.19317584101467639,-0.18678426986909427, ,1.2692861557006836
0.017776791476667907,0.020338133607085834,-0.09641046734175392, ,0.01847767324827442,0.019929182799078356,-0.09721592785405239, ,0.0011433471292710603, ,0.022208756063318694,-0.0052200066486728655,-0.03842366045050698,-0.008724675862407856,0.007217409856650056,-0.007944155869435745, ,0.04468618352139773, ,0.011319329584111047, ,0.0010767847737259183, ,0.23138079964464053,-0.19979482218906228,0.10789540186000002,1.674374198723927,0.5597997395390095,-1.285191648910383, ,0.14334885431793168,0.1338461799132169,0.04063472326530613,-0.03200988215001661,0.15842095998961628,-0.12713554245718664, ,1.2729041576385498
0.017776791476667907,0.020338133607085834,-0.09641046734175392, ,0.01855987584398666,0.01991354722428867,-0.09735820987187181, ,0.00130065776674345, ,0.022208756063318694,-0.0052200066486728655,-0.03842366045050698,-0.008724675862407856,0.007217409856650056,-0.007944155869435745, ,0.04468618352139773, ,0.011319329584111047, ,0.0010787314954043316, ,0.23138079964464053,-0.19979482218906228,0.10789540186000002,1.674374198723927,0.5597997395390095,-1.285191648910383, ,0.14334885431793168,0.1338461799132169,0.04063472326530613,-0.03200988215001661,0.15842095998961628,-0.12713554245718664, ,1.276689052581787
0.017776791476667907,0.020338133607085834,-0.09641046734175392, ,0.018641997017138583,0.019897933325398347,-0.09750001828196264, ,0.001459273163793748, ,0.022208756063318694,-0.0052200066486728655,-0.03842366045050698,-0.008724675862407856,0.007217409856650056,-0.007944155869435745, ,0.04468618352139773, ,0.011319329584111047, ,0.0010820120270283783, ,0.23138079964464053,-0.19979482218906228,0.10789540186000002,1.674374198723927,0.5597997395390095,-1.285191648910383, ,0.14334885431793168,0.1338461799132169,0.04063472326530613,-0.03200988215001661,0.15842095998961628,-0.12713554245718664, ,1.2804901599884033
0.018013163431826518,0.020283647629815972,-0.09682028924238364, ,0.018724034559641396,0.01988234588747581,-0.09764135123110819, ,0.0011578098453953268, ,0.022746474862178005,-0.004995341264570328,-0.04024377307681668,-0.04296189400008456,-0.03214962583905031,0.08572771034287115, ,0.046496417329333344, ,0.053658337833978435, ,0.0010826598716298051, ,0.2328867325551143,-0.19842017573745033,0.10832836272000002,1.6733257490065043,0.5613027410364293,-1.286498924591184, ,0.14184894104405196,0.12946376747403926,0.042476830720000004,-0.12897153606229508,0.13627995580194247,-0.11102787159497512, ,1.2840571403503418
0.018013163431826518,0.020283647629815972,-0.09682028924238364, ,0.018805986289078633,0.019866789661893123,-0.0977822068884424, ,0.00131439119222604, ,0.022746474862178005,-0.004995341264570328,-0.04024377307681668,-0.04296189400008456,-0.03214962583905031,0.08572771034287115, ,0.046496417329333344, ,0.053658337833978435, ,0.0010846236963806208, ,0.2328867325551143,-0.19842017573745033,0.10832836272000002,1.6733257490065043,0.5613027410364293,-1.286498924591184, ,0.14184894104405196,0.12946376747403926,0.042476830720000004,-0.12897153606229508,0.13627995580194247,-0.11102787159497512, ,1.2875781059265137
0.018013163431826518,0.020283647629815972,-0.09682028924238364, ,0.018887850048624245,0.019851269366406823,-0.09792258344539159, ,0.0014721005910802059, ,0.022746474862178005,-0.004995341264570328,-0.04024377307681668,-0.04296189400008456,-0.03214962583905031,0.08572771034287115, ,0.046496417329333344, ,0.053658337833978435, ,0.0010878798047394408, ,0.2328867325551143,-0.19842017573745033,0.10832836272000002,1.6733257490065043,0.5613027410364293,-1.286498924591184, ,0.14184894104405196,0.12946376747403926,0.042476830720000004,-0.12897153606229508,0.13627995580194247,-0.11102787159497512, ,1.2911159992218018
0.018234911563663088,0.020241383432745477,-0.09721298016956333, ,0.01896962370696071,0.01983578968523993,-0.09806247911561736, ,0.0011941342809213243, ,0.022034271813766736,-0.004185716138572745,-0.03958214606400069,-0.018581307697905558,-0.006807358594179206,0.004377725163960653, ,0.045494786964965, ,0.019786560204856026, ,0.0010887652587076233, ,0.23426137900672628,-0.19718453847757442,0.10874447181,1.6729063691195354,0.5626691060340837,-1.2876131036281484, ,0.1347967919864642,0.12324278124476726,0.04191792505263159,-0.04177300951532048,0.13734967083717187,-0.10955721690208399, ,1.294713020324707
0.018234911563663088,0.020241383432745477,-0.09721298016956333, ,0.01905130515819728,0.01982035526916391,-0.09820189213495877, ,0.0013497074094142008, ,0.022034271813766736,-0.004185716138572745,-0.03958214606400069,-0.018581307697905558,-0.006807358594179206,0.004377725163960653, ,0.045494786964965, ,0.019786560204856026, ,0.0010909218054076775, ,0.23426137900672628,-0.19718453847757442,0.10874447181,1.6729063691195354,0.5626691060340837,-1.2876131036281484, ,0.1347967919864642,0.12324278124476726,0.04191792505263159,-0.04177300951532048,0.13734967083717187,-0.10955721690208399, ,1.2984449863433838
0.01845767442470631,0.02020183023069779,-0.0976186744300974, ,0.019132892321787984,0.019804970735579994,-0.09834082076137418, ,0.0010653224822470707, ,0.02185401254339163,-0.003402192333360549,-0.04012940320954477,0.015283966381584371,0.02677327562291953,-0.0407353286016651, ,0.04582075707443208, ,0.030826998699540767, ,0.0010907119748899679, ,0.23561285725971556,-0.19594890121769848,0.10917484009000002,1.6726966791760507,0.5641721075315036,-1.2888387005688091, ,0.1319846196918926,0.11803102183889398,0.04270458852546917,0.005075537336089591,0.15909983216105733,-0.1275192409394289, ,1.302443027496338
0.01845767442470631,0.02020183023069779,-0.0976186744300974, ,0.019214383142449862,0.019789640668601075,-0.09847926327488414, ,0.001217834750030539, ,0.02185401254339163,-0.003402192333360549,-0.04012940320954477,0.015283966381584371,0.02677327562291953,-0.0407353286016651, ,0.04582075707443208, ,0.030826998699540767, ,0.0010917454933870457, ,0.23561285725971556,-0.19594890121769848,0.10917484009000002,1.6726966791760507,0.5641721075315036,-1.2888387005688091, ,0.1319846196918926,0.11803102183889398,0.04270458852546917,0.005075537336089591,0.15909983216105733,-0.1275192409394289, ,1.3062729835510254
0.01845767442470631,0.02020183023069779,-0.0976186744300974, ,0.01929577559008105,0.01977436961913327,-0.0986172179775136, ,0.0013719421831579297, ,0.02185401254339163,-0.003402192333360549,-0.04012940320954477,0.015283966381584371,0.02677327562291953,-0.0407353286016651, ,0.04582075707443208, ,0.030826998699540767, ,0.0010940051441110043, ,0.23561285725971556,-0.19594890121769848,0.10917484009000002,1.6726966791760507,0.5641721075315036,-1.2888387005688091, ,0.1319846196918926,0.11803102183889398,0.04270458852546917,0.005075537336089591,0.15909983216105733,-0.1275192409394289, ,1.310176134109497
0.01867405857596101,0.020171156083636402,-0.09802470956185709, ,0.01937706765967896,0.01975916210495775,-0.09875468319323376, ,0.0010939937443891791, ,0.021263689026727962,-0.0028641000128484667,-0.04002614588774122,0.012038113629406922,0.022485598849184767,-0.03271193332850043, ,0.045414093567258756, ,0.025503246857132015, ,0.0010940050529132297, ,0.2368871081839626,-0.1947904912865648,0.10960650466,1.6729063691195354,0.5656751090289234,-1.2900642975094696, ,0.12453666871190391,0.1111205404665934,0.04259040513368984,-0.001394825721329655,0.1485605271777719,-0.11907435296375087, ,1.313889980316162
0.01867405857596101,0.020171156083636402,-0.09802470956185709, ,0.019458257371258256,0.019744022610812727,-0.09889165726790572, ,0.0012445919327936563, ,0.021263689026727962,-0.0028641000128484667,-0.04002614588774122,0.012038113629406922,0.022485598849184767,-0.03271193332850043, ,0.045414093567258756, ,0.025503246857132015, ,0.0010952001868805347, ,0.2368871081839626,-0.1947904912865648,0.10960650466,1.6729063691195354,0.5656751090289234,-1.2900642975094696, ,0.12453666871190391,0.1111205404665934,0.04259040513368984,-0.001394825721329655,0.1485605271777719,-0.11907435296375087, ,1.3175110816955566
0.01867405857596101,0.020171156083636402,-0.09802470956185709, ,0.019539342769769232,0.01972895558847454,-0.09902813856922055, ,0.001396827758456338, ,0.021263689026727962,-0.0028641000128484667,-0.04002614588774122,0.012038113629406922,0.022485598849184767,-0.03271193332850043, ,0.045414093567258756, ,0.025503246857132015, ,0.0010975752071291632, ,0.2368871081839626,-0.1947904912865648,0.10960650466,1.6729063691195354,0.5656751090289234,-1.2900642975094696, ,0.12453666871190391,0.1111205404665934,0.04259040513368984,-0.001394825721329655,0.1485605271777719,-0.11907435296375087, ,1.3211660385131836
0.018888230043566254,0.020139175374365388,-0.0984276951445602, ,0.019620321925015814,0.019713965456839802,-0.09916412548664415, ,0.001122092529869236, ,0.020918268493689243,-0.0031815888552292563,-0.038619786015482764,-0.01615184202293347,-0.008115600425406275,0.03768322432737281, ,0.04403617077243966, ,0.018073711845981468, ,0.0010977667487130699, ,0.23813046817671277,-0.1936861404855507,0.11003428036000001,1.6720676093455973,0.5670414740265779,-1.2911784765464338, ,0.12228987314235924,0.10698640536467957,0.04105363793814434,-0.07345063119281776,0.12933533131677347,-0.1037971563947742, ,1.3248131275177002
0.018888230043566254,0.020139175374365388,-0.0984276951445602, ,0.019701192931573592,0.019699056602007055,-0.09929961643135773, ,0.001270771388342567, ,0.020918268493689243,-0.0031815888552292563,-0.038619786015482764,-0.01615184202293347,-0.008115600425406275,0.03768322432737281, ,0.04403617077243966, ,0.018073711845981468, ,0.0010991078699505077, ,0.23813046817671277,-0.1936861404855507,0.11003428036000001,1.6720676093455973,0.5670414740265779,-1.2911784765464338, ,0.12228987314235924,0.10698640536467957,0.04105363793814434,-0.07345063119281776,0.12933533131677347,-0.1037971563947742, ,1.328416109085083
0.019092102755462425,0.0201064901286881,-0.09880020087155243, ,0.019781953908708214,0.01968423337735833,-0.09943460983620106, ,0.001027944605562313, ,0.020918268493689243,-0.0031815888552292563,-0.038619786015482764,-0.01615184202293347,-0.008115600425406275,0.03768322432737281, ,0.04403617077243966, ,0.018073711845981468, ,0.0010985604602244449, ,0.23813046817671277,-0.1936861404855507,0.11003428036000001,1.6720676093455973,0.5670414740265779,-1.2911784765464338, ,0.12228987314235924,0.10698640536467957,0.04105363793814434,-0.07345063119281776,0.12933533131677347,-0.1037971563947742, ,1.332129955291748
0.019092102755462425,0.0201064901286881,-0.09880020087155243, ,0.01986260300029322,0.019669500103641248,-0.09956910415561442, ,0.0011729634135453956, ,0.020044947822924597,-0.0031068762391750658,-0.03639863160119063,0.003119397344869399,0.01113347644112968,0.020183302227323712, ,0.04166908921045087, ,0.01155945710572331, ,0.0010991284217001772, ,0.2393352145050918,-0.1926435715475304,0.11043094510000001,1.671228849571659,0.5684078390242323,-1.292292655583398, ,0.11891847313091576,0.10203972210588257,0.03885075980487805,-0.05502697152570027,0.14161165409628537,-0.11407836960604947, ,1.3361620903015137
0.019092102755462425,0.0201064901286881,-0.09880020087155243, ,0.019943138374728393,0.019654861069049956,-0.09970309786558074, ,0.0013203989603882578, ,0.020044947822924597,-0.0031068762391750658,-0.03639863160119063,0.003119397344869399,0.01113347644112968,0.020183302227323712, ,0.04166908921045087, ,0.01155945710572331, ,0.0011008047136599355, ,0.2393352145050918,-0.1926435715475304,0.11043094510000001,1.671228849571659,0.5684078390242323,-1.292292655583398, ,0.11891847313091576,0.10203972210588257,0.03885075980487805,-0.05502697152570027,0.14161165409628537,-0.11407836960604947, ,1.3398499488830566
0.019288089049940168,0.020078711024124073,-0.099152120406559, ,0.020023558224857865,0.01964032052930764,-0.09983658946356898, ,0.001096174722935919, ,0.019876043068386657,-0.002971566387865157,-0.03537228315095812,0.018845818549810114,0.024210195994058093,-0.0019941154984649753, ,0.04068274462429258, ,0.0306796853253604, ,0.0011007699016996044, ,0.2405090699019739,-0.19165506173962965,0.11080816549000001,1.671228849571659,0.5699108405216521,-1.2935182525240587, ,0.11936722208612675,0.09926458322015773,0.03792574171428572,-0.03202390245309112,0.15076051877912267,-0.12173344270017988, ,1.343623161315918
0.019288089049940168,0.020078711024124073,-0.099152120406559, ,0.020103860767888084,0.019625882707748107,-0.09996957746847533, ,0.0012404729049811849, ,0.019876043068386657,-0.002971566387865157,-0.03537228315095812,0.018845818549810114,0.024210195994058093,-0.0019941154984649753, ,0.04068274462429258, ,0.0306796853253604, ,0.0011018124614255865, ,0.2405090699019739,-0.19165506173962965,0.11080816549000001,1.671228849571659,0.5699108405216521,-1.2935182525240587, ,0.11936722208612675,0.09926458322015773,0.03792574171428572,-0.03202390245309112,0.15076051877912267,-0.12173344270017988, ,1.3472111225128174
0.019288089049940168,0.020078711024124073,-0.099152120406559, ,0.02018404424530617,0.01961155179539673,-0.1001020604205651, ,0.0013868523667998564, ,0.019876043068386657,-0.002971566387865157,-0.03537228315095812,0.018845818549810114,0.024210195994058093,-0.0019941154984649753, ,0.04068274462429258, ,0.0306796853253604, ,0.0011039238681320627, ,0.2405090699019739,-0.19165506173962965,0.11080816549000001,1.671228849571659,0.5699108405216521,-1.2935182525240587, ,0.11936722208612675,0.09926458322015773,0.03792574171428572,-0.03202390245309112,0.15076051877912267,-0.12173344270017988, ,1.350790023803711
0.01948836021057627,0.020049654088441657,-0.09950452238051331, ,0.020264106922797887,0.01959733195105329,-0.10023403688141724, ,0.0011569657231410688, ,0.019159459119613535,-0.002729606859900021,-0.03374446362171297,0.010568663535230872,0.011731218662194273,-0.012594826668969997, ,0.0389001857641177, ,0.015788425720652286, ,0.0011043138817718346, ,0.24171381623035293,-0.19065882919885468,0.11118668217000001,1.671228849571659,0.571413842019072,-1.2947438494647194, ,0.11378530162886184,0.09358672737521774,0.03620184436363637,-0.018462888088354647,0.12994813963285903,-0.10491595263203299, ,1.3543550968170166
0.01948836021057627,0.020049654088441657,-0.09950452238051331, ,0.020344047090165865,0.019583227301372824,-0.10036550543386423, ,0.001300402169236347, ,0.019159459119613535,-0.002729606859900021,-0.03374446362171297,0.010568663535230872,0.011731218662194273,-0.012594826668969997, ,0.0389001857641177, ,0.015788425720652286, ,0.0011057451831401888, ,0.24171381623035293,-0.19065882919885468,0.11118668217000001,1.671228849571659,0.571413842019072,-1.2947438494647194, ,0.11378530162886184,0.09358672737521774,0.03620184436363637,-0.018462888088354647,0.12994813963285903,-0.10491595263203299, ,1.357936143875122
0.01948836021057627,0.020049654088441657,-0.09950452238051331, ,0.020423863061247625,0.01956924194094766,-0.10049646468193586, ,0.0014456524286374944, ,0.019159459119613535,-0.002729606859900021,-0.03374446362171297,0.010568663535230872,0.011731218662194273,-0.012594826668969997, ,0.0389001857641177, ,0.015788425720652286, ,0.0011082082791220534, ,0.24171381623035293,-0.19065882919885468,0.11118668217000001,1.671228849571659,0.571413842019072,-1.2947438494647194, ,0.11378530162886184,0.09358672737521774,0.03620184436363637,-0.018462888088354647,0.12994813963285903,-0.10491595263203299, ,1.3614771366119385
0.01966707822551432,0.020020848132959807,-0.09981370448008697, ,0.020503553173833927,0.01955537993238919,-0.100626913250801, ,0.0012560491589404296, ,0.019397443228826538,-0.003208700108931801,-0.033533302826406874,0.016269122803611282,0.02040959745554558,-0.004120336989853526, ,0.03887208456787614, ,0.026099686273095796, ,0.0011092718825739842, ,0.24278727609987014,-0.1897784376511931,0.11151853241000001,1.6708094696846902,0.5726435705169609,-1.2957466105979871, ,0.1168681546286586,0.09683361383517426,0.03603803511312218,-0.029363870073015184,0.14380078864956972,-0.11632198094020905, ,1.365044116973877
0.01966707822551432,0.020020848132959807,-0.09981370448008697, ,0.02058311578958659,0.019541645306409595,-0.10075684978671022, ,0.0013993867360992916, ,0.019397443228826538,-0.003208700108931801,-0.033533302826406874,0.016269122803611282,0.02040959745554558,-0.004120336989853526, ,0.03887208456787614, ,0.026099686273095796, ,0.0011113441315277364, ,0.24278727609987014,-0.1897784376511931,0.11151853241000001,1.6708094696846902,0.5726435705169609,-1.2957466105979871, ,0.1168681546286586,0.09683361383517426,0.03603803511312218,-0.029363870073015184,0.14380078864956972,-0.11632198094020905, ,1.3686800003051758
0.019859586511056553,0.01998784762119698,-0.10015577597691197, ,0.02066254929395697,0.01952804206190315,-0.10088627295693771, ,0.0011788961875022807, ,0.019397443228826538,-0.003208700108931801,-0.033533302826406874,0.016269122803611282,0.02040959745554558,-0.004120336989853526, ,0.03887208456787614, ,0.026099686273095796, ,0.0011118232241233005, ,0.24393024056525536,-0.18882854150766348,0.11188538248000002,1.6697610199672674,0.5741465720143808,-1.2969722075386478, ,0.11270420612644985,0.08918885484818684,0.03563492510067114,-0.1291606032044892,0.14331068772183253,-0.1160178115344844, ,1.372467041015625
0.019859586511056553,0.01998784762119698,-0.10015577597691197, ,0.020741852096103703,0.019514574166028444,-0.10101518144972417, ,0.0013194537099213875, ,0.018909421349520082,-0.003057648873689888,-0.033156243621406505,-0.00046090330103170274,0.005499332617728759,0.09256552637074103, ,0.03829166911340537, ,0.00551498145262139, ,0.0011132854106430054, ,0.24393024056525536,-0.18882854150766348,0.11188538248000002,1.6697610199672674,0.5741465720143808,-1.2969722075386478, ,0.11270420612644985,0.08918885484818684,0.03563492510067114,-0.1291606032044892,0.14331068772183253,-0.1160178115344844, ,1.3770689964294434
0.019859586511056553,0.01998784762119698,-0.10015577597691197, ,0.020821022628811272,0.019501245554289937,-0.10114357397421858, ,0.0014618091063898944, ,0.018909421349520082,-0.003057648873689888,-0.033156243621406505,-0.00046090330103170274,0.005499332617728759,0.09256552637074103, ,0.03829166911340537, ,0.00551498145262139, ,0.001115722639284592, ,0.24393024056525536,-0.18882854150766348,0.11188538248000002,1.6697610199672674,0.5741465720143808,-1.2969722075386478, ,0.11270420612644985,0.08918885484818684,0.03563492510067114,-0.1291606032044892,0.14331068772183253,-0.1160178115344844, ,1.380821943283081
0.02006947064447811,0.019960569458720216,-0.10051848228617914, ,0.020900059348407725,0.019488060130619496,-0.10127144926042068, ,0.001216594396064743, ,0.020417613075046696,-0.00218129532836604,-0.03489538120693284,0.01467642275402365,0.0017354491629453152,-0.07171071623854727, ,0.0404885737285105, ,0.014776922110716103, ,0.0011164231375955654, ,0.24515815509225705,-0.18787864536413387,0.11227556577000002,1.669131950136814,0.5753763005122697,-1.2978932899317748, ,0.11891847313091576,0.09186538389009755,0.03765676482269504,0.04380577552230381,0.11307323686373102,-0.09293712926552859, ,1.3844590187072754
0.02006947064447811,0.019960569458720216,-0.10051848228617914, ,0.020978960734683104,0.019475021767458175,-0.10139880605912364, ,0.0013556912369275798, ,0.020417613075046696,-0.00218129532836604,-0.03489538120693284,0.01467642275402365,0.0017354491629453152,-0.07171071623854727, ,0.0404885737285105, ,0.014776922110716103, ,0.0011180732624185448, ,0.24515815509225705,-0.18787864536413387,0.11227556577000002,1.669131950136814,0.5753763005122697,-1.2978932899317748, ,0.11891847313091576,0.09186538389009755,0.03765676482269504,0.04380577552230381,0.11307323686373102,-0.09293712926552859, ,1.3880460262298584
0.02006947064447811,0.019960569458720216,-0.10051848228617914, ,0.021057725290807374,0.01946213430583827,-0.10152564314185587, ,0.0014964818197450024, ,0.020417613075046696,-0.00218129532836604,-0.03489538120693284,0.01467642275402365,0.0017354491629453152,-0.07171071623854727, ,0.0404885737285105, ,0.014776922110716103, ,0.0011206651018522877, ,0.24515815509225705,-0.18787864536413387,0.11227556577000002,1.669131950136814,0.5753763005122697,-1.2978932899317748, ,0.11891847313091576,0.09186538389009755,0.03765676482269504,0.04380577552230381,0.11307323686373102,-0.09293712926552859, ,1.391606092453003
0.02027181430285102,0.01993866849916201,-0.10087192729470487, ,0.021136351543248798,0.019449401555464454,-0.10165195930082356, ,0.0012630347235128958, ,0.02051703618694684,-0.001860907914595554,-0.037042451765147866,0.046718741118364576,0.04140237476641554,-0.05780172757289087, ,0.042385787534696066, ,0.062423774840243244, ,0.0011216336026799109, ,0.24632428775626497,-0.18697508561784962,0.11265667503000001,1.669131950136814,0.5766060290101588,-1.2988143723249022, ,0.1170122583951551,0.0914228724070046,0.040022139497487445,0.025490565819718543,0.15446407474531496,-0.12882150567026757, ,1.395216941833496
0.02027181430285102,0.01993866849916201,-0.10087192729470487, ,0.021214838041691733,0.019436827294795785,-0.10177775334885347, ,0.0014005924484985922, ,0.02051703618694684,-0.001860907914595554,-0.037042451765147866,0.046718741118364576,0.04140237476641554,-0.05780172757289087, ,0.042385787534696066, ,0.062423774840243244, ,0.0011235184597462534, ,0.24632428775626497,-0.18697508561784962,0.11265667503000001,1.669131950136814,0.5766060290101588,-1.2988143723249022, ,0.1170122583951551,0.0914228724070046,0.040022139497487445,0.025490565819718543,0.15446407474531496,-0.12882150567026757, ,1.398792028427124
0.02027181430285102,0.01993866849916201,-0.10087192729470487, ,0.021293183358955095,0.01942441527112751,-0.10190302411933412, ,0.0015397440673928088, ,0.02051703618694684,-0.001860907914595554,-0.037042451765147866,0.046718741118364576,0.04140237476641554,-0.05780172757289087, ,0.042385787534696066, ,0.062423774840243244, ,0.001126311920200257, ,0.24632428775626497,-0.18697508561784962,0.11265667503000001,1.669131950136814,0.5766060290101588,-1.2988143723249022, ,0.1170122583951551,0.0914228724070046,0.040022139497487445,0.025490565819718543,0.15446407474531496,-0.12882150567026757, ,1.4024269580841064
0.020485612232284022,0.01992169366204238,-0.10125549340069417, ,0.02137138609091025,0.01941216920067279,-0.10202777046615916, ,0.0012808678195671765, ,0.021580567218889377,-0.0015655341972481405,-0.037400517594713405,0.003751405340255884,-0.017333625145359705,-0.029424105715539987, ,0.04320845397794537, ,0.017732862810004864, ,0.0011273422928627032, ,0.24753675681751822,-0.1860560804058169,0.11307148783000001,1.6693416400802985,0.5781090305075786,-1.3000399692655629, ,0.12166274558778303,0.08746261894789933,0.040428455634517774,0.0,0.1048638556968177,-0.08827676670924424, ,1.406554937362671
0.020485612232284022,0.01992169366204238,-0.10125549340069417, ,0.02144944485639923,0.019400092768643892,-0.10215199126366967, ,0.0014158916758080524, ,0.021580567218889377,-0.0015655341972481405,-0.037400517594713405,0.003751405340255884,-0.017333625145359705,-0.029424105715539987, ,0.04320845397794537, ,0.017732862810004864, ,0.0011292532159285665, ,0.24753675681751822,-0.1860560804058169,0.11307148783000001,1.6693416400802985,0.5781090305075786,-1.3000399692655629, ,0.12166274558778303,0.08746261894789933,0.040428455634517774,0.0,0.1048638556968177,-0.08827676670924424, ,1.4102129936218262
0.020703641301747667,0.0199009898285136,-0.10162715479622683, ,0.021527358297152945,0.019388189629334782,-0.10227568540659553, ,0.0011670756982229231, ,0.021651782083231808,-0.0020033935170285324,-0.0371902556863786,0.0018514235865998013,-0.015045820385376019,-0.003222949302057396, ,0.043080487125635496, ,0.015156956657936795, ,0.001129502048048924, ,0.24878011681026835,-0.18516024339240683,0.11347333773000001,1.6689222601933293,0.579202122505702,-1.300931312495134, ,0.12260586764660306,0.08927275781605906,0.04022427151515152,-0.02870427231366819,0.1134009671787661,-0.09504885026093537, ,1.4138989448547363
0.020703641301747667,0.0199009898285136,-0.10162715479622683, ,0.021605125077709123,0.01937646340620194,-0.10239885180999836, ,0.0012974271644638424, ,0.021651782083231808,-0.0020033935170285324,-0.0371902556863786,0.0018514235865998013,-0.015045820385376019,-0.003222949302057396, ,0.043080487125635496, ,0.015156956657936795, ,0.0011305995978294137, ,0.24878011681026835,-0.18516024339240683,0.11347333773000001,1.6689222601933293,0.579202122505702,-1.300931312495134, ,0.12260586764660306,0.08927275781605906,0.04022427151515152,-0.02870427231366819,0.1134009671787661,-0.09504885026093537, ,1.4174950122833252
0.020703641301747667,0.0199009898285136,-0.10162715479622683, ,0.021682743885330622,0.019364917691946593,-0.10252148940921418, ,0.0014303319911019153, ,0.021651782083231808,-0.0020033935170285324,-0.0371902556863786,0.0018514235865998013,-0.015045820385376019,-0.003222949302057396, ,0.043080487125635496, ,0.015156956657936795, ,0.0011325459120714429, ,0.24878011681026835,-0.18516024339240683,0.11347333773000001,1.6689222601933293,0.579202122505702,-1.300931312495134, ,0.12260586764660306,0.08927275781605906,0.04022427151515152,-0.02870427231366819,0.1134009671787661,-0.09504885026093537, ,1.4210569858551025
0.020911394312416343,0.019876361571994842,-0.10198121038291397, ,0.021760213429923566,0.019353556048596725,-0.10264359715979579, ,0.0011969025656791, ,0.02096457896459726,-0.0028623162795525458,-0.03584565770035787,0.002128230903233805,-0.002715344817450816,0.051729381540765805, ,0.041624723441943144, ,0.0034414071528204165, ,0.0011329611162882664, ,0.2499616949400247,-0.18428757457761946,0.11385574328,1.6680835004193915,0.5802952145038256,-1.3018226557247057, ,0.12027495761529881,0.0914228724070046,0.03875623240875913,-0.0886214685619234,0.13439125840740823,-0.11200521851759437, ,1.4247140884399414
0.020911394312416343,0.019876361571994842,-0.10198121038291397, ,0.021837532443955192,0.01934238200758765,-0.10276517403745354, ,0.001325694167420906, ,0.02096457896459726,-0.0028623162795525458,-0.03584565770035787,0.002128230903233805,-0.002715344817450816,0.051729381540765805, ,0.041624723441943144, ,0.0034414071528204165, ,0.0011341965845647576, ,0.2499616949400247,-0.18428757457761946,0.11385574328,1.6680835004193915,0.5802952145038256,-1.3018226557247057, ,0.12027495761529881,0.0914228724070046,0.03875623240875913,-0.0886214685619234,0.13439125840740823,-0.11200521851759437, ,1.4283580780029297
0.020911394312416343,0.019876361571994842,-0.10198121038291397, ,0.021914699682372297,0.019331399069844983,-0.10288621903799963, ,0.0014569304924778855, ,0.02096457896459726,-0.0028623162795525458,-0.03584565770035787,0.002128230903233805,-0.002715344817450816,0.051729381540765805, ,0.041624723441943144, ,0.0034414071528204165, ,0.0011362522145514655, ,0.2499616949400247,-0.18428757457761946,0.11385574328,1.6680835004193915,0.5802952145038256,-1.3018226557247057, ,0.12027495761529881,0.0914228724070046,0.03875623240875913,-0.0886214685619234,0.13439125840740823,-0.11200521851759437, ,1.4319369792938232
0.021133310483312167,0.01984660588182927,-0.1023465792930716, ,0.02199171392251934,0.01932061070586561,-0.10300673117728945, ,0.0012038803511213738, ,0.020332719857049465,-0.0033262299633195014,-0.03263006205698634,0.026057567885792155,0.020152969681052884,0.010013861769106017, ,0.038590209281590036, ,0.0329408870652868, ,0.0011366802407322876, ,0.25127455952864286,-0.18330678750259297,0.11425370431000001,1.6680835004193915,0.5819348525010108,-1.3031596705690625, ,0.1221324859182378,0.09151103332542987,0.03555538285714287,-0.04633250652920005,0.15140650151552265,-0.12572391959309623, ,1.4354839324951172
0.021133310483312167,0.01984660588182927,-0.1023465792930716, ,0.022068573964056364,0.019310020355799762,-0.10312670949116397, ,0.0013308812610949735, ,0.020332719857049465,-0.0033262299633195014,-0.03263006205698634,0.026057567885792155,0.020152969681052884,0.010013861769106017, ,0.038590209281590036, ,0.0329408870652868, ,0.0011379016307974618, ,0.25127455952864286,-0.18330678750259297,0.11425370431000001,1.6680835004193915,0.5819348525010108,-1.3031596705690625, ,0.1221324859182378,0.09151103332542987,0.03555538285714287,-0.04633250652920005,0.15140650151552265,-0.12572391959309623, ,1.439054012298584
0.02132178693760298,0.019818327920383773,-0.10264423228099029, ,0.02214527862887725,0.01929963142953221,-0.1032461530353919, ,0.0011443309004824146, ,0.020332719857049465,-0.0033262299633195014,-0.03263006205698634,0.026057567885792155,0.020152969681052884,0.010013861769106017, ,0.038590209281590036, ,0.0329408870652868, ,0.0011379418137329928, ,0.25240980126115387,-0.1824727323521767,0.11457907310000001,1.6680835004193915,0.5833012174986653,-1.3042738496060267, ,0.12486439678746157,0.08877169462906527,0.03470329307189543,-0.03187146401706354,0.14854312186475363,-0.12327026172837413, ,1.4431531429290771
0.02132178693760298,0.019818327920383773,-0.10264423228099029, ,0.02222182676102797,0.019289447306764924,-0.10336506088561279, ,0.0012686135205233918, ,0.020495997220905938,-0.0031821060210221745,-0.031670987469003715,0.02976888543986225,0.017230793942325975,-0.003073580327194783, ,0.0378584620404765, ,0.034395565639301184, ,0.0011387534392410077, ,0.25240980126115387,-0.1824727323521767,0.11457907310000001,1.6680835004193915,0.5833012174986653,-1.3042738496060267, ,0.12486439678746157,0.08877169462906527,0.03470329307189543,-0.03187146401706354,0.14854312186475363,-0.12327026172837413, ,1.4468939304351807
0.02132178693760298,0.019818327920383773,-0.10264423228099029, ,0.022298217226624468,0.019279471337097617,-0.1034834321372782, ,0.0013957216504242786, ,0.020495997220905938,-0.0031821060210221745,-0.031670987469003715,0.02976888543986225,0.017230793942325975,-0.003073580327194783, ,0.0378584620404765, ,0.034395565639301184, ,0.0011403396627668303, ,0.25240980126115387,-0.1824727323521767,0.11457907310000001,1.6680835004193915,0.5833012174986653,-1.3042738496060267, ,0.12486439678746157,0.08877169462906527,0.03470329307189543,-0.03187146401706354,0.14854312186475363,-0.12327026172837413, ,1.4506440162658691
0.02153090455748955,0.019784814376689795,-0.10296390987119504, ,0.02237444891377095,0.019269706840110402,-0.10360126590559518, ,0.0011760635909003234, ,0.020752081791166135,-0.00332193233772558,-0.031169280080517506,0.006795756610322233,-0.01224077516349994,-0.031226689270177, ,0.037592660904243284, ,0.01399962374876453, ,0.0011405588279701034, ,0.2536763294525267,-0.18156144987301823,0.11492907140000001,1.6678738104759065,0.5846675824963197,-1.3054697073831316, ,0.12486439678746157,0.09003504891695518,0.03410880411134904,0.0,0.11311652305828997,-0.09375333785911368, ,1.454340934753418
