NicholasDascanio/dvrk_moveit_final/test/execution/third_experiment_notsharpbends/thirdexp_300vel4.0/thirdexp_300vel4.0_30.csv
Current Position (x),Current Position (y),Current Position (z), ,Planned Position (x),Planned Position (y),Planned Position (z), ,Position Error,,Cartesian linear Velocity(x),Cartesian linear Velocity(y),Cartesian linear Velocity(z),Cartesian Angular Velocity(x),Cartesian Angular Velocity(y),Cartesian Angular Velocity(z), ,Total Linear Velocity, ,Total Angular Velocity, ,MSE, ,Joint 1 Position,Joint 2 Position,Joint 3 Position,Joint 4 Position,Joint 5 Position,Joint 6 Position, ,Joint 1 Velocity,Joint 2 Velocity,Joint 3 Velocity,Joint 4 Velocity,Joint 5 Velocity,Joint 6 Velocity, ,Time Stamp
0.009592358706707417,0.020337087270456886,-0.07965941965385098, ,0.009751769491381375,0.020316322737110554,-0.07981042425858129, ,0.00022055691955867826, ,0.00014977830863366213,0.00018531457906579413,-0.0005159942375294186,0.10655592157720328,0.0014290826235654394,-0.03717946864947821, ,0.0005683529608571236, ,0.1065655042699655, ,1.8379743296556522e-05, ,0.17513613612166343,-0.24247836678490114,0.09032548720000001,1.6844393160111841,0.5125235106201671,-1.2336541345490717, ,0.000726716977660836,-0.0007022987108425596,0.0005602949593835595,-0.0012744688501809347,0.0,-0.11288406619638414, ,0.035926103591918945
0.009627278234666733,0.02035040593160746,-0.07971624684175406, ,0.009789032436169085,0.02035938960786682,-0.07993682026891144, ,0.0002736745602184255, ,0.0016395630877818989,0.0007444574693737787,-0.0031144032901772203,0.07403712677469843,-0.11997732812732356,-0.060240222392266174, ,0.0035974841064819203, ,0.14098246488599647, ,2.2465067262595622e-05, ,0.1751593043202861,-0.24248608951777537,0.09037215364000001,1.6844393160111841,0.5097907806248584,-1.238776863087794, ,0.0010839730070302844,-0.00044644870941726994,0.002874199119451462,-0.0012744688501809347,-0.12487409930139283,-0.08777529597467026, ,0.07549619674682617
0.009686191296717411,0.02038134044541469,-0.07984814138523015, ,0.009827057257922227,0.02040127187943209,-0.08006326422111236, ,0.0002579114491567804, ,0.000990658707479615,0.0007888740984267212,-0.0031441592686502987,-0.19169628922487597,-0.04298837223133205,0.058720999486974824, ,0.0033896112645129877, ,0.19645729166762832, ,2.350446652918388e-05, ,0.17520564071753145,-0.24248608951777537,0.09049789377,1.6844393160111841,0.5058283221316605,-1.243305224193951, ,0.0015398441656619543,-0.0002758309088298704,0.003186399583916784,-0.0012744688501809347,-0.038485517565946266,0.20070259454989836, ,0.11113500595092773
0.009698944613748,0.02041776493323913,-0.07998385238605199, ,0.00986583569656497,0.02044198227020865,-0.08018975476005084, ,0.00026614826798624893, ,-1.7821105305748934e-05,0.0008140656151600606,-0.002955920443211719,0.012753553900468577,0.06609639832012845,0.011807868943559702, ,0.0030660212139150657, ,0.06731557774957868, ,2.4245028498098408e-05, ,0.17522880891615414,-0.24250153498352384,0.09064567083000001,1.6844393160111841,0.5074679601288459,-1.2394964784094529, ,0.0,-0.00021655973320569035,0.003317120266555602,0.0029762743285674585,0.06762504825507962,-0.007752307390446543, ,0.15500712394714355
0.009719668758623694,0.02044561176292814,-0.08007936328142479, ,0.009905359534468758,0.020481533440451533,-0.08031629053119077, ,0.00030315994595544646, ,0.0007317854665646734,0.0006832281921693807,-0.002796090152200908,-0.003508487929223345,-0.008203508233461165,0.0209400757472596, ,0.0029699210209844324, ,0.00892227743992898, ,2.541252197837653e-05, ,0.17529831351202216,-0.24250925771639806,0.09074807774,1.6850683858416375,0.5077412331283767,-1.2403727441379702, ,0.003026323738592781,-0.0008316036241757662,0.002948142054414215,-0.021497826067314523,0.0,0.000730585140743506, ,0.19164204597473145
0.009760756952394277,0.02048763799937588,-0.08023986345811789, ,0.009945620596364519,0.020519937992377557,-0.08044287018060595, ,0.0002764590128485766, ,0.0012031588009947082,0.0010161677900252504,-0.004154734426067069,-0.0078897100803544,-0.009517939713337928,0.01497645329933395, ,0.0044431977481362095, ,0.012362795003590141, ,2.6195248454494363e-05, ,0.17545276816950664,-0.2425247031821465,0.09091789173,1.6850683858416375,0.5077412331283767,-1.2401277079175486, ,0.005736698202909866,-0.00023523957977431402,0.004392943055708771,-0.013567995595895539,-0.00041419301321845686,0.006153720390033939, ,0.22723007202148438
0.009792802914286258,0.0205150366460834,-0.08034196760777186, ,0.00998661074925506,0.020557208470273577,-0.08056949235499077, ,0.0003018401070895791, ,0.0011101700906036393,0.0008336637514739751,-0.0033595799090517004,-0.0015135112737636844,-0.009288814902160613,0.009923887923396244, ,0.0036351409939500813, ,0.009411312248269604, ,2.7139289468767646e-05, ,0.17562266829273956,-0.24254014864789494,0.09102678009000001,1.6850683858416375,0.5077412331283767,-1.2399643504372673, ,0.006277719611529521,-0.00025677529544575406,0.0035706818022864834,-0.010490428335473981,-0.0005108090103383819,-5.2052999583952634e-05, ,0.25978517532348633
0.009827936996469512,0.02054742257341413,-0.08046125141738142, ,0.010028321902327412,0.020593357360604712,-0.08069615570167313, ,0.00031216043623195395, ,0.0010979548249279666,0.0010944670496015963,-0.004157690540605731,0.0013521750484158462,-0.00682996115576318,0.007378379712022078, ,0.004437313776564442, ,0.006962524363217275, ,2.799886960817328e-05, ,0.17579256841597252,-0.24256331684651763,0.09115381651000001,1.6850683858416375,0.5077412331283767,-1.2399643504372673, ,0.00437652874546154,-0.0008988910003100404,0.004402656583747927,-0.008408058023775623,-0.0004925026930574523,-0.002049215522222301, ,0.29218506813049316
0.009865706929961091,0.020580469766123533,-0.08059214757166751, ,0.010070746006864993,0.02062839709212292,-0.08082285886862392, ,0.0003123551731256675, ,0.0010562736385504486,0.0009274140775184517,-0.003489358323707232,0.0016844986952918965,-0.005651791613689008,-0.0004961256787232925, ,0.0037618389627814943, ,0.005897481138733971, ,2.8684839456492686e-05, ,0.1759701912720797,-0.24257103957939186,0.09129251954,1.6848586958981533,0.5077412331283767,-1.2398826716971267, ,0.0052490339248295725,-0.00043733419502198147,0.003713009678321679,0.0,-0.000446269013286159,-0.0013650426145168726, ,0.3262450695037842
0.009902148832604731,0.020615956200618582,-0.08072583730263279, ,0.010113875056160003,0.02066234003597529,-0.08094960050447028, ,0.00031152756606750215, ,0.001111030091508983,0.0011346253448070972,-0.004440814201280033,0.0014458537721138724,-0.003701347724927916,-0.001062226662067848, ,0.004716205392856369, ,0.00397372198122651, ,2.9234983899369674e-05, ,0.17610920046381573,-0.24257876231226608,0.09143381515000001,1.6850683858416375,0.5076045966286112,-1.2397712537934302, ,0.003884507986900655,-6.755699527756327e-05,0.00468908198999117,0.0006501311943732677,0.0,-0.001347394650446955, ,0.35969114303588867
0.009934330938036291,0.02064553750423198,-0.08084214996520256, ,0.010157701085425658,0.020695198505812615,-0.08107637925850682, ,0.00032745045375529947, ,0.001014983769906713,0.0009616410121765156,-0.0034426967969876467,0.0010343203732554838,-0.004707071726471138,-0.00044457734741764666, ,0.003715791534177196, ,0.004819371576156677, ,2.9841923509378847e-05, ,0.17624820965555177,-0.24257876231226608,0.09155696270000001,1.6850683858416375,0.5076045966286112,-1.2397712537934304, ,0.004860258672839632,-0.0009403439482889158,0.0036736188929889302,0.000637720277098346,0.0,0.0, ,0.3931159973144531
0.009967692019721272,0.020676306214241907,-0.08095609727641423, ,0.01020221617170843,0.020726984757897644,-0.0812031937807064, ,0.0003444220885567166, ,0.0013324118505057846,0.0011716596413900607,-0.004770571849969857,0.001996029217316191,-0.005772918241504621,-0.0009680254754438039, ,0.0050898392342347476, ,0.0061082497647520564, ,3.0768999829393635e-05, ,0.1764181097787847,-0.2425864850451403,0.09167751767000001,1.6852780757851225,0.5077412331283767,-1.2397193142168457, ,0.005825203947787282,0.0004893522507048017,0.0050359821435346196,0.0,0.0,-0.0026279567933724973, ,0.4222869873046875
0.010019801750941335,0.020718934567273976,-0.08112524794870386, ,0.010247412433800366,0.02075771099121364,-0.0813300427217325, ,0.0003086278228950743, ,0.0014634694685837198,0.0009325336332979597,-0.003433638856403541,-0.0018453231620335175,-0.010147228338283278,0.0009727584289855325, ,0.0038472376660290725, ,0.010313654058786186, ,3.1281096749556955e-05, ,0.17669612816225677,-0.24257876231226608,0.09185899827,1.6852780757851225,0.5078778696281421,-1.2395856959001204, ,0.010273436669062004,-0.0005007340918029273,0.003712144376602191,0.0,0.00018246213261026193,0.0024965696674676004, ,0.45643019676208496
0.010060190432410767,0.020746647578027567,-0.08123293482247809, ,0.010293282032151314,0.020787389347572394,-0.0814569247329498, ,0.00036060957059168427, ,0.0016141371778610144,0.0012637160151737986,-0.004735915899432052,0.002139804297579032,-0.009051410447026297,-0.00041076589528650726, ,0.005160553885238789, ,0.009300902705116628, ,3.213002595413564e-05, ,0.17695097834710619,-0.24257876231226608,0.09197436808000001,1.6852780757851225,0.5078778696281421,-1.2395856959001204, ,0.009257605783163895,-0.0005718890004788653,0.0050664158778625954,0.0,0.0001794942997903254,-0.0016608156295399423, ,0.48583412170410156
0.010096618707028913,0.02077710856197329,-0.08134521719058435, ,0.010339817168781188,0.020816031911723046,-0.08158383846643702, ,0.00034292948581883434, ,0.0017199408627488306,0.001286411095393633,-0.00518672827906346,0.002322835580498839,-0.008782957267586364,-0.0011441307631797422, ,0.0056138400688425065, ,0.009084927063246628, ,3.275241202794542e-05, ,0.17715949213471024,-0.2425864850451403,0.09209492305000001,1.6854877657286067,0.5080145061279076,-1.239615435063676, ,0.00958212560498211,0.0005003592090664177,0.005521251826689776,0.0002786766026955193,0.0007000682225582848,-0.0028861264726868807, ,0.5146951675415039
0.010146289600896898,0.02080913655506573,-0.08147428571196189, ,0.010387010087192151,0.02084365071146032,-0.08171078257499682, ,0.00033921725448334727, ,0.001575769336063178,0.0010588862698068303,-0.0038290162064582864,0.0007083090039340561,-0.0072008015119366655,0.0009894216048518156, ,0.004273833670392733, ,0.00723555410706705, ,3.328116516671106e-05, ,0.1774915696483019,-0.24257103957939186,0.09223362608,1.6854877657286067,0.508151142627673,-1.2398085317075132, ,0.011048590014015564,-0.0007405437750291452,0.004153536250325946,0.0002786766026955193,0.0039281744251247214,0.00036663688025668356, ,0.5439550876617432
0.010192698620858982,0.020840260487397948,-0.08159186678980762, ,0.010434853072280963,0.020870257717732793,-0.08183775571216878, ,0.0003464101244351478, ,0.0015419356037684533,0.0010516817040801176,-0.00419971685422975,0.0038789912985818607,-0.003752400974186316,-5.3992265509448514e-05, ,0.004595783009299621, ,0.005396951478295535, ,3.402261593970564e-05, ,0.1778082016961451,-0.24257876231226608,0.09236066250000001,1.6854877657286067,0.5082877791274385,-1.239838270871069, ,0.010047797006675156,0.0004006667357603908,0.004514969251700681,0.0002786766026955193,0.0063761891730588025,-0.004009091385604686, ,0.5686721801757812
0.01023101802390285,0.020867312133754163,-0.08169321648620602, ,0.010483338450251106,0.020895864844751335,-0.08196475653223938, ,0.00037177258029291493, ,0.00197526691535376,0.0014443464451875973,-0.00565587701497526,0.0049681166261324,-0.00568117740351177,-0.00337921012467181, ,0.006162528770654354, ,0.007547049338212178, ,3.485770511917423e-05, ,0.17804760641524608,-0.24257876231226608,0.09246955086000001,1.6856974556720912,0.5082877791274385,-1.2397565921309286, ,0.0119785402240205,0.0003110909861081688,0.00606349886562619,0.0033741733907694032,0.005596713894321052,-0.004563744905382943, ,0.5936980247497559
0.010295321497151101,0.020912050388166355,-0.08187120823356203, ,0.010532458588525024,0.020920483950097497,-0.08209178369025465, ,0.00032397323526378856, ,0.0019488323684829503,0.0012208579649110394,-0.004785442432182971,0.007689750965679029,-0.004105050832419409,-0.003288904062357225, ,0.005309322088804827, ,0.008716863526594548, ,3.5336563199590814e-05, ,0.1784646339904542,-0.24256331684651763,0.09265751291,1.6856974556720912,0.5086976886267348,-1.2400908458420177, ,0.013845483157057307,0.0004392181608600091,0.005178417269180755,0.0032295867416812373,0.009120249000074371,-0.007394936393312737, ,0.6189911365509033
0.010335339335076698,0.020935388226586082,-0.0819638502290206, ,0.010582205895656446,0.020944126834831815,-0.08221883584203134, ,0.00035501707684139474, ,0.0019336656397826162,0.00124787438775066,-0.00478749974306598,0.00682540513479343,-0.005151510350752881,-0.0030182485857257885, ,0.005311911810632479, ,0.0085512695918761, ,3.595530535156931e-05, ,0.1787503751068005,-0.2425555941136434,0.09276121611,1.6856974556720912,0.5086976886267348,-1.2399274883617366, ,0.013470112357483433,0.00010529157623977391,0.005183472671656362,0.003029462870286454,0.007744182741711932,-0.006220939855310761, ,0.6436631679534912
0.010374110105551193,0.020958046929884937,-0.08205893593081469, ,0.010632572821242471,0.02096680524360238,-0.08234591164416763, ,0.0003863091294754926, ,0.0019728269242702532,0.0011381880923441359,-0.0046451147022131215,-0.0044178383224791834,-0.011873384411656895,-0.001125463013692288, ,0.0051734523099566795, ,0.012668644389511954, ,3.6699073263251675e-05, ,0.17902067075739836,-0.24253242591502072,0.09286362302000001,1.6856974556720912,0.5088343251265002,-1.2398755487851518, ,0.013581929520319277,0.0008975032737018612,0.0049980582114841545,0.0028455910398605543,0.0011525849931185916,0.004359696131792861, ,0.6693971157073975
0.010434967002081394,0.020998014663892797,-0.0822131609746424, ,0.010683551855835846,0.020988530864753007,-0.08247300975405583, ,0.0003597301212365952, ,0.002311419362573615,0.0012485668644472573,-0.005039551817401426,-0.018945997359486703,-0.03192863703989657,0.0008595342587333038, ,0.005683191111070425, ,0.03712665721446737, ,3.724607649938909e-05, ,0.1794763119969776,-0.24251698044927228,0.09303214072,1.6859071456155759,0.5095175076253274,-1.2403509595634934, ,0.014944400245428468,0.0005799770022577091,0.00537228044519393,0.0007636435116177813,-0.017426358477203058,0.018342511523000208, ,0.694634199142456
0.010477765802512263,0.021023531560741656,-0.08231754773286273, ,0.010735135530857138,0.02100931533043152,-0.08260012882989247, ,0.00038248314298943163, ,0.0022187150800192404,0.0012737190561588096,-0.0051682593851968646,-0.0032899455945617803,-0.015060543543253984,7.032691070488759e-05, ,0.005766798237584037, ,0.015415696875133965, ,3.806569858182773e-05, ,0.17974660764757547,-0.24250153498352384,0.09314362166000001,1.6859071456155759,0.509380871125562,-1.2401578629196566, ,0.015188370928052303,0.0007858328455753188,0.005561735865921788,0.0007636435116177813,0.0,0.0028117326387429534, ,0.7215900421142578
0.010532810614805963,0.0210576682156182,-0.08245683400325382, ,0.010787316418506984,0.021029170216698284,-0.08272726753069114, ,0.00037245084618259613, ,0.002087142321901183,0.0013217494145258844,-0.005413707075005222,0.0031005116022712717,-0.004081722366879183,0.0005132713224466718, ,0.005950748598338882, ,0.005125780430907835, ,3.878598185528588e-05, ,0.18012502155841245,-0.24247836678490114,0.0932939913,1.6859071456155759,0.5096541441250929,-1.240217341246768, ,0.01400072905849377,0.0009722365272044921,0.005834729494505496,0.0007636435116177813,0.010025638308695226,-0.0034170183521517092, ,0.7430181503295898
0.0105738876322255,0.021081780281693926,-0.08256544770670972, ,0.01084008713167827,0.02104810704363466,-0.08285442451629242, ,0.0003943395198897766, ,0.0019436275398716514,0.0009561785900950668,-0.004674833282702368,0.006813425971137412,0.0021582336969549675,1.756603343219309e-05, ,0.005152284127546298, ,0.0071470793980576664, ,3.9570562577412385e-05, ,0.18040303994188456,-0.24243203038765582,0.09341065740000001,1.6859071456155759,0.5099274171246237,-1.240440177054161, ,0.014512454742081479,0.0030668679525251556,0.005043955516149463,0.0007636435116177813,0.016911126968346166,-0.009031672662681917, ,0.7644200325012207
0.0106182130379949,0.02110308994264156,-0.08266876268670338, ,0.010893440323868242,0.021066137275450918,-0.08298159844737646, ,0.0004183082256633398, ,0.002350666182488598,0.001173987927745678,-0.006037388822889149,0.004133638648378869,-0.0010043671708029397,-0.0002013285930451298, ,0.006584371113077917, ,0.004253905719199736, ,4.042379300287873e-05, ,0.1807042265239793,-0.24237024852466202,0.09352084205000001,1.6859071456155759,0.5099274171246237,-1.240440177054161, ,0.016202312029788418,0.004511322528733897,0.006454137568881686,0.0007490117113145139,0.015412783421668857,-0.0078098739685231, ,0.7857451438903809
0.01067150949959581,0.021134834198506106,-0.08281422768175352, ,0.010947368689090853,0.021083272320595123,-0.08310878798547384, ,0.0004068448011347565, ,0.00240938760939647,0.001297474896490012,-0.006718009840577519,-0.0015454972094665928,-0.0058994199658342125,-0.0011201866587809452, ,0.007253981387998689, ,0.006098500133152732, ,4.117747209974792e-05, ,0.18104402677044518,-0.24229302119591978,0.09367639685000001,1.6861168355590603,0.5102006901241547,-1.240663012861554, ,0.01472868874103225,0.00499453733341302,0.007120613106839519,0.001637936347777777,0.00869469674329896,-0.002621142923234972, ,0.8075101375579834
0.010725944260980273,0.02116247791872554,-0.08295519085999842, ,0.011001864961788847,0.02109952353186114,-0.08323599179297736, ,0.0003986786323870528, ,0.002500888926078231,0.0011065596054416948,-0.005766010964362745,-0.0017225652010216161,-0.011066588486341683,-0.0014720009046142223, ,0.00638167705404523, ,0.011199848446488496, ,4.185431942023258e-05, ,0.18140699521553375,-0.24219262566855485,0.09382676649,1.6861168355590603,0.5104739631236854,-1.2407224911886654, ,0.0175800188140924,0.004508976736771314,0.0061596332250580055,0.001637936347777777,0.006303742453268221,-0.0021042141963908906, ,0.8332171440124512
0.010787245367441493,0.02118031140008353,-0.08307216360785706, ,0.011056921916745923,0.02111490220649704,-0.08336320853315246, ,0.0004021330033590684, ,0.002353579678825929,0.0005459397989483706,-0.004297041771535165,-0.0011526749188655204,-0.009536670703162341,-0.0019303872333338726, ,0.004929701365699166, ,0.009606078601807398, ,4.2696508967210336e-05, ,0.1819012501194841,-0.24204589374394458,0.09395250662000001,1.6861168355590603,0.5107472361232164,-1.2407819695157771, ,0.019272327692622007,0.006728288972410014,0.004603702751445087,0.001637936347777777,0.009590241247111308,-0.0047795747353537345, ,0.8510680198669434
0.010840272284030675,0.02119717720489604,-0.08318639423691222, ,0.011112532368998973,0.021129419586313463,-0.08349043687015045, ,0.0004137131513130366, ,0.002854131113743892,0.0011034658310191876,-0.0069575745918662776,0.0016118303101216455,-0.005363743647708972,-0.0022453139011902644, ,0.007600759531523874, ,0.005600689829221559, ,4.355219531967609e-05, ,0.18230283222894378,-0.24189916181933432,0.09407435788000001,1.6861168355590603,0.5110205091227473,-1.2410048053231701, ,0.019790811586750945,0.007997739269416455,0.007384706314325453,0.001637936347777777,0.01437480924651912,-0.00868106912010548, ,0.8694510459899902
0.010870947859424267,0.02121086101015939,-0.08326585941112749, ,0.011168689173750284,0.021143086857792103,-0.08361767546901827, ,0.0004658516551172675, ,0.00317275581342313,0.0015326464676511055,-0.008544670412344992,0.004606098420819269,-0.0028358982066367592,-0.002254923583269855, ,0.009242660715509231, ,0.0054091048937802335, ,4.4590231631470594e-05, ,0.18250362328367362,-0.24182193449059208,0.09415861673,1.6861168355590603,0.5111571456225127,-1.2411162232268664, ,0.020351049015327208,0.007674390095877482,0.009071077175398635,0.001637936347777777,0.01752334002533222,-0.011286407742334718, ,0.8874211311340332
0.010934017344274191,0.021238133595158276,-0.08342995871565953, ,0.011225385226279597,0.02115591515219376,-0.08374492299571026, ,0.00043687253602819014, ,0.0032007649909273554,0.0012202675436319068,-0.008017836935509181,-0.0005669113779182275,-0.007463620800066453,-0.0024612624065644528, ,0.00871892530817892, ,0.007485117956496391, ,4.546695858995763e-05, ,0.1829129281260075,-0.24165203436735913,0.09433231959,1.6861168355590603,0.5114304186220436,-1.2411757015539784, ,0.02139245751994382,0.009672728541288287,0.008477281277275149,0.0015884059812246885,0.013880795971798374,-0.008162008881271752, ,0.905595064163208
0.01099991726213433,0.021259933387972343,-0.08358235999997117, ,0.011282613461856335,0.02116791554566673,-0.0838721781170999, ,0.0004151854593502638, ,0.0031460131455814094,0.0009252731980970695,-0.0069904542612544834,0.015770945926412833,0.008964844636107486,-0.002857485844086375, ,0.00772139754072919, ,0.018140869826738387, ,4.62213789369475e-05, ,0.18339173756420943,-0.2414512433126293,0.09449435584000002,1.6861168355590603,0.5118403281213398,-1.2415099552650677, ,0.024783740286881895,0.01029454122419693,0.0074923854750705565,0.001513711470120707,0.034110242569312235,-0.024657766140151607, ,0.9235901832580566
0.011032512077471147,0.02126948288021873,-0.08365104898632188, ,0.011340366855651879,0.021179099059355742,-0.08399943950099123, ,0.0004736240600244846, ,0.0030517165695787963,0.0011024191290187524,-0.00719281888344662,0.00913191900631833,0.001991450540230885,-0.0023396124445893363, ,0.007890813991416508, ,0.009346539506109594, ,4.736263800523482e-05, ,0.18362341955043618,-0.2413585705181386,0.09456694808,1.6861168355590603,0.5118403281213398,-1.2413465977847864, ,0.022302453950286905,0.008727146812412503,0.007680236991321119,0.0014811138494022912,0.02447906047946687,-0.016698290789193455, ,0.938291072845459
0.01109124029947708,0.021288012417511687,-0.08379326220153131, ,0.011398638422651564,0.021189476659509227,-0.08412670581612985, ,0.0004640986380639946, ,0.003034341602179984,0.0011170790260687825,-0.0078128103683009,0.02394616037275065,0.025295626920598394,-0.001602243062963016, ,0.008455477535907302, ,0.034832273953820235, ,4.84313076007331e-05, ,0.18406361532426696,-0.24115005673053455,0.09471861401000001,1.6861168355590603,0.5125235106201671,-1.2417403298229874, ,0.022966345972524387,0.010441985287979306,0.008379174918463968,0.0014231179657317233,0.04901725811266113,-0.03240089539811893, ,0.952646017074585
0.011129760691027736,0.02130130114791818,-0.08388944121034275, ,0.011457421217566908,0.021199059257588495,-0.08425397573221458, ,0.0005006997527724909, ,0.0034585832599096735,0.0011863900270136902,-0.008958754854541865,0.017344565398443958,0.018150672546564092,-0.0020286238939172625, ,0.009676187679334378, ,0.025105393943238515, ,4.960745519601876e-05, ,0.18434163370773904,-0.24101877027167273,0.09482102092000001,1.6861168355590603,0.5129334201194634,-1.2420745835340767, ,0.02486165615888676,0.012863893392770878,0.009532502405745064,0.0013894390732274997,0.04366423278186136,-0.028327950466270273, ,0.9672911167144775
0.011209431828236522,0.021327376115669754,-0.08407634791143792, ,0.011516708334747858,0.02120785771037572,-0.08438124791990902, ,0.0004490740649642491, ,0.004166872105644444,0.0013231103326969366,-0.009458005086596711,-0.015413059259490674,-0.027573107615727725,-0.002378778651387939, ,0.010419563537662047, ,0.031588583121789145, ,5.055328253254772e-05, ,0.18487450227606053,-0.24077164281969754,0.095018057,1.6861168355590603,0.5130700566192289,-1.2420226439574917, ,0.02782085651083869,0.012491370482884135,0.009961733283302064,0.0013343669478011878,0.0,0.003577663632210927, ,0.9817640781402588
0.011241647103864686,0.021337040753668053,-0.08415117038814447, ,0.011576492908094784,0.021215882820082403,-0.0845085210508524, ,0.0005044803798157439, ,0.00420180195022768,0.0012336065787167893,-0.009420032736208965,-0.013052410974274248,-0.02455424560353101,-0.0025993734659140394, ,0.010388163532176371, ,0.027807846648457108, ,5.167695260572822e-05, ,0.18509846152941306,-0.24066352455945839,0.09509713069,1.6861168355590603,0.5132066931189944,-1.2421340618611882, ,0.028617895524267425,0.01340920468538516,0.009924493158878505,0.0013137060428331023,0.003895823969736966,0.0004008804108644468, ,0.9963040351867676
0.011290643689913346,0.021351561320159553,-0.084265218700797, ,0.011636768110970775,0.02122314533445752,-0.084635793797671, ,0.000523085731653363, ,0.003783912496610685,0.0011297315745209442,-0.009177313342666976,0.0338839873478289,0.03044559885980757,-0.0037448287797803136, ,0.009990864196953605, ,0.04555281575732309, ,5.283584609008884e-05, ,0.18546915270737582,-0.24049362443622546,0.09521898195,1.6861168355590603,0.513753239118056,-1.2425797334759738, ,0.029507755459723495,0.014248790023794413,0.00984475372064277,0.0012829764926964558,0.060883911288494214,-0.04606908358575815, ,1.0134069919586182
0.011382994119163516,0.021371109955303627,-0.08445544898220388, ,0.011697527156113764,0.021229655946896048,-0.08476306483399074, ,0.0004621339417293138, ,0.003862025337041686,0.0007031777573352706,-0.007329539650585241,-0.003277635123085161,-0.012432504090122115,-0.0021354841042004143, ,0.008314556521659123, ,0.01285729476979599, ,5.393594175479554e-05, ,0.18614875320030758,-0.2401615469226338,0.0954199069,1.6861168355590603,0.514026512117587,-1.2426392118030858, ,0.030318511680022617,0.013564457055241678,0.007800593300685603,0.0012292724494875115,0.018049430604723173,-0.00909993878358915, ,1.0244340896606445
0.011424827807750379,0.021376346329118244,-0.0845340936155238, ,0.011758763295548619,0.02123542529654706,-0.0848903328344469, ,0.0005082106143430248, ,0.004453856381430885,0.0005784848783287114,-0.008670764971736534,-0.023325335199573576,-0.03232204101620698,-0.0027266663636441226, ,0.009764919181230373, ,0.03985957286042545, ,5.517752881242506e-05, ,0.186473107981025,-0.23999164679940085,0.09550286946000001,1.6861168355590603,0.5141631486173524,-1.2427506297067823, ,0.03249895258851739,0.01856719654832142,0.009065914354012522,0.0012071576370153519,0.0,0.005618161609384607, ,1.0352020263671875
0.01146436660509221,0.021383021360682687,-0.08461767020184705, ,0.011820469820499346,0.02124046396842236,-0.08501759647469621, ,0.0005541417993856739, ,0.004113096428613811,0.0008221223283333614,-0.008893256894010217,0.025783388446144032,0.022426682548282863,-0.003411634322961652, ,0.009832775067938868, ,0.03417219855755308, ,5.655557566685201e-05, ,0.18679746276174244,-0.23982174667616793,0.09559231347000001,1.6861168355590603,0.5147096946164142,-1.2431963013215679, ,0.033238858689481884,0.01683764044685429,0.009526801148325359,0.0011866249837834027,0.05657204868421125,-0.0405125507773284, ,1.046053171157837
0.011511543747268699,0.02139171283130929,-0.08471777290353837, ,0.011882640061301243,0.02124478249350449,-0.08514485443142872, ,0.0005845507932773084, ,0.004838486695353334,0.0009602642942421317,-0.010354436561479744,0.004481726121575162,-0.0029057237243933234,-0.003493294147184989, ,0.011469412257025904, ,0.00534125269650385, ,5.801130923273535e-05, ,0.18716043120683098,-0.2396286783543123,0.09569860925000001,1.6861168355590603,0.5151196041157104,-1.243530555032657, ,0.036220206701706406,0.019237166340658987,0.010970255867768596,0.0011649995668708713,0.033787153294884964,-0.02209818042963713, ,1.057892084121704
0.011563834753464255,0.021403396059155443,-0.0848364199813123, ,0.011945267387313016,0.021248391348855235,-0.08527210538237824, ,0.0005994489828851487, ,0.005617451246599549,0.0014576740444927536,-0.013232329511527561,-0.025920489248725385,-0.03552418297791624,-0.0032611214160533425, ,0.014449052440542733, ,0.04397543556877735, ,5.948844484102334e-05, ,0.18751567691904533,-0.23942016456670825,0.09582305309000001,1.6861168355590603,0.5152562406154759,-1.2435602941962132, ,0.035688958841094694,0.02135875344552572,0.013827093333333334,0.0011453198292148135,0.0,0.005455055498247402, ,1.0686161518096924
0.011620333262494323,0.02141864245089421,-0.08497184994855712, ,0.01200834520682899,0.021251300957723984,-0.08539934800633471, ,0.0006010915351977748, ,0.005851780259617007,0.0015848638495781437,-0.013803806885093561,-0.004477272024541451,-0.01942777498649274,-0.005589198947622622, ,0.015076478705238148, ,0.019936998383076446, ,6.115090913590516e-05, ,0.18789409082988232,-0.23920392804622997,0.09596564499000002,1.6861168355590603,0.5155295136150068,-1.2436197725233247, ,0.03879678722750236,0.02168081826787087,0.014520338669097542,0.0011260148208967616,0.01946549820700522,-0.01619721633888702, ,1.07578706741333
0.011620333262494323,0.02141864245089421,-0.08497184994855712, ,0.012071866966991212,0.02125352168965576,-0.08552658098315476, ,0.0007340804266798076, ,0.005851780259617007,0.0015848638495781437,-0.013803806885093561,-0.004477272024541451,-0.01942777498649274,-0.005589198947622622, ,0.015076478705238148, ,0.019936998383076446, ,6.32460413564805e-05, ,0.18789409082988232,-0.23920392804622997,0.09596564499000002,1.6861168355590603,0.5155295136150068,-1.2436197725233247, ,0.03879678722750236,0.02168081826787087,0.014520338669097542,0.0011260148208967616,0.01946549820700522,-0.01619721633888702, ,1.083057165145874
0.011677793206550918,0.021433915613279512,-0.08511480634969207, ,0.01213582615370154,0.021255063860599832,-0.08565380299377343, ,0.0007295885912231933, ,0.006211177255659731,0.0017001258043818214,-0.015613393416189116,0.03283436618246883,0.024288666597884336,-0.007298249536732464, ,0.01688926299814907, ,0.04084157195602242, ,6.529739002488264e-05, ,0.1883033956722162,-0.238964523327129,0.09611731092,1.6861168355590603,0.516212696113834,-1.2441768620418068, ,0.04333193678468985,0.02573127482604956,0.016540821931464174,0.0011076362254280538,0.0686466087724451,-0.05639431858306141, ,1.091372013092041
0.01170628242460842,0.02144209669174479,-0.08518502200983082, ,0.012200216291533896,0.02125593773301792,-0.08578101272021545, ,0.0007961348815841468, ,0.006392889665902192,0.0019011685383955063,-0.0165895855176622,0.02622241706519349,0.01770089816688205,-0.007236412176239287, ,0.01788009585375904, ,0.03163756779702488, ,6.754583631385014e-05, ,0.1884887412611976,-0.23885640506688985,0.09619119945000001,1.6861168355590603,0.5163493326135995,-1.2442882799455033, ,0.04251655087745106,0.02607058834023922,0.017523445016501653,0.0010998292695584076,0.061101399691524644,-0.050288607923653174, ,1.098602056503296
0.011822213414696251,0.021476133526524624,-0.08547061625453313, ,0.012265030943646367,0.021256153515992436,-0.08590820884560707, ,0.0006602770969388785, ,0.007388830947536641,0.0017271424606124398,-0.017240675704268252,-0.014333020564565476,-0.03253958134275683,-0.006028956525323844, ,0.01883663299505172, ,0.03555641024084612, ,6.930820350952523e-05, ,0.18923784634999738,-0.23841620929305907,0.09649193873,1.686326525502545,0.5168958786126612,-1.2446522728201483, ,0.04802476799517752,0.029407171229770927,0.018059877006802724,-0.000288738747979807,0.015826667846819832,-0.0143261096809391, ,1.1058850288391113
0.011822213414696251,0.021476133526524624,-0.08547061625453313, ,0.012330263711693245,0.021255721365334997,-0.08603539005418692, ,0.0007909905624306765, ,0.007388830947536641,0.0017271424606124398,-0.017240675704268252,-0.014333020564565476,-0.03253958134275683,-0.006028956525323844, ,0.01883663299505172, ,0.03555641024084612, ,7.148278402756399e-05, ,0.18923784634999738,-0.23841620929305907,0.09649193873,1.686326525502545,0.5168958786126612,-1.2446522728201483, ,0.04802476799517752,0.029407171229770927,0.018059877006802724,-0.000288738747979807,0.015826667846819832,-0.0143261096809391, ,1.1130449771881104
0.011883130232295468,0.021488218840257235,-0.08561304558830586, ,0.01239590823573738,0.021254651383694634,-0.08616255503131748, ,0.0007870550587715788, ,0.007345732915320235,0.0014774113639003483,-0.017178962596935056,0.03288943819806665,0.0214062443140925,-0.007729264775442963, ,0.01874191271744415, ,0.03924208129592797, ,7.361553068556548e-05, ,0.18967031939095397,-0.2381459136424612,0.09664230837000001,1.686326525502545,0.517442424611723,-1.245097944434934, ,0.05295588256611093,0.032410157636089745,0.01818357479452055,-0.000288738747979807,0.0758411354337699,-0.06314178935615425, ,1.120453119277954
0.011969087910402472,0.02150304552375452,-0.08581838747449169, ,0.012461958194162102,0.02125295362066564,-0.08628970246349664, ,0.0007263641617430276, ,0.007032842050700629,0.0011412801011871747,-0.016951826483862287,0.07225391388278651,0.06605459079791598,-0.00877625704123963, ,0.01838825192122524, ,0.09789706653934052, ,7.552057377889409e-05, ,0.1903113062195146,-0.2377366088001273,0.09686008509,1.6861168355590603,0.5186721531096119,-1.2460190268280613, ,0.05388809855676932,0.03554192567732988,0.018039424144960365,-0.002221811219566504,0.12264352147506866,-0.10515577374268528, ,1.128141164779663
0.012040187568432118,0.0215120425803939,-0.08597795592042234, ,0.0125284073035835,0.021250638072896944,-0.08641683103836877, ,0.0007066131866045937, ,0.007698313262938896,0.0008501151800199311,-0.016365016744663213,0.027573532048670028,0.021348389894939382,-0.004935238479122914, ,0.018105261554773204, ,0.03487194068269459, ,7.733616867773987e-05, ,0.19086734298645874,-0.23738136308791297,0.09702989908000001,1.6861168355590603,0.5197652451077354,-1.2470737275379138, ,0.05883257381182317,0.03692487998384077,0.01733276552774755,-0.002221811219566504,0.08231700331446398,-0.06215640971021376, ,1.135357141494751
0.012040187568432118,0.0215120425803939,-0.08597795592042234, ,0.01259524931876256,0.02124771468419925,-0.08654393944473664, ,0.0008356435443308423, ,0.007698313262938896,0.0008501151800199311,-0.016365016744663213,0.027573532048670028,0.021348389894939382,-0.004935238479122914, ,0.018105261554773204, ,0.03487194068269459, ,7.980622527595844e-05, ,0.19086734298645874,-0.23738136308791297,0.09702989908000001,1.6861168355590603,0.5197652451077354,-1.2470737275379138, ,0.05883257381182317,0.03692487998384077,0.01733276552774755,-0.002221811219566504,0.08231700331446398,-0.06215640971021376, ,1.1390471458435059
0.012040187568432118,0.0215120425803939,-0.08597795592042234, ,0.012662478032517162,0.021244193345654177,-0.08667102637257232, ,0.0009691931107293352, ,0.007698313262938896,0.0008501151800199311,-0.016365016744663213,0.027573532048670028,0.021348389894939382,-0.004935238479122914, ,0.018105261554773204, ,0.03487194068269459, ,8.269384503392394e-05, ,0.19086734298645874,-0.23738136308791297,0.09702989908000001,1.6861168355590603,0.5197652451077354,-1.2470737275379138, ,0.05883257381182317,0.03692487998384077,0.01733276552774755,-0.002221811219566504,0.08231700331446398,-0.06215640971021376, ,1.1427311897277832
0.012121986253588502,0.021519881366416516,-0.08614592287691944, ,0.012730087275634369,0.02124008389572214,-0.08679809051302904, ,0.0009345566345647482, ,0.009151846461685577,0.0008308026474921361,-0.01914155951214354,-0.03328318367113764,-0.04104289560021448,-0.003485759389646202, ,0.021233130415797843, ,0.05284209519703152, ,0.0004632326474563741, ,0.19146199341777403,-0.23699522644420176,0.09720619452000001,1.6861168355590603,0.5201751546070318,-1.2471629450285815, ,0.06364650674612392,0.04422038283246542,0.019960916691729325,-0.002221811219566504,0.023757058435012565,-0.009453297401869294, ,1.1464500427246094
0.012121986253588502,0.021519881366416516,-0.08614592287691944, ,0.01279807091678252,0.02123539612035072,-0.08692513055845191, ,0.0010701340747749778, ,0.009151846461685577,0.0008308026474921361,-0.01914155951214354,-0.03328318367113764,-0.04104289560021448,-0.003485759389646202, ,0.021233130415797843, ,0.05284209519703152, ,0.0004736964651687638, ,0.19146199341777403,-0.23699522644420176,0.09720619452000001,1.6861168355590603,0.5201751546070318,-1.2471629450285815, ,0.06364650674612392,0.04422038283246542,0.019960916691729325,-0.002221811219566504,0.023757058435012565,-0.009453297401869294, ,1.1501691341400146
0.012121986253588502,0.021519881366416516,-0.08614592287691944, ,0.012866422862423324,0.0212301397530832,-0.08705214520238987, ,0.001208045930522309, ,0.009151846461685577,0.0008308026474921361,-0.01914155951214354,-0.03328318367113764,-0.04104289560021448,-0.003485759389646202, ,0.021233130415797843, ,0.05284209519703152, ,0.00048614306627645104, ,0.19146199341777403,-0.23699522644420176,0.09720619452000001,1.6861168355590603,0.5201751546070318,-1.2471629450285815, ,0.06364650674612392,0.04422038283246542,0.019960916691729325,-0.002221811219566504,0.023757058435012565,-0.009453297401869294, ,1.1539461612701416
0.012225011287740173,0.021529863733713298,-0.08636762472191742, ,0.012935137056724043,0.021224324475166326,-0.08717913313960678, ,0.001120793807204988, ,0.010961112604441235,0.0013534074021921685,-0.024057971698313904,-0.007793974990438501,-0.013262397982577723,-0.005357329611331259, ,0.026471941813180647, ,0.015382756162081696, ,0.00049672057862526, ,0.19218793030795114,-0.23648552607450293,0.09743823043000001,1.6861168355590603,0.5207217006060936,-1.2475269379032266, ,0.07665342613769853,0.05211254341486588,0.02524375835182251,-0.002221811219566504,0.06533819205787605,-0.04168573914868535, ,1.157698154449463
0.012225011287740173,0.021529863733713298,-0.08636762472191742, ,0.01300420748146964,0.02121795991565931,-0.08730609306609313, ,0.0012590288054921742, ,0.010961112604441235,0.0013534074021921685,-0.024057971698313904,-0.007793974990438501,-0.013262397982577723,-0.005357329611331259, ,0.026471941813180647, ,0.015382756162081696, ,0.0005092174348034061, ,0.19218793030795114,-0.23648552607450293,0.09743823043000001,1.6861168355590603,0.5207217006060936,-1.2475269379032266, ,0.07665342613769853,0.05211254341486588,0.02524375835182251,-0.002221811219566504,0.06533819205787605,-0.04168573914868535, ,1.1614069938659668
0.012337497379758207,0.02154824917595733,-0.08663691014652754, ,0.013073628155974851,0.02121105565154161,-0.08743302367907725, ,0.0011355107878439554, ,0.011889900172594834,0.0023897404693375285,-0.02948566540486409,0.08992836600205724,0.09706039200680601,-0.00868428269646606, ,0.03188236267895871, ,0.1323170753196964, ,0.0005193189404976086, ,0.19299881725974471,-0.23594493477330722,0.09772341423000001,1.6859071456155759,0.5222247021035133,-1.248752534843887, ,0.08556983007977528,0.05601944602034875,0.03135592818897638,-0.00244244519237231,0.1867902376099411,-0.14072173859453774, ,1.165027141571045
0.012337497379758207,0.02154824917595733,-0.08663691014652754, ,0.013143393136996293,0.02120362120782129,-0.08755992367703624, ,0.0012728669944098913, ,0.011889900172594834,0.0023897404693375285,-0.02948566540486409,0.08992836600205724,0.09706039200680601,-0.00868428269646606, ,0.03188236267895871, ,0.1323170753196964, ,0.0005312800207184384, ,0.19299881725974471,-0.23594493477330722,0.09772341423000001,1.6859071456155759,0.5222247021035133,-1.248752534843887, ,0.08556983007977528,0.05601944602034875,0.03135592818897638,-0.00244244519237231,0.1867902376099411,-0.14072173859453774, ,1.1685540676116943
0.012337497379758207,0.02154824917595733,-0.08663691014652754, ,0.013213496518644754,0.021195666057643635,-0.08768679175970832, ,0.001412069668375067, ,0.011889900172594834,0.0023897404693375285,-0.02948566540486409,0.08992836600205724,0.09706039200680601,-0.00868428269646606, ,0.03188236267895871, ,0.1323170753196964, ,0.0005450423589630733, ,0.19299881725974471,-0.23594493477330722,0.09772341423000001,1.6859071456155759,0.5222247021035133,-1.248752534843887, ,0.08556983007977528,0.05601944602034875,0.03135592818897638,-0.00244244519237231,0.1867902376099411,-0.14072173859453774, ,1.1720860004425049
0.012468998887778852,0.021573758418774354,-0.08697675403482724, ,0.013283932432297215,0.02118719962239897,-0.08781362662810353, ,0.0012304064866593618, ,0.01388466934138642,0.002856335927351016,-0.03599635902359621,0.09208416041509226,0.10333491131396878,0.006933780960425295, ,0.038686955949068264, ,0.1384107512443064, ,0.0005555864224660931, ,0.19392554520465166,-0.23531167067762082,0.09808378285000001,1.6852780757851225,0.5244108860997605,-1.2505352213030299, ,0.09480213941905173,0.06715990202298003,0.038107204593301434,-0.021885493349456973,0.20702704181476353,-0.15722349548882944, ,1.1756021976470947
0.012468998887778852,0.021573758418774354,-0.08697675403482724, ,0.013354695046508965,0.021178231271831476,-0.0879404269845154, ,0.0013673203587743175, ,0.01388466934138642,0.002856335927351016,-0.03599635902359621,0.09208416041509226,0.10333491131396878,0.006933780960425295, ,0.038686955949068264, ,0.1384107512443064, ,0.0005678854215010662, ,0.19392554520465166,-0.23531167067762082,0.09808378285000001,1.6852780757851225,0.5244108860997605,-1.2505352213030299, ,0.09480213941905173,0.06715990202298003,0.038107204593301434,-0.021885493349456973,0.20702704181476353,-0.15722349548882944, ,1.1791551113128662
0.012468998887778852,0.021573758418774354,-0.08697675403482724, ,0.013425778566925778,0.02116877032414699,-0.08806719153253201, ,0.0015061529296917456, ,0.01388466934138642,0.002856335927351016,-0.03599635902359621,0.09208416041509226,0.10333491131396878,0.006933780960425295, ,0.038686955949068264, ,0.1384107512443064, ,0.0005818894141606286, ,0.19392554520465166,-0.23531167067762082,0.09808378285000001,1.6852780757851225,0.5244108860997605,-1.2505352213030299, ,0.09480213941905173,0.06715990202298003,0.038107204593301434,-0.021885493349456973,0.20702704181476353,-0.15722349548882944, ,1.1827120780944824
0.012613080625644823,0.021602697208843603,-0.08734307931866671, ,0.013497177236196036,0.021158826046121678,-0.08819391897704797, ,0.0013048281688247663, ,0.01615326747287225,0.003048949073132515,-0.040022499491831134,0.03422439907695101,0.03214728406053942,0.04142962619200719, ,0.04326689965868056, ,0.046953750396850666, ,0.0005925208664351012, ,0.19487544134818127,-0.23463207018468904,0.09847007727000001,1.6850683858416375,0.5260505240969456,-1.2516271999269653, ,0.10591176513222186,0.07333612176079658,0.04213971301587302,-0.05787386200003565,0.15436291224786836,-0.1132904316751963, ,1.1863150596618652
0.012613080625644823,0.021602697208843603,-0.08734307931866671, ,0.013568885333882874,0.02114840765320987,-0.0883206080242752, ,0.0014406609632167235, ,0.01615326747287225,0.003048949073132515,-0.040022499491831134,0.03422439907695101,0.03214728406053942,0.04142962619200719, ,0.04326689965868056, ,0.046953750396850666, ,0.0006048127518957045, ,0.19487544134818127,-0.23463207018468904,0.09847007727000001,1.6850683858416375,0.5260505240969456,-1.2516271999269653, ,0.10591176513222186,0.07333612176079658,0.04213971301587302,-0.05787386200003565,0.15436291224786836,-0.1132904316751963, ,1.1898791790008545
0.012613080625644823,0.021602697208843603,-0.08734307931866671, ,0.013640897176376326,0.02113752430965316,-0.08844725738175492, ,0.0015786075772984507, ,0.01615326747287225,0.003048949073132515,-0.040022499491831134,0.03422439907695101,0.03214728406053942,0.04142962619200719, ,0.04326689965868056, ,0.046953750396850666, ,0.0006187241065443151, ,0.19487544134818127,-0.23463207018468904,0.09847007727000001,1.6850683858416375,0.5260505240969456,-1.2516271999269653, ,0.10591176513222186,0.07333612176079658,0.04213971301587302,-0.05787386200003565,0.15436291224786836,-0.1132904316751963, ,1.1934940814971924
0.012785043671957711,0.02163369265463791,-0.08776527873990256, ,0.013713207116805329,0.021126185128587664,-0.08857386575836854, ,0.0013314894801614988, ,0.016997994839404014,0.0026886519893754334,-0.04054286088343239,0.02693299691214362,0.04462155050574032,-0.02543904362193916, ,0.044044117049768745, ,0.05211870635772522, ,0.0006287630554685007, ,0.19600296034781806,-0.23382890596576972,0.09891470474000001,1.6848586958981533,0.527690162094131,-1.2527191785509006, ,0.11283821826215314,0.08180770824006102,0.04270458852546917,0.015760042396580458,0.15698154890206803,-0.09949640925854099, ,1.1973440647125244
0.012785043671957711,0.02163369265463791,-0.08776527873990256, ,0.013785809544950126,0.02111439917215322,-0.08870043186434942, ,0.001464824023444481, ,0.016997994839404014,0.0026886519893754334,-0.04054286088343239,0.02693299691214362,0.04462155050574032,-0.02543904362193916, ,0.044044117049768745, ,0.05211870635772522, ,0.000640375013357056, ,0.19600296034781806,-0.23382890596576972,0.09891470474000001,1.6848586958981533,0.527690162094131,-1.2527191785509006, ,0.11283821826215314,0.08180770824006102,0.04270458852546917,0.015760042396580458,0.15698154890206803,-0.09949640925854099, ,1.200965166091919
0.01296278024188417,0.0216583555565866,-0.08816760943545578, ,0.013858698887154073,0.021102175451600907,-0.08882695441129371, ,0.0012436809579980212, ,0.018174519545480158,0.0012353237415410837,-0.03832580353381558,-2.7796360852991368e-05,0.0008401099423105944,0.004441550267796088, ,0.04243473108160444, ,0.0007898523371060276, ,0.0006486394783521377, ,0.19719998394332286,-0.23299485081535345,0.09933859157000001,1.6850683858416375,0.5290565270917854,-1.2536700001075838, ,0.12789345223513582,0.08952541656459506,0.04032610511392406,-0.018590846101176818,0.13574254336208674,-0.08732010269106649, ,1.2048640251159668
0.01296278024188417,0.0216583555565866,-0.08816760943545578, ,0.013931869606236057,0.021089522927402002,-0.08895343211217291, ,0.0013712118856573133, ,0.018174519545480158,0.0012353237415410837,-0.03832580353381558,-2.7796360852991368e-05,0.0008401099423105944,0.004441550267796088, ,0.04243473108160444, ,0.0007898523371060276, ,0.0006584039703427482, ,0.19719998394332286,-0.23299485081535345,0.09933859157000001,1.6850683858416375,0.5290565270917854,-1.2536700001075838, ,0.12789345223513582,0.08952541656459506,0.04032610511392406,-0.018590846101176818,0.13574254336208674,-0.08732010269106649, ,1.2085201740264893
0.01296278024188417,0.0216583555565866,-0.08816760943545578, ,0.014005316201402402,0.021076450509355832,-0.08907986368134407, ,0.001502565313063784, ,0.018174519545480158,0.0012353237415410837,-0.03832580353381558,-2.7796360852991368e-05,0.0008401099423105944,0.004441550267796088, ,0.04243473108160444, ,0.0007898523371060276, ,0.0006696594549123621, ,0.19719998394332286,-0.23299485081535345,0.09933859157000001,1.6850683858416375,0.5290565270917854,-1.2536700001075838, ,0.12789345223513582,0.08952541656459506,0.04032610511392406,-0.018590846101176818,0.13574254336208674,-0.08732010269106649, ,1.2121729850769043
0.013149880624847508,0.021660838521776138,-0.08854965278700991, ,0.014079033208159194,0.021062967056698304,-0.08920624783456164, ,0.001285259455634761, ,0.018843088132306913,-0.0003764593880702273,-0.03677810416067831,0.004867128126929493,0.03116437410113969,-0.00383541797361912, ,0.0413259317824348, ,0.0315410820980209, ,0.0006777594549218673, ,0.19855918492918637,-0.2319986182745785,0.09974044147000001,1.6848586958981533,0.5306961650889708,-1.254761978731519, ,0.14100585669906504,0.10314884952007694,0.03875623240875913,-0.007180900427622978,0.17758727138699387,-0.10147795239331253, ,1.2158451080322266
0.013149880624847508,0.021660838521776138,-0.08854965278700991, ,0.014153015198224254,0.02104908137820993,-0.08933258328898909, ,0.001411915700719206, ,0.018843088132306913,-0.0003764593880702273,-0.03677810416067831,0.004867128126929493,0.03116437410113969,-0.00383541797361912, ,0.0413259317824348, ,0.0315410820980209, ,0.0006872939516205341, ,0.19855918492918637,-0.2319986182745785,0.09974044147000001,1.6848586958981533,0.5306961650889708,-1.254761978731519, ,0.14100585669906504,0.10314884952007694,0.03875623240875913,-0.007180900427622978,0.17758727138699387,-0.10147795239331253, ,1.2194950580596924
0.013149880624847508,0.021660838521776138,-0.08854965278700991, ,0.01422725677943942,0.021034802232324477,-0.08945886876321008, ,0.0015425091589910517, ,0.018843088132306913,-0.0003764593880702273,-0.03677810416067831,0.004867128126929493,0.03116437410113969,-0.00383541797361912, ,0.0413259317824348, ,0.0315410820980209, ,0.0006982582491509254, ,0.19855918492918637,-0.2319986182745785,0.09974044147000001,1.6848586958981533,0.5306961650889708,-1.254761978731519, ,0.14100585669906504,0.10314884952007694,0.03875623240875913,-0.007180900427622978,0.17758727138699387,-0.10147795239331253, ,1.2231040000915527
0.01332724856594976,0.021649346162721343,-0.0888844817878231, ,0.014301752595682516,0.021020138327236672,-0.08958510297724005, ,0.0013551496800208872, ,0.018622220414129465,-0.0020509597880519538,-0.032877015947186596,0.05541676852866758,0.03772263358665048,0.018738486428811353, ,0.037840344961379356, ,0.06703713081055294, ,0.0007065733305543426, ,0.19991838591504987,-0.23100238573380352,0.10009303235000001,1.6842296260676997,0.5324724395859214,-1.2560470539992914, ,0.1482764711851106,0.10845364749539518,0.03470329307189543,-0.049860917198727726,0.20041379506525,-0.16799043479284612, ,1.2268891334533691
0.01332724856594976,0.021649346162721343,-0.0888844817878231, ,0.014376497326779642,0.021005098321011335,-0.08971128465253717, ,0.0014830985202441654, ,0.018622220414129465,-0.0020509597880519538,-0.032877015947186596,0.05541676852866758,0.03772263358665048,0.018738486428811353, ,0.037840344961379356, ,0.06703713081055294, ,0.0007162798954254653, ,0.19991838591504987,-0.23100238573380352,0.10009303235000001,1.6842296260676997,0.5324724395859214,-1.2560470539992914, ,0.1482764711851106,0.10845364749539518,0.03470329307189543,-0.049860917198727726,0.20041379506525,-0.16799043479284612, ,1.233281135559082
0.013526018286861492,0.021618291008092785,-0.08920913119656211, ,0.01445148568841724,0.0209896908216907,-0.08983741251201464, ,0.0012831077573742004, ,0.01888920321412244,-0.004019531695705856,-0.028754262242738228,-0.003670922528499828,-0.027434095419036235,0.03323702350116787, ,0.034637641811205315, ,0.027678251515345777, ,0.0007232777702643387, ,0.2015324370857628,-0.22981308487117297,0.10043525291000001,1.6838102461807307,0.5343853505826376,-1.2574435471707601, ,0.1543039700137736,0.1171567179734207,0.030111174896030254,-0.06546224268418388,0.1438401709765937,-0.12161465891402849, ,1.2370669841766357
0.013526018286861492,0.021618291008092785,-0.08920913119656211, ,0.014526712432054105,0.02097392438740355,-0.08996348528005127, ,0.0014091299433898938, ,0.01888920321412244,-0.004019531695705856,-0.028754262242738228,-0.003670922528499828,-0.027434095419036235,0.03323702350116787, ,0.034637641811205315, ,0.027678251515345777, ,0.0007316418211561137, ,0.2015324370857628,-0.22981308487117297,0.10043525291000001,1.6838102461807307,0.5343853505826376,-1.2574435471707601, ,0.1543039700137736,0.1171567179734207,0.030111174896030254,-0.06546224268418388,0.1438401709765937,-0.12161465891402849, ,1.2407011985778809
0.013526018286861492,0.021618291008092785,-0.08920913119656211, ,0.014602172344833816,0.020957807526472888,-0.09008950168250264, ,0.0015392849568868672, ,0.01888920321412244,-0.004019531695705856,-0.028754262242738228,-0.003670922528499828,-0.027434095419036235,0.03323702350116787, ,0.034637641811205315, ,0.027678251515345777, ,0.000741372461345641, ,0.2015324370857628,-0.22981308487117297,0.10043525291000001,1.6838102461807307,0.5343853505826376,-1.2574435471707601, ,0.1543039700137736,0.1171567179734207,0.030111174896030254,-0.06546224268418388,0.1438401709765937,-0.12161465891402849, ,1.2443311214447021
0.013722755289716584,0.021573554952661795,-0.08949421433276047, ,0.01467786024949659,0.02094134869752449,-0.09021546044671414, ,0.0013535531722560278, ,0.01962055431087583,-0.005485391424920503,-0.027254881999491606,-0.06009043591432333,-0.05982922798127855,0.015461464711821613, ,0.03402769847281522, ,0.0847961200180773, ,0.0007486603269517168, ,0.2031387655236015,-0.2285697248784228,0.10073339961000001,1.6838102461807307,0.5356150790805265,-1.2581195933434657, ,0.161664295670308,0.12946376747403926,0.028343080996441283,-0.039908019756500164,0.1130071539365523,-0.07137055044345071, ,1.2491590976715088
0.013722755289716584,0.021573554952661795,-0.08949421433276047, ,0.01475377100429153,0.020924556309595194,-0.09034136030153053, ,0.0014838628423160056, ,0.01962055431087583,-0.005485391424920503,-0.027254881999491606,-0.06009043591432333,-0.05982922798127855,0.015461464711821613, ,0.03402769847281522, ,0.0847961200180773, ,0.0007573097683089439, ,0.2031387655236015,-0.2285697248784228,0.10073339961000001,1.6838102461807307,0.5356150790805265,-1.2581195933434657, ,0.161664295670308,0.12946376747403926,0.028343080996441283,-0.039908019756500164,0.1130071539365523,-0.07137055044345071, ,1.2528431415557861
0.01391461559326036,0.02152057178480586,-0.08975946539183781, ,0.014829899502888776,0.020907438722241087,-0.09046719997730847, ,0.0013094140029440906, ,0.019924789127422477,-0.005723687523528885,-0.027400633173872948,0.019599473571941656,-0.008360029251460118,-0.009864457445545307, ,0.0343591693579516, ,0.021307604460525053, ,0.0007637295849907479, ,0.20473737122856597,-0.22729547395417576,0.10101080567000001,1.6838102461807307,0.536981444078181,-1.25923377238043, ,0.16825698857884888,0.1327229951866724,0.02875236736462094,-0.029097809990636152,0.1686411326525504,-0.1533061388712232, ,1.2564291954040527
0.01391461559326036,0.02152057178480586,-0.08975946539183781, ,0.0149062406742916,0.020890004245645927,-0.09059297820592749, ,0.0014407218100744238, ,0.019924789127422477,-0.005723687523528885,-0.027400633173872948,0.019599473571941656,-0.008360029251460118,-0.009864457445545307, ,0.0343591693579516, ,0.021307604460525053, ,0.0007715111048192959, ,0.20473737122856597,-0.22729547395417576,0.10101080567000001,1.6838102461807307,0.536981444078181,-1.25923377238043, ,0.16825698857884888,0.1327229951866724,0.02875236736462094,-0.029097809990636152,0.1686411326525504,-0.1533061388712232, ,1.260056972503662
0.01391461559326036,0.02152057178480586,-0.08975946539183781, ,0.014982789482748544,0.020872261140729046,-0.09071869372080152, ,0.001575252721468566, ,0.019924789127422477,-0.005723687523528885,-0.027400633173872948,0.019599473571941656,-0.008360029251460118,-0.009864457445545307, ,0.0343591693579516, ,0.021307604460525053, ,0.0007806445322812195, ,0.20473737122856597,-0.22729547395417576,0.10101080567000001,1.6838102461807307,0.536981444078181,-1.25923377238043, ,0.16825698857884888,0.1327229951866724,0.02875236736462094,-0.029097809990636152,0.1686411326525504,-0.1533061388712232, ,1.2637240886688232
0.014121019380315129,0.021460433614746588,-0.0900495673521669, ,0.015059540927665599,0.02085421761925418,-0.09084434525689028, ,0.001371128165369106, ,0.020820945113045195,-0.005979067987995112,-0.028672555979912334,0.0187030764495686,0.004183263468826906,-0.024585549893022602, ,0.03593572701124488, ,0.019164691046231683, ,0.0007872791798440047, ,0.2064749861252665,-0.22590538203681534,0.10131543382000001,1.6833908662937616,0.5388943550748971,-1.2606302655518988, ,0.17508660804145898,0.13894134928033788,0.030168203636363643,-0.011769989200483463,0.18450062716795454,-0.1541628780808626, ,1.2674121856689453
0.014121019380315129,0.021460433614746588,-0.0900495673521669, ,0.015136490043518256,0.020835881843937434,-0.09096993155071073, ,0.001506092905569995, ,0.020820945113045195,-0.005979067987995112,-0.028672555979912334,0.0187030764495686,0.004183263468826906,-0.024585549893022602, ,0.03593572701124488, ,0.019164691046231683, ,0.0007952659990187379, ,0.2064749861252665,-0.22590538203681534,0.10131543382000001,1.6833908662937616,0.5388943550748971,-1.2606302655518988, ,0.17508660804145898,0.13894134928033788,0.030168203636363643,-0.011769989200483463,0.18450062716795454,-0.1541628780808626, ,1.271049976348877
0.014121019380315129,0.021398623940787606,-0.09034886982561752, ,0.015213631899763746,0.020817261928555417,-0.09109545134034897, ,0.0016435769687816462, ,0.022464598794694396,-0.006542345423388826,-0.03223238035149753,-0.016842485308953457,-0.03151319545501514,0.07134172344906628, ,0.03593572701124488, ,0.019164691046231683, ,0.000804588097587561, ,0.20822032375484123,-0.22451529011945495,0.10162913600000001,1.6823424165763388,0.5406706295718479,-1.2619970195598118, ,0.18355307844965332,0.14781455071412894,0.03374748203389831,-0.11375222715418336,0.1797780206410437,-0.14796518083471585, ,1.275223970413208
0.014331995949973381,0.021398623940787606,-0.09034886982561752, ,0.015290961600753088,0.020798365938053797,-0.09122090336547031, ,0.0014284142549868108, ,0.022464598794694396,-0.006542345423388826,-0.03223238035149753,-0.016842485308953457,-0.03151319545501514,0.07134172344906628, ,0.03982947182387843, ,0.03573116298933063, ,0.0008113688166897268, ,0.20822032375484123,-0.22451529011945495,0.10162913600000001,1.6823424165763388,0.5406706295718479,-1.2619970195598118, ,0.18355307844965332,0.14781455071412894,0.03374748203389831,-0.11375222715418336,0.1797780206410437,-0.14796518083471585, ,1.278799057006836
0.014331995949973381,0.021398623940787606,-0.09034886982561752, ,0.015368474285643316,0.02077920188865549,-0.09134628636733234, ,0.0015661451965469373, ,0.022464598794694396,-0.006542345423388826,-0.03223238035149753,-0.016842485308953457,-0.03151319545501514,0.07134172344906628, ,0.03982947182387843, ,0.03573116298933063, ,0.0008194846917419549, ,0.20822032375484123,-0.22451529011945495,0.10162913600000001,1.6823424165763388,0.5406706295718479,-1.2619970195598118, ,0.18355307844965332,0.14781455071412894,0.03374748203389831,-0.11375222715418336,0.1797780206410437,-0.14796518083471585, ,1.28239107131958
0.014564535259332587,0.021337476292871242,-0.0906911550461095, ,0.015446165128309451,0.02075977774796882,-0.09147159908879517, ,0.0013115257292245874, ,0.0231842620892725,-0.005660411309643427,-0.034596625457132185,-0.022549815460507803,-0.03670955204724458,-0.002973487979774381, ,0.042029474869899386, ,0.043081734233245184, ,0.0008247191708641106, ,0.21008150237752934,-0.22300163447610694,0.10198820833000001,1.6819230366893698,0.5424469040687986,-1.2634454523078653, ,0.1817949072001356,0.14712704117592368,0.03628430870159454,-0.03473023133588755,0.15481590018826813,-0.12604354432292153, ,1.2859539985656738
0.014564535259332587,0.021337476292871242,-0.0906911550461095, ,0.015524029337256854,0.020740101435096067,-0.09159684027433337, ,0.0014483616050201624, ,0.0231842620892725,-0.005660411309643427,-0.034596625457132185,-0.022549815460507803,-0.03670955204724458,-0.002973487979774381, ,0.042029474869899386, ,0.043081734233245184, ,0.0008312838280657533, ,0.21008150237752934,-0.22300163447610694,0.10198820833000001,1.6819230366893698,0.5424469040687986,-1.2634454523078653, ,0.1817949072001356,0.14712704117592368,0.03628430870159454,-0.03473023133588755,0.15481590018826813,-0.12604354432292153, ,1.2895700931549072
0.014564535259332587,0.021337476292871242,-0.0906911550461095, ,0.015602062155533187,0.0207201808207414,-0.09172200867004746, ,0.0015875058910875485, ,0.0231842620892725,-0.005660411309643427,-0.034596625457132185,-0.022549815460507803,-0.03670955204724458,-0.002973487979774381, ,0.042029474869899386, ,0.043081734233245184, ,0.0008391611412222304, ,0.21008150237752934,-0.22300163447610694,0.10198820833000001,1.6819230366893698,0.5424469040687986,-1.2634454523078653, ,0.1817949072001356,0.14712704117592368,0.03628430870159454,-0.03473023133588755,0.15481590018826813,-0.12604354432292153, ,1.293436050415039
0.014795908800637771,0.021284568780894925,-0.09103955872786264, ,0.015680258860640665,0.02070002372731935,-0.09184710302367494, ,0.0013326273815233488, ,0.02464207364438535,-0.005442760529402685,-0.03717888320866026,-0.06425373382976081,-0.0825959414662385,-0.06396661728608387, ,0.04493467249595722, ,0.10464492735549236, ,0.0008442484220500769, ,0.21184228547285253,-0.2215652061615012,0.10235246582000002,1.6817133467458854,0.543539996066922,-1.2643367955374365, ,0.18462439991920385,0.15305958315882384,0.03885075980487805,0.030069853166274797,0.09671491056688226,-0.07769220626364282, ,1.2997121810913086
0.014795908800637771,0.021284568780894925,-0.09103955872786264, ,0.015758614764448106,0.02067963792906304,-0.09197212208460213, ,0.00147051641357289, ,0.02464207364438535,-0.005442760529402685,-0.03717888320866026,-0.06425373382976081,-0.0825959414662385,-0.06396661728608387, ,0.04493467249595722, ,0.10464492735549236, ,0.0008506389117594933, ,0.21184228547285253,-0.2215652061615012,0.10235246582000002,1.6817133467458854,0.543539996066922,-1.2643367955374365, ,0.18462439991920385,0.15305958315882384,0.03885075980487805,0.030069853166274797,0.09671491056688226,-0.07769220626364282, ,1.3037731647491455
0.015031071786395905,0.021230822727447,-0.09139298990424127, ,0.0158371252131032,0.02065903115213255,-0.0920970646038753, ,0.0012134203372994447, ,0.024823923310601313,-0.005569473946785133,-0.037827218549251945,-0.06034145250514906,-0.08919067787989576,-0.039629951619946785, ,0.045586672084584154, ,0.10768468071641268, ,0.0008543033706033313, ,0.2136030685681757,-0.22009788691539853,0.10272190847000001,1.6819230366893698,0.5444964515652801,-1.2650350421231709, ,0.18355307844965332,0.15330685227539706,0.039525586898263035,0.0,0.09542002746295442,-0.08863976853797044, ,1.3075981140136719
0.015031071786395905,0.021230822727447,-0.09139298990424127, ,0.01591578558694435,0.02063821107472303,-0.09222192933421228, ,0.0013494619884923615, ,0.024823923310601313,-0.005569473946785133,-0.037827218549251945,-0.06034145250514906,-0.08919067787989576,-0.039629951619946785, ,0.045586672084584154, ,0.10768468071641268, ,0.0008592549567822216, ,0.2136030685681757,-0.22009788691539853,0.10272190847000001,1.6819230366893698,0.5444964515652801,-1.2650350421231709, ,0.18355307844965332,0.15330685227539706,0.039525586898263035,0.0,0.09542002746295442,-0.08863976853797044, ,1.3111979961395264
0.015296255239238502,0.021162033277096957,-0.09178887735230208, ,0.01599459130041326,0.020617185327172938,-0.09234671503001368, ,0.0010467642607331184, ,0.022793993500822132,-0.0063085622054981074,-0.033586558923547,-0.05536973735233369,-0.07593188544946022,0.024195449889538978, ,0.041078230696331784, ,0.09397561547051249, ,0.0008611114845441118, ,0.21559553364972564,-0.21842977661456603,0.10313542498000002,1.6810842769154317,0.5457261800631692,-1.2660378032564388, ,0.17191474920012823,0.1462202489344696,0.03508548792951543,-0.06579181328842701,0.11148503455409983,-0.10009666730949203, ,1.3155021667480469
0.015296255239238502,0.021162033277096957,-0.09178887735230208, ,0.016073537801966683,0.02059596149207267,-0.09247142044737468, ,0.001179182142314388, ,0.022793993500822132,-0.0063085622054981074,-0.033586558923547,-0.05536973735233369,-0.07593188544946022,0.024195449889538978, ,0.041078230696331784, ,0.09397561547051249, ,0.0008642298243261732, ,0.21559553364972564,-0.21842977661456603,0.10313542498000002,1.6810842769154317,0.5457261800631692,-1.2660378032564388, ,0.17191474920012823,0.1462202489344696,0.03508548792951543,-0.06579181328842701,0.11148503455409983,-0.10009666730949203, ,1.319115161895752
0.015296255239238502,0.021162033277096957,-0.09178887735230208, ,0.016152620573988714,0.020574547104372447,-0.09259604434409634, ,0.0013153023007455445, ,0.022793993500822132,-0.0063085622054981074,-0.033586558923547,-0.05536973735233369,-0.07593188544946022,0.024195449889538978, ,0.041078230696331784, ,0.09397561547051249, ,0.0008686091687574293, ,0.21559553364972564,-0.21842977661456603,0.10313542498000002,1.6810842769154317,0.5457261800631692,-1.2660378032564388, ,0.17191474920012823,0.1462202489344696,0.03508548792951543,-0.06579181328842701,0.11148503455409983,-0.10009666730949203, ,1.3227391242980957
0.015517702779519964,0.021093093147811277,-0.0921012688406242, ,0.016231835132703,0.020552949651490706,-0.09272058547969664, ,0.0010887116762082329, ,0.02248019622572542,-0.00745302162959859,-0.03132626873291961,-0.03146929244598028,-0.03823669828760708,0.02404951363328056, ,0.03927138737663187, ,0.04952101872143341, ,0.0008707255390213793, ,0.21730225761492925,-0.21695473463558915,0.10346209006000001,1.6806648970284628,0.5469559085610581,-1.2672039218699878, ,0.1760611160639532,0.1520784319847288,0.03284291035051547,-0.06705423849411188,0.15413238248153438,-0.12913867643204735, ,1.3263351917266846
0.015517702779519964,0.021093093147811277,-0.0921012688406242, ,0.016311177028084715,0.020531176573422447,-0.09284504261542222, ,0.0012241531962077178, ,0.02248019622572542,-0.00745302162959859,-0.03132626873291961,-0.03146929244598028,-0.03823669828760708,0.02404951363328056, ,0.03927138737663187, ,0.04952101872143341, ,0.0008740915167088683, ,0.21730225761492925,-0.21695473463558915,0.10346209006000001,1.6806648970284628,0.5469559085610581,-1.2672039218699878, ,0.1760611160639532,0.1520784319847288,0.03284291035051547,-0.06705423849411188,0.15413238248153438,-0.12913867643204735, ,1.329958200454712
0.015517702779519964,0.021093093147811277,-0.0921012688406242, ,0.016390641843772827,0.020509235262847425,-0.09296941451425986, ,0.0013625672645361199, ,0.02248019622572542,-0.00745302162959859,-0.03132626873291961,-0.03146929244598028,-0.03823669828760708,0.02404951363328056, ,0.03927138737663187, ,0.04952101872143341, ,0.0008786997784808236, ,0.21730225761492925,-0.21695473463558915,0.10346209006000001,1.6806648970284628,0.5469559085610581,-1.2672039218699878, ,0.1760611160639532,0.1520784319847288,0.03284291035051547,-0.06705423849411188,0.15413238248153438,-0.12913867643204735, ,1.3336200714111328
0.015735528319635074,0.02102291854830818,-0.09240543673801818, ,0.016470225196982186,0.020487133065238323,-0.09309369994094817, ,0.0011404173893620891, ,0.022035612927441377,-0.007355401730142631,-0.03045595154890707,-0.024753171992781004,-0.032184668817432066,-0.00377518630891886, ,0.03830450569383687, ,0.04060229337116093, ,0.0008811457374610222, ,0.21900898158013288,-0.21547196992373804,0.10378227369000001,1.6806648970284628,0.5485955465582434,-1.2687042941946258, ,0.1716038726192962,0.14944400245428469,0.031985565301204825,-0.03830187625266232,0.14938068339362304,-0.12743868967832828, ,1.3374722003936768
0.015735528319635074,0.02102291854830818,-0.09240543673801818, ,0.01654992273841567,0.020464877278969434,-0.09321789766198811, ,0.001278569935750195, ,0.022035612927441377,-0.007355401730142631,-0.03045595154890707,-0.024753171992781004,-0.032184668817432066,-0.00377518630891886, ,0.03830450569383687, ,0.04060229337116093, ,0.0008848255911488849, ,0.21900898158013288,-0.21547196992373804,0.10378227369000001,1.6806648970284628,0.5485955465582434,-1.2687042941946258, ,0.1716038726192962,0.14944400245428469,0.031985565301204825,-0.03830187625266232,0.14938068339362304,-0.12743868967832828, ,1.3419740200042725
0.015735528319635074,0.02102291854830818,-0.09240543673801818, ,0.01662973015217634,0.02044247515542437,-0.09334200644565563, ,0.0014190399102656424, ,0.022035612927441377,-0.007355401730142631,-0.03045595154890707,-0.024753171992781004,-0.032184668817432066,-0.00377518630891886, ,0.03830450569383687, ,0.04060229337116093, ,0.0008897266399481212, ,0.21900898158013288,-0.21547196992373804,0.10378227369000001,1.6806648970284628,0.5485955465582434,-1.2687042941946258, ,0.1716038726192962,0.14944400245428469,0.031985565301204825,-0.03830187625266232,0.14938068339362304,-0.12743868967832828, ,1.3456811904907227
0.01604450318908267,0.020915478930886827,-0.09282092945120327, ,0.016709643155679497,0.020419933899104625,-0.09346602506201199, ,0.0010507732394637423, ,0.02091586543661246,-0.007483004301058453,-0.027734582477200002,-0.0459502200797374,-0.06381013093379977,-0.023831134258175415, ,0.035534150412198526, ,0.0786329391869643, ,0.0008911906999437178, ,0.22140302877114246,-0.21336366384907476,0.10421782713000001,1.6802455171414936,0.5503718210551941,-1.2704794419032415, ,0.16057012108032281,0.1437832447855618,0.029014228633879785,-0.017663492307737495,0.10146752125405627,-0.0975387385634881, ,1.3500020503997803
0.01604450318908267,0.020915478930886827,-0.09282092945120327, ,0.016789657499564993,0.020397260667737963,-0.09358995228291585, ,0.0011896223057704695, ,0.02091586543661246,-0.007483004301058453,-0.027734582477200002,-0.0459502200797374,-0.06381013093379977,-0.023831134258175415, ,0.035534150412198526, ,0.0786329391869643, ,0.000893879272969184, ,0.22140302877114246,-0.21336366384907476,0.10421782713000001,1.6802455171414936,0.5503718210551941,-1.2704794419032415, ,0.16057012108032281,0.1437832447855618,0.029014228633879785,-0.017663492307737495,0.10146752125405627,-0.0975387385634881, ,1.3536791801452637
0.01604450318908267,0.020915478930886827,-0.09282092945120327, ,0.01686976896760925,0.020374462572386533,-0.09371378688203477, ,0.001330772969804781, ,0.02091586543661246,-0.007483004301058453,-0.027734582477200002,-0.0459502200797374,-0.06381013093379977,-0.023831134258175415, ,0.035534150412198526, ,0.0786329391869643, ,0.0008977801095480733, ,0.22140302877114246,-0.21336366384907476,0.10421782713000001,1.6802455171414936,0.5503718210551941,-1.2704794419032415, ,0.16057012108032281,0.1437832447855618,0.029014228633879785,-0.017663492307737495,0.10146752125405627,-0.0975387385634881, ,1.357253074645996
0.016255022716879335,0.020837891969836632,-0.09311309272764759, ,0.016949973376637385,0.020351546677555024,-0.0938375276348561, ,0.001115479312943471, ,0.020836371907591213,-0.007653802756923199,-0.030385423038602463,-0.03980403170606338,-0.07118115927877132,0.07419690793510826, ,0.03762989535127855, ,0.08155423026879993, ,0.0008997066511710414, ,0.22299391174323271,-0.21191179006872055,0.10452245528000001,1.6791970674240708,0.5514649130533176,-1.271697500093375, ,0.15380379507045505,0.14488082680682562,0.03160478476190477,-0.1303492411736116,0.11052118586288302,-0.13051414094960642, ,1.36080002784729
0.016255022716879335,0.020837891969836632,-0.09311309272764759, ,0.017030266576435374,0.02032852000129899,-0.09396117331869891, ,0.001256862575236136, ,0.020836371907591213,-0.007653802756923199,-0.030385423038602463,-0.03980403170606338,-0.07118115927877132,0.07419690793510826, ,0.03762989535127855, ,0.08155423026879993, ,0.0009028395978733667, ,0.22299391174323271,-0.21191179006872055,0.10452245528000001,1.6791970674240708,0.5514649130533176,-1.271697500093375, ,0.15380379507045505,0.14488082680682562,0.03160478476190477,-0.1303492411736116,0.11052118586288302,-0.13051414094960642, ,1.364396095275879
0.016255022716879335,0.020837891969836632,-0.09311309272764759, ,0.017110644449662246,0.020305389515333564,-0.09408472271272539, ,0.0013998972253578144, ,0.020836371907591213,-0.007653802756923199,-0.030385423038602463,-0.03980403170606338,-0.07118115927877132,0.07419690793510826, ,0.03762989535127855, ,0.08155423026879993, ,0.0009071618381123619, ,0.22299391174323271,-0.21191179006872055,0.10452245528000001,1.6791970674240708,0.5514649130533176,-1.271697500093375, ,0.15380379507045505,0.14488082680682562,0.03160478476190477,-0.1303492411736116,0.11052118586288302,-0.13051414094960642, ,1.3680031299591064
0.016464068811853264,0.020767891056790645,-0.09342692843580057, ,0.01719110291176223,0.020282162145140947,-0.09420817459795144, ,0.0011725428452377827, ,0.020556164899068752,-0.00658631282183573,-0.032219982188936534,0.0345874050427256,-0.01517244409811138,-0.008745847268631977, ,0.03878224702360826, ,0.03776846467307254, ,0.0009094496054151672, ,0.22451529011945495,-0.21046763902124055,0.10485041665000001,1.678777687537102,0.5526946415512066,-1.2731903336674861, ,0.14781455071412894,0.14100585669906504,0.03374748203389831,-0.05397330014204504,0.1442097323188439,-0.18582385420423705, ,1.3715770244598389
0.016464068811853264,0.020767891056790645,-0.09342692843580057, ,0.01727163791087671,0.020258844770079307,-0.09433152775725984, ,0.0013151410206121285, ,0.020556164899068752,-0.00658631282183573,-0.032219982188936534,0.0345874050427256,-0.01517244409811138,-0.008745847268631977, ,0.03878224702360826, ,0.03776846467307254, ,0.0009129170534083037, ,0.22451529011945495,-0.21046763902124055,0.10485041665000001,1.678777687537102,0.5526946415512066,-1.2731903336674861, ,0.14781455071412894,0.14100585669906504,0.03374748203389831,-0.05397330014204504,0.1442097323188439,-0.18582385420423705, ,1.3752059936523438
0.016464068811853264,0.020767891056790645,-0.09342692843580057, ,0.01735224542775669,0.02023544422349089,-0.09445478097541012, ,0.0014590538627858793, ,0.020556164899068752,-0.00658631282183573,-0.032219982188936534,0.0345874050427256,-0.01517244409811138,-0.008745847268631977, ,0.03878224702360826, ,0.03776846467307254, ,0.0009175453314538765, ,0.22451529011945495,-0.21046763902124055,0.10485041665000001,1.678777687537102,0.5526946415512066,-1.2731903336674861, ,0.14781455071412894,0.14100585669906504,0.03374748203389831,-0.05397330014204504,0.1442097323188439,-0.18582385420423705, ,1.37949800491333
0.016464068811853264,0.020767891056790645,-0.09342692843580057, ,0.01743292147567463,0.02021196729280999,-0.09457793303905017, ,0.0016039134366461131, ,0.020556164899068752,-0.00658631282183573,-0.032219982188936534,0.0345874050427256,-0.01517244409811138,-0.008745847268631977, ,0.03878224702360826, ,0.03776846467307254, ,0.0009233131306571725, ,0.22451529011945495,-0.21046763902124055,0.10485041665000001,1.678777687537102,0.5526946415512066,-1.2731903336674861, ,0.14781455071412894,0.14100585669906504,0.03374748203389831,-0.05397330014204504,0.1442097323188439,-0.18582385420423705, ,1.3833940029144287
0.016464068811853264,0.020767891056790645,-0.09342692843580057, ,0.017513662100336707,0.020188420719671443,-0.09470098273672868, ,0.0017494702925582796, ,0.020556164899068752,-0.00658631282183573,-0.032219982188936534,0.0345874050427256,-0.01517244409811138,-0.008745847268631977, ,0.03878224702360826, ,0.03776846467307254, ,0.0009301977736730151, ,0.22451529011945495,-0.21046763902124055,0.10485041665000001,1.678777687537102,0.5526946415512066,-1.2731903336674861, ,0.14781455071412894,0.14100585669906504,0.03374748203389831,-0.05397330014204504,0.1442097323188439,-0.18582385420423705, ,1.3870611190795898
0.016464068811853264,0.020767891056790645,-0.09342692843580057, ,0.01759446337979507,0.02016481120001919,-0.09482392885890588, ,0.0018955493596929205, ,0.020556164899068752,-0.00658631282183573,-0.032219982188936534,0.0345874050427256,-0.01517244409811138,-0.008745847268631977, ,0.03878224702360826, ,0.03776846467307254, ,0.0009381758859541713, ,0.22451529011945495,-0.21046763902124055,0.10485041665000001,1.678777687537102,0.5526946415512066,-1.2731903336674861, ,0.14781455071412894,0.14100585669906504,0.03374748203389831,-0.05397330014204504,0.1442097323188439,-0.18582385420423705, ,1.3908159732818604
0.0168809616882174,0.020655553360478026,-0.09410053066146329, ,0.01767532142435982,0.020141145384214108,-0.0949467701979646, ,0.0012695449222403093, ,0.021000403170502027,-0.0049231326951251625,-0.03407552995858098,-0.009833491343606358,-0.07018627078978547,-0.05260647201750075, ,0.0403285991675336, ,0.07087146264219238, ,0.0009408920255958611, ,0.22741131494728914,-0.20775695978238776,0.10555819099000001,1.6785679975936174,0.55529073504675,-1.2761240612391238, ,0.13934940023270306,0.12858664167814468,0.03571482403587444,0.0,0.06875237343362225,-0.11807316879266791, ,1.394435167312622
0.0168809616882174,0.020655553360478026,-0.09410053066146329, ,0.01775623237651116,0.020117429877142302,-0.09506950554822233, ,0.0014122988324973213, ,0.021000403170502027,-0.0049231326951251625,-0.03407552995858098,-0.009833491343606358,-0.07018627078978547,-0.05260647201750075, ,0.0403285991675336, ,0.07087146264219238, ,0.0009447246012617266, ,0.22741131494728914,-0.20775695978238776,0.10555819099000001,1.6785679975936174,0.55529073504675,-1.2761240612391238, ,0.13934940023270306,0.12858664167814468,0.03571482403587444,0.0,0.06875237343362225,-0.11807316879266791, ,1.3980371952056885
0.0168809616882174,0.020655553360478026,-0.09410053066146329, ,0.01783719241081167,0.0200936712383237,-0.09519213370594265, ,0.00155617669971839, ,0.021000403170502027,-0.0049231326951251625,-0.03407552995858098,-0.009833491343606358,-0.07018627078978547,-0.05260647201750075, ,0.0403285991675336, ,0.07087146264219238, ,0.000949655666571861, ,0.22741131494728914,-0.20775695978238776,0.10555819099000001,1.6785679975936174,0.55529073504675,-1.2761240612391238, ,0.13934940023270306,0.12858664167814468,0.03571482403587444,0.0,0.06875237343362225,-0.11807316879266791, ,1.4017491340637207
0.01707395193946026,0.020601742219456043,-0.094393887213673, ,0.01791819773381832,0.020069875982019994,-0.09531465346934627, ,0.0013577345666227296, ,0.01842892653071686,-0.005672984373940888,-0.026554677559107863,-0.07686968794724347,-0.10684323979952373,-0.015459527009541101, ,0.032817053265790395, ,0.1316222382881247, ,0.0009529202977722679, ,0.22870873407015885,-0.20656765891975717,0.10586411543000002,1.677938927763164,0.5555640080462809,-1.276510254526798, ,0.12652925541129437,0.11744670984959255,0.02770228090434783,-0.021088926304592522,0.023819023076565353,-0.04324037958019125, ,1.4053590297698975
0.01707395193946026,0.020601742219456043,-0.094393887213673, ,0.017999244583994628,0.020046050577342895,-0.09543706363862259, ,0.001501058537404322, ,0.01842892653071686,-0.005672984373940888,-0.026554677559107863,-0.07686968794724347,-0.10684323979952373,-0.015459527009541101, ,0.032817053265790395, ,0.1316222382881247, ,0.0009572706012614112, ,0.22870873407015885,-0.20656765891975717,0.10586411543000002,1.677938927763164,0.5555640080462809,-1.276510254526798, ,0.12652925541129437,0.11744670984959255,0.02770228090434783,-0.021088926304592522,0.023819023076565353,-0.04324037958019125, ,1.4089419841766357
0.017263344602750186,0.020527679948858808,-0.09466188538207768, ,0.018080329231622963,0.02002220144836303,-0.0955593630159419, ,0.001314700917153542, ,0.019833426588491253,-0.007392436785018525,-0.03136101945896294,0.0850823206883964,0.043410314811375764,0.005037226513804036, ,0.03783551867448125, ,0.09551662886778761, ,0.0009600850131975696, ,0.2300756577888966,-0.20523162613251633,0.10614411407000002,1.6773098579327104,0.5565204635446389,-1.2776985735533757, ,0.14313264186798005,0.14291708066034756,0.03304732680497926,-0.07626525176430766,0.20277779427487552,-0.24322067431323863, ,1.412499189376831
0.017263344602750186,0.020527679948858808,-0.09466188538207768, ,0.018161447978716428,0.019998334974217137,-0.09568155040546522, ,0.00145825667700178, ,0.019833426588491253,-0.007392436785018525,-0.03136101945896294,0.0850823206883964,0.043410314811375764,0.005037226513804036, ,0.03783551867448125, ,0.09551662886778761, ,0.00096397697932104, ,0.2300756577888966,-0.20523162613251633,0.10614411407000002,1.6773098579327104,0.5565204635446389,-1.2776985735533757, ,0.14313264186798005,0.14291708066034756,0.03304732680497926,-0.07626525176430766,0.20277779427487552,-0.24322067431323863, ,1.4161510467529297
0.017442343334598282,0.020477053050981575,-0.09498202596275282, ,0.01824259715893122,0.019974457489217248,-0.0958036246133572, ,0.0012522111741793544, ,0.019480431775056588,-0.004281529521411098,-0.03609622968354532,0.17103529962539593,0.15598556454346332,-0.028535204752882744, ,0.041240229322260166, ,0.23148327970987315, ,0.0009662113529245929, ,0.23133446324739518,-0.20401143433838886,0.10648503834,1.6768904780457412,0.5591165570401824,-1.2806323011250134, ,0.1347967919864642,0.12340304493949386,0.03866216388349515,-0.03381029272399857,0.29965898788465684,-0.29848056871251005, ,1.4201741218566895
0.017442343334598282,0.020477053050981575,-0.09498202596275282, ,0.018323773137478672,0.019950575282958582,-0.09592558444779699, ,0.001394417423990063, ,0.019480431775056588,-0.004281529521411098,-0.03609622968354532,0.17103529962539593,0.15598556454346332,-0.028535204752882744, ,0.041240229322260166, ,0.23148327970987315, ,0.0009695052457789427, ,0.23133446324739518,-0.20401143433838886,0.10648503834,1.6768904780457412,0.5591165570401824,-1.2806323011250134, ,0.1347967919864642,0.12340304493949386,0.03866216388349515,-0.03381029272399857,0.29965898788465684,-0.29848056871251005, ,1.4237630367279053
0.017442343334598282,0.020477053050981575,-0.09498202596275282, ,0.018404972311037396,0.019926694600427737,-0.09604742871898932, ,0.0015377359992445262, ,0.019480431775056588,-0.004281529521411098,-0.03609622968354532,0.17103529962539593,0.15598556454346332,-0.028535204752882744, ,0.041240229322260166, ,0.23148327970987315, ,0.0009738428851183747, ,0.23133446324739518,-0.20401143433838886,0.10648503834,1.6768904780457412,0.5591165570401824,-1.2806323011250134, ,0.1347967919864642,0.12340304493949386,0.03866216388349515,-0.03381029272399857,0.29965898788465684,-0.29848056871251005, ,1.427381992340088
0.01766913196390254,0.02043082072687172,-0.09537402765222418, ,0.0184861911076655,0.01990282164211122,-0.09616915623917706, ,0.001256422758351773, ,0.021516271951932238,-0.004399809550781933,-0.03465440283072628,0.006100236682657658,-0.02515249450964008,-0.016523207024119635, ,0.04102725823579864, ,0.025880704938622615, ,0.0009759836417337792, ,0.23287128708936586,-0.20268312428402227,0.10690374001000001,1.676471098158772,0.5614393775361948,-1.2830981566688364, ,0.14356572096591644,0.1204275908102421,0.036872248888888896,-0.028222872245307232,0.12476841659841556,-0.12995202531944816, ,1.4309720993041992
0.01766913196390254,0.02043082072687172,-0.09537402765222418, ,0.018567425986712554,0.01987896256410329,-0.0962907658226512, ,0.0013971000165872987, ,0.021516271951932238,-0.004399809550781933,-0.03465440283072628,0.006100236682657658,-0.02515249450964008,-0.016523207024119635, ,0.04102725823579864, ,0.025880704938622615, ,0.0009791499302665124, ,0.23287128708936586,-0.20268312428402227,0.10690374001000001,1.676471098158772,0.5614393775361948,-1.2830981566688364, ,0.14356572096591644,0.1204275908102421,0.036872248888888896,-0.028222872245307232,0.12476841659841556,-0.12995202531944816, ,1.4346091747283936
0.01766913196390254,0.02043082072687172,-0.09537402765222418, ,0.01864867343873203,0.019855123478214918,-0.09641225628576344, ,0.0015391060777356963, ,0.021516271951932238,-0.004399809550781933,-0.03465440283072628,0.006100236682657658,-0.02515249450964008,-0.016523207024119635, ,0.04102725823579864, ,0.025880704938622615, ,0.0009833287074864317, ,0.23287128708936586,-0.20268312428402227,0.10690374001000001,1.676471098158772,0.5614393775361948,-1.2830981566688364, ,0.14356572096591644,0.1204275908102421,0.036872248888888896,-0.028222872245307232,0.12476841659841556,-0.12995202531944816, ,1.4382951259613037
0.01783173006723393,0.020397369989308207,-0.09564787369468745, ,0.018729929985393176,0.019831310452081342,-0.09653362644693717, ,0.0013826584649813936, ,0.02187065324036456,-0.004055917866360581,-0.03893010526809451,-0.05808035363272686,-0.07112545547623027,0.042264472864640204, ,0.04483669299896962, ,0.0918262951239938, ,0.0009862867056900982, ,0.23390613329451196,-0.20177184180486377,0.10719281268000001,1.6758420283283186,0.562122560035022,-1.283573567447178, ,0.1327229951866724,0.12197550328852286,0.04094810159383034,-0.0835688944835954,0.07878493012769937,-0.0796376428227881, ,1.4419620037078857
0.01783173006723393,0.020397369989308207,-0.09564787369468745, ,0.018811192179393373,0.019807529509270685,-0.0966548751266788, ,0.0015235844922679331, ,0.02187065324036456,-0.004055917866360581,-0.03893010526809451,-0.05808035363272686,-0.07112545547623027,0.042264472864640204, ,0.04483669299896962, ,0.0918262951239938, ,0.0009902374247090528, ,0.23390613329451196,-0.20177184180486377,0.10719281268000001,1.6758420283283186,0.562122560035022,-1.283573567447178, ,0.1327229951866724,0.12197550328852286,0.04094810159383034,-0.0835688944835954,0.07878493012769937,-0.0796376428227881, ,1.4455981254577637
0.01783173006723393,0.020397369989308207,-0.09564787369468745, ,0.01889245660436998,0.01978378662939214,-0.09677600114758916, ,0.0016656220688202412, ,0.02187065324036456,-0.004055917866360581,-0.03893010526809451,-0.05808035363272686,-0.07112545547623027,0.042264472864640204, ,0.04483669299896962, ,0.0918262951239938, ,0.0009951672396295724, ,0.23390613329451196,-0.20177184180486377,0.10719281268000001,1.6758420283283186,0.562122560035022,-1.283573567447178, ,0.1327229951866724,0.12197550328852286,0.04094810159383034,-0.0835688944835954,0.07878493012769937,-0.0796376428227881, ,1.449294090270996
0.018095552779076887,0.02034996241814779,-0.09614717416983665, ,0.018973719874812812,0.019760087748204393,-0.09689700333437597, ,0.001296677812823153, ,0.020822954897904228,-0.0038389118562357875,-0.03908778870635577,-0.015496047037072433,0.0008123161370870008,0.0187872996344427, ,0.04445433523148013, ,0.015514383230758398, ,0.000997352098855613, ,0.23545840260223108,-0.2002427406957673,0.10771781013000001,1.675212958497865,0.5634889250326764,-1.2848511039644233, ,0.12502890850918416,0.12027495761529881,0.04126635108808291,-0.056870716028337764,0.13840635423720457,-0.11318316791118618, ,1.4530560970306396
0.018095552779076887,0.02034996241814779,-0.09614717416983665, ,0.019054978635976116,0.019736438757723528,-0.09701788051386322, ,0.00143354064969059, ,0.020822954897904228,-0.0038389118562357875,-0.03908778870635577,-0.015496047037072433,0.0008123161370870008,0.0187872996344427, ,0.04445433523148013, ,0.015514383230758398, ,0.0010004901459839221, ,0.23545840260223108,-0.2002427406957673,0.10771781013000001,1.675212958497865,0.5634889250326764,-1.2848511039644233, ,0.12502890850918416,0.12027495761529881,0.04126635108808291,-0.056870716028337764,0.13840635423720457,-0.11318316791118618, ,1.45713210105896
0.018317587557513067,0.020303307393190584,-0.09654079300508304, ,0.019136229563790776,0.019712845506331792,-0.09713863151500482, ,0.0011731286622620406, ,0.0199884228681469,-0.004818984472024748,-0.0336845148032294,0.03850944562453359,0.04520505105093618,-0.011917682903927852, ,0.03946398608385187, ,0.05938375768352375, ,0.0010017232782430516, ,0.23687166271821417,-0.1989221533742749,0.10813651180000002,1.675212958497865,0.5654018360293926,-1.2865743120964543, ,0.1319846196918926,0.11966827434863908,0.03595668514672686,-0.030925047808718197,0.18477917643065775,-0.1608126984503946, ,1.4608700275421143
0.018317587557513067,0.020303307393190584,-0.09654079300508304, ,0.019217469364776297,0.01968931379888531,-0.09725925516889435, ,0.0013049763529350503, ,0.0199884228681469,-0.004818984472024748,-0.0336845148032294,0.03850944562453359,0.04520505105093618,-0.011917682903927852, ,0.03946398608385187, ,0.05938375768352375, ,0.001003874009269236, ,0.23687166271821417,-0.1989221533742749,0.10813651180000002,1.675212958497865,0.5654018360293926,-1.2865743120964543, ,0.1319846196918926,0.11966827434863908,0.03595668514672686,-0.030925047808718197,0.18477917643065775,-0.1608126984503946, ,1.4644670486450195
0.018317587557513067,0.020303307393190584,-0.09654079300508304, ,0.01929869477595322,0.019665849396822983,-0.09737975030877771, ,0.0014397129674455938, ,0.0199884228681469,-0.004818984472024748,-0.0336845148032294,0.03850944562453359,0.04520505105093618,-0.011917682903927852, ,0.03946398608385187, ,0.05938375768352375, ,0.0010069432977070979, ,0.23687166271821417,-0.1989221533742749,0.10813651180000002,1.675212958497865,0.5654018360293926,-1.2865743120964543, ,0.1319846196918926,0.11966827434863908,0.03595668514672686,-0.030925047808718197,0.18477917643065775,-0.1608126984503946, ,1.4680321216583252
0.018517095611297614,0.020253019162270167,-0.09686836818815248, ,0.019379902564755084,0.019642458018274037,-0.09750011577006404, ,0.0012313917966039608, ,0.020433009460845638,-0.005454971315299483,-0.032236110340429426,0.004322064334435928,0.02579349889190887,-0.01657948267588546, ,0.03855426562078557, ,0.02615243802143323, ,0.0010085128676294533, ,0.2381999727725808,-0.19773285251164435,0.10848651010000002,1.674793578610896,0.5671781105263433,-1.2881044235846484, ,0.1375317993601026,0.12292349942807097,0.034477947012987016,-0.01881066569841574,0.16872080330015946,-0.1259994411068343, ,1.4716341495513916
0.018517095611297614,0.020253019162270167,-0.09686836818815248, ,0.019461089528940524,0.019619145338166753,-0.09762035039033634, ,0.0013632306385317162, ,0.020433009460845638,-0.005454971315299483,-0.032236110340429426,0.004322064334435928,0.02579349889190887,-0.01657948267588546, ,0.03855426562078557, ,0.02615243802143323, ,0.0010109761854829413, ,0.2381999727725808,-0.19773285251164435,0.10848651010000002,1.674793578610896,0.5671781105263433,-1.2881044235846484, ,0.1375317993601026,0.12292349942807097,0.034477947012987016,-0.01881066569841574,0.16872080330015946,-0.1259994411068343, ,1.4752490520477295
0.018517095611297614,0.020253019162270167,-0.09686836818815248, ,0.019542252496505676,0.019595916988336914,-0.09774045300936482, ,0.0014977522631150547, ,0.020433009460845638,-0.005454971315299483,-0.032236110340429426,0.004322064334435928,0.02579349889190887,-0.01657948267588546, ,0.03855426562078557, ,0.02615243802143323, ,0.0010143332618804042, ,0.2381999727725808,-0.19773285251164435,0.10848651010000002,1.674793578610896,0.5671781105263433,-1.2881044235846484, ,0.1375317993601026,0.12292349942807097,0.034477947012987016,-0.01881066569841574,0.16872080330015946,-0.1259994411068343, ,1.4788541793823242
0.018732228025707964,0.02018493185180085,-0.09718883464104779, ,0.019623388325596014,0.019572778557635475,-0.09786042246911644, ,0.0012727641362263683, ,0.02097197825771837,-0.0068443845068548665,-0.030920477179592537,-0.030573979314561635,-0.010226818026076015,0.09408639683756827, ,0.03798348825915795, ,0.03223860658031871, ,0.0010161033363622258, ,0.2396827374844319,-0.1964277106559004,0.10882873066000001,1.673535438949989,0.5688177485235285,-1.2893597596888648, ,0.145102357123044,0.12754965263235318,0.03304732680497926,-0.1369275632167668,0.16306332459663098,-0.12344875534467463, ,1.4824321269989014
0.018732228025707964,0.02018493185180085,-0.09718883464104779, ,0.019704493904418682,0.0195497355920373,-0.09798025761376765, ,0.0014053915999007083, ,0.02097197825771837,-0.0068443845068548665,-0.030920477179592537,-0.030573979314561635,-0.010226818026076015,0.09408639683756827, ,0.03798348825915795, ,0.03223860658031871, ,0.0010187515558420796, ,0.2396827374844319,-0.1964277106559004,0.10882873066000001,1.673535438949989,0.5688177485235285,-1.2893597596888648, ,0.145102357123044,0.12754965263235318,0.03304732680497926,-0.1369275632167668,0.16306332459663098,-0.12344875534467463, ,1.4869911670684814
0.018831902902064747,0.02015655972879103,-0.09733239997206078, ,0.019785566151154586,0.01952679359474909,-0.09809995728971527, ,0.0015403933435422837, ,0.02126178567419949,-0.0059607380342064555,-0.030664405776928742,-0.013162521573047831,-0.005174240118490384,0.054880956617819596, ,0.03762525816000188, ,0.014142051557850489, ,0.0010222761625157295, ,0.24037006071023787,-0.19584850569033357,0.10898298917000002,1.6733257490065043,0.5695009310223558,-1.289916849207347, ,0.14781455071412894,0.12027495761529881,0.03304732680497926,-0.09449308815178707,0.1624425176650035,-0.1240587699415729, ,1.4910800457000732
0.018831902902064747,0.02015655972879103,-0.09733239997206078, ,0.01986660201387056,0.01950395802631828,-0.09821952034558762, ,0.0015111167364464176, ,0.02126178567419949,-0.0059607380342064555,-0.030664405776928742,-0.013162521573047831,-0.005174240118490384,0.054880956617819596, ,0.03778756024963997, ,0.014142051557850489, ,0.001025556971736741, ,0.24037006071023787,-0.19584850569033357,0.10898298917000002,1.6733257490065043,0.5695009310223558,-1.289916849207347, ,0.14781455071412894,0.12027495761529881,0.03304732680497926,-0.09449308815178707,0.1624425176650035,-0.1240587699415729, ,1.4947690963745117
0.018831902902064747,0.02015655972879103,-0.09733239997206078, ,0.019947598470431503,0.019481234304740316,-0.0983389456322567, ,0.0016474147005844462, ,0.02126178567419949,-0.0059607380342064555,-0.030664405776928742,-0.013162521573047831,-0.005174240118490384,0.054880956617819596, ,0.03778756024963997, ,0.014142051557850489, ,0.0010297026899290587, ,0.24037006071023787,-0.19584850569033357,0.10898298917000002,1.6733257490065043,0.5695009310223558,-1.289916849207347, ,0.14781455071412894,0.12027495761529881,0.03304732680497926,-0.09449308815178707,0.1624425176650035,-0.1240587699415729, ,1.4984521865844727
0.019149653959824115,0.020067883772327398,-0.09778588421243195, ,0.020028552528412444,0.01945862780556784,-0.09845823200284905, ,0.001263212997945116, ,0.02045536101620317,-0.006478130445655083,-0.027958378300750642,-0.04121364564714526,-0.04455298131369336,-0.03498872205181142, ,0.03524285580911417, ,0.060691973510787874, ,0.0010312491158099599, ,0.2425555941136434,-0.1940259407320166,0.10947169050000001,1.6729063691195354,0.5716871150186029,-1.2916178569263492, ,0.13934940023270306,0.12292349942807097,0.029941375037593993,0.0,0.0955123413469997,-0.07742743114994864, ,1.5021181106567383
0.019149653959824115,0.020067883772327398,-0.09778588421243195, ,0.0201094612250109,0.019436143862018473,-0.09857737831275781, ,0.001395273525669111, ,0.02045536101620317,-0.006478130445655083,-0.027958378300750642,-0.04121364564714526,-0.04455298131369336,-0.03498872205181142, ,0.03524285580911417, ,0.060691973510787874, ,0.001033644013243244, ,0.2425555941136434,-0.1940259407320166,0.10947169050000001,1.6729063691195354,0.5716871150186029,-1.2916178569263492, ,0.13934940023270306,0.12292349942807097,0.029941375037593993,0.0,0.0955123413469997,-0.07742743114994864, ,1.5057811737060547
0.019149653959824115,0.020067883772327398,-0.09778588421243195, ,0.020190321626958815,0.01941378776508314,-0.09869638341965306, ,0.0015296534203742785, ,0.02045536101620317,-0.006478130445655083,-0.027958378300750642,-0.04121364564714526,-0.04455298131369336,-0.03498872205181142, ,0.03524285580911417, ,0.060691973510787874, ,0.00103688590479312, ,0.2425555941136434,-0.1940259407320166,0.10947169050000001,1.6729063691195354,0.5716871150186029,-1.2916178569263492, ,0.13934940023270306,0.12292349942807097,0.029941375037593993,0.0,0.0955123413469997,-0.07742743114994864, ,1.5093750953674316
0.019351700503807308,0.019996393438364075,-0.09806317514711631, ,0.020271130830434733,0.019391564763634496,-0.0988152461834946, ,0.0013329593748709965, ,0.021029061404104158,-0.007363463673141605,-0.029702292864778997,0.0009927242605419248,0.007977758196941912,-0.04361779776643665, ,0.03713042178899077, ,0.008037848550859835, ,0.0010388084597936257, ,0.2439456860310038,-0.19272852160914686,0.10976854091000002,1.6731160590630199,0.5729168435164919,-1.292620618059617, ,0.14422027592472764,0.1346055908630791,0.031857623040000005,0.0,0.15325931905636567,-0.1308476298133141, ,1.5129320621490479
0.019351700503807308,0.019996393438364075,-0.09806317514711631, ,0.020351885960976097,0.019369480064535084,-0.09893396546654244, ,0.0014668561986179351, ,0.021029061404104158,-0.007363463673141605,-0.029702292864778997,0.0009927242605419248,0.007977758196941912,-0.04361779776643665, ,0.03713042178899077, ,0.008037848550859835, ,0.0010415700581086211, ,0.2439456860310038,-0.19272852160914686,0.10976854091000002,1.6731160590630199,0.5729168435164919,-1.292620618059617, ,0.14422027592472764,0.1346055908630791,0.031857623040000005,0.0,0.15325931905636567,-0.1308476298133141, ,1.5165560245513916
0.019574386497377774,0.01992716248152383,-0.09839820837679839, ,0.020432584173391208,0.019347538832745436,-0.09905254013336852, ,0.0016025494945328571, ,0.02194266042359171,-0.006008296450474084,-0.033919996592247065,0.03330946163422683,0.037216043758444346,0.034390558873715955, ,0.04035947495436995, ,0.04994506225860456, ,0.0010451660801369818, ,0.24544389620860338,-0.19139248882190601,0.11012890953000001,1.6722772992890815,0.5748297545132081,-1.294343826191648, ,0.14577103157983223,0.12502890850918416,0.03661795751724139,-0.08467586658015812,0.20028923605308327,-0.1741453335529846, ,1.5206520557403564
0.019574386497377774,0.01992716248152383,-0.09839820837679839, ,0.02051322265167141,0.019325746191432572,-0.09917096905086824, ,0.001356566967747957, ,0.02194266042359171,-0.006008296450474084,-0.033919996592247065,0.03330946163422683,0.037216043758444346,0.034390558873715955, ,0.04084294481939187, ,0.04994506225860456, ,0.0010471495252810008, ,0.24544389620860338,-0.19139248882190601,0.11012890953000001,1.6722772992890815,0.5748297545132081,-1.294343826191648, ,0.14577103157983223,0.12502890850918416,0.03661795751724139,-0.08467586658015812,0.20028923605308327,-0.1741453335529846, ,1.5242831707000732
0.019574386497377774,0.01992716248152383,-0.09839820837679839, ,0.02059379860890339,0.019304107222078357,-0.09928925108827168, ,0.0014904214246707057, ,0.02194266042359171,-0.006008296450474084,-0.033919996592247065,0.03330946163422683,0.037216043758444346,0.034390558873715955, ,0.04084294481939187, ,0.04994506225860456, ,0.0010499550436315686, ,0.24544389620860338,-0.19139248882190601,0.11012890953000001,1.6722772992890815,0.5748297545132081,-1.294343826191648, ,0.14577103157983223,0.12502890850918416,0.03661795751724139,-0.08467586658015812,0.20028923605308327,-0.1741453335529846, ,1.5279200077056885
0.01981219118617593,0.019864463603127557,-0.09875400115056882, ,0.020674309287181218,0.019282626964587567,-0.09940738511715566, ,0.001228288281235819, ,0.023277947089891057,-0.0060219519895091025,-0.03453191724559342,0.026318108677133974,0.019304840205865783,0.04598825509655708, ,0.04207826083787485, ,0.03263848337824633, ,0.0010510766363209035, ,0.2470270564478194,-0.1900950696990363,0.11051390766000001,1.671228849571659,0.576742665509924,-1.2960670343236789, ,0.15556875665323078,0.1251938542987741,0.03747955651764706,-0.09758117268615459,0.19427017567320948,-0.17083505842579738, ,1.5315701961517334
0.01981219118617593,0.019864463603127557,-0.09875400115056882, ,0.020754751957518348,0.01926131041739605,-0.09952537001145406, ,0.001359126371120466, ,0.023277947089891057,-0.0060219519895091025,-0.03453191724559342,0.026318108677133974,0.019304840205865783,0.04598825509655708, ,0.04207826083787485, ,0.03263848337824633, ,0.0010530019471634007, ,0.2470270564478194,-0.1900950696990363,0.11051390766000001,1.671228849571659,0.576742665509924,-1.2960670343236789, ,0.15556875665323078,0.1251938542987741,0.03747955651764706,-0.09758117268615459,0.19427017567320948,-0.17083505842579738, ,1.5351650714874268
0.01981219118617593,0.019864463603127557,-0.09875400115056882, ,0.020835123919760015,0.019240162537579177,-0.0996432046474703, ,0.001492255359107308, ,0.023277947089891057,-0.0060219519895091025,-0.03453191724559342,0.026318108677133974,0.019304840205865783,0.04598825509655708, ,0.04207826083787485, ,0.03263848337824633, ,0.001055730229225164, ,0.2470270564478194,-0.1900950696990363,0.11051390766000001,1.671228849571659,0.576742665509924,-1.2960670343236789, ,0.15556875665323078,0.1251938542987741,0.03747955651764706,-0.09758117268615459,0.19427017567320948,-0.17083505842579738, ,1.5387451648712158
0.019971517043699094,0.019826108775974842,-0.09898690585459086, ,0.020915422502495333,0.019219188240960233,-0.09976088790388844, ,0.0013632161470590969, ,0.024293717485040205,-0.0057392493861656525,-0.03519412937579332,-0.05416766734191912,-0.0531555802514352,0.0016992502820901193, ,0.04314800615647992, ,0.07589201474748034, ,0.001057628290446361, ,0.24807734811871393,-0.18925329181574582,0.11076668421000001,1.6710191596281745,0.5778357575080477,-1.2970400562933908, ,0.15633763024459765,0.12585801267701696,0.03801625661097852,-0.03633359330548212,0.11100978902399125,-0.07518046507882808, ,1.5423860549926758
0.019971517043699094,0.019826108775974842,-0.09898690585459086, ,0.020995645062969134,0.019198392402218344,-0.09987841866178421, ,0.0014958813893908003, ,0.024293717485040205,-0.0057392493861656525,-0.03519412937579332,-0.05416766734191912,-0.0531555802514352,0.0016992502820901193, ,0.04314800615647992, ,0.07589201474748034, ,0.0010603169597650384, ,0.24807734811871393,-0.18925329181574582,0.11076668421000001,1.6710191596281745,0.5778357575080477,-1.2970400562933908, ,0.15633763024459765,0.12585801267701696,0.03801625661097852,-0.03633359330548212,0.11100978902399125,-0.07518046507882808, ,1.5460519790649414
