NicholasDascanio/dvrk_moveit_final/test/execution/third_experiment_notsharpbends/thirdexp_300vel4.0/thirdexp_300vel4.0_20.csv
Current Position (x),Current Position (y),Current Position (z), ,Planned Position (x),Planned Position (y),Planned Position (z), ,Position Error,,Cartesian linear Velocity(x),Cartesian linear Velocity(y),Cartesian linear Velocity(z),Cartesian Angular Velocity(x),Cartesian Angular Velocity(y),Cartesian Angular Velocity(z), ,Total Linear Velocity, ,Total Angular Velocity, ,MSE, ,Joint 1 Position,Joint 2 Position,Joint 3 Position,Joint 4 Position,Joint 5 Position,Joint 6 Position, ,Joint 1 Velocity,Joint 2 Velocity,Joint 3 Velocity,Joint 4 Velocity,Joint 5 Velocity,Joint 6 Velocity, ,Time Stamp
0.010370626745658322,0.01961120790120986,-0.07909949194266064, ,0.01049522996123468,0.019600538247483288,-0.07925736253675693, ,0.00020140240148252696, ,0.00038753432510524473,1.7820499460078563e-05,-0.00013275480394641054,0.09472848008226752,-0.039971800529327285,-0.04728731725400794, ,0.0004100295858918403, ,0.1028164859166704, ,1.6783533456877245e-05, ,0.18734577679581238,-0.2351572160201363,0.08975641589000001,1.6833908662937616,0.5264604335962421,-1.2407714662387976, ,0.0001596459767822855,-5.8745748199784444e-05,0.0,0.0009325178911242154,-0.04385180014386276,-0.10374782408179284, ,0.036386966705322266
0.010413903939706225,0.019630273602368374,-0.0791576725888625, ,0.010497693985075867,0.019688359131077828,-0.07942337175364185, ,0.0002845887322311765, ,0.0017851204135876856,0.0010550264752084914,-0.003383066723579017,0.0838715653247416,-0.13969528797325456,-0.06935430073983843, ,0.003967981377298284, ,0.16293929222722728, ,2.2090506077895614e-05, ,0.18733805406293816,-0.2352189978831301,0.08980567491000001,1.6838102461807307,0.5223613386032788,-1.2453517669215395, ,-0.00039215766375444807,-0.003651759540376829,0.0031362101831069115,0.0010351726574443672,-0.14733319635449182,-0.09574832469853023, ,0.07246208190917969
0.010477661429714877,0.019692837757462424,-0.0793629840276067, ,0.010501227409734899,0.01977442954787444,-0.07958868104773353, ,0.00024114667854041046, ,0.0006249022689665053,0.001691028299762685,-0.00460390530263346,-0.08375022763621487,-0.038349411875817335,0.02016235219513181, ,0.004944292021308435, ,0.092112854793837, ,2.272305663294106e-05, ,0.18716043120683098,-0.2354043434721115,0.09000659986000001,1.6838102461807307,0.517442424611723,-1.2498353113630867, ,-0.007546515680220853,-0.007175447926045809,0.004736488706512043,0.0010155234040433165,-0.04580874238857222,0.09327294082165102, ,0.10761499404907227
0.010476686765819775,0.019758475812314748,-0.079526398452542, ,0.010505821402150738,0.019858765521591028,-0.07975329557279777, ,0.0002497782136240437, ,-0.00026246581100002124,0.001629690949119919,-0.003455627934033838,0.024095591087050856,0.034939397658597,0.0032446690318976837, ,0.003829640363018733, ,0.04244242003099233, ,2.3259905378051375e-05, ,0.18687469009048469,-0.23569780732133203,0.09018419159,1.684019936124215,0.5185355166098464,-1.2450908215229592, ,-0.008609198244293587,-0.009306639396701611,0.003797999885550788,0.0005442092348699565,0.026830858852816476,-0.013836669270940558, ,0.1458299160003662
0.010479780890535143,0.019816217667872494,-0.07966223144641602, ,0.01051146716619038,0.019941383008973215,-0.07991722045666531, ,0.0002858142369191504, ,0.00020490437764678966,0.001990469543170461,-0.0046542441863190375,0.02737893258882372,0.010464609012758926,-0.011390651558676322, ,0.005066156704263361, ,0.02931064634751856, ,2.4283274284563616e-05, ,0.1865966717070126,-0.23598354843767835,0.09032937607000001,1.6842296260676997,0.5185355166098464,-1.2454175364835214, ,-0.008302532473357268,-0.009847433913641441,0.004990229172932331,0.007744881164919033,0.0,-0.017315900284871965, ,0.18232488632202148
0.010487793338855843,0.019871029227543066,-0.07978526998969394, ,0.010518155942584583,0.02002229789990912,-0.08008046080128675, ,0.0003330791410361773, ,9.899348771668071e-05,0.00200090542091397,-0.003712550396000787,0.013253226820408606,0.00818301077651763,-0.0009184724703502487, ,0.004218584200522591, ,0.015575932903570218, ,2.573886135215299e-05, ,0.18639588065228277,-0.23626928955402465,0.09046159765,1.6844393160111841,0.5183988801100811,-1.2452244398396846, ,-0.007374341860445653,-0.012853439192532953,0.004071782085889571,0.0034546576055621103,0.0,0.0, ,0.21807003021240234
0.010492245300031539,0.019973292528475548,-0.0799977916173355, ,0.010525879008863764,0.02010152601754492,-0.08024302168278692, ,0.0002787702263334869, ,0.00012923168995550193,0.0022595898827708666,-0.004996283932792586,0.010951627882166878,0.010520374182940126,0.0001903571198375516, ,0.005485006873750531, ,0.01518606015743134, ,2.6402530002351725e-05, ,0.18594796214557774,-0.23687166271821417,0.09069104098000001,1.6844393160111841,0.5182622436103156,-1.244949664455707, ,-0.009907433453074412,-0.012240028577127663,0.005375906689166386,0.0027578473518984755,0.0,0.0016707666539665775, ,0.2512199878692627
0.010501828303703796,0.020044968392110733,-0.08015058758895136, ,0.010534627679293581,0.02017908311839992,-0.08040490815151914, ,0.00028938124920509006, ,0.00037810267001797356,0.0023187160724015767,-0.00524295003286939,0.001108388744801368,0.005306571687969238,-0.003747088997092413, ,0.005745252901365896, ,0.0054210907322683995, ,2.7049510992150782e-05, ,0.1856853892278541,-0.2372577993619254,0.09085566981000001,1.6848586958981533,0.5179889706107847,-1.2444001136877518, ,-0.007907488453653924,-0.011785511867669001,0.005640513994334278,0.009391565473909423,-0.004715493002396826,0.012571391912210416, ,0.2841470241546631
0.010509015779975426,0.020115219622267883,-0.08030480721049613, ,0.010544393304810757,0.02025498489248139,-0.08056612523211942, ,0.0002984510151539833, ,0.00020123918580316092,0.002321855510469621,-0.005022868694065294,0.0024375641366719478,0.006739725089806754,-0.0033892273676515983, ,0.005537212307580598, ,0.007166980536421076, ,2.7667549376697147e-05, ,0.18540737084438202,-0.2376439360056366,0.09102159493,1.6848586958981533,0.5178523341110194,-1.2441253383037743, ,-0.009526641221191,-0.012484796942306378,0.005406928553971487,0.008848918684461037,-0.0047945947437747554,0.011779017241916347, ,0.3169400691986084
0.010520285815739055,0.020201959416354925,-0.0804952774432759, ,0.010555167272958904,0.020329246963400268,-0.08072667792356114, ,0.00026639260118636556, ,0.00035204972343351676,0.0020133591195036094,-0.004472687533100976,-0.009560238590535067,-0.003055105226767249,0.0035191174470302527, ,0.004917569289864135, ,0.010036524700543444, ,2.784494383380012e-05, ,0.1850830160636646,-0.23810729997809008,0.09122640875000002,1.6850683858416375,0.5175790611114884,-1.2434941087956788, ,-0.006936173222872726,-0.010691444485440892,0.004797834795180723,0.003018154253690472,-0.01063993568105638,0.021112512436233195, ,0.34981608390808105
0.01052852956327475,0.02026815997193218,-0.08063209193495796, ,0.010566941007824026,0.020401884888486165,-0.08088657119920871, ,0.0002900301506970166, ,0.000411528304786794,0.002155299592706914,-0.004871224537563667,-0.006118022666249071,-0.006451101329056808,0.013622982024624192, ,0.005342611755997776, ,0.008890832748382874, ,2.821340791036849e-05, ,0.18484361134456365,-0.23847026842317864,0.09137418581000001,1.6854877657286067,0.5173057881119575,-1.243026236767864, ,-0.0070912595141198334,-0.011826040753177058,0.0052208494001966576,-0.009268530121608214,-0.011421409733613401,0.016247582871482088, ,0.3819589614868164
0.010541305972686602,0.02033313858252864,-0.0807868686211164, ,0.010579705969970371,0.020472914158902237,-0.08104581000687257, ,0.00029675311758983416, ,0.00035100774252083645,0.00199097598138177,-0.004667627036111362,-0.006368468954360265,-0.0031159176575385923,0.012452501785904768, ,0.005086642698478675, ,0.007089875701002487, ,2.8582653137924677e-05, ,0.1846350975569596,-0.23878690047102183,0.09154011093000002,1.6854877657286067,0.5171691516121921,-1.242506425163465, ,-0.007044872407036799,-0.010360972934518188,0.004990229172932331,-0.007768753944286809,-0.008297109641219564,0.015501205553281135, ,0.4156949520111084
0.010552415204564843,0.02039144353606674,-0.08092335383743784, ,0.010593453656375968,0.020542350199760636,-0.08120439926886293, ,0.0003216263518419917, ,0.0006093243432959736,0.0021355585664011426,-0.005164042536985436,-0.0021979994982397775,0.0035920913645314566,0.005552774771191855, ,0.005621318517008029, ,0.00421121342287607, ,2.9332371901945596e-05, ,0.1844497519679782,-0.2390880870531166,0.09168659170000001,1.6852780757851225,0.5170325151124266,-1.2422316497794874, ,-0.004334235622916492,-0.010000520488069022,0.005567567815449144,0.0004671935322243115,-0.0006100898193652781,0.012822018187005289, ,0.4448881149291992
0.010572046618169222,0.02046085585335253,-0.08109821165906364, ,0.010608175600368365,0.020610208370237647,-0.08136234388204425, ,0.0003055770097231495, ,0.0005130869842535316,0.0022851679748258896,-0.005640062708518342,0.0005890918816768603,0.006252411238902239,-0.007677725531391788, ,0.006107008947316149, ,0.006280101100957984, ,2.986962973912427e-05, ,0.18427212911187102,-0.2393738281694629,0.09187066488000001,1.6856974556720912,0.5167592421128957,-1.2416004202713915, ,-0.006484068594088148,-0.009747983508675602,0.006065807890327494,0.013137302586012358,-0.0036659827598322903,0.011786358964263248, ,0.4740478992462158
0.010584838731192736,0.02050648353865808,-0.0812161350291498, ,0.010623863371560266,0.02067650396368849,-0.08151964871788861, ,0.000350072030781058, ,0.0006219347381108684,0.0023578736028234404,-0.006044795010668495,0.004800864121372382,0.007046100071198114,-0.006882064696369706, ,0.006518122234690245, ,0.008526184050006208, ,3.066330825961044e-05, ,0.1841408426530092,-0.23956689649131852,0.09199899759,1.6856974556720912,0.5166226056131303,-1.2414073236275547, ,-0.00629678671883252,-0.009483112454282728,0.006467239756394642,0.01093281294859178,-0.0017695119435974648,0.006738772463528574, ,0.5028469562530518
0.010607555077003561,0.02059296833729922,-0.08142260060294985, ,0.010640508575785109,0.02074125220776256,-0.08167631862253162, ,0.0002957141741310816, ,0.0004340708206074737,0.002144397431325435,-0.005155147384259449,-0.0017053238149264474,0.0007559469594931945,0.004340536917356357, ,0.005600214493589955, ,0.0018653636316949389, ,3.100390088159827e-05, ,0.18392460613253092,-0.2399684786007782,0.09222066318000001,1.6859071456155759,0.5163493326135995,-1.2408577728595995, ,-0.006878895155161493,-0.010146606332921422,0.005517426920678906,0.0,-0.006093758659570557,0.011957071179236901, ,0.5322659015655518
0.010624187608962745,0.020661525510587742,-0.08158939319655259, ,0.010658102855032646,0.020804468264518823,-0.08183235841682465, ,0.00028392776031806963, ,0.0006291836862143252,0.0023069675642269105,-0.0056982085240480495,0.0004386904493985465,0.00025449990769308334,0.003888872825337614, ,0.006179607741347921, ,0.0005071622087046569, ,3.123400699227316e-05, ,0.18373926054354953,-0.2402851106486214,0.09239955120000001,1.6859071456155759,0.516212696113834,-1.2406646762157627, ,-0.005658743458950663,-0.010375748078494292,0.0061076731288343565,0.0,-0.005389878267829487,0.009971559654092918, ,0.5607059001922607
0.010638424868987318,0.02070925594687278,-0.08170581506020892, ,0.010676637887384714,0.02086616723054054,-0.08198777289639032, ,0.0003249332348366374, ,0.0006069060641339229,0.0023133670255355092,-0.005589065808504732,-0.002507416201820445,-0.0004948372587188564,-0.0018738204717963186, ,0.006079281090500273, ,0.0025557766858641776, ,3.169169710750763e-05, ,0.18362341955043618,-0.24049362443622546,0.09252399504000001,1.6861168355590603,0.5159394231143032,-1.240196804187948, ,-0.005966630033163782,-0.010398095118601994,0.0059905270853704414,0.006814644672237509,-0.008080885663977067,0.014207077872707663, ,0.5890069007873535
0.010655035084802596,0.020772684256038405,-0.08185909299816985, ,0.01069610538695058,0.020926364137050395,-0.08214256683167563, ,0.0003250564409896399, ,0.0006808836017255784,0.002199204313742195,-0.005307883933303975,-0.003513761995381476,-0.0006317261409947883,-0.00020100624660736983, ,0.005785648964645846, ,0.003570097626711595, ,3.2295291032870704e-05, ,0.18346896489295167,-0.24078708828544598,0.09268862387000001,1.6861168355590603,0.5158027866145377,-1.23984035006383, ,-0.004247345670566169,-0.009853805766131096,0.005709251440860217,0.005620075131223086,-0.006137367013652121,0.014626504571023984, ,0.6150898933410645
0.010667002915254522,0.020816113575517447,-0.08196900869134507, ,0.010716497103802704,0.020985073950025693,-0.08229674496800699, ,0.0003720327269128652, ,0.0006687536013248789,0.0022504625958473705,-0.0058080607719695546,-0.0030913633615449517,0.0011717301689633652,-4.542528593621101e-05, ,0.006264613571920032, ,0.0033059752589299487, ,3.311532299738065e-05, ,0.18336856936558676,-0.24097243387442738,0.09280658626,1.6861168355590603,0.5158027866145377,-1.23984035006383, ,-0.005406319741961968,-0.009047404249740772,0.006205224589014414,0.005037572928574164,-0.005353611872580106,0.013284261168867755, ,0.640178918838501
0.010693093744036205,0.02088827307522246,-0.08215978879210242, ,0.010737804823912194,0.02104231157031347,-0.08245031202564389, ,0.0003318594399154095, ,0.0008985206495807317,0.002247739792455063,-0.0060760066233259144,-0.005939879511797289,-0.004528891602719907,0.0017185116286020058, ,0.006930472701990019, ,0.009698797595731593, ,3.3656145586211704e-05, ,0.18322956017385073,-0.241235006792151,0.09301010379,1.6865362154460295,0.5155295136150068,-1.2393724780360156, ,-0.003549875541767855,-0.008302753899440025,0.0064777598698658,0.002692347793960682,-0.008731636210870773,0.014836306175576464, ,0.6663498878479004
0.01072046323209698,0.020954562400850925,-0.08234727477468907, ,0.010760020369084418,0.021098091833745357,-0.08260327269983252, ,0.0002961425380984425, ,0.0007827639997574707,0.0020870343734495003,-0.005557107952912268,-0.0031836524369959775,0.0022253189800889,0.002573604430856728, ,0.00598747699416013, ,0.0038842865629509357, ,3.3971507664310455e-05, ,0.18313688737936,-0.2414512433126293,0.09320454729000001,1.6865362154460295,0.5153928771152414,-1.2388526664316162, ,-0.003285476344000519,-0.008041537259901348,0.0059061221802002226,0.002692347793960682,-0.0012813502885171322,0.011995447263234304, ,0.6919710636138916
0.010736642619313173,0.020994911952511235,-0.08246280412544768, ,0.010783135596894509,0.02115242951125275,-0.08275563166086058, ,0.00033573999429954796, ,0.0010046186474931083,0.0021907621552831953,-0.006345150395298044,-0.006599793994590507,0.0012667861267335317,0.0032032685720613536, ,0.006787461306472611, ,0.006720269159549475, ,3.446366565752339e-05, ,0.183067382783492,-0.24159025250436533,0.09333288000000001,1.6865362154460295,0.5153928771152414,-1.2387709876914756, ,-0.002152920450103017,-0.006743083446004182,0.006766699881053527,0.002692347793960682,-0.0012813502885171322,0.014464602873652945, ,0.7172219753265381
0.010755764021504369,0.021037753280978313,-0.08259077931364306, ,0.010807142400622909,0.021205339308981882,-0.08290739355411085, ,0.00036189693545242657, ,0.0010173946539378323,0.002078710579131363,-0.006333208956388135,-0.0048999506545061204,0.0011699181831680459,0.00197893510358465, ,0.006742823239484245, ,0.005037679503818685, ,3.504935146261933e-05, ,0.18301332365337242,-0.24171381623035293,0.09346899045000001,1.6865362154460295,0.5153928771152414,-1.238689308951335, ,-0.0019639312029343615,-0.00548513867541112,0.0067295359188846654,0.0026434131650345904,-0.0012393089525906678,0.011338897053085273, ,0.7427818775177002
0.010791254922135517,0.021107558884857436,-0.08279842793109851, ,0.010832032709190916,0.02125683586840888,-0.08305856300011531, ,0.00036647891188679686, ,0.000985042924742473,0.002011175690159829,-0.006100734761919435,-0.005369161406873513,-0.00369833613230972,-0.00030778536434053125, ,0.006534429490012078, ,0.006519630043917879, ,3.578606279804896e-05, ,0.18295154179037865,-0.24190688455220855,0.09368935975,1.6867459053895137,0.5151196041157104,-1.2382214369235205, ,-0.0023708156596868035,-0.005356475591738568,0.006461992503042598,0.0035282509911733493,-0.00692940014784445,0.01144198384422228, ,0.7651619911193848
0.010811679269255954,0.021149194280912175,-0.08292653920044801, ,0.010857798487096202,0.02130693376645478,-0.08320914459460953, ,0.0003269167116600607, ,0.0012403504654247026,0.0022937881090470606,-0.006992735210966083,-0.0027090024859307902,-0.003911701156225376,-0.0005902192495839965, ,0.007463127956625817, ,0.004758159695137092, ,3.630074323324055e-05, ,0.1829129281260075,-0.24201500281244767,0.09382547020000001,1.6867459053895137,0.5151196041157104,-1.23813975818338, ,-0.0012101398256848554,-0.005964104103972582,0.007426019356643358,0.0034422927820962172,-0.005970620992689697,0.009306575520088237, ,0.7865390777587891
0.010834128071445105,0.021192696907623584,-0.08305794948401503, ,0.010884431734348218,0.021355647515600387,-0.08335914290858579, ,0.0003461225767645632, ,0.0011461465457552201,0.00213509117045815,-0.006547532910194933,-0.007436995347826746,-0.0033293879436536965,0.0014540114142454906, ,0.006981579579192714, ,0.00814823366439258, ,3.6873591971477694e-05, ,0.18288975992738485,-0.24212312107268683,0.09396546952000001,1.6869555953329984,0.5151196041157104,-1.237976400703099, ,-0.001272348255698507,-0.005439489631254483,0.0069497432460732984,0.0029678529346025386,-0.005222108425159538,0.013747294742066148, ,0.807744026184082
0.010857599159979848,0.021237808274761044,-0.08319612639759381, ,0.01091192448640382,0.021402991564001817,-0.08350856248834818, ,0.0003575654778377517, ,0.001161531293420363,0.002333617188128144,-0.007084361948476223,0.009557108994604593,0.00018974180889637902,0.006063792439985574, ,0.0075487156750893535, ,0.009558991392627312, ,3.746630469325545e-05, ,0.18285114626301371,-0.24223123933292598,0.09411195029000001,1.687165285276483,0.514982967615945,-1.2376199465789808, ,-0.0017015395600563684,-0.006614673503784599,0.007538481552295316,-0.006678114463775147,0.0,-0.004495203913408057, ,0.830449104309082
0.010882497960068611,0.021281655757603775,-0.0833379013059668, ,0.01094026881410272,0.02144898029560477,-0.08365740785556548, ,0.00036526621501246513, ,0.0011826786029631548,0.002112155492284246,-0.006532778624846385,-0.005983010360374706,-0.0014433233856550192,0.0106222344938838, ,0.00696685912465174, ,0.006154639182722121, ,3.8061509722293305e-05, ,0.18283570079726527,-0.24232391212741666,0.09426231993,1.687165285276483,0.514982967615945,-1.2376199465789808, ,-0.0002577518709228538,-0.0055959914457720085,0.006955812890829694,-0.006164152423747097,0.0,0.011045496888343585, ,0.8522429466247559
0.010906517570648144,0.021325218935644333,-0.0834785165344946, ,0.010969456823602912,0.021493628030260222,-0.08380568350732631, ,0.00037331113139539687, ,0.0012287270625474436,0.0021435755954339426,-0.007043375685951279,0.004934256351264958,-0.0004921198562142994,0.005636143129324398, ,0.007464169584155099, ,0.004958734753811738, ,3.866044390849842e-05, ,0.18281253259864258,-0.24241658492190735,0.09441139328,1.687165285276483,0.514982967615945,-1.2374565890986997, ,-0.0008243977635522405,-0.004482844083121319,0.007460801648711945,-0.005619544406139263,0.0,-0.0016124561228557594, ,0.8737070560455322
0.01093200909845356,0.021368186163353134,-0.08361639765007231, ,0.010999480656316219,0.02153694902383927,-0.08395339391619185, ,0.00038288353004325726, ,0.0012870120892646162,0.00220715156597054,-0.007278381479734851,-0.007467367575335088,-0.0008236943896124977,0.009674404825120504, ,0.007713802895953899, ,0.007512658020107147, ,3.942797957854201e-05, ,0.18281253259864258,-0.24250925771639806,0.09455787405,1.687165285276483,0.514982967615945,-1.2373749103585592, ,-0.0006525612118957975,-0.00448862670643145,0.007709976534365925,-0.005168029255526521,0.0,0.011652656245269347, ,0.8915560245513916
0.010963666243980204,0.02141649819390122,-0.08378231521659085, ,0.011030332488843768,0.021578957468347943,-0.08410054353025075, ,0.0003634648038982367, ,0.0014783580062284266,0.002471690311997268,-0.00814172142261736,0.00632558200301915,-0.0008566051744907236,-0.00035651871557826505, ,0.008636111573880185, ,0.006383316091715682, ,4.008799904681791e-05, ,0.18281253259864258,-0.24259420777801452,0.09473287320000001,1.6869555953329984,0.5148463311161796,-1.2371001349745816, ,-0.0004501617961649552,-0.004724845017432872,0.008624153502977802,0.00023206422527330363,-0.0014522037982475447,-0.0018494030068473026, ,0.9099059104919434
0.01099376290937608,0.02146622568371414,-0.08394749644202418, ,0.011062004532911335,0.021619667492042343,-0.0842471367731725, ,0.0003434903721742897, ,0.0015812804099758783,0.002454086749040718,-0.008459588732572522,-0.006861242140246605,0.0009433761139931043,-0.0059332575154957285, ,0.008949169292792415, ,0.006925789404377126, ,4.064461529950351e-05, ,0.18280480986576836,-0.24266371237388254,0.09490787235,1.6873749752199676,0.5148463311161796,-1.2371001349745816, ,0.0,-0.0030670245740844794,0.008938727003367005,0.010787548773962851,-0.0014522037982475447,0.012404984538232623, ,0.9278049468994141
0.011028244924650547,0.02151540499031228,-0.08412090306887807, ,0.011094489035304906,0.021659093159543855,-0.0843931780442618, ,0.00031490988297245057, ,0.0015267066729544054,0.002353837317149824,-0.008242371964996692,-0.0007582189021832612,0.005467973248335004,-0.006461551546450439, ,0.008706783504269186, ,0.005520288878884519, ,4.1070900820400205e-05, ,0.18282025533151683,-0.24272549423687634,0.09509064924,1.6873749752199676,0.5147096946164142,-1.236988717070885, ,0.0003001008328608634,-0.0025368323998102033,0.0087185613136289,0.01019386027256743,0.003558653136837147,0.0056343899808502275, ,0.9466490745544434
0.011043415253348425,0.021537964944003625,-0.08419935204492662, ,0.011127778277806121,0.021697248471953815,-0.08453867171851216, ,0.000384221554645371, ,0.0015421461797525985,0.0023889373864815974,-0.008357714862897424,-0.00012241717245838372,0.005260367531677568,-0.006124117463073963, ,0.008828172767099178, ,0.005261787885626845, ,4.1740814867379116e-05, ,0.18282797806439105,-0.24275638516837325,0.09517361180000002,1.6873749752199676,0.5147096946164142,-1.236988717070885, ,0.0002200323811081199,-0.0026338967606418717,0.008839518046614873,0.009568885036925927,0.0034012670467414284,0.004931407269858732, ,0.9645969867706299
0.011073690678247363,0.021582689528121507,-0.08436309463261187, ,0.01116186457712769,0.021734147366968756,-0.08468362214665986, ,0.0003653108274522232, ,0.00134528816902794,0.001972181172332824,-0.007120969272068201,-0.00039922769789604406,0.004369371034432232,-0.005692934284386218, ,0.0075104928072643904, ,0.0043875696781929974, ,4.2316574989126644e-05, ,0.18282797806439105,-0.24279499883274436,0.09534342579,1.6873749752199676,0.5147096946164142,-1.236988717070885, ,0.000566643363144517,-0.0015090674396220135,0.007520685325779038,0.008444618222819951,0.003102436839355147,0.0038289775724859344, ,0.9825160503387451
0.011101933651003279,0.02162237182216259,-0.08451222920731136, ,0.01119674028484884,0.021769803718995374,-0.0848280336552382, ,0.0003611881938203601, ,0.0014094620485831943,0.0020276439065725375,-0.007393718691414799,-0.0002523496893579655,0.00400098624301988,-0.005452879628519879, ,0.00779519077162539, ,0.004008933672001182, ,4.301194416979278e-05, ,0.18283570079726527,-0.24281816703136702,0.09550286946000001,1.6873749752199676,0.5147096946164142,-1.236988717070885, ,0.0007155984609701809,-0.0005656607937506346,0.008790734834437087,0.007572400427417865,0.0028557246594261725,0.0030992038635281475, ,0.9984340667724609
0.011117884824127993,0.02164391263472692,-0.08459487726616102, ,0.011232397787350714,0.021804231339265394,-0.08497191054663063, ,0.0004254049839301531, ,0.0015195250308036924,0.002135890068054804,-0.00804706600973921,0.002169819006015626,0.0038028125397262264,-0.005993718129471445, ,0.008463229529390907, ,0.004378294643790547, ,4.391679133854629e-05, ,0.1828434235301395,-0.24282588976424127,0.09558972089000001,1.6873749752199676,0.5147096946164142,-1.2369070383307448, ,0.0005732789710301751,-0.000798363255576201,0.008472772085106385,0.0071981692022541,0.0027456516446518415,8.549438431764908e-05, ,1.013916015625
0.011153086727755999,0.021690978293295218,-0.08478162096023702, ,0.011268829505751794,0.02183744397595088,-0.08511525709912557, ,0.0003823109467781876, ,0.0019822337076606253,0.002781294350883289,-0.010740293725652113,0.0018269642217910145,0.0038784196076985856,-0.005512838522657271, ,0.01127025989280298, ,0.004287166197513789, ,4.464441028722236e-05, ,0.18285114626301371,-0.24282588976424127,0.09577638665,1.6873749752199676,0.5147096946164142,-1.2369070383307448, ,0.0001501551494513826,-0.00048701279573426737,0.011092487130919221,0.006563518928043686,0.0025528637039475724,-1.7795448940662994e-05, ,1.0279340744018555
0.011174761328380503,0.021720314444475513,-0.08489519965065957, ,0.011306027895843432,0.021869455314278877,-0.08525807756696967, ,0.00041370798025268943, ,0.0020826071340860628,0.002806094113456067,-0.01101037782870727,0.0013355334873888266,0.003149879374566736,-0.005360149720879946, ,0.011551616189062358, ,0.0034212903937131836, ,4.546083507577721e-05, ,0.18285886899588794,-0.2428336124971155,0.09590471936000002,1.6873749752199676,0.5147096946164142,-1.2369070383307448, ,0.0007222532314375771,0.0,0.011559369753265604,0.006252814765764738,0.0024555916496673174,-6.122139562337106e-05, ,1.0423130989074707
0.011197353475146124,0.021749302806762346,-0.08501009353863226, ,0.011343985448025139,0.021900278976646665,-0.08540037618042186, ,0.0004434132156641247, ,0.0022022914042725108,0.002865921262167047,-0.01153605963263669,0.0005359459055195338,0.0027575167707275775,-0.0052856028276734544, ,0.012089014184706027, ,0.0028090803558289508, ,4.635662232016426e-05, ,0.18287431446163638,-0.2428336124971155,0.09602527433000001,1.6873749752199676,0.5147096946164142,-1.2369070383307448, ,0.0009710821406720981,0.0007917041416865386,0.012094769567198179,0.005989672041906924,0.002371649829978114,-9.44022458718918e-05, ,1.0564649105072021
0.011244298915403139,0.02180783819950737,-0.08524431492679682, ,0.011382694687239969,0.021929928522736685,-0.08554215714580765, ,0.0003503846801928504, ,0.0022330501896386584,0.002640533611124621,-0.010533990428177625,-0.001108330893552455,-0.0019251997937554592,-0.004813350085806667, ,0.011087104457064609, ,0.002221409891966299, ,4.6913913505678426e-05, ,0.18292065085888173,-0.24282588976424127,0.09625342137000001,1.6873749752199676,0.5148463311161796,-1.2370184562344408, ,0.0032151565089419453,0.0005239483901064221,0.01125711061484099,0.005564203480219587,0.0,0.0016796360401471564, ,1.0715250968933105
0.011265277459099549,0.021832109738242123,-0.08534311389837396, ,0.011422148172910124,0.021958417449631423,-0.08568342464557205, ,0.0003954408469877202, ,0.0019949819958396753,0.002322198404140971,-0.009355156841120125,-0.001287001076563978,-0.0017364493676982574,-0.004689210284521601, ,0.009843348927772297, ,0.0021613783845486107, ,4.776574998216901e-05, ,0.18295926452325287,-0.24281816703136702,0.09637527263000001,1.6873749752199676,0.5148463311161796,-1.2370184562344408, ,0.0029870309534282863,0.0007393948112558697,0.009826533942011105,0.005334721588972973,0.0,0.0015955554236965468, ,1.082245111465454
0.011284628672818832,0.02185486262541249,-0.08543308528681692, ,0.011462338498872121,0.02198575919192867,-0.08582418283833428, ,0.0004490790444949356, ,0.002052494874339797,0.002266857266370957,-0.009115738426854928,-0.0012294132796599549,-0.002937081747744373,-0.0045313503872261756, ,0.009614991635052498, ,0.0031839979994375094, ,4.877827248067374e-05, ,0.18299015545474975,-0.24281816703136702,0.09646990180000001,1.6873749752199676,0.5148463311161796,-1.2370184562344408, ,0.004144900394188246,0.0007113023352307348,0.009589892546658641,0.005151339265293753,0.0,0.0015294738682914931, ,1.0928568840026855
0.011308719524437289,0.02187975524607073,-0.085534007624602, ,0.011503258293312274,0.022011967121856057,-0.08596443585894126, ,0.0004905035959200263, ,0.0025679991389218975,0.0027532522892697296,-0.010952576420420806,-0.0009984861545485578,-0.004969550187782221,-0.004347926058611723, ,0.011581621129661877, ,0.005068850566010923, ,4.990669470519179e-05, ,0.18305193731774355,-0.2428104442984928,0.09657619758000001,1.6873749752199676,0.5148463311161796,-1.2370184562344408, ,0.0061365602128303385,0.000504812738652881,0.011542617043478264,0.004976547350343974,0.0,0.0014673457827299853, ,1.1038990020751953
0.011335369238625248,0.02190900956711768,-0.08565233644044082, ,0.011544900218702272,0.02203705454938663,-0.0861041878185217, ,0.0005142649287768711, ,0.002649984439649536,0.0030360000108161705,-0.011970254469770963,-0.0006433563845253798,-0.0037800161307974148,-0.004149243237464681, ,0.01263038818354892, ,0.003834342658574396, ,5.109028186318301e-05, ,0.18310599644786313,-0.24280272156561858,0.09670064142000001,1.6873749752199676,0.5148463311161796,-1.2370184562344408, ,0.004908571290795796,0.000169599125752706,0.012601907848101265,0.004811901514190072,0.0,0.0014095807916888958, ,1.1156070232391357
0.011360911132132487,0.02193763871267721,-0.08576827637261954, ,0.011587256971734215,0.02206103472235343,-0.08624344280453983, ,0.0005405942585089899, ,0.00296588476457287,0.003235300659735531,-0.012905503076123067,-0.0010521557444772062,-0.0054241682203270735,-0.004110353234948368, ,0.013631421512206003, ,0.005525239777594438, ,5.2335694766460955e-05, ,0.18315233284510848,-0.24279499883274436,0.09682249268000001,1.6873749752199676,0.5148463311161796,-1.2370184562344408, ,0.006519638392344502,0.0006071257015356372,0.013591136109215017,0.0046703057507487405,0.0,0.00136045841901812, ,1.126220941543579
0.011394234148933586,0.021974893009005056,-0.08591677533305221, ,0.011630321283256253,0.022083920826564612,-0.08638220488084894, ,0.0005331499450968325, ,0.0032363109948613583,0.003510299729022337,-0.014253746256938682,-0.0006168419822436759,-0.004987348246196647,0.0002024140509451038, ,0.015032138750032488, ,0.005025290856977391, ,5.3533601966452824e-05, ,0.18322956017385073,-0.24277955336699591,0.09697934377,1.687584665163452,0.514982967615945,-1.2371298741381374, ,0.006941932452982559,0.001099206905452599,0.014998880903954804,0.0,0.0020204016756663586,-0.0003403033453874358, ,1.1369590759277344
0.011424187531439032,0.0220068701535076,-0.08604474489928234, ,0.01167408591820788,0.022105725985918374,-0.08652047808774603, ,0.0005463915683071376, ,0.0032956936809736114,0.0032545283134880467,-0.013503812397985059,-0.002016771979230955,-0.008487107479985436,0.005018136452795432, ,0.014276081418305225, ,0.00872341180709642, ,5.492386894232065e-05, ,0.18329906476971874,-0.24276410790124747,0.09711415793000001,1.6877943551069365,0.514982967615945,-1.2371298741381374, ,0.009201367506214609,0.001634265558600978,0.014222153142857146,-0.005162627666129952,0.0020204016756663586,-0.0003819412449071805, ,1.1440620422363281
0.011460204466487104,0.022041005798662215,-0.08618752345057554, ,0.01171854367555538,0.022126463262518062,-0.08665826644202436, ,0.0005437288745954933, ,0.0035667353011663897,0.0033209192182670068,-0.014069364012961473,-0.002838215093555832,-0.010334505519559941,0.004843161605707547, ,0.014889496596327796, ,0.010717131984396935, ,5.628827503260635e-05, ,0.18340718302995787,-0.24274093970262478,0.09726452757000001,1.6877943551069365,0.514982967615945,-1.2371298741381374, ,0.011049757552838633,0.0025112672467538294,0.014817499088372096,-0.005162627666129952,0.0020204016756663586,-0.00042590120035646754, ,1.1518080234527588
0.011497855539157286,0.022075635884647466,-0.08633745921082936, ,0.011763687388227119,0.022146145656786926,-0.0867955739370287, ,0.000534328833498387, ,0.004035981303095849,0.0035358468434193466,-0.015562009068347494,-0.003746640054975429,-0.011576435604378372,0.004427691818343911, ,0.016461090007116402, ,0.012167590570992214, ,5.760625091833501e-05, ,0.18353074675594547,-0.24270232603825367,0.09742267495000001,1.6877943551069365,0.5151196041157104,-1.2372412920418339, ,0.013270443512581566,0.004321904750682932,0.01637082376156218,-0.005106830140055095,0.0030042357599688735,-0.0012676138923343322, ,1.1591548919677734
0.011497855539157286,0.022075635884647466,-0.08633745921082936, ,0.011809509923048918,0.022164786107583344,-0.08693240454270848, ,0.0006775220772588497, ,0.004035981303095849,0.0035358468434193466,-0.015562009068347494,-0.003746640054975429,-0.011576435604378372,0.004427691818343911, ,0.016461090007116402, ,0.012167590570992214, ,5.9352553947596436e-05, ,0.18353074675594547,-0.24270232603825367,0.09742267495000001,1.6877943551069365,0.5151196041157104,-1.2372412920418339, ,0.013270443512581566,0.004321904750682932,0.01637082376156218,-0.005106830140055095,0.0030042357599688735,-0.0012676138923343322, ,1.1661739349365234
0.011539606900174146,0.02211466502564144,-0.08650188921570028, ,0.011856004180679516,0.022182397492315816,-0.0870687622056715, ,0.0006527173300226578, ,0.004558735185070932,0.004156731347817977,-0.01743704034644797,-0.002424365523288473,-0.013732471462223207,0.004527275626387316, ,0.01849623902389863, ,0.013944773524716956, ,6.100073981836022e-05, ,0.1836697559476815,-0.24267143510675676,0.09759637781000001,1.6877943551069365,0.5152562406154759,-1.2373527099455304, ,0.01515683462042338,0.002770726085133905,0.018393546789838337,-0.004921877092745995,0.0026828576363415145,-0.0010423730819083558, ,1.1735169887542725
0.011588388752753316,0.022158460321614032,-0.0866964964585492, ,0.01190316309554577,0.02219899262705772,-0.0872046508492378, ,0.000599121556481744, ,0.004923483157623565,0.004392469307011906,-0.019834434169531054,-0.002824431350513932,-0.009070005072220985,0.0035444586461984007, ,0.020903091920620395, ,0.009499438654028993, ,6.246429833628974e-05, ,0.18382421060516602,-0.24260965324376296,0.09780119163,1.6877943551069365,0.5153928771152414,-1.2374641278492269, ,0.014545821820734332,0.006732113061954939,0.020821975843137257,-0.004742978015815674,0.006771081721963634,-0.004412160533630467, ,1.1806640625
0.01163819608426728,0.02220365594782215,-0.08690214899046343, ,0.01195097963577822,0.022214584266662278,-0.08734007437349416, ,0.0005382672378578085, ,0.005165920781454391,0.004534498496359897,-0.02096277110588768,0.007387937014549069,0.0031684736545367865,0.0028173028924520786, ,0.02206096522302666, ,0.008038456978977461, ,6.372447712039105e-05, ,0.1839786652626505,-0.24253242591502072,0.09801767206,1.6877943551069365,0.5156661501147722,-1.2376052849164791, ,0.016097869645202847,0.008372520423008642,0.022031551203319507,-0.004581733106523855,0.020798210689473625,-0.015883201151497144, ,1.1880950927734375
0.01163819608426728,0.02220365594782215,-0.08690214899046343, ,0.011999446803146309,0.02222918510487805,-0.08747503665534656, ,0.0006777566645381241, ,0.005165920781454391,0.004534498496359897,-0.02096277110588768,0.007387937014549069,0.0031684736545367865,0.0028173028924520786, ,0.02206096522302666, ,0.008038456978977461, ,6.53920762425042e-05, ,0.1839786652626505,-0.24253242591502072,0.09801767206,1.6877943551069365,0.5156661501147722,-1.2376052849164791, ,0.016097869645202847,0.008372520423008642,0.022031551203319507,-0.004581733106523855,0.020798210689473625,-0.015883201151497144, ,1.1952359676361084
0.011689196668110701,0.022246896263694912,-0.08710274466410971, ,0.01204855763299375,0.022242807774463153,-0.08760954154857552, ,0.0006212890639067505, ,0.005096522072969594,0.004167170173857056,-0.01986587239177935,0.017323401915973962,0.013436460346732498,0.002211999512069373, ,0.020928275857906003, ,0.02192340362407658, ,6.686950067449741e-05, ,0.18415628811875767,-0.24244747585340426,0.09822896733000001,1.6877943551069365,0.5159394231143032,-1.2378281207238717, ,0.018698904740585377,0.00948823916674384,0.020931421182654404,-0.004433006148374529,0.03388717497464125,-0.02658696745177262, ,1.202397108078003
0.011689196668110701,0.022246896263694912,-0.08710274466410971, ,0.01209830519417392,0.022255464847300687,-0.08774359288388883, ,0.0007603483724692927, ,0.005096522072969594,0.004167170173857056,-0.01986587239177935,0.017323401915973962,0.013436460346732498,0.002211999512069373, ,0.020928275857906003, ,0.02192340362407658, ,6.895201980901631e-05, ,0.18415628811875767,-0.24244747585340426,0.09822896733000001,1.6877943551069365,0.5159394231143032,-1.2378281207238717, ,0.018698904740585377,0.00948823916674384,0.020931421182654404,-0.004433006148374529,0.03388717497464125,-0.02658696745177262, ,1.2063190937042236
0.011745333077730267,0.02228712290683093,-0.08730668904387395, ,0.012148682588985188,0.022267168834514003,-0.08787719446897603, ,0.0006989745584086126, ,0.005489328619976938,0.0038124047546980394,-0.019466718686420664,0.007303154180136742,0.000884185294688931,-0.0013389078633666337, ,0.020582038167489186, ,0.007356293162097316, ,7.083831483476361e-05, ,0.1843570791734875,-0.2423393575931651,0.09842859599,1.687584665163452,0.5160760596140685,-1.2379395386275682, ,0.022866732905655607,0.011918731670242499,0.02065993712062257,-0.0011069416866481205,0.025453262884919916,-0.019737844936289044, ,1.210211992263794
0.011745333077730267,0.02228712290683093,-0.08730668904387395, ,0.012199682953106285,0.022277932186580616,-0.08801035008856199, ,0.0008376497743116662, ,0.005489328619976938,0.0038124047546980394,-0.019466718686420664,0.007303154180136742,0.000884185294688931,-0.0013389078633666337, ,0.020582038167489186, ,0.007356293162097316, ,7.312730426603795e-05, ,0.1843570791734875,-0.2423393575931651,0.09842859599,1.687584665163452,0.5160760596140685,-1.2379395386275682, ,0.022866732905655607,0.011918731670242499,0.02065993712062257,-0.0011069416866481205,0.025453262884919916,-0.019737844936289044, ,1.2139909267425537
0.011745333077730267,0.02228712290683093,-0.08730668904387395, ,0.012251299455531668,0.02228776729344851,-0.08814306350446047, ,0.0009775094009885359, ,0.005489328619976938,0.0038124047546980394,-0.019466718686420664,0.007303154180136742,0.000884185294688931,-0.0013389078633666337, ,0.020582038167489186, ,0.007356293162097316, ,0.00041088961822760073, ,0.1843570791734875,-0.2423393575931651,0.09842859599,1.687584665163452,0.5160760596140685,-1.2381623744349612, ,0.030880879127390425,0.017586534758797404,0.02328773614035088,-0.001078551946960263,0.021306237372139502,-0.016385512444573737, ,1.2184488773345947
0.011805775767847245,0.02232608148699937,-0.08751247848199654, ,0.012303525298506677,0.022296686484650115,-0.08827533845562789, ,0.0009113583273354211, ,0.006742490383618893,0.004025494477963454,-0.02218117700944443,-0.000544439788834604,-0.010267825160165073,-0.0022681473221973485, ,0.023530201781744538, ,0.010281988078103235, ,0.0004188335659912169, ,0.1846428202898338,-0.24218490293568062,0.09865933561000001,1.687584665163452,0.5163493326135995,-1.2381623744349612, ,0.030880879127390425,0.017586534758797404,0.02328773614035088,-0.001078551946960263,0.021306237372139502,-0.016385512444573737, ,1.2220408916473389
0.011805775767847245,0.02232608148699937,-0.08751247848199654, ,0.012356353717463289,0.02230470202941775,-0.0884071786582183, ,0.001050752856356401, ,0.006742490383618893,0.004025494477963454,-0.02218117700944443,-0.000544439788834604,-0.010267825160165073,-0.0022681473221973485, ,0.023530201781744538, ,0.010281988078103235, ,0.00042870730490317293, ,0.1846428202898338,-0.24218490293568062,0.09865933561000001,1.687584665163452,0.5163493326135995,-1.2381623744349612, ,0.030880879127390425,0.017586534758797404,0.02328773614035088,-0.001078551946960263,0.021306237372139502,-0.016385512444573737, ,1.225600004196167
0.011879081386490901,0.022375009579087685,-0.08777632141649089, ,0.01240977798095499,0.022311826136798503,-0.08853858780563546, ,0.0009309570724661798, ,0.008038238018069403,0.005615481268021789,-0.029213506539901724,0.06315317029183871,0.058921881445968965,-0.004791407176375706, ,0.030815188863018848, ,0.08637181110552399, ,0.00043643422440414227, ,0.184959452337677,-0.24199955734669923,0.09891600103,1.687584665163452,0.5170325151124266,-1.2387194639534431, ,0.0368102954066993,0.01976196200717842,0.030398495267175574,-0.001053786946794381,0.09756284322306888,-0.08016420185181075, ,1.2291560173034668
0.011879081386490901,0.022375009579087685,-0.08777632141649089, ,0.012463791390592414,0.022318070955768925,-0.08866956956858772, ,0.0010691211610225646, ,0.008038238018069403,0.005615481268021789,-0.029213506539901724,0.06315317029183871,0.058921881445968965,-0.004791407176375706, ,0.030815188863018848, ,0.08637181110552399, ,0.000446020390110482, ,0.184959452337677,-0.24199955734669923,0.09891600103,1.687584665163452,0.5170325151124266,-1.2387194639534431, ,0.0368102954066993,0.01976196200717842,0.030398495267175574,-0.001053786946794381,0.09756284322306888,-0.08016420185181075, ,1.23272705078125
0.011879081386490901,0.022375009579087685,-0.08777632141649089, ,0.012518387280978595,0.02232344857535071,-0.08880012759514212, ,0.00120811822901466, ,0.008038238018069403,0.005615481268021789,-0.029213506539901724,0.06315317029183871,0.058921881445968965,-0.004791407176375706, ,0.030815188863018848, ,0.08637181110552399, ,0.0004573949847209921, ,0.184959452337677,-0.24199955734669923,0.09891600103,1.687584665163452,0.5170325151124266,-1.2387194639534431, ,0.0368102954066993,0.01976196200717842,0.030398495267175574,-0.001053786946794381,0.09756284322306888,-0.08016420185181075, ,1.2362849712371826
0.01196789496095309,0.02243259469730047,-0.0880862732680692, ,0.012573559019644284,0.022327971024724756,-0.08893026551077673, ,0.0010440775692466622, ,0.009929023049186757,0.00626687249262579,-0.03418182778146299,0.022276187752512656,0.013446807959791699,-0.0045578854383807954, ,0.03614217121357967, ,0.026019195254456905, ,0.0004660226697875461, ,0.18538420264575936,-0.24175242989472406,0.09926470304000001,1.687584665163452,0.5178523341110194,-1.2394696501157623, ,0.04417920929165306,0.026200149519180226,0.03595668514672686,-0.0010278015494056324,0.05903376796651748,-0.04678704986374548, ,1.2398788928985596
0.01196789496095309,0.02243259469730047,-0.0880862732680692, ,0.012629300006983327,0.022331650273346715,-0.08905998691843643, ,0.0011814248535362284, ,0.009929023049186757,0.00626687249262579,-0.03418182778146299,0.022276187752512656,0.013446807959791699,-0.0045578854383807954, ,0.03614217121357967, ,0.026019195254456905, ,0.00047639081737810664, ,0.18538420264575936,-0.24175242989472406,0.09926470304000001,1.687584665163452,0.5178523341110194,-1.2394696501157623, ,0.04417920929165306,0.026200149519180226,0.03595668514672686,-0.0010278015494056324,0.05903376796651748,-0.04678704986374548, ,1.2436420917510986
0.01196789496095309,0.02243259469730047,-0.0880862732680692, ,0.012685603676187929,0.022334498231061886,-0.08918929539858489, ,0.0013196160566694825, ,0.009929023049186757,0.00626687249262579,-0.03418182778146299,0.022276187752512656,0.013446807959791699,-0.0045578854383807954, ,0.03614217121357967, ,0.026019195254456905, ,0.0004884368922251263, ,0.18538420264575936,-0.24175242989472406,0.09926470304000001,1.687584665163452,0.5178523341110194,-1.2394696501157623, ,0.04417920929165306,0.026200149519180226,0.03595668514672686,-0.0010278015494056324,0.05903376796651748,-0.04678704986374548, ,1.2472751140594482
0.012073138271402177,0.022496280665975737,-0.0884509309372944, ,0.012742463493184012,0.02233652674822001,-0.08931819450925943, ,0.0011070969560111426, ,0.010880367840076866,0.0067340930013314185,-0.038189903110013884,0.011512767416918214,0.004640775771021677,-0.006577953704755868, ,0.040276533024060146, ,0.012409648602122679, ,0.0004971504142502815, ,0.1858398438853386,-0.2414512433126293,0.09964710859,1.6873749752199676,0.5183988801100811,-1.2400786792108291, ,0.045275258377133004,0.03168512239014049,0.040022139497487445,-0.0003153493889015512,0.05095863595487836,-0.04156270442724818, ,1.2508769035339355
0.012073138271402177,0.022496280665975737,-0.0884509309372944, ,0.012799872956566639,0.022337747615790438,-0.08944668778612481, ,0.0012429029457744517, ,0.010880367840076866,0.0067340930013314185,-0.038189903110013884,0.011512767416918214,0.004640775771021677,-0.006577953704755868, ,0.040276533024060146, ,0.012409648602122679, ,0.0005075080882992282, ,0.1858398438853386,-0.2414512433126293,0.09964710859,1.6873749752199676,0.5183988801100811,-1.2400786792108291, ,0.045275258377133004,0.03168512239014049,0.040022139497487445,-0.0003153493889015512,0.05095863595487836,-0.04156270442724818, ,1.2544870376586914
0.012188102091382637,0.022562757246539583,-0.08884121546845322, ,0.012857825597535176,0.022338172565476738,-0.0895747787425267, ,0.0010183726875416246, ,0.012229669787154169,0.006820863549430971,-0.04110144015741948,0.043067403241901496,0.024973654686548878,-0.004689843286640077, ,0.04342139317982235, ,0.049783203531559884, ,0.0005145062334943295, ,0.18635726698791164,-0.24111144306616342,0.10005673623000001,1.687165285276483,0.5190820626089083,-1.2407174474694518, ,0.05665489048266912,0.038342198609483145,0.04316751089430895,-0.00850680747662387,0.08501024187844972,-0.081081098678476, ,1.258397102355957
0.012188102091382637,0.022562757246539583,-0.08884121546845322, ,0.012916314979828748,0.022337813269832283,-0.08970247086954566, ,0.001150067245628196, ,0.012229669787154169,0.006820863549430971,-0.04110144015741948,0.043067403241901496,0.024973654686548878,-0.004689843286640077, ,0.04342139317982235, ,0.049783203531559884, ,0.0005230948958204629, ,0.18635726698791164,-0.24111144306616342,0.10005673623000001,1.687165285276483,0.5190820626089083,-1.2407174474694518, ,0.05665489048266912,0.038342198609483145,0.04316751089430895,-0.00850680747662387,0.08501024187844972,-0.081081098678476, ,1.2622120380401611
0.012188102091382637,0.022562757246539583,-0.08884121546845322, ,0.012975334699661547,0.022336681342374518,-0.08982976763605058, ,0.0012837760248747053, ,0.012229669787154169,0.006820863549430971,-0.04110144015741948,0.043067403241901496,0.024973654686548878,-0.004689843286640077, ,0.04342139317982235, ,0.049783203531559884, ,0.0005332373108745195, ,0.18635726698791164,-0.24111144306616342,0.10005673623000001,1.687165285276483,0.5190820626089083,-1.2407174474694518, ,0.05665489048266912,0.038342198609483145,0.04316751089430895,-0.00850680747662387,0.08501024187844972,-0.081081098678476, ,1.26578688621521
0.012317018435868455,0.02262506386086525,-0.08925904901502639, ,0.013034878385658031,0.02233478833770026,-0.08995667248875286, ,0.0010422385993402795, ,0.013321373990565447,0.005895853608536448,-0.04119353890378123,0.03183890929375932,0.008383438548602962,0.0013787004688426746, ,0.04369356637065855, ,0.032922326319716574, ,0.000539934696249069, ,0.18699053108359806,-0.24066352455945839,0.10049488225000001,1.6867459053895137,0.5200385181072663,-1.2415790515354672, ,0.06754230715905395,0.04778295143931056,0.04316751089430895,-0.01777362410177985,0.08133865175790925,-0.0811080148790349, ,1.2693860530853271
0.012317018435868455,0.02262506386086525,-0.08925904901502639, ,0.013094939698788452,0.022332145751600894,-0.09008318885226074, ,0.0011705421741034004, ,0.013321373990565447,0.005895853608536448,-0.04119353890378123,0.03183890929375932,0.008383438548602962,0.0013787004688426746, ,0.04369356637065855, ,0.032922326319716574, ,0.0005481244037536707, ,0.18699053108359806,-0.24066352455945839,0.10049488225000001,1.6867459053895137,0.5200385181072663,-1.2415790515354672, ,0.06754230715905395,0.04778295143931056,0.04316751089430895,-0.01777362410177985,0.08133865175790925,-0.0811080148790349, ,1.272994041442871
0.012317018435868455,0.02262506386086525,-0.08925904901502639, ,0.013155512332304052,0.022328765021176634,-0.09020932012913144, ,0.001301491531690859, ,0.013321373990565447,0.005895853608536448,-0.04119353890378123,0.03183890929375932,0.008383438548602962,0.0013787004688426746, ,0.04369356637065855, ,0.032922326319716574, ,0.0005577829566759423, ,0.18699053108359806,-0.24066352455945839,0.10049488225000001,1.6867459053895137,0.5200385181072663,-1.2415790515354672, ,0.06754230715905395,0.04778295143931056,0.04316751089430895,-0.01777362410177985,0.08133865175790925,-0.0811080148790349, ,1.2767341136932373
0.012452550159270874,0.022676576101185755,-0.08964744612932468, ,0.01321659001167233,0.022324657524952326,-0.09033506969992712, ,0.0010864758419789412, ,0.014112095375852146,0.004322118246734378,-0.03780737657650692,0.036864576195481655,-0.010130108696262491,-0.005843207588540159, ,0.04058607723879836, ,0.03823007759704515, ,0.0005644752716797778, ,0.1877241907066494,-0.2401615469226338,0.10090191731,1.6867459053895137,0.5207217006060936,-1.2423811772743711, ,0.08209077989487092,0.055430456517798356,0.03962390925373134,-0.01777362410177985,0.0769207124418878,-0.09477059440473767, ,1.280432939529419
0.012452550159270874,0.022676576101185755,-0.08964744612932468, ,0.013278166494512538,0.022319834582991784,-0.09046044092326695, ,0.001212380872002874, ,0.014112095375852146,0.004322118246734378,-0.03780737657650692,0.036864576195481655,-0.010130108696262491,-0.005843207588540159, ,0.04058607723879836, ,0.03823007759704515, ,0.0005725740916838164, ,0.1877241907066494,-0.2401615469226338,0.10090191731,1.6867459053895137,0.5207217006060936,-1.2423811772743711, ,0.08209077989487092,0.055430456517798356,0.03962390925373134,-0.01777362410177985,0.0769207124418878,-0.09477059440473767, ,1.2840080261230469
0.012452550159270874,0.022676576101185755,-0.08964744612932468, ,0.013340235570530825,0.02231430745701297,-0.09058543713588181, ,0.0013412871013681563, ,0.014112095375852146,0.004322118246734378,-0.03780737657650692,0.036864576195481655,-0.010130108696262491,-0.005843207588540159, ,0.04058607723879836, ,0.03823007759704515, ,0.0005820643757539934, ,0.1877241907066494,-0.2401615469226338,0.10090191731,1.6867459053895137,0.5207217006060936,-1.2423811772743711, ,0.08209077989487092,0.055430456517798356,0.03962390925373134,-0.01777362410177985,0.0769207124418878,-0.09477059440473767, ,1.2876179218292236
0.012600702857069903,0.022711213829321283,-0.09001473714071927, ,0.013402791061455704,0.022308087350503034,-0.09071006165266776, ,0.0011354878345696405, ,0.014436698914995895,0.0024344810101471414,-0.03385290958921032,0.025499303073874647,-0.025527811651832037,-0.008255259583234687, ,0.03688311891646717, ,0.03608100835487885, ,0.0005888134423249159, ,0.1886431959186821,-0.23953600555982163,0.10128691544000001,1.6867459053895137,0.5215415196046862,-1.2433763996571119, ,0.09258238200826417,0.06468775839023229,0.03539735893333334,-0.01777362410177985,0.07186703950981459,-0.09274186908359475, ,1.2911651134490967
0.012600702857069903,0.022711213829321283,-0.09001473714071927, ,0.013465826820973255,0.022301185408833024,-0.09083431776673996, ,0.0012602679005181464, ,0.014436698914995895,0.0024344810101471414,-0.03385290958921032,0.025499303073874647,-0.025527811651832037,-0.008255259583234687, ,0.03688311891646717, ,0.03608100835487885, ,0.000596903255074232, ,0.1886431959186821,-0.23953600555982163,0.10128691544000001,1.6867459053895137,0.5215415196046862,-1.2433763996571119, ,0.09258238200826417,0.06468775839023229,0.03539735893333334,-0.01777362410177985,0.07186703950981459,-0.09274186908359475, ,1.2947299480438232
0.012747178221366472,0.022728524042570163,-0.09034335692057237, ,0.013529336734662495,0.022293612719373038,-0.09095820874948642, ,0.0010858004284791335, ,0.014869963533611424,0.0008001807016492148,-0.03151730642690035,0.05123350952146578,-0.01620169278737172,-0.018007183917188085, ,0.034858237319941456, ,0.05373393944362146, ,0.0006027234595195284, ,0.1896162602608344,-0.23883323686826718,0.10163043229000002,1.6867459053895137,0.5223613386032788,-1.2443716220398526, ,0.10303685294079346,0.07561509287527553,0.03291076760330579,-0.01777362410177985,0.09155517836671002,-0.1300427364303765, ,1.2988159656524658
0.012747178221366472,0.022728524042570163,-0.09034335692057237, ,0.013593314719930678,0.022285380311607254,-0.09108173785062214, ,0.0012072819630705104, ,0.014869963533611424,0.0008001807016492148,-0.03151730642690035,0.05123350952146578,-0.01620169278737172,-0.018007183917188085, ,0.034858237319941456, ,0.05373393944362146, ,0.0006098359125024812, ,0.1896162602608344,-0.23883323686826718,0.10163043229000002,1.6867459053895137,0.5223613386032788,-1.2443716220398526, ,0.10303685294079346,0.07561509287527553,0.03291076760330579,-0.01777362410177985,0.09155517836671002,-0.1300427364303765, ,1.3024709224700928
0.012747178221366472,0.022728524042570163,-0.09034335692057237, ,0.01365775472594864,0.022276499157248497,-0.09120490829824224, ,0.0013325715155337804, ,0.014869963533611424,0.0008001807016492148,-0.03151730642690035,0.05123350952146578,-0.01620169278737172,-0.018007183917188085, ,0.034858237319941456, ,0.05373393944362146, ,0.0006182398148633102, ,0.1896162602608344,-0.23883323686826718,0.10163043229000002,1.6867459053895137,0.5223613386032788,-1.2443716220398526, ,0.10303685294079346,0.07561509287527553,0.03291076760330579,-0.01777362410177985,0.09155517836671002,-0.1300427364303765, ,1.3065741062164307
0.012747178221366472,0.022728524042570163,-0.09034335692057237, ,0.013722650733586169,0.02226698017035372,-0.09132772329887641, ,0.0014606664693940811, ,0.014869963533611424,0.0008001807016492148,-0.03151730642690035,0.05123350952146578,-0.01620169278737172,-0.018007183917188085, ,0.034858237319941456, ,0.05373393944362146, ,0.0006279228798579167, ,0.1896162602608344,-0.23883323686826718,0.10163043229000002,1.6867459053895137,0.5223613386032788,-1.2443716220398526, ,0.10303685294079346,0.07561509287527553,0.03291076760330579,-0.01777362410177985,0.09155517836671002,-0.1300427364303765, ,1.3104500770568848
0.012854382504764601,0.022730345727490324,-0.09056463563041678, ,0.01378799675534711,0.022256834207438465,-0.09145018603754232, ,0.001371148515687769, ,0.01500615859978724,0.00020425759037734142,-0.03030391766829386,0.03051635792209833,-0.012724648503049822,-0.008143582768382363, ,0.03381647443380117, ,0.033062656038142055, ,0.0006363686257196196, ,0.19037308808250838,-0.23827720010132303,0.10186117191,1.686326525502545,0.523044521102106,-1.2450920690386158, ,0.10722818255194438,0.07842722442848825,0.031667617335984104,-0.01962471516839423,0.1003095361530866,-0.11073211183847616, ,1.3151710033416748
0.013054596497145644,0.022720447115122642,-0.09095631788224301, ,0.013853786835304936,0.022246072067592236,-0.09157229967779978, ,0.0011149755399935853, ,0.015927934580796766,-0.0014503246069107333,-0.03011044565368709,0.001216453966115702,-0.04795149473316024,0.035674373203176644, ,0.03409459603719035, ,0.04796666401559944, ,0.0006417462314979787, ,0.19181723912998838,-0.2371651265674347,0.10226820697000001,1.6854877657286067,0.524274249599995,-1.2467482600930082, ,0.11544640092271385,0.09204359026039842,0.031171842504892373,-0.07054108793575192,0.08474281108435275,-0.10504739505309368, ,1.318816900253296
0.013054596497145644,0.022720447115122642,-0.09095631788224301, ,0.01392001504903788,0.02223470449259295,-0.09169406736180395, ,0.0012365959161721827, ,0.015927934580796766,-0.0014503246069107333,-0.03011044565368709,0.001216453966115702,-0.04795149473316024,0.035674373203176644, ,0.03409459603719035, ,0.04796666401559944, ,0.0006483556724388032, ,0.19181723912998838,-0.2371651265674347,0.10226820697000001,1.6854877657286067,0.524274249599995,-1.2467482600930082, ,0.11544640092271385,0.09204359026039842,0.031171842504892373,-0.07054108793575192,0.08474281108435275,-0.10504739505309368, ,1.3226110935211182
0.013054596497145644,0.022720447115122642,-0.09095631788224301, ,0.013986675503564375,0.02222274216702253,-0.09181549221036017, ,0.0013618597635826678, ,0.015927934580796766,-0.0014503246069107333,-0.03011044565368709,0.001216453966115702,-0.04795149473316024,0.035674373203176644, ,0.03409459603719035, ,0.04796666401559944, ,0.0006561963767370874, ,0.19181723912998838,-0.2371651265674347,0.10226820697000001,1.6854877657286067,0.524274249599995,-1.2467482600930082, ,0.11544640092271385,0.09204359026039842,0.031171842504892373,-0.07054108793575192,0.08474281108435275,-0.10504739505309368, ,1.3261950016021729
0.013220432253090615,0.02270397210399279,-0.09125498276419089, ,0.014053762337278295,0.022210195718381318,-0.09193657732297658, ,0.0011844092581392784, ,0.017098859876097158,-0.0017466763484483712,-0.029880513264293078,0.002797450719879267,-0.056150105502766216,-0.04838628597084282, ,0.03447124831314104, ,0.05621953627151082, ,0.0006619378211001547, ,0.19303743092411585,-0.23620750769103085,0.10257802028000002,1.6852780757851225,0.5250940685985876,-1.2475801249954679, ,0.1255250549715222,0.09823699954293041,0.030989905680933853,0.013868032038602306,0.06631696121952163,-0.09786285639098707, ,1.3297998905181885
0.013220432253090615,0.02270397210399279,-0.09125498276419089, ,0.014121269719884297,0.02219707571720324,-0.09205732577791896, ,0.0013085130493035982, ,0.017098859876097158,-0.0017466763484483712,-0.029880513264293078,0.002797450719879267,-0.056150105502766216,-0.04838628597084282, ,0.03447124831314104, ,0.05621953627151082, ,0.0006688902429087939, ,0.19303743092411585,-0.23620750769103085,0.10257802028000002,1.6852780757851225,0.5250940685985876,-1.2475801249954679, ,0.1255250549715222,0.09823699954293041,0.030989905680933853,0.013868032038602306,0.06631696121952163,-0.09786285639098707, ,1.3333520889282227
0.013220432253090615,0.02270397210399279,-0.09125498276419089, ,0.014189191852333102,0.022183392677170614,-0.09217774063226342, ,0.001435611432054204, ,0.017098859876097158,-0.0017466763484483712,-0.029880513264293078,0.002797450719879267,-0.056150105502766216,-0.04838628597084282, ,0.03447124831314104, ,0.05621953627151082, ,0.0006770468513039579, ,0.19303743092411585,-0.23620750769103085,0.10257802028000002,1.6852780757851225,0.5250940685985876,-1.2475801249954679, ,0.1255250549715222,0.09823699954293041,0.030989905680933853,0.013868032038602306,0.06631696121952163,-0.09786285639098707, ,1.3370258808135986
0.013398006109938177,0.022680984824540264,-0.09156002122076355, ,0.014257522966756815,0.022169157055229486,-0.09229782492195174, ,0.001243016972563136, ,0.018183058808843203,-0.002730703784156045,-0.03099829361754253,0.037327603789668956,-0.03439578711394992,-0.032400692978322376, ,0.036041289904802695, ,0.05075816736835762, ,0.0006830044315277387, ,0.19435801824560822,-0.2351494932872621,0.10289431504,1.6854877657286067,0.5259138875971804,-1.2487387048584897, ,0.13733276636537015,0.10983442310008192,0.03217941721212122,-0.012887204625809412,0.10646399975257033,-0.1489987693345349, ,1.3407669067382812
0.013398006109938177,0.022680984824540264,-0.09156002122076355, ,0.014326257326404333,0.02215437925170419,-0.09241758166184368, ,0.0013690776677451296, ,0.018183058808843203,-0.002730703784156045,-0.03099829361754253,0.037327603789668956,-0.03439578711394992,-0.032400692978322376, ,0.036041289904802695, ,0.05075816736835762, ,0.0006901510277383367, ,0.19435801824560822,-0.2351494932872621,0.10289431504,1.6854877657286067,0.5259138875971804,-1.2487387048584897, ,0.13733276636537015,0.10983442310008192,0.03217941721212122,-0.012887204625809412,0.10646399975257033,-0.1489987693345349, ,1.3445770740509033
0.013398006109938177,0.022680984824540264,-0.09156002122076355, ,0.014395389225576566,0.02213906961041214,-0.0925370138457718, ,0.0014976514173814218, ,0.018183058808843203,-0.002730703784156045,-0.03099829361754253,0.037327603789668956,-0.03439578711394992,-0.032400692978322376, ,0.036041289904802695, ,0.05075816736835762, ,0.0006984757740233168, ,0.19435801824560822,-0.2351494932872621,0.10289431504,1.6854877657286067,0.5259138875971804,-1.2487387048584897, ,0.13733276636537015,0.10983442310008192,0.03217941721212122,-0.012887204625809412,0.10646399975257033,-0.1489987693345349, ,1.3481829166412354
0.013398006109938177,0.022680984824540264,-0.09156002122076355, ,0.014464912989561743,0.022123238418779324,-0.09265612444659464, ,0.001628131943241906, ,0.018183058808843203,-0.002730703784156045,-0.03099829361754253,0.037327603789668956,-0.03439578711394992,-0.032400692978322376, ,0.036041289904802695, ,0.05075816736835762, ,0.0007079620614643229, ,0.19435801824560822,-0.2351494932872621,0.10289431504,1.6854877657286067,0.5259138875971804,-1.2487387048584897, ,0.13733276636537015,0.10983442310008192,0.03217941721212122,-0.012887204625809412,0.10646399975257033,-0.1489987693345349, ,1.3519220352172852
0.013398006109938177,0.022680984824540264,-0.09156002122076355, ,0.01453482297457073,0.022106895907955042,-0.0927749164162511, ,0.00176008551038798, ,0.018183058808843203,-0.002730703784156045,-0.03099829361754253,0.037327603789668956,-0.03439578711394992,-0.032400692978322376, ,0.036041289904802695, ,0.05075816736835762, ,0.0007185895710494103, ,0.19435801824560822,-0.2351494932872621,0.10289431504,1.6854877657286067,0.5259138875971804,-1.2487387048584897, ,0.13733276636537015,0.10983442310008192,0.03217941721212122,-0.012887204625809412,0.10646399975257033,-0.1489987693345349, ,1.3557419776916504
0.013723650463632376,0.02262758445147596,-0.09210985669204678, ,0.014605113567672424,0.02209005225292643,-0.09289339268581374, ,0.0012960890099795563, ,0.019448435919132118,-0.003447964742650347,-0.03201063015864137,0.058616707220681435,0.005755376623376914,-0.023649582190317243, ,0.03761396766788195, ,0.058898294672004844, ,0.0007243645654387118, ,0.19686018369685698,-0.2331647509385864,0.10346727522000002,1.6850683858416375,0.5283733445929583,-1.2515610145264309, ,0.15159255840011304,0.11891847313091576,0.03346388974789917,-0.019883870011899285,0.16372229940231675,-0.17844929640897017, ,1.359602928161621
0.013723650463632376,0.02262758445147596,-0.09210985669204678, ,0.01467577918672902,0.022072717572634133,-0.09301155616554294, ,0.0014238989778367532, ,0.019448435919132118,-0.003447964742650347,-0.03201063015864137,0.058616707220681435,0.005755376623376914,-0.023649582190317243, ,0.03761396766788195, ,0.058898294672004844, ,0.0007312906487297815, ,0.19686018369685698,-0.2331647509385864,0.10346727522000002,1.6850683858416375,0.5283733445929583,-1.2515610145264309, ,0.15159255840011304,0.11891847313091576,0.03346388974789917,-0.019883870011899285,0.16372229940231675,-0.17844929640897017, ,1.3632299900054932
0.013933870997302505,0.022587437358599943,-0.09245191874807683, ,0.014746814280331236,0.022054901930086676,-0.09312940974494047, ,0.0011846792033603963, ,0.020680459996394052,-0.004044891804216577,-0.03347209933809479,-0.07344656943684721,-0.09056768510425663,0.06843801100363646, ,0.03955280027342639, ,0.11660558361922534, ,0.0007357356345594933, ,0.19686018369685698,-0.2331647509385864,0.10346727522000002,1.6850683858416375,0.5283733445929583,-1.2515610145264309, ,0.15159255840011304,0.11891847313091576,0.03346388974789917,-0.019883870011899285,0.16372229940231675,-0.17844929640897017, ,1.3668160438537598
0.013933870997302505,0.022587437358599943,-0.09245191874807683, ,0.014818213327733783,0.02203661533247547,-0.09324695629280388, ,0.001310553684280852, ,0.020680459996394052,-0.004044891804216577,-0.03347209933809479,-0.07344656943684721,-0.09056768510425663,0.06843801100363646, ,0.03955280027342639, ,0.11660558361922534, ,0.0007413163923237783, ,0.19845878940182146,-0.23189822274721358,0.10382245868000001,1.6842296260676997,0.5296030730908472,-1.2527271331399799, ,0.1543039700137736,0.12372482602147429,0.03462785113043479,-0.09732025317193911,0.08764091929159494,-0.06448468161843111, ,1.3705189228057861
0.013933870997302505,0.022587437358599943,-0.09245191874807683, ,0.014889970838790598,0.02201786773129019,-0.09336419865727909, ,0.0014390243569798965, ,0.020680459996394052,-0.004044891804216577,-0.03347209933809479,-0.07344656943684721,-0.09056768510425663,0.06843801100363646, ,0.03955280027342639, ,0.11660558361922534, ,0.0007480251227531641, ,0.19845878940182146,-0.23189822274721358,0.10382245868000001,1.6842296260676997,0.5296030730908472,-1.2527271331399799, ,0.1543039700137736,0.12372482602147429,0.03462785113043479,-0.09732025317193911,0.08764091929159494,-0.06448468161843111, ,1.3741579055786133
0.014147073198801888,0.02254406067313039,-0.09279790241864974, ,0.014962081353890072,0.021998669022433127,-0.09348113966591574, ,0.0011952001847231096, ,0.020641837795488796,-0.004160972886411028,-0.033360488303511696,0.014898347902090731,-0.008067465631152147,-0.0548991531038329, ,0.03945023881785075, ,0.016941176221312804, ,0.0007522839328671636, ,0.20006511783966016,-0.23057763542572118,0.10418153101000001,1.6838102461807307,0.5308328015887361,-1.2537298942732478, ,0.1571141416530973,0.12981797750816795,0.034779064454148474,0.0201995412485535,0.1463420631646008,-0.13654690566313607, ,1.377760887145996
0.014147073198801888,0.02254406067313039,-0.09279790241864974, ,0.01503453944389062,0.021979029046334687,-0.09359778212571998, ,0.0013216143996015112, ,0.020641837795488796,-0.004160972886411028,-0.033360488303511696,0.014898347902090731,-0.008067465631152147,-0.0548991531038329, ,0.03945023881785075, ,0.016941176221312804, ,0.0007576549750061669, ,0.20006511783966016,-0.23057763542572118,0.10418153101000001,1.6838102461807307,0.5308328015887361,-1.2537298942732478, ,0.1571141416530973,0.12981797750816795,0.034779064454148474,0.0201995412485535,0.1463420631646008,-0.13654690566313607, ,1.3813660144805908
0.014147073198801888,0.02254406067313039,-0.09279790241864974, ,0.01510733971005565,0.02195895758806781,-0.09371412882320855, ,0.0014504924050804204, ,0.020641837795488796,-0.004160972886411028,-0.033360488303511696,0.014898347902090731,-0.008067465631152147,-0.0548991531038329, ,0.03945023881785075, ,0.016941176221312804, ,0.0007641300911750852, ,0.20006511783966016,-0.23057763542572118,0.10418153101000001,1.6838102461807307,0.5308328015887361,-1.2537298942732478, ,0.1571141416530973,0.12981797750816795,0.034779064454148474,0.0201995412485535,0.1463420631646008,-0.13654690566313607, ,1.3849670886993408
0.014340523065664523,0.022502875763239834,-0.09311045511635044, ,0.01518047678398917,0.02193846437746321,-0.0938301825244626, ,0.0012418091654153366, ,0.020326926830404622,-0.0045136004494037,-0.03298315371189474,0.06213377241525657,0.04253791930126321,-0.05504696055354481, ,0.03900570435420896, ,0.0752996760778463, ,0.0007685530455661985, ,0.2015556052843855,-0.2293497208987195,0.10450819609,1.6838102461807307,0.5324724395859214,-1.2551485878577453, ,0.15789840525535903,0.13180130772009832,0.034552736485900216,0.015813553444351158,0.1994353757961521,-0.1859284254809559, ,1.3885810375213623
0.014340523065664523,0.022502875763239834,-0.09311045511635044, ,0.015253945327571015,0.021917559089224513,-0.09394594597518195, ,0.001369299387503606, ,0.020326926830404622,-0.0045136004494037,-0.03298315371189474,0.06213377241525657,0.04253791930126321,-0.05504696055354481, ,0.03900570435420896, ,0.0752996760778463, ,0.0007740644798958996, ,0.2015556052843855,-0.2293497208987195,0.10450819609,1.6838102461807307,0.5324724395859214,-1.2551485878577453, ,0.15789840525535903,0.13180130772009832,0.034552736485900216,0.015813553444351158,0.1994353757961521,-0.1859284254809559, ,1.3922638893127441
0.014340523065664523,0.022502875763239834,-0.09311045511635044, ,0.015327740032892001,0.021896251343042662,-0.09406142190073796, ,0.0014989757678394015, ,0.020326926830404622,-0.0045136004494037,-0.03298315371189474,0.06213377241525657,0.04253791930126321,-0.05504696055354481, ,0.03900570435420896, ,0.0752996760778463, ,0.0007806545825135677, ,0.2015556052843855,-0.2293497208987195,0.10450819609,1.6838102461807307,0.5324724395859214,-1.2551485878577453, ,0.15789840525535903,0.13180130772009832,0.034552736485900216,0.015813553444351158,0.1994353757961521,-0.1859284254809559, ,1.3959639072418213
0.014559789742732964,0.02245149012189936,-0.09346307152701566, ,0.015401855622189587,0.02187455070371126,-0.09417661300622812, ,0.0012454218081280677, ,0.02114110736632617,-0.004938451213706125,-0.03311978921181362,0.017440397280104554,0.017271428624870373,-0.01776204177616359, ,0.039601201477981095, ,0.024544446483077267, ,0.0007848416746362209, ,0.2032623292495891,-0.22792101531698797,0.10487763874000001,1.6838102461807307,0.5346586235821684,-1.2570129530570286, ,0.16389799923742793,0.13422481125667718,0.03470329307189543,-0.014137208976721174,0.18732085367632592,-0.14807287600351712, ,1.3995471000671387
0.014559789742732964,0.02245149012189936,-0.09346307152701566, ,0.015476286847782739,0.021852466681241463,-0.09429152197652983, ,0.0013729989706195971, ,0.02114110736632617,-0.004938451213706125,-0.03311978921181362,0.017440397280104554,0.017271428624870373,-0.01776204177616359, ,0.039601201477981095, ,0.024544446483077267, ,0.0007900930790646439, ,0.2032623292495891,-0.22792101531698797,0.10487763874000001,1.6838102461807307,0.5346586235821684,-1.2570129530570286, ,0.16389799923742793,0.13422481125667718,0.03470329307189543,-0.014137208976721174,0.18732085367632592,-0.14807287600351712, ,1.4032020568847656
0.014559789742732964,0.02245149012189936,-0.09346307152701566, ,0.015551028492007648,0.021830008730976673,-0.094406151476354, ,0.0015027285743509538, ,0.02141955448912509,-0.00606965515325543,-0.032094722807140236,-0.031938471903392864,-0.03766818052959707,0.06266659011487839, ,0.03906032847095895, ,0.04938546099747399, ,0.0007963995878724873, ,0.2032623292495891,-0.22792101531698797,0.10487763874000001,1.6838102461807307,0.5346586235821684,-1.2570129530570286, ,0.16389799923742793,0.13422481125667718,0.03470329307189543,-0.014137208976721174,0.18732085367632592,-0.14807287600351712, ,1.407263994216919
0.014765945293212932,0.022397184204712997,-0.09378129728848367, ,0.015626075367152888,0.021807186253707984,-0.09452050415029867, ,0.0012784162510076473, ,0.02141955448912509,-0.00606965515325543,-0.032094722807140236,-0.031938471903392864,-0.03766818052959707,0.06266659011487839, ,0.03906032847095895, ,0.04938546099747399, ,0.0008006278042157782, ,0.20485321222167935,-0.22660042799549557,0.10520948898000002,1.6829714864067924,0.5362982615793538,-1.2582682891612451, ,0.16532568215761462,0.1381323749031598,0.033393734842767295,-0.09879641969895868,0.15215003162369184,-0.12008605040902912, ,1.4114999771118164
0.014765945293212932,0.022397184204712997,-0.09378129728848367, ,0.01570142231539463,0.021784008595788433,-0.09463458262290328, ,0.0014068395247310678, ,0.02141955448912509,-0.00606965515325543,-0.032094722807140236,-0.031938471903392864,-0.03766818052959707,0.06266659011487839, ,0.03906032847095895, ,0.04938546099747399, ,0.0008058992104811285, ,0.20485321222167935,-0.22660042799549557,0.10520948898000002,1.6829714864067924,0.5362982615793538,-1.2582682891612451, ,0.16532568215761462,0.1381323749031598,0.033393734842767295,-0.09879641969895868,0.15215003162369184,-0.12008605040902912, ,1.4152169227600098
0.014974950278242506,0.022335303644900547,-0.09408546280699862, ,0.01577706420873214,0.021760485049248452,-0.09474838949870257, ,0.0011888124216908747, ,0.02040369285539227,-0.006560015114411381,-0.028674802929507272,-0.029193544234053365,-0.03184489573915378,0.011211695706161328, ,0.03579928495772744, ,0.043201169231378754, ,0.0008092001864398332, ,0.20646726339239227,-0.2252257815438836,0.10552578374,1.6825521065198237,0.5376646265770082,-1.2593824681982093, ,0.15975916087284645,0.1365423619546342,0.02982923505617978,-0.0447574644259684,0.1399668053153672,-0.11089882530118046, ,1.4188179969787598
0.014974950278242506,0.022335303644900547,-0.09408546280699862, ,0.015852995948922945,0.021736624851910812,-0.09486192736227961, ,0.0013161602115943246, ,0.02040369285539227,-0.006560015114411381,-0.028674802929507272,-0.029193544234053365,-0.03184489573915378,0.011211695706161328, ,0.03579928495772744, ,0.043201169231378754, ,0.0008135331781078203, ,0.20646726339239227,-0.2252257815438836,0.10552578374,1.6825521065198237,0.5376646265770082,-1.2593824681982093, ,0.15975916087284645,0.1365423619546342,0.02982923505617978,-0.0447574644259684,0.1399668053153672,-0.11089882530118046, ,1.42238187789917
0.014974950278242506,0.022335303644900547,-0.09408546280699862, ,0.015929212467418234,0.021712437187505287,-0.09497519877832064, ,0.001445755528470468, ,0.02040369285539227,-0.006560015114411381,-0.028674802929507272,-0.029193544234053365,-0.03184489573915378,0.011211695706161328, ,0.03579928495772744, ,0.043201169231378754, ,0.0008188909946363174, ,0.20646726339239227,-0.2252257815438836,0.10552578374,1.6825521065198237,0.5376646265770082,-1.2593824681982093, ,0.15975916087284645,0.1365423619546342,0.02982923505617978,-0.0447574644259684,0.1399668053153672,-0.11089882530118046, ,1.4259920120239258
0.015183381700806572,0.02226427028749674,-0.09437193752708338, ,0.016005708725298284,0.021687931185783566,-0.09508820629166831, ,0.0012334623782235769, ,0.020252523717092415,-0.0074143271909736285,-0.027551787487688953,-0.006625168047744948,-0.0028236667723102312,-0.0501379198843298, ,0.03498911199749109, ,0.007200699231075862, ,0.0008223747877757062, ,0.20811220549460208,-0.22379707596215206,0.10582393044,1.6823424165763388,0.539167628074428,-1.2605263863987295, ,0.16057012108032281,0.14465997188791277,0.028648941582733817,0.0150489033133511,0.15656681017766472,-0.12944365691834162, ,1.4295649528503418
0.015183381700806572,0.02226427028749674,-0.09437193752708338, ,0.016082479713207448,0.02166311592263461,-0.0952009524273756, ,0.0013627287005132439, ,0.020252523717092415,-0.0074143271909736285,-0.027551787487688953,-0.006625168047744948,-0.0028236667723102312,-0.0501379198843298, ,0.03498911199749109, ,0.007200699231075862, ,0.000826877737048519, ,0.20811220549460208,-0.22379707596215206,0.10582393044,1.6823424165763388,0.539167628074428,-1.2605263863987295, ,0.16057012108032281,0.14465997188791277,0.028648941582733817,0.0150489033133511,0.15656681017766472,-0.12944365691834162, ,1.4331378936767578
0.015381727854401521,0.02219320372800725,-0.0946475620338967, ,0.016159520451289815,0.021638000420199126,-0.09531343969075948, ,0.0011647339141127408, ,0.020181787481940397,-0.007079465249188624,-0.028832477566041542,0.02356160232305545,0.03165736423527496,-0.02245051993520397, ,0.03589895732158476, ,0.03946286721498836, ,0.000829669936858967, ,0.2096876430009439,-0.2223915385790432,0.10611170682000001,1.6823424165763388,0.5409439025713787,-1.2619748191467828, ,0.15949065808146348,0.1422742752001061,0.030168203636363643,-0.015468772300575428,0.19727576190593243,-0.16279751061354591, ,1.4372670650482178
0.015381727854401521,0.02219320372800725,-0.0946475620338967, ,0.016236825989124275,0.021612593646984837,-0.09542567056745524, ,0.0012937363627060247, ,0.020181787481940397,-0.007079465249188624,-0.028832477566041542,0.02356160232305545,0.03165736423527496,-0.02245051993520397, ,0.03589895732158476, ,0.03946286721498836, ,0.0008334737600216479, ,0.2096876430009439,-0.2223915385790432,0.10611170682000001,1.6823424165763388,0.5409439025713787,-1.2619748191467828, ,0.15949065808146348,0.1422742752001061,0.030168203636363643,-0.015468772300575428,0.19727576190593243,-0.16279751061354591, ,1.4409570693969727
0.015381727854401521,0.02219320372800725,-0.0946475620338967, ,0.01631439140566009,0.02158690451798103,-0.09553764752346998, ,0.0014246796870432225, ,0.020181787481940397,-0.007079465249188624,-0.028832477566041542,0.02356160232305545,0.03165736423527496,-0.02245051993520397, ,0.03589895732158476, ,0.03946286721498836, ,0.0008382803122738558, ,0.2096876430009439,-0.2223915385790432,0.10611170682000001,1.6823424165763388,0.5409439025713787,-1.2619748191467828, ,0.15949065808146348,0.1422742752001061,0.030168203636363643,-0.015468772300575428,0.19727576190593243,-0.16279751061354591, ,1.4446508884429932
0.015593251901120118,0.022118812233606108,-0.0949516808976988, ,0.016392211809151947,0.02156094189477415,-0.0956493730052363, ,0.0011984700774365705, ,0.020453124700561934,-0.0073504495868829825,-0.029586959332292218,-0.005882612614823288,-0.00138217644054035,0.0692704785909533, ,0.036711681814876836, ,0.006040932897384762, ,0.0008411850684445228, ,0.21134030783602792,-0.22093194206581476,0.10642929787000001,1.6815036568024009,0.5428568135680949,-1.2635346697985326, ,0.15895635101921404,0.14121568684296246,0.030869789767441865,-0.11144081819752893,0.18439472615392455,-0.15231899900065227, ,1.4483659267425537
0.015593251901120118,0.022118812233606108,-0.0949516808976988, ,0.016470282337095434,0.02153471458566202,-0.09576084943966658, ,0.0013285729853008172, ,0.020453124700561934,-0.0073504495868829825,-0.029586959332292218,-0.005882612614823288,-0.00138217644054035,0.0692704785909533, ,0.036711681814876836, ,0.006040932897384762, ,0.0008450841717793731, ,0.21134030783602792,-0.22093194206581476,0.10642929787000001,1.6815036568024009,0.5428568135680949,-1.2635346697985326, ,0.15895635101921404,0.14121568684296246,0.030869789767441865,-0.11144081819752893,0.18439472615392455,-0.15231899900065227, ,1.4520790576934814
0.015593251901120118,0.022118812233606108,-0.0949516808976988, ,0.016548598156162393,0.021508231345769072,-0.09587207923420625, ,0.0014603522128106092, ,0.020453124700561934,-0.0073504495868829825,-0.029586959332292218,-0.005882612614823288,-0.00138217644054035,0.0692704785909533, ,0.036711681814876836, ,0.006040932897384762, ,0.0008499672514700972, ,0.21134030783602792,-0.22093194206581476,0.10642929787000001,1.6815036568024009,0.5428568135680949,-1.2635346697985326, ,0.15895635101921404,0.14121568684296246,0.030869789767441865,-0.11144081819752893,0.18439472615392455,-0.15231899900065227, ,1.4557490348815918
0.015803438287741396,0.02204919718910655,-0.09525635195429766, ,0.016627154462136085,0.021481500877161556,-0.09598306477688834, ,0.0012364865405951986, ,0.02145794406865557,-0.006606569419496273,-0.031475675236305754,-0.006802708252547162,-0.007320767054556028,0.0003208967101505646, ,0.0386627502220104, ,0.009991975568201484, ,0.0008530107104395862, ,0.21295435900674087,-0.21951868194983168,0.10674818521000001,1.680874586971947,0.5446330880650456,-1.2649831025465863, ,0.1619401733079706,0.1407966491965442,0.03297890583850932,-0.03877903144970434,0.16511887734921005,-0.1365372486416238, ,1.4594531059265137
0.015803438287741396,0.02204919718910655,-0.09525635195429766, ,0.016705946479846613,0.02145453182896185,-0.09609380843638614, ,0.0013672897596212247, ,0.02145794406865557,-0.006606569419496273,-0.031475675236305754,-0.006802708252547162,-0.007320767054556028,0.0003208967101505646, ,0.0386627502220104, ,0.009991975568201484, ,0.0008570285155113178, ,0.21295435900674087,-0.21951868194983168,0.10674818521000001,1.680874586971947,0.5446330880650456,-1.2649831025465863, ,0.1619401733079706,0.1407966491965442,0.03297890583850932,-0.03877903144970434,0.16511887734921005,-0.1365372486416238, ,1.4631240367889404
0.015803438287741396,0.02204919718910655,-0.09525635195429766, ,0.016784969463106255,0.021427332797464126,-0.09620431256206867, ,0.001499582636499739, ,0.02145794406865557,-0.006606569419496273,-0.031475675236305754,-0.006802708252547162,-0.007320767054556028,0.0003208967101505646, ,0.0386627502220104, ,0.009991975568201484, ,0.0008620095552089025, ,0.21453751924595688,-0.2181054218338486,0.10708003545000001,1.6806648970284628,0.546272726062231,-1.2663201173909433, ,0.15895635101921404,0.1422742752001061,0.033963350788912584,0.01566599406486551,0.1720946066052968,-0.14213515316497105, ,1.4669239521026611
0.016015692783955777,0.02198341206624723,-0.0955733766240245, ,0.016864218694644717,0.02139991232624878,-0.09631457948405317, ,0.0012687985842534002, ,0.02144642441244392,-0.006382815254671312,-0.032367457346241774,0.008712291149638696,0.014414349435638555,-0.0526037732035686, ,0.03934897388388566, ,0.016841673343407554, ,0.0008651387015861678, ,0.21453751924595688,-0.2181054218338486,0.10708003545000001,1.6806648970284628,0.546272726062231,-1.2663201173909433, ,0.15895635101921404,0.1422742752001061,0.033963350788912584,0.01566599406486551,0.1720946066052968,-0.14213515316497105, ,1.4706470966339111
0.016015692783955777,0.02198341206624723,-0.0955733766240245, ,0.016943689486044546,0.021372278906297393,-0.09642461151325939, ,0.001399736566261179, ,0.02144642441244392,-0.006382815254671312,-0.032367457346241774,0.008712291149638696,0.014414349435638555,-0.0526037732035686, ,0.03934897388388566, ,0.016841673343407554, ,0.0008692196013165114, ,0.21453751924595688,-0.2181054218338486,0.10708003545000001,1.6806648970284628,0.546272726062231,-1.2663201173909433, ,0.15895635101921404,0.1422742752001061,0.033963350788912584,0.01566599406486551,0.1720946066052968,-0.14213515316497105, ,1.4742600917816162
0.0162241023048766,0.021921582858679955,-0.09588903918680597, ,0.017023377177676286,0.021344440976108,-0.09653441094146342, ,0.0011783198957062957, ,0.021118403892918036,-0.006789237452853919,-0.03138825534328853,0.014402717667262718,0.023159853097386815,-0.0345108172282183, ,0.03843570347568952, ,0.02727245137975357, ,0.0008715612702134037, ,0.21608206582080178,-0.21672305264936242,0.10741188569000001,1.680874586971947,0.5480490005591817,-1.2677685501389968, ,0.15789840525535903,0.14184894104405196,0.033185024,-0.004111198343233661,0.18440664048635014,-0.1520796347109034, ,1.477802038192749
0.0162241023048766,0.021921582858679955,-0.09588903918680597, ,0.01710327713863398,0.0213164069218096,-0.09664398004135188, ,0.0013073339270216102, ,0.021118403892918036,-0.006789237452853919,-0.03138825534328853,0.014402717667262718,0.023159853097386815,-0.0345108172282183, ,0.03843570347568952, ,0.02727245137975357, ,0.0008748377563548188, ,0.21608206582080178,-0.21672305264936242,0.10741188569000001,1.680874586971947,0.5480490005591817,-1.2677685501389968, ,0.15789840525535903,0.14184894104405196,0.033185024,-0.004111198343233661,0.18440664048635014,-0.1520796347109034, ,1.4813880920410156
0.0162241023048766,0.021921582858679955,-0.09588903918680597, ,0.017183384766670435,0.021288185077277512,-0.09675332106657517, ,0.0014381928795151758, ,0.021118403892918036,-0.006789237452853919,-0.03138825534328853,0.014402717667262718,0.023159853097386815,-0.0345108172282183, ,0.03843570347568952, ,0.02727245137975357, ,0.0008790418990649707, ,0.21608206582080178,-0.21672305264936242,0.10741188569000001,1.680874586971947,0.5480490005591817,-1.2677685501389968, ,0.15789840525535903,0.14184894104405196,0.033185024,-0.004111198343233661,0.18440664048635014,-0.1520796347109034, ,1.485044002532959
0.016440093124135358,0.021847473047822426,-0.09620645612347076, ,0.0172636954881325,0.021259783724247888,-0.09686243625180116, ,0.001205823172687251, ,0.020904399638810814,-0.0073276426410286396,-0.030369847062349253,0.004755776736687099,0.013324915760120563,0.04041689015277298, ,0.037590103505101155, ,0.014147259703290466, ,0.0008814625010918023, ,0.21770383972438892,-0.2152711788690082,0.10774503222000001,1.6800358271980091,0.5499619115558978,-1.2693284007907466, ,0.15763611554563253,0.1407966491965442,0.03192146597194389,-0.0832672521258991,0.19098882715957632,-0.15734915013573852, ,1.4887380599975586
0.016440093124135358,0.021847473047822426,-0.09620645612347076, ,0.017344204757896407,0.021231211092432995,-0.09697132781277006, ,0.001335000129233717, ,0.020904399638810814,-0.0073276426410286396,-0.030369847062349253,0.004755776736687099,0.013324915760120563,0.04041689015277298, ,0.037590103505101155, ,0.014147259703290466, ,0.0008847973365928459, ,0.21770383972438892,-0.2152711788690082,0.10774503222000001,1.6800358271980091,0.5499619115558978,-1.2693284007907466, ,0.15763611554563253,0.1407966491965442,0.03192146597194389,-0.0832672521258991,0.19098882715957632,-0.15734915013573852, ,1.492311954498291
0.016440093124135358,0.021847473047822426,-0.09620645612347076, ,0.01742490805930305,0.02120247535963604,-0.09707999794634727, ,0.0014659323963299067, ,0.020904399638810814,-0.0073276426410286396,-0.030369847062349253,0.004755776736687099,0.013324915760120563,0.04041689015277298, ,0.037590103505101155, ,0.014147259703290466, ,0.0008890391983427514, ,0.21770383972438892,-0.2152711788690082,0.10774503222000001,1.6800358271980091,0.5499619115558978,-1.2693284007907466, ,0.15763611554563253,0.1407966491965442,0.03192146597194389,-0.0832672521258991,0.19098882715957632,-0.15734915013573852, ,1.49589204788208
0.016654812064587455,0.02177229435959844,-0.09651977143838136, ,0.017505800904093455,0.021173584651865942,-0.09718844883057774, ,0.0012368365995277834, ,0.02123057950455899,-0.007268600645043596,-0.03078545095218699,-0.003959197521702921,0.0031381347672724035,0.024859068644069948, ,0.03809611596693342, ,0.005049305176613474, ,0.0008915594693658314, ,0.2192020499019885,-0.21391970061601892,0.10805225295000001,1.6791970674240708,0.551874822552614,-1.2708882514424964, ,0.157374695785192,0.14163722620667282,0.03230996251521299,-0.0711654991284425,0.17919909319241006,-0.14765019302607055, ,1.4994559288024902
0.016654812064587455,0.02177229435959844,-0.09651977143838136, ,0.017586878832343916,0.021144547043452543,-0.09729668262473931, ,0.0013661647572575082, ,0.02123057950455899,-0.007268600645043596,-0.03078545095218699,-0.003959197521702921,0.0031381347672724035,0.024859068644069948, ,0.03809611596693342, ,0.005049305176613474, ,0.0008949738958974261, ,0.2192020499019885,-0.21391970061601892,0.10805225295000001,1.6791970674240708,0.551874822552614,-1.2708882514424964, ,0.157374695785192,0.14163722620667282,0.03230996251521299,-0.0711654991284425,0.17919909319241006,-0.14765019302607055, ,1.5030460357666016
0.016654812064587455,0.02177229435959844,-0.09651977143838136, ,0.01766813741240142,0.02111537055716138,-0.09740470146939743, ,0.0014971567394647623, ,0.02123057950455899,-0.007268600645043596,-0.03078545095218699,-0.003959197521702921,0.0031381347672724035,0.024859068644069948, ,0.03809611596693342, ,0.005049305176613474, ,0.0008992752019229072, ,0.2192020499019885,-0.21391970061601892,0.10805225295000001,1.6791970674240708,0.551874822552614,-1.2708882514424964, ,0.157374695785192,0.14163722620667282,0.03230996251521299,-0.0711654991284425,0.17919909319241006,-0.14765019302607055, ,1.5067849159240723
0.01686436036211338,0.02170412988139301,-0.09681349360272427, ,0.017749572240819047,0.021086063164308468,-0.09751250748645776, ,0.0012861675422049235, ,0.02149191859106089,-0.007101490491181828,-0.029613185524209697,-0.06507567355680227,-0.07277961757435508,-0.0019374177489531095, ,0.03727297263181993, ,0.09763039101559604, ,0.0009020191192298719, ,0.22083926927132408,-0.2124678268356647,0.10838280690000002,1.6791970674240708,0.5531045510505029,-1.2718910125757645, ,0.1548074087413879,0.1371343086105069,0.030989905680933853,-0.03419493706957983,0.09022566053922625,-0.07501235206159967, ,1.5111360549926758
0.01686436036211338,0.02170412988139301,-0.09681349360272427, ,0.017831178942290977,0.021056632784875552,-0.0976201027792208, ,0.0014158421594879732, ,0.02149191859106089,-0.007101490491181828,-0.029613185524209697,-0.06507567355680227,-0.07277961757435508,-0.0019374177489531095, ,0.03727297263181993, ,0.09763039101559604, ,0.0009056375913443656, ,0.22083926927132408,-0.2124678268356647,0.10838280690000002,1.6791970674240708,0.5531045510505029,-1.2718910125757645, ,0.1548074087413879,0.1371343086105069,0.030989905680933853,-0.03419493706957983,0.09022566053922625,-0.07501235206159967, ,1.5147809982299805
0.01707984284080799,0.021628789544985393,-0.09710390338347179, ,0.017912953169588332,0.021027087287625017,-0.09772748943243628, ,0.0012020723717381613, ,0.02127926336332237,-0.007611077613602993,-0.028632661392867048,-0.042702814068876827,-0.042289902649119415,-0.03632201338141488, ,0.03647690845129973, ,0.060099475462656385, ,0.0009077105618366299, ,0.22083926927132408,-0.2124678268356647,0.10838280690000002,1.6791970674240708,0.5531045510505029,-1.2718910125757645, ,0.1548074087413879,0.1371343086105069,0.030989905680933853,-0.03419493706957983,0.09022566053922625,-0.07501235206159967, ,1.5184810161590576
0.01707984284080799,0.021628789544985393,-0.09710390338347179, ,0.01799489060349395,0.0209974344902144,-0.0978346695123557, ,0.0013303912012282099, ,0.02127926336332237,-0.007611077613602993,-0.028632661392867048,-0.042702814068876827,-0.042289902649119415,-0.03632201338141488, ,0.03647690845129973, ,0.060099475462656385, ,0.0009106458440546269, ,0.22241470677766587,-0.21106228945255584,0.10868743505000002,1.6789873774805866,0.5541976430486265,-1.272945713285617, ,0.15556875665323078,0.14100585669906504,0.03005436135849057,0.0,0.11456376852008167,-0.09341907140465329, ,1.5222198963165283
0.01707984284080799,0.021628789544985393,-0.09710390338347179, ,0.018076986952738062,0.02096768215931193,-0.0979416450667868, ,0.0014605377377227514, ,0.02127926336332237,-0.007611077613602993,-0.028632661392867048,-0.042702814068876827,-0.042289902649119415,-0.03632201338141488, ,0.03647690845129973, ,0.060099475462656385, ,0.0009144382019419933, ,0.22241470677766587,-0.21106228945255584,0.10868743505000002,1.6789873774805866,0.5541976430486265,-1.272945713285617, ,0.15556875665323078,0.14100585669906504,0.03005436135849057,0.0,0.11456376852008167,-0.09341907140465329, ,1.5260260105133057
0.01729382360113113,0.021547003895637268,-0.09739219573690022, ,0.018159237953933594,0.020937838010710957,-0.09804841812514781, ,0.0012452521432352265, ,0.020872956824204078,-0.007817198169911912,-0.028198542428994958,-0.03556788309224225,-0.03713649526846349,-0.008768910862505471, ,0.03594366020500125, ,0.051421549560750214, ,0.0009167040508549607, ,0.22398242155113346,-0.2096258611379501,0.10898947062000001,1.678358307650133,0.5554273715465154,-1.2742751893794468, ,0.15232253861712805,0.13975985501983915,0.02960745635687733,-0.03153111916902019,0.12295067154999707,-0.10645946124818734, ,1.5296180248260498
0.01729382360113113,0.021547003895637268,-0.09739219573690022, ,0.018241639371511225,0.02090790970944506,-0.09815499069852023, ,0.0013742824552757534, ,0.020872956824204078,-0.007817198169911912,-0.028198542428994958,-0.03556788309224225,-0.03713649526846349,-0.008768910862505471, ,0.03594366020500125, ,0.051421549560750214, ,0.0009198168291163268, ,0.22398242155113346,-0.2096258611379501,0.10898947062000001,1.678358307650133,0.5554273715465154,-1.2742751893794468, ,0.15232253861712805,0.13975985501983915,0.02960745635687733,-0.03153111916902019,0.12295067154999707,-0.10645946124818734, ,1.5331239700317383
0.01729382360113113,0.021547003895637268,-0.09739219573690022, ,0.01832418699765509,0.020877904869903235,-0.09826136477970407, ,0.001504924270554228, ,0.020872956824204078,-0.007817198169911912,-0.028198542428994958,-0.03556788309224225,-0.03713649526846349,-0.008768910862505471, ,0.03594366020500125, ,0.051421549560750214, ,0.000923770257774691, ,0.22398242155113346,-0.2096258611379501,0.10898947062000001,1.678358307650133,0.5554273715465154,-1.2742751893794468, ,0.15232253861712805,0.13975985501983915,0.02960745635687733,-0.03153111916902019,0.12295067154999707,-0.10645946124818734, ,1.5367460250854492
0.017509782491853976,0.021463907168979522,-0.09768332725697239, ,0.018406876652237794,0.020847831055944413,-0.09836754234327062, ,0.0012854874538342632, ,0.02124323061166367,-0.007877449142038775,-0.028843280720481083,0.04203524580411861,-0.03511183617571532,0.023398382390057565, ,0.03667783928377199, ,0.054770274479492106, ,0.0009261978899630102, ,0.22556558179034947,-0.20819715555621857,0.10929539506000001,1.6773098579327104,0.5567937365441699,-1.2762061558178166, ,0.15506036202364507,0.1381323749031598,0.030398495267175574,-0.09446775286246076,0.13904514916173777,-0.2008587707299661, ,1.5402910709381104
0.017509782491853976,0.021463907168979522,-0.09768332725697239, ,0.01848970418275589,0.020817695781012596,-0.09847352534561628, ,0.0014150083736623837, ,0.02124323061166367,-0.007877449142038775,-0.028843280720481083,0.04203524580411861,-0.03511183617571532,0.023398382390057565, ,0.03667783928377199, ,0.054770274479492106, ,0.000929456626521006, ,0.22556558179034947,-0.20819715555621857,0.10929539506000001,1.6773098579327104,0.5567937365441699,-1.2762061558178166, ,0.15506036202364507,0.1381323749031598,0.030398495267175574,-0.09446775286246076,0.13904514916173777,-0.2008587707299661, ,1.5438709259033203
0.017509782491853976,0.021463907168979522,-0.09768332725697239, ,0.0185726654642652,0.02078750650825183,-0.09857931572501699, ,0.00154597328623217, ,0.021981552835997144,-0.007306171825398701,-0.029873932758955404,0.02386519847359945,-0.03580915068688967,-0.057839162943641886, ,0.037802389743382264, ,0.04303276864669398, ,0.0009335395183071727, ,0.22556558179034947,-0.20819715555621857,0.10929539506000001,1.6773098579327104,0.5567937365441699,-1.2762061558178166, ,0.15506036202364507,0.1381323749031598,0.030398495267175574,-0.09446775286246076,0.13904514916173777,-0.2008587707299661, ,1.5475759506225586
0.017715336493662602,0.021393035849457086,-0.09796302558852141, ,0.01865575639931608,0.020757270650621048,-0.09868491540168219, ,0.001345255324964605, ,0.021981552835997144,-0.007306171825398701,-0.029873932758955404,0.02386519847359945,-0.03580915068688967,-0.057839162943641886, ,0.037802389743382264, ,0.04303276864669398, ,0.000936248174929919, ,0.2270483465022006,-0.2068920137004746,0.10959094918000001,1.6768904780457412,0.5580234650420588,-1.277862346872209, ,0.1571141416530973,0.13853568110725661,0.03160478476190477,0.0,0.12119549628918627,-0.16114837690826544, ,1.551651954650879
0.017715336493662602,0.021393035849457086,-0.09796302558852141, ,0.018738972917888723,0.020726995571008863,-0.09879032627780744, ,0.0014750822390670194, ,0.021981552835997144,-0.007306171825398701,-0.029873932758955404,0.02386519847359945,-0.03580915068688967,-0.057839162943641886, ,0.037802389743382264, ,0.04303276864669398, ,0.000939769966198789, ,0.2270483465022006,-0.2068920137004746,0.10959094918000001,1.6768904780457412,0.5580234650420588,-1.277862346872209, ,0.1571141416530973,0.13853568110725661,0.03160478476190477,0.0,0.12119549628918627,-0.16114837690826544, ,1.555299997329712
0.017715336493662602,0.021393035849457086,-0.09796302558852141, ,0.01882231097732874,0.020696688582349108,-0.0988955502376301, ,0.001606204920018596, ,0.021981552835997144,-0.007306171825398701,-0.029873932758955404,0.02386519847359945,-0.03580915068688967,-0.057839162943641886, ,0.037802389743382264, ,0.04303276864669398, ,0.0009440974658989175, ,0.2270483465022006,-0.2068920137004746,0.10959094918000001,1.6768904780457412,0.5580234650420588,-1.277862346872209, ,0.1571141416530973,0.13853568110725661,0.03160478476190477,0.0,0.12119549628918627,-0.16114837690826544, ,1.5592100620269775
0.017932797952714154,0.02132160974254517,-0.09825773291432069, ,0.018905766562282038,0.020666356947734953,-0.09900058914748112, ,0.001388473810864422, ,0.02259066090879247,-0.007303617533144537,-0.030798893096497533,-0.009206425598415021,-0.04104746310091565,-0.04759984700711345, ,0.038887692208923685, ,0.04206690845344674, ,0.0009469644100599854, ,0.22860061580991972,-0.20552508998173688,0.10990335507000001,1.6771001679892257,0.5592531935399478,-1.2793551804463204, ,0.15975916087284645,0.13975985501983915,0.03264100721311476,0.0,0.11930538698606276,-0.1273593593155633, ,1.562877893447876
0.017932797952714154,0.02132160974254517,-0.09825773291432069, ,0.018989335684630522,0.020636007880534248,-0.09910544485584086, ,0.0015182020379223967, ,0.02259066090879247,-0.007303617533144537,-0.030798893096497533,-0.009206425598415021,-0.04104746310091565,-0.04759984700711345, ,0.038887692208923685, ,0.04206690845344674, ,0.00095062618972577, ,0.22860061580991972,-0.20552508998173688,0.10990335507000001,1.6771001679892257,0.5592531935399478,-1.2793551804463204, ,0.15975916087284645,0.13975985501983915,0.03264100721311476,0.0,0.11930538698606276,-0.1273593593155633, ,1.566411018371582
0.01817330169329784,0.021239484998835056,-0.09857765822109778, ,0.019073014383427317,0.020605648544504754,-0.09921011919339122, ,0.0012693456806923777, ,0.022347332351219294,-0.007730848087954139,-0.029208084768203788,-0.016150090863403552,-0.030858050793814852,-0.014606882662856303, ,0.03758033383568399, ,0.03482848655960418, ,0.0009526562501777865, ,0.23032278524087177,-0.20403460253701156,0.11024298305,1.676680788102257,0.5606195585376021,-1.280714395703706, ,0.16138935639195712,0.13853568110725661,0.031110960000000003,-0.029484563380046586,0.13761236600206198,-0.12459691734559773, ,1.5699729919433594
0.01817330169329784,0.021239484998835056,-0.09857765822109778, ,0.019156798724832023,0.020575286053908317,-0.09931461397307131, ,0.0013969718786880525, ,0.022347332351219294,-0.007730848087954139,-0.029208084768203788,-0.016150090863403552,-0.030858050793814852,-0.014606882662856303, ,0.03758033383568399, ,0.03482848655960418, ,0.0009554683744088643, ,0.23032278524087177,-0.20403460253701156,0.11024298305,1.676680788102257,0.5606195585376021,-1.280714395703706, ,0.16138935639195712,0.13853568110725661,0.031110960000000003,-0.029484563380046586,0.13761236600206198,-0.12459691734559773, ,1.5735418796539307
0.01817330169329784,0.021239484998835056,-0.09857765822109778, ,0.01924068480204605,0.020544927473626486,-0.09941893099012868, ,0.0015262557874018894, ,0.022347332351219294,-0.007730848087954139,-0.029208084768203788,-0.016150090863403552,-0.030858050793814852,-0.014606882662856303, ,0.03758033383568399, ,0.03482848655960418, ,0.0009590582323522166, ,0.23032278524087177,-0.20403460253701156,0.11024298305,1.676680788102257,0.5606195585376021,-1.280714395703706, ,0.16138935639195712,0.13853568110725661,0.031110960000000003,-0.029484563380046586,0.13761236600206198,-0.12459691734559773, ,1.5771369934082031
0.01839306571940972,0.02115559870797414,-0.09886426379969099, ,0.019324668735248112,0.020514579819275288,-0.09952307202217678, ,0.0013087466022125081, ,0.02209036371494667,-0.008538390043653855,-0.029264101207254027,-0.012616125290926095,-0.013156371643577967,0.07950987835357412, ,0.03764672486504777, ,0.018227322071429974, ,0.0009612437846638434, ,0.23192139094583625,-0.20263678788677691,0.1105476112,1.6756323383848342,0.562122560035022,-1.2821033501246477, ,0.16111535069349878,0.14100585669906504,0.031171842504892373,-0.1303317984473803,0.17558715073977965,-0.15285982501292883, ,1.5811100006103516
0.01839306571940972,0.02115559870797414,-0.09886426379969099, ,0.019408746671529312,0.020484250057319752,-0.0996270388292447, ,0.0014367124113561134, ,0.02209036371494667,-0.008538390043653855,-0.029264101207254027,-0.012616125290926095,-0.013156371643577967,0.07950987835357412, ,0.03764672486504777, ,0.018227322071429974, ,0.0009641970059476464, ,0.23192139094583625,-0.20263678788677691,0.1105476112,1.6756323383848342,0.562122560035022,-1.2821033501246477, ,0.16111535069349878,0.14100585669906504,0.031171842504892373,-0.1303317984473803,0.17558715073977965,-0.15285982501292883, ,1.584650993347168
0.01839306571940972,0.02115559870797414,-0.09886426379969099, ,0.019492914784828626,0.020453945105189462,-0.09973083315383431, ,0.0015661826810892574, ,0.022149220075292676,-0.008062167872196574,-0.028715114508816437,0.012421937149313025,0.00521954406468181,0.0006290587456384632, ,0.037150293430842064, ,0.013473256455124729, ,0.0009679129669053107, ,0.2334891057193038,-0.20128530963378763,0.11084964677,1.675212958497865,0.5638988345319728,-1.2836334616128418, ,0.161664295670308,0.13853568110725661,0.03081008030947776,-0.04849380846747141,0.17788790686905115,-0.1573032121601618, ,1.5887160301208496
