NicholasDascanio/dvrk_moveit_final/test/execution/third_experiment_notsharpbends/thirdexp_300vel4.0/thirdexp_300vel4.0_2.csv
Current Position (x),Current Position (y),Current Position (z), ,Planned Position (x),Planned Position (y),Planned Position (z), ,Position Error,,Cartesian linear Velocity(x),Cartesian linear Velocity(y),Cartesian linear Velocity(z),Cartesian Angular Velocity(x),Cartesian Angular Velocity(y),Cartesian Angular Velocity(z), ,Total Linear Velocity, ,Total Angular Velocity, ,MSE, ,Joint 1 Position,Joint 2 Position,Joint 3 Position,Joint 4 Position,Joint 5 Position,Joint 6 Position, ,Joint 1 Velocity,Joint 2 Velocity,Joint 3 Velocity,Joint 4 Velocity,Joint 5 Velocity,Joint 6 Velocity, ,Time Stamp
0.009507268221248675,0.02045579815702151,-0.07748413356175662, ,0.009618140169181518,0.02041169915313416,-0.07766842856647181, ,0.0002195494471531431, ,-0.0012921687634450546,-0.00039216455869296653,0.0016218212617772753,-0.5276544256832837,0.12672300447187382,0.19056600427497333, ,0.0021104021795550734, ,0.5426581915032203, ,1.8295787262761926e-05, ,0.17116665142431203,-0.25095020474792545,0.08796623940000001,1.68842342493739,0.43764670874870576,-1.27387876109773, ,0.0013388893041168767,0.0006926213785330569,-0.0013450647052435556,-0.00036524857227316216,0.1345396605607261,0.5587357235120964, ,0.035778045654296875
0.009470937165111734,0.02047534876907832,-0.07756900274643175, ,0.009673976754011899,0.020424998928198802,-0.07787719898914554, ,0.00037248504018314374, ,0.00042719894709202975,0.0008994575261526874,-0.004931885744703306,0.0705692280590835,0.05566842968132582,-0.00655692374105859, ,0.005031403360947812, ,0.08988320204088077, ,2.6910658515285766e-05, ,0.17116665142431203,-0.2508729774191832,0.0880699426,1.68842342493739,0.44379535123815056,-1.2677842581049523, ,0.0007288568076234592,0.005066122807987404,0.005224274030829781,0.0,0.058322028863871354,-0.07430429754871226, ,0.07122397422790527
0.009566517977966062,0.020518701832808028,-0.07783844407060839, ,0.009730387251446655,0.020437918328671173,-0.07808582923002107, ,0.00030753622620648087, ,0.0020071509075222822,0.0008943602660971674,-0.006668723500515077,0.07755679249231644,-0.06777359280079474,-0.045799635271072205, ,0.007021424939245806, ,0.10299667921654133, ,2.8111584798211493e-05, ,0.17124387875305427,-0.25061040450145955,0.08833308947000001,1.6880040450504212,0.43860316424706386,-1.2807845919341472, ,0.0037629573170720443,0.009634311935332913,0.006642540250208507,0.0,-0.06680531377453873,-0.09571865131660517, ,0.106964111328125
0.009603432314720236,0.02053777266424525,-0.07800453724799324, ,0.009787364982567569,0.020450461626530435,-0.07829431133747242, ,0.00035415175637255127, ,0.0007396386904215264,0.00044488631751622617,-0.004442827080552642,-0.05672402001103079,0.03854347199040521,0.025026564725794797, ,0.004525892364559008, ,0.06857998015132384, ,2.9850534997983784e-05, ,0.1713751652119161,-0.25031694065223903,0.08850290346,1.6880040450504212,0.4388764372465947,-1.2767601332542307, ,0.004286793757353066,0.008917895894854214,0.004626433784490271,0.0,0.04466314217849161,0.05331355510705725, ,0.14338016510009766
0.009647717228550252,0.020554032758068046,-0.07821957000581385, ,0.009844903303000413,0.020462633076682054,-0.07850263741186617, ,0.00035688010043109927, ,0.0014675441591551087,0.0006708881309738495,-0.006568800347007081,0.033232352204618364,0.006394295345762754,-0.011956902817040593, ,0.00676409008974542, ,0.033841930113256515, ,3.097312635281573e-05, ,0.17159140173239437,-0.2498304084811629,0.08872327276000001,1.6880040450504212,0.4401061657444837,-1.2774361794269362, ,0.0053766276307785745,0.01252103728176155,0.006701224871687001,0.0,0.012095543486452752,-0.04653216476719155, ,0.1799001693725586
0.009682620736005393,0.020565131653776648,-0.0783633487491907, ,0.00990299560284364,0.02047443691698455,-0.07871079960544924, ,0.0004213225779976222, ,0.0012795763291244453,0.0003823172319350265,-0.005355985478624098,-0.001068775855846918,0.0011715063988683987,-0.0024591835615228536, ,0.005519969428821347, ,0.0015857820358056442, ,3.3310248333508865e-05, ,0.17171496545838197,-0.24950605370044546,0.08886845724,1.6882137349939055,0.4401061657444837,-1.277844573127639, ,0.0050827794205103825,0.012081087404006464,0.005421651300204222,-0.0009416930338131796,0.006712157677530316,-0.010931256898935735, ,0.21277403831481934
0.00974996362371529,0.020595724102057435,-0.0786501874313534, ,0.009961635306597542,0.020485877368277526,-0.07891879012223807, ,0.0003591916087644693, ,0.0015344654285661173,0.0006708601986110231,-0.006415480296580478,0.0136437740416236,-0.0034548927429582563,-0.008396342218897603, ,0.006630461898944701, ,0.014074403827385425, ,3.415881081583586e-05, ,0.1719775383761056,-0.2489886305978724,0.08916141878000002,1.6880040450504212,0.44051607524378,-1.278587220539431, ,0.005449375093157083,0.011827367047464319,0.006528201442622951,-0.00042369620921431893,0.002110707903485461,-0.026255611186158018, ,0.24611496925354004
0.009802040763067812,0.020615501604247636,-0.07884614695683839, ,0.010020815873093293,0.02049695863440909,-0.0791266012179073, ,0.000374926095406158, ,0.00175664825375383,0.0005328110489281932,-0.006170662903058174,-0.0037034214294712473,-0.007165494651315252,-0.003912124677883968, ,0.0064379174710813645, ,0.0080659553021122, ,3.501320066474263e-05, ,0.1722014976294581,-0.24861793941990964,0.08936104744000001,1.6880040450504212,0.44051607524378,-1.278832256759853, ,0.008654620822167699,0.012748978243629755,0.006283554840236687,-0.00042369620921431893,0.0016324129727150166,-0.009171574588082116, ,0.27966904640197754
0.009852132756395402,0.020630016862678038,-0.07903952187607334, ,0.010080530795421679,0.020507684902263332,-0.07933422519967828, ,0.0003924039012468565, ,0.0017420566426054201,0.0006708735915107165,-0.006680538191639143,-0.013982473541481546,-0.0021576845791168005,0.005247694252181125, ,0.006936456101769934, ,0.014147973557188026, ,3.589144038365369e-05, ,0.1724486250814333,-0.24820091184470153,0.08955808352000001,1.6877943551069365,0.44092598474307637,-1.2794932254315043, ,0.007949638007706712,0.01239996623003669,0.006827608881268754,-0.005280245407447596,0.00736744964343851,0.0014859207380987982, ,0.3127450942993164
0.009904778830606826,0.020639920886088264,-0.07921538079968553, ,0.010140773600862222,0.020518060341788106,-0.07954165442620713, ,0.000420711306252381, ,0.0018272565078452105,0.0002918325697355413,-0.005977891083153935,-0.009803212541182318,0.002125102583289383,0.0010124863189110657, ,0.0062577323685399375, ,0.010030903722163389, ,3.6898536701174285e-05, ,0.17274981166352807,-0.24778388426949338,0.08973697154000002,1.687584665163452,0.4411992577426072,-1.2798794187191784, ,0.011136224839672552,0.015015338854188414,0.0060913237170172095,-0.0011991826573718469,0.014066768686311924,-0.0043347760113501945, ,0.34520602226257324
0.009964238266019719,0.02065262003656894,-0.0794152374420354, ,0.010201537850812105,0.020528089106022204,-0.0797488813074746, ,0.0004279454107134299, ,0.0022220600264565037,0.000709087437474255,-0.007893886820877313,-0.005318622938085947,-0.009500388163248167,0.0020273151868598262, ,0.008231269944302655, ,0.010887841593182101, ,3.7802862931389954e-05, ,0.17308188917711972,-0.24732824302991416,0.08994048907,1.6873749752199676,0.4414725307421381,-1.2803472907469928, ,0.010735022526547051,0.015432906417054932,0.008048919413845378,-0.007365610917427713,0.0031235500390151103,-0.011335993659968482, ,0.3812751770019531
0.010042740677025213,0.02066527119798591,-0.07966572972037883, ,0.010262817140714982,0.020537775331123442,-0.07995589830467346, ,0.00038585833313375316, ,0.0015980460577584767,-2.681440350280844e-05,-0.00470005705154397,0.007026663203287511,-0.0024310922745938027,0.00035689092627701197, ,0.004964373727140294, ,0.007435334768955268, ,3.853475266544815e-05, ,0.1735220849509505,-0.24671042439997617,0.09019456191000001,1.6873749752199676,0.4416091672419035,-1.2807854236112515, ,0.010578446849179407,0.01445718183401444,0.004743541250744492,-0.006818617190683324,0.010131802066207595,-0.022564627625094202, ,0.41086316108703613
0.010095621587077592,0.020668756072442954,-0.07984566984255219, ,0.01032460509999006,0.020547123136395548,-0.08016269793009827, ,0.00040955442692073397, ,0.001981111556893296,0.0007070638242370956,-0.007917783154629598,0.010979591347068109,0.019238623736876587,0.0003423252029574463, ,0.008192437508833205, ,0.022151208506970218, ,3.9364887137555926e-05, ,0.17384643973166794,-0.24622389222890004,0.09036956106,1.687165285276483,0.44229234974073073,-1.2815058706100149, ,0.010227330569855935,0.01582143073665735,0.007988370872617855,-0.00223136681009685,0.03129342797867401,-0.0256464902033287, ,0.44006800651550293
0.010159176736163145,0.020685623712444055,-0.08007849970358337, ,0.010386895391960888,0.020556136624316285,-0.08036927274703308, ,0.00039137150507816316, ,0.0020021450933126453,0.0005667015223286058,-0.007820685165933558,-0.0037165392106315726,0.004043068498424649,0.004885665780285616, ,0.008092765414537769, ,0.005491724440510908, ,3.995298258353836e-05, ,0.17413218084801424,-0.24571419185920124,0.09061326358,1.6869555953329984,0.44229234974073073,-1.2815875493501552, ,0.009291891627468178,0.01663399501463116,0.007964405760000001,-0.007766112562157554,0.01576715218205649,-0.01335966089496077, ,0.4738030433654785
0.01021219206625976,0.020689836240663617,-0.08026589708345196, ,0.010449681713784348,0.020564819880564713,-0.08057561536964017, ,0.00040982415713705254, ,0.001706481339490495,-4.805130628003355e-05,-0.005795158778340935,-0.009577839885383976,-0.00440568134769823,0.0036074634946383823, ,0.006041378382144798, ,0.010542534727061025, ,4.0606607920268396e-05, ,0.17441792196436054,-0.2451967687566282,0.09080252192,1.6869555953329984,0.44270225924002704,-1.2823301967619474, ,0.009079793633253199,0.017642115924608806,0.00579651074235808,-0.007766112562157554,0.0067851600003021074,-0.008968422389949281, ,0.5028131008148193
0.010268613650539785,0.02069683513151528,-0.0804660793751249, ,0.010512957796379455,0.02057317697404872,-0.08078171846284951, ,0.000417879689879478, ,0.0019749559180302777,0.00024505734253819477,-0.00663443096005575,0.0033078050041045392,-0.00021284422206034405,-0.001838821731322219, ,0.006926483822477388, ,0.0033146438352608097, ,4.124377796490764e-05, ,0.17470366308070687,-0.24468706838692936,0.09100474316000001,1.6867459053895137,0.44297553223955793,-1.282798068789762, ,0.011015315328899685,0.01691266112252197,0.0067295359188846654,-0.0038789540273381036,0.012132725887049578,-0.020555538487614558, ,0.5323140621185303
0.0103135959747939,0.020703318007532858,-0.08061528482268662, ,0.010576717404356404,0.02058121195693287,-0.08098757474224637, ,0.00047195609805780097, ,0.0023835154512519352,0.0005528364401528176,-0.007848130654515477,-0.0016981606741565665,-0.006539364709710887,-0.0015665796338892057, ,0.008220701235677105, ,0.006756257152320328, ,4.2441488110681806e-05, ,0.17495851326555625,-0.24432409994184082,0.09115640909000002,1.6865362154460295,0.44324880523908883,-1.2831842620774359, ,0.012862514402467043,0.01686756870929093,0.008008452247360484,-0.003977685702372827,0.007517944946723836,-0.01566268471004119, ,0.5573480129241943
0.01038492412319898,0.020719816460674507,-0.08085820209743137, ,0.010640954335945193,0.020588928864665457,-0.08119317697396049, ,0.0004414648349909593, ,0.0023924409601429764,0.0004301897594522719,-0.008157753265927924,0.001965790133422645,0.0005319998677036221,-0.0016232875931418385, ,0.008512213303522483, ,0.002036496643541891, ,4.334382822453297e-05, ,0.17532920444351904,-0.24379123137351932,0.09140400048000001,1.6865362154460295,0.44352207823861967,-1.2837338128453908, ,0.012976472249209734,0.01914788974141864,0.008304906944734099,-0.003977685702372827,0.014957899650318063,-0.02125827678593199, ,0.5827000141143799
0.01041975232500392,0.020729378589932564,-0.08098093534556595, ,0.010705662422924818,0.020596331716006437,-0.08139851797455494, ,0.0005232793773769464, ,0.002472334752953564,0.0005784941953127208,-0.008250565673435843,0.005467880520084484,-0.0012988847683206883,-0.0023208445469074805, ,0.008632434685321998, ,0.005620033878192676, ,4.46604304988157e-05, ,0.17551455003250044,-0.2435363811886699,0.09152974061000001,1.6865362154460295,0.44379535123815056,-1.2841200061330649, ,0.013574158426329678,0.01766510453433931,0.008436870508474578,-0.003977685702372827,0.013672205549702691,-0.023481341758031286, ,0.6084671020507812
0.01050972965108482,0.020746586146642237,-0.0812732222355491, ,0.010770835530551864,0.020603424513054584,-0.08160359061091418, ,0.0004447637542168976, ,0.002340772100685236,0.00034671632951332717,-0.007456971389605329,-0.001794677905518206,-0.0010864514787888731,0.0003499048846078915, ,0.007823416679807486, ,0.0020979090883088544, ,4.541986004321333e-05, ,0.17601652766932502,-0.24288767162723504,0.09182788731000001,1.6861168355590603,0.44420526073744687,-1.284862653544857, ,0.01363461804001017,0.01788820764532908,0.007603251322195704,-0.004596294033506755,0.014118369288147749,-0.01623044186308733, ,0.6336331367492676
0.010560288184418221,0.020755158689688268,-0.08142914764640267, ,0.010836467557489505,0.020610211241275652,-0.08180838780013275, ,0.0004910273954807253, ,0.0028375796984235887,0.0006667260846756107,-0.008782805558560796,0.009629716796228168,-0.000672479869855767,-0.0019681014591661395, ,0.009253867067144362, ,0.009653166448958028, ,4.637614940883892e-05, ,0.1763177142514198,-0.2425247031821465,0.09198733098,1.6861168355590603,0.44447853373697777,-1.2851671680923904, ,0.01710471188869336,0.018110103350853203,0.009035060419739083,-0.004596294033506755,0.01811515476707385,-0.02805503222017987, ,0.6591520309448242
0.01064631081754263,0.020771450861083764,-0.08169244015500711, ,0.010902552435736389,0.020616695869529123,-0.08201290250940459, ,0.0004385259341151984, ,0.0024767793138749995,0.000242981200769221,-0.007970095571690053,-0.002360248299731044,-0.00017249164881459847,0.0008320483376095583, ,0.008349604724502815, ,0.0023665361280097016, ,4.6981962644228954e-05, ,0.1768274146211186,-0.24194549821657965,0.09225695930000001,1.6859071456155759,0.44488844323627413,-1.2855831005436202, ,0.01419975184175831,0.020359781497204632,0.008098023141840367,-0.005686952887490503,0.015910732429295218,-0.018239651792998485, ,0.6854960918426514
0.01069762118057567,0.020773866935860752,-0.08184438147475842, ,0.0109690841305553,0.020622882350096416,-0.0822171277559109, ,0.000485209509864633, ,0.0023860725075332437,2.8606266413675466e-05,-0.006889488066437045,0.012382702681239512,0.006784238250505819,0.0004807223723302587, ,0.0072910360133017155, ,0.01411939087956928, ,4.8029992200926174e-05, ,0.1771440466689618,-0.24153619337424576,0.09241121781000002,1.6856974556720912,0.44516171623580497,-1.286214330051716, ,0.016327760075442323,0.019729093879099956,0.007029484342453663,-0.00677494781568251,0.02555609176086406,-0.032425873951812234, ,0.7071139812469482
0.010782334441567681,0.020785100990271883,-0.08209639804372874, ,0.011036056640402293,0.020628774618707907,-0.08242105660670969, ,0.0004406995247838154, ,0.002815585463473014,0.0005387021332732579,-0.008895305935553946,0.00937381291528722,-0.00218344898218857,-0.001149578974973974, ,0.009345811317248758, ,0.00962474739071806, ,4.8792590058817457e-05, ,0.17765374703866063,-0.24094154294293046,0.09266269807000001,1.6856974556720912,0.44570826223486676,-1.2869867166270637, ,0.016255043089837405,0.019712700780737596,0.009055606321773737,-0.00677494781568251,0.016044938507484466,-0.029708726279776828, ,0.73238205909729
0.010841841619808057,0.0207941191197968,-0.08227833872306493, ,0.011103463996855299,0.02063437659457082,-0.08262468217862258, ,0.00046251241253077066, ,0.0029358785620854635,0.00043233091584307074,-0.009227633390553274,0.013874781773261938,0.005782016695663945,-0.0007505249976451393, ,0.009693065095343187, ,0.015031341238247627, ,4.9616652545117775e-05, ,0.17800127001800073,-0.24050134716909968,0.09285454899000001,1.6856974556720912,0.4458448987346322,-1.2872614920110412, ,0.017737746085695474,0.021631397665482284,0.009453300605341247,-0.00677494781568251,0.025966438621522016,-0.03589989541025643, ,0.7537710666656494
0.010902739669722949,0.02080074781648298,-0.08246016333391251, ,0.01117130026454296,0.020639692180396373,-0.08282799763812627, ,0.00048307948244751946, ,0.003075938269872791,0.0002789642992148316,-0.008705704680502201,0.0009228957129555325,-0.013449221503573465,-0.0035090518847518417, ,0.009237343303375835, ,0.013480847359994037, ,5.049108446576312e-05, ,0.17836423846308927,-0.2400688741281431,0.09303991846000001,1.6852780757851225,0.44611817173416307,-1.2878110427789966, ,0.018516476401652836,0.021755374039080875,0.00886411325542571,-0.005532445510700647,0.006553075234986013,-0.023757947139989646, ,0.7759091854095459
0.010960506934770518,0.02080782094548083,-0.0826425939410911, ,0.01123955954107367,0.02064472526242783,-0.08303099620123865, ,0.000505298797349483, ,0.002699551701848981,0.00031020444675618675,-0.008927881898024778,0.037082460353645284,0.017209475301927363,-0.006083469789866239, ,0.009332249534534615, ,0.04088122856919229, ,5.141930598207002e-05, ,0.17871176144242937,-0.2396209556214381,0.09322658422,1.6852780757851225,0.4466647177332248,-1.2885834293543443, ,0.016401130583904387,0.022074189708878988,0.009143979058553388,-0.005532445510700647,0.03603727255267848,-0.059563113203715407, ,0.7973670959472656
0.011011059616992724,0.020813536083216025,-0.08279196141985465, ,0.011308235956964181,0.020649479710467426,-0.08323367113340871, ,0.000557077859483097, ,0.0030597432953132215,0.0004443198459367925,-0.00984453396108531,0.009055412410966445,-0.005088355510143214,-0.004649653529576294, ,0.010318638382542026, ,0.010387095997709053, ,5.276451373800162e-05, ,0.17898977982590147,-0.23925798717634952,0.09337825015000001,1.6852780757851225,0.4466647177332248,-1.2887467868346254, ,0.01637848490826213,0.02289431641941394,0.010024425122718693,-0.005532445510700647,0.01297852905749478,-0.032918501977208095, ,0.8156490325927734
0.011090712838920408,0.020831344698704294,-0.08305706145871002, ,0.011377323675568513,0.020653959377904298,-0.08343601574940522, ,0.0005071663219849578, ,0.003152043208557033,0.0010940039584828797,-0.011682267975151584,0.028182366249836045,0.04286637285255447,0.005463904273532117, ,0.01214938706655768, ,0.05130079406194095, ,5.383181090157596e-05, ,0.17942997559973226,-0.2387096731422796,0.09365047105,1.6850683858416375,0.447347900232052,-1.2898756275340917, ,0.018505643829654986,0.02095317764594188,0.01215012320366133,-0.006228104547776108,0.06498635750403088,-0.04716686864583108, ,0.8335180282592773
0.011137522948159284,0.020842993668792442,-0.08323331236793638, ,0.01144681689300672,0.020658168101741658,-0.08363802341320495, ,0.0005418618502139726, ,0.003694177439005928,0.000823581932092271,-0.012659017093543352,-0.00308771300022335,0.008215582502224036,0.0018486230200612228, ,0.013212719172235213, ,0.00877664185980902, ,5.5002209166408985e-05, ,0.17968482578458167,-0.23834670469719105,0.09383195165000001,1.6848586958981533,0.44816771923064463,-1.2907074924365511, ,0.019284076723932286,0.026426327362425724,0.012971344885993488,-0.005647789777622336,0.02980420457093434,-0.022701390399152442, ,0.8521711826324463
0.011174604822525485,0.02085039138788328,-0.08335033614279452, ,0.011516709838093846,0.020662109702624845,-0.08383968753788108, ,0.0006260595998416983, ,0.0033229489834118386,0.0004576099102168161,-0.010444724555925851,-0.009447384809382417,-0.002355199364758635,0.0015036408092716554, ,0.010970126153579406, ,0.009736525020783912, ,5.6477203090819296e-05, ,0.17987017137356306,-0.23809957724521585,0.09395121033,1.6848586958981533,0.44816771923064463,-1.2907074924365511, ,0.01845167053441003,0.024226944487738267,0.010661855100401608,-0.005647789777622336,0.018013518210232764,-0.014687243100942042, ,0.8703420162200928
0.011263537538067647,0.020850566169183852,-0.08359256644541428, ,0.011586996772268552,0.020665787984868095,-0.08404100158549321, ,0.0005829776397482796, ,0.0035530721688871885,-3.08767934816596e-05,-0.009850979771354948,-0.01090935491923058,-0.00916533529854657,-0.0007795554599209517, ,0.010472205005123839, ,0.014248414056334483, ,5.771420565993115e-05, ,0.18043393087338144,-0.23741225401940988,0.09419750543000001,1.6848586958981533,0.448577628729941,-1.2909600674075, ,0.021941489377681103,0.02800145811698754,0.009992980878293603,-0.005647789777622336,0.014564923328491982,-0.017282629665777698, ,0.8887381553649902
0.011328630222001037,0.020851760932548216,-0.08379393354638415, ,0.011657671989522056,0.02066920673648265,-0.0842419590669746, ,0.0005850823757171679, ,0.003546611002333658,0.00025768436957820256,-0.01117196240261781,-0.0006226486172081517,0.006179713737867751,-0.0010582953958026184, ,0.011724231094690387, ,0.006210988580186152, ,5.890981593177596e-05, ,0.18085868118146378,-0.23687166271821417,0.09440361554000001,1.6844393160111841,0.4495340842282991,-1.2917399927333748, ,0.020281457909482964,0.028361309491473634,0.011385855268048606,-0.004702498210922899,0.02846483153063716,-0.02718981832037873, ,0.9065561294555664
0.011369245407999646,0.02085579044603936,-0.08391798280234009, ,0.01172872981632682,0.020672369729203922,-0.08444255354202124, ,0.0006618509349728194, ,0.003989554995182656,0.0005135240518421953,-0.013002625007780738,-0.012447253951068915,-0.004642402539055393,-0.0015541022186727608, ,0.013610602966230862, ,0.01328479057377319, ,6.060113208751293e-05, ,0.18106719496906784,-0.2365704761361194,0.09452935567000001,1.6844393160111841,0.4495340842282991,-1.2917399927333748, ,0.020412334170460483,0.030367021298710647,0.013229909900332229,-0.004702498210922899,0.017421205279683986,-0.017732584541789668, ,0.9214999675750732
0.011457080913967056,0.020871286283298488,-0.08418952089927761, ,0.011800164611565484,0.020675280718519075,-0.08464277861898112, ,0.0006013045529955068, ,0.004684552358882485,0.0007808026411002859,-0.014253037185234838,-0.015302309080328333,-0.014437779836799199,-0.0023273545550364827, ,0.015023440104421745, ,0.021038287990933, ,6.200308530878424e-05, ,0.18156144987301823,-0.23598354843767835,0.09480805802000002,1.6844393160111841,0.45008063022736083,-1.2925123793087228, ,0.02515825598050657,0.030730874857017743,0.014573478060384264,-0.004702498210922899,0.012196671492589189,-0.015511604046893288, ,0.9373221397399902
0.01150160795760304,0.0208787551598294,-0.08433247045654071, ,0.011871970766459605,0.020677943443694762,-0.08484262795474219, ,0.0006616302808156923, ,0.004659916855738363,0.0007703843710905423,-0.014440911143078992,0.030561816132018364,0.028762584118712062,0.0005439638693899521, ,0.015193690526791643, ,0.04196796662281844, ,6.359392353794023e-05, ,0.1818394682564903,-0.23567463912270936,0.09495583508000001,1.6842296260676997,0.45076381272618804,-1.2933961837877672, ,0.02914525232139766,0.03154818535853417,0.014928595613870667,-0.008276251772336091,0.06177139049165992,-0.061177044306550785, ,0.9514901638031006
0.011579307648009983,0.02088944316733296,-0.08455419068730562, ,0.0119441427044984,0.020680361627804192,-0.08504209525462145, ,0.0006441044755490171, ,0.00465857900058956,0.000600091553725614,-0.013950294501892916,-0.011830397914694228,-0.00759214686383545,0.002955474916269029, ,0.014719822854475205, ,0.014056972664052744, ,6.507016892202074e-05, ,0.18227966403032111,-0.23518810695163322,0.09518268583000002,1.684019936124215,0.45090044922595346,-1.293752637911885, ,0.026171246982479534,0.03154818535853417,0.014273128602150539,-0.00936731341074458,0.02143186482161776,-0.02015907509777937, ,0.9666900634765625
0.011653415641612402,0.020896678816410958,-0.08476458688712087, ,0.012016674881367586,0.020682538977754635,-0.08524117427225353, ,0.0006363557821178803, ,0.004890897592125776,0.0005572849022703703,-0.014072835320630096,-0.01904392204515723,-0.02232149988794851,0.00092260628162822, ,0.014908928186846101, ,0.029341434391474023, ,6.647343424451998e-05, ,0.18271213707127767,-0.23468612931480862,0.09539786997000001,1.684019936124215,0.45117372222548435,-1.2939754737192781, ,0.02708246049043116,0.03213577431712522,0.014363220486925161,-0.00936731341074458,0.00714382711616137,-0.014280617759168704, ,0.981112003326416
0.01169738194148021,0.02090172945953677,-0.08489653150367096, ,0.012089561784878232,0.020684479184315478,-0.08543985880947928, ,0.0007044198129584033, ,0.004381759105105029,0.0004626754721192737,-0.013079932726713104,0.028968199424722316,0.030581940141883028,0.003762537618768899, ,0.013802120184341684, ,0.042123761203187546, ,6.833690107191793e-05, ,0.18299015545474975,-0.23438494273271387,0.09553398042000001,1.6838102461807307,0.45172026822454614,-1.2945028240742045, ,0.02862652837359601,0.030790701349276698,0.01352191130730051,-0.010494543278071863,0.06362130475871282,-0.05904641555306693, ,0.9916729927062988
0.011790416858765161,0.020904273481019506,-0.08516016708741653, ,0.012162797934895475,0.020686185922145245,-0.08563814271623488, ,0.0006439647124959583, ,0.004864204768687882,0.00035233910080708524,-0.014052031535545198,0.006005350036850373,0.009957397502036464,0.0024960022783850357, ,0.014874280525445264, ,0.011628131672193906, ,6.993892300359751e-05, ,0.1836002513518135,-0.23368217404115943,0.09580490503000001,1.6838102461807307,0.45281336022266966,-1.2954758460439162, ,0.029983235879453642,0.03435805270038768,0.014428271304347828,-0.009606806793730749,0.04351146369179129,-0.04008039163158226, ,1.002918004989624
0.011843144507968844,0.02090994234995357,-0.08531003122769072, ,0.012236377883267336,0.020687662849818916,-0.08583601989043993, ,0.0006933287365813249, ,0.005757928416533507,0.0006572532777293165,-0.015824113631026863,-0.008961341627469045,-0.009372301908471775,-0.0031110960004351296, ,0.016851952223070777, ,0.012967061912126146, ,7.168445357244418e-05, ,0.18392460613253092,-0.23334237379469355,0.09595916354,1.6836005562372458,0.45322326972196597,-1.2958100997550055, ,0.03474805622792778,0.03589143024147911,0.016270491848825334,-0.004245857056032587,0.027189283648030037,-0.026252034090962977, ,1.013545036315918
0.011901740079720845,0.020918297732542182,-0.08547992184185546, ,0.012310296213753466,0.020688913609855857,-0.08603348427788662, ,0.0007252355210419658, ,0.006444765856133182,0.0013041374565882387,-0.019250074607749794,-0.0005385469350941377,0.003876477051735758,0.00855387452158861, ,0.02034210298494209, ,0.003913369869920952, ,7.350653271646073e-05, ,0.18427212911187102,-0.232979405349605,0.09613416269000001,1.6833908662937616,0.45363317922126234,-1.296307710946376, ,0.036968033330140544,0.03743469095008709,0.01988615670411985,-0.015201252443935645,0.045763826940144844,-0.03731733227614795, ,1.024156093597412
0.011972646409803639,0.020935137729260863,-0.08569928929474303, ,0.012384547541953976,0.02068994182874688,-0.0862305298721282, ,0.0007155418389976373, ,0.006919712261394984,0.001751196741359656,-0.021833493165563177,0.011558751933652859,0.015516549249369169,0.00672968447258479, ,0.022970644997869404, ,0.01934846467645686, ,7.52557279138044e-05, ,0.18466598848845647,-0.23257782324014534,0.09636101344,1.683181176350277,0.45417972522032407,-1.2968350613013022, ,0.03788301060218394,0.03932736906691702,0.022594058893617024,-0.014352865238353486,0.05848631388827952,-0.050804593589935096, ,1.0351810455322266
0.0120386391179223,0.02095149026606829,-0.08590597509897929, ,0.012459126515238329,0.020690751116982396,-0.08642715071436813, ,0.0007186226946343777, ,0.006406089735954891,0.001580038388083044,-0.019726000611483722,0.008160939860885478,0.007044293529241056,0.012920518759015181, ,0.020800230939515524, ,0.010780539133748143, ,7.697899893091266e-05, ,0.18502895693354504,-0.23220713206218255,0.09657490129000001,1.6829714864067924,0.4547262712193858,-1.2973624116562283, ,0.03546223526101299,0.035056129131315394,0.020421553230769232,-0.020794005301910695,0.04875480416600954,-0.044802969428924956, ,1.0468130111694336
0.012105508917930344,0.020962400168445687,-0.08609954928959146, ,0.01253402781267392,0.02069134506907883,-0.08662334089334806, ,0.0007290109424493843, ,0.007027518194997645,0.0008844330315244996,-0.01914492642042342,0.0034963077975768346,-8.035104055623897e-05,-0.040692466580854, ,0.020413143839489823, ,0.003496863240057088, ,7.89757105440639e-05, ,0.18541509357725625,-0.2318132726855971,0.09677452995000001,1.682761796463308,0.45513618071868217,-1.2979417015877395, ,0.04206424714471222,0.04343109453476923,0.019738304237918218,0.03177700467858228,0.03572505096738916,-0.039631092210737295, ,1.0539650917053223
0.012105508917930344,0.020962400168445687,-0.08609954928959146, ,0.012609246144954917,0.020691727263606994,-0.08681909454523702, ,0.0009191084757667402, ,0.007027518194997645,0.0008844330315244996,-0.01914492642042342,0.0034963077975768346,-8.035104055623897e-05,-0.040692466580854, ,0.020413143839489823, ,0.003496863240057088, ,8.160039004295567e-05, ,0.18541509357725625,-0.2318132726855971,0.09677452995000001,1.682761796463308,0.45513618071868217,-1.2979417015877395, ,0.04206424714471222,0.04343109453476923,0.019738304237918218,0.03177700467858228,0.03572505096738916,-0.039631092210737295, ,1.0610220432281494
0.012178316507559224,0.02097131968517676,-0.08630701572343497, ,0.012684776254331263,0.020691901263219323,-0.0870144058535203, ,0.0009137707183816561, ,0.007288622095562763,0.0007370252253586003,-0.020895455398522,0.018069325018497163,0.011910745703800334,0.006044400471769205, ,0.02214243154096593, ,0.021641681690576113, ,8.417083503711919e-05, ,0.18584756661821283,-0.2313421859802694,0.0969884178,1.6829714864067924,0.4556827267177439,-1.2985507306828061, ,0.043791851203724405,0.047353763252729934,0.021525420972972976,-0.019006389811365928,0.061884220091787956,-0.0664577627489361, ,1.0715031623840332
0.012249583910682713,0.02098275664938921,-0.08650814850273005, ,0.01276061291453706,0.020691870614676814,-0.08720926904888775, ,0.0009150602975845593, ,0.007807618407401173,0.0015831249956921813,-0.022146683399843416,0.049158034049744614,0.029376429543307943,0.002113368577715555, ,0.023535946455591605, ,0.05726675821629073, ,8.671069431436517e-05, ,0.18628776239204362,-0.23092515840506128,0.09719712049000001,1.6829714864067924,0.4563659092165711,-1.2992711776815695, ,0.04881529915559196,0.04169461404150737,0.02308523408695653,-0.015265000295484749,0.08415785298339683,-0.090774793255936, ,1.0788540840148926
0.012340095767653141,0.02099850554817157,-0.08676329827766327, ,0.012836750930719855,0.02069163884887756,-0.0874036784091231, ,0.0008665565387814735, ,0.00824603465423162,0.0011534538438928736,-0.02343941501940389,0.013877873578881797,0.001053627362902058,-0.014380062262463177, ,0.02487435867998684, ,0.0139175583552122, ,8.905236711893525e-05, ,0.18682835369323933,-0.2304231807682367,0.09746156365000001,1.682761796463308,0.45704909171539826,-1.2999916246803327, ,0.04744847077923539,0.049867021312911604,0.024171185918057666,0.0,0.049929360004767546,-0.06196151077073726, ,1.0864481925964355
0.012427263172491683,0.02100801954130795,-0.08701333631593104, ,0.01291318513936887,0.020691209480882985,-0.08759762825899163, ,0.000823338233659643, ,0.008990137742026264,0.0011465173461984606,-0.025752727058097613,-0.021259694410746235,-0.029760071647310597,0.00964574174827965, ,0.027300916277198682, ,0.03657355798742367, ,9.121758020424322e-05, ,0.18727627219994436,-0.2299212031314121,0.09770008101000001,1.6825521065198237,0.4574590012146946,-1.3003258783914218, ,0.04841680691758713,0.054475856233335694,0.02641593950248757,-0.01745017284730385,0.0250240135270025,-0.03948878910147833, ,1.0935611724853516
0.012427263172491683,0.02100801954130795,-0.08701333631593104, ,0.012989910408244312,0.02069058600994635,-0.08779111297013034, ,0.0010110749144105133, ,0.008990137742026264,0.0011465173461984606,-0.025752727058097613,-0.021259694410746235,-0.029760071647310597,0.00964574174827965, ,0.027300916277198682, ,0.03657355798742367, ,9.39797127175833e-05, ,0.18727627219994436,-0.2299212031314121,0.09770008101000001,1.6825521065198237,0.4574590012146946,-1.3003258783914218, ,0.04841680691758713,0.054475856233335694,0.02641593950248757,-0.01745017284730385,0.0250240135270025,-0.03948878910147833, ,1.1006231307983398
0.012511700027727734,0.02101972236469268,-0.08726400410275983, ,0.013066921636305701,0.02068977191953936,-0.0879841269609354, ,0.0009673237626336489, ,0.00918391779253171,0.0012781284613528122,-0.027584822623560053,0.025246700090883284,0.02001625320313072,0.009428019810105954, ,0.029101553181178682, ,0.0322184774015927, ,9.656038933082331e-05, ,0.18777824983676894,-0.22935744363159372,0.09797619078000001,1.6821327266328545,0.45800554721375636,-1.3010165862266292, ,0.05143465667125787,0.05775833326748069,0.02844430628571429,-0.02562756334818607,0.07954546599970476,-0.0846808861469748, ,1.110809087753296
0.012605808080028416,0.021030824857441073,-0.08754356457196955, ,0.013144213753641117,0.020688770677380453,-0.08817666469645208, ,0.0008987199224981541, ,0.009080820030347088,0.0006634799428472183,-0.025794156156718883,0.04984479328312705,0.03408553503614463,0.006090749192016534, ,0.027353975760304242, ,0.06038473066679912, ,9.920778052939536e-05, ,0.18833428660371312,-0.22873962500165576,0.09826526345000001,1.6821327266328545,0.45909863921187993,-1.3021529656766224, ,0.055430456517798356,0.05968361104306338,0.026636808561872914,-0.02562756334818607,0.09808783217575223,-0.11099870625483907, ,1.1144440174102783
0.012605808080028416,0.021030824857441073,-0.08754356457196955, ,0.013221781721395556,0.02068758573546148,-0.08836872068826208, ,0.0010854120130030813, ,0.009080820030347088,0.0006634799428472183,-0.025794156156718883,0.04984479328312705,0.03408553503614463,0.006090749192016534, ,0.027353975760304242, ,0.06038473066679912, ,0.00010245187339937459, ,0.18833428660371312,-0.22873962500165576,0.09826526345000001,1.6821327266328545,0.45909863921187993,-1.3021529656766224, ,0.055430456517798356,0.05968361104306338,0.026636808561872914,-0.02562756334818607,0.09808783217575223,-0.11099870625483907, ,1.118143081665039
0.012605808080028416,0.021030824857441073,-0.08754356457196955, ,0.013299620531699904,0.020686220530075558,-0.08856028949437361, ,0.001278224326310134, ,0.009080820030347088,0.0006634799428472183,-0.025794156156718883,0.04984479328312705,0.03408553503614463,0.006090749192016534, ,0.027353975760304242, ,0.06038473066679912, ,0.0005789927471378573, ,0.18833428660371312,-0.22873962500165576,0.09826526345000001,1.6821327266328545,0.45909863921187993,-1.3021529656766224, ,0.055430456517798356,0.05968361104306338,0.026636808561872914,-0.02562756334818607,0.09808783217575223,-0.11099870625483907, ,1.1217319965362549
0.012698270852219595,0.02103835923116663,-0.08780097597805347, ,0.013377725207599861,0.020684678481844708,-0.08875136571910944, ,0.0012206510366974458, ,0.010911909418588026,0.0007966776909603707,-0.02903319797786513,0.014541938396964,-0.005512053432090519,0.005262447346217877, ,0.03102629606196421, ,0.015550886680820532, ,0.0005902499101125869, ,0.18889032337065728,-0.22814497457034047,0.09853100290000001,1.6821327266328545,0.45991845821047256,-1.3030665093192226, ,0.06576364626366651,0.06626881393747959,0.029941375037593993,-0.02562756334818607,0.06793461044047444,-0.0830867469479376, ,1.1253759860992432
0.012698270852219595,0.02103835923116663,-0.08780097597805347, ,0.013456090802984431,0.020682962995746595,-0.08894194401299586, ,0.001415063821418754, ,0.010911909418588026,0.0007966776909603707,-0.02903319797786513,0.014541938396964,-0.005512053432090519,0.005262447346217877, ,0.03102629606196421, ,0.015550886680820532, ,0.0006044708396178656, ,0.18889032337065728,-0.22814497457034047,0.09853100290000001,1.6821327266328545,0.45991845821047256,-1.3030665093192226, ,0.06576364626366651,0.06626881393747959,0.029941375037593993,-0.02562756334818607,0.06793461044047444,-0.0830867469479376, ,1.128965139389038
0.012698270852219595,0.02103835923116663,-0.08780097597805347, ,0.01353471240251497,0.02068107746114291,-0.08913201907265161, ,0.0016121291666393246, ,0.010911909418588026,0.0007966776909603707,-0.02903319797786513,0.014541938396964,-0.005512053432090519,0.005262447346217877, ,0.03102629606196421, ,0.015550886680820532, ,0.0006215497943131447, ,0.18889032337065728,-0.22814497457034047,0.09853100290000001,1.6821327266328545,0.45991845821047256,-1.3030665093192226, ,0.06576364626366651,0.06626881393747959,0.029941375037593993,-0.02562756334818607,0.06793461044047444,-0.0830867469479376, ,1.1325371265411377
0.01282012378856734,0.02105081488871681,-0.08813758295837458, ,0.013613585121553907,0.0206790252518061,-0.08932158564067597, ,0.0014729802350187504, ,0.013402484178029361,0.0020740237366296283,-0.03856035775141666,0.053140082595265335,0.024290819719501096,-0.010745120499779062, ,0.0408757794606986, ,0.05842796461233484, ,0.0006357403016582381, ,0.18960081479508595,-0.22741131494728914,0.09887840862000001,1.6819230366893698,0.46073827720906524,-1.3039800529618226, ,0.0760392159923644,0.0771519850068868,0.03992183338345865,-0.015020583688261738,0.10665418187167594,-0.12973119202876945, ,1.1361231803894043
0.01282012378856734,0.02105081488871681,-0.08813758295837458, ,0.013692704106093316,0.02067680972594695,-0.08951063850553838, ,0.0016692985975880776, ,0.013402484178029361,0.0020740237366296283,-0.03856035775141666,0.053140082595265335,0.024290819719501096,-0.010745120499779062, ,0.0408757794606986, ,0.05842796461233484, ,0.0006526838802800388, ,0.18960081479508595,-0.22741131494728914,0.09887840862000001,1.6819230366893698,0.46073827720906524,-1.3039800529618226, ,0.0760392159923644,0.0771519850068868,0.03992183338345865,-0.015020583688261738,0.10665418187167594,-0.12973119202876945, ,1.1397640705108643
0.01282012378856734,0.02105081488871681,-0.08813758295837458, ,0.013772064532684113,0.020674434226242388,-0.08969917250146692, ,0.0018671945491805654, ,0.013402484178029361,0.0020740237366296283,-0.03856035775141666,0.053140082595265335,0.024290819719501096,-0.010745120499779062, ,0.0408757794606986, ,0.05842796461233484, ,0.0006722727620364988, ,0.18960081479508595,-0.22741131494728914,0.09887840862000001,1.6819230366893698,0.46073827720906524,-1.3039800529618226, ,0.0760392159923644,0.0771519850068868,0.03992183338345865,-0.015020583688261738,0.10665418187167594,-0.12973119202876945, ,1.143589973449707
0.012908517053351894,0.02106937523199639,-0.08840571888585924, ,0.013851661608364482,0.02067190207986248,-0.08988718250833641, ,0.0018006223987944653, ,0.014375213014991213,0.003580388161420916,-0.04475470893117721,0.07782538295062057,0.0723580954678543,-0.0035279113647791525, ,0.04714286690611008, ,0.10626525611753132, ,0.0006901830737310697, ,0.1900950696990363,-0.226924782776213,0.09915711097,1.6817133467458854,0.4616947327074232,-1.3050050145081196, ,0.0778481883170392,0.07652979157941192,0.04657547228070176,-0.015971942167367748,0.1582496569140088,-0.15146115549034136, ,1.1474590301513672
0.012908517053351894,0.02106937523199639,-0.08840571888585924, ,0.013931490570588876,0.02066921659849809,-0.09007466345155846, ,0.0019979934214877614, ,0.014375213014991213,0.003580388161420916,-0.04475470893117721,0.07782538295062057,0.0723580954678543,-0.0035279113647791525, ,0.04714286690611008, ,0.10626525611753132, ,0.000710617610414768, ,0.1900950696990363,-0.226924782776213,0.09915711097,1.6817133467458854,0.4616947327074232,-1.3050050145081196, ,0.0778481883170392,0.07652979157941192,0.04657547228070176,-0.015971942167367748,0.1582496569140088,-0.15146115549034136, ,1.1510910987854004
0.013128288169690222,0.02112433572687094,-0.08909774698660894, ,0.014011546687156779,0.020666381078388495,-0.09026161030196926, ,0.0015311583476523326, ,0.016591076006504904,0.0038345745738192975,-0.05153548866722648,0.05622427872785617,0.034755785998675535,0.05779915605894241, ,0.05427590954913269, ,0.06609667658642876, ,0.0007232413140645767, ,0.19125347963016998,-0.22577409557795355,0.09987655192000001,1.680874586971947,0.46401755320343574,-1.3073075125716613, ,0.08549274014276646,0.08650587197672815,0.053452387651006725,-0.08691246590562923,0.14350969533675398,-0.15404922368189292, ,1.1545979976654053
0.013128288169690222,0.02112433572687094,-0.08909774698660894, ,0.014091825256141355,0.020663398800348103,-0.09044801807571853, ,0.0017216557673600925, ,0.016591076006504904,0.0038345745738192975,-0.05153548866722648,0.05622427872785617,0.034755785998675535,0.05779915605894241, ,0.05427590954913269, ,0.06609667658642876, ,0.0007383688057811755, ,0.19125347963016998,-0.22577409557795355,0.09987655192000001,1.680874586971947,0.46401755320343574,-1.3073075125716613, ,0.08549274014276646,0.08650587197672815,0.053452387651006725,-0.08691246590562923,0.14350969533675398,-0.15404922368189292, ,1.158163070678711
0.013128288169690222,0.02112433572687094,-0.08909774698660894, ,0.014172321605818444,0.02066027302979485,-0.09063388183415864, ,0.0019144373252806665, ,0.016591076006504904,0.0038345745738192975,-0.05153548866722648,0.05622427872785617,0.034755785998675535,0.05779915605894241, ,0.05427590954913269, ,0.06609667658642876, ,0.0007559220672662425, ,0.19125347963016998,-0.22577409557795355,0.09987655192000001,1.680874586971947,0.46401755320343574,-1.3073075125716613, ,0.08549274014276646,0.08650587197672815,0.053452387651006725,-0.08691246590562923,0.14350969533675398,-0.15404922368189292, ,1.161787986755371
0.013298670870484607,0.02116487903898242,-0.08963179051440498, ,0.014253031094595345,0.020657007016777296,-0.09081919668373312, ,0.0016058240374530266, ,0.019013975544467578,0.004592590749505297,-0.060120910555022354,0.025460759800108507,0.026007101638559155,0.02066065554372003, ,0.06322299456497653, ,0.036384531858905104, ,0.0007684206256513423, ,0.19210298024633468,-0.22486281309879505,0.10043006775,1.6806648970284628,0.4653839182010902,-1.308503370348766, ,0.09133488119198342,0.10042004397721775,0.06222192000000001,-0.046946380033184715,0.1312992107606954,-0.12942168734674164, ,1.165431022644043
0.013298670870484607,0.02116487903898242,-0.08963179051440498, ,0.014333949110939355,0.020653603996001284,-0.09100395777586537, ,0.0017933338222869003, ,0.019013975544467578,0.004592590749505297,-0.060120910555022354,0.025460759800108507,0.026007101638559155,0.02066065554372003, ,0.06322299456497653, ,0.036384531858905104, ,0.0007832744400953359, ,0.19210298024633468,-0.22486281309879505,0.10043006775,1.6806648970284628,0.4653839182010902,-1.308503370348766, ,0.09133488119198342,0.10042004397721775,0.06222192000000001,-0.046946380033184715,0.1312992107606954,-0.12942168734674164, ,1.1690871715545654
0.013298670870484607,0.02116487903898242,-0.08963179051440498, ,0.014415071073307004,0.02065006718685884,-0.09118816030684786, ,0.0019833475708451826, ,0.019013975544467578,0.004592590749505297,-0.060120910555022354,0.025460759800108507,0.026007101638559155,0.02066065554372003, ,0.06322299456497653, ,0.036384531858905104, ,0.0008004183419631907, ,0.19210298024633468,-0.22486281309879505,0.10043006775,1.6806648970284628,0.4653839182010902,-1.308503370348766, ,0.09133488119198342,0.10042004397721775,0.06222192000000001,-0.046946380033184715,0.1312992107606954,-0.12942168734674164, ,1.172713041305542
0.013503862277098102,0.021217723960943825,-0.09026510018919955, ,0.01449639243007227,0.02064639979345387,-0.09137179951773043, ,0.001592579923486331, ,0.020682703012260797,0.004991098335722279,-0.06286133536705417,0.054181546747822044,0.03417023015509435,-1.1865446151852234e-06, ,0.06636439369586289, ,0.0640489115771321, ,0.0008115755473367561, ,0.19310693551998387,-0.2238356896265232,0.10108728678000001,1.6806648970284628,0.46675028319874456,-1.3099442643462926, ,0.10359928117736984,0.10281358782066174,0.06528201442622952,-0.03010973148777371,0.14833177112262255,-0.15740794930947688, ,1.176314115524292
0.013503862277098102,0.021217723960943825,-0.09026510018919955, ,0.014577908659456145,0.020642605004631612,-0.0915548706942095, ,0.0017742168415838286, ,0.020682703012260797,0.004991098335722279,-0.06286133536705417,0.054181546747822044,0.03417023015509435,-1.1865446151852234e-06, ,0.06636439369586289, ,0.0640489115771321, ,0.0008249455653124098, ,0.19310693551998387,-0.2238356896265232,0.10108728678000001,1.6806648970284628,0.46675028319874456,-1.3099442643462926, ,0.10359928117736984,0.10281358782066174,0.06528201442622952,-0.03010973148777371,0.14833177112262255,-0.15740794930947688, ,1.180185079574585
0.013713621445078567,0.021258934694515997,-0.09085798774814938, ,0.014659615269454678,0.020638685994004043,-0.09173736916651659, ,0.001432803002933077, ,0.020561644478684086,0.002760787549335615,-0.054676412212536815,0.03662456381234684,0.019913192852838452,-0.004371945394713648, ,0.05848002414496433, ,0.04168219369981305, ,0.0008332723795263916, ,0.19310693551998387,-0.2238356896265232,0.10108728678000001,1.6806648970284628,0.46675028319874456,-1.3099442643462926, ,0.10359928117736984,0.10281358782066174,0.06528201442622952,-0.03010973148777371,0.14833177112262255,-0.15740794930947688, ,1.183946132659912
0.013713621445078567,0.021258934694515997,-0.09085798774814938, ,0.014741507797768326,0.02063464591997876,-0.09191929030930703, ,0.0016039482393078793, ,0.020561644478684086,0.002760787549335615,-0.054676412212536815,0.03662456381234684,0.019913192852838452,-0.004371945394713648, ,0.05848002414496433, ,0.04168219369981305, ,0.0008436869181720874, ,0.19424217725249487,-0.22279312068850288,0.10170432082000001,1.6806648970284628,0.4682532846961644,-1.3112515400270937, ,0.1170122583951551,0.10555833321298196,0.057297883165467633,-0.022252523745931643,0.14886646599229333,-0.1430910215547741, ,1.1875941753387451
0.013713621445078567,0.021258934694515997,-0.09085798774814938, ,0.014823581811730428,0.02063048792578569,-0.09210062954154893, ,0.0017807627532517537, ,0.020561644478684086,0.002760787549335615,-0.054676412212536815,0.03662456381234684,0.019913192852838452,-0.004371945394713648, ,0.05848002414496433, ,0.04168219369981305, ,0.0008561812626398163, ,0.19424217725249487,-0.22279312068850288,0.10170432082000001,1.6806648970284628,0.4682532846961644,-1.3112515400270937, ,0.1170122583951551,0.10555833321298196,0.057297883165467633,-0.022252523745931643,0.14886646599229333,-0.1430910215547741, ,1.191141128540039
0.01392024090827509,0.021269563628415332,-0.09137941570743022, ,0.014905832908236225,0.02062621513950471,-0.0922813823264127, ,0.001482846131710792, ,0.02123234105398075,-0.0003379670312782505,-0.05029859154916255,0.01488141555248981,-0.004479332011626013,-0.014015079339253046, ,0.05459738858385329, ,0.015530582764876634, ,0.0008644268530223292, ,0.19547009177949656,-0.22164243349024343,0.10224487375,1.6800358271980091,0.4696196496938188,-1.3125290765443391, ,0.13161850424198443,0.12669818632639623,0.052054939607843145,-0.019063678405968763,0.13476136399276514,-0.1397543896699303, ,1.194728136062622
0.01392024090827509,0.021269563628415332,-0.09137941570743022, ,0.014988256713671495,0.0206218306740931,-0.09246154417115802, ,0.0016526396318318898, ,0.02123234105398075,-0.0003379670312782505,-0.05029859154916255,0.01488141555248981,-0.004479332011626013,-0.014015079339253046, ,0.05459738858385329, ,0.015530582764876634, ,0.0008746633826172585, ,0.19547009177949656,-0.22164243349024343,0.10224487375,1.6800358271980091,0.4696196496938188,-1.3125290765443391, ,0.13161850424198443,0.12669818632639623,0.052054939607843145,-0.019063678405968763,0.13476136399276514,-0.1397543896699303, ,1.1982879638671875
0.01392024090827509,0.021269563628415332,-0.09137941570743022, ,0.015070848883841557,0.02061733762741287,-0.0926411106270246, ,0.0018278871792184268, ,0.02123234105398075,-0.0003379670312782505,-0.05029859154916255,0.01488141555248981,-0.004479332011626013,-0.014015079339253046, ,0.05459738858385329, ,0.015530582764876634, ,0.0008868842005224017, ,0.19547009177949656,-0.22164243349024343,0.10224487375,1.6800358271980091,0.4696196496938188,-1.3125290765443391, ,0.13161850424198443,0.12669818632639623,0.052054939607843145,-0.019063678405968763,0.13476136399276514,-0.1397543896699303, ,1.2018260955810547
0.014138642754655264,0.021257626496667067,-0.09188404046799915, ,0.015153605103899966,0.02061273908225857,-0.09282007728911976, ,0.0015238744299122438, ,0.02184773003561959,-0.001411498024937426,-0.04864121593525706,0.004206215521857229,-0.017170125019138536,0.06722899851586282, ,0.053341199105794594, ,0.01767012049177431, ,0.0008949473679830326, ,0.1968679064297312,-0.2203141234358768,0.10276727862000001,1.6791970674240708,0.4712592876910041,-1.313947770128837, ,0.14184894104405196,0.12928738631944245,0.05040763139240506,-0.10303719409073571,0.1509524304603388,-0.14702609127282804, ,1.2053611278533936
0.014138642754655264,0.021257626496667067,-0.09188404046799915, ,0.015236521088277218,0.020608038106383873,-0.09299843979630748, ,0.0016938676970652939, ,0.02184773003561959,-0.001411498024937426,-0.04864121593525706,0.004206215521857229,-0.017170125019138536,0.06722899851586282, ,0.053341199105794594, ,0.01767012049177431, ,0.0009049338720965609, ,0.1968679064297312,-0.2203141234358768,0.10276727862000001,1.6791970674240708,0.4712592876910041,-1.313947770128837, ,0.14184894104405196,0.12928738631944245,0.05040763139240506,-0.10303719409073571,0.1509524304603388,-0.14702609127282804, ,1.2089440822601318
0.014138642754655264,0.021257626496667067,-0.09188404046799915, ,0.015319592580609836,0.020603237752529882,-0.09317619383109821, ,0.0018688304989066759, ,0.02184773003561959,-0.001411498024937426,-0.04864121593525706,0.004206215521857229,-0.017170125019138536,0.06722899851586282, ,0.053341199105794594, ,0.01767012049177431, ,0.0009168338304522414, ,0.1968679064297312,-0.2203141234358768,0.10276727862000001,1.6791970674240708,0.4712592876910041,-1.313947770128837, ,0.14184894104405196,0.12928738631944245,0.05040763139240506,-0.10303719409073571,0.1509524304603388,-0.14702609127282804, ,1.2125771045684814
0.014352476845648271,0.021240499752122742,-0.09233450616084168, ,0.01540281535366901,0.020598341058452294,-0.09335333511953577, ,0.0015979960001080832, ,0.022554284154537085,-0.0024971652342030653,-0.045460441297616026,-0.08493581409866939,-0.07763902014703043,0.022780616964909604, ,0.05080928351103278, ,0.11507265445016351, ,0.0009251406861797517, ,0.19826572107996585,-0.21904759524450398,0.10323394302000001,1.6789873774805866,0.47235237968912763,-1.3150841495788297, ,0.14897479051565274,0.1338461799132169,0.04698764460176992,-0.04763394207031006,0.08783183040203095,-0.056273387410562786, ,1.216614007949829
0.014352476845648271,0.021240499752122742,-0.09233450616084168, ,0.015486185209289372,0.020593351046948278,-0.09352985943108788, ,0.0017700185143345378, ,0.022554284154537085,-0.0024971652342030653,-0.045460441297616026,-0.08493581409866939,-0.07763902014703043,0.022780616964909604, ,0.05080928351103278, ,0.11507265445016351, ,0.0009353199371213755, ,0.19826572107996585,-0.21904759524450398,0.10323394302000001,1.6789873774805866,0.47235237968912763,-1.3150841495788297, ,0.14897479051565274,0.1338461799132169,0.04698764460176992,-0.04763394207031006,0.08783183040203095,-0.056273387410562786, ,1.2204999923706055
0.014584433108214811,0.02120692851586055,-0.09279275272606684, ,0.015569697978297985,0.020588270725884865,-0.09370576257853411, ,0.0014788750170382607, ,0.022437427994096443,-0.003463688476606758,-0.04321449333431716,-0.07513469198675275,-0.07165498842982579,-0.03104964618942719, ,0.04881524092939605, ,0.10382441232709931, ,0.0009417908309299099, ,0.19981026765481075,-0.21760344419702402,0.10370708887,1.678777687537102,0.47330883518748573,-1.3160274323849859, ,0.1496797185464839,0.13975985501983915,0.044618519663865555,0.005490586949958615,0.07887175736384873,-0.05815121016674206, ,1.2242681980133057
0.014584433108214811,0.02120692851586055,-0.09279275272606684, ,0.015653349520442898,0.020583103088225457,-0.09388104041785476, ,0.0016480626688908893, ,0.022437427994096443,-0.003463688476606758,-0.04321449333431716,-0.07513469198675275,-0.07165498842982579,-0.03104964618942719, ,0.04881524092939605, ,0.10382441232709931, ,0.0009500999113765097, ,0.19981026765481075,-0.21760344419702402,0.10370708887,1.678777687537102,0.47330883518748573,-1.3160274323849859, ,0.1496797185464839,0.13975985501983915,0.044618519663865555,0.005490586949958615,0.07887175736384873,-0.05815121016674206, ,1.2278971672058105
0.014584433108214811,0.02120692851586055,-0.09279275272606684, ,0.01573713572432241,0.02057785111205782,-0.09405568884812009, ,0.0018219410938730659, ,0.022437427994096443,-0.003463688476606758,-0.04321449333431716,-0.07513469198675275,-0.07165498842982579,-0.03104964618942719, ,0.04881524092939605, ,0.10382441232709931, ,0.0009602375995450744, ,0.19981026765481075,-0.21760344419702402,0.10370708887,1.678777687537102,0.47330883518748573,-1.3160274323849859, ,0.1496797185464839,0.13975985501983915,0.044618519663865555,0.005490586949958615,0.07887175736384873,-0.05815121016674206, ,1.2316060066223145
0.01482186533148385,0.02116712067332575,-0.09325105742090967, ,0.01582105250731335,0.020572517760621155,-0.09422970381137888, ,0.0015197619529772866, ,0.023903014965302376,-0.004100149412198912,-0.04701073752208984,-0.018211527290476082,-0.04311327652619917,-0.03996549307204612, ,0.052897776815331754, ,0.04679940952588108, ,0.0009666689139523412, ,0.20139342789402676,-0.216089788553676,0.10418023472000001,1.6789873774805866,0.4742652906858438,-1.3170523939312826, ,0.15869053772319527,0.15380379507045505,0.04856344975609757,0.0,0.11847653808093651,-0.1302226346546977, ,1.2351939678192139
0.01482186533148385,0.02116712067332575,-0.09325105742090967, ,0.01590509581550037,0.020567105982334025,-0.09440308129254689, ,0.0016913204639365579, ,0.023903014965302376,-0.004100149412198912,-0.04701073752208984,-0.018211527290476082,-0.04311327652619917,-0.03996549307204612, ,0.052897776815331754, ,0.04679940952588108, ,0.0009749035906567072, ,0.20139342789402676,-0.216089788553676,0.10418023472000001,1.6789873774805866,0.4742652906858438,-1.3170523939312826, ,0.15869053772319527,0.15380379507045505,0.04856344975609757,0.0,0.11847653808093651,-0.1302226346546977, ,1.2388031482696533
0.01482186533148385,0.02116712067332575,-0.09325105742090967, ,0.01598926162360447,0.020561618710821097,-0.09457581731929655, ,0.0018666642756071583, ,0.023903014965302376,-0.004100149412198912,-0.04701073752208984,-0.018211527290476082,-0.04311327652619917,-0.03996549307204612, ,0.052897776815331754, ,0.04679940952588108, ,0.0009849233736336784, ,0.20139342789402676,-0.216089788553676,0.10418023472000001,1.6789873774805866,0.4742652906858438,-1.3170523939312826, ,0.15869053772319527,0.15380379507045505,0.04856344975609757,0.0,0.11847653808093651,-0.1302226346546977, ,1.2423760890960693
0.015049878837693056,0.021132864662253652,-0.0937039922640415, ,0.016073545934911886,0.020556058864940923,-0.09474790796194467, ,0.0015717376492502381, ,0.02533561463582629,-0.003203376669195195,-0.04994661479681896,0.02010402855685786,-0.0450042980996889,-0.04461607733099103, ,0.056096517901930903, ,0.04928740180197719, ,0.0009914435322516404, ,0.20289936080450055,-0.21467652843769292,0.10464949170000001,1.678777687537102,0.47549501918373277,-1.3184635487652532, ,0.1661942934474094,0.15015338854188412,0.05188537954397395,-0.0038607747065209723,0.12494030020141836,-0.16675070440467088, ,1.2459330558776855
0.015049878837693056,0.021132864662253652,-0.0937039922640415, ,0.016157944781203096,0.020550429348813442,-0.09491934933334222, ,0.0017447446332940018, ,0.02533561463582629,-0.003203376669195195,-0.04994661479681896,0.02010402855685786,-0.0450042980996889,-0.04461607733099103, ,0.056096517901930903, ,0.04928740180197719, ,0.0009997215663290289, ,0.20289936080450055,-0.21467652843769292,0.10464949170000001,1.678777687537102,0.47549501918373277,-1.3184635487652532, ,0.1661942934474094,0.15015338854188412,0.05188537954397395,-0.0038607747065209723,0.12494030020141836,-0.16675070440467088, ,1.2494940757751465
0.015049878837693056,0.021132864662253652,-0.0937039922640415, ,0.01624245422268146,0.020544733051847414,-0.09509013758876306, ,0.0019208158946881697, ,0.02533561463582629,-0.003203376669195195,-0.04994661479681896,0.02010402855685786,-0.0450042980996889,-0.04461607733099103, ,0.056096517901930903, ,0.04928740180197719, ,0.001009733461202498, ,0.20289936080450055,-0.21467652843769292,0.10464949170000001,1.678777687537102,0.47549501918373277,-1.3184635487652532, ,0.1661942934474094,0.15015338854188412,0.05188537954397395,-0.0038607747065209723,0.12494030020141836,-0.16675070440467088, ,1.2531251907348633
0.01531505525643036,0.021093554137254826,-0.09421740050215538, ,0.016327070347902123,0.02053897284876751,-0.0952602689257919, ,0.0015554129676471663, ,0.026089817613237417,-0.004192307180678861,-0.0495500714644483,-0.03560141769868966,-0.08129889972772342,0.008770824636417708, ,0.05615570856752765, ,0.0887506244968673, ,0.0010156009827771717, ,0.2046446984340753,-0.21310109093135113,0.10518226689000001,1.6781486177066482,0.4767247476816217,-1.3199563823393643, ,0.17129411833658983,0.15556875665323078,0.05138326296774194,-0.05427604508561693,0.10390489425320153,-0.12605954489627932, ,1.2569711208343506
0.01531505525643036,0.021093554137254826,-0.09421740050215538, ,0.016411789273700687,0.02053315159964181,-0.09542973958421379, ,0.0017281905446701294, ,0.026089817613237417,-0.004192307180678861,-0.0495500714644483,-0.03560141769868966,-0.08129889972772342,0.008770824636417708, ,0.05615570856752765, ,0.0887506244968673, ,0.0010231817227973096, ,0.2046446984340753,-0.21310109093135113,0.10518226689000001,1.6781486177066482,0.4767247476816217,-1.3199563823393643, ,0.17129411833658983,0.15556875665323078,0.05138326296774194,-0.05427604508561693,0.10390489425320153,-0.12605954489627932, ,1.2609541416168213
0.015389976793081453,0.02108135586197627,-0.0943573444584189, ,0.01649660714512249,0.020527272149909778,-0.09559854584590358, ,0.0017527750512629256, ,0.026274485958379928,-0.004491065664118174,-0.048893253661790974,-0.05029359360080687,-0.09065758496071645,0.03826377924300897, ,0.0556872385454043, ,0.10367238714539159, ,0.0010308616525706318, ,0.20513895333802565,-0.21266089515752032,0.10532745137,1.677938927763164,0.4769980206811526,-1.3203425756270382, ,0.1741228285476528,0.15556875665323078,0.05072869910828026,-0.08259084125965326,0.10333276618753827,-0.11669414044831747, ,1.264631986618042
0.015389976793081453,0.02108135586197627,-0.0943573444584189, ,0.016581520135350837,0.02052133733040877,-0.09576668403471328, ,0.0019286353552486655, ,0.026274485958379928,-0.004491065664118174,-0.048893253661790974,-0.05029359360080687,-0.09065758496071645,0.03826377924300897, ,0.0556872385454043, ,0.10367238714539159, ,0.001040213461973528, ,0.20513895333802565,-0.21266089515752032,0.10532745137,1.677938927763164,0.4769980206811526,-1.3203425756270382, ,0.1741228285476528,0.15556875665323078,0.05072869910828026,-0.08259084125965326,0.10333276618753827,-0.11669414044831747, ,1.2682790756225586
0.015389976793081453,0.02108135586197627,-0.0943573444584189, ,0.01666652444563634,0.0205153499574022,-0.0959341505163618, ,0.0021062416617334133, ,0.026274485958379928,-0.004491065664118174,-0.048893253661790974,-0.05029359360080687,-0.09065758496071645,0.03826377924300897, ,0.0556872385454043, ,0.10367238714539159, ,0.0010512034434143514, ,0.20513895333802565,-0.21266089515752032,0.10532745137,1.677938927763164,0.4769980206811526,-1.3203425756270382, ,0.1741228285476528,0.15556875665323078,0.05072869910828026,-0.08259084125965326,0.10333276618753827,-0.11669414044831747, ,1.2718970775604248
0.015820715031480907,0.02099644905442093,-0.09511086850373304, ,0.016751616305225515,0.020509312832606697,-0.09610094169832414, ,0.0014436494764002127, ,0.02249882977488268,-0.00582803142275436,-0.034493891132779286,-0.05782382634529094,-0.09936761774711833,-0.044788372096449806, ,0.04159317031657708, ,0.11496725410839741, ,0.00105520799477135, ,0.20805042363160828,-0.21008150237752934,0.10611041053,1.6775195478761948,0.47850102217857243,-1.3220582450085423, ,0.15949065808146348,0.13853568110725661,0.035875701621621625,0.009098556441392982,0.05960118826449787,-0.07518236221796935, ,1.2754631042480469
0.015820715031480907,0.02099644905442093,-0.09511086850373304, ,0.01683679197128962,0.020503228743219325,-0.09626705402971908, ,0.0016163055384092611, ,0.02249882977488268,-0.00582803142275436,-0.034493891132779286,-0.05782382634529094,-0.09936761774711833,-0.044788372096449806, ,0.04159317031657708, ,0.11496725410839741, ,0.0010608756467272887, ,0.20805042363160828,-0.21008150237752934,0.10611041053,1.6775195478761948,0.47850102217857243,-1.3220582450085423, ,0.15949065808146348,0.13853568110725661,0.035875701621621625,0.009098556441392982,0.05960118826449787,-0.07518236221796935, ,1.279043197631836
0.015820715031480907,0.02099644905442093,-0.09511086850373304, ,0.016922047728853577,0.02049710046194537,-0.0964324840011991, ,0.0017913543061750582, ,0.02249882977488268,-0.00582803142275436,-0.034493891132779286,-0.05782382634529094,-0.09936761774711833,-0.044788372096449806, ,0.04159317031657708, ,0.11496725410839741, ,0.0010681804333217662, ,0.20805042363160828,-0.21008150237752934,0.10611041053,1.6775195478761948,0.47850102217857243,-1.3220582450085423, ,0.15949065808146348,0.13853568110725661,0.035875701621621625,0.009098556441392982,0.05960118826449787,-0.07518236221796935, ,1.282602071762085
0.016061489814580738,0.020930894590019046,-0.0954698098449418, ,0.017007379890724827,0.02049093074702544,-0.09659722814483832, ,0.0015360170058404702, ,0.026064809275260226,-0.006804916588981072,-0.04089915800368255,-0.10112715442241743,-0.12062854398663217,-0.04376180044468525, ,0.048973689852295915, ,0.15740976001345908, ,0.0010728124785942285, ,0.20976487032968613,-0.20859873766567824,0.10648374205000001,1.6775195478761948,0.47904756817763416,-1.3227489528437497, ,0.1804124364229482,0.161664295670308,0.042476830720000004,0.008938096889930613,0.05939149793706645,-0.05362141375085788, ,1.2861871719360352
0.016061489814580738,0.020930894590019046,-0.0954698098449418, ,0.017092784797421913,0.020484722342262854,-0.09676128303402218, ,0.0017118825936420505, ,0.026064809275260226,-0.006804916588981072,-0.04089915800368255,-0.10112715442241743,-0.12062854398663217,-0.04376180044468525, ,0.048973689852295915, ,0.15740976001345908, ,0.0010790778718790112, ,0.20976487032968613,-0.20859873766567824,0.10648374205000001,1.6775195478761948,0.47904756817763416,-1.3227489528437497, ,0.1804124364229482,0.161664295670308,0.042476830720000004,0.008938096889930613,0.05939149793706645,-0.05362141375085788, ,1.2897560596466064
0.016061489814580738,0.020930894590019046,-0.0954698098449418, ,0.017178258817103834,0.02047847797705161,-0.09692464528333583, ,0.0018890208970502441, ,0.026064809275260226,-0.006804916588981072,-0.04089915800368255,-0.10112715442241743,-0.12062854398663217,-0.04376180044468525, ,0.048973689852295915, ,0.15740976001345908, ,0.0010869413963952366, ,0.20976487032968613,-0.20859873766567824,0.10648374205000001,1.6775195478761948,0.47904756817763416,-1.3227489528437497, ,0.1804124364229482,0.161664295670308,0.042476830720000004,0.008938096889930613,0.05939149793706645,-0.05362141375085788, ,1.2935411930084229
0.016327289389739305,0.02088081396084957,-0.09594811564284768, ,0.01726379834549847,0.02047220036640329,-0.09708731154845301, ,0.0015302880137841358, ,0.02617617097908657,-0.002907557513965374,-0.050754369682778376,0.0740990699643275,0.029354726945111247,-0.03425553736190211, ,0.057180869700622104, ,0.07969965726019297, ,0.0010912043446393608, ,0.21157198982225467,-0.2070155774264622,0.10698540628000001,1.6775195478761948,0.48096047917435036,-1.3246355184560619, ,0.17067795244329276,0.1424879002379441,0.053452387651006725,-0.008346510787739781,0.20675142519104564,-0.21068160384137818, ,1.2974581718444824
0.016327289389739305,0.02088081396084957,-0.09594811564284768, ,0.017349399805831466,0.020465892210974314,-0.0972492785260244, ,0.0017058413202172093, ,0.02617617097908657,-0.002907557513965374,-0.050754369682778376,0.0740990699643275,0.029354726945111247,-0.03425553736190211, ,0.057180869700622104, ,0.07969965726019297, ,0.0010970580301210545, ,0.21157198982225467,-0.2070155774264622,0.10698540628000001,1.6775195478761948,0.48096047917435036,-1.3246355184560619, ,0.17067795244329276,0.1424879002379441,0.053452387651006725,-0.008346510787739781,0.20675142519104564,-0.21068160384137818, ,1.3013429641723633
0.016327289389739305,0.02088081396084957,-0.09594811564284768, ,0.01743505964875523,0.02045955619709384,-0.09741054295356746, ,0.0018823673099115886, ,0.02617617097908657,-0.002907557513965374,-0.050754369682778376,0.0740990699643275,0.029354726945111247,-0.03425553736190211, ,0.057180869700622104, ,0.07969965726019297, ,0.001104466608232286, ,0.21157198982225467,-0.2070155774264622,0.10698540628000001,1.6775195478761948,0.48096047917435036,-1.3246355184560619, ,0.17067795244329276,0.1424879002379441,0.053452387651006725,-0.008346510787739781,0.20675142519104564,-0.21068160384137818, ,1.3051650524139404
0.016593761022182393,0.020854649118952996,-0.09645195788947801, ,0.017520774352277668,0.020453194996790873,-0.09757110160935469, ,0.0015076477679201777, ,0.026587637330248447,-0.0026228969928121094,-0.048964263445458435,0.000658955396864243,-0.026094358177566307,0.003974501858693703, ,0.055778859276575214, ,0.02609728538056024, ,0.0011082346564536682, ,0.21330188198608097,-0.20564865370772448,0.10751688518000001,1.6771001679892257,0.48273675367130114,-1.3262473086843964, ,0.1728541740591453,0.13328222128998704,0.05171692051948052,-0.03589686245408305,0.15791606536330433,-0.1339935890630867, ,1.3088290691375732
0.016593761022182393,0.020854649118952996,-0.09645195788947801, ,0.017606540421691245,0.020446811267822117,-0.0977309513123025, ,0.0016816295669715333, ,0.026587637330248447,-0.0026228969928121094,-0.048964263445458435,0.000658955396864243,-0.026094358177566307,0.003974501858693703, ,0.055778859276575214, ,0.02609728538056024, ,0.0011135438685880928, ,0.21330188198608097,-0.20564865370772448,0.10751688518000001,1.6771001679892257,0.48273675367130114,-1.3262473086843964, ,0.1728541740591453,0.13328222128998704,0.05171692051948052,-0.03589686245408305,0.15791606536330433,-0.1339935890630867, ,1.3125050067901611
0.01686061026685066,0.020830046235140294,-0.09695302482038234, ,0.01769235438950138,0.020440407653698388,-0.09789008892185952, ,0.00131213781287992, ,0.026418751340138456,-0.002241874618265488,-0.05166680490449261,-0.04535285738900387,-0.07954260507930837,0.03002467000199296, ,0.05807267131116832, ,0.09156167057227917, ,0.001115365831379761, ,0.21497771501978769,-0.20432034365335786,0.10804447521,1.676680788102257,0.4839664821691901,-1.3271683910775236, ,0.15842561195070248,0.13180130772009832,0.054179631020408174,-0.0665420754391085,0.09460396760246932,-0.09531827982835914, ,1.3161730766296387
0.01686061026685066,0.020830046235140294,-0.09695302482038234, ,0.017778212815355816,0.0204339867837133,-0.09804851133789676, ,0.001482885105510087, ,0.026418751340138456,-0.002241874618265488,-0.05166680490449261,-0.04535285738900387,-0.07954260507930837,0.03002467000199296, ,0.05807267131116832, ,0.09156167057227917, ,0.0011187069156900367, ,0.21497771501978769,-0.20432034365335786,0.10804447521,1.676680788102257,0.4839664821691901,-1.3271683910775236, ,0.15842561195070248,0.13180130772009832,0.054179631020408174,-0.0665420754391085,0.09460396760246932,-0.09531827982835914, ,1.3197541236877441
0.01686061026685066,0.020830046235140294,-0.09695302482038234, ,0.01786411228597322,0.020427551272969868,-0.09820621550059548, ,0.0016551451229208536, ,0.026418751340138456,-0.002241874618265488,-0.05166680490449261,-0.04535285738900387,-0.07954260507930837,0.03002467000199296, ,0.05807267131116832, ,0.09156167057227917, ,0.0011235396923317557, ,0.21497771501978769,-0.20432034365335786,0.10804447521,1.676680788102257,0.4839664821691901,-1.3271683910775236, ,0.15842561195070248,0.13180130772009832,0.054179631020408174,-0.0665420754391085,0.09460396760246932,-0.09531827982835914, ,1.3233141899108887
0.0171344352515088,0.020806434752133417,-0.09750374457949149, ,0.017950049415072018,0.020421103722408192,-0.09836319839033583, ,0.001245940335348727, ,0.026225592788079045,-0.0021299617302551342,-0.05272992894980179,-0.02246732677853518,-0.04323108558123676,-0.042817784916944636, ,0.058930160878022726, ,0.04871652578467204, ,0.0011246325552158357, ,0.21658404345762639,-0.20290708353737477,0.10862132426000001,1.676471098158772,0.4850595741673136,-1.3280597343070948, ,0.15330685227539706,0.1346055908630791,0.055308373333333334,0.00976669789575393,0.1107164459953674,-0.1043333881825527, ,1.3269259929656982
0.0171344352515088,0.020806434752133417,-0.09750374457949149, ,0.018036020843299125,0.020414646718832533,-0.09851945702758635, ,0.0014135155533550228, ,0.026225592788079045,-0.0021299617302551342,-0.05272992894980179,-0.02246732677853518,-0.04323108558123676,-0.042817784916944636, ,0.058930160878022726, ,0.04871652578467204, ,0.0011271890419250323, ,0.21658404345762639,-0.20290708353737477,0.10862132426000001,1.676471098158772,0.4850595741673136,-1.3280597343070948, ,0.15330685227539706,0.1346055908630791,0.055308373333333334,0.00976669789575393,0.1107164459953674,-0.1043333881825527, ,1.33048415184021
0.0171344352515088,0.020806434752133417,-0.09750374457949149, ,0.018122023238159295,0.020408182834939285,-0.09867498847279237, ,0.0015829551094455536, ,0.024412758402950884,-0.002150257386540543,-0.04618263973943954,0.014611926737639093,-0.011469442564304533,-0.01418598210274705, ,0.05228233538177194, ,0.01857004123154334, ,0.0011311869898857387, ,0.2180436399708548,-0.20169461447612153,0.10912428478000001,1.676680788102257,0.48628930266520254,-1.329062495440363, ,0.15110977955170507,0.11936722208612675,0.04886138503067485,-0.016539487758242294,0.14645344925604584,-0.13091017158570997, ,1.3345510959625244
0.017378064031522984,0.02078810161030705,-0.09798102101266391, ,0.01820805329394341,0.020401714629344106,-0.09882978982626556, ,0.0012484332476082186, ,0.024412758402950884,-0.002150257386540543,-0.04618263973943954,0.014611926737639093,-0.011469442564304533,-0.01418598210274705, ,0.05228233538177194, ,0.01857004123154334, ,0.0011322065225615862, ,0.2180436399708548,-0.20169461447612153,0.10912428478000001,1.676680788102257,0.48628930266520254,-1.329062495440363, ,0.15110977955170507,0.11936722208612675,0.04886138503067485,-0.016539487758242294,0.14645344925604584,-0.13091017158570997, ,1.3383450508117676
0.017378064031522984,0.02078810161030705,-0.09798102101266391, ,0.0182941077316575,0.02039524464660915,-0.09898385822807128, ,0.0014139148259665656, ,0.024412758402950884,-0.002150257386540543,-0.04618263973943954,0.014611926737639093,-0.011469442564304533,-0.01418598210274705, ,0.05228233538177194, ,0.01857004123154334, ,0.0011346350424185257, ,0.2180436399708548,-0.20169461447612153,0.10912428478000001,1.676680788102257,0.48628930266520254,-1.329062495440363, ,0.15110977955170507,0.11936722208612675,0.04886138503067485,-0.016539487758242294,0.14645344925604584,-0.13091017158570997, ,1.3420209884643555
0.017604222832670026,0.020762637565028993,-0.09838749035712463, ,0.018380183298951993,0.020388775417270938,-0.09913719085791926, ,0.0011419012179915205, ,0.02290687746279114,-0.0030738984912516885,-0.03849313250013702,0.025935205782447845,-0.005590713693086484,-0.02311173649058003, ,0.04489872088047668, ,0.026529351047205912, ,0.001134697146483252, ,0.21949551375120901,-0.20058254094223318,0.10955594935000001,1.676471098158772,0.48779230416262237,-1.3302880923810234, ,0.1520784319847288,0.11243713454795115,0.04105363793814434,-0.005476235679407165,0.15116047805685948,-0.1329323328827084, ,1.3459100723266602
0.017604222832670026,0.020762637565028993,-0.09838749035712463, ,0.01846627677005006,0.02038230945786744,-0.09928978493505108, ,0.0013045773129274425, ,0.02290687746279114,-0.0030738984912516885,-0.03849313250013702,0.025935205782447845,-0.005590713693086484,-0.02311173649058003, ,0.04489872088047668, ,0.026529351047205912, ,0.001136136808910745, ,0.21949551375120901,-0.20058254094223318,0.10955594935000001,1.676471098158772,0.48779230416262237,-1.3302880923810234, ,0.1520784319847288,0.11243713454795115,0.04105363793814434,-0.005476235679407165,0.15116047805685948,-0.1329323328827084, ,1.349472999572754
0.017604222832670026,0.020762637565028993,-0.09838749035712463, ,0.01855238494567649,0.020375849270965172,-0.09944163771812939, ,0.0014696405123971583, ,0.02290687746279114,-0.0030738984912516885,-0.03849313250013702,0.025935205782447845,-0.005590713693086484,-0.02311173649058003, ,0.04489872088047668, ,0.026529351047205912, ,0.0011389393610408828, ,0.21949551375120901,-0.20058254094223318,0.10955594935000001,1.676471098158772,0.48779230416262237,-1.3302880923810234, ,0.1520784319847288,0.11243713454795115,0.04105363793814434,-0.005476235679407165,0.15116047805685948,-0.1329323328827084, ,1.3530499935150146
0.01785321042206002,0.020722687089921064,-0.09879114887773688, ,0.018638504652987147,0.020369397345187716,-0.09959274650512714, ,0.0011764605514418599, ,0.023321646718567176,-0.003605847678929524,-0.03751573044114834,-0.003981286753942149,-0.038783959318665684,0.007785819937567312, ,0.04432077812586553, ,0.03898681612116887, ,0.0011392520376275576, ,0.2211636240520415,-0.19934690368235727,0.10998631763000001,1.676051718271803,0.4892953056600422,-1.331513689321684, ,0.15506036202364507,0.11337746900653618,0.040022139497487445,-0.03768995319540927,0.12669372022529082,-0.11152043662683016, ,1.3566670417785645
0.01785321042206002,0.020722687089921064,-0.09879114887773688, ,0.018724632745497006,0.02036295615524174,-0.09974310863321596, ,0.0013397800518000602, ,0.023321646718567176,-0.003605847678929524,-0.03751573044114834,-0.003981286753942149,-0.038783959318665684,0.007785819937567312, ,0.04432077812586553, ,0.03898681612116887, ,0.0011409092939430327, ,0.2211636240520415,-0.19934690368235727,0.10998631763000001,1.676051718271803,0.4892953056600422,-1.331513689321684, ,0.15506036202364507,0.11337746900653618,0.040022139497487445,-0.03768995319540927,0.12669372022529082,-0.11152043662683016, ,1.3603219985961914
0.01785321042206002,0.020722687089921064,-0.09879114887773688, ,0.018810766103009493,0.020356528161945355,-0.09989272147865536, ,0.0015048081066199857, ,0.023321646718567176,-0.003605847678929524,-0.03751573044114834,-0.003981286753942149,-0.038783959318665684,0.007785819937567312, ,0.04432077812586553, ,0.03898681612116887, ,0.0011438920710961226, ,0.2211636240520415,-0.19934690368235727,0.10998631763000001,1.676051718271803,0.4892953056600422,-1.331513689321684, ,0.15506036202364507,0.11337746900653618,0.040022139497487445,-0.03768995319540927,0.12669372022529082,-0.11152043662683016, ,1.3639841079711914
0.01808571458679446,0.020695474216330546,-0.09917372445723438, ,0.01889690163154554,0.020350115812255473,-0.10004158245668075, ,0.0012371234198900005, ,0.02335136860369563,-0.0020071678897267994,-0.038629478976767766,0.008963443028222667,-0.035087150350449396,0.02997088538378367, ,0.045183534441428495, ,0.036212779673235655, ,0.0011446500495416012, ,0.22269272516113797,-0.1982888892785885,0.11039594527000002,1.6756323383848342,0.49066167065769667,-1.332627868358648, ,0.1520784319847288,0.09864546939549977,0.04148128,-0.05752999844433763,0.13133806270147186,-0.11430166871729723, ,1.367652177810669
0.01808571458679446,0.020695474216330546,-0.09917372445723438, ,0.018983036263272,0.020343721539294896,-0.10018968902139361, ,0.00140039284934816, ,0.02335136860369563,-0.0020071678897267994,-0.038629478976767766,0.008963443028222667,-0.035087150350449396,0.02997088538378367, ,0.045183534441428495, ,0.036212779673235655, ,0.001146712491475525, ,0.22269272516113797,-0.1982888892785885,0.11039594527000002,1.6756323383848342,0.49066167065769667,-1.332627868358648, ,0.1520784319847288,0.09864546939549977,0.04148128,-0.05752999844433763,0.13133806270147186,-0.11430166871729723, ,1.3712620735168457
0.018313367224344977,0.020679301965253673,-0.09955506389992957, ,0.019069166956430506,0.020337347762379502,-0.10033703866564914, ,0.0011400221252703961, ,0.022446985193781476,-0.0021529279221750783,-0.03909973276405104,0.014588346133569597,-0.015618323779879166,0.016695028429226034, ,0.04513636388930917, ,0.021369616207651026, ,0.001146658968545884, ,0.22415232167436638,-0.19733127040218468,0.11080557291000001,1.6756323383848342,0.4918913991555856,-1.3336306294919162, ,0.1427021677570989,0.09999677719543813,0.04202852643799473,-0.0453227554364449,0.1336558355880678,-0.11541473594709117, ,1.3752009868621826
0.018313367224344977,0.020679301965253673,-0.09955506389992957, ,0.019155290695266856,0.020330996887046565,-0.10048362892094598, ,0.001300916813885191, ,0.022446985193781476,-0.0021529279221750783,-0.03909973276405104,0.014588346133569597,-0.015618323779879166,0.016695028429226034, ,0.04513636388930917, ,0.021369616207651026, ,0.0011478832371596879, ,0.22415232167436638,-0.19733127040218468,0.11080557291000001,1.6756323383848342,0.4918913991555856,-1.3336306294919162, ,0.1427021677570989,0.09999677719543813,0.04202852643799473,-0.0453227554364449,0.1336558355880678,-0.11541473594709117, ,1.3790841102600098
0.018313367224344977,0.020679301965253673,-0.09955506389992957, ,0.019241404489959296,0.020324671305081365,-0.10062945735731439, ,0.001463330917043185, ,0.022446985193781476,-0.0021529279221750783,-0.03909973276405104,0.014588346133569597,-0.015618323779879166,0.016695028429226034, ,0.04513636388930917, ,0.021369616207651026, ,0.0011503670771587705, ,0.22415232167436638,-0.19733127040218468,0.11080557291000001,1.6756323383848342,0.4918913991555856,-1.3336306294919162, ,0.1427021677570989,0.09999677719543813,0.04202852643799473,-0.0453227554364449,0.1336558355880678,-0.11541473594709117, ,1.3826820850372314
0.018539329476239805,0.02065842351855516,-0.0999617507290641, ,0.01932750537654779,0.020318373394544828,-0.10077452158320532, ,0.0011821386543071823, ,0.02188522427022838,-0.00147400312198962,-0.04020326675490193,0.027497172509069898,0.0027690550124201013,-0.03189506887927815, ,0.04579779890265067, ,0.027634346984559983, ,0.0011506152926052426, ,0.22555013632460102,-0.19629642419703858,0.11123983006000002,1.6754226484413495,0.49339440065300544,-1.3348562264325765, ,0.13216844228199273,0.09723047290826925,0.04293480194070081,0.007346572164151825,0.13660757739598964,-0.11717021999507003, ,1.3862550258636475
0.018539329476239805,0.02065842351855516,-0.0999617507290641, ,0.019413590416862577,0.02031210551980101,-0.10091881924537949, ,0.0013417333913568017, ,0.02188522427022838,-0.00147400312198962,-0.04020326675490193,0.027497172509069898,0.0027690550124201013,-0.03189506887927815, ,0.04579779890265067, ,0.027634346984559983, ,0.0011520968282544793, ,0.22555013632460102,-0.19629642419703858,0.11123983006000002,1.6754226484413495,0.49339440065300544,-1.3348562264325765, ,0.13216844228199273,0.09723047290826925,0.04293480194070081,0.007346572164151825,0.13660757739598964,-0.11717021999507003, ,1.389794111251831
0.018539329476239805,0.02065842351855516,-0.0999617507290641, ,0.019499656698453317,0.020305870031544562,-0.10106234802879585, ,0.0015026099797034714, ,0.02188522427022838,-0.00147400312198962,-0.04020326675490193,0.027497172509069898,0.0027690550124201013,-0.03189506887927815, ,0.04579779890265067, ,0.027634346984559983, ,0.0011547930832656254, ,0.22555013632460102,-0.19629642419703858,0.11123983006000002,1.6754226484413495,0.49339440065300544,-1.3348562264325765, ,0.13216844228199273,0.09723047290826925,0.04293480194070081,0.007346572164151825,0.13660757739598964,-0.11717021999507003, ,1.393369197845459
0.018762408358685086,0.020651745720041022,-0.10037489629279696, ,0.019585701334517657,0.020299669266827962,-0.10120510565650057, ,0.0012210719637038134, ,0.023029972602079545,-6.902723159612627e-05,-0.04348558690879851,0.02051942073003249,-0.01347902294328504,-0.0068060186411884405, ,0.04920752657484325, ,0.024547406949234615, ,0.0011552990289178252, ,0.22687072364609343,-0.19537741898500588,0.11168186495000001,1.6756323383848342,0.49462412915089443,-1.335940666305985, ,0.1340352281899305,0.08860592115636862,0.04657547228070176,-0.016439846217744816,0.12664574882567456,-0.1071793661510698, ,1.3969759941101074
0.018762408358685086,0.020651745720041022,-0.10037489629279696, ,0.019671721463830658,0.020293505549089427,-0.10134708988951642, ,0.0013785306426682116, ,0.023029972602079545,-6.902723159612627e-05,-0.04348558690879851,0.02051942073003249,-0.01347902294328504,-0.0068060186411884405, ,0.04920752657484325, ,0.024547406949234615, ,0.0011569901775068433, ,0.22687072364609343,-0.19537741898500588,0.11168186495000001,1.6756323383848342,0.49462412915089443,-1.335940666305985, ,0.1340352281899305,0.08860592115636862,0.04657547228070176,-0.016439846217744816,0.12664574882567456,-0.1071793661510698, ,1.4005610942840576
0.018762408358685086,0.020651745720041022,-0.10037489629279696, ,0.01975771425067263,0.020287381188179063,-0.10148829852673023, ,0.0015372247282787622, ,0.023029972602079545,-6.902723159612627e-05,-0.04348558690879851,0.02051942073003249,-0.01347902294328504,-0.0068060186411884405, ,0.04920752657484325, ,0.024547406949234615, ,0.0011598490839036248, ,0.22687072364609343,-0.19537741898500588,0.11168186495000001,1.6756323383848342,0.49462412915089443,-1.335940666305985, ,0.1340352281899305,0.08860592115636862,0.04657547228070176,-0.016439846217744816,0.12664574882567456,-0.1071793661510698, ,1.4041199684143066
0.019002227246855408,0.020655216426469884,-0.10082898932104063, ,0.019843676884759246,0.02028129848038814,-0.10162872940478333, ,0.0012196049873115778, ,0.023859154013303737,0.0006206813604384784,-0.04443590742410804,0.03280688815991458,-0.009766413395538534,-0.01866955281592086, ,0.05044000737693882, ,0.03422720398363247, ,0.001160295023481296, ,0.22826081556345384,-0.1944970274373443,0.11216926999000001,1.6754226484413495,0.49599049414854884,-1.3370548453429492, ,0.13894134928033788,0.08397959429953167,0.04783426882882884,-0.0031414406783751526,0.13279020864469052,-0.11185994790690032, ,1.4078600406646729
0.019002227246855408,0.020655216426469884,-0.10082898932104063, ,0.019929606581169438,0.02027525970847486,-0.10176838039795935, ,0.0013736284550986836, ,0.023859154013303737,0.0006206813604384784,-0.04443590742410804,0.03280688815991458,-0.009766413395538534,-0.01866955281592086, ,0.05044000737693882, ,0.03422720398363247, ,0.0011618752711229066, ,0.22826081556345384,-0.1944970274373443,0.11216926999000001,1.6754226484413495,0.49599049414854884,-1.3370548453429492, ,0.13894134928033788,0.08397959429953167,0.04783426882882884,-0.0031414406783751526,0.13279020864469052,-0.11185994790690032, ,1.411803960800171
0.01917567120606063,0.020657158549846708,-0.10114755382840913, ,0.020015500580274913,0.02026926714169293,-0.10190724941807362, ,0.0011970424016167322, ,0.023338568329733998,-4.4250096139668185e-05,-0.04179222625985782,0.038266773483163284,-0.002783888776644173,-0.006855840059288464, ,0.047867326074346586, ,0.038366241660060106, ,0.0011621338529647727, ,0.2292879390357257,-0.1938792088074063,0.11251278684000002,1.675212958497865,0.49708358614667236,-1.3379461885725208, ,0.13975985501983915,0.08427792323132396,0.04512411195467422,-0.015829492642091474,0.14323715117659938,-0.12017474926975047, ,1.4156720638275146
0.01917567120606063,0.020657158549846708,-0.10114755382840913, ,0.020101356147668458,0.020263323035818043,-0.10204533441436142, ,0.001348335642094559, ,0.023338568329733998,-4.4250096139668185e-05,-0.04179222625985782,0.038266773483163284,-0.002783888776644173,-0.006855840059288464, ,0.047867326074346586, ,0.038366241660060106, ,0.0011634929901117054, ,0.2292879390357257,-0.1938792088074063,0.11251278684000002,1.675212958497865,0.49708358614667236,-1.3379461885725208, ,0.13975985501983915,0.08427792323132396,0.04512411195467422,-0.015829492642091474,0.14323715117659938,-0.12017474926975047, ,1.4192931652069092
0.01917567120606063,0.020657158549846708,-0.10114755382840913, ,0.02018717057409324,0.02025742963317603,-0.10218263337336747, ,0.001501433928864085, ,0.023338568329733998,-4.4250096139668185e-05,-0.04179222625985782,0.038266773483163284,-0.002783888776644173,-0.006855840059288464, ,0.047867326074346586, ,0.038366241660060106, ,0.0011659418374939691, ,0.2292879390357257,-0.1938792088074063,0.11251278684000002,1.675212958497865,0.49708358614667236,-1.3379461885725208, ,0.13975985501983915,0.08427792323132396,0.04512411195467422,-0.015829492642091474,0.14323715117659938,-0.12017474926975047, ,1.4228851795196533
0.0194707930683046,0.02064901595735355,-0.10164147209724837, ,0.020272941175371734,0.02025158916267017,-0.1023191443188346, ,0.0011227774858418296, ,0.022045399959263783,-0.0008756331369314655,-0.03547031698582456,0.008404703564746692,-0.03424387737774834,0.03987069677630922, ,0.041772117253369795, ,0.035259410559873694, ,0.001165631302589997, ,0.23111050399404268,-0.1928289171365118,0.11304815461,1.6745838886674116,0.49872322414385767,-1.3392015246767373, ,0.13833373405024896,0.07740370437069395,0.038568550895883784,-0.061400285058040786,0.11845441426158608,-0.09438878357843089, ,1.4264559745788574
0.0194707930683046,0.02064901595735355,-0.10164147209724837, ,0.020358665292334016,0.02024580383980798,-0.10245486531159202, ,0.001269844722428225, ,0.022045399959263783,-0.0008756331369314655,-0.03547031698582456,0.008404703564746692,-0.03424387737774834,0.03987069677630922, ,0.041772117253369795, ,0.035259410559873694, ,0.00116637568416027, ,0.23111050399404268,-0.1928289171365118,0.11304815461,1.6745838886674116,0.49872322414385767,-1.3392015246767373, ,0.13833373405024896,0.07740370437069395,0.038568550895883784,-0.061400285058040786,0.11845441426158608,-0.09438878357843089, ,1.4300270080566406
0.0194707930683046,0.02064901595735355,-0.10164147209724837, ,0.020444340290747143,0.020240075866729303,-0.10258979444944508, ,0.001419274982419279, ,0.022045399959263783,-0.0008756331369314655,-0.03547031698582456,0.008404703564746692,-0.03424387737774834,0.03987069677630922, ,0.041772117253369795, ,0.035259410559873694, ,0.0011681692962046601, ,0.23111050399404268,-0.1928289171365118,0.11304815461,1.6745838886674116,0.49872322414385767,-1.3392015246767373, ,0.13833373405024896,0.07740370437069395,0.038568550895883784,-0.061400285058040786,0.11845441426158608,-0.09438878357843089, ,1.4335451126098633
0.019688201370629717,0.020639691087178183,-0.10198910058275909, ,0.02052996356124408,0.020234407432233596,-0.10272392986706336, ,0.0011886094832131609, ,0.021686936819966376,-0.0007848906152320041,-0.03531462536380874,0.04038324846768296,0.003772142850370355,-0.04209472435940856, ,0.04144951201760108, ,0.040558364033981484, ,0.0011683132411835933, ,0.2324774277127804,-0.1920489211162151,0.11342667129000002,1.674374198723927,0.4999529526417466,-1.3401226070698642, ,0.1353736684143663,0.07927898208727718,0.03847539014492755,0.02391947524688222,0.13756955642111962,-0.10843561543242246, ,1.437162160873413
0.019688201370629717,0.020639691087178183,-0.10198910058275909, ,0.02061553251925226,0.020228800711807368,-0.10285726973587009, ,0.0013350998607562824, ,0.021686936819966376,-0.0007848906152320041,-0.03531462536380874,0.04038324846768296,0.003772142850370355,-0.04209472435940856, ,0.04144951201760108, ,0.040558364033981484, ,0.0011694795811806051, ,0.2324774277127804,-0.1920489211162151,0.11342667129000002,1.674374198723927,0.4999529526417466,-1.3401226070698642, ,0.1353736684143663,0.07927898208727718,0.03847539014492755,0.02391947524688222,0.13756955642111962,-0.10843561543242246, ,1.44081711769104
0.019688201370629717,0.020639691087178183,-0.10198910058275909, ,0.020701044604922555,0.020223257867651133,-0.10298981226393043, ,0.0014834729227091463, ,0.021686936819966376,-0.0007848906152320041,-0.03531462536380874,0.04038324846768296,0.003772142850370355,-0.04209472435940856, ,0.04144951201760108, ,0.040558364033981484, ,0.0011716600904967756, ,0.23381346050002125,-0.19126892509591842,0.11381555829000001,1.674374198723927,0.5014559541391664,-1.3412665252703846, ,0.13290888173455292,0.07591755324677663,0.03894574943765281,0.01826774399787526,0.1561257769063781,-0.12315611051405691, ,1.445763111114502
0.01990346877275507,0.0206326361862463,-0.10234600658674178, ,0.020786497283058192,0.02021778104870753,-0.10312155569584064, ,0.0012463228136299566, ,0.021462567890111976,-0.0004299524167005928,-0.035667901748485296,0.05761687097177877,0.023313494889446954,-0.03629522009088783, ,0.04162962760652433, ,0.06215436538463331, ,0.0011721750058287285, ,0.23381346050002125,-0.19126892509591842,0.11381555829000001,1.674374198723927,0.5014559541391664,-1.3412665252703846, ,0.13290888173455292,0.07591755324677663,0.03894574943765281,0.01826774399787526,0.1561257769063781,-0.12315611051405691, ,1.449714183807373
0.01990346877275507,0.0206326361862463,-0.10234600658674178, ,0.02087188804304369,0.020212372390688287,-0.10325249831261718, ,0.0013914685731283064, ,0.021462567890111976,-0.0004299524167005928,-0.035667901748485296,0.05761687097177877,0.023313494889446954,-0.03629522009088783, ,0.04162962760652433, ,0.06215436538463331, ,0.001173677016563657, ,0.23381346050002125,-0.19126892509591842,0.11381555829000001,1.674374198723927,0.5014559541391664,-1.3412665252703846, ,0.13290888173455292,0.07591755324677663,0.03894574943765281,0.01826774399787526,0.1561257769063781,-0.12315611051405691, ,1.4533140659332275
0.020116989905068654,0.020630228800673014,-0.1026987688043843, ,0.020957214398773495,0.020207034016101577,-0.10338263843158475, ,0.0011630772513110648, ,0.02108988344142031,-0.0001112726235558273,-0.03497904707586868,0.06704678018952918,0.039796968094084534,-0.009905036426125967, ,0.04084518698090737, ,0.07796805139551657, ,0.001173604909317041, ,0.23514177055438787,-0.19053526547286712,0.11420185271000001,1.6745838886674116,0.5030955921363518,-1.3423585038943198, ,0.13161850424198443,0.07029403078405243,0.038382678361445786,-0.006318216643779184,0.1764490514257636,-0.1318683226247812, ,1.456866979598999
0.020116989905068654,0.020630228800673014,-0.1026987688043843, ,0.02104247388858123,0.02020176803428011,-0.10351197440626614, ,0.0013043782361754949, ,0.02108988344142031,-0.0001112726235558273,-0.03497904707586868,0.06704678018952918,0.039796968094084534,-0.009905036426125967, ,0.04084518698090737, ,0.07796805139551657, ,0.0011744885128768953, ,0.23514177055438787,-0.19053526547286712,0.11420185271000001,1.6745838886674116,0.5030955921363518,-1.3423585038943198, ,0.13161850424198443,0.07029403078405243,0.038382678361445786,-0.006318216643779184,0.1764490514257636,-0.1318683226247812, ,1.4604849815368652
0.020116989905068654,0.020630228800673014,-0.1026987688043843, ,0.021127664075168282,0.02019657654140762,-0.10364050462627024, ,0.0014478891250008501, ,0.02108988344142031,-0.0001112726235558273,-0.03497904707586868,0.06704678018952918,0.039796968094084534,-0.009905036426125967, ,0.04084518698090737, ,0.07796805139551657, ,0.0011763234163139687, ,0.23514177055438787,-0.19053526547286712,0.11420185271000001,1.6745838886674116,0.5030955921363518,-1.3423585038943198, ,0.13161850424198443,0.07029403078405243,0.038382678361445786,-0.006318216643779184,0.1764490514257636,-0.1318683226247812, ,1.4641740322113037
0.020316390599521894,0.02062997745838344,-0.10302112855117611, ,0.021212782545532494,0.020191461620546757,-0.10376822751718143, ,0.0012465839425856945, ,0.02171183679853728,-0.0003110769643843719,-0.034326882435676956,-0.003442971100381848,-0.03081527423553419,-0.006253024985934545, ,0.040618166918226076, ,0.0310062496000167, ,0.0011767918198224469, ,0.23637740781426378,-0.18989427864430647,0.11455573988000001,1.6745838886674116,0.5044619571340061,-1.3431459679707216, ,0.13253762787495918,0.07029403078405243,0.03756795169811321,-0.005922753648265769,0.10515033193877239,-0.06269336316379266, ,1.4678351879119873
0.020316390599521894,0.02062997745838344,-0.10302112855117611, ,0.02129782691089779,0.020186425341666776,-0.10389514154044803, ,0.001387030792357184, ,0.02171183679853728,-0.0003110769643843719,-0.034326882435676956,-0.003442971100381848,-0.03081527423553419,-0.006253024985934545, ,0.040618166918226076, ,0.0310062496000167, ,0.001178184130898836, ,0.23637740781426378,-0.18989427864430647,0.11455573988000001,1.6745838886674116,0.5044619571340061,-1.3431459679707216, ,0.13253762787495918,0.07029403078405243,0.03756795169811321,-0.005922753648265769,0.10515033193877239,-0.06269336316379266, ,1.471487045288086
0.020559563391932604,0.020623837961995243,-0.10339495017556521, ,0.021382794806642104,0.02018146976167036,-0.10402124519327123, ,0.0011250089048654949, ,0.02171183679853728,-0.0003110769643843719,-0.034326882435676956,-0.003442971100381848,-0.03081527423553419,-0.006253024985934545, ,0.040618166918226076, ,0.0310062496000167, ,0.0011778342938854587, ,0.23782155886174378,-0.18910655989113556,0.11496277494000001,1.6745838886674116,0.5048718666333024,-1.3430718279811082, ,0.1338461799132169,0.07507669427094206,0.03783565681710214,-0.0052663702231067755,0.0009721888790959559,0.04026761186762779, ,1.4751391410827637
0.020559563391932604,0.020623837961995243,-0.10339495017556521, ,0.021467683892227044,0.02017659692442156,-0.10414653700849452, ,0.0012607894971714004, ,0.02294874985724811,-0.0008178213735970069,-0.03487045969218899,-0.11286293555192264,-0.13396166507166538,-0.0014599009394271256, ,0.04175240006220283, ,0.1751676864409771, ,0.0011783764847566086, ,0.23782155886174378,-0.18910655989113556,0.11496277494000001,1.6745838886674116,0.5048718666333024,-1.3430718279811082, ,0.1338461799132169,0.07507669427094206,0.03783565681710214,-0.0052663702231067755,0.0009721888790959559,0.04026761186762779, ,1.4821159839630127
0.020781087674174338,0.02061324755905502,-0.10373941737824266, ,0.021552491851126166,0.020171808860772848,-0.10427101555449131, ,0.0010356298323004577, ,0.0209803148085801,-0.0008692228510732009,-0.032633266057586846,0.0908715316249199,0.05819439895692867,-0.019242192921792148, ,0.038805401832956235, ,0.10790823101697358, ,0.0011774495584419584, ,0.23920392804622997,-0.18834200933658735,0.11534129162000001,1.674374198723927,0.5063748681307223,-1.3442157461816284, ,0.13441493138593594,0.07216497456917931,0.03611975401360545,0.0,0.1968158942398533,-0.15582540386913316, ,1.4859161376953125
0.020781087674174338,0.02061324755905502,-0.10373941737824266, ,0.021637216390754267,0.020167107588592675,-0.10439467943505516, ,0.00116677573496156, ,0.0209803148085801,-0.0008692228510732009,-0.032633266057586846,0.0908715316249199,0.05819439895692867,-0.019242192921792148, ,0.038805401832956235, ,0.10790823101697358, ,0.0011773806950646656, ,0.23920392804622997,-0.18834200933658735,0.11534129162000001,1.674374198723927,0.5063748681307223,-1.3442157461816284, ,0.13441493138593594,0.07216497456917931,0.03611975401360545,0.0,0.1968158942398533,-0.15582540386913316, ,1.4895281791687012
0.020781087674174338,0.02061324755905502,-0.10373941737824266, ,0.021721855242396164,0.020162495112793118,-0.10451752728928772, ,0.0013014132390965, ,0.0209803148085801,-0.0008692228510732009,-0.032633266057586846,0.0908715316249199,0.05819439895692867,-0.019242192921792148, ,0.038805401832956235, ,0.10790823101697358, ,0.001178175775475126, ,0.23920392804622997,-0.18834200933658735,0.11534129162000001,1.674374198723927,0.5063748681307223,-1.3442157461816284, ,0.13441493138593594,0.07216497456917931,0.03611975401360545,0.0,0.1968158942398533,-0.15582540386913316, ,1.4931180477142334
0.020983778784195592,0.02060325685315,-0.10404302966662986, ,0.021806406161135362,0.020157973425356877,-0.1046395577914876, ,0.001109431807775629, ,0.020424284822293973,-0.0013588059472328658,-0.02848436004774174,0.07272928598026303,0.031998442355800925,-0.004117742012395114, ,0.03507643840862138, ,0.07945709912308227, ,0.00117773791580825, ,0.24051679263484813,-0.18767013157652981,0.11567832702000001,1.6739548188369582,0.508151142627673,-1.3456641789296817, ,0.13615056177685905,0.06822210032959797,0.031857623040000005,-0.014811859495379845,0.1745588785048062,-0.13797607902341374, ,1.4966840744018555
0.020983778784195592,0.02060325685315,-0.10404302966662986, ,0.021890866925783126,0.020153544505364943,-0.10476076965103967, ,0.0012410482575547458, ,0.020424284822293973,-0.0013588059472328658,-0.02848436004774174,0.07272928598026303,0.031998442355800925,-0.004117742012395114, ,0.03507643840862138, ,0.07945709912308227, ,0.0011781386141737345, ,0.24051679263484813,-0.18767013157652981,0.11567832702000001,1.6739548188369582,0.508151142627673,-1.3456641789296817, ,0.13615056177685905,0.06822210032959797,0.031857623040000005,-0.014811859495379845,0.1745588785048062,-0.13797607902341374, ,1.5002520084381104
0.020983778784195592,0.02060325685315,-0.10404302966662986, ,0.021975235338807256,0.02014921031902377,-0.10488116161230354, ,0.0013753579582033281, ,0.020424284822293973,-0.0013588059472328658,-0.02848436004774174,0.07272928598026303,0.031998442355800925,-0.004117742012395114, ,0.03507643840862138, ,0.07945709912308227, ,0.0011793789874066248, ,0.24051679263484813,-0.18767013157652981,0.11567832702000001,1.6739548188369582,0.508151142627673,-1.3456641789296817, ,0.13615056177685905,0.06822210032959797,0.031857623040000005,-0.014811859495379845,0.1745588785048062,-0.13797607902341374, ,1.5038189888000488
0.021183312638264895,0.02058706474859676,-0.10431230250856507, ,0.022059509226261508,0.02014497281969369,-0.10500073245450284, ,0.0011987916936991242, ,0.021065920950767463,-0.0016263015297956877,-0.02904456268362049,0.012318984985063163,-0.02745748394655842,-0.0021178140063273336, ,0.03591663268810927, ,0.030094021773634017, ,0.001179500316820953, ,0.24183737995634053,-0.18699053108359806,0.11597906630000002,1.6739548188369582,0.5095175076253274,-1.346615000486365, ,0.1353736684143663,0.0710306448790949,0.03224455773279353,-0.014811859495379845,0.11303928738201731,-0.08158506260019574, ,1.5073931217193604
0.021183312638264895,0.02058706474859676,-0.10431230250856507, ,0.022143686437713136,0.020140833947914438,-0.1051194809916131, ,0.0013315317741758716, ,0.021065920950767463,-0.0016263015297956877,-0.02904456268362049,0.012318984985063163,-0.02745748394655842,-0.0021178140063273336, ,0.03591663268810927, ,0.030094021773634017, ,0.0011804446115871326, ,0.24183737995634053,-0.18699053108359806,0.11597906630000002,1.6739548188369582,0.5095175076253274,-1.346615000486365, ,0.1353736684143663,0.0710306448790949,0.03224455773279353,-0.014811859495379845,0.11303928738201731,-0.08158506260019574, ,1.511155128479004
0.021183312638264895,0.02058706474859676,-0.10431230250856507, ,0.022227764846173274,0.020136795631434404,-0.10523740607225189, ,0.0014660966189241767, ,0.021065920950767463,-0.0016263015297956877,-0.02904456268362049,0.012318984985063163,-0.02745748394655842,-0.0021178140063273336, ,0.03591663268810927, ,0.030094021773634017, ,0.0011822078955830402, ,0.24183737995634053,-0.18699053108359806,0.11597906630000002,1.6739548188369582,0.5095175076253274,-1.346615000486365, ,0.1353736684143663,0.0710306448790949,0.03224455773279353,-0.014811859495379845,0.11303928738201731,-0.08158506260019574, ,1.5150060653686523
