NicholasDascanio/dvrk_moveit_final/test/execution/third_experiment_notsharpbends/thirdexp_300vel4.0/thirdexp_300vel4.0_27.csv
Current Position (x),Current Position (y),Current Position (z), ,Planned Position (x),Planned Position (y),Planned Position (z), ,Position Error,,Cartesian linear Velocity(x),Cartesian linear Velocity(y),Cartesian linear Velocity(z),Cartesian Angular Velocity(x),Cartesian Angular Velocity(y),Cartesian Angular Velocity(z), ,Total Linear Velocity, ,Total Angular Velocity, ,MSE, ,Joint 1 Position,Joint 2 Position,Joint 3 Position,Joint 4 Position,Joint 5 Position,Joint 6 Position, ,Joint 1 Velocity,Joint 2 Velocity,Joint 3 Velocity,Joint 4 Velocity,Joint 5 Velocity,Joint 6 Velocity, ,Time Stamp
0.008861138623775338,0.020856067168237603,-0.07856228599088488, ,0.009060931018355544,0.02080934061772076,-0.0787485207551853, ,0.00027709882513163, ,5.87511276211223e-05,-3.6398632556235445e-05,-5.746838474714941e-05,0.2396854540125051,0.009758736183912922,-0.10461844522230522, ,8.988420714543594e-05, ,0.23988403406039324, ,2.3091568760969165e-05, ,0.16770686709665944,-0.2520313873503169,0.08928456633000001,1.687165285276483,0.5055550491321297,-1.2241329206739477, ,0.00049350435821039,0.0016106331871776963,5.237617809959706e-05,0.018325819591524965,0.0,-0.253707876351676, ,0.036401987075805664
0.008911001474350035,0.020871405816529687,-0.07865826399189667, ,0.009144084545832109,0.020816003639072687,-0.07894643703919338, ,0.00037475435243205233, ,0.00155054281735058,0.0012597096954875728,-0.005734983094895295,0.2343084577321472,-0.019531758985498488,-0.10465871193651659, ,0.006072979717081038, ,0.23512112403542387, ,2.9629689889258284e-05, ,0.1677840944254017,-0.25193871455582617,0.08937271405000001,1.687165285276483,0.5021391366379937,-1.230005419536437, ,0.004706882354406021,0.003442954704277297,0.005912699153674834,0.012618360731289585,-0.024304724709540964,-0.25246671591273806, ,0.07243204116821289
0.008994050599319767,0.020905966893270105,-0.07887022908556207, ,0.00922729576600623,0.02082221636558986,-0.07914330098895585, ,0.0003687624209330651, ,0.0018293340667847279,0.0005309000382203988,-0.004474922225741772,-0.17842454650618725,-0.049959444654534876,0.03956143918546008, ,0.004863460383813079, ,0.18528697985647472, ,3.189423745302335e-05, ,0.168069835541748,-0.2517070325695994,0.08958271303000001,1.687165285276483,0.499133133643154,-1.234578597307204, ,0.00915139307732947,0.007958525099092405,0.004480678345991561,0.009098262899457846,-0.04095447436133138,0.17955014919195925, ,0.11278390884399414
0.009060376471851974,0.02092100292561671,-0.07906504513094131, ,0.009310562959955753,0.020827984083678378,-0.07933911963568924, ,0.0003825736764834587, ,0.0018096514577472234,0.0002016926005228818,-0.0044809172967219075,0.003118432175880468,0.0039351458823459595,-0.0017610965697345512, ,0.0048367487141357576, ,0.0050209551426421625, ,3.3409268451909666e-05, ,0.16867220870593752,-0.251243668597146,0.08978882314000002,1.6873749752199676,0.5010460446398701,-1.231646117251223, ,0.014906839704440901,0.011928619984915012,0.004638558974956319,0.0,0.019279231596232464,-0.014308658073867817, ,0.14980483055114746
0.00914940908969207,0.02093212578197214,-0.07928357937938643, ,0.00939388441621173,0.020833312059243374,-0.07953389998454194, ,0.0003635831987892604, ,0.0023894341762223338,0.0002602096489185294,-0.005600919744254361,0.020077879650867925,-0.012341268264817027,-0.013241679278247159, ,0.006094867244285797, ,0.02356752316530259, ,3.397639372633589e-05, ,0.16931319553449814,-0.2506876318302018,0.09001178502000001,1.6873749752199676,0.5010460446398701,-1.2330346558336125, ,0.018245903010665403,0.014597283734574801,0.005742181514059121,0.0,0.005371964617710297,-0.0361965545360297, ,0.18695902824401855
0.00921708640488766,0.020940066193851775,-0.07945225845404685, ,0.009477258430746826,0.020838205537718563,-0.07972764901463349, ,0.00039230732489691227, ,0.002196872391110949,0.00015454256950976012,-0.005445959041083239,-0.022844474531300788,-0.015860833627458878,0.0006221327239697229, ,0.005874402232208183, ,0.027810718350642794, ,3.482386772042546e-05, ,0.16980745043844853,-0.25026288152211945,0.09018419159,1.687165285276483,0.5011826811396356,-1.2332277524774495, ,0.01559010046960256,0.015176226060846117,0.0055250820395421445,-0.0004111764333448761,0.0,0.008305193608238512, ,0.22281789779663086
0.009301049328748884,0.02094744941959957,-0.0796565181663575, ,0.009560683306964175,0.02084266974409596,-0.0799203736790952, ,0.0003847184875264129, ,0.0019646973810847094,0.00030336688753645227,-0.005204316145468281,0.00012224848564326276,0.003838206081982829,-0.0006691455818997934, ,0.0055710837194998695, ,0.003840151924360092, ,3.533053175267766e-05, ,0.17046388273275762,-0.2497068447551753,0.09039419057,1.687165285276483,0.5017292271386973,-1.2337551028323759, ,0.015089353086098073,0.01275496526323532,0.005383173883068606,-0.0004592191636022074,0.019531250544761403,-0.01205090496270563, ,0.2601649761199951
0.009362700489189075,0.020951675923773148,-0.0798000614262221, ,0.009644157355685844,0.02084670988295591,-0.08011208090510867, ,0.00043311891280302037, ,0.0023407472460643354,0.00048162513514577484,-0.0058427600095602465,0.00036843572140318997,-0.004839401786913154,-0.0024935391245576545, ,0.006312598907746191, ,0.0048534057863397154, ,3.675206418513348e-05, ,0.17095813763670797,-0.24930526264571562,0.09054196763000001,1.687165285276483,0.5021391366379937,-1.2340076778033244, ,0.01766510453433931,0.01258246374416213,0.006061191598173516,-0.0004694328613745479,0.013181382436241507,-0.01262405135352406, ,0.29248881340026855
0.009442363426503331,0.020972419016663035,-0.08000097752010808, ,0.00972767889514158,0.020850331138496603,-0.08030277759394572, ,0.00043288988346673965, ,0.0024086339072739524,0.000547126363402666,-0.006207824806805605,0.007371207953471985,0.0033004651393954906,-0.0022539082827742795, ,0.006681164074380381, ,0.008076370943091217, ,3.7886745360695015e-05, ,0.17153734260227482,-0.24893457146775286,0.09075067032,1.6869555953329984,0.5024124096375245,-1.2342305136107172, ,0.018549050343719856,0.012939315729270628,0.006475126634146342,-0.0007661842904602298,0.022478728020313338,-0.019772509853283864, ,0.32489895820617676
0.009516739174741932,0.020987445913447162,-0.08018016291964639, ,0.009811246250957383,0.02085353867456444,-0.08049247062100821, ,0.0004496683965947303, ,0.0024754353813764983,0.0003786817724501277,-0.0056840040140825445,0.01990025123104239,0.017638519991852796,-0.0017802418639782003, ,0.00621120615052045, ,0.02659205484028319, ,3.89846007985584e-05, ,0.17214743849933856,-0.24854843482404163,0.09093863237000001,1.6869555953329984,0.5032322286361172,-1.235062378513177, ,0.022192923657266318,0.013510384618233314,0.006010872271698113,-0.0007560895303800436,0.04088851955671897,-0.0322626774359313, ,0.35692691802978516
0.009626077931953032,0.020995802495528876,-0.08040569093542788, ,0.00989485775614415,0.020856337634683666,-0.08068116683586737, ,0.0004093653783916447, ,0.0030084546813002547,0.0004054555038605465,-0.006526790170516574,-0.008019814776967902,-0.014114942132390024,-0.0022521997607081908, ,0.007198206975698879, ,0.016234192576583404, ,3.952630423563821e-05, ,0.1730432755127486,-0.24795378439272633,0.09117196457000001,1.6867459053895137,0.5036421381354135,-1.2353149534841257, ,0.023700534854762933,0.015468124133410071,0.006798468425096031,-0.00019742127800166607,0.009877169853430607,-0.006975001151274602, ,0.3892838954925537
0.009707844428910631,0.02099580957603296,-0.08056982776868865, ,0.009978511751086494,0.020858733142085792,-0.08086887306230285, ,0.0004260033282385577, ,0.0027082753394832818,-0.00012431822193451623,-0.005429837353610634,0.0026287778712092875,-0.0018622212983895965,-0.0040834711063407175, ,0.006069048032552022, ,0.003221542571567426, ,4.01268733819443e-05, ,0.17371515327280612,-0.2474440840230275,0.09134048227000001,1.6867459053895137,0.5039154111349443,-1.23578282551194, ,0.023495157602988554,0.01839088014699046,0.005596911988756149,-0.00019742127800166607,0.022089669594685238,-0.02037055529181968, ,0.4220118522644043
0.009790136104230837,0.020996305675654338,-0.08075490300558186, ,0.010062206583531085,0.020860730299740386,-0.08105559609834305, ,0.0004275738115169906, ,0.002714214462752933,-3.060739741788418e-05,-0.006234592984536901,0.012880994193603952,0.009252807279246246,-0.0022755699951240893, ,0.006799856369470655, ,0.01585983746898927, ,4.0654111088924396e-05, ,0.17438703103286365,-0.24688804725608335,0.09153103690000002,1.6865362154460295,0.5045985936337716,-1.2362582362902819, ,0.022877758331357467,0.019514073937583958,0.006443693980582525,-0.0033377463253738346,0.03353411420779389,-0.032124032266284575, ,0.4541189670562744
0.009869436185186917,0.020995049858451742,-0.08093221145409941, ,0.010145940608575621,0.020862334190384083,-0.08124134271630407, ,0.0004354655921842801, ,0.002533149019814681,-4.467228348371379e-05,-0.005990633335567005,0.0017251799211005562,-0.0012137271570679983,-0.001832027595091055, ,0.006504346802770159, ,0.002109353374017654, ,4.1169508069546326e-05, ,0.17498168146417895,-0.2463320104891392,0.09171122121000001,1.6865362154460295,0.5047352301335369,-1.2364513329341187, ,0.01976196200717842,0.01869522095320543,0.006131182263279446,-0.0033377463253738346,0.019676540843729277,-0.02047601213423348, ,0.48732995986938477
0.009969084611595878,0.020988827557172112,-0.0811544516280682, ,0.010229712188657302,0.02086354987655081,-0.08142611966282962, ,0.00039676788214004034, ,0.002335197249087697,-6.646492317903684e-05,-0.005793626040568895,0.011004182876764633,0.00937804185566719,-0.0034601636969297115, ,0.006246892545587602, ,0.014458205397086605, ,4.135174633006107e-05, ,0.17577712295022407,-0.24559062813321364,0.09193807196,1.686326525502545,0.5054184126323642,-1.237090101192741, ,0.01856719654832142,0.01836596507808608,0.00595247067264574,-0.0021059161649617107,0.02893472954177616,-0.02906325911757628, ,0.5203149318695068
0.010050718552684702,0.02099338703712357,-0.08134809931786216, ,0.010313519693541598,0.020864382400601823,-0.08160993365892959, ,0.0003927643798029647, ,0.0027261453977055696,0.00015431933790341105,-0.006383150803189815,-0.0068202476073917235,-0.012089726040876332,-0.0024235900150557346, ,0.006942643398860767, ,0.01388082283485949, ,4.175931481139315e-05, ,0.17637177338153937,-0.24505775956489215,0.09213640433,1.686326525502545,0.505691685631895,-1.2373946157402749, ,0.019936332260182935,0.017377209587707523,0.006541606373716633,-0.0021059161649617107,0.00845491992156916,-0.010659140017490553, ,0.5501558780670166
0.010131087698334243,0.020994291545246634,-0.08152818092891154, ,0.010397361500310821,0.020864836784755165,-0.0817927914000206, ,0.0003970881187514025, ,0.002689290848131061,0.00012735265712783138,-0.006282678177363041,0.010582287499983484,0.010450477201385065,-0.001580145577857836, ,0.006835243159203101, ,0.014872702265570205, ,4.215314981301976e-05, ,0.17680424642249593,-0.24469479111980358,0.09226214446000001,1.686326525502545,0.5062382316309569,-1.237921966095201, ,0.02207932563017003,0.0175800188140924,0.006536237800574478,-0.0021059161649617107,0.03372342098915705,-0.02743261813316119, ,0.579293966293335
0.010188841679430872,0.02099704716094692,-0.08165321665014853, ,0.010481235993352824,0.02086491803111606,-0.08197469955596472, ,0.00045420678164880663, ,0.003052315838045479,0.00015468563812661416,-0.006520226232078585,-0.005570488435213027,-0.013675713934406824,-0.0009269750071865501, ,0.0072009658893312095, ,0.014766701772501955, ,4.284946876030933e-05, ,0.17746840144967924,-0.24418509075010478,0.09245140280000001,1.6861168355590603,0.5066481411302531,-1.2383378985464308, ,0.023635601882558102,0.017694749498129922,0.006726694054054055,-0.0036844998173579417,0.011003594337913982,-0.012413479993687733, ,0.6084489822387695
0.010275292284539984,0.021000551469530976,-0.08183770520668393, ,0.010565141564349775,0.020864631121706393,-0.08215566477110949, ,0.0004512042005220018, ,0.0028172046354682165,8.310697726325589e-05,-0.005714956274114378,0.0016203149018644124,6.78494134627582e-05,-0.009875917690874803, ,0.00637214829887164, ,0.0016217329705706736, ,4.346542586507938e-05, ,0.178148001942611,-0.2436908358461544,0.09264195743,1.6856974556720912,0.5070580506295495,-1.2388355097378012, ,0.023448713011729867,0.016769206848996427,0.00595247067264574,0.007517003406445248,0.02217737716199801,-0.016203271055405217, ,0.6373269557952881
0.010364057507574517,0.021004017799210548,-0.08201935334966448, ,0.010649076612266642,0.020863981018494862,-0.08233569366432639, ,0.0004482380892707666, ,0.0029075239286470325,0.00013741307797810154,-0.006286396724805283,0.02378544877154907,0.014554172971437325,-0.01387503567803021, ,0.00692757977444483, ,0.02788496932630231, ,4.401170131263444e-05, ,0.17888166156566232,-0.2431811354764556,0.09283121577,1.6856974556720912,0.5077412331283767,-1.239474277996424, ,0.02469988067633284,0.0178713637586574,0.006593051125827815,0.007517003406445248,0.03801872950125857,-0.039684659838085674, ,0.6664118766784668
0.010454848956616662,0.021007957759129985,-0.08221033085498478, ,0.01073303954334003,0.020862972663426703,-0.08251479282905141, ,0.0004371587516796808, ,0.003054568998010244,7.849369083170565e-05,-0.006187487863781904,-0.007420110282499633,-0.020935268606078007,-0.013470157725637411, ,0.006900837564205814, ,0.022211337175952132, ,4.4454748922939674e-05, ,0.17957670752434252,-0.24265598964100832,0.09302825185000001,1.6856974556720912,0.5080145061279076,-1.2397787925439574, ,0.022916431190164403,0.01787809750536375,0.00635120076555024,0.007475182502830253,0.0,-0.009414472451734974, ,0.6952810287475586
0.010543795548515292,0.021011234373074558,-0.08239992473342637, ,0.0108170287710668,0.02086161097845371,-0.08269296883332371, ,0.0004276896054481401, ,0.002906669561218321,-1.3116609336781337e-05,-0.005859513508323937,0.011142096084410339,0.0007574579910095073,-0.002637814297376084, ,0.0065408561012901285, ,0.011167812715795544, ,4.4815006993262784e-05, ,0.18028719894877118,-0.2421153983398126,0.09322528793000001,1.6859071456155759,0.5086976886267348,-1.2403358820624395, ,0.024332549117556605,0.017557250982140758,0.00610299291954023,-0.003571852376940395,0.026324292468530228,-0.028840696056537208, ,0.7247428894042969
0.010603002868219665,0.02100876396828113,-0.0825197089807953, ,0.01090104271619272,0.020859900865564145,-0.0828702282198248, ,0.0004835821659864506, ,0.003020886226721729,-1.9632472086810403e-05,-0.006282981136826188,-0.005909944482444408,-0.016262673060493466,0.004133603257257919, ,0.006971512819644742, ,0.017303235797591042, ,4.5416267137687534e-05, ,0.18075828565409888,-0.24175242989472406,0.09334843548,1.6854877657286067,0.5089709616262656,-1.2405587178698323, ,0.02312303644212251,0.018298677508382332,0.006456753757600325,-0.010166273686552044,0.009350723796401832,-0.014014877272099746, ,0.7530310153961182
0.010689939732867852,0.021011700150568607,-0.08271298324688307, ,0.010985079806701194,0.020857847206812417,-0.08304657750591893, ,0.00047123616281698595, ,0.0030945356723517657,7.255320717324063e-05,-0.0070606276639573464,-0.003202617290973159,-0.004726786065406011,0.004197947045345516, ,0.007709337066464826, ,0.005709574981818193, ,4.6129394081190665e-05, ,0.18144560887990485,-0.24121183859352835,0.09354936043,1.6854877657286067,0.5097907806248584,-1.241390582772292, ,0.023287593020483624,0.019550255780484298,0.007286739030192132,-0.008441244402772524,0.020985591458238032,-0.01701755893849786, ,0.7781510353088379
0.01078337937309652,0.02101714865997085,-0.08292219656412615, ,0.01106913847780192,0.020855454864349508,-0.08322202318369153, ,0.0004446337270883404, ,0.002902160961351297,0.00019139616885606008,-0.007095483989063576,0.023898392664074126,0.027946196773420657,0.003345082582129521, ,0.00766844598195109, ,0.03677122608834294, ,4.6677718263713216e-05, ,0.18217154577008196,-0.24065580182658416,0.09376713715000001,1.6854877657286067,0.5106105996234509,-1.242140768934611, ,0.024000238128090736,0.01853093957400328,0.007464297806935334,-0.007118891445638793,0.05475143029471436,-0.0419677440873164, ,0.80324387550354
0.010852154291764466,0.02102009997072858,-0.08306670820608145, ,0.011153217171919565,0.02085272868045222,-0.08339657171998874, ,0.0004769297059560493, ,0.0031045317723787727,-0.00010401905924441307,-0.005789743499712614,-0.0057211593897856725,-0.008626122705669896,-0.0028543666551362513, ,0.006570393236546793, ,0.010350925136956008, ,4.7333550919215645e-05, ,0.1826812461397808,-0.24027738791574718,0.09391621050000001,1.6852780757851225,0.5107472361232164,-1.2422521868383074, ,0.025551142045899512,0.018305737183346986,0.006010872271698113,0.0,0.01730250644415803,-0.011751555391194629, ,0.8284258842468262
0.01091199062163909,0.021018782874127163,-0.08319228950125915, ,0.011237314338682523,0.020849673477553617,-0.08357022955645728, ,0.0005265664195555867, ,0.00296009819701689,0.00014241749830660978,-0.006885017293748128,0.033022172993574656,0.03502041250361284,-0.004533397272513205, ,0.007495727263916247, ,0.04813411664993481, ,4.8160803305321906e-05, ,0.18343807396145478,-0.23970590568305455,0.09411843174000001,1.6852780757851225,0.5121136011208708,-1.2434480446154121, ,0.025530519655224855,0.018810097434781126,0.0072900739221967974,0.0,0.061725580947241135,-0.0501153665622176, ,0.8534989356994629
0.011008072239283764,0.02101919399363319,-0.08340030036179102, ,0.01132142843491144,0.020846294058272874,-0.08374300310958326, ,0.0004955115198763781, ,0.0033877814405149725,-9.97511651687959e-05,-0.006656322718384948,-0.009210398539621419,-0.017414535849963574,0.0016620163210545821, ,0.007469514409580974, ,0.019700190026023825, ,4.8812597119063165e-05, ,0.18394005159827936,-0.23929660084072066,0.09426361622000001,1.6850683858416375,0.5123868741204016,-1.2435892016826644, ,0.02618569027551622,0.020165095953776194,0.006859953281653747,-0.00692657498701957,0.010548572561615071,-0.011792765931545447, ,0.8793168067932129
0.011108047772093543,0.021016975154637164,-0.08360778262345232, ,0.011405557924608145,0.020842595205444764,-0.08391489877073144, ,0.0004617802350135546, ,0.002804629099843262,-0.00012313641668167688,-0.006276583407729904,0.051035004337687845,0.052247828517964744,-0.0006251896943422542, ,0.006875798589181563, ,0.07303702651976719, ,4.929296533978361e-05, ,0.18475866128294716,-0.23866333674503426,0.09448009665000001,1.6850683858416375,0.5134799661185252,-1.2444805449122358, ,0.026731532833372047,0.019807334910972817,0.006706868008421054,-0.005977541523374623,0.08185927663161703,-0.06994186351699963, ,0.9055910110473633
0.011179486907953947,0.021012910305008896,-0.08374406692687138, ,0.011489701278944062,0.020838581682150182,-0.0840859229061854, ,0.0004934459801329388, ,0.003524807512937326,-9.518358776712706e-05,-0.00742422360576392,-0.005131790340439872,-0.010066077829040227,-0.0002177518420633692, ,0.00821902817047258, ,0.011298724370604137, ,4.987037865789433e-05, ,0.18530697531701712,-0.23822314097120345,0.09462009597000001,1.6850683858416375,0.5136166026182906,-1.244591962815932, ,0.026566892933502458,0.022224108093318682,0.007654402460355599,-0.00538035107653394,0.018056087468503304,-0.017429022123685283, ,0.930325984954834
0.011283173518940096,0.021009249923662304,-0.08396046156747013, ,0.011573856976249113,0.020834258231745846,-0.08425608185718576, ,0.0004500114668366402, ,0.0030874702081202937,-0.00018561816364378415,-0.006950683276749521,0.03867447619559354,0.041814873081013657,-0.0053124911240365336, ,0.007607819950707977, ,0.056957867793322244, ,5.025264690119501e-05, ,0.1861178622688107,-0.23756670867689436,0.09484435414,1.6848586958981533,0.5144364216168833,-1.2452604702381107, ,0.027230112355371816,0.022407778408139498,0.007337084993090743,-0.000963547190188593,0.07053982167285629,-0.05943098428140578, ,0.9568839073181152
0.011352852701807433,0.021005788947124866,-0.08410093502879049, ,0.011658023502000384,0.020829629577893888,-0.08442538193997035, ,0.0004789855309217738, ,0.003356190394648121,-0.00023165982038403523,-0.006767877608062791,-0.00305637690568854,-0.005976242497420494,-0.004576574670688831, ,0.007557899678827869, ,0.006712443666687015, ,5.090994189939724e-05, ,0.1866584535700064,-0.2371342356359378,0.09498953862000001,1.6846490059546686,0.5148463311161796,-1.2455947239492, ,0.025999162070813913,0.022022961605586165,0.006983258009644893,-0.0004977767076834362,0.020483601945431622,-0.01832153584774298, ,0.9789078235626221
0.01141654405494491,0.02100201234962549,-0.08422821388513974, ,0.011742199348810637,0.020824700424592307,-0.0845938294458127, ,0.0005207356598005867, ,0.0035305286285915766,-3.140029007966529e-05,-0.007324837162298789,-0.004067431448696326,-0.008355344498664825,-0.004346805018603886, ,0.00813135030789568, ,0.009292779949800958, ,5.1689927437093634e-05, ,0.1871681539397052,-0.2367249307936039,0.09512176020000002,1.6846490059546686,0.5153928771152414,-1.2460403955639858, ,0.026537176051026505,0.021263038664232754,0.007585148342857144,-0.0004977767076834362,0.018611251060774273,-0.01659220278392323, ,1.000234842300415
0.01152467647704377,0.02100279140312983,-0.08446436101486979, ,0.011826383016417242,0.020819475456204654,-0.0847614306410625, ,0.0004613913036719099, ,0.00367754115270529,-4.5554389417708317e-05,-0.007189184716856971,-0.00800759604955263,-0.014901443822588498,0.0001851731792314777, ,0.008075318013881932, ,0.01691669599201581, ,5.222628112166579e-05, ,0.18800220909012147,-0.23606849849929482,0.0953680553,1.6844393160111841,0.516485969113365,-1.246931738793557, ,0.028026267441958293,0.020737967997917564,0.007457308764044945,-0.004997295956863487,0.014532065908384302,-0.013031001917940148, ,1.0226569175720215
0.011599341887220118,0.021003652497598634,-0.08462251167368817, ,0.011910573011670778,0.02081395933749,-0.08492819176718377, ,0.0004756980422266861, ,0.0039189690998943285,0.0001246865467167288,-0.008023792444393708,-0.004236086484072166,-0.011215953194000835,2.2945976353492214e-05, ,0.008930571691194706, ,0.011989245242815754, ,5.278996291158486e-05, ,0.18856596858993985,-0.235628302725464,0.09553268413,1.6844393160111841,0.5170325151124266,-1.2473774104083428, ,0.02933444870431863,0.021116364387732706,0.008357193871983212,-0.004997295956863487,0.019616800786469258,-0.017060809407839203, ,1.0458920001983643
0.011667172829308632,0.02100179483234916,-0.08476164138144361, ,0.011994767848523626,0.020808156713632963,-0.08509411904079515, ,0.0005053272321993946, ,0.0035912644473546046,-0.00018550603323373756,-0.007226433498893839,0.0069122868441716485,0.004281407497086611,-0.0011668497879140254, ,0.00807173673586635, ,0.008130814219082795, ,5.343141683923752e-05, ,0.18912972808975825,-0.2352189978831301,0.09567916490000002,1.6842296260676997,0.5179889706107847,-1.2481573357342177, ,0.02857480926180993,0.022428962788577353,0.0075349155723746465,-0.004359797679182068,0.0344621461732283,-0.029074164022881703, ,1.0669968128204346
0.011747867917195873,0.020999624371304933,-0.0849146221940305, ,0.012078966048018867,0.020802072210273373,-0.08525921865370786, ,0.0005171069024726853, ,0.0038501805878418376,-0.0001473644316854378,-0.006931627111460236,-0.020527072282763223,-0.029919889896847157,-8.25562883630857e-05, ,0.007930514563825646, ,0.03628443870227539, ,5.408647817736173e-05, ,0.18973210125394777,-0.23476335664355086,0.09583731228,1.6842296260676997,0.5181256071105501,-1.248268753637914, ,0.0289231763360167,0.020943928836563843,0.007155800323450135,-0.004359797679182068,0.0,-0.0008916729246641853, ,1.0897159576416016
0.011816177037769163,0.020996260943122957,-0.08506220626605127, ,0.012163166138278747,0.020795710433536625,-0.08542349677296639, ,0.0005395857421715041, ,0.0035177333029504133,1.604069610863432e-05,-0.007955612748067381,0.04109300036493573,0.04325876892564412,-0.00042397607302166115, ,0.00869864811863489, ,0.05966536462710926, ,5.478931109601315e-05, ,0.19030358348664037,-0.23431543813684585,0.09599286708000002,1.684019936124215,0.5193553356084392,-1.249271514771182, ,0.029692409749208632,0.02221890460277939,0.008450297888594166,-0.0061327315610791465,0.0756742250003285,-0.0625331561479877, ,1.1113929748535156
0.011940750056456517,0.02099693402663744,-0.08531009193027732, ,0.012247366654493587,0.020789075970063246,-0.085586959540887, ,0.0004624655486404857, ,0.004332787750784453,0.0001053710496238752,-0.008323984069148324,-0.02184592650070955,-0.032501122549523476,0.001531273045939765, ,0.009384714355529513, ,0.0391607894671535, ,5.5217931871860605e-05, ,0.1912303114315473,-0.23362811491103988,0.09625082879,1.684019936124215,0.5199018816075008,-1.249635507645827, ,0.03109336224065229,0.02168577275102166,0.008628825308775734,-0.0061327315610791465,0.0,-0.0006136262508893801, ,1.133253812789917
0.011978945707015765,0.02099871297232017,-0.08539135191441102, ,0.012331566138910342,0.02078217338703916,-0.08574961307509718, ,0.0005473404975327368, ,0.004284966833927922,8.82434267696486e-05,-0.008674224308062818,-0.005262252567195382,-0.013072597071129916,0.0002802278681664045, ,0.009675272348457081, ,0.0140919852099325, ,5.607361274937932e-05, ,0.19152377528076783,-0.2334196011234358,0.09633638393,1.684019936124215,0.5203117911067973,-1.250051440097057, ,0.03154818535853417,0.022916431190164403,0.009040188149829742,-0.005921623381015977,0.020164394261283195,-0.018008753597944207, ,1.151486873626709
0.012058581816511881,0.02099430279862734,-0.08555012179623792, ,0.012415763140821398,0.020775007232225366,-0.08591146346857462, ,0.0005533867075076408, ,0.0042248798202279315,-0.00011277853630526307,-0.008108977552061115,-0.009333131358149577,-0.01337598032875578,-0.0009553596591343337, ,0.009144279382950383, ,0.01631024695221494, ,5.6921496736213936e-05, ,0.19218020757507692,-0.23293306895235966,0.09650360534,1.6838102461807307,0.5214048831049207,-1.2509427833266282, ,0.03193033026866446,0.023670975694305506,0.008441341558028618,-0.003534319641186276,0.019747593885023063,-0.014044016053772701, ,1.1700949668884277
0.012145534751166172,0.02099300353103874,-0.08571861459320747, ,0.012499956216553147,0.020767582033988097,-0.08607251678968734, ,0.0005492505722645041, ,0.004323473350981819,-0.00017826958643173458,-0.008056962861195536,-0.016470214075955676,-0.02322314931387204,0.003492613158717287, ,0.009145427951101067, ,0.028470732020987318, ,5.7730802817508847e-05, ,0.19282119440363757,-0.23246198224703196,0.09667860449000001,1.6836005562372458,0.5216781561044516,-1.2510839403938805, ,0.03228885388175256,0.02387945182648988,0.008357193871983212,-0.008437808972717451,0.011216691907406021,-0.008266248084080023, ,1.1877448558807373
0.012227428129538007,0.02099030894163872,-0.08589223496964461, ,0.012584143929454802,0.02075990230132877,-0.08623277908223181, ,0.0005443378311554342, ,0.004376186116238057,-4.433185286820173e-05,-0.008990756931118173,0.015063449005208222,0.016432734859623592,0.0031273680317343115, ,0.009999333999401306, ,0.022292200702326223, ,5.8500934796629e-05, ,0.19350079489656932,-0.2319445591444589,0.09686267767000001,1.6836005562372458,0.5231811576018714,-1.2522278585944007, ,0.03453309372578995,0.02511165428908991,0.0094757950743605,-0.008437808972717451,0.053883460917701125,-0.04000085491361087, ,1.205718994140625
0.012323445909085302,0.020987617690220166,-0.08607308797718252, ,0.012668324849887017,0.02075197252391371,-0.0863922563654727, ,0.0005256791685960696, ,0.004996230321012636,-0.00021723890692732103,-0.009167563273265972,-0.028963059349383084,-0.0340962696573791,0.0015342077690379391, ,0.010442879226182027, ,0.04473716963186376, ,5.919284724355162e-05, ,0.19421128632099796,-0.2314271360418859,0.09705063972000001,1.6833908662937616,0.5234544306014023,-1.252532373141934, ,0.03645675818612016,0.02726923608002034,0.009487082501488983,-0.0056207045338560885,0.003804251720322024,0.001488051571823609, ,1.2244398593902588
0.012373618411929656,0.02098562239141509,-0.08616879675569339, ,0.012752497555210678,0.02074379717210432,-0.0865509546341828, ,0.0005899775300802494, ,0.004979641600811126,-0.000138473572107075,-0.009224945587673209,-0.019810152240515726,-0.024924695849320944,0.001293177924078115, ,0.010484065361215194, ,0.03183838136851516, ,6.00525352373016e-05, ,0.19458970023183497,-0.23114139492553956,0.09715045405000002,1.6833908662937616,0.5237277036009332,-1.2527552089493268, ,0.03693925323412642,0.02658177634691058,0.009601453598553349,-0.0056207045338560885,0.013612754421410678,-0.00681723067293675, ,1.2431700229644775
0.01246737545525479,0.020978351432739364,-0.08634490169000453, ,0.012836660629775454,0.020735380696987066,-0.08670887985868057, ,0.00057261367939086, ,0.004459499757280482,-0.0006904676645578684,-0.007632748904154174,0.0049396628712834395,0.005659347416130402,-0.00043864231737994263, ,0.008866946459455556, ,0.007511887682342475, ,6.0837408445383296e-05, ,0.19537741898500588,-0.23056991269284696,0.09733711981000001,1.6833908662937616,0.5250940685985876,-1.253869387986291, ,0.03727295426491389,0.028549019722764975,0.008000407594173784,-0.005311327658073929,0.044958524437689155,-0.03286596668709367, ,1.2615318298339844
0.012565165141536418,0.02096531417705444,-0.08651223994917959, ,0.012920812664908654,0.020726727530403343,-0.08686603798487173, ,0.0005555013941482431, ,0.005146996076794478,-0.000470909383675198,-0.008807464477084253,-0.03721944566412189,-0.04100981860461286,0.007915225005243144, ,0.010211990735271556, ,0.055381335344413474, ,6.155136967243251e-05, ,0.19611880134093143,-0.2299907077272801,0.09750952638,1.6829714864067924,0.5252307050983531,-1.253735769669566, ,0.03823406186884399,0.028566207573290422,0.009096979737292977,-0.01152289557164093,0.0,0.007440695719089835, ,1.2791218757629395
0.012635061689219556,0.020960750494837314,-0.08664341072760355, ,0.013004952258903898,0.02071784208497933,-0.0870224349342861, ,0.000582651592611296, ,0.00490486888947702,-0.0003644414986368552,-0.010160729868306144,0.01976259155275943,0.015051771470484166,0.00012006035696244892, ,0.011288533469214537, ,0.02484181436573946, ,6.249644302614479e-05, ,0.19665939264212715,-0.22958140288494622,0.09764693312000002,1.6829714864067924,0.5257772510974149,-1.2540180838040704, ,0.03733160564849362,0.03118532420587275,0.010626291874583057,-0.010346257294305052,0.05550474792238606,-0.05163145879358429, ,1.2941930294036865
0.012681421585117642,0.02095801736395024,-0.08674481920275424, ,0.013089078017009658,0.020708728754156316,-0.08717807660411828, ,0.0006450120566878041, ,0.005169906372581666,-0.0004154199210889453,-0.010348341737935687,-0.0007396616147623419,-0.006187259831485843,-7.622956578910489e-05, ,0.01157534804389051, ,0.006231305228694443, ,6.359373826109818e-05, ,0.1974393886624238,-0.2289404160563856,0.09786859871,1.6829714864067924,0.5272802525948347,-1.2550803232644498, ,0.037762412080569345,0.03203813016828858,0.010748185910931175,-0.009006294462445255,0.034077327136368074,-0.03200383382349344, ,1.3088059425354004
0.012789733150956507,0.020952216076465222,-0.08696144503513223, ,0.013173188551418217,0.020699391912220297,-0.08733296886726671, ,0.0005907521138458063, ,0.00557368870477331,-0.00026333656110956623,-0.010740703965453737,-0.02877547247571182,-0.025842238378761477,0.005003181497303766, ,0.012103638857618325, ,0.03867620660925661, ,6.451785134022295e-05, ,0.19782552530613504,-0.22862378400854239,0.09798007965000001,1.6829714864067924,0.5274168890946002,-1.2551917411681464, ,0.03970583328806308,0.03131912262655801,0.011146824016794963,-0.008474070327683625,0.01625416150720172,-0.0026421228739166233, ,1.3235769271850586
0.012843660155417647,0.020948447794472403,-0.08706428197802195, ,0.013257282481254145,0.020689835914332086,-0.08748711757237246, ,0.000645564460631045, ,0.005532988197772271,-0.0003181203426980303,-0.010184841106980518,-0.006251215053197377,-0.016142767733029525,-0.007883880248372678, ,0.011595091518550671, ,0.017310878953241196, ,6.557082159910923e-05, ,0.19823483014846893,-0.2283148746935734,0.09808767172,1.682761796463308,0.5278267985938964,-1.2554443161390951, ,0.04115218627860832,0.030951383417635606,0.010633385527369827,0.0,0.025346210586997552,-0.023806691483793725, ,1.3381669521331787
0.012952222991995877,0.020938038895587006,-0.08727599304758936, ,0.013341358432563104,0.02068006509655719,-0.08764052854385886, ,0.0005923368974931196, ,0.005566678140910411,-0.000545536985793158,-0.010613635497339657,0.004702011545680959,-0.0016055725049127945,0.005030080262205423, ,0.01199728196708515, ,0.004968565281723577, ,6.645806248915409e-05, ,0.1990688852988852,-0.22765071966639008,0.09830933731000001,1.6823424165763388,0.52891989059202,-1.2563356593686665, ,0.04213896161566198,0.03373513741858186,0.011084767933194156,-0.014971035485121919,0.04451853493352008,-0.040074482225816194, ,1.353065013885498
0.013006824144953282,0.020932682930732797,-0.08737827405287477, ,0.013425415038300519,0.020670083775896148,-0.0877932075819702, ,0.0006452491655800544, ,0.005394530873378909,-0.0005305685676910905,-0.01034303632587817,-0.009801830556080287,-0.016767835957167,0.004477177363135545, ,0.011677365575646562, ,0.01942256642586022, ,6.746715003070578e-05, ,0.19947046740834487,-0.22731864215279846,0.09841563309000001,1.6823424165763388,0.5291931635915509,-1.256395137695778, ,0.039052239324473575,0.03267801017853677,0.010726472404040406,-0.013563382474459873,0.02566089379947247,-0.024597804871486873, ,1.367386817932129
0.01311383678174917,0.020921484301376993,-0.08758678787639539, ,0.013509450938320367,0.020659896250313937,-0.0879451604628115, ,0.000594449139988516, ,0.0054502905300272495,-0.0006677379276442384,-0.010604279766275282,0.015583517578085048,0.015383791447106403,0.0015456102698099988, ,0.011941620081176368, ,0.021897646569931175, ,6.832130934614181e-05, ,0.20027363162726422,-0.22663904165986667,0.09863340981,1.6823424165763388,0.530149619089909,-1.2570933842815126, ,0.04197122581091144,0.03506908409403946,0.011107957824267782,-0.01144519837908585,0.06082478933270746,-0.05117721581460317, ,1.381762981414795
0.013169826332413283,0.02091729386161111,-0.0876934326215902, ,0.013593464779363747,0.02064950679877044,-0.08809639293838757, ,0.0006430835573025271, ,0.005701330977268595,-0.0005031193625271658,-0.01064903811137255,0.00969297640126755,0.010592332991572938,0.0030315718096695465, ,0.01208967810583794, ,0.014357965481679096, ,6.928432580426151e-05, ,0.200713827401095,-0.22630696414627502,0.09874618704000002,1.6823424165763388,0.5308328015887361,-1.257732152540135, ,0.04430296057818431,0.033449750284973837,0.01121747290140845,-0.010591018458069984,0.05824259988823374,-0.0432532759340733, ,1.397002935409546
0.013227215960565423,0.020910314897969937,-0.087801096004025, ,0.013677455215047573,0.020638919681249993,-0.08824691073664206, ,0.0006892905960141451, ,0.005813710420215406,-0.00070075314653152,-0.010993759395972788,-0.0025479573644760284,0.0002483663780261225,0.002141631689990389, ,0.01245604389358977, ,0.0025600023426252554, ,7.05283506585286e-05, ,0.2011540231749258,-0.22594399570118648,0.09885896427000002,1.6823424165763388,0.5313793475877979,-1.258177824154921, ,0.043650847083013235,0.03630334413101407,0.01147608899135447,-0.009866037819595039,0.046908868777738054,-0.03386392034071149, ,1.4075648784637451
0.013293654990017341,0.020903894975811903,-0.08792187099174488, ,0.013761420905853512,0.020628139138791888,-0.08839671956149656, ,0.0007213372289462629, ,0.006248859011959282,-0.0006026418177045818,-0.011234241063106899,-0.015460747905112152,-0.017844146247038006,-0.0067855109436655335, ,0.012869327425152732, ,0.02361033888207602, ,7.183540752255596e-05, ,0.20164055534600195,-0.22556558179034947,0.09898470440000001,1.6821327266328545,0.5316526205873288,-1.2584006599623137, ,0.046133661428522495,0.03624787683669625,0.01172097977924945,0.0,0.028806110440704302,-0.01930907002274205, ,1.4182448387145996
0.013354326287436472,0.020896146121623462,-0.08803662036650332, ,0.013845360519116348,0.020617169393519715,-0.08854582509289029, ,0.0007604157316098486, ,0.0061022854926724695,-0.000562666915709882,-0.011991328203645386,0.028211620280984947,0.02724802622400738,0.0023827385390546496, ,0.013466493024527827, ,0.03922180776109725, ,7.3221945713503e-05, ,0.20211164205132964,-0.22518716787951248,0.09910525937,1.6819230366893698,0.532335803086156,-1.2588760707406552, ,0.047118640297155304,0.037243697628913185,0.012651955138999207,-0.013725453364381829,0.07855136314992048,-0.06615372060345506, ,1.4288818836212158
0.013419337140386851,0.020893590465219936,-0.0881703601850029, ,0.013929272729012914,0.02060601464867197,-0.08869423298681865, ,0.0007856060509523331, ,0.006788393047730565,-1.111298653580495e-05,-0.013948787125630392,0.028699520559283057,0.02348944565154164,9.813272863825576e-05, ,0.015512932216222006, ,0.037086601479384744, ,7.465108766757326e-05, ,0.20259817422240578,-0.2248164767015497,0.09924655498000001,1.6817133467458854,0.5331556220847486,-1.2594628994226933, ,0.04994575871498462,0.0363450561311646,0.014762568600556072,-0.011317502820116029,0.0770260332841823,-0.06537001327239605, ,1.4395349025726318
0.013565510394743786,0.0208941239847946,-0.08846455561103216, ,0.014013156216550714,0.020594679088631305,-0.08884194887537275, ,0.0006576318906417913, ,0.007280611321695089,-5.734309309333172e-05,-0.014753652120248706,-0.006722249050595216,-0.006759700466952108,0.0015843275446877465, ,0.016452380992830168, ,0.009533178046596784, ,7.573800152130527e-05, ,0.20363302042755188,-0.22405192614700148,0.09955636829000002,1.6817133467458854,0.5342487140828721,-1.2603542426522645, ,0.0505039603823687,0.038560317577598854,0.015479894577259477,-0.009274259582609329,0.0466065611948459,-0.031727407226260586, ,1.4514210224151611
0.013637209390605066,0.02089192033787568,-0.08860767482900567, ,0.014097009669556695,0.020583166878955537,-0.08898897836677885, ,0.000672411617119675, ,0.007509947560185782,-0.0001407292038587533,-0.01457986036391829,0.00023954483584461993,-0.0013782609031709728,-0.007440718158758764, ,0.016400958670056903, ,0.0013986872507877046, ,7.684545826895642e-05, ,0.20414272079725068,-0.22366578950329025,0.09970673793000001,1.6815036568024009,0.5347952600819339,-1.2607999142670503, ,0.05376597255437438,0.03949102853036654,0.015360473982642238,-0.0004913355028564763,0.05337534034549964,-0.0377965827928367, ,1.4621059894561768
0.013710579658060539,0.020889107990721335,-0.08874390943867351, ,0.014180831782665737,0.02057148216640659,-0.08913532704543706, ,0.0006893699789313635, ,0.007233459995346156,-0.0006350912838953371,-0.012790927193516438,0.011056501123061705,0.009919288679106901,-0.008276381428478023, ,0.014708300476703327, ,0.014853893853207172, ,7.797838074827615e-05, ,0.2046833120984464,-0.22327965285957901,0.09985062612000001,1.6815036568024009,0.5353418060809957,-1.261245585881836, ,0.05578891332067653,0.040364500875572425,0.013544907755102044,-0.0004913355028564763,0.06687646597268897,-0.04927212207147351, ,1.4727628231048584
0.013785673259996092,0.020878640971709543,-0.08887295556994206, ,0.014264621257309679,0.02055962907898095,-0.08928100047196065, ,0.0007054505042143916, ,0.00750755708578983,-0.0010296160291069431,-0.012553928023711153,-0.007885352229870295,-0.015071186225204517,0.0044738966775766005, ,0.01466371819793013, ,0.017009383357666906, ,7.913405565506429e-05, ,0.20527023979688747,-0.22283945708574823,0.09998673657000001,1.6812939668589162,0.5360249885798228,-1.2617209966601775, ,0.05744366922425592,0.04305668854740053,0.01318610225165563,-0.01508280111403235,0.04638511869130916,-0.0364349346453398, ,1.483738899230957
0.013785673259996092,0.020878640971709543,-0.08887295556994206, ,0.014348376801705684,0.02054761172593972,-0.08942600418321538, ,0.0008556158051666652, ,0.008052279185334747,-0.000978973116987955,-0.012890124534426924,-0.02664450386992578,-0.03991456886039817,0.0013080428411622303, ,0.015229999965705688, ,0.047990645316777304, ,8.083490368886073e-05, ,0.20587261296107698,-0.22240698404479164,0.10012025444000001,1.6810842769154317,0.5362982615793538,-1.2619438324675705, ,0.06040543702003232,0.04341122669646422,0.013510442340966922,-0.011033038920421536,0.023276389137627803,-0.017597316112338886, ,1.4911868572235107
0.013865266364152,0.020868251663803024,-0.0890003466260919, ,0.014432097130845282,0.02053543419783851,-0.08957034369235885, ,0.0008700351942732358, ,0.008052279185334747,-0.000978973116987955,-0.012890124534426924,-0.02664450386992578,-0.03991456886039817,0.0013080428411622303, ,0.015229999965705688, ,0.047990645316777304, ,8.255423715219935e-05, ,0.20587261296107698,-0.22240698404479164,0.10012025444000001,1.6810842769154317,0.5362982615793538,-1.2619438324675705, ,0.06040543702003232,0.04341122669646422,0.013510442340966922,-0.011033038920421536,0.023276389137627803,-0.017597316112338886, ,1.4984288215637207
0.013947498649242603,0.020857069384666357,-0.08913969356811195, ,0.014515780966482681,0.020523100566557383,-0.08971402448887915, ,0.0008742631011921712, ,0.00829529807876069,-0.000902385728677158,-0.01460447620911204,0.0033136399292049493,-0.0019871337647971816,-0.00537963950519586, ,0.016820136609472902, ,0.0038637088113822925, ,8.426717103357078e-05, ,0.20649815432388915,-0.22193589733946395,0.10026673521000001,1.680874586971947,0.5368448075784156,-1.262389504082356, ,0.06230921967069651,0.04716547791176481,0.015390156057971019,-0.0063276195703533605,0.06260225896806096,-0.04967461591463507, ,1.5055718421936035
0.014027080779590409,0.020851995179281567,-0.08928886072913808, ,0.014599427037123816,0.020510614885330687,-0.08985705203863434, ,0.0008757637282952284, ,0.00872333800405382,-0.00047721132756518614,-0.01686555502395977,0.02594924109629466,0.024395777656130355,-0.006689812446586035, ,0.018993980700483533, ,0.03561622827206468, ,8.596724167354215e-05, ,0.20709280475520445,-0.22149570156563317,0.10042488259000001,1.680874586971947,0.5376646265770082,-1.2630580115045347, ,0.06403302399357003,0.048244505113609955,0.01785741201793722,-0.0063276195703533605,0.09109017569411329,-0.0729250821856342, ,1.5128109455108643
0.014027080779590409,0.020851995179281567,-0.08928886072913808, ,0.014683034078014844,0.020497981188777572,-0.08999943178389172, ,0.0010298115648215253, ,0.00872333800405382,-0.00047721132756518614,-0.01686555502395977,0.02594924109629466,0.024395777656130355,-0.006689812446586035, ,0.018993980700483533, ,0.03561622827206468, ,8.801957918903125e-05, ,0.20709280475520445,-0.22149570156563317,0.10042488259000001,1.680874586971947,0.5376646265770082,-1.2630580115045347, ,0.06403302399357003,0.048244505113609955,0.01785741201793722,-0.0063276195703533605,0.09109017569411329,-0.0729250821856342, ,1.5199408531188965
0.014127421890045337,0.02084837001652197,-0.08948815370168595, ,0.014766600831130936,0.02048520349293135,-0.09014116914336687, ,0.0009832948742152234, ,0.010231860593046638,-0.0001541247450763484,-0.020326379663603365,0.003153461802204403,-0.003298508008338662,-0.006995811672926202, ,0.0227568986433023, ,0.004563004125924474, ,8.994161660769116e-05, ,0.2077955734467589,-0.22094738753156323,0.10063488157000001,1.680874586971947,0.5384844455756008,-1.2637265189267133, ,0.07029403078405243,0.053104052355048,0.021409692903225808,-0.0063276195703533605,0.06935257735299317,-0.05523026575941247, ,1.527176856994629
0.01423579943853908,0.020849243682367465,-0.08970582054614713, ,0.014850126045164867,0.020472285795269815,-0.09028226951226256, ,0.000922923528137097, ,0.010851661495275224,0.0001963015138289997,-0.022046009101103527,0.010354974337279279,0.0010434748096183341,-0.0015540938612490316, ,0.024572822564335378, ,0.010407167023576002, ,9.170237560039663e-05, ,0.20852923306981022,-0.22041451896324174,0.10086432490000001,1.6806648970284628,0.539167628074428,-1.2642019297050546, ,0.073506538774958,0.05316355269382116,0.02328773614035088,-0.012854187842226346,0.07841622450885388,-0.06374746868937545, ,1.5344829559326172
0.014251734038747032,0.02084986262690561,-0.0897388539249293, ,0.014933608475515888,0.020459232074745225,-0.09042273826230844, ,0.0010417498561134959, ,0.010932189955544557,0.00020894032943868707,-0.022500063023981227,0.008898644688696592,0.0006597508808906714,-0.0017289587981226503, ,0.02501618015142405, ,0.008922745201777061, ,9.372677443273791e-05, ,0.20863735133004935,-0.2203372916344995,0.10089932473,1.6806648970284628,0.5393042645741934,-1.2643133476087511, ,0.07322294873338794,0.05407233137234802,0.023738914336810735,-0.012854187842226346,0.07773804325579979,-0.06319197485280467, ,1.5417969226837158
0.014251734038747032,0.02084986262690561,-0.0897388539249293, ,0.015017046884278299,0.020446046291814155,-0.09056258074179983, ,0.0011946954644818622, ,0.010932189955544557,0.00020894032943868707,-0.022500063023981227,0.008898644688696592,0.0006597508808906714,-0.0017289587981226503, ,0.02501618015142405, ,0.008922745201777061, ,9.609119207502991e-05, ,0.20863735133004935,-0.2203372916344995,0.10089932473,1.6806648970284628,0.5393042645741934,-1.2643133476087511, ,0.07322294873338794,0.05407233137234802,0.023738914336810735,-0.012854187842226346,0.07773804325579979,-0.06319197485280467, ,1.5489368438720703
0.01445622907376919,0.02084640763034641,-0.09014599357141703, ,0.015100440040230123,0.02043273238846771,-0.0907018022756371, ,0.0009460752035323169, ,0.012056139480270745,-0.0006542388477087667,-0.022425716659046375,-0.04002423999866605,-0.05751868649366634,0.043970781969886706, ,0.025469418825513557, ,0.07007377120925605, ,9.785262389601648e-05, ,0.2100042750487871,-0.21931789089510184,0.10132710043000001,1.6798261372545245,0.5403973565723169,-1.2652046908383223, ,0.08159668233746413,0.06013747880764941,0.02349382230088496,-0.06060318691782147,0.0377488174480585,-0.030562000287609716, ,1.5560848712921143
0.014580317993881646,0.02083756873874021,-0.0903759291595982, ,0.015183786718821868,0.02041929428826121,-0.09084040816536439, ,0.0008688318391392125, ,0.011211150904363152,-0.0013011973945323708,-0.020303004549133544,0.010074516856194017,0.004211493575789923,0.024918231550425683, ,0.023229184509622327, ,0.010919208678469072, ,9.941803457356806e-05, ,0.21087694386357447,-0.2186460131350443,0.10156950666000002,1.6798261372545245,0.5412171755709096,-1.2657915195203604, ,0.08187829297538463,0.06272104531293508,0.021438508102288024,-0.043720494710861355,0.09680474986931317,-0.0789377824871898, ,1.563175916671753
0.014580317993881646,0.02083756873874021,-0.0903759291595982, ,0.015267085702165293,0.020405735896344552,-0.09097840368920955, ,0.0010104974258963242, ,0.011211150904363152,-0.0013011973945323708,-0.020303004549133544,0.010074516856194017,0.004211493575789923,0.024918231550425683, ,0.023229184509622327, ,0.010919208678469072, ,0.00010129688030678377, ,0.21087694386357447,-0.2186460131350443,0.10156950666000002,1.6798261372545245,0.5412171755709096,-1.2657915195203604, ,0.08187829297538463,0.06272104531293508,0.021438508102288024,-0.043720494710861355,0.09680474986931317,-0.0789377824871898, ,1.5704119205474854
0.014670425476385703,0.020827779807792813,-0.09052868538586345, ,0.01535033577902194,0.020392061099491727,-0.09111579410212221, ,0.0009984114668319273, ,0.011329299997429557,-0.0014573260912191755,-0.01859783319186829,0.025665503733148486,0.01674934185066257,-0.02828315239432539, ,0.021825586755009896, ,0.030647288777316664, ,0.00010336873847427833, ,0.211548821623632,-0.2181672036968424,0.10173154291000001,1.67961644731104,0.5419003580697368,-1.2663486090388425, ,0.08690196113413075,0.06309637071706833,0.01981195462686567,0.01161892377680295,0.10241916462795389,-0.0835159612605326, ,1.574103832244873
0.014670425476385703,0.020827779807792813,-0.09052868538586345, ,0.015433535744791947,0.020378273766131372,-0.09125258463581437, ,0.0011438632292877907, ,0.011329299997429557,-0.0014573260912191755,-0.01859783319186829,0.025665503733148486,0.01674934185066257,-0.02828315239432539, ,0.021825586755009896, ,0.030647288777316664, ,0.00010576619121808827, ,0.211548821623632,-0.2181672036968424,0.10173154291000001,1.67961644731104,0.5419003580697368,-1.2663486090388425, ,0.08690196113413075,0.06309637071706833,0.01981195462686567,0.01161892377680295,0.10241916462795389,-0.0835159612605326, ,1.5778720378875732
0.014822039629368084,0.020803222505228744,-0.09077107719199806, ,0.015516684401502662,0.02036437774637636,-0.09138878049879784, ,0.0010279462325712796, ,0.012573915470535366,-0.0021306234225467765,-0.020304984841817034,-0.009716639448514445,-0.02032484461019161,-0.007386463582862863, ,0.023977808820976387, ,0.022527959052195273, ,0.00010788614533614158, ,0.21263000422602343,-0.21733314854642616,0.10197265285000001,1.6798261372545245,0.5429934500678604,-1.267239952268414, ,0.09276338373262051,0.07200071438427222,0.021125744721485415,-0.01167865170458415,0.07680590924554812,-0.06263006893712181, ,1.5818250179290771
0.014822039629368084,0.020803222505228744,-0.09077107719199806, ,0.015599780557797517,0.020350376872053835,-0.09152438687642515, ,0.0011736377634907226, ,0.012573915470535366,-0.0021306234225467765,-0.020304984841817034,-0.009716639448514445,-0.02032484461019161,-0.007386463582862863, ,0.023977808820976387, ,0.022527959052195273, ,0.0006013013873089037, ,0.21263000422602343,-0.21733314854642616,0.10197265285000001,1.6798261372545245,0.5429934500678604,-1.267239952268414, ,0.09276338373262051,0.07200071438427222,0.021125744721485415,-0.01167865170458415,0.07680590924554812,-0.06263006893712181, ,1.5855958461761475
0.014822039629368084,0.020803222505228744,-0.09077107719199806, ,0.015682823028924483,0.02033627495673542,-0.0916594089309269, ,0.0013221654028086399, ,0.012573915470535366,-0.0021306234225467765,-0.020304984841817034,-0.009716639448514445,-0.02032484461019161,-0.007386463582862863, ,0.023977808820976387, ,0.022527959052195273, ,0.0006102009430558141, ,0.21263000422602343,-0.21733314854642616,0.10197265285000001,1.6798261372545245,0.5429934500678604,-1.267239952268414, ,0.09276338373262051,0.07200071438427222,0.021125744721485415,-0.01167865170458415,0.07680590924554812,-0.06263006893712181, ,1.5894408226013184
0.014950669241434044,0.02078437046666811,-0.09099286204364979, ,0.015765810636724886,0.020322075795767062,-0.09179385180145282, ,0.0012327840237306641, ,0.014527858290044812,-0.0013353944817812396,-0.026728726704195398,0.03477931521398572,0.02669607059716939,-0.019601522093109048, ,0.030451055419232414, ,0.04384366898042208, ,0.0006177934196494099, ,0.21364940496542106,-0.21654542979325525,0.10222283682000001,1.67961644731104,0.5440865420659838,-1.2682946529782664, ,0.10382597544690457,0.08014944388384355,0.028343080996441283,-0.004188923534105423,0.1329977171061603,-0.11232557936982125, ,1.593080997467041
0.014950669241434044,0.02078437046666811,-0.09099286204364979, ,0.015848742209622162,0.020307783166298835,-0.09192772060410886, ,0.0013811701702278075, ,0.014527858290044812,-0.0013353944817812396,-0.026728726704195398,0.03477931521398572,0.02669607059716939,-0.019601522093109048, ,0.030451055419232414, ,0.04384366898042208, ,0.0006269907298973423, ,0.21364940496542106,-0.21654542979325525,0.10222283682000001,1.67961644731104,0.5440865420659838,-1.2682946529782664, ,0.10382597544690457,0.08014944388384355,0.028343080996441283,-0.004188923534105423,0.1329977171061603,-0.11232557936982125, ,1.5966768264770508
0.014950669241434044,0.02078437046666811,-0.09099286204364979, ,0.01593161658261047,0.020293400827315407,-0.09206102043199829, ,0.0015311013080545972, ,0.014527858290044812,-0.0013353944817812396,-0.026728726704195398,0.03477931521398572,0.02669607059716939,-0.019601522093109048, ,0.030451055419232414, ,0.04384366898042208, ,0.000637753951065881, ,0.21364940496542106,-0.21654542979325525,0.10222283682000001,1.67961644731104,0.5440865420659838,-1.2682946529782664, ,0.10382597544690457,0.08014944388384355,0.028343080996441283,-0.004188923534105423,0.1329977171061603,-0.11232557936982125, ,1.6003518104553223
0.015110138309499298,0.020775421978204832,-0.09130616405816559, ,0.016014432597243417,0.020278932519665574,-0.09219375635525942, ,0.0013609077952409364, ,0.016383268822024354,-0.00036244595792348606,-0.03307797337144217,0.04324396699066748,0.03406392439117794,0.01377878169749288, ,0.03691470149857598, ,0.05504863328079499, ,0.0006462616433502935, ,0.21474603303356093,-0.21571137464283902,0.10255468706000001,1.6789873774805866,0.5455895435634037,-1.2696019286590676, ,0.11008925934857398,0.08280710432676333,0.03508548792951543,-0.041247579917815,0.1547134291572481,-0.13095405751674907, ,1.6039388179779053
0.015110138309499298,0.020775421978204832,-0.09130616405816559, ,0.01609718910162262,0.02026438196609259,-0.09232593342110543, ,0.0015084298836212696, ,0.016383268822024354,-0.00036244595792348606,-0.03307797337144217,0.04324396699066748,0.03406392439117794,0.01377878169749288, ,0.03691470149857598, ,0.05504863328079499, ,0.0006562868554464676, ,0.21474603303356093,-0.21571137464283902,0.10255468706000001,1.6789873774805866,0.5455895435634037,-1.2696019286590676, ,0.11008925934857398,0.08280710432676333,0.03508548792951543,-0.041247579917815,0.1547134291572481,-0.13095405751674907, ,1.6074559688568115
0.015110138309499298,0.020775421978204832,-0.09130616405816559, ,0.01617988495038677,0.0202497528712642,-0.09245755665386347, ,0.0016572238216697524, ,0.016383268822024354,-0.00036244595792348606,-0.03307797337144217,0.04324396699066748,0.03406392439117794,0.01377878169749288, ,0.03691470149857598, ,0.05504863328079499, ,0.0006677918780467353, ,0.21474603303356093,-0.21571137464283902,0.10255468706000001,1.6789873774805866,0.5455895435634037,-1.2696019286590676, ,0.11008925934857398,0.08280710432676333,0.03508548792951543,-0.041247579917815,0.1547134291572481,-0.13095405751674907, ,1.6110849380493164
0.01527605153587948,0.020773395283806367,-0.09164485113906504, ,0.016262519004699775,0.020235048921801942,-0.09258863105501375, ,0.0014675337823274377, ,0.01824789188450059,-0.0001393792616568915,-0.03841482461217229,0.03420978531561442,0.026656070046000478,0.049095342050796194, ,0.042528857670891665, ,0.043367866285778954, ,0.0006768798542317433, ,0.21584266110170083,-0.21488504222529697,0.10291375939000001,1.6785679975936174,0.5470925450608235,-1.2708275255997283, ,0.11744670984959255,0.09055051675426601,0.04063472326530613,-0.08061310118430268,0.16305033006242625,-0.13772810837723232, ,1.6148719787597656
0.01527605153587948,0.020773395283806367,-0.09164485113906504, ,0.016345090132240045,0.02022027378631226,-0.09271916160322789, ,0.001613359812598697, ,0.01824789188450059,-0.0001393792616568915,-0.03841482461217229,0.03420978531561442,0.026656070046000478,0.049095342050796194, ,0.042528857670891665, ,0.043367866285778954, ,0.0006874021009549675, ,0.21584266110170083,-0.21488504222529697,0.10291375939000001,1.6785679975936174,0.5470925450608235,-1.2708275255997283, ,0.11744670984959255,0.09055051675426601,0.04063472326530613,-0.08061310118430268,0.16305033006242625,-0.13772810837723232, ,1.6185288429260254
0.015446562511577921,0.020775585901494788,-0.09200911447091446, ,0.016427597207188692,0.020205431115415423,-0.09284915325440944, ,0.0014117969796883145, ,0.01919517085671836,0.0005104054817939418,-0.04008742255855089,0.015785649873292486,0.002039803838292215,-0.045770236432795555, ,0.04444903312066833, ,0.01591364250290011, ,0.0006954509329408936, ,0.2169083982383438,-0.21405098707488074,0.10329875752,1.6781486177066482,0.5484589100584779,-1.2719417046366925, ,0.1181780094127905,0.09186538389009755,0.04236386042553192,0.020370350116809523,0.1170795146835101,-0.1000520939515606, ,1.623072862625122
0.015446562511577921,0.020775585901494788,-0.09200911447091446, ,0.01651003911021854,0.020190524541776438,-0.09297861094173235, ,0.0015534486400972636, ,0.01919517085671836,0.0005104054817939418,-0.04008742255855089,0.015785649873292486,0.002039803838292215,-0.045770236432795555, ,0.04444903312066833, ,0.01591364250290011, ,0.0007048794791733813, ,0.2169083982383438,-0.21405098707488074,0.10329875752,1.6781486177066482,0.5484589100584779,-1.2719417046366925, ,0.1181780094127905,0.09186538389009755,0.04236386042553192,0.020370350116809523,0.1170795146835101,-0.1000520939515606, ,1.6266908645629883
0.015446562511577921,0.020775585901494788,-0.09200911447091446, ,0.01659241472848271,0.0201755576801343,-0.09310753957567965, ,0.0016969233571947368, ,0.01919517085671836,0.0005104054817939418,-0.04008742255855089,0.015785649873292486,0.002039803838292215,-0.045770236432795555, ,0.04444903312066833, ,0.01591364250290011, ,0.0007156625648040481, ,0.2169083982383438,-0.21405098707488074,0.10329875752,1.6781486177066482,0.5484589100584779,-1.2719417046366925, ,0.1181780094127905,0.09186538389009755,0.04236386042553192,0.020370350116809523,0.1170795146835101,-0.1000520939515606, ,1.63028883934021
0.01567817365687992,0.02077368278777941,-0.09245560432426565, ,0.016674722955603242,0.020160534127332635,-0.09323594404408338, ,0.0014064109864896624, ,0.020650077100998566,-0.0016771345844358528,-0.036512668838790334,-0.06366517348856991,-0.09327052178939713,-0.025011733061614926, ,0.04198110825624625, ,0.11292732022943683, ,0.0007230899671877644, ,0.2183525492858238,-0.21295435900674087,0.10376931079000001,1.678358307650133,0.5491420925573052,-1.2724987941551746, ,0.13422481125667718,0.10439707542186004,0.038382678361445786,-0.0008798799416967109,0.04151826196374808,-0.03816812664029436, ,1.6338410377502441
0.01567817365687992,0.02077368278777941,-0.09245560432426565, ,0.01675696269165989,0.02014545746234908,-0.09336382921216307, ,0.0015438022179248953, ,0.020650077100998566,-0.0016771345844358528,-0.036512668838790334,-0.06366517348856991,-0.09327052178939713,-0.025011733061614926, ,0.04198110825624625, ,0.11292732022943683, ,0.0007318209485785849, ,0.2183525492858238,-0.21295435900674087,0.10376931079000001,1.678358307650133,0.5491420925573052,-1.2724987941551746, ,0.13422481125667718,0.10439707542186004,0.038382678361445786,-0.0008798799416967109,0.04151826196374808,-0.03816812664029436, ,1.6374869346618652
0.01567817365687992,0.02077368278777941,-0.09245560432426565, ,0.01683913284317887,0.020130331246325815,-0.09349119992256545, ,0.0016835039891133486, ,0.020650077100998566,-0.0016771345844358528,-0.036512668838790334,-0.06366517348856991,-0.09327052178939713,-0.025011733061614926, ,0.04198110825624625, ,0.11292732022943683, ,0.0007418386647947404, ,0.2183525492858238,-0.21295435900674087,0.10376931079000001,1.678358307650133,0.5491420925573052,-1.2724987941551746, ,0.13422481125667718,0.10439707542186004,0.038382678361445786,-0.0008798799416967109,0.04151826196374808,-0.03816812664029436, ,1.6410329341888428
0.015894148219199218,0.020749924756573907,-0.09284916954240191, ,0.01692123232312131,0.02011515902259923,-0.09361806099540318, ,0.0014314410082347994, ,0.020979245458509176,-0.00208968588801387,-0.03938745341237584,0.0667353140617419,0.06266542468081485,-0.004638721514344383, ,0.04467512745847536, ,0.091544867674028, ,0.0007490220225389076, ,0.2198353139976749,-0.21178822634273295,0.10418671617000001,1.677938927763164,0.5509183670542559,-1.27427394186379, ,0.14422027592472764,0.11378530162886184,0.04191792505263159,-0.033501796081973186,0.21613981194223897,-0.1827156084060895, ,1.644624948501587
0.015894148219199218,0.020749924756573907,-0.09284916954240191, ,0.01700326005087217,0.020099944316730026,-0.09374441722829373, ,0.0015665478117284613, ,0.020979245458509176,-0.00208968588801387,-0.03938745341237584,0.0667353140617419,0.06266542468081485,-0.004638721514344383, ,0.04467512745847536, ,0.091544867674028, ,0.0007574501234583875, ,0.2198353139976749,-0.21178822634273295,0.10418671617000001,1.677938927763164,0.5509183670542559,-1.27427394186379, ,0.14422027592472764,0.11378530162886184,0.04191792505263159,-0.033501796081973186,0.21613981194223897,-0.1827156084060895, ,1.648284912109375
0.015894148219199218,0.020749924756573907,-0.09284916954240191, ,0.017085214952228898,0.02008469063653337,-0.09387027339639943, ,0.001704062639002655, ,0.020979245458509176,-0.00208968588801387,-0.03938745341237584,0.0667353140617419,0.06266542468081485,-0.004638721514344383, ,0.04467512745847536, ,0.091544867674028, ,0.0007671094348414922, ,0.2198353139976749,-0.21178822634273295,0.10418671617000001,1.677938927763164,0.5509183670542559,-1.27427394186379, ,0.14422027592472764,0.11378530162886184,0.04191792505263159,-0.033501796081973186,0.21613981194223897,-0.1827156084060895, ,1.6519229412078857
0.015894148219199218,0.020749924756573907,-0.09284916954240191, ,0.017167095959390057,0.020069401472108655,-0.0939956342524653, ,0.0018433364373811568, ,0.020979245458509176,-0.00208968588801387,-0.03938745341237584,0.0667353140617419,0.06266542468081485,-0.004638721514344383, ,0.04467512745847536, ,0.091544867674028, ,0.0007779804146651253, ,0.2198353139976749,-0.21178822634273295,0.10418671617000001,1.677938927763164,0.5509183670542559,-1.27427394186379, ,0.14422027592472764,0.11378530162886184,0.04191792505263159,-0.033501796081973186,0.21613981194223897,-0.1827156084060895, ,1.6555500030517578
0.016235849686294462,0.020707383905014646,-0.09343710223571283, ,0.017248902010944034,0.020054080295869647,-0.09412050452685981, ,0.001385683697582073, ,0.022611571334264818,-0.003348968889654747,-0.03480724308490009,0.05897816478965766,-0.00500439975968992,0.0154314365872563, ,0.041641841001566524, ,0.05918966841833308, ,0.0007840574474942948, ,0.22227569758592983,-0.21001199778166132,0.10481541682,1.676680788102257,0.5541976430486265,-1.2776014014736288, ,0.16648586238328208,0.11405882398854661,0.03739157633802818,-0.06567361467000933,0.1759676695971451,-0.1849543020835479, ,1.659127950668335
0.016235849686294462,0.020707383905014646,-0.09343710223571283, ,0.017330632051857708,0.020038730562574304,-0.09424488892761226, ,0.0015159700062714707, ,0.022611571334264818,-0.003348968889654747,-0.03480724308490009,0.05897816478965766,-0.00500439975968992,0.0154314365872563, ,0.041641841001566524, ,0.05918966841833308, ,0.0007913041064920886, ,0.22227569758592983,-0.21001199778166132,0.10481541682,1.676680788102257,0.5541976430486265,-1.2776014014736288, ,0.16648586238328208,0.11405882398854661,0.03739157633802818,-0.06567361467000933,0.1759676695971451,-0.1849543020835479, ,1.6627578735351562
0.016235849686294462,0.020707383905014646,-0.09343710223571283, ,0.01741228503346525,0.020023355709355192,-0.09436879214045314, ,0.0016492242955780726, ,0.022611571334264818,-0.003348968889654747,-0.03480724308490009,0.05897816478965766,-0.00500439975968992,0.0154314365872563, ,0.041641841001566524, ,0.05918966841833308, ,0.0007997150887380296, ,0.22227569758592983,-0.21001199778166132,0.10481541682,1.676680788102257,0.5541976430486265,-1.2776014014736288, ,0.16648586238328208,0.11405882398854661,0.03739157633802818,-0.06567361467000933,0.1759676695971451,-0.1849543020835479, ,1.6663908958435059
0.016481023251520587,0.020665471883077727,-0.09379316828876912, ,0.01749385991345668,0.020007959155748996,-0.09449221882885267, ,0.0013952894853585835, ,0.02368896500417511,-0.004763806597342594,-0.034301764867847064,-0.10668537273846011,-0.14934911085842817,-0.031710017036563586, ,0.04195797885164376, ,0.18353985448048296, ,0.0008054973644333747, ,0.22402103521550457,-0.20875319232316272,0.10519393350000002,1.676471098158772,0.5548808255474537,-1.2781584909921109, ,0.16389799923742793,0.1287611147333389,0.03611975401360545,0.0,0.014532974884813149,-0.019124178091527257, ,1.6700739860534668
0.016481023251520587,0.020665471883077727,-0.09379316828876912, ,0.017575355655866588,0.019992544303726836,-0.0946151736340601, ,0.0015251517058770612, ,0.02368896500417511,-0.004763806597342594,-0.034301764867847064,-0.10668537273846011,-0.14934911085842817,-0.031710017036563586, ,0.04195797885164376, ,0.18353985448048296, ,0.0008124171177164871, ,0.22402103521550457,-0.20875319232316272,0.10519393350000002,1.676471098158772,0.5548808255474537,-1.2781584909921109, ,0.16389799923742793,0.1287611147333389,0.03611975401360545,0.0,0.014532974884813149,-0.019124178091527257, ,1.6736948490142822
0.016481023251520587,0.020665471883077727,-0.09379316828876912, ,0.017656771231062907,0.01997711453772421,-0.09473766117514312, ,0.0016577955117296863, ,0.02368896500417511,-0.004763806597342594,-0.034301764867847064,-0.10668537273846011,-0.14934911085842817,-0.031710017036563586, ,0.04195797885164376, ,0.18353985448048296, ,0.0008204683405166129, ,0.22402103521550457,-0.20875319232316272,0.10519393350000002,1.676471098158772,0.5548808255474537,-1.2781584909921109, ,0.16389799923742793,0.1287611147333389,0.03611975401360545,0.0,0.014532974884813149,-0.019124178091527257, ,1.6773109436035156
0.016716188984378016,0.020612872907206564,-0.0941286269019164, ,0.017738105615735546,0.019961673224670934,-0.09485968604902605, ,0.0014152109752797696, ,0.0229742385153761,-0.005180157887332489,-0.03284245088288011,-0.019862966960760002,-0.06442251923386974,-0.04635276476395064, ,0.040413812627534615, ,0.0674148368748, ,0.0008260791200898502, ,0.22569686824921129,-0.20743260500167032,0.10554911696000001,1.676471098158772,0.5555640080462809,-1.278715580510593, ,0.16561420865352666,0.12964063054435898,0.034931604210526324,0.0049588031197506585,0.10066606736555551,-0.10568558047981992, ,1.6809208393096924
0.016716188984378016,0.020612872907206564,-0.0941286269019164, ,0.01781935779288504,0.01994622371402117,-0.09498125283052998, ,0.0015454363594084742, ,0.0229742385153761,-0.005180157887332489,-0.03284245088288011,-0.019862966960760002,-0.06442251923386974,-0.04635276476395064, ,0.040413812627534615, ,0.0674148368748, ,0.0008328020849432953, ,0.22569686824921129,-0.20743260500167032,0.10554911696000001,1.676471098158772,0.5555640080462809,-1.278715580510593, ,0.16561420865352666,0.12964063054435898,0.034931604210526324,0.0049588031197506585,0.10066606736555551,-0.10568558047981992, ,1.6844868659973145
0.016716188984378016,0.020612872907206564,-0.0941286269019164, ,0.017900526751811217,0.019930769337783538,-0.09510236607241147, ,0.0016781207343170316, ,0.0229742385153761,-0.005180157887332489,-0.03284245088288011,-0.019862966960760002,-0.06442251923386974,-0.04635276476395064, ,0.040413812627534615, ,0.0674148368748, ,0.0008406291094745336, ,0.22569686824921129,-0.20743260500167032,0.10554911696000001,1.676471098158772,0.5555640080462809,-1.278715580510593, ,0.16561420865352666,0.12964063054435898,0.034931604210526324,0.0049588031197506585,0.10066606736555551,-0.10568558047981992, ,1.6881799697875977
0.016950538934007053,0.020552597823016067,-0.09445508494798875, ,0.01798161148810213,0.019915313410550885,-0.09522303030540168, ,0.0014349153655011505, ,0.022854967489087726,-0.006240938768426344,-0.03154494402531486,0.06884929494276532,0.0464305438895322,-0.04803699983946763, ,0.0394510120174217, ,0.0830420952557736, ,0.0008460812769610163, ,0.22748081954315716,-0.20604251308430993,0.10590041155,1.676680788102257,0.5576135555427625,-1.2803868490660393, ,0.1760611160639532,0.13733276636537015,0.03403592205128206,0.0,0.22434384141070715,-0.20131603195005213, ,1.6917660236358643
0.016950538934007053,0.020552597823016067,-0.09445508494798875, ,0.018062611003622345,0.019899859229530567,-0.09534325003824533, ,0.0015657615358011382, ,0.022854967489087726,-0.006240938768426344,-0.03154494402531486,0.06884929494276532,0.0464305438895322,-0.04803699983946763, ,0.0394510120174217, ,0.0830420952557736, ,0.0008526238247686538, ,0.22748081954315716,-0.20604251308430993,0.10590041155,1.676680788102257,0.5576135555427625,-1.2803868490660393, ,0.1760611160639532,0.13733276636537015,0.03403592205128206,0.0,0.22434384141070715,-0.20131603195005213, ,1.6953809261322021
0.016950538934007053,0.020552597823016067,-0.09445508494798875, ,0.018143524306502,0.019884410074574352,-0.09546302975774018, ,0.0016987176650813277, ,0.022854967489087726,-0.006240938768426344,-0.03154494402531486,0.06884929494276532,0.0464305438895322,-0.04803699983946763, ,0.0394510120174217, ,0.0830420952557736, ,0.0008602462917984977, ,0.22748081954315716,-0.20604251308430993,0.10590041155,1.676680788102257,0.5576135555427625,-1.2803868490660393, ,0.1760611160639532,0.13733276636537015,0.03403592205128206,0.0,0.22434384141070715,-0.20131603195005213, ,1.6992499828338623
0.017101434070452823,0.02051069463974571,-0.09466550424573816, ,0.01822435041112527,0.01986896920820822,-0.09558237392877575, ,0.0015853714559385184, ,0.023682211249289573,-0.006065459214146609,-0.03336583673024227,0.08189410117671747,0.06201609312673139,-0.027753550813426002, ,0.04136322020640605, ,0.10272584027863954, ,0.0008667206236211766, ,0.22863922947429083,-0.20514667607089987,0.10612726230000001,1.6762614082152878,0.5591165570401824,-1.2816124460067, ,0.181447306995164,0.1381323749031598,0.03611975401360545,-0.022345882593933546,0.25007287892727614,-0.21978185447722767, ,1.7029030323028564
0.017101434070452823,0.02051069463974571,-0.09466550424573816, ,0.018305088338119124,0.019853539875662723,-0.09570128699437251, ,0.0017185697199697167, ,0.023682211249289573,-0.006065459214146609,-0.03336583673024227,0.08189410117671747,0.06201609312673139,-0.027753550813426002, ,0.04136322020640605, ,0.10272584027863954, ,0.0008742591111994822, ,0.22863922947429083,-0.20514667607089987,0.10612726230000001,1.6762614082152878,0.5591165570401824,-1.2816124460067, ,0.181447306995164,0.1381323749031598,0.03611975401360545,-0.022345882593933546,0.25007287892727614,-0.21978185447722767, ,1.7066378593444824
0.0172313803288502,0.02047628285622673,-0.09485160707050458, ,0.01838573711434205,0.01983812530490276,-0.09581977337572167, ,0.0016361939503251426, ,0.024679686665587952,-0.006288584915708499,-0.035371288106731597,0.0255293624196709,0.017690754453303727,0.06285266593894746, ,0.04358625077341579, ,0.031058908082067356, ,0.0008809427501391809, ,0.22962773928219157,-0.2043975709821001,0.10632818725000001,1.6756323383848342,0.5604829220378368,-1.2828899825239453, ,0.18462439991920385,0.13975985501983915,0.038107204593301434,-0.11110368302289059,0.22692111219323322,-0.18422215496922514, ,1.7109098434448242
0.0172313803288502,0.02047628285622673,-0.09485160707050458, ,0.018466295772872596,0.019822728706657564,-0.09593783747222291, ,0.0017697586462343603, ,0.024679686665587952,-0.006288584915708499,-0.035371288106731597,0.0255293624196709,0.017690754453303727,0.06285266593894746, ,0.04358625077341579, ,0.031058908082067356, ,0.0008886715840182695, ,0.22962773928219157,-0.2043975709821001,0.10632818725000001,1.6756323383848342,0.5604829220378368,-1.2828899825239453, ,0.18462439991920385,0.13975985501983915,0.038107204593301434,-0.11110368302289059,0.22692111219323322,-0.18422215496922514, ,1.7145159244537354
0.0172313803288502,0.02047628285622673,-0.09485160707050458, ,0.01854676335299831,0.019807353274450913,-0.09605548366152497, ,0.0019044731901496194, ,0.024679686665587952,-0.006288584915708499,-0.035371288106731597,0.0255293624196709,0.017690754453303727,0.06285266593894746, ,0.04358625077341579, ,0.031058908082067356, ,0.0008974284944159535, ,0.22962773928219157,-0.2043975709821001,0.10632818725000001,1.6756323383848342,0.5604829220378368,-1.2828899825239453, ,0.18462439991920385,0.13975985501983915,0.038107204593301434,-0.11110368302289059,0.22692111219323322,-0.18422215496922514, ,1.718087911605835
0.017718596556390905,0.020345845042943393,-0.09546872479436334, ,0.018627138900204204,0.019792002184630998,-0.09617271629956389, ,0.0012758507520865996, ,0.026176685766371922,-0.007463498887303507,-0.030058200336889808,-0.12782199939209474,-0.1713346733658109,-0.0566316811908758, ,0.04055142538610402, ,0.21376157112384367, ,0.0009006628726866428, ,0.2332265328015802,-0.20171005994186997,0.10699059144,1.674793578610896,0.562395833034553,-1.2842864756954142, ,0.19209907198071008,0.14465997188791277,0.03217941721212122,0.0256741908071381,0.015889508658998693,-0.006608515930834606, ,1.7217190265655518
0.017718596556390905,0.020345845042943393,-0.09546872479436334, ,0.01870742146616151,0.019776678596400272,-0.0962895397206019, ,0.0014055113977443883, ,0.026176685766371922,-0.007463498887303507,-0.030058200336889808,-0.12782199939209474,-0.1713346733658109,-0.0566316811908758, ,0.04055142538610402, ,0.21376157112384367, ,0.0009049412500176406, ,0.2332265328015802,-0.20171005994186997,0.10699059144,1.674793578610896,0.562395833034553,-1.2842864756954142, ,0.19209907198071008,0.14465997188791277,0.03217941721212122,0.0256741908071381,0.015889508658998693,-0.006608515930834606, ,1.7253649234771729
0.017718596556390905,0.020345845042943393,-0.09546872479436334, ,0.0187876101087164,0.019761385651846018,-0.09640595823726743, ,0.0015371367152583833, ,0.026176685766371922,-0.007463498887303507,-0.030058200336889808,-0.12782199939209474,-0.1713346733658109,-0.0566316811908758, ,0.04055142538610402, ,0.21376157112384367, ,0.0009102538169524369, ,0.2332265328015802,-0.20171005994186997,0.10699059144,1.674793578610896,0.562395833034553,-1.2842864756954142, ,0.19209907198071008,0.14465997188791277,0.03217941721212122,0.0256741908071381,0.015889508658998693,-0.006608515930834606, ,1.7289338111877441
0.017971628118655172,0.020271583741168744,-0.09578953179307177, ,0.01886770389187862,0.019746126475969395,-0.09652197614059392, ,0.001271035739515582, ,0.024710979177596903,-0.006924825034722833,-0.033950633696721924,0.027282618789867874,0.022698496612005264,-0.03199764256358509, ,0.04255856226526152, ,0.03548968765638613, ,0.0009132603329737964, ,0.23511087962289098,-0.20022729523001886,0.10733670087000001,1.6750032685543808,0.5638988345319728,-1.2854303938959342, ,0.18214384176289977,0.145102357123044,0.03670233069124424,-0.013081094392179702,0.20932574781131827,-0.1694117422641756, ,1.7325749397277832
0.017971628118655172,0.020271583741168744,-0.09578953179307177, ,0.018947701885810193,0.0197309041767166,-0.09663759770005814, ,0.0014015242320191857, ,0.024710979177596903,-0.006924825034722833,-0.033950633696721924,0.027282618789867874,0.022698496612005264,-0.03199764256358509, ,0.04255856226526152, ,0.03548968765638613, ,0.0009172955718088822, ,0.23511087962289098,-0.20022729523001886,0.10733670087000001,1.6750032685543808,0.5638988345319728,-1.2854303938959342, ,0.18214384176289977,0.145102357123044,0.03670233069124424,-0.013081094392179702,0.20932574781131827,-0.1694117422641756, ,1.736189842224121
0.017971628118655172,0.020271583741168744,-0.09578953179307177, ,0.019027603166814153,0.01971572184500784,-0.09675282716362041, ,0.0015336243741080773, ,0.024710979177596903,-0.006924825034722833,-0.033950633696721924,0.027282618789867874,0.022698496612005264,-0.03199764256358509, ,0.04255856226526152, ,0.03548968765638613, ,0.000922347447237564, ,0.23511087962289098,-0.20022729523001886,0.10733670087000001,1.6750032685543808,0.5638988345319728,-1.2854303938959342, ,0.18214384176289977,0.145102357123044,0.03670233069124424,-0.013081094392179702,0.20932574781131827,-0.1694117422641756, ,1.7399449348449707
0.018210309397471917,0.02020979593337107,-0.09612078923509795, ,0.01910740681732317,0.01970058255476812,-0.09686766875776269, ,0.0012735427228907211, ,0.024696343348357803,-0.006023636401095961,-0.03318486025680653,0.049280773056817016,0.03919155159113794,-0.027535532687413114, ,0.04180225496951525, ,0.06296453021588562, ,0.0009252026933810857, ,0.2368793854510884,-0.19887581697702958,0.10769706949,1.674793578610896,0.5662216550279852,-1.2874061769989138, ,0.18390880146990463,0.1338461799132169,0.03628430870159454,-0.015233864862798934,0.22818555437859914,-0.18061145799762338, ,1.7465488910675049
0.018210309397471917,0.02020979593337107,-0.09612078923509795, ,0.019187111925888175,0.019685489362956776,-0.09698212668752906, ,0.0014039026911650636, ,0.024696343348357803,-0.006023636401095961,-0.03318486025680653,0.049280773056817016,0.03919155159113794,-0.027535532687413114, ,0.04180225496951525, ,0.06296453021588562, ,0.0009290631772341823, ,0.2368793854510884,-0.19887581697702958,0.10769706949,1.674793578610896,0.5662216550279852,-1.2874061769989138, ,0.18390880146990463,0.1338461799132169,0.03628430870159454,-0.015233864862798934,0.22818555437859914,-0.18061145799762338, ,1.7503178119659424
0.01847491372395765,0.020146387416139402,-0.0964615548269855, ,0.019266717587167314,0.019670445309597603,-0.09709620513656286, ,0.0011208279359562015, ,0.025110581829861367,-0.005692279687032345,-0.03268271786647924,-0.02437199412666398,-0.05503496769112244,-0.020042161498177908, ,0.04160653091774711, ,0.060189737303022656, ,0.0009305972953039585, ,0.23882551413539296,-0.19749344779254338,0.10806910472000002,1.6745838886674116,0.567997929524936,-1.288772931006827, ,0.18007009783391037,0.12806604798714005,0.03555538285714287,-0.01734228587660852,0.129592908504029,-0.10283144710578603, ,1.754612922668457
0.01847491372395765,0.020146387416139402,-0.0964615548269855, ,0.019346222901914296,0.01965545341780893,-0.09720990826714782, ,0.0012490911678940835, ,0.025110581829861367,-0.005692279687032345,-0.03268271786647924,-0.02437199412666398,-0.05503496769112244,-0.020042161498177908, ,0.04160653091774711, ,0.060189737303022656, ,0.0009331250244514991, ,0.23882551413539296,-0.19749344779254338,0.10806910472000002,1.6745838886674116,0.567997929524936,-1.288772931006827, ,0.18007009783391037,0.12806604798714005,0.03555538285714287,-0.01734228587660852,0.129592908504029,-0.10283144710578603, ,1.7582268714904785
0.018724943550330234,0.020086683732394823,-0.09679414622239033, ,0.019425626976967217,0.019640516693833755,-0.09732324022024577, ,0.0009848668687841807, ,0.02511603824089476,-0.006039901145653141,-0.03325035699928948,-0.09053965835631533,-0.11545811548397847,0.0058959484661917205, ,0.04210560560480693, ,0.14672411364115492, ,0.000933532440548607, ,0.2405708517649677,-0.1962037514025479,0.10842817705,1.6739548188369582,0.568954385023294,-1.28930782011228, ,0.17253989374267414,0.13017413108157858,0.03579508206741574,-0.03937220202317225,0.06547697859892411,-0.04403898105176219, ,1.7617828845977783
0.018724943550330234,0.020086683732394823,-0.09679414622239033, ,0.01950492892523732,0.019625638127069293,-0.09743620511553651, ,0.0011104863157765752, ,0.02511603824089476,-0.006039901145653141,-0.03325035699928948,-0.09053965835631533,-0.11545811548397847,0.0058959484661917205, ,0.04210560560480693, ,0.14672411364115492, ,0.0009349148926988255, ,0.2405708517649677,-0.1962037514025479,0.10842817705,1.6739548188369582,0.568954385023294,-1.28930782011228, ,0.17253989374267414,0.13017413108157858,0.03579508206741574,-0.03937220202317225,0.06547697859892411,-0.04403898105176219, ,1.7654008865356445
0.018724943550330234,0.020086683732394823,-0.09679414622239033, ,0.019584127865697555,0.019610820690097546,-0.09754880705145615, ,0.0012386106287788524, ,0.02511603824089476,-0.006039901145653141,-0.03325035699928948,-0.09053965835631533,-0.11545811548397847,0.0058959484661917205, ,0.04210560560480693, ,0.14672411364115492, ,0.0009372691232110737, ,0.2405708517649677,-0.1962037514025479,0.10842817705,1.6739548188369582,0.568954385023294,-1.28930782011228, ,0.17253989374267414,0.13017413108157858,0.03579508206741574,-0.03937220202317225,0.06547697859892411,-0.04403898105176219, ,1.7689929008483887
0.018967582000926828,0.020023788660661082,-0.09710677085458705, ,0.019663222923371408,0.01959606733871488,-0.09766105010523733, ,0.000986958616117409, ,0.023442161378470786,-0.0064187559476397505,-0.029456702531008967,-0.04577535112955088,-0.057400511073945025,0.007433089400635168, ,0.03818943154866249, ,0.07341784023432116, ,0.000937651350079584, ,0.2422775757301713,-0.19492177774542663,0.10876650874000002,1.673535438949989,0.5699108405216521,-1.2900060666980144, ,0.16825698857884888,0.1255250549715222,0.03204992257545272,-0.04182813921688302,0.12018893728700149,-0.08423000606432934, ,1.7725720405578613
0.018967582000926828,0.020023788660661082,-0.09710677085458705, ,0.019742213229321348,0.019581381011962336,-0.09777293833294727, ,0.0011133540213498906, ,0.023442161378470786,-0.0064187559476397505,-0.029456702531008967,-0.04577535112955088,-0.057400511073945025,0.007433089400635168, ,0.03818943154866249, ,0.07341784023432116, ,0.0009389925918450061, ,0.2422775757301713,-0.19492177774542663,0.10876650874000002,1.673535438949989,0.5699108405216521,-1.2900060666980144, ,0.16825698857884888,0.1255250549715222,0.03204992257545272,-0.04182813921688302,0.12018893728700149,-0.08423000606432934, ,1.7762959003448486
0.018967582000926828,0.020023788660661082,-0.09710677085458705, ,0.01982109792063782,0.019566764632155408,-0.09788447576952733, ,0.0012418475440060756, ,0.023442161378470786,-0.0064187559476397505,-0.029456702531008967,-0.04577535112955088,-0.057400511073945025,0.007433089400635168, ,0.03818943154866249, ,0.07341784023432116, ,0.0009412869475431961, ,0.2422775757301713,-0.19492177774542663,0.10876650874000002,1.673535438949989,0.5699108405216521,-1.2900060666980144, ,0.16825698857884888,0.1255250549715222,0.03204992257545272,-0.04182813921688302,0.12018893728700149,-0.08423000606432934, ,1.7801640033721924
0.019190958367226146,0.019961593581752535,-0.09738226556280653, ,0.019899876140427614,0.01955222110491431,-0.09799566642883228, ,0.0010229422546726337, ,0.021248513264798333,-0.005931519889365756,-0.02574654892992606,0.021428854903950953,0.01933414453633151,-0.06277682957715021, ,0.03390526546074118, ,0.028861629441089647, ,0.000941900897220861, ,0.24385301323651312,-0.19375564508141874,0.10905817399,1.6733257490065043,0.571413842019072,-1.2911499848985346, ,0.15869053772319527,0.11643796510241813,0.028495190554561723,0.03227953203005408,0.17334107591661504,-0.12442518528987774, ,1.7838809490203857
0.019190958367226146,0.019961593581752535,-0.09738226556280653, ,0.019978547037802843,0.019537753319193548,-0.0981065143036691, ,0.0011508573850950634, ,0.021248513264798333,-0.005931519889365756,-0.02574654892992606,0.021428854903950953,0.01933414453633151,-0.06277682957715021, ,0.03390526546074118, ,0.028861629441089647, ,0.0009434602739960417, ,0.24385301323651312,-0.19375564508141874,0.10905817399,1.6733257490065043,0.571413842019072,-1.2911499848985346, ,0.15869053772319527,0.11643796510241813,0.028495190554561723,0.03227953203005408,0.17334107591661504,-0.12442518528987774, ,1.7875819206237793
0.019393539641108258,0.019903920510906777,-0.09762755920398553, ,0.02005710976786937,0.019523364147312487,-0.09821702336583589, ,0.0009657206931136037, ,0.02114002993807755,-0.006021211316821451,-0.02562665736295995,0.009235122104614312,0.005752801222014225,-0.024408697834327395, ,0.0337621299550722, ,0.01087985062881241, ,0.000943625165989505, ,0.2454207280099807,-0.19260495788315926,0.10933946892000002,1.673535438949989,0.5730534800162572,-1.2924869997428916, ,0.15633763024459765,0.11433366452827805,0.028292738046181175,-0.00866231741538894,0.16535495439435988,-0.12012501585836263, ,1.7915680408477783
0.019393539641108258,0.019903920510906777,-0.09762755920398553, ,0.020135563491715677,0.019509056444984997,-0.0983271975661617, ,0.0010936228158076758, ,0.02114002993807755,-0.006021211316821451,-0.02562665736295995,0.009235122104614312,0.005752801222014225,-0.024408697834327395, ,0.0337621299550722, ,0.01087985062881241, ,0.000944728089885227, ,0.2454207280099807,-0.19260495788315926,0.10933946892000002,1.673535438949989,0.5730534800162572,-1.2924869997428916, ,0.15633763024459765,0.11433366452827805,0.028292738046181175,-0.00866231741538894,0.16535495439435988,-0.12012501585836263, ,1.7953779697418213
0.019393539641108258,0.019903920510906777,-0.09762755920398553, ,0.02021390737640138,0.019494833051349397,-0.09843704083454492, ,0.0012229539160942145, ,0.02114002993807755,-0.006021211316821451,-0.02562665736295995,0.009235122104614312,0.005752801222014225,-0.024408697834327395, ,0.0337621299550722, ,0.01087985062881241, ,0.000946758935332008, ,0.2454207280099807,-0.19260495788315926,0.10933946892000002,1.673535438949989,0.5730534800162572,-1.2924869997428916, ,0.15633763024459765,0.11433366452827805,0.028292738046181175,-0.00866231741538894,0.16535495439435988,-0.12012501585836263, ,1.7990219593048096
0.019612301287351183,0.019846245923268346,-0.0979021906451146, ,0.020292140594946103,0.019480696788998948,-0.09854655707999267, ,0.0010054927926711967, ,0.021133103571439067,-0.0047771185562554,-0.02763164718701821,0.003327176810510004,-0.014627933223233141,0.001421758264224619, ,0.03511320057370934, ,0.015001014239012593, ,0.0009471845429938862, ,0.2469961655163225,-0.19146971615064826,0.10964150449000001,1.6731160590630199,0.5745564815136771,-1.293549239203271, ,0.14874128770920184,0.1039396950257073,0.030398495267175574,-0.03556003150567097,0.14206236557050972,-0.11137491313652316, ,1.8026130199432373
0.019612301287351183,0.019846245923268346,-0.0979021906451146, ,0.020370262326318073,0.019466650464011363,-0.0986557501906604, ,0.0011342176325394903, ,0.021133103571439067,-0.0047771185562554,-0.02763164718701821,0.003327176810510004,-0.014627933223233141,0.001421758264224619, ,0.03511320057370934, ,0.015001014239012593, ,0.0009485301047891784, ,0.2469961655163225,-0.19146971615064826,0.10964150449000001,1.6731160590630199,0.5745564815136771,-1.293549239203271, ,0.14874128770920184,0.1039396950257073,0.030398495267175574,-0.03556003150567097,0.14206236557050972,-0.11137491313652316, ,1.806161880493164
0.019612301287351183,0.019846245923268346,-0.0979021906451146, ,0.02044827175542266,0.01945269686597886,-0.09876462403388951, ,0.0012639299165914468, ,0.021133103571439067,-0.0047771185562554,-0.02763164718701821,0.003327176810510004,-0.014627933223233141,0.001421758264224619, ,0.03511320057370934, ,0.015001014239012593, ,0.0009507829605877659, ,0.2469961655163225,-0.19146971615064826,0.10964150449000001,1.6731160590630199,0.5745564815136771,-1.293549239203271, ,0.14874128770920184,0.1039396950257073,0.030398495267175574,-0.03556003150567097,0.14206236557050972,-0.11137491313652316, ,1.809804916381836
0.01981294917417404,0.019804503409321675,-0.09816872039401695, ,0.020526168073091326,0.019438838768038435,-0.09887318245624813, ,0.0010670794838158004, ,0.02150259668051532,-0.0041480121550931375,-0.02878677682677015,-0.03518421132064587,-0.05020923362655408,0.04928823844953142, ,0.03616968604948043, ,0.06130967378407124, ,0.0009516077586248441, ,0.2483862574336829,-0.19052754273999287,0.10993446603000001,1.6724869892325662,0.575786210011566,-1.2943886428562579, ,0.14712704117592368,0.09803403053561031,0.031857623040000005,-0.07887041408886812,0.11219790296039493,-0.07646806691011118, ,1.813478946685791
0.01981294917417404,0.019804503409321675,-0.09816872039401695, ,0.02060395047607013,0.01942507892690176,-0.09898142928356946, ,0.0011958853358991432, ,0.02150259668051532,-0.0041480121550931375,-0.02878677682677015,-0.03518421132064587,-0.05020923362655408,0.04928823844953142, ,0.03616968604948043, ,0.06130967378407124, ,0.0009533280232535364, ,0.2483862574336829,-0.19052754273999287,0.10993446603000001,1.6724869892325662,0.575786210011566,-1.2943886428562579, ,0.14712704117592368,0.09803403053561031,0.031857623040000005,-0.07887041408886812,0.11219790296039493,-0.07646806691011118, ,1.8173158168792725
0.020044307847512516,0.019762440339143175,-0.09849342235301725, ,0.020681618167008392,0.01941142008288513,-0.09908936832099074, ,0.0009404952208189376, ,0.020586020352906423,-0.00383186626672089,-0.030829206985159067,0.0027393906565773684,0.022094258742958214,0.022909257642845897, ,0.037268048465006746, ,0.022262809378680037, ,0.0009532382833763713, ,0.24993852674140205,-0.18943863740472722,0.11029094578000001,1.6724869892325662,0.5772892115089859,-1.2953692035764968, ,0.13576100366018712,0.09874811816698312,0.03374748203389831,-0.05026412345445891,0.16913088361811113,-0.1078425725820884, ,1.8215999603271484
0.020044307847512516,0.019762440339143175,-0.09849342235301725, ,0.020759170354447527,0.01939786495993958,-0.09919700335299239, ,0.001067225296958834, ,0.020586020352906423,-0.00383186626672089,-0.030829206985159067,0.0027393906565773684,0.022094258742958214,0.022909257642845897, ,0.037268048465006746, ,0.022262809378680037, ,0.0009540298598595827, ,0.24993852674140205,-0.18943863740472722,0.11029094578000001,1.6724869892325662,0.5772892115089859,-1.2953692035764968, ,0.13576100366018712,0.09874811816698312,0.03374748203389831,-0.05026412345445891,0.16913088361811113,-0.1078425725820884, ,1.8252010345458984
0.020044307847512516,0.019762440339143175,-0.09849342235301725, ,0.02083660625280954,0.019384416265680857,-0.09930433814343763, ,0.0011950830022665197, ,0.020586020352906423,-0.00383186626672089,-0.030829206985159067,0.0027393906565773684,0.022094258742958214,0.022909257642845897, ,0.037268048465006746, ,0.022262809378680037, ,0.0009556922953244581, ,0.24993852674140205,-0.18943863740472722,0.11029094578000001,1.6724869892325662,0.5772892115089859,-1.2953692035764968, ,0.13576100366018712,0.09874811816698312,0.03374748203389831,-0.05026412345445891,0.16913088361811113,-0.1078425725820884, ,1.8287179470062256
0.020249175152748218,0.019733561371179906,-0.09880835423063758, ,0.02091392508238585,0.019371076691419076,-0.09941137643561085, ,0.0009679480315106664, ,0.020829384720630176,-0.0024581282644537336,-0.032785075991986976,-0.023501755696474,-0.022716527939285983,0.012081643522114044, ,0.038920006040658435, ,0.03268539865080747, ,0.0009557762387229939, ,0.25122822313139753,-0.18851190945982027,0.11063446263000001,1.6724869892325662,0.5785189400068749,-1.2962086072294836, ,0.12806604798714005,0.08893808955807946,0.03571482403587444,-0.03535600344795618,0.1132420285988505,-0.06924998091963318, ,1.8322529792785645
0.020249175152748218,0.019733561371179906,-0.09880835423063758, ,0.020991126069325964,0.019357848912189533,-0.09951812195225729, ,0.0010933532060155046, ,0.020829384720630176,-0.0024581282644537336,-0.032785075991986976,-0.023501755696474,-0.022716527939285983,0.012081643522114044, ,0.038920006040658435, ,0.03268539865080747, ,0.0009567121364596776, ,0.25122822313139753,-0.18851190945982027,0.11063446263000001,1.6724869892325662,0.5785189400068749,-1.2962086072294836, ,0.12806604798714005,0.08893808955807946,0.03571482403587444,-0.03535600344795618,0.1132420285988505,-0.06924998091963318, ,1.8358538150787354
0.020249175152748218,0.019733561371179906,-0.09880835423063758, ,0.021068208445626,0.01934473558678207,-0.09962457839562189, ,0.0012199274211850254, ,0.020829384720630176,-0.0024581282644537336,-0.032785075991986976,-0.023501755696474,-0.022716527939285983,0.012081643522114044, ,0.038920006040658435, ,0.03268539865080747, ,0.0009584906181132272, ,0.25122822313139753,-0.18851190945982027,0.11063446263000001,1.6724869892325662,0.5785189400068749,-1.2962086072294836, ,0.12806604798714005,0.08893808955807946,0.03571482403587444,-0.03535600344795618,0.1132420285988505,-0.06924998091963318, ,1.8395888805389404
0.020456517589856463,0.01971263514065885,-0.09914044656606334, ,0.021145171449117556,0.019331739357771095,-0.09973074944748815, ,0.0009837597405440543, ,0.020789167749857833,-0.0016737673809588622,-0.03327951976463057,0.018903102474761527,0.0023303501678198432,-0.014344676265909895, ,0.03927489565538943, ,0.0190451304517537, ,0.0009586602095389374, ,0.2525024740556446,-0.18765468611078137,0.11099742383000001,1.6720676093455973,0.5798853050045292,-1.2969960713058855, ,0.12686756892843687,0.08295187199167026,0.03645036961098399,-0.013083273310530379,0.13269929477632658,-0.10123999276545934, ,1.843247890472412
0.020456517589856463,0.01971263514065885,-0.09914044656606334, ,0.021222014323456342,0.019318862851546048,-0.09983663876921794, ,0.0011071248568063493, ,0.020789167749857833,-0.0016737673809588622,-0.03327951976463057,0.018903102474761527,0.0023303501678198432,-0.014344676265909895, ,0.03927489565538943, ,0.0190451304517537, ,0.0009596499738540535, ,0.2525024740556446,-0.18765468611078137,0.11099742383000001,1.6720676093455973,0.5798853050045292,-1.2969960713058855, ,0.12686756892843687,0.08295187199167026,0.03645036961098399,-0.013083273310530379,0.13269929477632658,-0.10123999276545934, ,1.8468618392944336
0.020456517589856463,0.01971263514065885,-0.09914044656606334, ,0.02129873631811069,0.019306108678340775,-0.09994225000178952, ,0.0012318623706929774, ,0.020789167749857833,-0.0016737673809588622,-0.03327951976463057,0.018903102474761527,0.0023303501678198432,-0.014344676265909895, ,0.03927489565538943, ,0.0190451304517537, ,0.000961452704958947, ,0.2525024740556446,-0.18765468611078137,0.11099742383000001,1.6720676093455973,0.5798853050045292,-1.2969960713058855, ,0.12686756892843687,0.08295187199167026,0.03645036961098399,-0.013083273310530379,0.13269929477632658,-0.10123999276545934, ,1.8507230281829834
0.02066118379554654,0.019692049709967862,-0.09946196685585995, ,0.021375336688350583,0.019293479432264372,-0.10004758676583789, ,0.0010058942785062372, ,0.02008713184761289,-0.002175141770122636,-0.03135654846255124,0.014556250557980606,0.011774457629505863,0.04068790378464527, ,0.03730224174319609, ,0.018721430738977387, ,0.0009617450837322844, ,0.2537690022470174,-0.18683607642611355,0.11135001471000001,1.6714385395151437,0.5812516700021837,-1.2981919290829902, ,0.12569131332247785,0.0809700866539853,0.034477947012987016,-0.06903078205165232,0.15157057658871345,-0.10828765316527653, ,1.8551239967346191
0.02066118379554654,0.019692049709967862,-0.09946196685585995, ,0.021451814695235993,0.019280977691330112,-0.10015265266169282, ,0.0011274414869205701, ,0.02008713184761289,-0.002175141770122636,-0.03135654846255124,0.014556250557980606,0.011774457629505863,0.04068790378464527, ,0.03730224174319609, ,0.018721430738977387, ,0.0009628280667596588, ,0.2537690022470174,-0.18683607642611355,0.11135001471000001,1.6714385395151437,0.5812516700021837,-1.2981919290829902, ,0.12569131332247785,0.0809700866539853,0.034477947012987016,-0.06903078205165232,0.15157057658871345,-0.10828765316527653, ,1.858870029449463
0.02066118379554654,0.019692049709967862,-0.09946196685585995, ,0.02152816960560565,0.01926860601748663,-0.10025745126941862, ,0.0012505056608271595, ,0.02008713184761289,-0.002175141770122636,-0.03135654846255124,0.014556250557980606,0.011774457629505863,0.04068790378464527, ,0.03730224174319609, ,0.018721430738977387, ,0.0009646961030847724, ,0.2537690022470174,-0.18683607642611355,0.11135001471000001,1.6714385395151437,0.5812516700021837,-1.2981919290829902, ,0.12569131332247785,0.0809700866539853,0.034477947012987016,-0.06903078205165232,0.15157057658871345,-0.10828765316527653, ,1.8626320362091064
0.02095286670466096,0.019660781865832828,-0.09990055318007275, ,0.021604400692065946,0.019256366956646974,-0.10036198614885279, ,0.0008949683459166617, ,0.01878285972960244,-0.0022646600695819807,-0.027420709051103956,-0.002665848537672174,-0.001470676055720223,0.024784089929118323, ,0.033313957881314166, ,0.0030420608613662, ,0.0009642462465869135, ,0.25562245813683127,-0.18566994376210566,0.11183482717000001,1.6710191596281745,0.5834378539984307,-1.2997295793217112, ,0.11997084899933096,0.07472200122714234,0.030340593371428574,-0.04585790224735055,0.1282525309212106,-0.0789717156478524, ,1.866710901260376
0.02095286670466096,0.019660781865832828,-0.09990055318007275, ,0.02168050723297929,0.01924426303871915,-0.10046626083964552, ,0.0010114216864843444, ,0.01878285972960244,-0.0022646600695819807,-0.027420709051103956,-0.002665848537672174,-0.001470676055720223,0.024784089929118323, ,0.033313957881314166, ,0.0030420608613662, ,0.0009645486532529229, ,0.25562245813683127,-0.18566994376210566,0.11183482717000001,1.6710191596281745,0.5834378539984307,-1.2997295793217112, ,0.11997084899933096,0.07472200122714234,0.030340593371428574,-0.04585790224735055,0.1282525309212106,-0.0789717156478524, ,1.870370864868164
0.02095286670466096,0.019660781865832828,-0.09990055318007275, ,0.021756488512453057,0.019232296777636094,-0.10057027886129859, ,0.001130460069555494, ,0.01878285972960244,-0.0022646600695819807,-0.027420709051103956,-0.002665848537672174,-0.001470676055720223,0.024784089929118323, ,0.033313957881314166, ,0.0030420608613662, ,0.000965605413866315, ,0.25562245813683127,-0.18566994376210566,0.11183482717000001,1.6710191596281745,0.5834378539984307,-1.2997295793217112, ,0.11997084899933096,0.07472200122714234,0.030340593371428574,-0.04585790224735055,0.1282525309212106,-0.0789717156478524, ,1.8739159107208252
0.021135040061320304,0.019636860649706628,-0.10016009304106287, ,0.02183234382032793,0.019220470671385374,-0.10067404371320425, ,0.000961123529920645, ,0.017835116324706923,-0.002224611534233481,-0.025152697919639547,0.001839811701587202,0.0014795947201238925,-0.018787355655492114, ,0.030914373411581732, ,0.002358821761906469, ,0.0009655770475122285, ,0.2567963135337134,-0.1849285614061801,0.11212260355,1.6708094696846902,0.5846675824963197,-1.3004873042345575, ,0.11488733844851184,0.0718916223927809,0.02794528336842106,0.0016771651347489874,0.11728036875289699,-0.06892518416988117, ,1.8775529861450195
0.021135040061320304,0.019636860649706628,-0.10016009304106287, ,0.02190807245216702,0.019208787202039404,-0.1007775588746847, ,0.001078002787374041, ,0.017835116324706923,-0.002224611534233481,-0.025152697919639547,0.001839811701587202,0.0014795947201238925,-0.018787355655492114, ,0.030914373411581732, ,0.002358821761906469, ,0.0009662841276371456, ,0.2567963135337134,-0.1849285614061801,0.11212260355,1.6708094696846902,0.5846675824963197,-1.3004873042345575, ,0.11488733844851184,0.0718916223927809,0.02794528336842106,0.0016771651347489874,0.11728036875289699,-0.06892518416988117, ,1.8811218738555908
0.021135040061320304,0.019636860649706628,-0.10016009304106287, ,0.02198367370924425,0.019197248835785906,-0.10088082780503117, ,0.0011970364302392052, ,0.017835116324706923,-0.002224611534233481,-0.025152697919639547,0.001839811701587202,0.0014795947201238925,-0.018787355655492114, ,0.030914373411581732, ,0.002358821761906469, ,0.0009677263295284086, ,0.2567963135337134,-0.1849285614061801,0.11212260355,1.6708094696846902,0.5846675824963197,-1.3004873042345575, ,0.11488733844851184,0.0718916223927809,0.02794528336842106,0.0016771651347489874,0.11728036875289699,-0.06892518416988117, ,1.8846638202667236
0.02124756640650812,0.019623520606788337,-0.10031886446435975, ,0.02205914689853302,0.019185858022956716,-0.10098385394354255, ,0.0011368475886174686, ,0.01765773788521962,-0.002443597118607816,-0.024947363397320683,0.0361516844248217,0.006089676011315925,-0.024370054946640792, ,0.030661666859111956, ,0.0366608616568618, ,0.0009687767721314461, ,0.2575145276910163,-0.18447292016660086,0.11229889899,1.6710191596281745,0.5853507649951469,-1.3008810362727583, ,0.11364903180655184,0.07299764735266984,0.02770228090434783,-0.005516606610272297,0.12131547236905893,-0.10805296586674237, ,1.8883039951324463
0.02124756640650812,0.019623520606788337,-0.10031886446435975, ,0.02213449133269511,0.019174617198059137,-0.10108664070956484, ,0.001256037602049285, ,0.01765773788521962,-0.002443597118607816,-0.024947363397320683,0.0361516844248217,0.006089676011315925,-0.024370054946640792, ,0.030661666859111956, ,0.0366608616568618, ,0.000970549987130939, ,0.2575145276910163,-0.18447292016660086,0.11229889899,1.6710191596281745,0.5853507649951469,-1.3008810362727583, ,0.11364903180655184,0.07299764735266984,0.02770228090434783,-0.005516606610272297,0.12131547236905893,-0.10805296586674237, ,1.892077922821045
0.02124756640650812,0.019623520606788337,-0.10031886446435975, ,0.022209706330069107,0.01916352877980527,-0.10118919150253079, ,0.001376508215294312, ,0.01765773788521962,-0.002443597118607816,-0.024947363397320683,0.0361516844248217,0.006089676011315925,-0.024370054946640792, ,0.030661666859111956, ,0.0366608616568618, ,0.0009730405284080148, ,0.2575145276910163,-0.18447292016660086,0.11229889899,1.6710191596281745,0.5853507649951469,-1.3008810362727583, ,0.11364903180655184,0.07299764735266984,0.02770228090434783,-0.005516606610272297,0.12131547236905893,-0.10805296586674237, ,1.895805835723877
