NicholasDascanio/dvrk_moveit_final/test/execution/third_experiment_notsharpbends/thirdexp_300vel4.0/thirdexp_300vel4.0_13.csv
Current Position (x),Current Position (y),Current Position (z), ,Planned Position (x),Planned Position (y),Planned Position (z), ,Position Error,,Cartesian linear Velocity(x),Cartesian linear Velocity(y),Cartesian linear Velocity(z),Cartesian Angular Velocity(x),Cartesian Angular Velocity(y),Cartesian Angular Velocity(z), ,Total Linear Velocity, ,Total Angular Velocity, ,MSE, ,Joint 1 Position,Joint 2 Position,Joint 3 Position,Joint 4 Position,Joint 5 Position,Joint 6 Position, ,Joint 1 Velocity,Joint 2 Velocity,Joint 3 Velocity,Joint 4 Velocity,Joint 5 Velocity,Joint 6 Velocity, ,Time Stamp
0.008830277805351333,0.020557224131533255,-0.08061436733134228, ,0.009051263392691961,0.020492708597577354,-0.08071311532486389, ,0.00025049560906020043, ,0.00012009857818723015,-0.00018900771086217377,0.0006696665986151864,0.21297381254728312,0.0019449752614882888,-0.07668557403801357, ,0.0007061168009251631, ,0.21298269356849917, ,2.0874634088350037e-05, ,0.16281837718727535,-0.2428413352299897,0.09117066828,1.680874586971947,0.5022757731377591,-1.2345274894077236, ,0.002811679178594228,0.0002472893517484951,-0.0006799753255358705,-0.001294644800293098,0.0,-0.22724566615409003, ,0.03957104682922363
0.008892616086674535,0.020564173915148837,-0.08066652323480375, ,0.009147003491781077,0.02050170474104184,-0.08082100148673599, ,0.0003041034033194798, ,0.0017253753086142957,0.0005735725897221775,-0.002841364436478662,0.29901482820580366,-0.03973354699865289,-0.117449973392899, ,0.003373315480672122, ,0.3016432035432843, ,2.5209046017258192e-05, ,0.16311184103649587,-0.24278727609987014,0.09121474214000001,1.680874586971947,0.4985865876440922,-1.2418924060057717, ,0.011819104830602044,0.0016192586395864848,0.0029254015647382924,-0.001294644800293098,-0.0357328840814682,-0.3224914290741241, ,0.07509994506835938
0.008961430844650464,0.02057362435923377,-0.08073179255393814, ,0.00924265606588661,0.020510368249159753,-0.08092874204814596, ,0.00034911038911743984, ,0.0022317946969522967,0.0005185803700197934,-0.0027301657208503105,-0.08193004739399028,-0.05525179948124604,0.016423839558247774, ,0.0035642163280054082, ,0.0988195021832514, ,2.8240918796785e-05, ,0.16359065047469779,-0.2427100487711279,0.09127826035000002,1.680874586971947,0.49626376714807974,-1.2453890984922098, ,0.01800700978339104,0.002228711082560793,0.0028546257204301083,0.0015038706818156884,-0.037217407388778254,0.0821969382809494, ,0.11082100868225098
0.00901895407280016,0.020591471176878692,-0.08081337289140555, ,0.0093382197519701,0.020518702778574913,-0.08103634039401883, ,0.0003961569397462859, ,0.0018419286218670887,0.00016025495257872578,-0.0027984176796018055,-0.0045592016082618226,0.05360943684174924,0.05981028188206717, ,0.0033540310385247116, ,0.05380295565879871, ,3.094919860103348e-05, ,0.1642548055018811,-0.24260965324376296,0.09137288952000001,1.6817133467458854,0.4976301321457341,-1.2420109468214429, ,0.026006287080973085,0.005556274074817743,0.0032999402361715354,-0.03921543785431893,0.09227520111848618,-0.0007153747235258412, ,0.1463608741760254
0.009125486827606215,0.020605571666062496,-0.08092191568369467, ,0.009433693197020145,0.020526711971681693,-0.08114379988490604, ,0.00038786932888842674, ,0.0028172272194717128,0.00018628916161814814,-0.002488298035290782,0.01269489477327715,-0.0325489404430693,0.006949543155205441, ,0.0037633894258102866, ,0.034936998685858235, ,3.2456455194842935e-05, ,0.16538232450151788,-0.2424243076547816,0.09149474078000001,1.6817133467458854,0.4981766781447959,-1.242374939696088, ,0.029226036821210586,0.005027198497146096,0.0027525162467599796,-0.015653679581605476,0.0,-0.02141092044177008, ,0.18218588829040527
0.009246379555293767,0.020618416991130553,-0.0810414511416947, ,0.009529075058031779,0.02053439945664769,-0.08125112385704104, ,0.0003618540326286087, ,0.00316809951270987,0.0003178149097538628,-0.00341346142397011,-0.03787415890749857,-0.03448228913796269,0.01903937062261547, ,0.004667930990516721, ,0.051219919725445616, ,3.3057898431620026e-05, ,0.1666179617613938,-0.24219262566855485,0.09162696236000001,1.6817133467458854,0.4983133146445613,-1.2428947513004873, ,0.03146450316925424,0.006538347231811271,0.003719078104132618,-0.009910018446643255,0.0,0.03167669952341801, ,0.22121000289916992
0.009331140961621777,0.020627744792899055,-0.08113006567863186, ,0.009624364001985913,0.020541768847435624,-0.081358315622396, ,0.000381404839281111, ,0.002824587862307462,0.00022726643383704368,-0.0027243433777599424,0.010392421555699485,0.0010943223126628765,0.010231642807896136, ,0.003930902372711398, ,0.010449878801463863, ,3.423935974706412e-05, ,0.1675292442405523,-0.24201500281244767,0.09172677669000001,1.6817133467458854,0.4989964971433885,-1.2433701620788289, ,0.03213577431712522,0.005954625770377286,0.0031386820729064047,-0.007780548894079862,0.03603577889765529,-0.015949780606139476, ,0.25440096855163574
0.009448962982729356,0.02063785123007833,-0.0812479459473372, ,0.009719558705828725,0.020548823743826265,-0.0814653784687386, ,0.0003583641165504732, ,0.0029181054492321635,0.00038117443264193694,-0.003400976537922038,0.0034875522145662082,-0.016073798328808873,-0.00545703803745069, ,0.004497474265900198, ,0.01644779659132303, ,3.486698323240032e-05, ,0.16874943603467976,-0.24174470716184981,0.09185770198000001,1.6819230366893698,0.4994064066426849,-1.2435410583096371, ,0.029407171229770927,0.0065410381102290315,0.003749720225988701,0.00476724965834752,0.012451536278069667,-0.008804671699693853, ,0.28630805015563965
0.00953974500443647,0.02065083271209925,-0.08136006712875399, ,0.009814657856450899,0.02055556773144045,-0.08157231565968769, ,0.0003601415438770444, ,0.0028644276245876803,0.00045378318671706756,-0.003610606662807865,0.004086802260905246,-0.009316927132903847,-0.003117626319535402, ,0.004631127861607868, ,0.010173843094227381, ,3.538764272437157e-05, ,0.16965299578096402,-0.24154391610711998,0.09198084953,1.6819230366893698,0.49981631614198113,-1.2434669183200233, ,0.028887957856459902,0.006295512341759901,0.003992183338345865,0.004114526120382493,0.019077591539252193,-0.00880653640039152, ,0.3197479248046875
0.009621949921634336,0.020662678133804995,-0.08145985589182496, ,0.009909660150667046,0.020562004381761395,-0.08167913043477011, ,0.00037549128541737955, ,0.00275252546467759,0.00040081097552931383,-0.003441176177820807,0.0024031993952896825,0.010479469642510134,0.007448079921932066, ,0.004424786928045774, ,0.010751495283878927, ,3.596930089680051e-05, ,0.17054111006149986,-0.2413508477852644,0.09209362676,1.6821327266328545,0.5009094081401047,-1.2437048316284702, ,0.030040184095748903,0.006380271808992395,0.003895527395451211,0.0,0.04186071784997972,-0.006150722842686683, ,0.35239386558532715
0.009706544716208614,0.020669684093925167,-0.08154853412330579, ,0.010004564295194807,0.020568137252157406,-0.0817858260094769, ,0.0003942522920348805, ,0.0027383887653063465,0.0001748466950419868,-0.0027301229916132192,-0.01707402234728426,-0.017322018575939613,0.0058179200397254095, ,0.003870777175976194, ,0.024322305945553055, ,3.662844654132084e-05, ,0.1716917972597593,-0.24109599760041497,0.09222195947,1.6821327266328545,0.5018658636384628,-1.24374964829308, ,0.02920804603215475,0.006000514899433663,0.0031870371188475397,0.0,0.04881275509162272,-0.05118600738127907, ,0.38491106033325195
0.009821449985405309,0.020683913414628007,-0.08167547672149066, ,0.010099369006634265,0.020573969885903983,-0.08189240557531981, ,0.0003693029779094402, ,0.002982579473205631,0.00035131151952479724,-0.0033077390621231327,0.004267419841102305,-0.014302421043891865,-0.007935646510528834, ,0.004467699385683153, ,0.014925485567345204, ,3.697023067095492e-05, ,0.17257991154029512,-0.24090292927855936,0.09233344041000001,1.6823424165763388,0.5018658636384628,-1.2436679695529396, ,0.030078269907597717,0.006769799798217307,0.0036778599676749024,0.007708928937920857,0.014639727360903805,-0.009376786933068985, ,0.4172818660736084
0.009913067013558256,0.02069655146713205,-0.08178691533256748, ,0.010194073011446961,0.02057950581220615,-0.08199887229988655, ,0.0003709310073066917, ,0.002915824503731603,0.00044861537831040283,-0.00376952536116928,0.026490319487182615,0.011164468599193362,-0.007729710004120445, ,0.004786711788139811, ,0.02874686739236636, ,3.757643358981824e-05, ,0.17350663948520206,-0.24068669275808108,0.09245529167000001,1.6825521065198237,0.5026856826370554,-1.2443364769751182, ,0.029154206315966442,0.00666339223426025,0.003792574171428572,0.0020355162407215835,0.03634742641932946,-0.027360620057210572, ,0.44568896293640137
0.009976674084609002,0.020701421449879104,-0.08185403049642812, ,0.010288675045935258,0.020584748546220995,-0.08210522932689851, ,0.00041720261114501245, ,0.003323258718872371,0.00022040275883211094,-0.003502416344026255,-0.009777215453748146,-0.031950330375406524,-0.002667240187601878, ,0.00483317143659981, ,0.03341283514758366, ,3.8459699820321774e-05, ,0.17415534904663693,-0.24053223810059657,0.09253177278000001,1.6825521065198237,0.5028223191368209,-1.2442028586583929, ,0.032365941868509815,0.008474569787719356,0.0038207751307267938,0.0018996898941740581,0.0,0.0018569043594823156, ,0.4745509624481201
0.010072574629531632,0.02071202752068934,-0.08196128343834026, ,0.010383173856221268,0.020589701589079946,-0.08221147977626572, ,0.0004171734899003249, ,0.0033610348427869697,0.0003522441196946431,-0.003954594675363883,0.00848686078324809,-0.007892251375967472,-0.0078049879641470645, ,0.005201869873488173, ,0.01158941054448021, ,3.9241813329877134e-05, ,0.17515158158741187,-0.24029283338149562,0.09265232775000001,1.6829714864067924,0.5036421381354135,-1.2445446511200091, ,0.03412331591458856,0.008768253503843613,0.004395367417218543,0.007948338565377485,0.02491464905864931,-0.01490956579669012, ,0.5040030479431152
0.010169950712647048,0.02072065724342313,-0.08207491917754241, ,0.010477568198226227,0.020594368427910917,-0.08231762674414363, ,0.0004116847644047798, ,0.003213516260275176,0.00015623669966719698,-0.00384209933678582,0.01417731679784438,0.013377581683679132,0.01340966962577942, ,0.005011269696903758, ,0.01949246014367405, ,3.9902288044510666e-05, ,0.17616325959393528,-0.24002253773089777,0.09277936417,1.683181176350277,0.5045985936337716,-1.2449978614853219, ,0.03523837413979605,0.00994836125423235,0.0043343704816326545,-0.010179673642134294,0.052400696445515635,-0.023429075308635423, ,0.5324039459228516
0.01027675993720055,0.020725635331079354,-0.08218430580574361, ,0.010571856837649359,0.020598752535860892,-0.08242367330298857, ,0.00040059733288460556, ,0.003677931044833218,0.00013128019973081203,-0.0038893309841877546,-0.019712995508362145,-0.03812681915716479,0.01082360377167195, ,0.005354559437148141, ,0.0429215159339216, ,4.042394848379605e-05, ,0.17722899673057826,-0.23973679661455147,0.09289991914000001,1.683181176350277,0.5048718666333024,-1.244975661072293, ,0.03554192567732988,0.01001667398216526,0.004224028512330948,-0.010179673642134294,0.0,0.008599644842213025, ,0.5615320205688477
0.010383887743456043,0.02073223735600062,-0.08230084720846294, ,0.010666038549947028,0.020602857372118,-0.082529622501615, ,0.00038559874557600785, ,0.0033604537636912754,0.00015247476217348133,-0.003683434316380781,0.007726176162513166,-0.006405822961752357,-0.011621106293517864, ,0.004988345057641689, ,0.010036352187595144, ,4.080326042102556e-05, ,0.17831790206584394,-0.2394356100324567,0.09302954814000002,1.6833908662937616,0.5055550491321297,-1.245206035630213, ,0.034432852524844265,0.010445591786128802,0.004099025095213588,0.011799395487094659,0.02583327907272418,-0.015051606857560886, ,0.590446949005127
0.01045208869629584,0.020734245278147108,-0.0823714892313073, ,0.010760112120311909,0.02060668638193452,-0.08263547736525034, ,0.0004252522035313708, ,0.0035475364909120263,0.00013999404417136188,-0.0036238409918231966,-0.001597396538186498,-0.014686401492793169,-0.009478469794876375, ,0.005073148629872182, ,0.014773018103379453, ,4.161980650631323e-05, ,0.17902839349027258,-0.23923481897772686,0.09310862183000002,1.6833908662937616,0.5061015951311915,-1.2454883497647173, ,0.03609621208005735,0.01037973572013239,0.004037721551330799,0.011098917432561636,0.019339129913687282,-0.005692168818656128, ,0.6159079074859619
0.010564128171709486,0.02074133260914604,-0.08249976641670528, ,0.01085407634365175,0.02061024299664806,-0.08274124089559172, ,0.0003994550699027454, ,0.0038265929502828704,0.00037508997454854527,-0.004775067281408869,-0.012305361086638102,-0.020125359486001606,-0.0049046716651955, ,0.0061306421880699315, ,0.023589234905583418, ,4.222720214877701e-05, ,0.1801327442912867,-0.23891818692988365,0.09324991744000001,1.6833908662937616,0.5066481411302531,-1.2455256276788003, ,0.036386864094505665,0.010777237186957422,0.005224274030829781,0.008558514324391982,0.014835215026669067,0.00445949306113686, ,0.6410830020904541
0.010630867965328908,0.020748852938010834,-0.08259257727139042, ,0.010947930024568614,0.02061353063370507,-0.08284691607086199, ,0.00042840249808863434, ,0.0031288953192998964,0.00042055561309473424,-0.0045464679816081335,0.06593673370386498,0.05792067435491954,-0.0020391253831502825, ,0.005535090247740341, ,0.08776364490676361, ,4.294510530038347e-05, ,0.18085095844858956,-0.23870195040940537,0.09335491693,1.6836005562372458,0.5080145061279076,-1.2464764492354834, ,0.03630334413101407,0.009697968949817733,0.005257033504950496,0.00023958636589199557,0.09606420354526421,-0.07300379740448673, ,0.6661679744720459
0.010745447450678491,0.020756263979821478,-0.08272640436400859, ,0.011041671977337795,0.02061655269668215,-0.08295250584586542, ,0.0003979825284215608, ,0.003905726834499954,0.00022814833994273565,-0.004281243537477099,-0.03483872951994854,-0.025366663287048504,-0.0004018637263907372, ,0.005799637919555072, ,0.04309529764886568, ,4.345222400516929e-05, ,0.18197847744822634,-0.2383621501629395,0.09350269399000001,1.6838102461807307,0.5086976886267348,-1.2462167513525597, ,0.037762412080569345,0.011154546666263294,0.004712666130177515,0.01087396644156656,0.01074065383762139,0.028108553592220885, ,0.6913938522338867
0.010812177416981457,0.020760620643667314,-0.08280642492003093, ,0.01113530102588659,0.020619312575309266,-0.08305801315204407, ,0.00043321296760653237, ,0.0037702449033217016,0.00014057213361414248,-0.004414981673869907,-0.005422235160348733,-0.012497870234202537,0.007710891218503631, ,0.005807458164841072, ,0.013623413406619406, ,4.410070339999515e-05, ,0.1827198598041519,-0.2381459136424612,0.09359473058000001,1.684019936124215,0.5100640536243892,-1.2471675729092428, ,0.037419929636620976,0.011772486240514208,0.00487119618348624,-0.0051470433864360425,0.026957798241757838,-0.00553080414049602, ,0.7164020538330078
0.010931362552745471,0.020763999435881166,-0.08293601248575114, ,0.01122881600377356,0.020621813645491285,-0.08316344089753334, ,0.00040052345374908145, ,0.003977625634527131,5.9386185000220984e-05,-0.004074765142110428,-0.03621414787362787,-0.03481230579441531,0.00504527650404928, ,0.005694624076335017, ,0.05023306819032183, ,4.4546424419165614e-05, ,0.1838551015366629,-0.2377983906631211,0.09373602619000002,1.6838102461807307,0.5102006901241547,-1.2466255608918146, ,0.03820327760002849,0.011987518142758082,0.00445935372900336,0.002542650621140745,0.0034259725271511185,0.026618281049388196, ,0.7415828704833984
0.011002922901841126,0.020767891173243222,-0.08301594977855672, ,0.011322215754167189,0.020624059269330888,-0.08326879196721822, ,0.0004319313770689663, ,0.003865914404903599,0.00022505742318617783,-0.004374906313899274,0.02767399395374855,0.00177551023192757,-0.014525959226681812, ,0.005842580789785288, ,0.027730892094073027, ,4.51103042601741e-05, ,0.1846350975569596,-0.23756670867689436,0.09382806278000001,1.6842296260676997,0.5114304186220436,-1.2473832858046612, ,0.03949102853036654,0.011625253161640424,0.004922376860321385,0.010621283209815051,0.039416015533242456,-0.03658696788748169, ,0.7665669918060303
0.011119436951380006,0.02076752589926076,-0.08312951582210874, ,0.011415499129824912,0.02062605279515043,-0.0833740692227888, ,0.00040923565152163204, ,0.003705804461527249,2.797528272247529e-05,-0.003990704383562791,0.022847951860858008,0.004414528333815445,0.009993312427622525, ,0.005446052772467959, ,0.02327051704698431, ,4.574306145634117e-05, ,0.18581667568671592,-0.2371960174989316,0.0939550992,1.6844393160111841,0.5121136011208708,-1.2478586965830025, ,0.0392298228848577,0.011612450019391922,0.004521377099063299,-0.012457374139720352,0.04752860445772452,-0.035243111179849324, ,0.7883150577545166
0.011195733530701319,0.020770724062521544,-0.0832215281826397, ,0.011508664993071904,0.020627797557514746,-0.08347927550279709, ,0.000429869476728887, ,0.004175524844071084,0.00047895192626844327,-0.00555736630227309,-0.00570943724679496,-0.011244364742814632,-0.005778950128457417, ,0.006967691360039678, ,0.012610844810864072, ,4.643377749185601e-05, ,0.18661211717276105,-0.23695661277983063,0.09405880240000002,1.6842296260676997,0.5132066931189944,-1.248341646111871, ,0.039052239324473575,0.011860406446670052,0.006117055115207375,0.009773882064323763,0.02636577147321984,-0.0025342109880211895, ,0.8096799850463867
0.011280260443878969,0.020777766552842823,-0.08333466462938557, ,0.011601712215780066,0.0206292968772528,-0.08358441362271173, ,0.0004333001798933251, ,0.004025454418275018,0.00027412238599546206,-0.005012494354302445,0.004381917660377358,0.011367356220684988,-0.0024113372180868497, ,0.006434634877600096, ,0.012182692094362074, ,4.710346370372696e-05, ,0.1874152813916804,-0.236694039862107,0.09418324624,1.6842296260676997,0.5138898756178215,-1.2484086631895097, ,0.04074578856095783,0.012815252067315432,0.005628555307420495,0.009156114571430899,0.05147934780594125,-0.012533096610622957, ,0.8319599628448486
0.011363182803185257,0.020782218116050195,-0.08343129511539432, ,0.011694639679346799,0.02063055406148052,-0.08368948637497495, ,0.000446685988953214, ,0.004286435030870801,0.00030291746635890065,-0.005156303543249325,0.0033011758369893528,-0.009507268390804834,-0.008328438318943688, ,0.006712134570717962, ,0.010064090148471561, ,4.779572195997528e-05, ,0.18825705927497088,-0.23642374421150913,0.09429213460000001,1.6846490059546686,0.5148463311161796,-1.2488618735548225, ,0.04138549566440069,0.012785898889581081,0.005725669130122214,0.00974736692179601,0.03038698278098173,-0.012741361599146503, ,0.856147050857544
0.011457701454865351,0.020785649837073636,-0.0835403663990903, ,0.011787446274673827,0.020631572403622983,-0.08379449652905716, ,0.00044390722526924353, ,0.004146944848697693,-3.372747482820775e-05,-0.004082316503193971,-0.009727433787330514,-0.01907032696246017,-0.005921729812337247, ,0.00581924369252126, ,0.021407950331786614, ,4.844235938182463e-05, ,0.18916834175412936,-0.2361302803622886,0.09441268957000001,1.6846490059546686,0.5153928771152414,-1.248980830209046, ,0.04113434831316461,0.01346820061857377,0.004556296201372999,0.008782268250614449,0.02070436272034454,-0.0005189177609745289, ,0.8778109550476074
0.011536409229892613,0.020783320551673885,-0.08361758363737784, ,0.01188013090214608,0.020632355183436583,-0.08389944683151444, ,0.00046944860271666756, ,0.004122641049974151,-5.201741074368571e-06,-0.004058556653451822,0.0006112036202365845,-0.009031925132794284,-0.004937086464291899, ,0.0057851601874382205, ,0.00905258197248785, ,4.916040936747009e-05, ,0.19000239690454562,-0.23585998471169076,0.09450083729000001,1.6846490059546686,0.5163493326135995,-1.2495973980546398, ,0.04187861498608596,0.013085623491239767,0.004586470348401959,0.00729351627073127,0.03202694849913278,-0.010549669632977451, ,0.8996870517730713
0.011624885142377974,0.020788630309560678,-0.08372013849474337, ,0.011972692471610345,0.020632905667031427,-0.08400434000604286, ,0.00047538468799860413, ,0.004599042318406279,0.00038793652773077105,-0.005819484647965134,-0.017537596810312386,-0.018984584297062533,0.004933401936100949, ,0.007427522235842952, ,0.025845342639222113, ,5.006427803345927e-05, ,0.1908518975207103,-0.23559741179396712,0.09461491081000001,1.6848586958981533,0.5168958786126612,-1.2494713184884416, ,0.04268868266238002,0.013138161644534234,0.00641256502415459,0.0009790537929809527,0.024436384268808835,0.006861519415956783, ,0.9182319641113281
0.011708508028800382,0.02079457518077866,-0.08382580315759659, ,0.012065129902354308,0.02063322710689338,-0.08410917875353495, ,0.000483232956261285, ,0.004488345383238111,0.00038065714653493947,-0.005762216433775659,0.020315820405840936,0.012152997057397814,-0.00697507804888299, ,0.007313910197159742, ,0.023673358230022135, ,5.096355048942062e-05, ,0.19172456633549767,-0.23532711614336926,0.09473546578000001,1.6850683858416375,0.5183988801100811,-1.2505335579488213, ,0.04426163318958525,0.01368376951095469,0.006472495538399026,0.008678913681847136,0.055701758803581074,-0.0300676362860013, ,0.9361469745635986
0.01180738267921241,0.020803659688299673,-0.08395062668786998, ,0.012157442123085099,0.020633322741907087,-0.08421396575213563, ,0.0004700039918118936, ,0.005315516619986715,0.0006990859901688693,-0.006698075202553346,-0.03604518117245336,-0.04492459780306546,-0.0017083611455580299, ,0.008579490053497668, ,0.05759752216927662, ,5.177864988095392e-05, ,0.19262812608178195,-0.2350568204927714,0.09487287252000001,1.6850683858416375,0.5188087896093774,-1.2502960604789264, ,0.046427075126453415,0.012374095913218251,0.007337084993090743,0.008678913681847136,0.0,0.02704315173112583, ,0.9543888568878174
0.01190583994268303,0.020813807424150708,-0.08408471823911824, ,0.012249628071908086,0.020633195797377137,-0.0843187036572976, ,0.00045338726651994574, ,0.004585698243357975,0.0002621060057930086,-0.005665726493634565,0.018014116343798767,0.02089805276743474,-0.0026699855678063867, ,0.007293681144530641, ,0.027590523577493368, ,5.2501675966883946e-05, ,0.19361663588968267,-0.23476335664355086,0.09502453845000002,1.6850683858416375,0.5204484276065626,-1.2513063603627212, ,0.046381691866310255,0.014769951993536307,0.006420319032648127,0.0075699250414496206,0.06724207512144312,-0.0281534088506259, ,0.9726998805999756
0.011954715046427752,0.020815780360672147,-0.08414074611773337, ,0.012341686696305743,0.020632849485051428,-0.08442339510183726, ,0.0005129339248671511, ,0.005031035486812801,0.00016667777023660844,-0.005452688546320137,-0.028152048794801373,-0.02344884450683152,0.0020641181283147444, ,0.007420977828550061, ,0.03663858833566557, ,5.34156378100691e-05, ,0.19407999986213614,-0.2346166247189406,0.09508676037000001,1.6850683858416375,0.5207217006060936,-1.2511208024694112, ,0.04795196642671591,0.014998726340836223,0.006077379442960704,0.007083844544476951,0.02400402874359429,0.017363198643351563, ,0.9903988838195801
0.012057354689596303,0.020818272386950422,-0.08424987854374053, ,0.012433616953116301,0.020632287003142836,-0.08452804269599087, ,0.0005035267118400002, ,0.004679813953017512,8.258085522555273e-05,-0.005184106920544677,0.03210156866958283,0.030912004359830235,0.0012409120169814497, ,0.006984442912369345, ,0.04456526361243489, ,5.426312355483489e-05, ,0.19509167786865955,-0.2342999926710974,0.09520990792,1.6852780757851225,0.5215415196046862,-1.2512175587106058, ,0.04976242347061919,0.01532820894176559,0.005995036326684231,0.0018085545943444445,0.0821777705646289,-0.04373691046858215, ,1.009070873260498
0.012158706508621771,0.02081708754143859,-0.08435420299980322, ,0.012525417808512466,0.020631511536351736,-0.08463264902746963, ,0.000496435113035655, ,0.005415992745891704,-4.453459391544037e-05,-0.005383832600778664,-0.030147398351671233,-0.027912726953152743,0.004809482835105669, ,0.007636793451888948, ,0.04108510616771344, ,5.525034128916816e-05, ,0.19613424680667987,-0.2339524696917573,0.09532916660000001,1.6854877657286067,0.5227712481025752,-1.251975283623452, ,0.05234249396495907,0.017080083073878833,0.006026792099886493,0.00370168772543945,0.024725579620017413,0.016708251651310957, ,1.0231289863586426
0.012213670793766961,0.02081751373466449,-0.0844144122655785, ,0.012617088237980125,0.02063052625588787,-0.08473721666151546, ,0.000549465767405891, ,0.005762229267848727,0.00023588853392494475,-0.006806767806163477,-0.016363099422954934,-0.025408377561571605,0.0004359429962826609, ,0.008921379798142958, ,0.030221460229860688, ,5.63948165583292e-05, ,0.19666711537500137,-0.23377484683565014,0.09539657368000001,1.6854877657286067,0.5231811576018714,-1.2521461798542601, ,0.05328295427202177,0.017837770969637363,0.007527793724007564,0.00370168772543945,0.027987018701041793,0.0015426771939322133, ,1.0373010635375977
0.012329709612172939,0.02082655901601089,-0.08457046524387711, ,0.0127086272262971,0.020629334319493552,-0.08484174814095755, ,0.0005060341386292587, ,0.005789259417693815,0.0006363714451382209,-0.007886716477126682,0.021727103350107475,0.018724917086126433,0.0004846129530399933, ,0.009804121072902218, ,0.028682564553327964, ,5.7358579006425225e-05, ,0.19719998394332286,-0.2336049467124172,0.09547953624000001,1.6854877657286067,0.5237277036009332,-1.2523468152486241, ,0.05533349362009957,0.016639828433889316,0.00886411325542571,0.00370168772543945,0.07505716573063152,-0.03423471485770333, ,1.0516300201416016
0.012389170954086579,0.02082819925872211,-0.0846438513598163, ,0.012800033767511754,0.020627938871464833,-0.08494624598626682, ,0.0005480465165168365, ,0.005960445821175544,0.00018262315534552779,-0.007151554786574784,-0.01859428282077828,-0.004600860538704121,0.007075429248958334, ,0.00931155204406967, ,0.01915503204405496, ,5.843862036402229e-05, ,0.19831978021008542,-0.23321108733583173,0.09565194281000002,1.6854877657286067,0.5249574320988222,-1.2527778252009079, ,0.056756543994300704,0.019554284269208896,0.007988370872617855,0.00370168772543945,0.053155180156442425,0.003913821104571252, ,1.0667250156402588
0.012448315585455958,0.020830106405845556,-0.08471853135702452, ,0.012891306864921782,0.020626343042674633,-0.08505071269561297, ,0.0005900044267290776, ,0.005952426115633939,0.00015383350555164046,-0.007589230668078407,0.008228759403779368,-0.0017120027745928029,-0.002796720368556389, ,0.00964631865235713, ,0.008404963393696778, ,5.963009175289516e-05, ,0.19887581697702958,-0.2330102962811019,0.09573490537000001,1.6854877657286067,0.525503978097884,-1.2528151031149908, ,0.055658030239572304,0.020990254713220698,0.008410143357972546,0.00370168772543945,0.05440347547170374,-0.025923420998646723, ,1.0808498859405518
0.01257756482109948,0.020832499257771656,-0.08487282350569984, ,0.012982445531052683,0.020624549950594623,-0.0851551507449188, ,0.0005356117751250618, ,0.006052852984607402,-6.762392924671985e-05,-0.006874033017453276,0.016198731890367284,0.016750426397775506,-0.0006381787191708383, ,0.009159363087797932, ,0.023301838640224823, ,6.061059144963933e-05, ,0.20013462243552818,-0.2325623777743969,0.09590860823000001,1.6856974556720912,0.5270069795953038,-1.2534689488746675, ,0.06036701116951067,0.021825423541506617,0.007789149887530563,0.004743052892280773,0.07797375500478698,-0.03334933434440732, ,1.0952539443969727
0.012642101946031319,0.020831927980728866,-0.08494795636846722, ,0.013073448787636681,0.020622562699317382,-0.0852595625879171, ,0.0005718324534540507, ,0.006445275928861809,-1.8739214854293493e-05,-0.007298631893943487,-0.02257947774020023,-0.0023757576956678367,0.008086572416783505, ,0.009737143342922907, ,0.022704118986153713, ,6.168352333125332e-05, ,0.20076016379834036,-0.23233069578817014,0.09599286708000002,1.6856974556720912,0.527690162094131,-1.2536993234325873, ,0.06218672448130458,0.022344464694718808,0.008198050190427176,0.004698590043877949,0.06087250872472509,0.005997858986950273, ,1.1098859310150146
0.012711909400901666,0.02083252772147473,-0.08502719974554708, ,0.013164315665591156,0.02062038437957929,-0.08536395065620549, ,0.000602559044136032, ,0.0068570624050034515,2.5600435874232865e-05,-0.00786582832965448,-0.01875794983835967,-0.03345319068867774,-0.001531456930170712, ,0.01043509537666157, ,0.038353313015705055, ,6.30303248607445e-05, ,0.20140887335977523,-0.2320912910690692,0.0960810148,1.6859071456155759,0.5281000715934273,-1.2536251834429737, ,0.06255566351909743,0.023111773394659224,0.008685284362050164,0.0038694820857372806,0.029157725513289618,-0.001255962415897139, ,1.1209139823913574
0.012776764626221522,0.020832200750047915,-0.08510408133989027, ,0.013255045204997404,0.020618018068781777,-0.08546831735930206, ,0.0006381962165552964, ,0.006843679560927256,-5.8294978422510175e-05,-0.008116165931479721,-0.010813377065129373,-0.012325064228462364,0.0009129988605210466, ,0.010616567131821606, ,0.01639622812024789, ,6.446516588941244e-05, ,0.20201896925683896,-0.23185960908284245,0.09616656994000002,1.6859071456155759,0.5286466175924891,-1.2536624613570566, ,0.06377482631617659,0.024848636176609266,0.00900441578292821,0.0038694820857372806,0.05209938190730784,-0.009856167023370936, ,1.131587028503418
0.012849130008757252,0.020832699506915724,-0.08519456245522218, ,0.013345636455079147,0.02061546683101498,-0.08557266508470193, ,0.0006608103246300682, ,0.0071584284127870655,0.0001681138929610162,-0.009313009438050274,0.037993031586645895,0.02677869310465342,-0.004891693559579925, ,0.011747489281340806, ,0.04648191888767393, ,6.594432673422835e-05, ,0.20270629248264493,-0.2315970361651188,0.09626768056000001,1.6859071456155759,0.5294664365910817,-1.2543309687792352, ,0.06841884755477344,0.02591396547200185,0.010445122308196723,0.0038694820857372806,0.0963436520875604,-0.05957606349827087, ,1.1424560546875
0.012924326718897131,0.02083552331466846,-0.0852947709034333, ,0.013436088474181302,0.02061273371707844,-0.08567699619793187, ,0.0006764846448518796, ,0.007490797201095233,0.0002644065881562335,-0.009576091308770912,-0.007665343164672783,-0.0036123946514319705,0.0032628289757352658, ,0.012160735105482497, ,0.008473889332703946, ,6.744480217200012e-05, ,0.20340133844132513,-0.23133446324739518,0.0963791615,1.6859071456155759,0.5302862555896743,-1.2546727612408515, ,0.06866638318268507,0.025332872813259688,0.01064760128342246,0.0038694820857372806,0.06610552252836344,-0.012710113382717759, ,1.1531798839569092
0.012999278167069878,0.020837198299835078,-0.08538775813264557, ,0.01352640032974855,0.02060982176450473,-0.08578131304260639, ,0.0006960196336024882, ,0.007740062864096585,2.2269430378830664e-05,-0.010116559344602231,-0.006319424700094419,0.019263949476555405,0.007747641504322989, ,0.012737890015248018, ,0.020273992502958606, ,6.897798610705132e-05, ,0.20479143035868555,-0.23081704014482216,0.0965865679,1.6859071456155759,0.5317892570870942,-1.2552449282603877, ,0.07227489836898002,0.02948025522164361,0.01125711061484099,0.0038694820857372806,0.09346220622620266,-0.016228408315607106, ,1.1638720035552979
0.013154427084005525,0.020838902340858948,-0.08558619465423037, ,0.013616571098303746,0.020606733997580954,-0.0858856179404834, ,0.0005976065042506536, ,0.007691528673118137,0.00011972414418584911,-0.009701716532937218,0.02654840706045713,0.024369659817089637,-0.0012294269425749723, ,0.012381326701350177, ,0.03603745483658623, ,7.01800554791421e-05, ,0.20554825818035954,-0.23051585356272739,0.09670453029000001,1.6859071456155759,0.5327457125854522,-1.2557798173658408, ,0.07305384261622076,0.02745860577502048,0.010917622700479782,0.0038694820857372806,0.09882574294213006,-0.04890214358156686, ,1.175091028213501
0.013154427084005525,0.020838902340858948,-0.08558619465423037, ,0.013706599865426872,0.02060347342737136,-0.08598991319151944, ,0.0007234018324550753, ,0.007691528673118137,0.00011972414418584911,-0.009701716532937218,0.02654840706045713,0.024369659817089637,-0.0012294269425749723, ,0.012381326701350177, ,0.03603745483658623, ,7.196305768555429e-05, ,0.20554825818035954,-0.23051585356272739,0.09670453029000001,1.6859071456155759,0.5327457125854522,-1.2557798173658408, ,0.07305384261622076,0.02745860577502048,0.010917622700479782,0.0038694820857372806,0.09882574294213006,-0.04890214358156686, ,1.1821839809417725
0.01323773099262889,0.020840847458388954,-0.0856849993798896, ,0.01379648572573336,0.020600043051739222,-0.08609420107392597, ,0.0007332391427295801, ,0.008953996575129965,8.19711577940873e-05,-0.010336918351615513,-0.07381428311599544,-0.06136317021364417,0.01014265326005914, ,0.013675988262137213, ,0.09598951470122685, ,7.375428269272291e-05, ,0.20628191780341087,-0.23024555791212953,0.09681082607000001,1.6861168355590603,0.5332922585845141,-1.2557354165397832, ,0.07810447864894715,0.029082728028952128,0.011305047210787794,0.0049862808584653345,0.017347320415022578,0.050369188278894535, ,1.189283847808838
0.013328449717423736,0.020842931623976782,-0.08579872423802792, ,0.01388622778285269,0.020596445855369468,-0.08619848384422434, ,0.0007291634570834686, ,0.009302054636379637,0.0002238118570598979,-0.012322365071651523,-0.0032446910999340954,-0.013216210423461135,-0.0033832859650843147, ,0.0154408222956101, ,0.013608672021610627, ,7.55115482265538e-05, ,0.2071082502209529,-0.2299212031314121,0.09694045507000001,1.686326525502545,0.5338388045835759,-1.255772694453866, ,0.08194899961871396,0.03328549335618056,0.013591136109215017,0.0054871689165045005,0.06927004742953287,-0.025060051495623736, ,1.1963648796081543
0.013424587143225482,0.02084631583929185,-0.08592902254003837, ,0.013975825149407067,0.020592684809791036,-0.08630276373730145, ,0.000857772834014708, ,0.009302054636379637,0.0002238118570598979,-0.012322365071651523,-0.0032446910999340954,-0.013216210423461135,-0.0033832859650843147, ,0.0154408222956101, ,0.013608672021610627, ,7.763391981082287e-05, ,0.2071082502209529,-0.2299212031314121,0.09694045507000001,1.686326525502545,0.5338388045835759,-1.255772694453866, ,0.08194899961871396,0.03328549335618056,0.013591136109215017,0.0054871689165045005,0.06927004742953287,-0.025060051495623736, ,1.204859972000122
0.013424587143225482,0.02084631583929185,-0.08592902254003837, ,0.014065276946989962,0.02058876287339867,-0.08640704296646573, ,0.0008398336043347739, ,0.00965154321287541,0.0004873749128852967,-0.013055823924624526,0.019557742074190886,0.02293989484575888,0.00038746107607445833, ,0.01624328658389396, ,0.03014537561951013, ,7.967739970548892e-05, ,0.20798091903574026,-0.22958140288494622,0.09708563955,1.686326525502545,0.5349318965816994,-1.256173965242594, ,0.08770512158823549,0.03270053120553783,0.014600193877176905,0.0054871689165045005,0.11218097081747318,-0.04561978707545918, ,1.212204933166504
0.01352193313221382,0.020851559436503332,-0.08606189177844682, ,0.014154582306144633,0.020584682991475776,-0.08651132372350263, ,0.0008206443123683588, ,0.010199323906372978,0.0007080204572848438,-0.0146470049361628,-0.008249353961355722,-0.0007459726856273516,0.0028212385793262807, ,0.017862313811906415, ,0.00828297301074224, ,8.163968312672744e-05, ,0.2088458651176534,-0.22925704810422878,0.09723341661000001,1.686326525502545,0.5358883520800574,-1.256545496867766, ,0.08762413809646424,0.03420942377738672,0.01617138225380711,0.0054871689165045005,0.08813071240609625,-0.019395181099014402, ,1.2193188667297363
0.013632091726422012,0.020856348582347112,-0.08621627319476419, ,0.014243740366342671,0.020580448096215984,-0.08661560817872968, ,0.0007808351723525943, ,0.01121038590660854,0.00022349361803347619,-0.01526357633872286,-0.015152296009026265,-0.02007314257387719,-0.0016635578701608995, ,0.01893936282509022, ,0.025149995997163367, ,8.346138166979275e-05, ,0.2097880385283088,-0.22887091146051758,0.09740323060000002,1.686326525502545,0.5367081710786501,-1.2568056105892418, ,0.09614685061648508,0.04120579312135075,0.016767170021052633,0.0054871689165045005,0.0769420931870342,-0.020113055805192605, ,1.226388931274414
0.013632091726422012,0.020856348582347112,-0.08621627319476419, ,0.014332750275962619,0.02057606110674604,-0.08671989848105226, ,0.0009072606577009225, ,0.01121038590660854,0.00022349361803347619,-0.01526357633872286,-0.015152296009026265,-0.02007314257387719,-0.0016635578701608995, ,0.01893936282509022, ,0.025149995997163367, ,8.563246053888758e-05, ,0.2097880385283088,-0.22887091146051758,0.09740323060000002,1.686326525502545,0.5367081710786501,-1.2568056105892418, ,0.09614685061648508,0.04120579312135075,0.016767170021052633,0.0054871689165045005,0.0769420931870342,-0.020113055805192605, ,1.2334749698638916
0.013745282773685367,0.020860896804279452,-0.08637221837716015, ,0.014421611192268416,0.020571524929147926,-0.08682419675801982, ,0.0008633890598477093, ,0.011263214227307082,0.000739164954362894,-0.01559534666622925,0.020283898241104076,-0.008185911926331724,-0.008289835303253957, ,0.01925152454222363, ,0.021873380154938393, ,8.765031517086989e-05, ,0.21076882560333532,-0.22847705208393213,0.09757563717,1.686326525502545,0.5376646265770082,-1.2574221784348358, ,0.09663639669905374,0.03644275789495806,0.017276368242950108,0.0054871689165045005,0.08908627689435963,-0.051892870568363565, ,1.2415759563446045
0.01376347906186699,0.02086204621571405,-0.08639599590894524, ,0.014510322281388047,0.020566842456480768,-0.08692850511588097, ,0.0009635798407404357, ,0.011426045282362742,0.0008660700186479723,-0.015874529518031096,0.02233817133538395,-0.009251649789719924,-0.008662154595558053, ,0.019578183661684383, ,0.024178211562044277, ,9.019662193124654e-05, ,0.21091555752794558,-0.22842299295381255,0.09760156297000001,1.686326525502545,0.5376646265770082,-1.2574221784348358, ,0.09773114475640657,0.035810166625838025,0.017600896707182324,0.0054871689165045005,0.08908627689435963,-0.05341235201364402, ,1.2452988624572754
0.01376347906186699,0.02086204621571405,-0.08639599590894524, ,0.014598882718291984,0.020562016568803465,-0.0870328256396382, ,0.0010924601430203314, ,0.011426045282362742,0.0008660700186479723,-0.015874529518031096,0.02233817133538395,-0.009251649789719924,-0.008662154595558053, ,0.019578183661684383, ,0.024178211562044277, ,9.310173358657721e-05, ,0.21091555752794558,-0.22842299295381255,0.09760156297000001,1.686326525502545,0.5376646265770082,-1.2574221784348358, ,0.09773114475640657,0.035810166625838025,0.017600896707182324,0.0054871689165045005,0.08908627689435963,-0.05341235201364402, ,1.2489428520202637
0.01376347906186699,0.02086204621571405,-0.08639599590894524, ,0.0146872916867717,0.020557050133196888,-0.08713716039310512, ,0.001223019692754017, ,0.011426045282362742,0.0008660700186479723,-0.015874529518031096,0.02233817133538395,-0.009251649789719924,-0.008662154595558053, ,0.019578183661684383, ,0.024178211562044277, ,9.636739242810162e-05, ,0.21091555752794558,-0.22842299295381255,0.09760156297000001,1.686326525502545,0.5376646265770082,-1.2574221784348358, ,0.09773114475640657,0.035810166625838025,0.017600896707182324,0.0054871689165045005,0.08908627689435963,-0.05341235201364402, ,1.252769947052002
0.013983372238455527,0.020865749152216756,-0.08667441922582467, ,0.01477554837941831,0.020551946003786042,-0.0872415114189604, ,0.0010235277279054113, ,0.012739347729646782,-0.00046752653541452246,-0.014204179696908929,-0.05159701784591291,-0.08249712671698997,-0.004792298241280259, ,0.019085813645224905, ,0.09730379020853688, ,0.0005369788360629464, ,0.21279990434925636,-0.22767388786501278,0.09790878370000002,1.686326525502545,0.5387577185751317,-1.2576600917432825, ,0.11021712143840974,0.0458439331200342,0.015647162593320236,0.0054871689165045005,0.0275719849011939,0.010297174987524808, ,1.2565109729766846
0.013983372238455527,0.020865749152216756,-0.08667441922582467, ,0.014863651997600934,0.02054670702176239,-0.08734588073880449, ,0.001152189610601966, ,0.012739347729646782,-0.00046752653541452246,-0.014204179696908929,-0.05159701784591291,-0.08249712671698997,-0.004792298241280259, ,0.019085813645224905, ,0.09730379020853688, ,0.0005464436172097005, ,0.21279990434925636,-0.22767388786501278,0.09790878370000002,1.686326525502545,0.5387577185751317,-1.2576600917432825, ,0.11021712143840974,0.0458439331200342,0.015647162593320236,0.0054871689165045005,0.0275719849011939,0.010297174987524808, ,1.2602758407592773
0.014111493452349107,0.02086293396421791,-0.08683833368531804, ,0.014951601751445274,0.02054133601540603,-0.08745027035321416, ,0.001282441907078558, ,0.014377873208655289,0.00022300646346456445,-0.02067471322327475,0.09406616887584163,0.07292754807551782,-0.014107403180692374, ,0.02518366011427978, ,0.11902465130319106, ,0.0005575951064501378, ,0.2139505915475158,-0.22716418749531395,0.09809156059000002,1.6865362154460295,0.5401240835727862,-1.2586109132999657, ,0.12789345223513582,0.05638558619041639,0.023051825643994214,0.004596417586649744,0.20358114158090398,-0.142975046898879, ,1.2651500701904297
0.014111493452349107,0.02086293396421791,-0.08683833368531804, ,0.015039396859812194,0.02053583580010822,-0.08755468224179895, ,0.0012170263747831504, ,0.014377873208655289,0.00022300646346456445,-0.02067471322327475,0.09406616887584163,0.07292754807551782,-0.014107403180692374, ,0.02518366011427978, ,0.11902465130319106, ,0.0005674373641864515, ,0.2139505915475158,-0.22716418749531395,0.09809156059000002,1.6865362154460295,0.5401240835727862,-1.2586109132999657, ,0.12789345223513582,0.05638558619041639,0.023051825643994214,0.004596417586649744,0.20358114158090398,-0.142975046898879, ,1.268847942352295
0.014111493452349107,0.02086293396421791,-0.08683833368531804, ,0.015127036550276082,0.020530209178393218,-0.08765911836325603, ,0.0013474869403400434, ,0.014377873208655289,0.00022300646346456445,-0.02067471322327475,0.09406616887584163,0.07292754807551782,-0.014107403180692374, ,0.02518366011427978, ,0.11902465130319106, ,0.0005789086814828278, ,0.2139505915475158,-0.22716418749531395,0.09809156059000002,1.6865362154460295,0.5401240835727862,-1.2586109132999657, ,0.12789345223513582,0.05638558619041639,0.023051825643994214,0.004596417586649744,0.20358114158090398,-0.142975046898879, ,1.2725050449371338
0.014111493452349107,0.02086293396421791,-0.08683833368531804, ,0.015214520059103424,0.020524458939940707,-0.08776358065542579, ,0.0014789574006579653, ,0.016479676387592974,0.0017594879312372426,-0.026099578977980254,0.11621823507374117,0.08294661553148232,-0.015107954647227992, ,0.0309170431064775, ,0.1427823766475799, ,0.0005919528658186994, ,0.21534068346487623,-0.22659270526262135,0.09836767036,1.6865362154460295,0.5424469040687986,-1.2601783027022426, ,0.13914507559893075,0.05391871679458567,0.029067174306569344,0.004596417586649744,0.22509576472955253,-0.16248576264068915, ,1.27652907371521
0.014272282322736357,0.020874346493540627,-0.08708612279942755, ,0.015301846631231276,0.020518587861608532,-0.08786807103534773, ,0.001340898919821883, ,0.016479676387592974,0.0017594879312372426,-0.026099578977980254,0.11621823507374117,0.08294661553148232,-0.015107954647227992, ,0.0309170431064775, ,0.1427823766475799, ,0.0006026520951616021, ,0.21534068346487623,-0.22659270526262135,0.09836767036,1.6865362154460295,0.5424469040687986,-1.2601783027022426, ,0.13914507559893075,0.05391871679458567,0.029067174306569344,0.004596417586649744,0.22509576472955253,-0.16248576264068915, ,1.2804999351501465
0.014450923845734074,0.020896101892833578,-0.08736575190831779, ,0.015389015520245809,0.020512598707454074,-0.08797259139931557, ,0.0011812471590733685, ,0.016479676387592974,0.0017594879312372426,-0.026099578977980254,0.11621823507374117,0.08294661553148232,-0.015107954647227992, ,0.0309170431064775, ,0.1427823766475799, ,0.0006108013214138804, ,0.21534068346487623,-0.22659270526262135,0.09836767036,1.6865362154460295,0.5424469040687986,-1.2601783027022426, ,0.13914507559893075,0.05391871679458567,0.029067174306569344,0.004596417586649744,0.22509576472955253,-0.16248576264068915, ,1.2844090461730957
0.014450923845734074,0.020896101892833578,-0.08736575190831779, ,0.015476025988360646,0.020506494228757024,-0.08807714362293292, ,0.0013071750863399448, ,0.019058109585651316,0.0022622437864413727,-0.029709860771414878,-0.026919405810049268,-0.015807635686909082,0.008706812994905942, ,0.03536955067547288, ,0.031217184493960687, ,0.0006204731792600758, ,0.21679255724523044,-0.2260443912285514,0.09867748367000001,1.6867459053895137,0.5442231785657493,-1.2609733055291716, ,0.15015338854188412,0.05733954172717268,0.03270803186858317,0.005781191174325109,0.13703974775560832,-0.020086217545317486, ,1.2885499000549316
0.014450923845734074,0.020896101892833578,-0.08736575190831779, ,0.015562877306395485,0.02050027716404197,-0.08818172956116874, ,0.001434899733274762, ,0.019058109585651316,0.0022622437864413727,-0.029709860771414878,-0.026919405810049268,-0.015807635686909082,0.008706812994905942, ,0.03536955067547288, ,0.031217184493960687, ,0.0006316297073972633, ,0.21679255724523044,-0.2260443912285514,0.09867748367000001,1.6867459053895137,0.5442231785657493,-1.2609733055291716, ,0.15015338854188412,0.05733954172717268,0.03270803186858317,0.005781191174325109,0.13703974775560832,-0.020086217545317486, ,1.292146921157837
0.014644117324123953,0.02091828115124779,-0.08767950023193231, ,0.015649568753754537,0.020493950239099654,-0.08828635104841283, ,0.001248702211823828, ,0.02023207907607399,0.002154041689098423,-0.033691104825718104,-0.03678444731152898,-0.008840784657204913,0.02402777488878111, ,0.039358194365549985, ,0.03783135774355984, ,0.0006399685250246493, ,0.21827532195708155,-0.2254188498657392,0.09902100052000001,1.6869555953329984,0.5455895435634037,-1.2610256609443087, ,0.15355492161564852,0.06754230715905395,0.036787093579676675,-0.010073266352177953,0.15134762347563968,-0.022722682577570416, ,1.2957179546356201
0.014644117324123953,0.02091828115124779,-0.08767950023193231, ,0.015736099618404963,0.0204875161670103,-0.08839100989853141, ,0.0013726725058557474, ,0.02023207907607399,0.002154041689098423,-0.033691104825718104,-0.03678444731152898,-0.008840784657204913,0.02402777488878111, ,0.039358194365549985, ,0.03783135774355984, ,0.0006497379114357305, ,0.21827532195708155,-0.2254188498657392,0.09902100052000001,1.6869555953329984,0.5455895435634037,-1.2610256609443087, ,0.15355492161564852,0.06754230715905395,0.036787093579676675,-0.010073266352177953,0.15134762347563968,-0.022722682577570416, ,1.2993619441986084
0.014644117324123953,0.02091828115124779,-0.08767950023193231, ,0.015822469196855364,0.02048097764816523,-0.0884957079049225, ,0.0014986468747593485, ,0.02023207907607399,0.002154041689098423,-0.033691104825718104,-0.03678444731152898,-0.008840784657204913,0.02402777488878111, ,0.039358194365549985, ,0.03783135774355984, ,0.0006609077662163045, ,0.21827532195708155,-0.2254188498657392,0.09902100052000001,1.6869555953329984,0.5455895435634037,-1.2610256609443087, ,0.15355492161564852,0.06754230715905395,0.036787093579676675,-0.010073266352177953,0.15134762347563968,-0.022722682577570416, ,1.3029980659484863
0.01485455444071895,0.02093950178714302,-0.08802559069183631, ,0.01590867679413421,0.020474337370289336,-0.08860044684057132, ,0.0012876379391797217, ,0.020993063309510902,0.0018443713577240518,-0.034058885905048276,0.033177865863388625,0.038610332352442336,0.012260860779051575, ,0.04005144344359416, ,0.05090660779671968, ,0.0006690471191119333, ,0.2199048185935429,-0.22470835844131057,0.09940081349,1.6869555953329984,0.5475024545601199,-1.2617687241946527, ,0.16475163465012285,0.07205538463057766,0.03747955651764706,-0.010073266352177953,0.21037330022775744,-0.09754668588234386, ,1.3065869808197021
0.01485455444071895,0.02093950178714302,-0.08802559069183631, ,0.015994721723768396,0.020467598008463143,-0.08870522845810602, ,0.0014087519664613725, ,0.020993063309510902,0.0018443713577240518,-0.034058885905048276,0.033177865863388625,0.038610332352442336,0.012260860779051575, ,0.04005144344359416, ,0.05090660779671968, ,0.0006785305145907722, ,0.2199048185935429,-0.22470835844131057,0.09940081349,1.6869555953329984,0.5475024545601199,-1.2617687241946527, ,0.16475163465012285,0.07205538463057766,0.03747955651764706,-0.010073266352177953,0.21037330022775744,-0.09754668588234386, ,1.310196876525879
0.01485455444071895,0.02093950178714302,-0.08802559069183631, ,0.016080603307761666,0.020460762225145535,-0.08881005448985314, ,0.0015322437283269476, ,0.020993063309510902,0.0018443713577240518,-0.034058885905048276,0.033177865863388625,0.038610332352442336,0.012260860779051575, ,0.04005144344359416, ,0.05090660779671968, ,0.0006893370109671796, ,0.2199048185935429,-0.22470835844131057,0.09940081349,1.6869555953329984,0.5475024545601199,-1.2617687241946527, ,0.16475163465012285,0.07205538463057766,0.03747955651764706,-0.010073266352177953,0.21037330022775744,-0.09754668588234386, ,1.3140640258789062
0.015094970535493371,0.02095196496287721,-0.08838606326692207, ,0.016166320876572875,0.0204538326701952,-0.08891492664789254, ,0.0012944588869776119, ,0.02183683741793305,0.0002880925490189567,-0.030131801951280783,0.018570341690040446,0.022753648634550823,0.012971981741070815, ,0.03721365279793492, ,0.02936939356133392, ,0.00069690103441731, ,0.2217351062847341,-0.22391291695526544,0.09977803388,1.6869555953329984,0.5498252750561323,-1.2627643624159457, ,0.18110103350853202,0.07888357569282692,0.03381913273885351,-0.00946399360284667,0.21467364263600253,-0.09338963600223579, ,1.3177988529205322
0.015094970535493371,0.02095196496287721,-0.08838606326692207, ,0.0162518737690948,0.02044681198089376,-0.08901984662411358, ,0.0014125459181836004, ,0.02183683741793305,0.0002880925490189567,-0.030131801951280783,0.018570341690040446,0.022753648634550823,0.012971981741070815, ,0.03721365279793492, ,0.02936939356133392, ,0.0007057361564391161, ,0.2217351062847341,-0.22391291695526544,0.09977803388,1.6869555953329984,0.5498252750561323,-1.2627643624159457, ,0.18110103350853202,0.07888357569282692,0.03381913273885351,-0.00946399360284667,0.21467364263600253,-0.09338963600223579, ,1.3215539455413818
0.015326687099062443,0.020950864185995014,-0.08867907129012649, ,0.016337261332632275,0.02043970278196761,-0.08912481609027031, ,0.0012170598544762616, ,0.023186252271005684,-0.0007436789322663952,-0.027083559626451096,-0.027403577691057376,-0.034853381820589384,0.0155816960334254, ,0.03566054619279611, ,0.04433621231319814, ,0.0007119718112932275, ,0.2236812349690387,-0.22310203000347187,0.10010729154,1.6869555953329984,0.551874822552614,-1.2634554860897054, ,0.19811470053960498,0.08124738147129348,0.030514964597701155,-0.008810877621016079,0.17164293997678065,-0.04717540218692111, ,1.3257238864898682
0.015326687099062443,0.020950864185995014,-0.08867907129012649, ,0.01642248292288077,0.020432507685609697,-0.08922983669803676, ,0.0013314670418526954, ,0.023186252271005684,-0.0007436789322663952,-0.027083559626451096,-0.027403577691057376,-0.034853381820589384,0.0155816960334254, ,0.03566054619279611, ,0.04433621231319814, ,0.0007194356092517754, ,0.2236812349690387,-0.22310203000347187,0.10010729154,1.6869555953329984,0.551874822552614,-1.2634554860897054, ,0.19811470053960498,0.08124738147129348,0.030514964597701155,-0.008810877621016079,0.17164293997678065,-0.04717540218692111, ,1.3295509815216064
0.015326687099062443,0.020950864185995014,-0.08867907129012649, ,0.01650753790390482,0.02042522929150302,-0.08933491007906273, ,0.0014494223617282373, ,0.023186252271005684,-0.0007436789322663952,-0.027083559626451096,-0.027403577691057376,-0.034853381820589384,0.0155816960334254, ,0.03566054619279611, ,0.04433621231319814, ,0.000728125927733638, ,0.2236812349690387,-0.22310203000347187,0.10010729154,1.6869555953329984,0.551874822552614,-1.2634554860897054, ,0.19811470053960498,0.08124738147129348,0.030514964597701155,-0.008810877621016079,0.17164293997678065,-0.04717540218692111, ,1.3331019878387451
0.015544827692104034,0.02093716891548983,-0.08893037016373298, ,0.016592425648116492,0.020417870186841523,-0.08944003784502881, ,0.0012754974685881169, ,0.02331028681736555,-0.0019161941857902803,-0.02678253664239141,0.019108824396216542,0.006476693291470202,0.003951481536440338, ,0.03555763688248336, ,0.020176247061865913, ,0.0007345655929201614, ,0.22571231371495976,-0.22219847025718759,0.10041062340000001,1.6869555953329984,0.5536510970495647,-1.2641688101764939, ,0.20407944421176513,0.09414379122864167,0.030168203636363643,-0.008255284776861079,0.2170744594755328,-0.10474114326898329, ,1.3366520404815674
0.015544827692104034,0.02093716891548983,-0.08893037016373298, ,0.016677145536253803,0.020410432946353172,-0.08954522158770264, ,0.0013919902136580687, ,0.02331028681736555,-0.0019161941857902803,-0.02678253664239141,0.019108824396216542,0.006476693291470202,0.003951481536440338, ,0.03555763688248336, ,0.020176247061865913, ,0.000742210065254323, ,0.22571231371495976,-0.22219847025718759,0.10041062340000001,1.6869555953329984,0.5536510970495647,-1.2641688101764939, ,0.20407944421176513,0.09414379122864167,0.030168203636363643,-0.008255284776861079,0.2170744594755328,-0.10474114326898329, ,1.3401949405670166
0.015544827692104034,0.02093716891548983,-0.08893037016373298, ,0.016761696957359094,0.020402920132321905,-0.08965046287899336, ,0.0015115310415634439, ,0.02331028681736555,-0.0019161941857902803,-0.02678253664239141,0.019108824396216542,0.006476693291470202,0.003951481536440338, ,0.03555763688248336, ,0.020176247061865913, ,0.0007510528350969566, ,0.22571231371495976,-0.22219847025718759,0.10041062340000001,1.6869555953329984,0.5536510970495647,-1.2641688101764939, ,0.20407944421176513,0.09414379122864167,0.030168203636363643,-0.008255284776861079,0.2170744594755328,-0.10474114326898329, ,1.3437678813934326
0.01578218885565435,0.020916303455940154,-0.08918699620130464, ,0.016846079308757502,0.020395334294610188,-0.0897557632710074, ,0.001314065349531423, ,0.024442624388146816,-0.0026734083892069483,-0.024867572000793398,-0.03156813745993529,-0.06138884816541127,0.004104828125582936, ,0.03497120439175859, ,0.06902990998156536, ,0.0007574507045791664, ,0.22779745159100037,-0.22126401957940642,0.10070099236,1.6869555953329984,0.5555640080462809,-1.2649935521669786, ,0.2146989628019701,0.09713095348871113,0.02814277653710248,-0.0077735807405438905,0.15879080388217046,-0.05794880263873022, ,1.3474688529968262
0.01578218885565435,0.020916303455940154,-0.08918699620130464, ,0.01693029199603551,0.02038767797068067,-0.08986112429610468, ,0.001432492377926543, ,0.024442624388146816,-0.0026734083892069483,-0.024867572000793398,-0.03156813745993529,-0.06138884816541127,0.004104828125582936, ,0.03497120439175859, ,0.06902990998156536, ,0.000765035442481946, ,0.22779745159100037,-0.22126401957940642,0.10070099236,1.6869555953329984,0.5555640080462809,-1.2649935521669786, ,0.2146989628019701,0.09713095348871113,0.02814277653710248,-0.0077735807405438905,0.15879080388217046,-0.05794880263873022, ,1.3510780334472656
0.01578218885565435,0.020916303455940154,-0.08918699620130464, ,0.01701433443301915,0.02037995368561909,-0.08996654746695273, ,0.0015535617064399603, ,0.024442624388146816,-0.0026734083892069483,-0.024867572000793398,-0.03156813745993529,-0.06138884816541127,0.004104828125582936, ,0.03497120439175859, ,0.06902990998156536, ,0.0007737968454148128, ,0.22779745159100037,-0.22126401957940642,0.10070099236,1.6869555953329984,0.5555640080462809,-1.2649935521669786, ,0.2146989628019701,0.09713095348871113,0.02814277653710248,-0.0077735807405438905,0.15879080388217046,-0.05794880263873022, ,1.354722023010254
0.016023318178788472,0.02088580006707333,-0.0894270464748826, ,0.017098206041752557,0.020372163952156,-0.09007203427658327, ,0.0013547011629276484, ,0.024707366113646108,-0.003198356279277547,-0.024453404155638632,-0.016117463584227137,-0.0568747669624865,-0.00864694807018625, ,0.034909202196010534, ,0.059114321494019045, ,0.0007801804093435252, ,0.22992892586428632,-0.22028323250437992,0.10097321326000001,1.6867459053895137,0.5572036460434662,-1.2656771370902111, ,0.21765353568456597,0.10171162010554209,0.02775054271777004,-0.001017352784185223,0.1645334117455585,-0.07711701010710278, ,1.3583910465240479
0.016023318178788472,0.02088580006707333,-0.0894270464748826, ,0.017181906252476464,0.020364311270689488,-0.09017758619844725, ,0.0014756648555462775, ,0.024707366113646108,-0.003198356279277547,-0.024453404155638632,-0.016117463584227137,-0.0568747669624865,-0.00864694807018625, ,0.034909202196010534, ,0.059114321494019045, ,0.0007877400228892072, ,0.22992892586428632,-0.22028323250437992,0.10097321326000001,1.6867459053895137,0.5572036460434662,-1.2656771370902111, ,0.21765353568456597,0.10171162010554209,0.02775054271777004,-0.001017352784185223,0.1645334117455585,-0.07711701010710278, ,1.3621070384979248
0.01628349861047137,0.020853602458154673,-0.08969597384137651, ,0.017265434503606465,0.02035639812930704,-0.09028320468646994, ,0.001247497618547224, ,0.025919755922022964,-0.0030198178861383066,-0.02794475348474751,0.014712401342270098,-0.032792685667519056,-0.015843289399171272, ,0.03823430781962704, ,0.03594159074520851, ,0.0007926836529500461, ,0.23219940932930833,-0.2192020499019885,0.10127784141000001,1.6867459053895137,0.5591165570401824,-1.2667469153011177, ,0.22276277361143376,0.10808307694586651,0.031542201029702975,-0.001017352784185223,0.19385636996632213,-0.11439861046829324, ,1.3662090301513672
0.01628349861047137,0.020853602458154673,-0.08969597384137651, ,0.0173487902417115,0.02034842700380807,-0.09038889117510714, ,0.0013675463175515923, ,0.025919755922022964,-0.0030198178861383066,-0.02794475348474751,0.014712401342270098,-0.032792685667519056,-0.015843289399171272, ,0.03823430781962704, ,0.03594159074520851, ,0.0007987992132117648, ,0.23219940932930833,-0.2192020499019885,0.10127784141000001,1.6867459053895137,0.5591165570401824,-1.2667469153011177, ,0.22276277361143376,0.10808307694586651,0.031542201029702975,-0.001017352784185223,0.19385636996632213,-0.11439861046829324, ,1.3697948455810547
0.01628349861047137,0.020853602458154673,-0.08969597384137651, ,0.017431972921492372,0.020340400357725722,-0.09049464707939962, ,0.0014900498582578316, ,0.025919755922022964,-0.0030198178861383066,-0.02794475348474751,0.014712401342270098,-0.032792685667519056,-0.015843289399171272, ,0.03823430781962704, ,0.03594159074520851, ,0.0008060755357911971, ,0.23219940932930833,-0.2192020499019885,0.10127784141000001,1.6867459053895137,0.5591165570401824,-1.2667469153011177, ,0.22276277361143376,0.10808307694586651,0.031542201029702975,-0.001017352784185223,0.19385636996632213,-0.11439861046829324, ,1.373417854309082
0.0165579200925903,0.02082355261723168,-0.08999553968106536, ,0.01751498200575994,0.02033232064234981,-0.09060047379502953, ,0.0012341886569823483, ,0.026972670529060827,-0.002714462092391292,-0.029756243522599625,-0.014206624601162053,-0.050730418943653204,-0.010065371572856497, ,0.040253289163701245, ,0.05268187790937046, ,0.0008105350474702716, ,0.2345162291915757,-0.2180745309023517,0.10161487681,1.6867459053895137,0.560892831537133,-1.2676235968681873, ,0.22648434739491832,0.1087021094598749,0.033534340042105266,-0.001017352784185223,0.17975120939665626,-0.08530532014436326, ,1.3769710063934326
0.0165579200925903,0.02082355261723168,-0.08999553968106536, ,0.01759781696541372,0.020324190296748406,-0.09070637269837531, ,0.001355002513549086, ,0.026972670529060827,-0.002714462092391292,-0.029756243522599625,-0.014206624601162053,-0.050730418943653204,-0.010065371572856497, ,0.040253289163701245, ,0.05268187790937046, ,0.000816148114130878, ,0.2345162291915757,-0.2180745309023517,0.10161487681,1.6867459053895137,0.560892831537133,-1.2676235968681873, ,0.22648434739491832,0.1087021094598749,0.033534340042105266,-0.001017352784185223,0.17975120939665626,-0.08530532014436326, ,1.3805630207061768
0.0165579200925903,0.02082355261723168,-0.08999553968106536, ,0.017680477279420296,0.020316011747790647,-0.09081234514656708, ,0.0014781419215792924, ,0.026972670529060827,-0.002714462092391292,-0.029756243522599625,-0.014206624601162053,-0.050730418943653204,-0.010065371572856497, ,0.040253289163701245, ,0.05268187790937046, ,0.0008229031529823923, ,0.2345162291915757,-0.2180745309023517,0.10161487681,1.6867459053895137,0.560892831537133,-1.2676235968681873, ,0.22648434739491832,0.1087021094598749,0.033534340042105266,-0.001017352784185223,0.17975120939665626,-0.08530532014436326, ,1.3841869831085205
0.016825346205341457,0.020794719206615485,-0.09029077704787682, ,0.017762962434791554,0.020307787410168424,-0.0909183924775423, ,0.0012288726116540987, ,0.02726104879857365,-0.0032592525526602615,-0.029943399892960104,-0.0227169320534101,-0.043408533498923776,-0.008306455658273594, ,0.04062505022704537, ,0.04899322106999639, ,0.0008270038545851368, ,0.236763544457975,-0.2169779028342118,0.10194802334000001,1.6867459053895137,0.5628057425338492,-1.2685300175988128, ,0.22811764797709322,0.11433366452827805,0.03374748203389831,-0.001017352784185223,0.18902663867102368,-0.0814604485870411, ,1.387812852859497
0.016825346205341457,0.020794719206615485,-0.09029077704787682, ,0.017845271926563332,0.020299519686419115,-0.09102451601010114, ,0.0013504976513488308, ,0.02726104879857365,-0.0032592525526602615,-0.029943399892960104,-0.0227169320534101,-0.043408533498923776,-0.008306455658273594, ,0.04062505022704537, ,0.04899322106999639, ,0.0008322387925527737, ,0.236763544457975,-0.2169779028342118,0.10194802334000001,1.6867459053895137,0.5628057425338492,-1.2685300175988128, ,0.22811764797709322,0.11433366452827805,0.03374748203389831,-0.001017352784185223,0.18902663867102368,-0.0814604485870411, ,1.3914709091186523
0.016825346205341457,0.020794719206615485,-0.09029077704787682, ,0.017927405257773654,0.020291210966947536,-0.0911307170439618, ,0.0014742977648645203, ,0.02726104879857365,-0.0032592525526602615,-0.029943399892960104,-0.0227169320534101,-0.043408533498923776,-0.008306455658273594, ,0.04062505022704537, ,0.04899322106999639, ,0.0008385958120806127, ,0.236763544457975,-0.2169779028342118,0.10194802334000001,1.6867459053895137,0.5628057425338492,-1.2685300175988128, ,0.22811764797709322,0.11433366452827805,0.03374748203389831,-0.001017352784185223,0.18902663867102368,-0.0814604485870411, ,1.3951148986816406
0.01709957802148792,0.020760326942960948,-0.09059141162830285, ,0.018009361939441103,0.02028286363004846,-0.09123699685981607, ,0.0012134489209239855, ,0.027285466635117515,-0.003345733098623656,-0.030196705052322102,-0.02390318627538922,-0.043449193210048656,-0.002717770302039427, ,0.0408354210885632, ,0.049590015099300284, ,0.0008422708425594693, ,0.23904175065587124,-0.21582721563595236,0.10228635503000001,1.6865362154460295,0.5645820170307999,-1.269243341685601, ,0.22594509894873996,0.11474841784579294,0.03403592205128206,-0.00795494179965091,0.1882065400011906,-0.08240007930146895, ,1.3987998962402344
0.01709957802148792,0.020760326942960948,-0.09059141162830285, ,0.018091141490543403,0.02027448004192836,-0.09134335671938465, ,0.0013359141979971342, ,0.027285466635117515,-0.003345733098623656,-0.030196705052322102,-0.02390318627538922,-0.043449193210048656,-0.002717770302039427, ,0.0408354210885632, ,0.049590015099300284, ,0.0008470634964957574, ,0.23904175065587124,-0.21582721563595236,0.10228635503000001,1.6865362154460295,0.5645820170307999,-1.269243341685601, ,0.22594509894873996,0.11474841784579294,0.03403592205128206,-0.00795494179965091,0.1882065400011906,-0.08240007930146895, ,1.4024479389190674
0.01709957802148792,0.020760326942960948,-0.09059141162830285, ,0.018172743437995686,0.020266062556728134,-0.09144979786547254, ,0.001460413717700819, ,0.027285466635117515,-0.003345733098623656,-0.030196705052322102,-0.02390318627538922,-0.043449193210048656,-0.002717770302039427, ,0.0408354210885632, ,0.049590015099300284, ,0.0008529610947765753, ,0.24134312505239014,-0.2146379147733218,0.10263376075000001,1.686326525502545,0.5664949280275161,-1.2699047261958047, ,0.22069056176388552,0.1168681546286586,0.033534340042105266,-0.008866532830895337,0.1831827794626108,-0.0711403064438093, ,1.4064538478851318
0.017378527812258553,0.020723494333314836,-0.09089985356337496, ,0.018254167316628926,0.020257613516545345,-0.09155632152202457, ,0.0011894282903064767, ,0.02689422099393245,-0.0037322681823755742,-0.029793385022330796,-0.037143660626553374,-0.04342168523942623,-0.00024126531716173053, ,0.04030973504929665, ,0.05714079802659317, ,0.0008561655442578125, ,0.24134312505239014,-0.2146379147733218,0.10263376075000001,1.686326525502545,0.5664949280275161,-1.2699047261958047, ,0.22069056176388552,0.1168681546286586,0.033534340042105266,-0.008866532830895337,0.1831827794626108,-0.0711403064438093, ,1.4100539684295654
0.017378527812258553,0.020723494333314836,-0.09089985356337496, ,0.018335412669168338,0.020249135251456236,-0.09166292889418104, ,0.0013126039495635381, ,0.02689422099393245,-0.0037322681823755742,-0.029793385022330796,-0.037143660626553374,-0.04342168523942623,-0.00024126531716173053, ,0.04030973504929665, ,0.05714079802659317, ,0.0008604715669493759, ,0.24134312505239014,-0.2146379147733218,0.10263376075000001,1.686326525502545,0.5664949280275161,-1.2699047261958047, ,0.22069056176388552,0.1168681546286586,0.033534340042105266,-0.008866532830895337,0.1831827794626108,-0.0711403064438093, ,1.4136219024658203
0.017649137589654366,0.02068479444592712,-0.09119748944222875, ,0.018416479046211857,0.02024063007953809,-0.09176962116833234, ,0.0010551917396074623, ,0.02636088208702691,-0.0038682279588432627,-0.02887102677993423,-0.031544935321837005,-0.03999791264670581,-0.0023372455596522013, ,0.03928607233200326, ,0.050940120744517696, ,0.000862291381647115, ,0.24356727212016682,-0.21346405937643967,0.10296949986000001,1.6861168355590603,0.5684078390242323,-1.2707294681862897, ,0.21567486717834267,0.11530612583046268,0.03257425668711657,-0.00867738601865499,0.18135300907460855,-0.07556617095638402, ,1.4171960353851318
0.017649137589654366,0.02068479444592712,-0.09119748944222875, ,0.018497366006208278,0.020232100306891387,-0.09187639951217554, ,0.0011770056555692571, ,0.02636088208702691,-0.0038682279588432627,-0.02887102677993423,-0.031544935321837005,-0.03999791264670581,-0.0023372455596522013, ,0.03928607233200326, ,0.050940120744517696, ,0.0008652054027019497, ,0.24356727212016682,-0.21346405937643967,0.10296949986000001,1.6861168355590603,0.5684078390242323,-1.2707294681862897, ,0.21567486717834267,0.11530612583046268,0.03257425668711657,-0.00867738601865499,0.18135300907460855,-0.07556617095638402, ,1.4208269119262695
0.017649137589654366,0.02068479444592712,-0.09119748944222875, ,0.018578073115435974,0.020223548227662078,-0.0919832650747685, ,0.00130119661451151, ,0.02636088208702691,-0.0038682279588432627,-0.02887102677993423,-0.031544935321837005,-0.03999791264670581,-0.0023372455596522013, ,0.03928607233200326, ,0.050940120744517696, ,0.0008692053220763494, ,0.24356727212016682,-0.21346405937643967,0.10296949986000001,1.6861168355590603,0.5684078390242323,-1.2707294681862897, ,0.21567486717834267,0.11530612583046268,0.03257425668711657,-0.00867738601865499,0.18135300907460855,-0.07556617095638402, ,1.42454195022583
0.01791940655916201,0.02064742025080801,-0.09150029232283044, ,0.018658599947981094,0.020214976124063904,-0.09209021898658643, ,0.0010399174281834017, ,0.026128648772703426,-0.003665289539850277,-0.029816622265420163,-0.021761338332602888,-0.03469547841037151,-0.006047448937180252, ,0.03981421350996377, ,0.04095495698699152, ,0.0008707572503136862, ,0.24574508279069812,-0.21229020397955756,0.10331042413000001,1.6861168355590603,0.570184113521183,-1.2715244710132185, ,0.20902410034905458,0.1144715820970697,0.033534340042105266,-0.00867738601865499,0.17973708435757818,-0.08515941923697382, ,1.4282200336456299
0.01791940655916201,0.02064742025080801,-0.09150029232283044, ,0.018738946085715975,0.02020638626640086,-0.09219726235957677, ,0.0011627223413646648, ,0.026128648772703426,-0.003665289539850277,-0.029816622265420163,-0.021761338332602888,-0.03469547841037151,-0.006047448937180252, ,0.03981421350996377, ,0.04095495698699152, ,0.0008733875664492806, ,0.24574508279069812,-0.21229020397955756,0.10331042413000001,1.6861168355590603,0.570184113521183,-1.2715244710132185, ,0.20902410034905458,0.1144715820970697,0.033534340042105266,-0.00867738601865499,0.17973708435757818,-0.08515941923697382, ,1.431838035583496
0.01791940655916201,0.02064742025080801,-0.09150029232283044, ,0.01881911111827764,0.02019778091308883,-0.09230439628721453, ,0.0012877216365566738, ,0.026128648772703426,-0.003665289539850277,-0.029816622265420163,-0.021761338332602888,-0.03469547841037151,-0.006047448937180252, ,0.03981421350996377, ,0.04095495698699152, ,0.0008770869777895252, ,0.24574508279069812,-0.21229020397955756,0.10331042413000001,1.6861168355590603,0.570184113521183,-1.2715244710132185, ,0.20902410034905458,0.1144715820970697,0.033534340042105266,-0.00867738601865499,0.17973708435757818,-0.08515941923697382, ,1.4354729652404785
0.018172757689815373,0.020610520888849945,-0.09178743438813237, ,0.018899094643046035,0.020189162310678428,-0.09241162184455785, ,0.0010462879153397661, ,0.025670978202755112,-0.0037079341936195,-0.029062040594970976,-0.02425818281137151,-0.04247414331076189,-0.0076668626649271585, ,0.038953178322369046, ,0.048913102046411215, ,0.0008785843312191734, ,0.24776071607087072,-0.211170407712795,0.10363320034000001,1.6861168355590603,0.5718237515183683,-1.2722897346765918, ,0.20364150549028065,0.11230407285026127,0.03270803186858317,-0.00867738601865499,0.1662313699885343,-0.08114023503438123, ,1.4398179054260254
0.018172757689815373,0.020610520888849945,-0.09178743438813237, ,0.018978896265122492,0.02018053269387701,-0.0925189400883036, ,0.0011704058440546435, ,0.025670978202755112,-0.0037079341936195,-0.029062040594970976,-0.02425818281137151,-0.04247414331076189,-0.0076668626649271585, ,0.038953178322369046, ,0.048913102046411215, ,0.0008811441690510635, ,0.24776071607087072,-0.211170407712795,0.10363320034000001,1.6861168355590603,0.5718237515183683,-1.2722897346765918, ,0.20364150549028065,0.11230407285026127,0.03270803186858317,-0.00867738601865499,0.1662313699885343,-0.08114023503438123, ,1.4434230327606201
0.018430948009392805,0.020573063423179917,-0.09208264146557558, ,0.019058515597308173,0.02017189428557065,-0.09262635205684226, ,0.0009221707875592441, ,0.02470507521339813,-0.003609330186101941,-0.028667990952213878,-0.015293221547293689,-0.040237689192297345,-0.009878251595292918, ,0.03801607174509462, ,0.04304573025541577, ,0.0008815009222554824, ,0.24979179481679176,-0.2100428887131582,0.10396505058000001,1.6859071456155759,0.5734633895155536,-1.2731366770801054, ,0.1924887252707318,0.10920246439409755,0.03217941721212122,-0.010623310068779023,0.15727997192406362,-0.08853199430371621, ,1.4470350742340088
0.018430948009392805,0.020573063423179917,-0.09208264146557558, ,0.019137952260082303,0.02016324929684694,-0.09273385877031348, ,0.0010449337809761777, ,0.02470507521339813,-0.003609330186101941,-0.028667990952213878,-0.015293221547293689,-0.040237689192297345,-0.009878251595292918, ,0.03801607174509462, ,0.04304573025541577, ,0.0008829098262099712, ,0.24979179481679176,-0.2100428887131582,0.10396505058000001,1.6859071456155759,0.5734633895155536,-1.2731366770801054, ,0.1924887252707318,0.10920246439409755,0.03217941721212122,-0.010623310068779023,0.15727997192406362,-0.08853199430371621, ,1.4506199359893799
0.018430948009392805,0.020573063423179917,-0.09208264146557558, ,0.019217205881580754,0.02015459992701697,-0.09284146123066253, ,0.001170094259059947, ,0.02470507521339813,-0.003609330186101941,-0.028667990952213878,-0.015293221547293689,-0.040237689192297345,-0.009878251595292918, ,0.03801607174509462, ,0.04304573025541577, ,0.0008853643940121078, ,0.24979179481679176,-0.2100428887131582,0.10396505058000001,1.6859071456155759,0.5734633895155536,-1.2731366770801054, ,0.1924887252707318,0.10920246439409755,0.03217941721212122,-0.010623310068779023,0.15727997192406362,-0.08853199430371621, ,1.4552650451660156
0.018628315753877186,0.020540193216362784,-0.09231615215565389, ,0.01929627609757428,0.020145948363637346,-0.0929491604216939, ,0.0010011490845660432, ,0.023245004565688548,-0.003949669661674923,-0.027192548975492514,-0.029798215511816946,-0.039509874727396345,-0.0015485653172760537, ,0.03599117735612154, ,0.049486856646633146, ,0.0008863456202032428, ,0.251313173193014,-0.20913932896687396,0.10422560487000002,1.6854877657286067,0.5746931180134426,-1.273812723252811, ,0.1793893035131773,0.10796011553864708,0.030398495267175574,-0.017147652372668288,0.14615934095633415,-0.07433787844821446, ,1.4589509963989258
0.018628315753877186,0.020540193216362784,-0.09231615215565389, ,0.01937516255144699,0.02013729678253287,-0.09305695730912837, ,0.001126453705594456, ,0.023245004565688548,-0.003949669661674923,-0.027192548975492514,-0.029798215511816946,-0.039509874727396345,-0.0015485653172760537, ,0.03599117735612154, ,0.049486856646633146, ,0.0008883633352065304, ,0.251313173193014,-0.20913932896687396,0.10422560487000002,1.6854877657286067,0.5746931180134426,-1.273812723252811, ,0.1793893035131773,0.10796011553864708,0.030398495267175574,-0.017147652372668288,0.14615934095633415,-0.07433787844821446, ,1.4626619815826416
0.018890357997319685,0.02049632494375606,-0.09262451398923174, ,0.019453864894174548,0.020128647347818177,-0.09316485284065672, ,0.0008629559152801015, ,0.021534758901186907,-0.0037504333027202344,-0.025506048824210988,-0.03169209352272449,-0.033648098807723376,-0.00014013138403895942, ,0.033591220839877735, ,0.04622307378782048, ,0.0008881516067071434, ,0.25332108374031237,-0.2079191371727465,0.10457041801000001,1.6854877657286067,0.5763327560106278,-1.2746596656563247, ,0.16418155978974183,0.10095419314730934,0.028495190554561723,-0.016424052857594983,0.13652201450195087,-0.06556717926872209, ,1.4666810035705566
0.018890357997319685,0.02049632494375606,-0.09262451398923174, ,0.019532382784302874,0.020120002211920972,-0.09327284794599722, ,0.0009869911575550241, ,0.021534758901186907,-0.0037504333027202344,-0.025506048824210988,-0.03169209352272449,-0.033648098807723376,-0.00014013138403895942, ,0.033591220839877735, ,0.04622307378782048, ,0.0008889684624992747, ,0.25332108374031237,-0.2079191371727465,0.10457041801000001,1.6854877657286067,0.5763327560106278,-1.2746596656563247, ,0.16418155978974183,0.10095419314730934,0.028495190554561723,-0.016424052857594983,0.13652201450195087,-0.06556717926872209, ,1.4703309535980225
0.018890357997319685,0.02049632494375606,-0.09262451398923174, ,0.019610715887926247,0.020111363515603185,-0.09338094353694923, ,0.0011132369255395346, ,0.021534758901186907,-0.0037504333027202344,-0.025506048824210988,-0.03169209352272449,-0.033648098807723376,-0.00014013138403895942, ,0.033591220839877735, ,0.04622307378782048, ,0.0008908067285897687, ,0.25332108374031237,-0.2079191371727465,0.10457041801000001,1.6854877657286067,0.5763327560106278,-1.2746596656563247, ,0.16418155978974183,0.10095419314730934,0.028495190554561723,-0.016424052857594983,0.13652201450195087,-0.06556717926872209, ,1.4739089012145996
0.019104187154839355,0.020459016478556077,-0.09288599006105408, ,0.019688863878665818,0.0201027333879838,-0.09348914050744915, ,0.0009124554635700051, ,0.02136505213237586,-0.003714712302855215,-0.026409511677225293,-0.030860572620629096,-0.04585011202027589,-0.008273965094913967, ,0.03417201848210932, ,0.055268389407880335, ,0.0008909827345652178, ,0.25493513491102526,-0.2068920137004746,0.10486208326000002,1.6854877657286067,0.5778357575080477,-1.2754768688962823, ,0.157374695785192,0.10182075274514032,0.029280903529411772,-0.013991514018350476,0.11637941733877184,-0.06795995738349223, ,1.477475881576538
0.019104187154839355,0.020459016478556077,-0.09288599006105408, ,0.019766826437647905,0.020094113946561104,-0.0935974397336265, ,0.0010384629572501717, ,0.02136505213237586,-0.003714712302855215,-0.026409511677225293,-0.030860572620629096,-0.04585011202027589,-0.008273965094913967, ,0.03417201848210932, ,0.055268389407880335, ,0.0008921720911997739, ,0.25493513491102526,-0.2068920137004746,0.10486208326000002,1.6854877657286067,0.5778357575080477,-1.2754768688962823, ,0.157374695785192,0.10182075274514032,0.029280903529411772,-0.013991514018350476,0.11637941733877184,-0.06795995738349223, ,1.48101806640625
0.019104187154839355,0.020459016478556077,-0.09288599006105408, ,0.019844603253482505,0.020085507297234698,-0.09370584207385846, ,0.0011661399703983652, ,0.02136505213237586,-0.003714712302855215,-0.026409511677225293,-0.030860572620629096,-0.04585011202027589,-0.008273965094913967, ,0.03417201848210932, ,0.055268389407880335, ,0.0008943638342333626, ,0.25493513491102526,-0.2068920137004746,0.10486208326000002,1.6854877657286067,0.5778357575080477,-1.2754768688962823, ,0.157374695785192,0.10182075274514032,0.029280903529411772,-0.013991514018350476,0.11637941733877184,-0.06795995738349223, ,1.4845669269561768
0.01931199442291362,0.02042603256883245,-0.0931493395172489, ,0.01992219402224154,0.020076915534328152,-0.09381434836882578, ,0.0009677101980844466, ,0.02111187370303574,-0.0027959450708559147,-0.027918556538658476,-0.02391731621544362,-0.03185089078820219,-0.01249637107935361, ,0.0351137340551307, ,0.03983089626697108, ,0.0008949459482321808, ,0.25644106782149906,-0.20592667209119656,0.10515374851,1.6852780757851225,0.5789288495061712,-1.2761231759054321, ,0.15015338854188412,0.0954697601191859,0.03092973110679612,-0.006273743988181324,0.12172256184291824,-0.06645291355202022, ,1.4881739616394043
0.01931199442291362,0.02042603256883245,-0.0931493395172489, ,0.019999598447437233,0.02006834074061044,-0.09392295944156744, ,0.0010950938433853508, ,0.02111187370303574,-0.0027959450708559147,-0.027918556538658476,-0.02391731621544362,-0.03185089078820219,-0.01249637107935361, ,0.0351137340551307, ,0.03983089626697108, ,0.0008965219159105522, ,0.25644106782149906,-0.20592667209119656,0.10515374851,1.6852780757851225,0.5789288495061712,-1.2761231759054321, ,0.15015338854188412,0.0954697601191859,0.03092973110679612,-0.006273743988181324,0.12172256184291824,-0.06645291355202022, ,1.491905927658081
0.01931199442291362,0.02042603256883245,-0.0931493395172489, ,0.020076816240000645,0.020059784987319286,-0.09403167609753718, ,0.0012237677654568981, ,0.02111187370303574,-0.0027959450708559147,-0.027918556538658476,-0.02391731621544362,-0.03185089078820219,-0.01249637107935361, ,0.0351137340551307, ,0.03983089626697108, ,0.000899078524110133, ,0.25644106782149906,-0.20592667209119656,0.10515374851,1.6852780757851225,0.5789288495061712,-1.2761231759054321, ,0.15015338854188412,0.0954697601191859,0.03092973110679612,-0.006273743988181324,0.12172256184291824,-0.06645291355202022, ,1.4955859184265137
0.019439394391794495,0.02040895016795036,-0.09332216341003638, ,0.020153847118259814,0.02005125033418247,-0.09414049912465815, ,0.0011437067855253919, ,0.020799692566887774,-0.002584941602891489,-0.028935472346422384,0.0040407822312439655,-0.0005493869286191848,0.000987863571050633, ,0.035729129486708464, ,0.004075470901789735, ,0.0009009748672218792, ,0.25735235030065756,-0.2053474671256297,0.10534559943,1.6850683858416375,0.5798853050045292,-1.276739743751026, ,0.1462202489344696,0.09433095582352961,0.03204992257545272,-0.02366493342942431,0.15289550868093543,-0.09753238941983189, ,1.499269962310791
0.019439394391794495,0.02040895016795036,-0.09332216341003638, ,0.020230690807918363,0.020042738829440514,-0.09424942929337812, ,0.0012728247251814352, ,0.020799692566887774,-0.002584941602891489,-0.028935472346422384,0.0040407822312439655,-0.0005493869286191848,0.000987863571050633, ,0.035729129486708464, ,0.004075470901789735, ,0.000903835250744645, ,0.25735235030065756,-0.2053474671256297,0.10534559943,1.6850683858416375,0.5798853050045292,-1.276739743751026, ,0.1462202489344696,0.09433095582352961,0.03204992257545272,-0.02366493342942431,0.15289550868093543,-0.09753238941983189, ,1.503018856048584
0.019719546120722818,0.020376891716236585,-0.09372860514645606, ,0.020307347042033665,0.020034252509869,-0.09435846735672582, ,0.0009271666262112702, ,0.0194800812229589,-0.0020470718320422625,-0.02873305408841863,-0.009977672869251757,-0.0009516817857624838,0.00277708624472025, ,0.03477430753856369, ,0.010021979333775619, ,0.0009040133528474436, ,0.2592675880534652,-0.20408093893425688,0.10579411577000002,1.6846490059546686,0.5819348525010108,-1.2780842973459101, ,0.13071204071414708,0.08722145363830036,0.031667617335984104,-0.020433246623729463,0.13619454908523307,-0.07568318900048543, ,1.5067689418792725
0.019719546120722818,0.020376891716236585,-0.09372860514645606, ,0.020383815560995427,0.0200257934008005,-0.0944676140503653, ,0.0010538776382670216, ,0.0194800812229589,-0.0020470718320422625,-0.02873305408841863,-0.009977672869251757,-0.0009516817857624838,0.00277708624472025, ,0.03477430753856369, ,0.010021979333775619, ,0.0009051486883430464, ,0.2592675880534652,-0.20408093893425688,0.10579411577000002,1.6846490059546686,0.5819348525010108,-1.2780842973459101, ,0.13071204071414708,0.08722145363830036,0.031667617335984104,-0.020433246623729463,0.13619454908523307,-0.07568318900048543, ,1.5107200145721436
0.019719546120722818,0.020376891716236585,-0.09372860514645606, ,0.02046009611250382,0.020017363516146948,-0.09457687009265175, ,0.0011820440922109955, ,0.0194800812229589,-0.0020470718320422625,-0.02873305408841863,-0.009977672869251757,-0.0009516817857624838,0.00277708624472025, ,0.03477430753856369, ,0.010021979333775619, ,0.0009072306086728807, ,0.2592675880534652,-0.20408093893425688,0.10579411577000002,1.6846490059546686,0.5819348525010108,-1.2780842973459101, ,0.13071204071414708,0.08722145363830036,0.031667617335984104,-0.020433246623729463,0.13619454908523307,-0.07568318900048543, ,1.514328956604004
0.01991486517822723,0.020356104932464644,-0.0940268502659237, ,0.020536188451548087,0.0200089648584221,-0.09468623618468726, ,0.0009702260720265548, ,0.020201422697160222,-0.001852813453821113,-0.032298324844870184,0.0013745371765582727,0.018612032856797484,0.014911987256504965, ,0.0381406893549233, ,0.018661778360139547, ,0.0009077007240710424, ,0.2605572844434607,-0.20318510192084685,0.10612207714,1.6844393160111841,0.5834378539984307,-1.2788198218457274, ,0.12928738631944245,0.09159936443867836,0.03539735893333334,-0.03632911953181074,0.15771375895796283,-0.09513433304565046, ,1.517868995666504
0.01991486517822723,0.020356104932464644,-0.0940268502659237, ,0.020612092340384764,0.02000059941876352,-0.09479571301037537, ,0.001097114308414539, ,0.020201422697160222,-0.001852813453821113,-0.032298324844870184,0.0013745371765582727,0.018612032856797484,0.014911987256504965, ,0.0381406893549233, ,0.018661778360139547, ,0.0009091037876587721, ,0.2605572844434607,-0.20318510192084685,0.10612207714,1.6844393160111841,0.5834378539984307,-1.2788198218457274, ,0.12928738631944245,0.09159936443867836,0.03539735893333334,-0.03632911953181074,0.15771375895796283,-0.09513433304565046, ,1.5214910507202148
0.01991486517822723,0.020356104932464644,-0.0940268502659237, ,0.02068780754851617,0.019992269176954885,-0.09490530123647754, ,0.0012253540192296434, ,0.020201422697160222,-0.001852813453821113,-0.032298324844870184,0.0013745371765582727,0.018612032856797484,0.014911987256504965, ,0.0381406893549233, ,0.018661778360139547, ,0.0009114291570085579, ,0.2605572844434607,-0.20318510192084685,0.10612207714,1.6844393160111841,0.5834378539984307,-1.2788198218457274, ,0.12928738631944245,0.09159936443867836,0.03539735893333334,-0.03632911953181074,0.15771375895796283,-0.09513433304565046, ,1.5250999927520752
0.020115944150704175,0.020346522661302303,-0.09436109394441967, ,0.020763333852668497,0.019983976101448205,-0.09501500151266734, ,0.0009890139241098032, ,0.019194444919043773,-0.0008561384722197934,-0.03229688859480971,0.0215739101980181,0.04164279728567378,0.010324265610697467, ,0.03757989757489195, ,0.04689905144960542, ,0.00091199546917718, ,0.2618083671690851,-0.2023201558389337,0.10648892721000001,1.6844393160111841,0.585077491995616,-1.2799118004696626, ,0.11906768075090436,0.08110849705852202,0.035476194922048995,-0.02896968973461778,0.16915668931454217,-0.10314860027059267, ,1.529350996017456
0.020115944150704175,0.020346522661302303,-0.09436109394441967, ,0.020838671036770624,0.019975722149386234,-0.09512481447158683, ,0.001114942247426744, ,0.019194444919043773,-0.0008561384722197934,-0.03229688859480971,0.0215739101980181,0.04164279728567378,0.010324265610697467, ,0.03757989757489195, ,0.04689905144960542, ,0.0009134660980050756, ,0.2618083671690851,-0.2023201558389337,0.10648892721000001,1.6844393160111841,0.585077491995616,-1.2799118004696626, ,0.11906768075090436,0.08110849705852202,0.035476194922048995,-0.02896968973461778,0.16915668931454217,-0.10314860027059267, ,1.533099889755249
0.02030898891357557,0.020338450226572012,-0.09468089485154609, ,0.020913818891932154,0.0199675092666244,-0.09523474072890156, ,0.0009000898590414959, ,0.018720391725179752,-0.0009755656909760645,-0.030911278425265802,-0.025481016588529536,0.013184057678526526,0.014611862970712014, ,0.03615123688957116, ,0.02868925515672229, ,0.0009133698660700858, ,0.2629976680317157,-0.20150926888714013,0.10684022180000001,1.6844393160111841,0.5865804934930359,-1.2808106824497612, ,0.1144715820970697,0.07881805777281627,0.03389108834042554,-0.02333158001154871,0.13496739547835535,-0.05161155116956562, ,1.5370090007781982
0.02030898891357557,0.020338450226572012,-0.09468089485154609, ,0.02098877721642184,0.019959339387753454,-0.0953447808833559, ,0.0010230258198249509, ,0.018720391725179752,-0.0009755656909760645,-0.030911278425265802,-0.025481016588529536,0.013184057678526526,0.014611862970712014, ,0.03615123688957116, ,0.02868925515672229, ,0.0009141531228826204, ,0.2629976680317157,-0.20150926888714013,0.10684022180000001,1.6844393160111841,0.5865804934930359,-1.2808106824497612, ,0.1144715820970697,0.07881805777281627,0.03389108834042554,-0.02333158001154871,0.13496739547835535,-0.05161155116956562, ,1.5405969619750977
0.02030898891357557,0.020338450226572012,-0.09468089485154609, ,0.021063545815646012,0.01995121443612144,-0.09545493551682854, ,0.001148236311644486, ,0.018720391725179752,-0.0009755656909760645,-0.030911278425265802,-0.025481016588529536,0.013184057678526526,0.014611862970712014, ,0.03615123688957116, ,0.02868925515672229, ,0.0009158132873419245, ,0.2629976680317157,-0.20150926888714013,0.10684022180000001,1.6844393160111841,0.5865804934930359,-1.2808106824497612, ,0.1144715820970697,0.07881805777281627,0.03389108834042554,-0.02333158001154871,0.13496739547835535,-0.05161155116956562, ,1.5442349910736084
0.02049285671296994,0.020327695212182712,-0.09498809994218688, ,0.021138124502126966,0.01994313632385583,-0.0955652051943878, ,0.0009472626512391858, ,0.018413638614441896,-0.0010036344760637607,-0.03076628536461031,-0.017567643169202552,-0.0013456949177297244,0.00309230847686626, ,0.0358696763899738, ,0.017618326118917307, ,0.0009160347617355671, ,0.26410201883272977,-0.20072927286684344,0.10717596091,1.684019936124215,0.5878102219909248,-1.2814050498823262, ,0.10932827368487416,0.0782332576739248,0.03360508759493671,-0.01891382098589864,0.11365088590357213,-0.05955450489428961, ,1.547903060913086
0.02049285671296994,0.020327695212182712,-0.09498809994218688, ,0.02121251309548121,0.019935106951886206,-0.09567559046434737, ,0.0010698944195911813, ,0.018413638614441896,-0.0010036344760637607,-0.03076628536461031,-0.017567643169202552,-0.0013456949177297244,0.00309230847686626, ,0.0358696763899738, ,0.017618326118917307, ,0.000917110703398893, ,0.26410201883272977,-0.20072927286684344,0.10717596091,1.684019936124215,0.5878102219909248,-1.2814050498823262, ,0.10932827368487416,0.0782332576739248,0.03360508759493671,-0.01891382098589864,0.11365088590357213,-0.05955450489428961, ,1.5516178607940674
0.02049285671296994,0.020327695212182712,-0.09498809994218688, ,0.021286711422397984,0.019927128209965915,-0.09578609185832086, ,0.001194759524406994, ,0.018413638614441896,-0.0010036344760637607,-0.03076628536461031,-0.017567643169202552,-0.0013456949177297244,0.00309230847686626, ,0.0358696763899738, ,0.017618326118917307, ,0.0009190388202114494, ,0.26410201883272977,-0.20072927286684344,0.10717596091,1.684019936124215,0.5878102219909248,-1.2814050498823262, ,0.10932827368487416,0.0782332576739248,0.03360508759493671,-0.01891382098589864,0.11365088590357213,-0.05955450489428961, ,1.5552420616149902
0.020674478359347215,0.020314070244755632,-0.09529077328163157, ,0.021360719316617503,0.019919201976694938,-0.09589670989127817, ,0.0009969988843857895, ,0.017662716065241866,-0.0016701762455287677,-0.02950194904344545,-0.03747128459646321,0.011291049803993179,0.08186632500621757, ,0.03442565939607452, ,0.03913518399368632, ,0.0009195764758264448, ,0.26519092416799545,-0.199956999579421,0.10750651486000001,1.683181176350277,0.5890399504888139,-1.281999417314891, ,0.10698640536467957,0.0778481883170392,0.03224455773279353,-0.09547771097212697,0.1398030666834361,-0.05744769823336308, ,1.5588350296020508
0.020674478359347215,0.020314070244755632,-0.09529077328163157, ,0.02143453661890939,0.019911330119541687,-0.09600744506160033, ,0.001119601092617194, ,0.017662716065241866,-0.0016701762455287677,-0.02950194904344545,-0.03747128459646321,0.011291049803993179,0.08186632500621757, ,0.03442565939607452, ,0.03913518399368632, ,0.0009209465074482993, ,0.26519092416799545,-0.199956999579421,0.10750651486000001,1.683181176350277,0.5890399504888139,-1.281999417314891, ,0.10698640536467957,0.0778481883170392,0.03224455773279353,-0.09547771097212697,0.1398030666834361,-0.05744769823336308, ,1.5625419616699219
0.020674478359347215,0.020314070244755632,-0.09529077328163157, ,0.021508163177050996,0.019903514494865337,-0.096118297851135, ,0.0012443405129503745, ,0.017662716065241866,-0.0016701762455287677,-0.02950194904344545,-0.03747128459646321,0.011291049803993179,0.08186632500621757, ,0.03442565939607452, ,0.03913518399368632, ,0.0009231464666694019, ,0.26519092416799545,-0.199956999579421,0.10750651486000001,1.683181176350277,0.5890399504888139,-1.281999417314891, ,0.10698640536467957,0.0778481883170392,0.03224455773279353,-0.09547771097212697,0.1398030666834361,-0.05744769823336308, ,1.5662269592285156
0.020850426156124507,0.020298857045839107,-0.09558062186516345, ,0.021581598845805832,0.01989575694793819,-0.09622926872525199, ,0.0010572823370161252, ,0.01702801325336576,-0.0010949267350121653,-0.027626617832862205,0.03778955400744572,0.051547371164738016,-0.04670842615122599, ,0.03247125055791453, ,0.06391530155618487, ,0.0009240527901176905, ,0.26627982950326107,-0.19917700355912432,0.10782540220000002,1.682761796463308,0.5906795884859991,-1.2830913959388264, ,0.10532401948775891,0.07425425787047792,0.030514964597701155,0.030082182197196966,0.1529879883815473,-0.09853487542604336, ,1.5699338912963867
0.020850426156124507,0.020298857045839107,-0.09558062186516345, ,0.021654843486901817,0.01988805931296777,-0.09634035813289808, ,0.0011802716703786797, ,0.01702801325336576,-0.0010949267350121653,-0.027626617832862205,0.03778955400744572,0.051547371164738016,-0.04670842615122599, ,0.03247125055791453, ,0.06391530155618487, ,0.0009257723799181, ,0.26627982950326107,-0.19917700355912432,0.10782540220000002,1.682761796463308,0.5906795884859991,-1.2830913959388264, ,0.10532401948775891,0.07425425787047792,0.030514964597701155,0.030082182197196966,0.1529879883815473,-0.09853487542604336, ,1.5735118389129639
0.021022961971627854,0.020286247569388433,-0.09586096466352637, ,0.02172789696900984,0.01988042341311942,-0.09645156650665349, ,0.001005205020605523, ,0.01702801325336576,-0.0010949267350121653,-0.027626617832862205,0.03778955400744572,0.051547371164738016,-0.04670842615122599, ,0.03247125055791453, ,0.06391530155618487, ,0.0009263019308560161, ,0.2673301211741556,-0.19842789847032455,0.10813391922000001,1.682761796463308,0.5920459534836535,-1.2838788600152284, ,0.10771503014582383,0.07573578735711954,0.03211453935483872,0.01956052998123235,0.12545719755170426,-0.04607069158847665, ,1.5770649909973145
0.021022961971627854,0.020286247569388433,-0.09586096466352637, ,0.02180075916772183,0.01987285106053778,-0.09656289426278597, ,0.00112630826779275, ,0.01797553127964286,-0.001017057522448751,-0.029187757542280125,-0.017430915383185957,0.019246813967187235,-0.026182121562469237, ,0.034294012905116814, ,0.025966429773727397, ,0.0009276264761337429, ,0.2673301211741556,-0.19842789847032455,0.10813391922000001,1.682761796463308,0.5920459534836535,-1.2838788600152284, ,0.10771503014582383,0.07573578735711954,0.03211453935483872,0.01956052998123235,0.12545719755170426,-0.04607069158847665, ,1.5807099342346191
0.021022961971627854,0.020286247569388433,-0.09586096466352637, ,0.02187342996552943,0.019865344056369985,-0.09667434180130745, ,0.0012498151640091377, ,0.01797553127964286,-0.001017057522448751,-0.029187757542280125,-0.017430915383185957,0.019246813967187235,-0.026182121562469237, ,0.034294012905116814, ,0.025966429773727397, ,0.0009297461385539757, ,0.2673301211741556,-0.19842789847032455,0.10813391922000001,1.682761796463308,0.5920459534836535,-1.2838788600152284, ,0.10771503014582383,0.07573578735711954,0.03211453935483872,0.01956052998123235,0.12545719755170426,-0.04607069158847665, ,1.584256887435913
0.021212229981139332,0.020277824401959087,-0.09617240180171367, ,0.021945909251802204,0.019857904190787177,-0.0967859095060285, ,0.0010445142216383247, ,0.018515018025710896,-0.000777239924411543,-0.030749211236236553,0.03964806991325797,0.021240557049587855,-0.027727887318705294, ,0.035901587514247824, ,0.04497891975058713, ,0.0009304962567440693, ,0.26840358104367285,-0.19767879338152478,0.10846317688000001,1.6829714864067924,0.5932756819815425,-1.284554906187934, ,0.10832984196172464,0.07561509287527553,0.03381913273885351,0.0,0.1310953135301106,-0.08630456832368044, ,1.5878100395202637
0.021212229981139332,0.020277824401959087,-0.09617240180171367, ,0.022018196922765892,0.019850533243007087,-0.0968975977446139, ,0.0011653624333709943, ,0.018515018025710896,-0.000777239924411543,-0.030749211236236553,0.03964806991325797,0.021240557049587855,-0.027727887318705294, ,0.035901587514247824, ,0.04497891975058713, ,0.0009320213617871013, ,0.26840358104367285,-0.19767879338152478,0.10846317688000001,1.6829714864067924,0.5932756819815425,-1.284554906187934, ,0.10832984196172464,0.07561509287527553,0.03381913273885351,0.0,0.1310953135301106,-0.08630456832368044, ,1.5914678573608398
0.021212229981139332,0.020277824401959087,-0.09617240180171367, ,0.02209029288148108,0.019843232981316346,-0.09700940686863856, ,0.0012885812515750677, ,0.018515018025710896,-0.000777239924411543,-0.030749211236236553,0.03964806991325797,0.021240557049587855,-0.027727887318705294, ,0.035901587514247824, ,0.04497891975058713, ,0.0009343217481728301, ,0.26840358104367285,-0.19767879338152478,0.10846317688000001,1.6829714864067924,0.5932756819815425,-1.284554906187934, ,0.10832984196172464,0.07561509287527553,0.03381913273885351,0.0,0.1310953135301106,-0.08630456832368044, ,1.5952129364013672
0.021212229981139332,0.020277824401959087,-0.09617240180171367, ,0.022162197037821237,0.019836005163092255,-0.09712133721364222, ,0.0014135487485848325, ,0.018515018025710896,-0.000777239924411543,-0.030749211236236553,0.03964806991325797,0.021240557049587855,-0.027727887318705294, ,0.035901587514247824, ,0.04497891975058713, ,0.000937393716124189, ,0.26840358104367285,-0.19767879338152478,0.10846317688000001,1.6829714864067924,0.5932756819815425,-1.284554906187934, ,0.10832984196172464,0.07561509287527553,0.03381913273885351,0.0,0.1310953135301106,-0.08630456832368044, ,1.5989210605621338
0.021212229981139332,0.020277824401959087,-0.09617240180171367, ,0.022233909308451195,0.01982885153482568,-0.09723338909918502, ,0.0015398374357944342, ,0.018515018025710896,-0.000777239924411543,-0.030749211236236553,0.03964806991325797,0.021240557049587855,-0.027727887318705294, ,0.035901587514247824, ,0.04497891975058713, ,0.0009412309372685856, ,0.26840358104367285,-0.19767879338152478,0.10846317688000001,1.6829714864067924,0.5932756819815425,-1.284554906187934, ,0.10832984196172464,0.07561509287527553,0.03381913273885351,0.0,0.1310953135301106,-0.08630456832368044, ,1.6025989055633545
0.021212229981139332,0.020277824401959087,-0.09617240180171367, ,0.022305429616805705,0.01982177383214287,-0.09734556282890347, ,0.0016671455729383112, ,0.018515018025710896,-0.000777239924411543,-0.030749211236236553,0.03964806991325797,0.021240557049587855,-0.027727887318705294, ,0.035901587514247824, ,0.04497891975058713, ,0.000945825333696875, ,0.26840358104367285,-0.19767879338152478,0.10846317688000001,1.6829714864067924,0.5932756819815425,-1.284554906187934, ,0.10832984196172464,0.07561509287527553,0.03381913273885351,0.0,0.1310953135301106,-0.08630456832368044, ,1.6063690185546875
0.021588062766690563,0.020258717659821346,-0.09680043855558204, ,0.022376757893067437,0.019814773779827634,-0.09745785869056471, ,0.0011186274647241301, ,0.01841815208894749,-0.0011975701436245524,-0.03045707143692417,-0.012523657555328232,-0.004667530825627028,0.03500559078813329, ,0.03561313944507566, ,0.013364192237436678, ,0.0009469121395523923, ,0.2706200053785753,-0.19613424680667987,0.10916576606000002,1.6821327266328545,0.5958717754770858,-1.2863451313976038, ,0.10591176513222186,0.07472200122714234,0.033393734842767295,-0.05714024476999487,0.11387065084345009,-0.07216757249508497, ,1.610041856765747
0.021588062766690563,0.020258717659821346,-0.09680043855558204, ,0.022447894074145616,0.019807853091844012,-0.09757027695612311, ,0.001239047980864697, ,0.01841815208894749,-0.0011975701436245524,-0.03045707143692417,-0.012523657555328232,-0.004667530825627028,0.03500559078813329, ,0.03561313944507566, ,0.013364192237436678, ,0.0009487379885605941, ,0.2706200053785753,-0.19613424680667987,0.10916576606000002,1.6821327266328545,0.5958717754770858,-1.2863451313976038, ,0.10591176513222186,0.07472200122714234,0.033393734842767295,-0.05714024476999487,0.11387065084345009,-0.07216757249508497, ,1.6136119365692139
0.021588062766690563,0.020258717659821346,-0.09680043855558204, ,0.02251883810365432,0.019801013471358236,-0.09768281788177496, ,0.0013617742571106802, ,0.01841815208894749,-0.0011975701436245524,-0.03045707143692417,-0.012523657555328232,-0.004667530825627028,0.03500559078813329, ,0.03561313944507566, ,0.013364192237436678, ,0.0009513034312223959, ,0.2716316833850987,-0.19540058718362854,0.10947298679,1.6819230366893698,0.5966915944756784,-1.2867686025993605, ,0.10614870420410602,0.07901493884968425,0.030989905680933853,-0.07142221501377606,0.06769339813688999,-0.02881641604030643, ,1.6171929836273193
0.021763716788984776,0.020244509298945924,-0.09708095481317075, ,0.02258958993189073,0.019794256610760886,-0.09779548170801383, ,0.0011812462126268642, ,0.018288776108424533,-0.0022017015892283136,-0.028393210215758996,-0.06396827522641785,-0.0534699810566953,0.05145166623097952, ,0.03384525384434827, ,0.08337242143785968, ,0.0009527228311076087, ,0.2716316833850987,-0.19540058718362854,0.10947298679,1.6819230366893698,0.5966915944756784,-1.2867686025993605, ,0.10614870420410602,0.07901493884968425,0.030989905680933853,-0.07142221501377606,0.06769339813688999,-0.02881641604030643, ,1.6210570335388184
