NicholasDascanio/dvrk_moveit_final/test/execution/third_experiment_notsharpbends/thirdexp_600vel5.0/thirdexp_600vel5.0_9.csv
Current Position (x),Current Position (y),Current Position (z), ,Planned Position (x),Planned Position (y),Planned Position (z), ,Position Error,,Cartesian linear Velocity(x),Cartesian linear Velocity(y),Cartesian linear Velocity(z),Cartesian Angular Velocity(x),Cartesian Angular Velocity(y),Cartesian Angular Velocity(z), ,Total Linear Velocity, ,Total Angular Velocity, ,MSE, ,Joint 1 Position,Joint 2 Position,Joint 3 Position,Joint 4 Position,Joint 5 Position,Joint 6 Position, ,Joint 1 Velocity,Joint 2 Velocity,Joint 3 Velocity,Joint 4 Velocity,Joint 5 Velocity,Joint 6 Velocity, ,Time Stamp
0.0074496968619157155,0.019307981618118083,-0.0734732649845798, ,0.007650053142334873,0.019254384915566695,-0.07378721013276825, ,0.00037626692878705903, ,-5.962203057127588e-05,-2.8189729554569616e-05,-1.898994619655369e-05,0.0020377816861108537,0.00041654714980399453,-0.0011524237743896384, ,6.862991649674313e-05, ,0.002079919644663857, ,3.135557739892158e-05, ,0.19740849773092692,-0.2241832126058633,0.08645606155,1.9069203460482644,0.9739449703280595,-1.1267826474004612, ,0.0009516747689365947,0.00026004375746676786,0.0018708101697813854,-0.0017234961661808353,0.0,-0.1278339203469665, ,0.020997047424316406
0.007479601622150037,0.01932994661534094,-0.0735870573564455, ,0.007759112124704549,0.019292288460864063,-0.07407955865732294, ,0.0005675401210512355, ,0.0009887354472878232,0.0008348978270156615,-0.003975567194631081,0.14036366131520076,-0.002375751553308043,-0.1486386242604251, ,0.00418088348143138, ,0.14038376548681947, ,4.2900320447195206e-05, ,0.19748572505966916,-0.22413687620861794,0.08656235733,1.9069203460482644,0.9736716973285287,-1.1308071060803777, ,0.007731888538763212,0.0036255812056078945,0.00982047565967941,-0.0017234961661808353,0.0,-0.2911744703644348, ,0.03996586799621582
0.007516219620944383,0.01935593538185186,-0.07371746361289917, ,0.00786783730418183,0.019329927087546495,-0.07437050124336761, ,0.0007421385135847448, ,0.004351005407888261,0.003134049856450317,-0.015587722486064283,0.10924748302579922,-0.13094398530246384,-0.1949251863363179, ,0.016484253360851478, ,0.17053251570916986, ,5.268579885696998e-05, ,0.1975629523884114,-0.22409826254424683,0.08669198633000001,1.9069203460482644,0.9727152418301706,-1.1334576878404063, ,0.0076186710087100835,0.0036707096395541617,0.015360473982642238,-0.0017234961661808353,-0.13418690806476238,-0.2197175262556793, ,0.05851101875305176
0.007614656184061966,0.019428891611975037,-0.07408006230096441, ,0.007976229224209931,0.01936730152231261,-0.07466004175161729, ,0.0006862248652490592, ,0.00435756069420329,0.0036058514006482565,-0.01713081095378476,0.18832041386780907,-0.029891735101356363,-0.2105071020819771, ,0.018040376477821474, ,0.1906779815064683, ,5.648024830171663e-05, ,0.19778691164176393,-0.22400558974975612,0.08705754011000001,1.90671065610478,0.9708023308334544,-1.1372886340379336, ,0.011107356898631545,0.004151810728704335,0.017777691428571434,-0.005184959019028056,-0.0197407904376282,-0.2887778614718792, ,0.07864499092102051
0.007725905361324697,0.01949890099676679,-0.07444776773411912, ,0.00808428842829278,0.019404412491331846,-0.07494818403661259, ,0.0006227222303322804, ,0.006152206282195053,0.0032284917802429805,-0.01822411620372054,-0.0660370739746883,-0.17359641416091873,-0.031181228791663875, ,0.019503620502883207, ,0.1857326254014075, ,5.759408959623805e-05, ,0.1981653255526009,-0.2238356896265232,0.08742957534000001,1.90671065610478,0.9690260563365036,-1.1422111430208437, ,0.022312941819532278,0.009615867145284979,0.017917673250843646,-0.0048967026799057655,-0.16314280696452466,0.0140147213661177, ,0.09835290908813477
0.00782570739737944,0.019552656763282696,-0.07474592152422121, ,0.008192015459996147,0.019441260720241747,-0.0752349319467329, ,0.0006210651080750302, ,0.004364877824216356,0.0022133474477250693,-0.013134274908224414,-0.1439769986268538,0.02118903698128431,0.16934699661146452, ,0.014016427601550268, ,0.14552783593155966, ,5.832189946902273e-05, ,0.19864413499080283,-0.22364262130466758,0.08773679607000001,1.90671065610478,0.9683428738376765,-1.139530406258707, ,0.026120820687715603,0.011709187866238596,0.01407138826855124,-0.00450919352281848,0.052614801161098755,0.21188962015668245, ,0.11951208114624023
0.007906372395529325,0.019585223105269604,-0.07497682046716712, ,0.008299410862948811,0.019477846934144952,-0.07552028932421043, ,0.0006792402208149952, ,0.003998034965267829,0.001570461937904765,-0.011801432642958833,0.007818061556712979,0.0868979948566168,0.045715907985657535, ,0.012558839385397284, ,0.08724897344777453, ,5.96555276096445e-05, ,0.19922333995636968,-0.22332598925682437,0.08799086891,1.90671065610478,0.9703924213341582,-1.1369543803268443, ,0.029471099862879126,0.01736131385994709,0.013110132938271608,-0.004153793180940628,0.12741462166578232,0.014862266075164304, ,0.13843393325805664
0.007953265043837109,0.019603445348818208,-0.07510593262780466, ,0.008406475180843155,0.019514171857606486,-0.07580426000514252, ,0.0008372755284001517, ,0.004874031724028513,0.0018030705550450585,-0.0128358763722034,-0.0036038288505568176,0.010915007836005708,0.014676396201320345, ,0.013847995194821392, ,0.011494547838191564, ,6.259114044261653e-05, ,0.1995476947370871,-0.22315608913359145,0.08813086823,1.90671065610478,0.9712122403327507,-1.1369694578278982, ,0.03296177198974323,0.015992069693035182,0.013708099414802067,-0.0039963507612671085,0.04861835497816216,0.0012334537703169411, ,0.1571969985961914
0.008066686052372898,0.0196434794168042,-0.07539109090361748, ,0.008513208957436883,0.01955023621465148,-0.07608684781950392, ,0.0008319583436075915, ,0.006315212683831483,0.0022220787175329625,-0.01621328457213494,0.003923691672804846,-0.040162257169404414,-0.025419442828207076, ,0.017541098645351947, ,0.04035345260236401, ,6.48307810858929e-05, ,0.20028907709301266,-0.22280856615425132,0.08843031122,1.90671065610478,0.9714855133322816,-1.137600687335994, ,0.03937632429812066,0.019667759908491355,0.016891634697773068,-0.003732491154092572,0.0,-0.03465525523398498, ,0.17610692977905273
0.008287402642508952,0.01972243256350094,-0.07595263874539572, ,0.008619612736553097,0.01958604072876244,-0.07636805659115907, ,0.0005491250001109184, ,0.006287179634995025,0.0022756951700907617,-0.015957597157552142,0.00348348933399921,-0.03998624679060593,-0.023225671553392883, ,0.01730180115804672, ,0.040137682987243316, ,6.38584005883634e-05, ,0.2016637235446246,-0.222144411127068,0.08901623430000001,1.90671065610478,0.9714855133322816,-1.1383357959972589, ,0.04295923112651461,0.01985291664403154,0.017523445016501653,-0.0033476386660368034,0.0009003153072570663,-0.0033766872495433423, ,0.19524598121643066
0.00835418094356985,0.019745975702048873,-0.07612090071124616, ,0.008725687062081558,0.019621586122877063,-0.07664789013787277, ,0.0006566638556174755, ,0.006638488282979159,0.0024997776154480787,-0.01675876424300399,-0.001821012404656114,-0.026085313071412323,-0.010473906646541322, ,0.01819820303663348, ,0.026148772863691782, ,6.459658302369858e-05, ,0.20210391931845542,-0.22195906553808664,0.08919382603,1.9065009661612955,0.9717587863318125,-1.1385586318046517, ,0.04228918964281229,0.01820041073234959,0.01765943627494457,0.0,0.017582767893908446,-0.01600677132416314, ,0.21259188652038574
0.008421585208686744,0.0197703153255059,-0.07628885381990522, ,0.008831432477979226,0.019656873119386416,-0.07692635227132186, ,0.0007663212080024763, ,0.006144103134602207,0.0020053326302142634,-0.014695848068730229,0.014981859013524303,-0.004070808030755247,-0.015083579160665866, ,0.016054261513555605, ,0.015525040807622638, ,6.613784936360848e-05, ,0.2025441150922862,-0.22176599721623103,0.08937141776,1.9065009661612955,0.9720320593313434,-1.138863146352185, ,0.04272712361930247,0.01883623294133997,0.015662548200589974,0.0,0.04195055340924096,-0.03130162977655107, ,0.23465204238891602
0.00859454406856476,0.019805482184793263,-0.07665437376111134, ,0.00893684952827112,0.019691902440132452,-0.07720344679710542, ,0.000656928142948491, ,0.0054497390481825165,0.001074116214439808,-0.011942226051351775,-0.0122314851121707,-0.027333935848841476,-0.006789848800546634, ,0.013170806520368932, ,0.029945835004862312, ,6.661604702776363e-05, ,0.20381836601653325,-0.22112501038767038,0.0897551196,1.9065009661612955,0.9724419688306396,-1.1391974000632743, ,0.03879678722750236,0.021690729499079034,0.012493185505882354,0.0,0.01244201776587563,-0.007970859484592542, ,0.25226402282714844
0.008708728711467231,0.0198440460964291,-0.0769406605433425, ,0.009041938757050673,0.019726674806406205,-0.07747917751475479, ,0.0006440539439351489, ,0.0064134298802370655,0.002676590844452767,-0.01693219281004943,0.011238373528120226,-0.007773314034407762,-0.012631510052536129, ,0.018302878864649014, ,0.01366470119943002, ,6.693857978635258e-05, ,0.20457519383820727,-0.22077748740833028,0.09005974775,1.9062912762178108,0.9732617878292323,-1.139865907485453, ,0.0389560515428862,0.016339005089268385,0.01797834257336343,-8.642818013833481e-05,0.03385734443658813,-0.02565646218830519, ,0.2748899459838867
0.008842286139563543,0.01990215358809102,-0.07732245799054653, ,0.009146700708480341,0.019761190938946252,-0.07775354821774373, ,0.000546239400087219, ,0.006292642543232062,0.0027094697937447695,-0.018197061459274588,-0.01868218087101206,-0.03165218360155811,-0.003137962338748914, ,0.019444063939740734, ,0.0367543550283861, ,6.655621367757739e-05, ,0.20527023979688747,-0.22039907349749327,0.09045900507000001,1.9062912762178108,0.9733984243289978,-1.1397322891687278, ,0.03163231385282359,0.018523705164643918,0.01896287085714286,-9.073610021121937e-05,0.0,0.0007641637220311113, ,0.2926979064941406
0.008955050349587185,0.019949106908611673,-0.07763873119131517, ,0.00925113592679237,0.01979545155793651,-0.07802656269349818, ,0.0005115563604389678, ,0.005140619889418497,0.0017802195052311414,-0.013373281254829785,0.026648377904334122,0.015233146162584362,-0.019575821674797832, ,0.014437444574961046, ,0.030695021733059352, ,6.599563955796695e-05, ,0.2059112266254481,-0.2200592732510274,0.09079474418000001,1.9062912762178108,0.9742182433275903,-1.1404007965909062, ,0.03275696981652426,0.01725712703372809,0.01431160064690027,-0.00010463524704442321,0.052101085544059705,-0.04182211206896219, ,0.3103320598602295
0.009004498658914478,0.019965116586467,-0.07775797096154509, ,0.009355244956288701,0.01982945738300478,-0.07829822472340467, ,0.0006582556583950945, ,0.0052607230636555645,0.0016933940447663113,-0.012406522280303992,0.00023677621388071241,-0.01783690423786781,-0.008329427159042018, ,0.013581774023852957, ,0.017838467474309706, ,6.638530563295721e-05, ,0.2062278586732913,-0.21991254132641713,0.09092048431000001,1.9062912762178108,0.9743548798273558,-1.1405122144946027, ,0.03459604139936959,0.015015338854188414,0.013131748985985164,-0.00010968424245925881,0.01821261621774937,-0.014225797080656084, ,0.33164405822753906
0.009121982012337378,0.01998917679514159,-0.07802139936990513, ,0.009459028341341867,0.019863209133221323,-0.07856853808282054, ,0.0006548502507564551, ,0.0036273315440767,0.0005125031653993576,-0.0088117727191131,-0.018430871502389954,-0.022346852949676695,-0.003227572474261087, ,0.009542931000405697, ,0.028966857060525993, ,6.671509011605974e-05, ,0.20702330015933643,-0.21947234555258635,0.09119529779,1.9060815862743263,0.9744915163271213,-1.140460274918018, ,0.02223973319861045,0.018607243442837408,0.009055606321773737,-0.0004921805487259123,0.0,0.0001762957980966904, ,0.34891605377197266
0.009190062532588127,0.020018940242081236,-0.07822945254119584, ,0.009562486626394962,0.019896707527097122,-0.0788375065410814, ,0.0007234433004991193, ,0.0057743389081329356,0.0031614257704270328,-0.018365260076875202,0.03955832388610035,0.030741418061428022,-0.02248261928681685, ,0.019509494622341302, ,0.050098839147021616, ,6.738726218958205e-05, ,0.207386268604425,-0.21923294083348538,0.09141825967000002,1.9060815862743263,0.9754479718254793,-1.1411585215037523, ,0.02774764373054701,0.014108971388413735,0.01964095131935882,-0.0004921805487259123,0.06357535698430217,-0.05149728161445235, ,0.369905948638916
0.009289564761078015,0.02007304301155975,-0.07853444137308516, ,0.009665620355962112,0.01992995328258245,-0.07910513386151047, ,0.000698271005647165, ,0.006280819554832044,0.0027081714589198007,-0.018456882013100695,-0.023733488068686984,-0.026053549853175144,0.004581989108398203, ,0.019683479889917543, ,0.03524292516229936, ,6.786531242885772e-05, ,0.20784190984400422,-0.21903214977875554,0.09173973959000001,1.9060815862743263,0.9757212448250102,-1.1411363210907235, ,0.029832424256042368,0.013775140304611813,0.021409692903225808,-0.0004921805487259123,-0.004405958989113192,0.011003261779415048, ,0.3867809772491455
0.009415389195404824,0.020129661331286727,-0.0789093577843569, ,0.009768430074628694,0.019962947117065612,-0.07937142380142624, ,0.0006049268515753397, ,0.005279428465553823,0.0021408709854415695,-0.015363217076271276,0.0018357145052733891,0.0031796978476273828,-0.004358675114984812, ,0.016385485419475338, ,0.0036714398089991154, ,6.81753341895801e-05, ,0.2084365602753195,-0.218669181333667,0.09213251546000001,1.9060815862743263,0.9759945178245412,-1.1411141206776947, ,0.027113411873848796,0.017367668660042235,0.016220785661914462,-0.0004921805487259123,0.03298247279407283,-0.014002168548596759, ,0.4015629291534424
0.009526407936530177,0.020169487576630948,-0.07920946351485122, ,0.009870916327051267,0.01999568974737167,-0.079636380112151, ,0.0005754559041705024, ,0.00558653618256744,0.002192265776427056,-0.014496092643528122,-0.007238683880750935,-0.012278321418009063,0.005170529737179632, ,0.015689235726554007, ,0.014253248088037218, ,6.831982087541598e-05, ,0.20906982437100594,-0.21832165835432688,0.09245010651,1.905871896330842,0.9766777003233683,-1.1415078527158955, ,0.032365941868509815,0.014017273494604252,0.015360473982642238,-0.0030127709760504476,0.02249585173380262,-0.0011573567223192513, ,0.41847705841064453
0.009584296815488638,0.020191778877791368,-0.07935808129924343, ,0.009973079657958097,0.020028181889760983,-0.07990000653901834, ,0.0006867306885499852, ,0.0063227347150363895,0.002350581786429721,-0.016300856715221305,-0.027779122438856198,-0.03585960286088543,0.010748081277016808, ,0.017641432443585667, ,0.04536066147968746, ,6.896876588257643e-05, ,0.2094019018845976,-0.21817492642971661,0.09260695760000001,1.905871896330842,0.9768143368231338,-1.1415375918794515, ,0.03521222321279064,0.01662816568397946,0.01707268115755627,-0.0030127709760504476,0.0,0.015722129177028928, ,0.4341239929199219
0.009705703093515546,0.020234693868623588,-0.07970095153860692, ,0.010074920612149076,0.02006042425992835,-0.08016230682138098, ,0.0006160683156308475, ,0.005584716377012248,0.0019392797471985317,-0.015757138383438406,0.03179395023497079,0.025927834452435572,-0.032268009700373156, ,0.016829654571154783, ,0.041025685851209096, ,6.925590065297927e-05, ,0.2100660569117809,-0.21776562158738272,0.09296991880000001,1.905452516443873,0.9777707923214919,-1.1421541597250453, ,0.03054294868312545,0.0217653535684566,0.016784838271865124,0.007684881142714813,0.05943688269391239,-0.05040977343833995, ,0.4493699073791504
0.009761763283704247,0.020253892228948647,-0.07985721751132359, ,0.010176439734495477,0.020092417573001314,-0.08042328469261759, ,0.0007200435244429686, ,0.006014764719886745,0.0021581761182631267,-0.01669256169744291,-0.008658755649303945,-0.007529449300348848,-0.009183268872496734, ,0.017873912129580748, ,0.011474552720310588, ,6.997140202892382e-05, ,0.2103517980281272,-0.21756483053265288,0.09313325134000001,1.905452516443873,0.9779074288212573,-1.1421022201484605, ,0.03109336224065229,0.020990254713220698,0.017542743964757714,0.007684881142714813,0.02375266181157549,-0.005311844961046013, ,0.467803955078125
0.009892964810415805,0.0202965018471173,-0.08018941011471521, ,0.010277637569940573,0.0201241625435397,-0.0806829438801413, ,0.0006490373988405181, ,0.006663956503421549,0.0019911973145138088,-0.015303727684460028,-0.020854949926967622,-0.02530507656951366,0.0013405661094294636, ,0.016810034624144283, ,0.03279138602151589, ,7.034334445646185e-05, ,0.2111086258498012,-0.21715552569031898,0.09348324964000002,1.905452516443873,0.9783173383205537,-1.1421097588989877, ,0.041841684990507395,0.019260592969042173,0.016187816585365857,0.007684881142714813,0.01612913619716387,0.011656159015024693, ,0.4832289218902588
0.009973274757191728,0.020317494788673174,-0.08037166953385241, ,0.010378514663499077,0.020155659885534253,-0.08094128810540557, ,0.0007175480712790153, ,0.006527493804017136,0.0016132209843434493,-0.014493198478331063,0.005047474777865582,0.009302305579604783,-0.006719785178301315, ,0.015976966528039857, ,0.010583442316091114, ,7.096754330979781e-05, ,0.2116492171509969,-0.21689295277259535,0.09367898943000001,1.905452516443873,0.9790005208193808,-1.1425034909371887, ,0.044489892901299004,0.022244946450649502,0.015585921252446186,0.007684881142714813,0.056530026320210695,-0.013666816033535326, ,0.5021929740905762
0.010093099252802289,0.02034927869733299,-0.0806498188416119, ,0.01047907156025742,0.020186910312405465,-0.08119832108391178, ,0.0006900672607465215, ,0.006701099451617631,0.0021122300280097504,-0.01725061055292064,-0.01077228970866834,-0.024098421530802043,-0.01568453826007978, ,0.018626588898674742, ,0.02639648874754026, ,7.144538281865773e-05, ,0.21239059950692246,-0.21650681612888412,0.09397195097000001,1.905452516443873,0.9792737938189117,-1.1423996117840192, ,0.03644275789495806,0.022546196616410257,0.018080376299659483,0.007684881142714813,0.011597734265638504,-0.009304171680387805, ,0.5170300006866455
0.010224639572827408,0.020397234899810376,-0.0810075010948644, ,0.010579308805373428,0.020217914537002953,-0.08145404652521587, ,0.0005977866495665056, ,0.0062999214660246355,0.0023322125606780393,-0.016909582540806385,0.03824905814534363,0.03139505369438901,-0.029680270549942895, ,0.01819511493809826, ,0.04948371917087182, ,7.154471458766244e-05, ,0.21310881366422535,-0.216089788553676,0.09435306023000001,1.905452516443873,0.9803668858170351,-1.1432909550135906, ,0.035702385838401345,0.019865384458545274,0.01818357479452055,0.007005615791048552,0.07112928490275854,-0.05250624127758913, ,0.5352330207824707
0.01026321359238348,0.02041024215303706,-0.08110867055095457, ,0.010679226944076452,0.020248673271604255,-0.08170846813293568, ,0.0007476153767711457, ,0.006603656701223173,0.002213439877306169,-0.017083814913685488,0.013612666304703355,0.006596055501817038,-0.01962797373646142, ,0.018448965551572844, ,0.015126505773009469, ,7.218904422027216e-05, ,0.2139119778831447,-0.21566503824559366,0.09467842902000001,1.905452516443873,0.9806401588165661,-1.1429420396399994, ,0.03929479981717217,0.019510061998040867,0.01142669406025825,0.006374497452966177,0.018689298229577683,0.01800395463721646, ,0.5508790016174316
0.010416231492733593,0.020441819732810184,-0.08143102176004578, ,0.010778826521666823,0.020279187227914178,-0.08196158960475622, ,0.000662892694556605, ,0.005918877027514172,0.0008531004276897146,-0.012142660941922767,-0.027687609059139164,-0.02506015971259858,0.012173289576644333, ,0.013535327862931733, ,0.03734454493301125, ,7.275380904111339e-05, ,0.2143212827254786,-0.21544880172511538,0.09479509512,1.9056622063873574,0.9810500683158624,-1.1428678996503858, ,0.04045052922355958,0.02271892304488168,0.012651955138999207,-0.002634615100338116,0.01701834262278752,0.013687538211190384, ,0.5648000240325928
0.010469883348226853,0.020454121053396605,-0.08155620673906556, ,0.010878108083516034,0.02030945711706367,-0.08221341463243745, ,0.0007870815104470246, ,0.005765310988994158,0.0017394603264102044,-0.01448873665494892,0.05857129611183301,0.06617709746978045,-0.0205586439585351, ,0.01569037994707051, ,0.08837422881845737, ,7.372515466055126e-05, ,0.21470741936918983,-0.21523256520463707,0.09493898331000002,1.9056622063873574,0.9820065238142205,-1.1434844674959797, ,0.037762412080569345,0.02012233705650356,0.01594475627627628,-0.002634615100338116,0.11331248862295705,-0.06811893533712193, ,0.5790700912475586
0.010613941007978595,0.02050681452889058,-0.08194998869459938, ,0.010977072175066289,0.020339483649609205,-0.08246394690181966, ,0.000651165805644484, ,0.00759998996352269,0.0033597449930966735,-0.02215050619325275,-0.028139121867076823,-0.019272518669225386,0.01824437987778072, ,0.02365782446637079, ,0.03410622850683425, ,7.418621173570697e-05, ,0.2154565244579896,-0.21484642856092587,0.09535509240000001,1.9050331365569038,0.9826897063130478,-1.1433881270933373, ,0.03375913965082561,0.01912473630763216,0.02328773614035088,-0.004415879509331213,0.016707329087675124,0.01897385216834083, ,0.5934009552001953
0.010697059751262374,0.020542938067919174,-0.082192080351673, ,0.01107571934183053,0.020369267535531803,-0.08271319009283055, ,0.0006671580784778475, ,0.008206013791206392,0.003681989715740217,-0.022799677978339462,-0.00938056620489552,-0.03161108526939438,-0.033285242204031895, ,0.02450961090111925, ,0.03297346771787553, ,7.467906039013329e-05, ,0.21582721563595236,-0.21464563750619603,0.09560916524000002,1.9048234466134193,0.9828263428128131,-1.1432545087766122, ,0.03715620264622975,0.019402359754338742,0.02395310003007519,0.02604518396743746,0.0,-0.0059369909469956465, ,0.607058048248291
0.010775609765401413,0.020576667200807867,-0.08241922908690846, ,0.0111740501293917,0.020398809484236537,-0.08296114787949067, ,0.0006957471298930678, ,0.00698387929039363,0.002904267687792469,-0.01958068422305643,0.058635191980956736,0.05350565862655762,-0.0555142659144203, ,0.02099077262485103, ,0.07937845025813847, ,7.524255780759953e-05, ,0.21620562954678937,-0.21442940098571775,0.09585157147000001,1.9048234466134193,0.9835095253116403,-1.1437299195549535, ,0.036123693018070335,0.021455333836416634,0.02115380015936255,0.025645803844414197,0.0912127285440842,-0.07051217665401552, ,0.6217050552368164
0.01090701803043124,0.02062197595372902,-0.0827632741870236, ,0.011272065083402732,0.02042811020455142,-0.08320782392991974, ,0.0006070154474940353, ,0.0063556560214105065,0.00201609644331276,-0.015283882942456454,-0.0011371727253984807,-0.0054374667848508945,-0.019348147123738065, ,0.016675013826979015, ,0.0055550313085540965, ,7.549834616059584e-05, ,0.21691612097121804,-0.2140355416091323,0.09621842154000002,1.9048234466134193,0.9844659808099985,-1.1445098448808286, ,0.03619257877897437,0.018854945670270372,0.016270491848825334,0.018320642546525077,0.029102077835242563,-0.007727020632864781, ,0.6351540088653564
0.01097309333942267,0.020639386535284427,-0.08291656751948764, ,0.01136976474958629,0.020457170404726978,-0.08345322190634274, ,0.0006917722579052649, ,0.0062433823930498214,0.0018054779136122616,-0.014776813736676024,-0.00980194734815859,-0.016312664800812268,-0.01616047370372725, ,0.016142917902622296, ,0.019031040438778582, ,7.600701854309144e-05, ,0.21729453488205502,-0.21383475055440246,0.0963791615,1.9048234466134193,0.9844659808099985,-1.1445098448808286, ,0.03542252391133661,0.01949002701960788,0.015631807183513247,0.0160454102943839,0.017011961697242152,-0.0016397402485866476, ,0.6487388610839844
0.011019845456547814,0.020651806149697645,-0.08302969932661441, ,0.011467149673734318,0.020485990792435464,-0.08369734546509572, ,0.0008205651477157753, ,0.0065470940910704704,0.001780106318919897,-0.015736591398257022,-0.025288366022755554,-0.032326746336180864,-0.011370008397672297, ,0.017136905449341936, ,0.04104289243860382, ,7.688664054892722e-05, ,0.21755710779977866,-0.21368029589691795,0.09649842018000002,1.9048234466134193,0.984602617309764,-1.144621262784525, ,0.03546223526101299,0.0217653535684566,0.01647240074457084,0.014757444838547759,0.0,0.010296327176271535, ,0.6633539199829102
0.011156847604728092,0.020694065484035486,-0.08338561452036637, ,0.011564220401707547,0.020514572074769998,-0.0839401982566314, ,0.0007111494921732676, ,0.005669375881199676,0.001969063855065979,-0.014740354599193256,0.02159856408276192,0.014219057116161067,-0.02736424199206561, ,0.015915309895117146, ,0.025858825569258354, ,7.740288833498924e-05, ,0.21832165835432688,-0.21321693192446448,0.09688082573000001,1.9048234466134193,0.9861056188071837,-1.145765180985045, ,0.0301547319855325,0.017320120744382328,0.015771100514851488,0.01190540161695701,0.04534433092180471,-0.03377745159064543, ,0.6760768890380859
0.011224340808151892,0.020711362419163954,-0.08355205834355636, ,0.011660977479435215,0.020542914958244337,-0.08418178392552494, ,0.0007845893437877652, ,0.007570865335037173,0.002243690730277011,-0.019678725894125094,-0.013095833746420626,-0.01587996351529698,-0.014883849852710166, ,0.021203877070727135, ,0.020583273589362676, ,7.811273957897417e-05, ,0.21867690406654122,-0.21298524993823775,0.09705452859000001,1.9048234466134193,0.9861056188071837,-1.145438466024483, ,0.03805009685584233,0.026265414214910264,0.02068676820779221,0.010986473998887046,0.02149864746847615,-0.006144921569908086, ,0.6891698837280273
0.011284146694441922,0.02073203464932069,-0.08371330760386556, ,0.011757421452914646,0.020571020148791808,-0.08442210611048029, ,0.0008673580514223959, ,0.007855843516170406,0.003056394232662901,-0.021522501436422512,-0.01368246018857069,-0.019742012007342727,-0.011264060703427316, ,0.023114365471213368, ,0.024019827992841483, ,7.92583764006654e-05, ,0.2189549224500133,-0.21280762708213058,0.09722304629,1.9048234466134193,0.9861056188071837,-1.1453567872843422, ,0.036123693018070335,0.02141176479207373,0.02265833786628734,0.010387678189115632,0.015365244356439557,-0.0010965496386757395, ,0.7042210102081299
0.011450998600583847,0.02078561015630943,-0.08412654189516743, ,0.011853552868210772,0.020598888351764936,-0.0846611684443346, ,0.0006947953063682929, ,0.0067339084744459845,0.001487461484246663,-0.01626546183240429,0.004033012987077925,0.0009699164086518365,-0.012040689795330932, ,0.017667012017620113, ,0.004147866089501773, ,7.987771269434986e-05, ,0.2198970958606687,-0.21231337217818022,0.09766767376,1.9050331365569038,0.9876086203046036,-1.1464190267447218, ,0.038111221509426016,0.025407481006284014,0.017257650617551468,0.0,0.04233959393804456,-0.024657980759070493, ,0.7157819271087646
0.011532070440452742,0.020809068972757635,-0.08433007302825077, ,0.01194937227145565,0.020626520271934873,-0.08489897455406459, ,0.000728775543225587, ,0.008514961905953498,0.0029713201052619176,-0.0224527454952303,-0.025084934095290525,-0.031134174712410253,0.0027757343868387643, ,0.024196262101848654, ,0.039982309180239886, ,8.057079399173733e-05, ,0.22029867797012836,-0.21206624472620503,0.09787248758000001,1.9050331365569038,0.9877452568043691,-1.146367087168137, ,0.04092149269446777,0.023676881626364967,0.02349382230088496,0.0,0.010391644413519247,0.009695398332180015, ,0.7274329662322998
0.01161446088147184,0.0208384362425692,-0.08455238497469467, ,0.01204488020884802,0.02065391661349056,-0.08513552806079219, ,0.0007479065113753382, ,0.008382930992877659,0.003276779459894219,-0.0218745195412943,-0.0129294900761986,-0.0262892672237617,0.006964541445167182, ,0.023653866931700608, ,0.029296625683969, ,8.129342171694202e-05, ,0.22071570554533648,-0.21185773093860097,0.09811619010000001,1.9046137566699346,0.9880185298038998,-1.1463448867551083, ,0.041098718734721,0.0180515391969699,0.023152342325581398,-0.008070618880568727,0.01787218777397356,-0.002124387319959538, ,0.7428328990936279
0.01161446088147184,0.0208384362425692,-0.08455238497469467, ,0.012140077226652694,0.020681078080038495,-0.08537083257978867, ,0.000985337818172238, ,0.008382930992877659,0.003276779459894219,-0.0218745195412943,-0.0129294900761986,-0.0262892672237617,0.006964541445167182, ,0.023653866931700608, ,0.029296625683969, ,8.263099507143283e-05, ,0.22071570554533648,-0.21185773093860097,0.09811619010000001,1.9046137566699346,0.9880185298038998,-1.1463448867551083, ,0.041098718734721,0.0180515391969699,0.023152342325581398,-0.008070618880568727,0.01787218777397356,-0.002124387319959538, ,0.7555649280548096
0.01184340352525886,0.02092207901973519,-0.08516634402476242, ,0.012234963871200292,0.020708005374601882,-0.08560489172048162, ,0.000625676523033314, ,0.006963002475304404,0.0018132188294978171,-0.016180027994550657,-0.022485939668297185,-0.02310698490092558,0.013106866130392627, ,0.01770775174603438, ,0.03224203971630506, ,8.29746208719744e-05, ,0.22183550181209905,-0.21124763504153724,0.09876952026000001,1.9044040667264504,0.9893848948015543,-1.1468873146110885, ,0.0389240941585196,0.020246840528796838,0.017127754322580648,-0.006182929867456867,0.01851772437194597,0.00938077639661264, ,0.7672529220581055
0.01186756159500632,0.020927807530700084,-0.08521928001840381, ,0.012329540688886377,0.020734699199620454,-0.08583770908645953, ,0.0007957198143384774, ,0.0057887993357142765,0.0009840838528652844,-0.012008480146676503,-0.022617792154698575,-0.023057973493000292,0.012940582462392262, ,0.013367206671992468, ,0.03229913952173623, ,8.375032943735626e-05, ,0.22197451100383508,-0.21117813044566922,0.09882526073,1.9044040667264504,0.9893848948015543,-1.146805635870948, ,0.03605506898118191,0.019120882844745272,0.012722692907348242,-0.006182929867456867,0.015463612743551285,0.009936995876731435, ,0.7821810245513916
0.011963452644574655,0.020931228014493587,-0.08539053410390991, ,0.012423808226171123,0.020761160256949403,-0.08606928827547668, ,0.0008375903110007983, ,0.005847037458143358,0.0007319883768425637,-0.011879840770784026,0.027701112504383826,0.015584172247863882,-0.018145178646237776, ,0.013261005646629766, ,0.03178392395552699, ,8.460953029473232e-05, ,0.22266183422964106,-0.21076882560333532,0.09900933391000001,1.9044040667264504,0.9900680773003815,-1.147199367909149, ,0.039359992351087,0.022333947177799667,0.01287696970088925,-0.006182929867456867,0.06090651012922882,-0.048998230484255466, ,0.7933909893035889
0.0120260813242071,0.020948068633229445,-0.0855282135231788, ,0.01251776702957861,0.02078738924785957,-0.08629963287945908, ,0.0009287951986274473, ,0.007375366458693,0.0024011610793323182,-0.017129962244327737,0.05134578321762133,0.026492317507316135,-0.02680991879244911, ,0.018804180689969127, ,0.05777742522969804, ,8.567301013528548e-05, ,0.2230556936062265,-0.21059892548010237,0.09915970355,1.9044040667264504,0.9907512597992087,-1.1476747786874906, ,0.04397448635703002,0.016957995274923296,0.01867387048065651,-0.006182929867456867,0.07771044904695783,-0.06885098509957228, ,0.8046870231628418
0.012197443886427498,0.02100968647749732,-0.0859720498528418, ,0.01261141764569634,0.020813386873036403,-0.08652874648450891, ,0.0007209847070390517, ,0.009110018371107047,0.003428567602673036,-0.025471132122640145,-0.040112350947437016,-0.030544029253019227,0.02129319701218453, ,0.027267674674181473, ,0.050417533660353085, ,8.61878027875923e-05, ,0.22388202602376853,-0.21017417517202003,0.09963025682000001,1.9044040667264504,0.9912978057982704,-1.1476303778614327, ,0.03798916795775452,0.024313846158972786,0.026726193825503362,-0.006182929867456867,0.009430834986050213,0.025430265419981994, ,0.8169069290161133
0.01228955475055358,0.02104772547154704,-0.0862341602051839, ,0.012704760621174585,0.0208391538325797,-0.08675663267091062, ,0.0006991963393941826, ,0.008481552031242906,0.0035026727638404207,-0.024141022015990565,0.00275922528627563,0.0014704152525068905,-0.0007946449007325173, ,0.025826234439533986, ,0.0031252593279944697, ,8.684691169534715e-05, ,0.22427588540035398,-0.2099424931857933,0.09990895917,1.9044040667264504,0.9918443517973322,-1.147831013255797, ,0.03585075238325303,0.020634255611757076,0.025609021736334413,-0.006182929867456867,0.041795619324292724,-0.018301336892624014, ,0.8261919021606445
0.012378808638310507,0.0210844231484928,-0.08648553491455792, ,0.012797796502725741,0.020864690826003025,-0.08698329501313513, ,0.0006867301069631278, ,0.009015574465767581,0.003506290089056914,-0.02485620387112554,0.0377648485636092,0.039645853083937525,-0.01357814976928878, ,0.02667218633744477, ,0.054753702758808975, ,8.745976496837238e-05, ,0.22467746750981366,-0.20971853393244078,0.10017858749000001,1.9044040667264504,0.992664170795925,-1.148581199418116, ,0.042383627315082974,0.02313995161142911,0.026726193825503362,-0.006182929867456867,0.09019187216148236,-0.05305996895945075, ,0.8356978893280029
0.012472366613041113,0.021119118927068043,-0.08673909987892318, ,0.012890525837123775,0.020889998552233377,-0.08720873707984515, ,0.0009070153179897688, ,0.009670103390094057,0.0035168051860269777,-0.024585925585009546,-0.0037328467570351288,-0.012266798302365059,0.00427106945778062, ,0.02667218633744477, ,0.03970704149627802, ,8.858618341716832e-05, ,0.22511766328364446,-0.20948685194621405,0.10044951210000001,1.9041943767829654,0.993347353294752,-1.148974931456317, ,0.04742475840003537,0.02154300602916476,0.02619870315789474,-0.0071305337837984616,0.039648868525517605,-0.01140377166522182, ,0.8459038734436035
0.012472366613041113,0.021119118927068043,-0.08673909987892318, ,0.01298294917120356,0.02091507770961074,-0.08743296243390035, ,0.0008853093314320184, ,0.009670103390094057,0.0035168051860269777,-0.024585925585009546,-0.0037328467570351288,-0.012266798302365059,0.00427106945778062, ,0.026652327387363412, ,0.012821836930265345, ,8.963447349855737e-05, ,0.2256041954547206,-0.20928606089148422,0.10069580720000001,1.9041943767829654,0.9936206262942829,-1.1490344097834286, ,0.05018346988813896,0.019109331767714614,0.023321832386530017,-0.006974657423313725,0.02536600096698654,0.010293926455256217, ,0.8568069934844971
0.01262954544736037,0.021173558109449847,-0.08711521355868473, ,0.013075067051860036,0.020939928995887373,-0.08765597463236248, ,0.0007385760635066997, ,0.008554311116690418,0.0026580157733243773,-0.020224595761155355,-0.01472434506231935,-0.02036563832537773,0.010667035719006871, ,0.022119574142250513, ,0.025130900862418377, ,9.031457583114265e-05, ,0.22593627296831226,-0.2091547744326224,0.10085136200000001,1.9041943767829654,0.9938938992938139,-1.1490938881105404, ,0.045081682450579946,0.020186543620180977,0.02155454874154263,-0.006620445055243489,0.028225018305540372,0.0019610286166084935, ,0.8681268692016602
0.012722173776181948,0.021195396069053345,-0.0873350260541996, ,0.01316688002604791,0.020964553108227837,-0.08787777722650005, ,0.0007386683669049607, ,0.0077539102029777806,0.0014579730948518514,-0.01793748987825864,-0.024704539736717955,-0.010107308327875788,0.013006296753222091, ,0.01959597795757553, ,0.02669213570048377, ,9.097914871945109e-05, ,0.22643052787226262,-0.2088690333162761,0.1010846942,1.9039846868394812,0.9943038087931102,-1.1491831056012078, ,0.042101571232684466,0.027960206705501114,0.01900812830548926,-0.0034380945401154364,0.03537399898815964,0.009246672637389507, ,0.8784499168395996
0.012722173776181948,0.021195396069053345,-0.0873350260541996, ,0.013258388640780565,0.020988950743208022,-0.08809837376179308, ,0.0009554296291554483, ,0.0077539102029777806,0.0014579730948518514,-0.01793748987825864,-0.024704539736717955,-0.010107308327875788,0.013006296753222091, ,0.01959597795757553, ,0.02669213570048377, ,9.212453518525932e-05, ,0.22643052787226262,-0.2088690333162761,0.1010846942,1.9039846868394812,0.9943038087931102,-1.1491831056012078, ,0.042101571232684466,0.027960206705501114,0.01900812830548926,-0.0034380945401154364,0.03537399898815964,0.009246672637389507, ,0.888869047164917
0.012884256538259066,0.021239324878504256,-0.08773584524985666, ,0.013349593443129767,0.02101312259681523,-0.08831776777793876, ,0.0007786781979517806, ,0.00841533209389845,0.0025748894277585342,-0.02065192839700574,0.038509167243732545,0.024587195678372056,-0.02462935160796633, ,0.022448831068250127, ,0.04568897456129067, ,9.284411781427625e-05, ,0.22726458302267888,-0.20835933294657727,0.10151376619000001,1.9039846868394812,0.9955335372909991,-1.1497774730337729, ,0.04417920929165306,0.02276798022036247,0.022278058069930072,-0.0030568676433567294,0.07509436197501337,-0.05869500707785578, ,0.898313045501709
0.012982451762553117,0.021268731240841603,-0.08797735498409322, ,0.013440494980224468,0.021037069364447426,-0.08853596280885527, ,0.000758626071338567, ,0.009492142354084437,0.0028772245744069693,-0.023219351424606786,-0.0077182946566795975,-0.006058324432448591,0.004173502004865869, ,0.025249108267445093, ,0.009811657258856249, ,9.350274305424758e-05, ,0.22775883792662924,-0.2080890372959794,0.10177172790000001,1.9039846868394812,0.9960800832900608,-1.1499781084281369, ,0.04766295407256192,0.02505199090772724,0.024772646220839814,-0.0028831914013578057,0.04564489781677291,-0.006904525628842743, ,0.9084320068359375
0.013035135172713364,0.02128573319448675,-0.08810707409894757, ,0.013531093799250792,0.021060791740912983,-0.08875296238268769, ,0.0008448344760043451, ,0.009787305482594835,0.003018172760545904,-0.02375125002646506,-0.013781883150076163,-0.017418261058344053,0.004900558857140146, ,0.025865471061664213, ,0.022211000945831286, ,9.433752349834736e-05, ,0.22802141084435287,-0.2079577508371176,0.10191043093,1.9039846868394812,0.9963533562895918,-1.1501192654953891, ,0.04881529915559196,0.02458469988561419,0.02528382780952381,-0.002801187915982148,0.0345824511982369,-0.001863530446184876, ,0.9232189655303955
0.013035135172713364,0.02128573319448675,-0.08810707409894757, ,0.013621390447450329,0.02108429042043025,-0.08896877002181194, ,0.0010615056767900885, ,0.009787305482594835,0.003018172760545904,-0.02375125002646506,-0.013781883150076163,-0.017418261058344053,0.004900558857140146, ,0.025865471061664213, ,0.022211000945831286, ,9.5837864688691e-05, ,0.22802141084435287,-0.2079577508371176,0.10191043093,1.9039846868394812,0.9963533562895918,-1.1501192654953891, ,0.04881529915559196,0.02458469988561419,0.02528382780952381,-0.002801187915982148,0.0345824511982369,-0.001863530446184876, ,0.9309749603271484
0.013245247214350962,0.021332644413339666,-0.08858871992595353, ,0.013711385472120564,0.021107566096627204,-0.08918338924284064, ,0.0007884013701520137, ,0.007041945136144889,0.000756821701031344,-0.01406252459539342,-0.0007903012957880607,-0.015776041883769985,-0.012300204240788497, ,0.01574536021765369, ,0.015795807156176376, ,9.671840797433719e-05, ,0.22914892984398966,-0.20733220947430542,0.10242246548000002,1.903565306952512,0.9971731752881844,-1.1503793792168648, ,0.04268868266238002,0.025808251715656996,0.014984770950141113,-0.0033665641209574357,0.029862275588149682,-0.02435068339241815, ,0.9387860298156738
0.013245247214350962,0.021332644413339666,-0.08858871992595353, ,0.013801079420613226,0.02113061946254088,-0.08939682355662634, ,0.0010013965249441425, ,0.009150869371096373,0.0020659653669507483,-0.021732541646512362,-0.0037580850376110636,-0.009125931221875732,-0.007807501813138807, ,0.023670867951169513, ,0.009869193276456014, ,9.804281076107599e-05, ,0.2296354620150658,-0.20700013196071376,0.10261950156,1.903565306952512,0.9975830847874807,-1.1504685967075325, ,0.046540922784929266,0.029673840387264155,0.02308523408695653,-0.0033665641209574357,0.0412142233216222,-0.021019166684781595, ,0.9467730522155762
0.013331259959569785,0.021343494271714697,-0.08877424300226286, ,0.013890472840333755,0.021153451210617288,-0.08960907646826782, ,0.0010226349920892954, ,0.009150869371096373,0.0020659653669507483,-0.021732541646512362,-0.0037580850376110636,-0.009125931221875732,-0.007807501813138807, ,0.023670867951169513, ,0.009869193276456014, ,9.938995552399262e-05, ,0.2296354620150658,-0.20700013196071376,0.10261950156,1.903565306952512,0.9975830847874807,-1.1504685967075325, ,0.046540922784929266,0.029673840387264155,0.02308523408695653,-0.0033665641209574357,0.0412142233216222,-0.021019166684781595, ,0.9544939994812012
0.013434793334917428,0.02137870653090426,-0.08903574889803222, ,0.013979566278741,0.021176062032710823,-0.089820151477114, ,0.0009762836468160408, ,0.010238907244791283,0.0038474790236991863,-0.026162465828524092,0.03891970267175659,0.03335636132854448,-0.015265425490893023, ,0.028356885136310996, ,0.051257953918188555, ,0.00010061606532212836, ,0.23014516238476462,-0.20674528177586435,0.10290209278000001,1.903565306952512,0.9985395402858388,-1.1512485220334074, ,0.04934838354574663,0.021582201855462994,0.028292738046181175,-0.0033665641209574357,0.09018757868465471,-0.05183891587663651, ,0.9629719257354736
0.013520512977793454,0.021408334629270123,-0.08924522895586749, ,0.014068360283345516,0.021198452620083935,-0.09003005207676877, ,0.000979864510573737, ,0.010556491807107457,0.0035002340732044838,-0.025370363630567105,0.020119974779520586,0.006943520254060935,-0.011005138858679172, ,0.027701019991833345, ,0.021284157204434197, ,0.00010182909105592086, ,0.23056991269284696,-0.20655993618688295,0.10312764724000001,1.903565306952512,0.9990860862849005,-1.1516125149080525, ,0.05328295427202177,0.023117403546521507,0.02732214668953688,-0.0033665641209574357,0.0658727351727615,-0.03651167453907736, ,0.9710700511932373
0.013520512977793454,0.021408334629270123,-0.08924522895586749, ,0.014156855401709977,0.021220623663406733,-0.09023878175509566, ,0.0011947025789021484, ,0.010556491807107457,0.0035002340732044838,-0.025370363630567105,0.020119974779520586,0.006943520254060935,-0.011005138858679172, ,0.027701019991833345, ,0.021284157204434197, ,0.00010346947900316765, ,0.23056991269284696,-0.20655993618688295,0.10312764724000001,1.903565306952512,0.9990860862849005,-1.1516125149080525, ,0.05328295427202177,0.023117403546521507,0.02732214668953688,-0.0033665641209574357,0.0658727351727615,-0.03651167453907736, ,0.9793369770050049
0.013673349491695547,0.021454995406339838,-0.08962672047380511, ,0.014245052181447292,0.021242575852756813,-0.0904463439942232, ,0.0010216402240692825, ,0.011045414630686643,0.0032987200967498883,-0.02909497858330846,-0.03535548244882245,-0.033813345092588626,0.006436359007311099, ,0.03129537533572119, ,0.048921688404023944, ,0.0001047251862512185, ,0.23127268138440138,-0.20615835407742328,0.10353208972000001,1.903565306952512,0.9994959957841969,-1.1517834111388607, ,0.045977200367476156,0.03248782662049667,0.030573534587332057,-0.0033665641209574357,0.013885873655903326,0.009757918298435501, ,0.9883320331573486
0.013774958674668169,0.021487302581388448,-0.08989851739418717, ,0.014332951170220425,0.021264309877618705,-0.09065274227054844, ,0.0009643321705456848, ,0.010413150779185495,0.003405886899889199,-0.027564786453651326,-0.0069053928726165665,-0.013657574733980896,-0.006823323496644598, ,0.029662286273318312, ,0.015303525233303465, ,0.0001058428735986382, ,0.23169743169248375,-0.20586489022820276,0.1038198661,1.903565306952512,0.9999059052834932,-1.1520359861098093, ,0.043771652010364745,0.02795197100396783,0.029173647472527476,-0.0033665641209574357,0.03330790495154401,-0.01719826753577257, ,0.9964919090270996
0.013860954412852611,0.021514658394494887,-0.09012044485526528, ,0.014420552915741503,0.021285826426883567,-0.09085798005474233, ,0.0009536627938134104, ,0.009694904642863543,0.002907571538198797,-0.0239427529279831,0.03862129840029235,0.022258607046238686,-0.024999507997299088, ,0.025994241017086923, ,0.044576253876400934, ,0.00010692070144298548, ,0.2320912910690692,-0.20564865370772448,0.10405708717,1.9033556170090276,1.000452451282555,-1.1522366215041733, ,0.04730655112585781,0.025421093372212905,0.0257747759223301,-0.0064441848185277486,0.07664962569418002,-0.06316006188654939, ,1.0055508613586426
0.013860954412852611,0.021514658394494887,-0.09012044485526528, ,0.014507857965770825,0.02130712618884881,-0.09106206081175432, ,0.0011611177514245878, ,0.009694904642863543,0.002907571538198797,-0.0239427529279831,0.03862129840029235,0.022258607046238686,-0.024999507997299088, ,0.025994241017086923, ,0.044576253876400934, ,0.00010861838961893624, ,0.2320912910690692,-0.20564865370772448,0.10405708717,1.9033556170090276,1.000452451282555,-1.1522366215041733, ,0.04730655112585781,0.025421093372212905,0.0257747759223301,-0.0064441848185277486,0.07664962569418002,-0.06316006188654939, ,1.011638879776001
0.013991561636716547,0.021549331128625178,-0.09044343362270772, ,0.014594866868116261,0.02132820985121788,-0.09126498800081702, ,0.001042987736144126, ,0.010946284473338152,0.002942433020881516,-0.026262318768344426,-0.02196218158463893,-0.01776525857299578,0.013955900003172525, ,0.028603993478948944, ,0.02824764307269303, ,0.00011005841485445295, ,0.2327245551647556,-0.20527023979688747,0.10440319660000001,1.9031459270655429,1.001408906780913,-1.152689831869486, ,0.05260362614105919,0.02951693361072186,0.02794528336842106,-0.008614631132925408,0.03954124148818234,0.003012835218886227, ,1.0175600051879883
0.014105247833895756,0.021581408103113077,-0.09070488073721128, ,0.014681580170632483,0.02134907810109978,-0.09146676507545008, ,0.0009831601787386906, ,0.011548462552322551,0.003183542591559645,-0.025755900483372816,-0.0217784730971026,-0.036835409566561186,0.01110238673902797, ,0.02840542801057704, ,0.042791797746354485, ,0.00011136177799651947, ,0.23328831466457398,-0.2049999441462896,0.10468189895,1.9031459270655429,1.0016821797804438,-1.1525859527163167, ,0.059273542509975505,0.025745236451023,0.0275109007253886,-0.008614631132925408,0.026137674190705645,0.0027569894537889947, ,1.0233700275421143
0.014105247833895756,0.021581408103113077,-0.09070488073721128, ,0.014767998421219493,0.021369731625008888,-0.09166739548346643, ,0.0011876362697135735, ,0.011548462552322551,0.003183542591559645,-0.025755900483372816,-0.0217784730971026,-0.036835409566561186,0.01110238673902797, ,0.02840542801057704, ,0.042791797746354485, ,0.00011305533144041634, ,0.23328831466457398,-0.2049999441462896,0.10468189895,1.9031459270655429,1.0016821797804438,-1.1525859527163167, ,0.059273542509975505,0.025745236451023,0.0275109007253886,-0.008614631132925408,0.026137674190705645,0.0027569894537889947, ,1.029202938079834
0.014227948196977647,0.021614884862133005,-0.09098892680991598, ,0.014854122167822895,0.02139017110886435,-0.09186688266697474, ,0.0011015428269549796, ,0.011910406540734763,0.0032648838910458427,-0.02915062910399244,0.03919998890546349,0.0419822908702904,-0.015759938470904653, ,0.03165874962701653, ,0.057438060791683634, ,0.0001145590332799306, ,0.2339215787602604,-0.2046833120984464,0.10498911968,1.9031459270655429,1.002638635278802,-1.1533658780421916, ,0.058398117882135864,0.03347334799240592,0.031479864664031625,-0.008614631132925408,0.11038569899743327,-0.06279035533631794, ,1.0375609397888184
0.014356250222897406,0.021652241860552736,-0.09131004765927456, ,0.014939951958431934,0.021410397237990087,-0.09206523006238554, ,0.0009846303872504485, ,0.01275599624924364,0.003666375470900725,-0.032519572418847884,0.017564719759400556,0.02039425138195329,-0.01015868676350961, ,0.03512378595352489, ,0.026914837938611928, ,0.0001158158044317162, ,0.2345162291915757,-0.20432806638623208,0.10533393282,1.9031459270655429,1.00359509077716,-1.1539824458877854, ,0.057166832264139024,0.03613744918449001,0.034779064454148474,-0.008614631132925408,0.08570757747080107,-0.0450844974387293, ,1.044179916381836
0.014356250222897406,0.021652241860552736,-0.09131004765927456, ,0.01502548834107951,0.021430410697114276,-0.09226244110041554, ,0.0011849649744312034, ,0.01275599624924364,0.003666375470900725,-0.032519572418847884,0.017564719759400556,0.02039425138195329,-0.01015868676350961, ,0.03512378595352489, ,0.026914837938611928, ,0.00011744839227018804, ,0.2345162291915757,-0.20432806638623208,0.10533393282,1.9031459270655429,1.00359509077716,-1.1539824458877854, ,0.057166832264139024,0.03613744918449001,0.034779064454148474,-0.008614631132925408,0.08570757747080107,-0.0450844974387293, ,1.0517520904541016
0.014472528631039556,0.0216882120018671,-0.09161625783850211, ,0.015110731863840763,0.021450212170368986,-0.09245851920609144, ,0.0010832135050323607, ,0.013124328392278693,0.004420199312457023,-0.03410011440563438,-0.029598180252611215,-0.01928823604451363,0.018723766523543437, ,0.036804944779031686, ,0.03532764095814356, ,0.00011886480375898998, ,0.23490236583528692,-0.20408093893425688,0.10558930195,1.9031459270655429,1.004141636776222,-1.1541830812821494, ,0.05364439884594165,0.03301911675660083,0.03645036961098399,-0.008614631132925408,0.042410483292249807,0.010530560157337693, ,1.0578010082244873
0.014598666065812838,0.021733252884842624,-0.09194225712497557, ,0.015195683074832553,0.021469802341290024,-0.09265346779875538, ,0.0009652233526263981, ,0.01302394645699754,0.0042785604446766295,-0.032846733350035386,-0.04531171710333344,-0.050778465578371144,0.01879208904635242, ,0.03559265587957461, ,0.068055609896329, ,0.00012003749921438388, ,0.23552018446522488,-0.20374886142066523,0.10600541104000001,1.9029362371220584,1.0044149097757529,-1.15407920212898, ,0.054319943651099475,0.02902934890133704,0.03470329307189543,-0.006934522830688998,0.005325315287145321,0.024410885301474734, ,1.0637009143829346
0.014598666065812838,0.021733252884842624,-0.09194225712497557, ,0.015280342522212333,0.021489181892816494,-0.09284729029206916, ,0.0011590247943411064, ,0.01302394645699754,0.0042785604446766295,-0.032846733350035386,-0.04531171710333344,-0.050778465578371144,0.01879208904635242, ,0.03559265587957461, ,0.068055609896329, ,0.00012156798254139145, ,0.23552018446522488,-0.20374886142066523,0.10600541104000001,1.9029362371220584,1.0044149097757529,-1.15407920212898, ,0.054319943651099475,0.02902934890133704,0.03470329307189543,-0.006934522830688998,0.005325315287145321,0.024410885301474734, ,1.069572925567627
0.014598666065812838,0.021733252884842624,-0.09194225712497557, ,0.015364710754177613,0.021508351507290406,-0.09303999009401834, ,0.001357358746065394, ,0.01302394645699754,0.0042785604446766295,-0.032846733350035386,-0.04531171710333344,-0.050778465578371144,0.01879208904635242, ,0.03559265587957461, ,0.068055609896329, ,0.0001236943618944117, ,0.23552018446522488,-0.20374886142066523,0.10600541104000001,1.9029362371220584,1.0044149097757529,-1.15407920212898, ,0.054319943651099475,0.02902934890133704,0.03470329307189543,-0.006934522830688998,0.005325315287145321,0.024410885301474734, ,1.074620008468628
0.014598666065812838,0.021733252884842624,-0.09194225712497557, ,0.015448788318964563,0.02152731186645667,-0.09323157060691703, ,0.001558027215126109, ,0.01302394645699754,0.0042785604446766295,-0.032846733350035386,-0.04531171710333344,-0.050778465578371144,0.01879208904635242, ,0.03559265587957461, ,0.068055609896329, ,0.0001261860700528476, ,0.23552018446522488,-0.20374886142066523,0.10600541104000001,1.9029362371220584,1.0044149097757529,-1.15407920212898, ,0.054319943651099475,0.02902934890133704,0.03470329307189543,-0.006934522830688998,0.005325315287145321,0.024410885301474734, ,1.0786840915679932
0.014677387825578042,0.021755315917217837,-0.09213979463399127, ,0.015532575764847902,0.021546063651462388,-0.09342203522741305, ,0.0015554015113838106, ,0.0135412272117501,0.0035851443747216007,-0.03268694380177423,-0.050386590834829784,-0.04662579520767706,0.019905777851038545, ,0.03556197955244036, ,0.06864936999510018, ,0.0001286539287105713, ,0.23585998471169076,-0.2035480703659354,0.10621411373,1.9027265471785741,1.0045515462755181,-1.153863905072114, ,0.06036701116951067,0.03613744918449001,0.034552736485900216,-0.005385328476688354,0.015999264220612344,0.026451995988015457, ,1.0842599868774414
0.014677387825578042,0.021755315917217837,-0.09213979463399127, ,0.015616073640139134,0.021564607542856898,-0.09361138734649141, ,0.0017558718216296773, ,0.0135412272117501,0.0035851443747216007,-0.03268694380177423,-0.050386590834829784,-0.04662579520767706,0.019905777851038545, ,0.03556197955244036, ,0.06864936999510018, ,0.00013148140788832327, ,0.23585998471169076,-0.2035480703659354,0.10621411373,1.9027265471785741,1.0045515462755181,-1.153863905072114, ,0.06036701116951067,0.03613744918449001,0.034552736485900216,-0.005385328476688354,0.015999264220612344,0.026451995988015457, ,1.0882110595703125
0.014677387825578042,0.021755315917217837,-0.09213979463399127, ,0.015699282493186306,0.02158294422059115,-0.09379963034947904, ,0.001956792098280486, ,0.0135412272117501,0.0035851443747216007,-0.03268694380177423,-0.050386590834829784,-0.04662579520767706,0.019905777851038545, ,0.03556197955244036, ,0.06864936999510018, ,0.00013466529751708986, ,0.23695661277983063,-0.20294569720174588,0.10676503698,1.9025168572350895,1.0064644572722343,-1.1553420769837235, ,0.07008636747302126,0.03377115357952697,0.02982923505617978,-0.013246361289200537,0.14642869681439954,-0.1280749280826335, ,1.0922179222106934
0.01489563751906278,0.02180884398792633,-0.09264880373385538, ,0.015782202872373034,0.02160107436401768,-0.09398676761604981, ,0.0016184293906025239, ,0.012572423746689593,0.0027589233371021894,-0.027139935299478547,0.09282597230852897,0.06280912156165806,-0.04919614778313306, ,0.030037536265582986, ,0.11207868736630001, ,0.0001371916997559819, ,0.23695661277983063,-0.20294569720174588,0.10676503698,1.9025168572350895,1.0064644572722343,-1.1553420769837235, ,0.07008636747302126,0.03377115357952697,0.02982923505617978,-0.013246361289200537,0.14642869681439954,-0.1280749280826335, ,1.0966949462890625
0.01489563751906278,0.02180884398792633,-0.09264880373385538, ,0.015864835326117172,0.021618998651890094,-0.09417280252022858, ,0.0018160280674264766, ,0.012572423746689593,0.0027589233371021894,-0.027139935299478547,0.09282597230852897,0.06280912156165806,-0.04919614778313306, ,0.030037536265582986, ,0.11207868736630001, ,0.00014006790249462839, ,0.23810729997809008,-0.20230471037318526,0.10726670121000001,1.9025168572350895,1.007284276270827,-1.155520511965059, ,0.06576364626366651,0.0406759286577243,0.031479864664031625,-0.012189984335980028,-0.010991470433757021,0.06423739089388711, ,1.1017680168151855
0.015116260840108295,0.021849676215649656,-0.09311736893041912, ,0.01594718040287043,0.02163671776236298,-0.09435773843039569, ,0.0015080766290474716, ,0.013650981435664221,0.0024125789087420684,-0.029933836685341428,-0.08993526924151618,-0.07835803360528633,0.045363354364271205, ,0.032987943401376944, ,0.11928248006649288, ,0.00014235032038321244, ,0.23810729997809008,-0.20230471037318526,0.10726670121000001,1.9025168572350895,1.007284276270827,-1.155520511965059, ,0.06576364626366651,0.0406759286577243,0.031479864664031625,-0.012189984335980028,-0.010991470433757021,0.06423739089388711, ,1.106342077255249
0.015116260840108295,0.021849676215649656,-0.09311736893041912, ,0.016029238651117522,0.02165423237299129,-0.09454157870929135, ,0.001702968077582062, ,0.013650981435664221,0.0024125789087420684,-0.029933836685341428,-0.08993526924151618,-0.07835803360528633,0.045363354364271205, ,0.032987943401376944, ,0.11928248006649288, ,0.00014497674156250067, ,0.23810729997809008,-0.20230471037318526,0.10726670121000001,1.9025168572350895,1.007284276270827,-1.155520511965059, ,0.06576364626366651,0.0406759286577243,0.031479864664031625,-0.012189984335980028,-0.010991470433757021,0.06423739089388711, ,1.1103510856628418
0.015294312326286544,0.021897470050775317,-0.09354108614779758, ,0.01611101061937438,0.021671543160730417,-0.09472432671402024, ,0.0014553684410254627, ,0.018336908206966953,0.0059437953036684706,-0.046671154791112085,-0.04621973869766325,-0.04824759215123133,0.020497585602503015, ,0.05049522348439096, ,0.066812221640003, ,0.000147126953661948, ,0.23888729599838676,-0.20185679186648023,0.10771521755,1.9025168572350895,1.0074209127705924,-1.1553052149081928, ,0.07339283956571599,0.04122369311836263,0.04946835875776398,-0.011040704621530876,0.02952008870677472,0.01672903249041774, ,1.1142680644989014
0.015294312326286544,0.021897470050775317,-0.09354108614779758, ,0.016192496856188156,0.021688650801935643,-0.09490598579605626, ,0.0016472073270409008, ,0.018336908206966953,0.0059437953036684706,-0.046671154791112085,-0.04621973869766325,-0.04824759215123133,0.020497585602503015, ,0.05049522348439096, ,0.066812221640003, ,0.000149614000389369, ,0.23888729599838676,-0.20185679186648023,0.10771521755,1.9025168572350895,1.0074209127705924,-1.1553052149081928, ,0.07339283956571599,0.04122369311836263,0.04946835875776398,-0.011040704621530876,0.02952008870677472,0.01672903249041774, ,1.1183319091796875
0.015294312326286544,0.021897470050775317,-0.09354108614779758, ,0.01627369791013636,0.02170555597236194,-0.09508655930124638, ,0.001839704977265942, ,0.018336908206966953,0.0059437953036684706,-0.046671154791112085,-0.04621973869766325,-0.04824759215123133,0.020497585602503015, ,0.05049522348439096, ,0.066812221640003, ,0.00015243538679319171, ,0.23888729599838676,-0.20185679186648023,0.10771521755,1.9025168572350895,1.0074209127705924,-1.1553052149081928, ,0.07339283956571599,0.04122369311836263,0.04946835875776398,-0.011040704621530876,0.02952008870677472,0.01672903249041774, ,1.1224350929260254
0.015294312326286544,0.021897470050775317,-0.09354108614779758, ,0.01635461432982519,0.021722259347163545,-0.09526605056981506, ,0.002032348736460926, ,0.018336908206966953,0.0059437953036684706,-0.046671154791112085,-0.04621973869766325,-0.04824759215123133,0.020497585602503015, ,0.05049522348439096, ,0.066812221640003, ,0.00015558771884223284, ,0.23932749177221754,-0.2016251098802535,0.10803151231000001,1.902307167291605,1.007967458769654,-1.1554241715624163, ,0.07108385135465976,0.0374051799599806,0.05473818391752577,-0.0030507191934503334,0.11425453677382533,-0.0561372284587573, ,1.1263670921325684
0.015406254422011254,0.02193742744653028,-0.09383717039583153, ,0.016435246663889114,0.02173876160089391,-0.0954444629363693, ,0.0019187710814309192, ,0.018849017752503448,0.007394660295248552,-0.05106110456740931,0.03295572077510798,0.034106705678244253,-0.016502315701880692, ,0.05492907127159737, ,0.047423620769570525, ,0.00015851062001268092, ,0.23932749177221754,-0.2016251098802535,0.10803151231000001,1.902307167291605,1.007967458769654,-1.1554241715624163, ,0.07108385135465976,0.0374051799599806,0.05473818391752577,-0.0030507191934503334,0.11425453677382533,-0.0561372284587573, ,1.130267858505249
0.015706551992955557,0.02204879321659065,-0.0946519422816386, ,0.01651559546099001,0.021755063407505187,-0.0956217997299028, ,0.0012967081413595475, ,0.021332193945580228,0.007485134423486794,-0.05726536617582794,0.030172159287832654,0.02408843714348356,0.029527612500037784, ,0.06156632114330996, ,0.03860046853343653, ,0.00016028541512379358, ,0.24047817897047702,-0.201022736716064,0.10890521177000001,1.9014684075176667,1.0100170062661358,-1.157013761377722, ,0.08187829297538463,0.04469945433748034,0.061264659692307696,-0.06604253041721907,0.12857712508959082,-0.07810513667663946, ,1.1347370147705078
0.015706551992955557,0.02204879321659065,-0.0946519422816386, ,0.01659566126981584,0.021771165440348156,-0.09579806427379996, ,0.0014768845957813619, ,0.021332193945580228,0.007485134423486794,-0.05726536617582794,0.030172159287832654,0.02408843714348356,0.029527612500037784, ,0.06156632114330996, ,0.03860046853343653, ,0.00016266624546856315, ,0.24047817897047702,-0.201022736716064,0.10890521177000001,1.9014684075176667,1.0100170062661358,-1.157013761377722, ,0.08187829297538463,0.04469945433748034,0.061264659692307696,-0.06604253041721907,0.12857712508959082,-0.07810513667663946, ,1.1367030143737793
0.015706551992955557,0.02204879321659065,-0.0946519422816386, ,0.016675444639080016,0.02178706837217166,-0.0959732598858408, ,0.0016592567809338057, ,0.021332193945580228,0.007485134423486794,-0.05726536617582794,0.030172159287832654,0.02408843714348356,0.029527612500037784, ,0.06156632114330996, ,0.03860046853343653, ,0.00016536767242788668, ,0.24047817897047702,-0.201022736716064,0.10890521177000001,1.9014684075176667,1.0100170062661358,-1.157013761377722, ,0.08187829297538463,0.04469945433748034,0.061264659692307696,-0.06604253041721907,0.12857712508959082,-0.07810513667663946, ,1.1386489868164062
0.015706551992955557,0.02204879321659065,-0.0946519422816386, ,0.016754946117520722,0.021802772875122497,-0.09614738987820547, ,0.001842829282086778, ,0.021332193945580228,0.007485134423486794,-0.05726536617582794,0.030172159287832654,0.02408843714348356,0.029527612500037784, ,0.06156632114330996, ,0.03860046853343653, ,0.00016839012577862342, ,0.24047817897047702,-0.201022736716064,0.10890521177000001,1.9014684075176667,1.0100170062661358,-1.157013761377722, ,0.08187829297538463,0.04469945433748034,0.061264659692307696,-0.06604253041721907,0.12857712508959082,-0.07810513667663946, ,1.140596866607666
0.015706551992955557,0.02204879321659065,-0.0946519422816386, ,0.016834166253899257,0.021818279620745094,-0.09632045755747787, ,0.0020269666166620078, ,0.022499571050757537,0.006943334183022303,-0.0577901665877263,-0.07369551960023091,-0.08256229961654979,0.06454195664247846, ,0.06240307637674901, ,0.11066579578916927, ,0.00017173288925143525, ,0.2413508477852644,-0.20052075907923939,0.10953131984000002,1.9012587175741824,1.010700188764963,-1.1571624571955015, ,0.0857244277854298,0.049788531772545004,0.06102992919540231,-0.05859952376108703,0.015998838031509744,0.022955167481549896, ,1.142867088317871
0.015933684587812108,0.022123981132733856,-0.09524066327782518, ,0.01691310559699991,0.0218335892799813,-0.09649246622465109, ,0.001615736228183776, ,0.022499571050757537,0.006943334183022303,-0.0577901665877263,-0.07369551960023091,-0.08256229961654979,0.06454195664247846, ,0.06240307637674901, ,0.11066579578916927, ,0.00017432535485095471, ,0.2413508477852644,-0.20052075907923939,0.10953131984000002,1.9012587175741824,1.010700188764963,-1.1571624571955015, ,0.0857244277854298,0.049788531772545004,0.06102992919540231,-0.05859952376108703,0.015998838031509744,0.022955167481549896, ,1.1451220512390137
0.015933684587812108,0.022123981132733856,-0.09524066327782518, ,0.016991764695628207,0.021848702523169915,-0.09666341917513076, ,0.0017943093854620993, ,0.022499571050757537,0.006943334183022303,-0.0577901665877263,-0.07369551960023091,-0.08256229961654979,0.06454195664247846, ,0.06240307637674901, ,0.11066579578916927, ,0.0009695444317396458, ,0.2413508477852644,-0.20052075907923939,0.10953131984000002,1.9012587175741824,1.010700188764963,-1.1571624571955015, ,0.0857244277854298,0.049788531772545004,0.06102992919540231,-0.05859952376108703,0.015998838031509744,0.022955167481549896, ,1.1470890045166016
0.015933684587812108,0.022123981132733856,-0.09524066327782518, ,0.017070144098611004,0.02186362002004648,-0.09683331969874041, ,0.001973799028211228, ,0.022499571050757537,0.006943334183022303,-0.0577901665877263,-0.07369551960023091,-0.08256229961654979,0.06454195664247846, ,0.06240307637674901, ,0.11066579578916927, ,0.0009792944763655834, ,0.2413508477852644,-0.20052075907923939,0.10953131984000002,1.9012587175741824,1.010700188764963,-1.1571624571955015, ,0.0857244277854298,0.049788531772545004,0.06102992919540231,-0.05859952376108703,0.015998838031509744,0.022955167481549896, ,1.1490509510040283
0.015933684587812108,0.022123981132733856,-0.09524066327782518, ,0.017148244354793882,0.021878342439743386,-0.09700217107972536, ,0.0021536953199605773, ,0.022499571050757537,0.006943334183022303,-0.0577901665877263,-0.07369551960023091,-0.08256229961654979,0.06454195664247846, ,0.06240307637674901, ,0.11066579578916927, ,0.0009905867921693816, ,0.2413508477852644,-0.20052075907923939,0.10953131984000002,1.9012587175741824,1.010700188764963,-1.1571624571955015, ,0.0857244277854298,0.049788531772545004,0.06102992919540231,-0.05859952376108703,0.015998838031509744,0.022955167481549896, ,1.1509790420532227
0.01616943968504751,0.022196279364687786,-0.09582645099110157, ,0.017226066013042496,0.0218928704507887,-0.09716997659675705, ,0.0017359657885734738, ,0.025290598292194374,0.007812415766329973,-0.061308626124248894,-0.0348156282926799,-0.0620000511695746,-0.01635568692720762, ,0.06677870797886165, ,0.07110040885188694, ,0.0009976856397541825, ,0.24229302119591978,-0.20000333597666636,0.11015353904000001,1.901049027630698,1.0111100982642593,-1.1571699959460284, ,0.10326108983511509,0.054041538472933255,0.06528201442622952,0.011090067297430681,0.04213090973821193,-0.005289037103450727, ,1.15305495262146
0.01616943968504751,0.022196279364687786,-0.09582645099110157, ,0.017303609622239497,0.02190720472110683,-0.09733673952293759, ,0.0019107268369358637, ,0.025290598292194374,0.007812415766329973,-0.061308626124248894,-0.0348156282926799,-0.0620000511695746,-0.01635568692720762, ,0.06677870797886165, ,0.07110040885188694, ,0.0010062992359540096, ,0.24229302119591978,-0.20000333597666636,0.11015353904000001,1.901049027630698,1.0111100982642593,-1.1571699959460284, ,0.10326108983511509,0.054041538472933255,0.06528201442622952,0.011090067297430681,0.04213090973821193,-0.005289037103450727, ,1.1575040817260742
0.01616943968504751,0.022196279364687786,-0.09582645099110157, ,0.017380875731284808,0.021921345918017605,-0.09750246312580427, ,0.0020861884789950542, ,0.025290598292194374,0.007812415766329973,-0.061308626124248894,-0.0348156282926799,-0.0620000511695746,-0.01635568692720762, ,0.06677870797886165, ,0.07110040885188694, ,0.001016391658786169, ,0.24229302119591978,-0.20000333597666636,0.11015353904000001,1.901049027630698,1.0111100982642593,-1.1571699959460284, ,0.10326108983511509,0.054041538472933255,0.06528201442622952,0.011090067297430681,0.04213090973821193,-0.005289037103450727, ,1.1600639820098877
0.01616943968504751,0.022196279364687786,-0.09582645099110157, ,0.01745786488909415,0.02193529470823633,-0.0976671506673334, ,0.002261930104005359, ,0.025290598292194374,0.007812415766329973,-0.061308626124248894,-0.0348156282926799,-0.0620000511695746,-0.01635568692720762, ,0.06677870797886165, ,0.07110040885188694, ,0.0010279244221678282, ,0.24229302119591978,-0.20000333597666636,0.11015353904000001,1.901049027630698,1.0111100982642593,-1.1571699959460284, ,0.10326108983511509,0.054041538472933255,0.06528201442622952,0.011090067297430681,0.04213090973821193,-0.005289037103450727, ,1.1624650955200195
0.01616943968504751,0.022196279364687786,-0.09582645099110157, ,0.017534577644598433,0.021949051757873414,-0.09783080540394556, ,0.0024376545592977726, ,0.025290598292194374,0.007812415766329973,-0.061308626124248894,-0.0348156282926799,-0.0620000511695746,-0.01635568692720762, ,0.06677870797886165, ,0.07110040885188694, ,0.0010408577261781945, ,0.24229302119591978,-0.20000333597666636,0.11015353904000001,1.901049027630698,1.0111100982642593,-1.1571699959460284, ,0.10326108983511509,0.054041538472933255,0.06528201442622952,0.011090067297430681,0.04213090973821193,-0.005289037103450727, ,1.1647188663482666
0.016274577118794122,0.02223014553689425,-0.0960870815761332, ,0.017611014546742656,0.021962617732433874,-0.09799343058650903, ,0.002343459552529545, ,0.026029810172006496,0.008723813692132824,-0.06548736658208351,0.04879916509580973,0.04170015784492937,-0.042224679963200555, ,0.0710088101912849, ,0.06417988182841286, ,0.001052699560963207, ,0.24229302119591978,-0.20000333597666636,0.11015353904000001,1.901049027630698,1.0111100982642593,-1.1571699959460284, ,0.10326108983511509,0.054041538472933255,0.06528201442622952,0.011090067297430681,0.04213090973821193,-0.005289037103450727, ,1.1667718887329102
0.016274577118794122,0.02223014553689425,-0.0960870815761332, ,0.01768717614448453,0.021975993296817552,-0.09815502946034484, ,0.002517228201878581, ,0.026029810172006496,0.008723813692132824,-0.06548736658208351,0.04879916509580973,0.04170015784492937,-0.042224679963200555, ,0.0710088101912849, ,0.06417988182841286, ,0.001065893512683165, ,0.24272549423687634,-0.19977937672331383,0.11043353768000001,1.901049027630698,1.011656644263321,-1.1573706313403924, ,0.10509074369708835,0.05494901074607457,0.07048146690265487,0.01060269783427261,0.15608867655678196,-0.08280699344157898, ,1.1688568592071533
0.016274577118794122,0.02223014553689425,-0.0960870815761332, ,0.017763062986794368,0.021989179115318346,-0.09831560526523062, ,0.0026907197602931247, ,0.026029810172006496,0.008723813692132824,-0.06548736658208351,0.04879916509580973,0.04170015784492937,-0.042224679963200555, ,0.0710088101912849, ,0.06417988182841286, ,0.0010804008898939684, ,0.24272549423687634,-0.19977937672331383,0.11043353768000001,1.901049027630698,1.011656644263321,-1.1573706313403924, ,0.10509074369708835,0.05494901074607457,0.07048146690265487,0.01060269783427261,0.15608867655678196,-0.08280699344157898, ,1.1708569526672363
0.016274577118794122,0.02223014553689425,-0.0960870815761332, ,0.01783867562265325,0.022002175851624187,-0.09847516123540563, ,0.002863790978093062, ,0.026029810172006496,0.008723813692132824,-0.06548736658208351,0.04879916509580973,0.04170015784492937,-0.042224679963200555, ,0.0710088101912849, ,0.06417988182841286, ,0.0010961831030638718, ,0.24272549423687634,-0.19977937672331383,0.11043353768000001,1.901049027630698,1.011656644263321,-1.1573706313403924, ,0.10509074369708835,0.05494901074607457,0.07048146690265487,0.01060269783427261,0.15608867655678196,-0.08280699344157898, ,1.172868013381958
0.016274577118794122,0.02223014553689425,-0.0960870815761332, ,0.017914014601052835,0.022014984168816733,-0.09863370059957483, ,0.0030363330059633683, ,0.026029810172006496,0.008723813692132824,-0.06548736658208351,0.04879916509580973,0.04170015784492937,-0.042224679963200555, ,0.0710088101912849, ,0.06417988182841286, ,0.0011132019618612357, ,0.24272549423687634,-0.19977937672331383,0.11043353768000001,1.901049027630698,1.011656644263321,-1.1573706313403924, ,0.10509074369708835,0.05494901074607457,0.07048146690265487,0.01060269783427261,0.15608867655678196,-0.08280699344157898, ,1.1761488914489746
0.01647162250542796,0.022296164037773132,-0.09658488002017476, ,0.01798908047099382,0.022027604729370934,-0.09879122658091234, ,0.002691239105963513, ,0.02592493326500135,0.008505058216372853,-0.06442200346503738,0.08099378050933193,0.058985666672607066,-0.06341930112925803, ,0.06996165171369206, ,0.1001907767313573, ,0.001126924023983864, ,0.2435286584557957,-0.19936234914810572,0.11097149803,1.901049027630698,1.0131596457607408,-1.1585145495409124, ,0.10650610724856428,0.05463266641247599,0.06955812890829695,0.00934884117895129,0.17650532428121687,-0.12127036089284597, ,1.1789870262145996
0.01647162250542796,0.022296164037773132,-0.09658488002017476, ,0.018063873781485024,0.0220400381951551,-0.09894774239706741, ,0.0028607661885405667, ,0.02592493326500135,0.008505058216372853,-0.06442200346503738,0.08099378050933193,0.058985666672607066,-0.06341930112925803, ,0.06996165171369206, ,0.1001907767313573, ,0.0011418709391955598, ,0.2435286584557957,-0.19936234914810572,0.11097149803,1.901049027630698,1.0131596457607408,-1.1585145495409124, ,0.10650610724856428,0.05463266641247599,0.06955812890829695,0.00934884117895129,0.17650532428121687,-0.12127036089284597, ,1.180933952331543
0.01647162250542796,0.022296164037773132,-0.09658488002017476, ,0.018138395081542847,0.022052285227430166,-0.09910325126016764, ,0.0030298187069602396, ,0.02592493326500135,0.008505058216372853,-0.06442200346503738,0.08099378050933193,0.058985666672607066,-0.06341930112925803, ,0.06996165171369206, ,0.1001907767313573, ,0.00115800724490295, ,0.2435286584557957,-0.19936234914810572,0.11097149803,1.901049027630698,1.0131596457607408,-1.1585145495409124, ,0.10650610724856428,0.05463266641247599,0.06955812890829695,0.00934884117895129,0.17650532428121687,-0.12127036089284597, ,1.1828649044036865
0.01647162250542796,0.022296164037773132,-0.09658488002017476, ,0.018212644920189907,0.02206434648684987,-0.09925775637682364, ,0.0031983068088524864, ,0.02592493326500135,0.008505058216372853,-0.06442200346503738,0.08099378050933193,0.058985666672607066,-0.06341930112925803, ,0.06996165171369206, ,0.1001907767313573, ,0.001175297919173709, ,0.2435286584557957,-0.19936234914810572,0.11097149803,1.901049027630698,1.0131596457607408,-1.1585145495409124, ,0.10650610724856428,0.05463266641247599,0.06955812890829695,0.00934884117895129,0.17650532428121687,-0.12127036089284597, ,1.1847929954528809
0.016962376875921472,0.022414962144219168,-0.0976640080609221, ,0.0182866238464541,0.022076222633460103,-0.0994112609481335, ,0.002218392919882032, ,0.025770110214773045,0.003397188370214132,-0.0525329686319854,-0.10649459154438816,-0.12352286273019528,0.014637140048063881, ,0.05861187816981665, ,0.16309075863888586, ,0.001184063423381342, ,0.24575280552357234,-0.19823483014846893,0.11212649242000002,1.9012587175741824,1.014116101259099,-1.1583143299851006, ,0.12356372598759216,0.07659155896567456,0.055695145174825184,0.0,0.0,0.046304295757126024, ,1.1867060661315918
0.016962376875921472,0.022414962144219168,-0.0976640080609221, ,0.01836033240936777,0.022087914326698984,-0.09956376816968693, ,0.0023812451405287945, ,0.025770110214773045,0.003397188370214132,-0.0525329686319854,-0.10649459154438816,-0.12352286273019528,0.014637140048063881, ,0.05861187816981665, ,0.16309075863888586, ,0.0011940399376909041, ,0.24575280552357234,-0.19823483014846893,0.11212649242000002,1.9012587175741824,1.014116101259099,-1.1583143299851006, ,0.12356372598759216,0.07659155896567456,0.055695145174825184,0.0,0.0,0.046304295757126024, ,1.1886799335479736
0.016962376875921472,0.022414962144219168,-0.0976640080609221, ,0.01843377115796661,0.02209942222539622,-0.09971528123156974, ,0.0025440692196213423, ,0.025770110214773045,0.003397188370214132,-0.0525329686319854,-0.10649459154438816,-0.12352286273019528,0.014637140048063881, ,0.05861187816981665, ,0.16309075863888586, ,0.0012051972044837176, ,0.24575280552357234,-0.19823483014846893,0.11212649242000002,1.9012587175741824,1.014116101259099,-1.1583143299851006, ,0.12356372598759216,0.07659155896567456,0.055695145174825184,0.0,0.0,0.046304295757126024, ,1.1906678676605225
0.016962376875921472,0.022414962144219168,-0.0976640080609221, ,0.018506940641288796,0.02211074698777321,-0.0998658033183684, ,0.002706681814031744, ,0.025770110214773045,0.003397188370214132,-0.0525329686319854,-0.10649459154438816,-0.12352286273019528,0.014637140048063881, ,0.05861187816981665, ,0.16309075863888586, ,0.0012175044553816522, ,0.24575280552357234,-0.19823483014846893,0.11212649242000002,1.9012587175741824,1.014116101259099,-1.1583143299851006, ,0.12356372598759216,0.07659155896567456,0.055695145174825184,0.0,0.0,0.046304295757126024, ,1.1925880908966064
0.016962376875921472,0.022414962144219168,-0.0976640080609221, ,0.018579841408373952,0.02212188927144239,-0.10001533760917365, ,0.0028689429877535406, ,0.025770110214773045,0.003397188370214132,-0.0525329686319854,-0.10649459154438816,-0.12352286273019528,0.014637140048063881, ,0.05861187816981665, ,0.16309075863888586, ,0.0012309307849131309, ,0.24575280552357234,-0.19823483014846893,0.11212649242000002,1.9012587175741824,1.014116101259099,-1.1583143299851006, ,0.12356372598759216,0.07659155896567456,0.055695145174825184,0.0,0.0,0.046304295757126024, ,1.1944739818572998
0.016962376875921472,0.022414962144219168,-0.0976640080609221, ,0.018652474008262206,0.022132849733407203,-0.10016388727758556, ,0.003030744434456068, ,0.025770110214773045,0.003397188370214132,-0.0525329686319854,-0.10649459154438816,-0.12352286273019528,0.014637140048063881, ,0.05861187816981665, ,0.16309075863888586, ,0.0012454454111191222, ,0.24575280552357234,-0.19823483014846893,0.11212649242000002,1.9012587175741824,1.014116101259099,-1.1583143299851006, ,0.12356372598759216,0.07659155896567456,0.055695145174825184,0.0,0.0,0.046304295757126024, ,1.196408987045288
0.016962376875921472,0.022414962144219168,-0.0976640080609221, ,0.018724838989992987,0.022143629030061916,-0.10031145549171794, ,0.003192001294047859, ,0.025770110214773045,0.003397188370214132,-0.0525329686319854,-0.10649459154438816,-0.12352286273019528,0.014637140048063881, ,0.05861187816981665, ,0.16309075863888586, ,0.0012610178581825523, ,0.24575280552357234,-0.19823483014846893,0.11212649242000002,1.9012587175741824,1.014116101259099,-1.1583143299851006, ,0.12356372598759216,0.07659155896567456,0.055695145174825184,0.0,0.0,0.046304295757126024, ,1.198349952697754
0.016962376875921472,0.022414962144219168,-0.0976640080609221, ,0.018796936902604457,0.022154227817190963,-0.10045804541420209, ,0.003352646359566986, ,0.025770110214773045,0.003397188370214132,-0.0525329686319854,-0.10649459154438816,-0.12352286273019528,0.014637140048063881, ,0.05861187816981665, ,0.16309075863888586, ,0.001277618084384016, ,0.24575280552357234,-0.19823483014846893,0.11212649242000002,1.9012587175741824,1.014116101259099,-1.1583143299851006, ,0.12356372598759216,0.07659155896567456,0.055695145174825184,0.0,0.0,0.046304295757126024, ,1.2002589702606201
0.016962376875921472,0.022414962144219168,-0.0976640080609221, ,0.01886876829513209,0.02216464674996912,-0.1006036602021913, ,0.003512625905431299, ,0.025770110214773045,0.003397188370214132,-0.0525329686319854,-0.10649459154438816,-0.12352286273019528,0.014637140048063881, ,0.05861187816981665, ,0.16309075863888586, ,0.0012952165711639157, ,0.24575280552357234,-0.19823483014846893,0.11212649242000002,1.9012587175741824,1.014116101259099,-1.1583143299851006, ,0.12356372598759216,0.07659155896567456,0.055695145174825184,0.0,0.0,0.046304295757126024, ,1.2023470401763916
0.016962376875921472,0.022414962144219168,-0.0976640080609221, ,0.018940333716608016,0.022174886482960995,-0.10074830300736569, ,0.0036718966357190286, ,0.025770110214773045,0.003397188370214132,-0.0525329686319854,-0.10649459154438816,-0.12352286273019528,0.014637140048063881, ,0.05861187816981665, ,0.16309075863888586, ,0.0013137843841682527, ,0.24575280552357234,-0.19823483014846893,0.11212649242000002,1.9012587175741824,1.014116101259099,-1.1583143299851006, ,0.12356372598759216,0.07659155896567456,0.055695145174825184,0.0,0.0,0.046304295757126024, ,1.2044920921325684
0.016962376875921472,0.022414962144219168,-0.0976640080609221, ,0.019011633716059836,0.022184947670120744,-0.10089197697593578, ,0.003830423419341952, ,0.029624027745415744,0.005327381742691614,-0.06598367128285614,-0.002868539011274263,-0.0021739642815605895,-0.027412892147363425, ,0.07103748624971133, ,0.003421089384952744, ,0.0013332932138982814, ,0.24621616949602582,-0.1979413662992484,0.11235463946000002,1.901049027630698,1.0146626472581608,-1.1586783228597457, ,0.13422481125667718,0.0866638735693797,0.07079471786666668,-0.0012476810688246956,0.14269459488542094,-0.06193047887143651, ,1.2086379528045654
0.01705985769428859,0.022429318752052507,-0.09787630642928724, ,0.019082668842509743,0.02219483096479183,-0.10103468524864742, ,0.003757939093482649, ,0.029624027745415744,0.005327381742691614,-0.06598367128285614,-0.002868539011274263,-0.0021739642815605895,-0.027412892147363425, ,0.07252453992999569, ,0.003421089384952744, ,0.0013519443360489303, ,0.24621616949602582,-0.1979413662992484,0.11235463946000002,1.901049027630698,1.0146626472581608,-1.1586783228597457, ,0.13422481125667718,0.0866638735693797,0.07079471786666668,-0.0012476810688246956,0.14269459488542094,-0.06193047887143651, ,1.2107288837432861
0.01705985769428859,0.022429318752052507,-0.09787630642928724, ,0.0191534396449737,0.022204537019706753,-0.10117643096078599, ,0.003914643551439986, ,0.029624027745415744,0.005327381742691614,-0.06598367128285614,-0.002868539011274263,-0.0021739642815605895,-0.027412892147363425, ,0.07252453992999569, ,0.003421089384952744, ,0.0013715069254793964, ,0.24621616949602582,-0.1979413662992484,0.11235463946000002,1.901049027630698,1.0146626472581608,-1.1586783228597457, ,0.13422481125667718,0.0866638735693797,0.07079471786666668,-0.0012476810688246956,0.14269459488542094,-0.06193047887143651, ,1.2130439281463623
0.01705985769428859,0.022429318752052507,-0.09787630642928724, ,0.019223946672459944,0.02221406648698693,-0.10131721724218035, ,0.004070562843802229, ,0.029624027745415744,0.005327381742691614,-0.06598367128285614,-0.002868539011274263,-0.0021739642815605895,-0.027412892147363425, ,0.07252453992999569, ,0.003421089384952744, ,0.001391954318800024, ,0.24621616949602582,-0.1979413662992484,0.11235463946000002,1.901049027630698,1.0146626472581608,-1.1586783228597457, ,0.13422481125667718,0.0866638735693797,0.07079471786666668,-0.0012476810688246956,0.14269459488542094,-0.06193047887143651, ,1.215019941329956
0.018096480453525576,0.02278724914854957,-0.10059084940420648, ,0.019294190473968208,0.022223420018142207,-0.10145704721720791, ,0.0015819959647903883, ,0.0422680805690464,0.01513021602191518,-0.11390291144508798,0.21234703167558935,0.20371616252474886,0.05742363858540721, ,0.12243115333741152, ,0.2942318209154748, ,0.0013933832033563426, ,0.25013931779613185,-0.19603385127931494,0.11530240292,1.8972746086479766,1.0250470212403342,-1.1664926536195492, ,0.14874128770920184,0.07266228296973261,0.12347915906976746,-0.20786809509679188,0.4218566103310885,-0.3199916131857415, ,1.2169489860534668
0.018096480453525576,0.02278724914854957,-0.10059084940420648, ,0.019364171598489608,0.022232598264070536,-0.1015959240047981, ,0.0017102202768731237, ,0.0422680805690464,0.01513021602191518,-0.11390291144508798,0.21234703167558935,0.20371616252474886,0.05742363858540721, ,0.12243115333741152, ,0.2942318209154748, ,0.0013957476591288558, ,0.25013931779613185,-0.19603385127931494,0.11530240292,1.8972746086479766,1.0250470212403342,-1.1664926536195492, ,0.14874128770920184,0.07266228296973261,0.12347915906976746,-0.20786809509679188,0.4218566103310885,-0.3199916131857415, ,1.218864917755127
0.018096480453525576,0.02278724914854957,-0.10059084940420648, ,0.01943389059500373,0.022241601875058168,-0.10173385071843734, ,0.0018419687396724936, ,0.0422680805690464,0.01513021602191518,-0.11390291144508798,0.21234703167558935,0.20371616252474886,0.05742363858540721, ,0.12243115333741152, ,0.2942318209154748, ,0.001399053000466216, ,0.25013931779613185,-0.19603385127931494,0.11530240292,1.8972746086479766,1.0250470212403342,-1.1664926536195492, ,0.14874128770920184,0.07266228296973261,0.12347915906976746,-0.20786809509679188,0.4218566103310885,-0.3199916131857415, ,1.220808982849121
0.018096480453525576,0.02278724914854957,-0.10059084940420648, ,0.0195033480124797,0.022250431500778746,-0.10187083046617297, ,0.0019763099540276055, ,0.0422680805690464,0.01513021602191518,-0.11390291144508798,0.21234703167558935,0.20371616252474886,0.05742363858540721, ,0.12243115333741152, ,0.2942318209154748, ,0.0014032975368894617, ,0.25013931779613185,-0.19603385127931494,0.11530240292,1.8972746086479766,1.0250470212403342,-1.1664926536195492, ,0.14874128770920184,0.07266228296973261,0.12347915906976746,-0.20786809509679188,0.4218566103310885,-0.3199916131857415, ,1.2228009700775146
0.018096480453525576,0.02278724914854957,-0.10059084940420648, ,0.01957254439987373,0.022259087790293515,-0.10200686635061812, ,0.002112539511249126, ,0.0422680805690464,0.01513021602191518,-0.11390291144508798,0.21234703167558935,0.20371616252474886,0.05742363858540721, ,0.12243115333741152, ,0.2942318209154748, ,0.0014084744856074154, ,0.25013931779613185,-0.19603385127931494,0.11530240292,1.8972746086479766,1.0250470212403342,-1.1664926536195492, ,0.14874128770920184,0.07266228296973261,0.12347915906976746,-0.20786809509679188,0.4218566103310885,-0.3199916131857415, ,1.2247099876403809
0.018493883362647952,0.02289948377652041,-0.10158332949948444, ,0.01964148030612898,0.022267571392050867,-0.10214196146895532, ,0.0014242056325011123, ,0.04236603075440067,0.01063015923314512,-0.10011619484547744,-0.33277990099333526,-0.21563914471361406,0.10119259700507324, ,0.10922972726113733, ,0.3965257179621025, ,0.0014085884794254858, ,0.25154485517924075,-0.1951380142659049,0.11636017556000001,1.897064918704492,1.0261401132384578,-1.1656687433061688, ,0.15015338854188412,0.10236994774376568,0.10548881801324504,0.0989834420196373,-0.09005738218382307,0.33799387540443016, ,1.2266929149627686
0.018493883362647952,0.02289948377652041,-0.10158332949948444, ,0.019710156280174137,0.022275882953885957,-0.102276118912941, ,0.0015323690701967024, ,0.04236603075440067,0.01063015923314512,-0.10011619484547744,-0.33277990099333526,-0.21563914471361406,0.10119259700507324, ,0.10922972726113733, ,0.3965257179621025, ,0.0014094789872727608, ,0.25154485517924075,-0.1951380142659049,0.11636017556000001,1.897064918704492,1.0261401132384578,-1.1656687433061688, ,0.15015338854188412,0.10236994774376568,0.10548881801324504,0.0989834420196373,-0.09005738218382307,0.33799387540443016, ,1.228637933731079
0.018493883362647952,0.02289948377652041,-0.10158332949948444, ,0.019778572870922207,0.022284023123020892,-0.10240934176891058, ,0.0016466679136724904, ,0.04236603075440067,0.01063015923314512,-0.10011619484547744,-0.33277990099333526,-0.21563914471361406,0.10119259700507324, ,0.10922972726113733, ,0.3965257179621025, ,0.0014111731938899017, ,0.25154485517924075,-0.1951380142659049,0.11636017556000001,1.897064918704492,1.0261401132384578,-1.1656687433061688, ,0.15015338854188412,0.10236994774376568,0.10548881801324504,0.0989834420196373,-0.09005738218382307,0.33799387540443016, ,1.230530023574829
0.018493883362647952,0.02289948377652041,-0.10158332949948444, ,0.019846730627270544,0.022291992546063722,-0.10254163311778174, ,0.001765669035046007, ,0.04236603075440067,0.01063015923314512,-0.10011619484547744,-0.33277990099333526,-0.21563914471361406,0.10119259700507324, ,0.10922972726113733, ,0.3965257179621025, ,0.001413687348791718, ,0.25154485517924075,-0.1951380142659049,0.11636017556000001,1.897064918704492,1.0261401132384578,-1.1656687433061688, ,0.15015338854188412,0.10236994774376568,0.10548881801324504,0.0989834420196373,-0.09005738218382307,0.33799387540443016, ,1.232469081878662
0.018493883362647952,0.02289948377652041,-0.10158332949948444, ,0.019914630098098386,0.022299791869008937,-0.10267299603505924, ,0.0018882597355711925, ,0.04236603075440067,0.01063015923314512,-0.10011619484547744,-0.33277990099333526,-0.21563914471361406,0.10119259700507324, ,0.10922972726113733, ,0.3965257179621025, ,0.0014170294078535454, ,0.25154485517924075,-0.1951380142659049,0.11636017556000001,1.897064918704492,1.0261401132384578,-1.1656687433061688, ,0.15015338854188412,0.10236994774376568,0.10548881801324504,0.0989834420196373,-0.09005738218382307,0.33799387540443016, ,1.2343590259552002
0.018493883362647952,0.02289948377652041,-0.10158332949948444, ,0.01998227183226731,0.022307421737236544,-0.10280343359083902, ,0.0020135768395065034, ,0.04236603075440067,0.00581544512413943,-0.067783498982917,-0.2679358352560051,-0.17880522509280317,0.03473049258476566, ,0.10922972726113733, ,0.3965257179621025, ,0.0014212010682147548, ,0.2531434608842052,-0.1941881181223753,0.11725331937000001,1.899161818139337,1.0251836577401,-1.1619483833352338, ,0.15949065808146348,0.08893808955807946,0.07240368872727274,0.14991108208545847,-0.051706560172622956,0.29535728405748174, ,1.2372028827667236
0.018891540936432555,0.02298916902828917,-0.10242514523410967, ,0.02004965637861888,0.022314882795512435,-0.10293294884981329, ,0.0014330937908121468, ,0.03527789030018105,0.00581544512413943,-0.067783498982917,-0.2679358352560051,-0.17880522509280317,0.03473049258476566, ,0.07663518565509315, ,0.3221171982365846, ,0.0014212836565661257, ,0.2531434608842052,-0.1941881181223753,0.11725331937000001,1.899161818139337,1.0251836577401,-1.1619483833352338, ,0.15949065808146348,0.08893808955807946,0.07240368872727274,0.14991108208545847,-0.051706560172622956,0.29535728405748174, ,1.239469051361084
0.018891540936432555,0.02298916902828917,-0.10242514523410967, ,0.020116784285974833,0.022322175687987528,-0.10306154487127356, ,0.0015333316274657122, ,0.03527789030018105,0.00581544512413943,-0.067783498982917,-0.2679358352560051,-0.17880522509280317,0.03473049258476566, ,0.07663518565509315, ,0.3221171982365846, ,0.0014220564011930192, ,0.2531434608842052,-0.1941881181223753,0.11725331937000001,1.899161818139337,1.0251836577401,-1.1619483833352338, ,0.15949065808146348,0.08893808955807946,0.07240368872727274,0.14991108208545847,-0.051706560172622956,0.29535728405748174, ,1.2413668632507324
0.018891540936432555,0.02298916902828917,-0.10242514523410967, ,0.02018365610313508,0.02232930105819788,-0.10318922470911593, ,0.0016397575388150947, ,0.03527789030018105,0.00581544512413943,-0.067783498982917,-0.2679358352560051,-0.17880522509280317,0.03473049258476566, ,0.07663518565509315, ,0.3221171982365846, ,0.0014235475048753623, ,0.2531434608842052,-0.1941881181223753,0.11725331937000001,1.899161818139337,1.0251836577401,-1.1619483833352338, ,0.15949065808146348,0.08893808955807946,0.07240368872727274,0.14991108208545847,-0.051706560172622956,0.29535728405748174, ,1.2434070110321045
0.018891540936432555,0.02298916902828917,-0.10242514523410967, ,0.020250272378877693,0.022336259549064187,-0.1033159914118452, ,0.0017510136587522375, ,0.03527789030018105,0.00581544512413943,-0.067783498982917,-0.2679358352560051,-0.17880522509280317,0.03473049258476566, ,0.07663518565509315, ,0.3221171982365846, ,0.0014257751657860893, ,0.2531434608842052,-0.1941881181223753,0.11725331937000001,1.899161818139337,1.0251836577401,-1.1619483833352338, ,0.15949065808146348,0.08893808955807946,0.07240368872727274,0.14991108208545847,-0.051706560172622956,0.29535728405748174, ,1.2454118728637695
0.019143404334345606,0.02300915844400464,-0.10288246557235625, ,0.020316633661956993,0.022343051802891794,-0.10344184802257891, ,0.0014605046518649692, ,0.03253955413582807,0.0005171799691113015,-0.05351970476982263,-0.03938886253459097,-0.03076281525292748,-0.050328283735115956, ,0.06263743973956719, ,0.04997393509510573, ,0.0014260098244758116, ,0.25439454360982955,-0.19345445849932397,0.11774590957000002,1.8993715080828215,1.025593567239396,-1.1611391346843551, ,0.17770962838664942,0.10650610724856428,0.058561807058823544,0.05212609527619968,0.14741169379358607,-0.016604268472367116, ,1.249222993850708
0.019143404334345606,0.02300915844400464,-0.10288246557235625, ,0.02038274050110302,0.02234967846137023,-0.10356679757905202, ,0.001561786885947213, ,0.03253955413582807,0.0005171799691113015,-0.05351970476982263,-0.03938886253459097,-0.03076281525292748,-0.050328283735115956, ,0.06263743973956719, ,0.04997393509510573, ,0.0014269210799219285, ,0.25439454360982955,-0.19345445849932397,0.11774590957000002,1.8993715080828215,1.025593567239396,-1.1611391346843551, ,0.17770962838664942,0.10650610724856428,0.058561807058823544,0.05212609527619968,0.14741169379358607,-0.016604268472367116, ,1.2513699531555176
0.019143404334345606,0.02300915844400464,-0.10288246557235625, ,0.020448593445020546,0.022356140165572788,-0.10369084311362091, ,0.0016683601936667131, ,0.03253955413582807,0.0005171799691113015,-0.05351970476982263,-0.03938886253459097,-0.03076281525292748,-0.050328283735115956, ,0.06263743973956719, ,0.04997393509510573, ,0.0014285306740135601, ,0.25439454360982955,-0.19345445849932397,0.11774590957000002,1.8993715080828215,1.025593567239396,-1.1611391346843551, ,0.17770962838664942,0.10650610724856428,0.058561807058823544,0.05212609527619968,0.14741169379358607,-0.016604268472367116, ,1.253598928451538
0.019143404334345606,0.02300915844400464,-0.10288246557235625, ,0.020514193042387937,0.022362437555956616,-0.1038139876532679, ,0.001779056765918374, ,0.03253955413582807,0.0005171799691113015,-0.05351970476982263,-0.03938886253459097,-0.03076281525292748,-0.050328283735115956, ,0.06263743973956719, ,0.04997393509510573, ,0.001430852038860612, ,0.25439454360982955,-0.19345445849932397,0.11774590957000002,1.8993715080828215,1.025593567239396,-1.1611391346843551, ,0.17770962838664942,0.10650610724856428,0.058561807058823544,0.05212609527619968,0.14741169379358607,-0.016604268472367116, ,1.2556889057159424
0.019143404334345606,0.02300915844400464,-0.10288246557235625, ,0.02057953984185621,0.022368571272362227,-0.10393623421960546, ,0.0018929515266723014, ,0.03253955413582807,0.0005171799691113015,-0.05351970476982263,-0.03938886253459097,-0.03076281525292748,-0.050328283735115956, ,0.06263743973956719, ,0.04997393509510573, ,0.0014338921670698993, ,0.25439454360982955,-0.19345445849932397,0.11774590957000002,1.8993715080828215,1.025593567239396,-1.1611391346843551, ,0.17770962838664942,0.10650610724856428,0.058561807058823544,0.05212609527619968,0.14741169379358607,-0.016604268472367116, ,1.257930040359497
0.019143404334345606,0.02300915844400464,-0.10288246557235625, ,0.020644634392047802,0.02237454195401331,-0.10405758582888074, ,0.0020093126667623494, ,0.03253955413582807,0.0005171799691113015,-0.05351970476982263,-0.03938886253459097,-0.03076281525292748,-0.050328283735115956, ,0.06263743973956719, ,0.04997393509510573, ,0.0014376530853685429, ,0.25439454360982955,-0.19345445849932397,0.11774590957000002,1.8993715080828215,1.025593567239396,-1.1611391346843551, ,0.17770962838664942,0.10650610724856428,0.058561807058823544,0.05212609527619968,0.14741169379358607,-0.016604268472367116, ,1.2602779865264893
0.019143404334345606,0.02300915844400464,-0.10288246557235625, ,0.020709477241556095,0.02238035023951633,-0.10417804549197926, ,0.0021275599725650235, ,0.03253955413582807,0.0005171799691113015,-0.05351970476982263,-0.03938886253459097,-0.03076281525292748,-0.050328283735115956, ,0.06263743973956719, ,0.04997393509510573, ,0.0014421330002204681, ,0.25439454360982955,-0.19345445849932397,0.11774590957000002,1.8993715080828215,1.025593567239396,-1.1611391346843551, ,0.17770962838664942,0.10650610724856428,0.058561807058823544,0.05212609527619968,0.14741169379358607,-0.016604268472367116, ,1.2622029781341553
0.01914507583184872,0.023009357095596112,-0.10289232679903125, ,0.020774068938943863,0.022385996766860553,-0.1042976162144302, ,0.002239873876680813, ,0.03253955413582807,0.0005171799691113015,-0.05351970476982263,-0.03938886253459097,-0.03076281525292748,-0.050328283735115956, ,0.06263743973956719, ,0.04997393509510573, ,0.0014472797155524705, ,0.2544563254728234,-0.19341584483495283,0.11776794650000001,1.8993715080828215,1.0272332052365811,-1.1621494345681498, ,0.17837770969637368,0.10747105499260563,0.057092514408602156,0.05045208304859433,0.13389073801583393,-0.10734814414778326, ,1.264854907989502
0.01914507583184872,0.023009357095596112,-0.10289232679903125, ,0.020838410032742623,0.022391482173417285,-0.10441630099640965, ,0.002360433750319977, ,0.032339716802945895,0.00011837454638277748,-0.0522227227669602,0.018555771965084965,-0.044236950285848994,-0.11788365328741617, ,0.06142543502998376, ,0.04796703062954373, ,0.0014531332670573902, ,0.2544563254728234,-0.19341584483495283,0.11776794650000001,1.8993715080828215,1.0272332052365811,-1.1621494345681498, ,0.17837770969637368,0.10747105499260563,0.057092514408602156,0.05045208304859433,0.13389073801583393,-0.10734814414778326, ,1.2669529914855957
0.01914507583184872,0.023009357095596112,-0.10289232679903125, ,0.02090250107145126,0.022396807095940253,-0.10453410283274595, ,0.0024817714479279493, ,0.032339716802945895,0.00011837454638277748,-0.0522227227669602,0.018555771965084965,-0.044236950285848994,-0.11788365328741617, ,0.06142543502998376, ,0.04796703062954373, ,0.0014596851026043363, ,0.2544563254728234,-0.19341584483495283,0.11776794650000001,1.8993715080828215,1.0272332052365811,-1.1621494345681498, ,0.17837770969637368,0.10747105499260563,0.057092514408602156,0.05045208304859433,0.13389073801583393,-0.10734814414778326, ,1.2689340114593506
0.01914507583184872,0.023009357095596112,-0.10289232679903125, ,0.020966342603535557,0.02240197217056474,-0.10465102471292295, ,0.0026036411913189935, ,0.032339716802945895,0.00011837454638277748,-0.0522227227669602,0.018555771965084965,-0.044236950285848994,-0.11788365328741617, ,0.06142543502998376, ,0.04796703062954373, ,0.0014669253310139229, ,0.2544563254728234,-0.19341584483495283,0.11776794650000001,1.8993715080828215,1.0272332052365811,-1.1621494345681498, ,0.17837770969637368,0.10747105499260563,0.057092514408602156,0.05045208304859433,0.13389073801583393,-0.10734814414778326, ,1.2709190845489502
0.01969346416934147,0.02284553622519558,-0.10321887412772782, ,0.021029935177426677,0.022406978032807615,-0.10476706962108548, ,0.0020917450440280407, ,0.023174241015619945,-0.013294287054306344,0.005619053018522451,-0.051850792105812046,-0.17837911714397606,0.09758022747934504, ,0.02730123205566564, ,0.18576225149546965, ,0.0014708550147435715, ,0.2588428377453829,-0.1912843705616669,0.11815683350000002,1.8972746086479766,1.0285995702342356,-1.1635086498255356, ,0.23606204367778796,0.10820631876678537,-0.0032415163858363866,-0.18422618262724874,0.09965452847539781,-0.10454918918854203, ,1.273061990737915
0.01969346416934147,0.02284553622519558,-0.10321887412772782, ,0.02109327934152033,0.022411825317567264,-0.10488224053604252, ,0.002216839073087548, ,0.023174241015619945,-0.013294287054306344,0.005619053018522451,-0.051850792105812046,-0.17837911714397606,0.09758022747934504, ,0.02730123205566564, ,0.18576225149546965, ,0.0014755174151082212, ,0.2588428377453829,-0.1912843705616669,0.11815683350000002,1.8972746086479766,1.0285995702342356,-1.1635086498255356, ,0.23606204367778796,0.10820631876678537,-0.0032415163858363866,-0.18422618262724874,0.09965452847539781,-0.10454918918854203, ,1.2749919891357422
0.01969346416934147,0.02284553622519558,-0.10321887412772782, ,0.021156375644176037,0.02241651465912271,-0.10499654043127225, ,0.002341851185305252, ,0.023174241015619945,-0.013294287054306344,0.005619053018522451,-0.051850792105812046,-0.17837911714397606,0.09758022747934504, ,0.02730123205566564, ,0.18576225149546965, ,0.0014808983702026127, ,0.2588428377453829,-0.1912843705616669,0.11815683350000002,1.8972746086479766,1.0285995702342356,-1.1635086498255356, ,0.23606204367778796,0.10820631876678537,-0.0032415163858363866,-0.18422618262724874,0.09965452847539781,-0.10454918918854203, ,1.2768709659576416
0.01969346416934147,0.02284553622519558,-0.10321887412772782, ,0.02121922463371561,0.022421046691133897,-0.10510997227492598, ,0.0024666553390190996, ,0.023174241015619945,-0.013294287054306344,0.005619053018522451,-0.051850792105812046,-0.17837911714397606,0.09758022747934504, ,0.02730123205566564, ,0.18576225149546965, ,0.0014869832897632083, ,0.2588428377453829,-0.1912843705616669,0.11815683350000002,1.8972746086479766,1.0285995702342356,-1.1635086498255356, ,0.23606204367778796,0.10820631876678537,-0.0032415163858363866,-0.18422618262724874,0.09965452847539781,-0.10454918918854203, ,1.278723955154419
0.01969346416934147,0.02284553622519558,-0.10321887412772782, ,0.021281826858422555,0.02242542204664129,-0.10522253902983283, ,0.002591151287558247, ,0.023174241015619945,-0.013294287054306344,0.005619053018522451,-0.051850792105812046,-0.17837911714397606,0.09758022747934504, ,0.02730123205566564, ,0.18576225149546965, ,0.0014937573265594967, ,0.2588428377453829,-0.1912843705616669,0.11815683350000002,1.8972746086479766,1.0285995702342356,-1.1635086498255356, ,0.23606204367778796,0.10820631876678537,-0.0032415163858363866,-0.18422618262724874,0.09965452847539781,-0.10454918918854203, ,1.283808946609497
0.020105179504016767,0.022734213618133752,-0.10355309653094733, ,0.02134418286654081,0.022429641358065553,-0.10533424365350379, ,0.0021909766466441634, ,0.031953637230853996,0.0005225028320322086,-0.05079746233271973,-0.034806220145764774,-0.08839719980645316,-0.09805419266170383, ,0.06001408268843722, ,0.09500105086811844, ,0.0014980086638770862, ,0.26187787176495314,-0.18959309206221173,0.11853923905000001,1.8964358488740383,1.0296926622323592,-1.164399993055107, ,0.16976197058760426,0.09926458322015773,0.05550108543554008,0.0699660905005745,0.0732843909181621,-0.034454342406489244, ,1.2858390808105469
