NicholasDascanio/dvrk_moveit_final/test/execution/third_experiment_notsharpbends/thirdexp_600vel5.0/thirdexp_600vel5.0_4.csv
Current Position (x),Current Position (y),Current Position (z), ,Planned Position (x),Planned Position (y),Planned Position (z), ,Position Error,,Cartesian linear Velocity(x),Cartesian linear Velocity(y),Cartesian linear Velocity(z),Cartesian Angular Velocity(x),Cartesian Angular Velocity(y),Cartesian Angular Velocity(z), ,Total Linear Velocity, ,Total Angular Velocity, ,MSE, ,Joint 1 Position,Joint 2 Position,Joint 3 Position,Joint 4 Position,Joint 5 Position,Joint 6 Position, ,Joint 1 Velocity,Joint 2 Velocity,Joint 3 Velocity,Joint 4 Velocity,Joint 5 Velocity,Joint 6 Velocity, ,Time Stamp
0.009941649355210119,0.020279998390998328,-0.07946951033761299, ,0.009918092416746986,0.02018332638145933,-0.07947931296265426, ,9.998248964575518e-05, ,1.5439103088701687e-05,-2.419701070648013e-05,1.0229631948371467e-06,-0.09225019039877831,3.3245624658338074e-06,0.09507033172026055, ,2.8721206190044725e-05, ,0.0922501904586845, ,8.331874137146265e-06, ,0.21310881366422535,-0.21859195400492476,0.09274695692000001,1.9094366253700787,0.9723053323308741,-1.1397394120807025, ,0.00022603237612351607,0.0001947987660464126,-5.086906238558351e-06,-0.0010912053295748427,0.0,0.13146494170074252, ,0.02124619483947754
0.009935637022934585,0.02027918030619049,-0.07946045963216072, ,0.009949098814621997,0.020203105293461157,-0.07958870154280144, ,0.00014971511293782288, ,-0.0006931204758519299,0.0002667838286279265,-0.0002568496768906805,-0.3283732207783529,0.14527474540467591,0.42292010307791267, ,0.0007858507248717326, ,0.35907342393547076, ,1.1349891026526277e-05, ,0.21310881366422535,-0.21859195400492476,0.09274306805000002,1.9094366253700787,0.9731251513294669,-1.1311782218669975, ,0.0002435569189193854,0.00040433795190769937,0.0013304115671344688,0.0008585770087292018,0.15597220568950676,0.5330173180058133, ,0.039663076400756836
0.009911998650051834,0.020287152483926162,-0.0794579339182711, ,0.009980208096298808,0.020222603791958133,-0.07969766651703705, ,0.0002574699615550841, ,-0.0006566631254413171,0.0004124546553805412,-0.0008135699135514534,0.011350473270163473,0.16561098074161068,0.08827211298774633, ,0.0011239311844128, ,0.16599948851021945, ,1.5848986379333194e-05, ,0.2131242591299738,-0.2185842312720505,0.09277547530000001,1.9096463153135634,0.9781807018207882,-1.1262343441481626, ,0.0006078754713527739,0.0005898176418167993,0.002085195905223197,0.0007304637220142365,0.18028084540805478,0.056136231944281856, ,0.05902409553527832
0.009920814654537691,0.020304927450073666,-0.0795211100871006, ,0.0100114197689651,0.02024182354606681,-0.07980621026964026, ,0.0003057343676223827, ,0.0011219266583560887,0.001070240370707304,-0.004945958933359298,0.2163407294369439,-0.0011297858723304326,-0.22472201979706993, ,0.005183304317546714, ,0.216343679423427, ,1.9354807899072496e-05, ,0.213131981862848,-0.2185842312720505,0.09285066012000001,1.909856005257048,0.9794104303186771,-1.128298928903258, ,0.0006545223703479224,0.0005898176418167993,0.005176734325641859,-0.000756595591436155,0.0,-0.31287327410780663, ,0.07953619956970215
0.009959707047965921,0.020325484420588905,-0.07964713434254264, ,0.010042733341076766,0.020260766220746025,-0.07991433517746786, ,0.000287190001433487, ,0.0031287037868243197,0.001526716135410785,-0.00796964823655465,-0.006392492201914767,-0.24181173138191633,-0.15956118033300934, ,0.008696835203580158, ,0.24189621195529398, ,2.115561409989484e-05, ,0.21313970459572223,-0.21856878580630207,0.09296473364,1.9094366253700787,0.9769509733228992,-1.1358498192331679, ,0.0004552723799442844,0.000504246356292941,0.00656316914709518,0.021334295142550436,-0.26697238179642746,-0.09320889231950358, ,0.09842801094055176
0.01001290780117031,0.020364293696791005,-0.07984085639107162, ,0.010074148322357233,0.020279433476801254,-0.08002204360996527, ,0.0002092378232117014, ,0.0011062719053967734,0.0010106105170981578,-0.004368020000156881,-0.1396668478786319,0.003589659790007653,0.13351617439065816, ,0.004617875038121986, ,0.13971297023601928, ,2.111822187751989e-05, ,0.21317059552721915,-0.21853789487480518,0.09315528827000001,1.9094366253700787,0.9751746988259485,-1.1342380290048335, ,0.0016518157441413632,0.0010550496216478425,0.004615708930744713,0.013612357336453534,0.0019403265741638794,0.20380778452824333, ,0.12447214126586914
0.010018445317964954,0.020372063095402376,-0.07987612606790193, ,0.010105664223795567,0.020297826970889037,-0.08012933792917373, ,0.0002779107525911552, ,0.0002295548321791133,0.0007933109699051308,-0.0029218554564577853,0.004654029980688653,0.10340022927609444,0.04639155487846039, ,0.0030363262381339616, ,0.10350491490357878, ,2.204500706940817e-05, ,0.21320148645871603,-0.21850700394330827,0.09322917680000001,1.9094366253700787,0.9764044273238375,-1.1327087491937438, ,0.001085208379658185,0.001467444730771289,0.0033136699646349075,0.011085318167187415,0.05048329016057313,0.04243791837480986, ,0.15282106399536133
0.010042116390491553,0.020394042340696805,-0.07998030850165497, ,0.010137280557645081,0.020315948355520842,-0.08023622048974101, ,0.0002839821030924983, ,0.0007550968939345454,0.0008180497785814297,-0.0033566367446626255,0.038943383010917966,0.01313876248818114,-0.03993901377951468, ,0.0035364370480875287, ,0.04110005060373746, ,2.2819787952315693e-05, ,0.21323237739021295,-0.21849155847755983,0.09330954678000002,1.9094366253700787,0.9764044273238375,-1.1323820342331816, ,0.0008527395702809929,0.00038844233263038815,0.0036284308701594534,0.009002299801001125,0.01318297487362351,-0.04850081871573424, ,0.17443609237670898
0.010072791492584807,0.02041971572042019,-0.08010143376662027, ,0.010168996837422168,0.020333799279067654,-0.0803426936389299, ,0.0002735752716471657, ,0.0014115608077088376,0.0011255113310378478,-0.0050105114272488045,0.024470764680273687,0.0036461481282705635,-0.028061286012485, ,0.005325833684292541, ,0.02474091180721993, ,2.331302047540274e-05, ,0.2132864365203325,-0.21846839027893716,0.0934365832,1.9094366253700787,0.9764044273238375,-1.1331171428944464, ,0.004147155689537166,0.0010165551715627678,0.005336285266331659,0.007282703630800495,0.006820032048437193,-0.03166816378361028, ,0.19950103759765625
0.01008874463530144,0.020433201591068362,-0.08016041070439504, ,0.010200812577904717,0.02035138138576403,-0.080448759716628, ,0.0003199983165754111, ,0.001222912013317109,0.0010021803981052966,-0.0046310719998544,0.00156794954641888,0.003925980612079403,-0.005070889773949753, ,0.004893537290191752, ,0.004227503686148706, ,2.4403922775370923e-05, ,0.21332505018470363,-0.21846839027893716,0.09349880512000001,1.9094366253700787,0.9764044273238375,-1.1331988216345872, ,0.002798987089614918,0.0013512082309551714,0.004908724659476118,0.006757330199932494,0.005712564837523988,0.00016604831307014557, ,0.21615314483642578
0.010115755917658582,0.020456961861624563,-0.08027040332818978, ,0.010232727295130667,0.020368696315712375,-0.08055442105535694, ,0.00031959220748962476, ,0.001245527776445132,0.0011947031059899261,-0.00540609193030916,0.001654307679845198,0.00449460278263236,-0.004908126842978559, ,0.005674899550856574, ,0.0047893823668227415, ,2.531262188910989e-05, ,0.21336366384907476,-0.2184529448131887,0.09361417493000002,1.9094366253700787,0.9764044273238375,-1.1331171428944464, ,0.0009815081450160379,0.001024114793245678,0.0056990381109123436,0.0060558696641897685,0.004522259051986959,-0.00018796857839525113, ,0.2342531681060791
0.010152417190711627,0.020488463386786775,-0.08041915292869521, ,0.01026474050639666,0.020385745704887263,-0.08065967998028091, ,0.000284641374304225, ,0.001522472224400569,0.0013152740096563447,-0.006136423769376767,-0.001706543863598785,-0.0009948792355681665,-0.003982946849418487, ,0.006457829671950234, ,0.0019753652701716023, ,2.5790166236187507e-05, ,0.21342544571206856,-0.2184220538816918,0.09377102602000001,1.9094366253700787,0.976541063823603,-1.133228560798143, ,0.002163549193769679,0.0014446594859021825,0.006435883442424243,0.005374220496791871,0.0,0.002020086045574763, ,0.2548551559448242
0.01016711759326252,0.02049929397264547,-0.08047225122800085, ,0.010296851730256774,0.020402531185139544,-0.08076453880921683, ,0.00033410479415992966, ,0.0012940407663231037,0.0009065224392818833,-0.004550966310869888,-0.0020999577940158448,-0.00244628676038807,-0.004107579845298974, ,0.00481742865027603, ,0.0032239943701138415, ,2.6586988877080023e-05, ,0.21346405937643967,-0.21840660841594337,0.09382676649,1.9094366253700787,0.976541063823603,-1.133228560798143, ,0.0035607000387459175,0.0020295095031571163,0.004776255328335833,0.005127183334910678,0.0,-0.0003319053819386361, ,0.2722752094268799
0.010200679834604811,0.020523571080795302,-0.08059772710550955, ,0.010329060486520495,0.020419054384200788,-0.08086899985264302, ,0.000317795901469268, ,0.0016169567731756306,0.0012703149941254914,-0.006006390112123567,-0.0003683868002485123,-0.0026498471139492783,-0.004997787408826206, ,0.006348619658605668, ,0.0026753300253251817, ,2.7160076479821246e-05, ,0.21354900943805613,-0.2183525492858238,0.09395898807000001,1.9094366253700787,0.9766777003233683,-1.1332582999616987, ,0.0036533439861167255,0.0015937489515421915,0.0063109395879556275,0.004635527562006198,0.0,-0.0003305615596731646, ,0.29590415954589844
0.010227169569724689,0.02054409424257818,-0.0806992091066487, ,0.010361366296252306,0.020435316925687196,-0.0809730654137091, ,0.00032378780551079096, ,0.0014673090834854605,0.001045636038149052,-0.005457280734950817,-0.001561983147028877,-0.0023804472785673774,-0.004790075404760083, ,0.005747022158546139, ,0.0028471592433930632, ,2.7703549885248642e-05, ,0.2136030685681757,-0.21832165835432688,0.09406528385000001,1.9094366253700787,0.9766777003233683,-1.1332582999616987, ,0.0028724456830867954,0.0022310668878486512,0.005897375609033692,0.004338924300241337,0.0,-0.0003190622958492459, ,0.3129401206970215
0.010252872522968264,0.020563360351360433,-0.08080010740308811, ,0.010393768681769484,0.020451320429104164,-0.08107673778824435, ,0.0003300439996967363, ,0.0014383642024602791,0.0011190135991381435,-0.005391847601448697,-0.0005702105016990142,-0.0022306951328810373,-0.0044385849579253595, ,0.00569149396654546, ,0.0023024196478948853, ,2.822427279318089e-05, ,0.21365712769829528,-0.21827532195708155,0.09417157963000002,1.9094366253700787,0.9768143368231338,-1.1333697178653952, ,0.003108499839913753,0.0016578500052401727,0.005658547609236235,0.0040564590254354325,0.0,-0.00030206076564975827, ,0.33458900451660156
0.010290814964120794,0.020586625124738932,-0.08092762068036455, ,0.010426267166640813,0.020467066509850456,-0.08118001926476787, ,0.0003103974983313721, ,0.001510378261263237,0.0009535551554504121,-0.005135717993868193,-0.0020794187931539253,-0.0038383821701932492,-0.0041527431212902725, ,0.005437472688586505, ,0.004365450335189112, ,2.8568047446795182e-05, ,0.21378069142428288,-0.21820581736121353,0.0943050975,1.9094366253700787,0.9768143368231338,-1.1334513966055357, ,0.004640424484426843,0.0029131252949474726,0.005379537831813577,0.0037048928241588527,0.0,0.0, ,0.3529651165008545
0.010316877224408235,0.020606137810850647,-0.08102471895956023, ,0.01045886127568546,0.02048255677922234,-0.08128291212449733, ,0.00031952379037505945, ,0.0014539521068261934,0.0010894258806323238,-0.005758749391981372,0.003188513103100724,0.0034836140799355663,-0.002752029576415046, ,0.006038544529767224, ,0.004722518028881658, ,2.8928806772540285e-05, ,0.2138501960201509,-0.21815175823109395,0.0944088007,1.9096463153135634,0.9770876098226646,-1.133755911153069, ,0.002848108635385585,0.0027225579742789826,0.0060565823269962,0.0,0.006889634822173274,-0.005618035228055294, ,0.3749082088470459
0.010351829385210558,0.020628809438747838,-0.08115007169173062, ,0.010491550534971293,0.02049779284441778,-0.08138541864135809, ,0.0003034395069519863, ,0.001299666446780593,0.0007767680465335734,-0.004267095945921216,0.001990614273578712,0.0014216364131884377,-0.0012352011687399539, ,0.004527759852587166, ,0.0024461385616489765, ,2.9165511420887118e-05, ,0.21394286881464158,-0.21808225363522593,0.09453972599,1.9096463153135634,0.9770876098226646,-1.1339192686333504, ,0.0048700979791202895,0.0024705400293596365,0.004520094074914871,0.0,0.006841503882442242,-0.003561922263112826, ,0.39354705810546875
0.010365078741553756,0.02063374028227793,-0.08119276595373581, ,0.010524334471813508,0.020512776308541033,-0.08148754108199315, ,0.0003562120812127445, ,0.0013626323663412008,0.0006198060785711689,-0.004380595629089787,-0.0005529797712857568,0.00028588883992475245,-0.0004915399715306819, ,0.004629313621524787, ,0.0006225089903992709, ,2.981229031481158e-05, ,0.21399692794476116,-0.2180436399708548,0.09458379985000001,1.9094366253700787,0.9770876098226646,-1.1339192686333504, ,0.005331543490721982,0.004494595171867809,0.004595733271783036,-0.0011497366026676397,0.006377838265044417,-0.0032806342541669272, ,0.408581018447876
0.010391214662793115,0.02064783524550633,-0.08127443795515843, ,0.01055721261477341,0.02052750877060643,-0.08158928170577161, ,0.0003757131457956484, ,0.0016385880324030632,0.000980683109951227,-0.005254813455110117,0.0008058993491742774,-0.001323162984140912,1.0894553917947556e-05, ,0.00559104413773353, ,0.001549267580795217, ,3.0505294472777017e-05, ,0.2140973234721261,-0.21798958084073525,0.09466935499000001,1.9094366253700787,0.9770876098226646,-1.1339192686333504, ,0.006307701463187749,0.002615271996190608,0.0055578546824843,-0.0011454576001292455,0.005688614633251776,-0.002871682550265703, ,0.4245891571044922
0.010428708452554194,0.020673556547989986,-0.08141144164316227, ,0.010590184493656717,0.02054199182554298,-0.0816906427647987, ,0.00034833468728471737, ,0.0015438019285016766,0.0011298718682803872,-0.005878259095513467,0.002231506942581045,0.002456097462252206,-0.0006816598406375328, ,0.006181736392565095, ,0.003318438030215443, ,3.1011567926672655e-05, ,0.21420544173236522,-0.21792007624486723,0.09481453947000001,1.9094366253700787,0.9773608828221955,-1.1340604257006026, ,0.0036016585981243506,0.0024670868891522326,0.0061931615552099535,-0.001081483564272348,0.006841832589942636,-0.004227458032030416, ,0.44031214714050293
0.010446619587657711,0.0206851815572255,-0.0814790202184907, ,0.010623249639512259,0.020556227064198317,-0.08179162650392424, ,0.0003815103225111957, ,0.0018331309823993705,0.0011704737233745998,-0.006899490877503676,0.000345473617124407,0.0019124605009498638,-0.0013232135890519484, ,0.007234179449287895, ,0.0019434097749260846, ,3.163501549255029e-05, ,0.21425177812961058,-0.21787373984762187,0.09488583542000001,1.9094366253700787,0.9774975193219609,-1.1341718436042991, ,0.004412206435526134,0.004699154548231448,0.007227228457350273,-0.0010535313090609694,0.007125615426961994,-0.004528731261422546, ,0.4558839797973633
0.010487150081640655,0.020710866340162136,-0.08161764271969614, ,0.010656407584630687,0.02057021607334315,-0.08189223516075278, ,0.00035189715622624315, ,0.0022621180147045002,0.0013024001640992927,-0.007327053030395856,0.002731046286684122,-0.002641106169919902,-0.0038034253381708715, ,0.007778118680640557, ,0.003799214985111699, ,3.208013725960363e-05, ,0.21437534185559817,-0.21780423525175385,0.09503101990000001,1.9094366253700787,0.9774975193219609,-1.1343352010845802, ,0.008356905569342559,0.004381606580474432,0.007721188327678139,-0.0010064853597665485,0.006461218671627635,-0.007764387807288767, ,0.4755401611328125
0.0105075742105656,0.020722770236302437,-0.08169019333650165, ,0.010689657862542879,0.02058396043567551,-0.08199247096565211, ,0.0003792022971347765, ,0.0017968963763963014,0.0010987127090532941,-0.0058974640575513975,0.00039148589650533574,-0.0046684146926917755,-0.0024640611399760915, ,0.006262275027068995, ,0.004684799869387304, ,3.261301203811644e-05, ,0.21450662831446,-0.2177192851901374,0.09516324148000001,1.9092269354265943,0.9776341558217264,-1.134364940248136, ,0.007158864185352963,0.005568810754600677,0.0057775885092491855,-0.0005836485179029954,0.0018395579565354651,-0.005300272075010568, ,0.4902021884918213
0.010542205485505074,0.020741555777873746,-0.0818044693673763, ,0.010723000008018662,0.020597461729824833,-0.08209233614176288, ,0.0003692113674438708, ,0.0018039922578049314,0.0011608249531889461,-0.006688103730975394,-0.00013247275753563802,-0.0026863230507625895,-0.0034987867631970353, ,0.007023719396050304, ,0.002689584946182801, ,3.306808460592711e-05, ,0.21456068744457954,-0.21768067152576626,0.09522675969000001,1.9092269354265943,0.9776341558217264,-1.134364940248136, ,0.004245320741185661,0.004170641207834755,0.0069801978615249794,-0.0005760307270408032,0.0018395579565354651,-0.005093091675203688, ,0.506864070892334
0.010578660870397837,0.02076375820980366,-0.08193005953175285, ,0.010756433557065348,0.02061072153035634,-0.0821918329050078, ,0.000351494882361779, ,0.001756314887807242,0.0010879425578083938,-0.005944475742648889,0.014586113353436264,0.0008091800283647403,-0.014353050821595213, ,0.006293254551435616, ,0.014608540914642894, ,3.342154072590419e-05, ,0.21467652843769292,-0.21760344419702402,0.09535898127,1.9092269354265943,0.9777707923214919,-1.1348030731123948, ,0.005916393739150033,0.0032054118459789453,0.006278601308632244,-0.0005610934388365595,0.007486361481263974,-0.0225987218246769, ,0.5234401226043701
0.01060070508433008,0.0207733486145901,-0.08200129865917305, ,0.010789958046926168,0.02062374140777518,-0.08229096346410117, ,0.000376967769705057, ,0.001914250991308529,0.000718055891256901,-0.006135714890521334,-0.01078662555560085,-0.0011977806722090769,0.005532312501950049, ,0.006467376464878139, ,0.010852924063096191, ,3.385301885148617e-05, ,0.21475375576643516,-0.21752621686828177,0.09543286980000001,1.9092269354265943,0.9777707923214919,-1.1348847518525353, ,0.007235871315544258,0.00797119325161604,0.0063868530553328,-0.0005521975108585433,0.006668671313057174,0.006833974055840542, ,0.5385332107543945
0.010658056344745693,0.02080039174266337,-0.08218906420097731, ,0.010823573016079089,0.020636522928530836,-0.08238973002055766, ,0.00030743377804389686, ,0.0021143889812952547,0.0010870288373095716,-0.0068926445991183555,-0.003043707487960629,-0.002236572183866222,-0.0005724078654248311, ,0.007291146825234067, ,0.0037770881441639105, ,3.399275025313506e-05, ,0.21496999228691346,-0.21735631674504882,0.09562990588,1.9090172454831096,0.9780440653210227,-1.1352709451402094, ,0.007547109260196207,0.005708874181778482,0.007227228457350273,-3.840029320792418e-05,0.005777177791934769,-0.0013210605006020292, ,0.5627260208129883
0.010677913603133745,0.020808984351100433,-0.08225009197744795, ,0.010857278004235438,0.02064906765502114,-0.08248813476870165, ,0.0003382444508566781, ,0.0017235765566362693,0.0007578135351053035,-0.0052578120617634725,-0.0017534670877988941,-0.001828006543680976,-0.0013153903278322894, ,0.005584763663522423, ,0.0025330319251032542, ,3.436559485939801e-05, ,0.2150472196156557,-0.21729453488205502,0.09569342409,1.9090172454831096,0.9780440653210227,-1.1352709451402094, ,0.007135967423137623,0.005227390256671655,0.005519338711018712,-3.840029320792418e-05,0.005777177791934769,-0.002498467897983525, ,0.5757172107696533
0.010694374258145707,0.02081605240126357,-0.08229852057471872, ,0.01089107255233805,0.020661377145596658,-0.08258617989567711, ,0.0003812643945978254, ,0.0017861913246058493,0.000651138697783111,-0.005094363650125317,-0.002001687302852467,-0.0029826577764375693,-0.0020672416602765882, ,0.005437554786074898, ,0.0035920740580499175, ,3.487539641947786e-05, ,0.21511672421152372,-0.2172481984848097,0.09574397940000001,1.9090172454831096,0.9780440653210227,-1.1352709451402094, ,0.008288787433737527,0.0060528278047265885,0.005343445662529353,-3.840029320792418e-05,0.005777177791934769,-0.003299951293384509, ,0.5890350341796875
0.010726512831697219,0.020827977389774096,-0.08239469217632689, ,0.010924956202560511,0.020673452954564974,-0.08268386758145607, ,0.0003832492497682304, ,0.001967512226085395,0.0007804693535847534,-0.005945662963876142,-0.0026126996964335168,-0.0032510591284044526,-0.002510821776295902, ,0.006311192030962846, ,0.004170800610183825, ,3.536699173690502e-05, ,0.21524801067038554,-0.21713235749169632,0.09584379373000002,1.9090172454831096,0.9780440653210227,-1.1352709451402094, ,0.008190565903459084,0.006750088897817591,0.0062173347072599534,-3.840029320792418e-05,0.005380050463954271,-0.0035602267141376627, ,0.6080741882324219
0.010767891219396619,0.020843566239231635,-0.08251759415546928, ,0.010958928498305067,0.02068529663219478,-0.08278119999884827, ,0.00036198418626770686, ,0.0019336411724978075,0.0006777966178511142,-0.005703758509558448,-0.001348682830917556,-0.0024088502075437046,0.0006540523574404193, ,0.006060630130152269, ,0.002760706189367311, ,3.5761527061420094e-05, ,0.21544107899224116,-0.2170010710328345,0.09597342273000001,1.9088075555396251,0.9783173383205537,-1.135493780947602, ,0.00866764565248308,0.0073417664794458316,0.0059281025381466325,-0.004544795797450335,0.007870163198810107,-0.006002287995872074, ,0.6215081214904785
0.01078821547995566,0.02085177606890092,-0.08258301150766505, ,0.010992988984201875,0.020696909724720172,-0.08287817931351073, ,0.00039120302428398646, ,0.002032276175897322,0.0010489991065464395,-0.006307207387165291,0.004330486243927501,0.002182758496277973,-0.008998585714138, ,0.006709054374900198, ,0.0048494881978054846, ,3.6235844687191294e-05, ,0.21552602905385762,-0.2169392891698407,0.09604212610000001,1.9085978655961409,0.9784539748203192,-1.1356051988512985, ,0.008086229315661463,0.005107609601442409,0.006673151034771681,0.005214214205369195,0.009945209225961617,-0.00781659719720293, ,0.636012077331543
0.010832069435849963,0.02087256344761062,-0.08271735001349587, ,0.011027137206106976,0.020708293774345025,-0.08297480768395621, ,0.0003623815842819475, ,0.002290017609236921,0.0010624744853558478,-0.006885914333771101,-0.0016817596663680258,-0.004304333112204907,-0.007553175693392979, ,0.007334088143367358, ,0.0046212101915972924, ,3.659351136966369e-05, ,0.21570365190996477,-0.21682344817672733,0.09618342171000001,1.9085978655961409,0.9785906113200844,-1.135716616754995, ,0.009264452639961583,0.006360664379383496,0.007227228457350273,0.005214214205369195,0.004173499799430074,-0.0032622354680294898, ,0.6520950794219971
0.010854422714341904,0.020882485845079086,-0.08278340510140823, ,0.011061372711101273,0.020719450319247056,-0.08307108726156344, ,0.0003900896167723448, ,0.0021490269093683927,0.0009820719731207612,-0.0061254761899360265,0.006278825036370292,0.0025818617725662197,-0.010035873416629336, ,0.006565381982112842, ,0.006788935514952044, ,3.702417065321578e-05, ,0.2158040474373297,-0.21676166631373353,0.09625342137000001,1.9085978655961409,0.9787272478198499,-1.1358280346586915, ,0.01002919710747901,0.005476944647698848,0.006514851337423314,0.005214214205369195,0.012493400204754361,-0.010104777165561988, ,0.6654140949249268
0.010879651662732338,0.02089379064307692,-0.08285644912524649, ,0.011095695047488984,0.020730380893582125,-0.0831670201905853, ,0.00041210663298804775, ,0.0023676905301347616,0.0011274562313578708,-0.007094248131626932,0.005086447128621642,0.0020862394798225057,-0.010084467089907257, ,0.007563429946341126, ,0.005497665103487473, ,3.7505105994145136e-05, ,0.21591216569756885,-0.21669988445073973,0.09632990248000001,1.9085978655961409,0.9787272478198499,-1.1358280346586915, ,0.010054791363641425,0.006291003283365244,0.007510047864214994,0.005214214205369195,0.011983151852445749,-0.009737958169470751, ,0.6791210174560547
0.01092433158988065,0.02091414946763361,-0.082991105077247, ,0.011130103764796229,0.020741087027488503,-0.0832626086081589, ,0.0003821085754809712, ,0.002227356276705427,0.0010934614435603078,-0.006486012114215984,0.0033381472789694184,-0.0008750408967137843,-0.008736788839206531, ,0.006944431370363491, ,0.00345092920072499, ,3.7873022404981924e-05, ,0.21610523401942444,-0.21657632072475214,0.09647249438000001,1.9085978655961409,0.9790005208193808,-1.136050870466084, ,0.00973594375893857,0.005031933685978759,0.006871790992234686,0.005214214205369195,0.008416893618296143,-0.0068959289039104005, ,0.695930004119873
0.010946214289450647,0.02092328685784151,-0.08305170278478653, ,0.01116459841376988,0.02075157024709115,-0.08335785464431525, ,0.0004134092176707722, ,0.0022762773313486835,0.0009038589878174063,-0.0064004439749314225,0.0014523830646453806,-0.001652434097503718,-0.009172081467526062, ,0.00685303455669867, ,0.0021999873344904844, ,3.8319703311114144e-05, ,0.21620562954678937,-0.2165222615946326,0.09653601259000001,1.9085978655961409,0.9790005208193808,-1.136050870466084, ,0.010512783024739594,0.0069806501064180555,0.006749496406779663,0.005214214205369195,0.008416893618296143,-0.0069197653442918325, ,0.7094631195068359
0.010969421880662506,0.02093361485959544,-0.08311887270517151, ,0.011199178546375399,0.020761832074505857,-0.08345276042198684, ,0.00044020274662113015, ,0.0022596979105719154,0.0008573974759774925,-0.0065909288959680274,0.002083711963572785,-0.0003258900110391517,-0.0016733431223335605, ,0.007020093218082077, ,0.0021090394517244934, ,3.894184688139357e-05, ,0.21630602507415428,-0.21644503426589035,0.09660730854,1.9088075555396251,0.9791371573191462,-1.1361622883697806, ,0.01027206633281552,0.007272392222729991,0.006943684184829993,-0.0038209224456197764,0.011710078531939786,-0.009626322465526504, ,0.7208590507507324
0.011016336176137613,0.020949067721618763,-0.0832584752225861, ,0.011233843715796379,0.020771874027843487,-0.08354732805701894, ,0.0004026699577594763, ,0.002574381435312273,0.0009655280141792503,-0.007511149092524873,-0.0009584776342371702,-0.003063834919146938,0.006065847190737095, ,0.007998565172003204, ,0.003210255422819335, ,3.943318082462355e-05, ,0.2165299843275068,-0.21630602507415428,0.09675378931,1.9081784857091717,0.9794104303186771,-1.136466802917314, ,0.011769433406730843,0.007831163458347156,0.007901196190476193,-0.010798732231178868,0.011978675214018162,-0.008046479584342278, ,0.7341489791870117
0.01104556357697413,0.02096115122788033,-0.08334319253108527, ,0.011268593476432474,0.02078169762121432,-0.083641559658177, ,0.0004134838274066018, ,0.002787974184431441,0.0011489586236914156,-0.008409184543423506,-7.728798088413168e-05,-0.0021599466578827715,0.005569968527743127, ,0.008933492634874887, ,0.002161319260673276, ,3.993856580307744e-05, ,0.21666127078636863,-0.21622107501253782,0.09684323332000001,1.9081784857091717,0.9795470668184426,-1.1365782208210105, ,0.012000602240412817,0.008053913870932754,0.008849339733333334,-0.010798732231178868,0.013211652911225006,-0.009130679450031135, ,0.7451820373535156
0.011074543749885158,0.020972593521349583,-0.08343212700452024, ,0.011303427383898161,0.02079130436473223,-0.08373545732715776, ,0.0004210258434554938, ,0.0031744616567509257,0.001676569421564523,-0.009725659252998484,0.00943860324695823,0.006649980503681643,-0.02946202204826112, ,0.010367089260778171, ,0.011545968341270094, ,4.0448100771158985e-05, ,0.21678483451235622,-0.21613612495092135,0.0969365662,1.907968795765687,0.9796837033182081,-1.1366079599845664, ,0.012150321213073861,0.008377025729075935,0.01030991036893204,0.02408423007986403,0.014819163856295125,-0.01208403445811774, ,0.7562551498413086
0.01112244041856393,0.020992239804404938,-0.08357420888384663, ,0.011338344995021584,0.02080069576451897,-0.08382902315859682, ,0.00038501197379777656, ,0.0028083480323600678,0.0011711890395423505,-0.007955837707306181,0.010126489613902424,0.008103683968228633,-0.028489186095109423, ,0.008517855132731459, ,0.012969790047796172, ,4.084125924953142e-05, ,0.21698562556708606,-0.2159893930263111,0.09708563955,1.907968795765687,0.9798203398179735,-1.1367193778882627, ,0.012592481629308755,0.009442392407523098,0.008450297888594166,0.021974249154335997,0.01737542095120438,-0.014168490714775534, ,0.7712399959564209
0.011150594282572302,0.02100306293463263,-0.08365668471611472, ,0.011373345867842645,0.02080987332270829,-0.08392225924007905, ,0.00039682530498295004, ,0.002715674486508719,0.0010473194862926703,-0.007533498119826736,0.0046592832692083745,0.0023730794265298385,-0.02342393921920132, ,0.008076221885540026, ,0.005228805052989606, ,4.1253698786177515e-05, ,0.21710918929307363,-0.21589672023182038,0.09717249098000001,1.907968795765687,0.9799569763177389,-1.1368307957919592, ,0.01234994033816642,0.009365582214761517,0.007960425547226388,0.018568796522296482,0.011678508576328706,-0.009523040667090737, ,0.7825381755828857
0.011177029755696639,0.021010072012027307,-0.08372825985103277, ,0.01140842956161208,0.020818838537450323,-0.0840151676521474, ,0.0004152495614891329, ,0.0025923246755146703,0.0006621916111829158,-0.006507969652532122,-0.0009747106087596815,-0.0031397263443905432,-0.020055852044994812, ,0.007036498699742815, ,0.003287541728142191, ,4.170216768663759e-05, ,0.21724047575193545,-0.21578860197158126,0.09724767580000002,1.907968795765687,0.9800936128175044,-1.1369422136956555, ,0.013346967870389699,0.010846831861322292,0.00683053667238422,0.01614114694021188,0.007337622786451427,-0.005983339374068875, ,0.7940239906311035
0.011202729316575774,0.021016679814482464,-0.08378794651995332, ,0.011443595636789497,0.020827592902915804,-0.08410775046831194, ,0.00044276970280822224, ,0.0025000084109036325,0.0004724076108413429,-0.005960581198959047,0.00011412388073851064,-0.0036045759947016987,-0.00359364785761595, ,0.006480874881893169, ,0.003606381127645006, ,4.220889583581758e-05, ,0.21738720767654574,-0.21568820644421632,0.09731119401,1.9081784857091717,0.9802302493172698,-1.137053631599352, ,0.014505799687935,0.010134006004004995,0.0062810770977918,-0.0026609041571958193,0.01246950868000885,-0.010168048212856226, ,0.8098101615905762
0.011265353286967556,0.021030594550492113,-0.08394758003584434, ,0.011478843655042722,0.02083613790930015,-0.08420000975505997, ,0.0003835521942419461, ,0.0027272855823952708,0.0008244327014552057,-0.007530173231051388,0.008078166306040328,0.006044163240190809,-0.006416481459059269, ,0.00805116667426608, ,0.010089036422297427, ,4.254645754365966e-05, ,0.2177270079230116,-0.2154256335264927,0.09747971171000001,1.9081784857091717,0.9806401588165661,-1.1374695640505819, ,0.01361115053908072,0.010212432497813739,0.007980366492985972,-0.002877490242186688,0.022035345435830807,-0.01793819577293637, ,0.8223040103912354
0.011294624280525462,0.02103708124798466,-0.08402794776021578, ,0.011514173179245768,0.02084447504282793,-0.08429194757186427, ,0.00039369375121356886, ,0.0023642131945582306,0.00046086381309997954,-0.0063967654387170805,0.0033682784517759605,0.003916605051242527,-0.007519391750142359, ,0.006835240124641827, ,0.005165760751893621, ,4.289955704863826e-05, ,0.21786601711474765,-0.21530979253337934,0.09756267427000001,1.907968795765687,0.9806401588165661,-1.1374695640505819, ,0.011952525172329309,0.011500641734519822,0.006718182842682413,-0.00046798306255774105,0.017357673924616176,-0.014132287676631768, ,0.8365240097045898
0.011318371288717351,0.021040957532877092,-0.08408688328522598, ,0.011549583773477414,0.020852605785757077,-0.08438356597119327, ,0.00042066163350708594, ,0.002536335255253279,0.00037345309674003747,-0.00627229734410022,-1.9887199308751345e-05,-0.0011915029001388078,-0.006486621242270882, ,0.006776000126572616, ,0.0011916647824195363, ,4.341886145232565e-05, ,0.21798958084073525,-0.2152016742731402,0.09762359990000001,1.907968795765687,0.9806401588165661,-1.1374695640505819, ,0.014062972963614518,0.012146031173489155,0.006576718216350124,-0.0006344165503946823,0.014138758694128586,-0.011513376109367084, ,0.845893144607544
0.011318371288717351,0.021040957532877092,-0.08408688328522598, ,0.011585075003020156,0.020860531616382783,-0.0844748669985195, ,0.0005041981201340883, ,0.002536335255253279,0.00037345309674003747,-0.00627229734410022,-1.9887199308751345e-05,-0.0011915029001388078,-0.006486621242270882, ,0.006776000126572616, ,0.0011916647824195363, ,4.413305004156062e-05, ,0.21798958084073525,-0.2152016742731402,0.09762359990000001,1.907968795765687,0.9806401588165661,-1.1374695640505819, ,0.014062972963614518,0.012146031173489155,0.006576718216350124,-0.0006344165503946823,0.014138758694128586,-0.011513376109367084, ,0.8555111885070801
0.011384783463479618,0.02105508838264502,-0.08425596738315136, ,0.011620646434358877,0.02086825400904233,-0.08456585269232939, ,0.0004319344036261303, ,0.003069181112739536,0.0008761409960364085,-0.007917715236653194,0.019101898574060982,0.015343148820590565,-0.013147738643259126, ,0.008536844283250276, ,0.024500912508463493, ,4.465213887059828e-05, ,0.21836799475157223,-0.21493137862254233,0.09780378421000001,1.9077591058222025,0.9813233413153933,-1.138026653569064, ,0.017129411833658986,0.011048553707124223,0.008508980512820515,-0.0004838750042728086,0.03540130868389946,-0.028864309534170744, ,0.866706132888794
0.011384783463479618,0.02105508838264502,-0.08425596738315136, ,0.011656297635178598,0.020875774434118748,-0.08465652508413243, ,0.0005160619239826842, ,0.0032052121163715715,0.0010398291289070412,-0.008775626456010387,0.017170980865833164,0.014274299232621813,-0.012571934173101873, ,0.008536844283250276, ,0.024500912508463493, ,4.5362821466786857e-05, ,0.21853789487480518,-0.21481553762942895,0.09789711709000001,1.9077591058222025,0.9815966143149242,-1.1382494893764568, ,0.016353083156724242,0.011286329323122585,0.009380925512367492,-0.0004838750042728086,0.033394977378238704,-0.027232623795138453, ,0.8761980533599854
0.011452486192549328,0.02107570639359358,-0.08444236163492111, ,0.01169202817436421,0.02088309435804549,-0.08474688619847039, ,0.0004326834490648539, ,0.0032052121163715715,0.0010398291289070412,-0.008775626456010387,0.017170980865833164,0.014274299232621813,-0.012571934173101873, ,0.009400332389000303, ,0.022329311463429462, ,4.585651293376748e-05, ,0.21853789487480518,-0.21481553762942895,0.09789711709000001,1.9077591058222025,0.9815966143149242,-1.1382494893764568, ,0.016353083156724242,0.011286329323122585,0.009380925512367492,-0.0004838750042728086,0.033394977378238704,-0.027232623795138453, ,0.8857049942016602
0.011452486192549328,0.02107570639359358,-0.08444236163492111, ,0.011727837621998163,0.02089021524331044,-0.08483693805292657, ,0.0005156703658141467, ,0.003606687119843626,0.0012223525865433678,-0.010473831890134318,-0.013329542836035883,-0.016074528248222045,0.0028452722767834814, ,0.011144662053605295, ,0.02088221838251184, ,4.653515701231086e-05, ,0.2188313587240257,-0.21459157837607645,0.0981032272,1.9075494158787183,0.9817332508146895,-1.1383609072801533, ,0.014836920193632077,0.012398346166510423,0.010880335737704918,-0.005811586004977745,0.0,-8.365848437428106e-06, ,0.8978731632232666
0.011526228418292121,0.021102452533540827,-0.08465591572435384, ,0.011763725549359475,0.020897138548460262,-0.08492668265813495, ,0.0004145762320299035, ,0.003433632948832906,0.0011587537618990898,-0.009387369474179268,-0.00408817551520075,-0.009192765384745291,0.0004787772473050123, ,0.010062566827245373, ,0.010060817141932169, ,4.6961153375234395e-05, ,0.21900898158013288,-0.2144525691843404,0.09822378217000001,1.9075494158787183,0.981869887314455,-1.1384723251838498, ,0.016076053118494117,0.010554601282449713,0.00985693782178218,-0.005811586004977745,0.008823432248191331,-0.007157784909130921, ,0.9082350730895996
0.011560891511782388,0.021114102470659774,-0.08475099122077502, ,0.011799691528922466,0.020903865728104484,-0.08501612201779023, ,0.011804542092142786, ,0.003607117959709729,0.0010672659289733735,-0.009708435082917698,-0.0031886201036341938,-0.007563023569837248,-0.0009823038830753389, ,0.010411727440614024, ,0.008207712070716508, ,7.374295042446267e-05, ,0.2191788817033658,-0.21433672819122704,0.09832489279,1.9075494158787183,0.982143160313986,-1.1386951609912423, ,0.017383576031960207,0.012437344896260914,0.010191178195777351,-0.005811586004977745,0.0120141911766961,-0.009811220547097182, ,0.9178791046142578
0.011560891511782388,0.021114102470659774,-0.08475099122077502, ,0.011835735134354531,0.02091039823292001,-0.08510525812865537, ,0.0004924829696150102, ,0.003564417008332046,0.0008682262437894953,-0.008910408456377441,0.011032697372251533,0.005997580438589369,-0.006415389205853533, ,0.0096719044349027, ,0.012557520705025799, ,7.402617289012101e-05, ,0.2191788817033658,-0.21433672819122704,0.09832489279,1.9075494158787183,0.982143160313986,-1.1386951609912423, ,0.017383576031960207,0.012437344896260914,0.010191178195777351,-0.005811586004977745,0.0120141911766961,-0.009811220547097182, ,0.9276111125946045
0.011594838216167205,0.021121953070756046,-0.08483904794065425, ,0.011871855940515989,0.02091673750965505,-0.08519409298057334, ,0.0004948830432461055, ,0.003564417008332046,0.0008682262437894953,-0.008910408456377441,0.011032697372251533,0.005997580438589369,-0.006415389205853533, ,0.009636091753360084, ,0.012557520705025799, ,7.447691745176641e-05, ,0.2193642272923472,-0.21421316446523944,0.09841822567000001,1.9073397259352334,0.9824164333135168,-1.1389179967986354, ,0.0198737050384232,0.0129853505142954,0.009492736305125149,-0.006064230147519424,0.029506663412566355,-0.024077389389955038, ,0.9358701705932617
0.011632000173400072,0.021128733649611618,-0.08492927509559743, ,0.011908053523457621,0.020922885001133495,-0.08528262855647364, ,0.0004933941492067605, ,0.0032238383851507105,0.0005899323954695093,-0.007974746623788179,0.003315464260253809,-0.00025334597744232546,0.0005736742479089613, ,0.008621933534794646, ,0.003325124838444534, ,7.491621291109156e-05, ,0.21957274107995126,-0.2140741552735034,0.09851285484000001,1.9071300359917491,0.9825530698132823,-1.1390294147023319, ,0.018034386461130897,0.013160025177987904,0.008423485732416712,-0.010864504062655782,0.021821442027751034,-0.017790981497997585, ,0.9443020820617676
0.011666573824419678,0.021134252663751667,-0.08501445850550755, ,0.01194432746041949,0.020928842146259445,-0.08537086683238401, ,0.0004963541663715694, ,0.0034445307661985316,0.0005360141654103103,-0.008709145296121771,-0.004535865598551379,-0.0066116231624179945,0.0021756453966583454, ,0.009380901618382358, ,0.008017954069794529, ,7.53542737456733e-05, ,0.21975036393605843,-0.21391970061601892,0.09860100256000001,1.9071300359917491,0.9825530698132823,-1.1390294147023319, ,0.018274011468991103,0.01544546574844902,0.009102178011428572,-0.010864504062655782,0.015174679689758285,-0.012380138655479721, ,0.9520339965820312
0.011698405378916834,0.021141458771079452,-0.08509622871834145, ,0.011980677329830125,0.020934610380020875,-0.08545880977743797, ,0.0005039134207098197, ,0.0036605967083267743,0.0007825471442036503,-0.0092468243651523,-0.004896849398130153,-0.009474101533898115,0.0031436114986634674, ,0.009975776116868718, ,0.010664786275403444, ,7.580128550224533e-05, ,0.21992026405929135,-0.2137884141571571,0.09868785399,1.9071300359917491,0.9828263428128131,-1.1392522505097245, ,0.019213796630587324,0.014004861505087188,0.009694955276932442,-0.010864504062655782,0.013084224531872593,-0.01068297671724309, ,0.959571123123169
0.011698405378916834,0.021141458771079452,-0.08509622871834145, ,0.012017102711304115,0.020940191133494376,-0.08554645935388518, ,0.0005871833417187112, ,0.0036605967083267743,0.0007825471442036503,-0.0092468243651523,-0.004896849398130153,-0.009474101533898115,0.0031436114986634674, ,0.009975776116868718, ,0.010664786275403444, ,7.642268200051609e-05, ,0.21992026405929135,-0.2137884141571571,0.09868785399,1.9071300359917491,0.9828263428128131,-1.1392522505097245, ,0.019213796630587324,0.014004861505087188,0.009694955276932442,-0.010864504062655782,0.013084224531872593,-0.01068297671724309, ,0.9669511318206787
0.01173749845604803,0.021151332481483823,-0.08519814290884244, ,0.012053603185641764,0.02094558583384899,-0.08563381751710003, ,0.0005762518957581903, ,0.003959688633294951,0.0010355986804007895,-0.010743005394819889,0.01967631723714841,0.017474047440770753,-0.0068949303871505985, ,0.01149624998043372, ,0.026315388100552964, ,7.700958258133197e-05, ,0.2201287778468954,-0.21363395949967262,0.09879674235000001,1.9071300359917491,0.9832362523121095,-1.139586504220814, ,0.020460746347233886,0.015390357048081537,0.011459576633093526,-0.010864504062655782,0.04370815491554296,-0.03566253157195388, ,0.9750092029571533
0.011765763552015184,0.021157912441177876,-0.08527517462563328, ,0.012090178334826701,0.020950795904350967,-0.08572088621559115, ,0.0005888981512592767, ,0.00436795498669619,0.0012367389286011073,-0.011863088052249619,0.026377939618410336,0.02368899155396608,-0.013369903996934237, ,0.012702023936316179, ,0.035453685060923806, ,7.761358219624368e-05, ,0.2202755097715057,-0.21352584123943347,0.09887840862000001,1.9069203460482644,0.9835095253116403,-1.1398093400282066, ,0.022551554552868527,0.016401130583904387,0.01270240153110048,-0.007024899438290809,0.05183452177856204,-0.042293516739479155, ,0.9844400882720947
0.011827209357291025,0.02117451520694445,-0.08543642317241143, ,0.012126827742025118,0.020955822764367363,-0.08580766739101076, ,0.000524804564342216, ,0.004586440693295512,0.0012885669019578577,-0.011901569257451304,0.0031192481483244506,-0.003676755839953538,-0.0011823514817813601, ,0.012819640934279255, ,0.004821618371947928, ,7.807061894583269e-05, ,0.22058441908647466,-0.2133173274518294,0.09904822261000001,1.90671065610478,0.9837827983111712,-1.1400321758355996, ,0.023379389396026306,0.015176226060846117,0.012581999620853082,-0.010175749324020511,0.02373338727165119,-0.019386958906176907, ,0.9920341968536377
0.011874708353642113,0.021186510458233644,-0.08555710014582564, ,0.012163550991584133,0.020960667829370862,-0.08589416297816378, ,0.0004980424835782256, ,0.00478353185083903,0.00103034435729443,-0.012380531147225204,-0.0077556803744213785,-0.011904156069479099,0.0006387066248096, ,0.0133124504862934, ,0.01420771687951325, ,7.846334623503965e-05, ,0.22081610107270142,-0.21314742732859646,0.09917396274000001,1.90671065610478,0.9837827983111712,-1.1400321758355996, ,0.023861438661923758,0.019032679815176652,0.012950253268292683,-0.010175749324020511,0.015322688397165623,-0.012534075895898037, ,1.000042200088501
0.011922796497797157,0.021197294031665165,-0.08567998643172159, ,0.01220034766903042,0.02096533251094372,-0.08598037490501749, ,0.0005000803392566163, ,0.004883262031691254,0.0010366909269176766,-0.01248481455862212,-0.012882823848118608,-0.017889640168163377,0.0025260334217846, ,0.01344587560225416, ,0.02204554540766524, ,7.885375913717058e-05, ,0.22106322852467658,-0.21295435900674087,0.09930359174000002,1.90671065610478,0.984056071310702,-1.1402550116429924, ,0.02432007728305248,0.019082433452336775,0.013024375731807033,-0.010175749324020511,0.009318848345106281,-0.0076432944498905355, ,1.0079569816589355
0.011922796497797157,0.021197294031665165,-0.08567998643172159, ,0.01223721736106864,0.020969818216781923,-0.08606630509271002, ,0.0005475836314619632, ,0.004883262031691254,0.0010366909269176766,-0.01248481455862212,-0.012882823848118608,-0.017889640168163377,0.0025260334217846, ,0.01344587560225416, ,0.02204554540766524, ,7.950172237477569e-05, ,0.22106322852467658,-0.21295435900674087,0.09930359174000002,1.90671065610478,0.984056071310702,-1.1402550116429924, ,0.02432007728305248,0.019082433452336775,0.013024375731807033,-0.010175749324020511,0.009318848345106281,-0.0076432944498905355, ,1.0138390064239502
0.011966459616183218,0.021207174965650086,-0.08579194519923372, ,0.012274159655580359,0.020974126350699774,-0.08615195545556034, ,0.0005278241713256606, ,0.004662757108605312,0.0008616063079405073,-0.011640004513909664,0.016018319059028948,0.012524581720905975,-0.008594402514018057, ,0.012568745934562031, ,0.020333506315428795, ,8.010072652426085e-05, ,0.22129491051090333,-0.2127767361506337,0.09942285042000001,1.90671065610478,0.9844659808099985,-1.1405892653540817, ,0.025815272458778772,0.019506051707804888,0.012386323110419907,-0.010175749324020511,0.04396734629357233,-0.0359010765229023, ,1.0210011005401611
0.011966459616183218,0.021207174965650086,-0.08579194519923372, ,0.012311174141622127,0.020978258312633762,-0.08623732790107737, ,0.0006079446431858044, ,0.004662757108605312,0.0008616063079405073,-0.011640004513909664,0.016018319059028948,0.012524581720905975,-0.008594402514018057, ,0.012568745934562031, ,0.020333506315428795, ,8.085719249877323e-05, ,0.22129491051090333,-0.2127767361506337,0.09942285042000001,1.90671065610478,0.9844659808099985,-1.1405892653540817, ,0.025815272458778772,0.019506051707804888,0.012386323110419907,-0.010175749324020511,0.04396734629357233,-0.0359010765229023, ,1.026684045791626
0.012021841953221406,0.021217405152512706,-0.08592767533910911, ,0.012348260409424704,0.020982215498647087,-0.08632242432996902, ,0.0005636399095348814, ,0.005099970950954445,0.0011001961254929573,-0.01251457767371304,0.014314212927148769,0.007678749174661484,-0.007869759024231692, ,0.013558568861296747, ,0.016243754912324906, ,8.151377395488482e-05, ,0.2216038198258723,-0.21256049963015541,0.09956673861000001,1.9065009661612955,0.9848758903092947,-1.1409235190651708, ,0.028285228482405594,0.019002190940823144,0.013329549389121339,-0.009955368829354907,0.041326627330577674,-0.03375237012693388, ,1.0322210788726807
0.012074890946444226,0.021225504428273995,-0.08605283601468441, ,0.012385418050391308,0.020985999300933634,-0.08640724663615167, ,0.000528579868058639, ,0.005423173519993898,0.0007649065751383476,-0.012507641414623414,-0.007321945527039917,-0.014616183413554251,-0.002673606990351459, ,0.013558568861296747, ,0.016243754912324906, ,8.209108807316527e-05, ,0.22189728367509284,-0.21235198584255136,0.09969766390000001,1.9062912762178108,0.9850125268090602,-1.1410349369688673, ,0.030621794630032523,0.02241307075070165,0.013131748985985164,-0.008888151157263616,0.019409361900641492,-0.015883992567763256, ,1.0384399890899658
0.012074890946444226,0.021225504428273995,-0.08605283601468441, ,0.01242264665709578,0.020989611107822548,-0.08649179670675915, ,0.0006076727590661808, ,0.005423173519993898,0.0007649065751383476,-0.012507641414623414,-0.007321945527039917,-0.014616183413554251,-0.002673606990351459, ,0.013654193013629757, ,0.016347580792578635, ,8.282118806275454e-05, ,0.22189728367509284,-0.21235198584255136,0.09969766390000001,1.9062912762178108,0.9850125268090602,-1.1410349369688673, ,0.030621794630032523,0.02241307075070165,0.013131748985985164,-0.008888151157263616,0.019409361900641492,-0.015883992567763256, ,1.0441861152648926
0.012125724516931412,0.021233009040755618,-0.086173724500283, ,0.012459945823282276,0.02099305230378196,-0.08657607642215252, ,0.0005754738797460927, ,0.005587386446202926,0.000994445788587461,-0.013605209107097184,-0.00390720251993903,-0.01086321607236009,0.004709123479761261, ,0.014741422067544625, ,0.011544489110227133, ,8.347783528275018e-05, ,0.22219074752431336,-0.21214347205494727,0.09982599661000001,1.9060815862743263,0.9854224363083565,-1.1413691906799566, ,0.03023158380327199,0.021670916090082388,0.014260350510295436,-0.018423795135261826,0.025170090672824462,-0.020584697339894674, ,1.0503261089324951
0.012125724516931412,0.021233009040755618,-0.086173724500283, ,0.012497315143862583,0.020996324269423935,-0.08666008765592882, ,0.0006562380621186124, ,0.005587386446202926,0.000994445788587461,-0.013605209107097184,-0.00390720251993903,-0.01086321607236009,0.004709123479761261, ,0.014741422067544625, ,0.011544489110227133, ,8.428782441702236e-05, ,0.22219074752431336,-0.21214347205494727,0.09982599661000001,1.9060815862743263,0.9854224363083565,-1.1413691906799566, ,0.03023158380327199,0.021670916090082388,0.014260350510295436,-0.018423795135261826,0.025170090672824462,-0.020584697339894674, ,1.0570480823516846
0.012125724516931412,0.021233009040755618,-0.086173724500283, ,0.012534754214915629,0.0209994283815081,-0.08674383227493071, ,0.0007395188252650005, ,0.005587386446202926,0.000994445788587461,-0.013605209107097184,-0.00390720251993903,-0.01086321607236009,0.004709123479761261, ,0.014741422067544625, ,0.011544489110227133, ,8.525341043292303e-05, ,0.22219074752431336,-0.21214347205494727,0.09982599661000001,1.9060815862743263,0.9854224363083565,-1.1413691906799566, ,0.03023158380327199,0.021670916090082388,0.014260350510295436,-0.018423795135261826,0.025170090672824462,-0.020584697339894674, ,1.0642921924591064
0.012222221970579681,0.021250144227820445,-0.08641968046814881, ,0.012572262633685573,0.021002366012946135,-0.08682731213925561, ,0.0005916807322224001, ,0.005416457027576773,0.0009355286320337473,-0.013655100591604031,0.029043502957406406,0.027742576784417834,-0.02074077757906829, ,0.014719884263123997, ,0.04016435180499941, ,8.591597552350218e-05, ,0.2227004478940122,-0.21172644447973915,0.10008655090000002,1.905871896330842,0.9862422553069492,-1.142037698102135, ,0.029664564413401307,0.024122252556804977,0.014600193877176905,-0.005094770255005421,0.06345682851893512,-0.05181007305890824, ,1.0708591938018799
0.012222221970579681,0.021250144227820445,-0.08641968046814881, ,0.012609839998580844,0.021005138532806073,-0.08691052910226481, ,0.0006717201112327417, ,0.005416457027576773,0.0009355286320337473,-0.013655100591604031,0.029043502957406406,0.027742576784417834,-0.02074077757906829, ,0.014719884263123997, ,0.04016435180499941, ,8.689807407003604e-05, ,0.2227004478940122,-0.21172644447973915,0.10008655090000002,1.905871896330842,0.9862422553069492,-1.142037698102135, ,0.029664564413401307,0.024122252556804977,0.014600193877176905,-0.005094770255005421,0.06345682851893512,-0.05181007305890824, ,1.07470703125
0.012288424977101194,0.021258885701335828,-0.08656858156639761, ,0.012647485909172095,0.02100774730631639,-0.0869934850105929, ,0.000610359060948207, ,0.004926620983936569,0.0001390634534111688,-0.010150099803763565,-0.0018828176478824727,-0.007627451293044908,-0.008864646689826184, ,0.011283415218354766, ,0.007856392797540945, ,8.775240462347662e-05, ,0.22307886180484918,-0.21144842609626707,0.10024340199000001,1.905871896330842,0.98651552830648,-1.1423422126496685, ,0.030951383417635606,0.023765825584390377,0.010697657165883145,-0.005094770255005421,0.026471691572672387,-0.021622114796109017, ,1.0785319805145264
0.012288424977101194,0.021258885701335828,-0.08656858156639761, ,0.012685199966191437,0.021010193694870363,-0.08707618170415725, ,0.0006906055356721236, ,0.004926620983936569,0.0001390634534111688,-0.010150099803763565,-0.0018828176478824727,-0.007627451293044908,-0.008864646689826184, ,0.011283415218354766, ,0.007856392797540945, ,8.875649960676155e-05, ,0.22307886180484918,-0.21144842609626707,0.10024340199000001,1.905871896330842,0.98651552830648,-1.1423422126496685, ,0.030951383417635606,0.023765825584390377,0.010697657165883145,-0.005094770255005421,0.026471691572672387,-0.021622114796109017, ,1.0824010372161865
0.012288424977101194,0.021258885701335828,-0.08656858156639761, ,0.012722981771530537,0.021012479056030178,-0.08715862101616653, ,0.000773112148862697, ,0.004926620983936569,0.0001390634534111688,-0.010150099803763565,-0.0018828176478824727,-0.007627451293044908,-0.008864646689826184, ,0.011283415218354766, ,0.007856392797540945, ,8.991300280996383e-05, ,0.22307886180484918,-0.21144842609626707,0.10024340199000001,1.905871896330842,0.98651552830648,-1.1423422126496685, ,0.030951383417635606,0.023765825584390377,0.010697657165883145,-0.005094770255005421,0.026471691572672387,-0.021622114796109017, ,1.0861320495605469
0.012349872600879382,0.021258752975331113,-0.08669849473544458, ,0.012760830928239536,0.02101460474353138,-0.08724080477313105, ,0.0007229075202908673, ,0.007083936001136752,0.0006706838679611154,-0.01624784493714727,-0.03403779951461244,-0.04163333832904283,0.007977494724299056, ,0.017737655741966774, ,0.0537764402305725, ,9.096345061396952e-05, ,0.22344955298281197,-0.2111395167812981,0.10037821615,1.9056622063873574,0.9866521648062454,-1.142453630553365, ,0.038342198609483145,0.031443651941176536,0.01682028671594509,-0.015703226931959198,0.0,-3.820312249313096e-05, ,1.0905141830444336
0.012349872600879382,0.021258752975331113,-0.08669849473544458, ,0.012798747040525487,0.02101657210728689,-0.08732273479487122, ,0.0008061113367316183, ,0.007083936001136752,0.0006706838679611154,-0.01624784493714727,-0.03403779951461244,-0.04163333832904283,0.007977494724299056, ,0.017737655741966774, ,0.0537764402305725, ,9.216611811975696e-05, ,0.22344955298281197,-0.2111395167812981,0.10037821615,1.9056622063873574,0.9866521648062454,-1.142453630553365, ,0.038342198609483145,0.031443651941176536,0.01682028671594509,-0.015703226931959198,0.0,-3.820312249313096e-05, ,1.0944161415100098
0.012349872600879382,0.021258752975331113,-0.08669849473544458, ,0.012836729713751036,0.021018382493391347,-0.08740441289452713, ,0.0008905774891968565, ,0.007660047034864964,0.001529479166420806,-0.01831606085566694,-0.014698238741485245,-0.02741728533192628,0.007529560653657142, ,0.019912149867991488, ,0.031108579133140968, ,9.352167522716068e-05, ,0.2236889577019129,-0.21096189392519094,0.10048969709000001,1.9052428265003882,0.9869254378057764,-1.1426764663607578, ,0.040588939930911366,0.0269517016638656,0.019237695072463774,-0.0205371282325003,0.018953815313194112,-0.015494887238449993, ,1.0987091064453125
0.012393033630988294,0.021263659744113716,-0.08680457285242257, ,0.012874778554432644,0.021020037244125444,-0.08748584087856767, ,0.0008692273679610972, ,0.007660047034864964,0.001529479166420806,-0.01831606085566694,-0.014698238741485245,-0.02741728533192628,0.007529560653657142, ,0.019912149867991488, ,0.031108579133140968, ,9.482604237344516e-05, ,0.2236889577019129,-0.21096189392519094,0.10048969709000001,1.9052428265003882,0.9869254378057764,-1.1426764663607578, ,0.040588939930911366,0.0269517016638656,0.019237695072463774,-0.0205371282325003,0.018953815313194112,-0.015494887238449993, ,1.1066210269927979
0.012453307460661978,0.02127640889034807,-0.08695456989441427, ,0.012912893170239876,0.02102153769795997,-0.08756702054679984, ,0.0008070155827275289, ,0.007265384888211402,0.0014753362488870642,-0.018427981925114228,0.05675319097907477,0.04900180630822336,0.02042915747422946, ,0.019863357028797206, ,0.07498066139098404, ,9.600197284578922e-05, ,0.22403648068125304,-0.21075338013758688,0.10065173334000001,1.9048234466134193,0.9877452568043691,-1.143426652523077, ,0.04215768172299901,0.025620124610818248,0.019960916691729325,-0.06546688462033001,0.11368925613650634,-0.09270596519436695, ,1.1111371517181396
0.012453307460661978,0.02127640889034807,-0.08695456989441427, ,0.012951073169993277,0.021022885189560206,-0.0876479536923784, ,0.0008904078051805412, ,0.007265384888211402,0.0014753362488870642,-0.018427981925114228,0.05675319097907477,0.04900180630822336,0.02042915747422946, ,0.019863357028797206, ,0.07498066139098404, ,9.732721736094855e-05, ,0.22403648068125304,-0.21075338013758688,0.10065173334000001,1.9048234466134193,0.9877452568043691,-1.143426652523077, ,0.04215768172299901,0.025620124610818248,0.019960916691729325,-0.06546688462033001,0.11368925613650634,-0.09270596519436695, ,1.1168670654296875
0.012573239828457095,0.021305677988599454,-0.08725706457808455, ,0.012989318163663353,0.021024081049790096,-0.08772864210181477, ,0.0006890597781487076, ,0.007234812221197077,0.0013152642300077251,-0.018839173296053325,-0.015863536501467275,-0.020213487251292392,0.026224526035717854, ,0.02022342400162369, ,0.02569502839322982, ,9.826182103472324e-05, ,0.22464657657831677,-0.2103209070966303,0.10097321326000001,1.9048234466134193,0.9885650758029616,-1.1441768386853959, ,0.03508204863529419,0.028454855040021224,0.01968950744128554,-0.042110508212743654,0.025650766240728706,-0.02006209472568877, ,1.120629072189331
0.012573239828457095,0.021305677988599454,-0.08725706457808455, ,0.01302762776236931,0.02102512660571643,-0.08780908755498579, ,0.0007680539303652419, ,0.007234812221197077,0.0013152642300077251,-0.018839173296053325,-0.015863536501467275,-0.020213487251292392,0.026224526035717854, ,0.02022342400162369, ,0.02569502839322982, ,9.9338149261269e-05, ,0.22464657657831677,-0.2103209070966303,0.10097321326000001,1.9048234466134193,0.9885650758029616,-1.1441768386853959, ,0.03508204863529419,0.028454855040021224,0.01968950744128554,-0.042110508212743654,0.025650766240728706,-0.02006209472568877, ,1.1243431568145752
0.012573239828457095,0.021305677988599454,-0.08725706457808455, ,0.013066001578376922,0.021026023180613286,-0.08788929182514407, ,0.0008489595077141761, ,0.00832829888635269,0.001226388101430655,-0.020183140437941786,-0.02785556155686033,-0.03602407863163449,0.018848315168976733, ,0.02022342400162369, ,0.02569502839322982, ,0.00010055819280571858, ,0.22505588142065067,-0.2099733841172902,0.10117932337,1.9048234466134193,0.9885650758029616,-1.1441768386853959, ,0.04270789449076092,0.03334397103249149,0.021042023143989435,-0.03176806141811483,0.014426486703053255,-0.010909447382282885, ,1.1290810108184814
0.012655590848388866,0.02131810253937733,-0.08745562257917272, ,0.013104439225097969,0.02102677209396616,-0.08796925667892658, ,0.0007417265548218036, ,0.00832829888635269,0.001226388101430655,-0.020183140437941786,-0.02785556155686033,-0.03602407863163449,0.018848315168976733, ,0.02186832750928692, ,0.045537492263913175, ,0.00010156867910330807, ,0.22505588142065067,-0.2099733841172902,0.10117932337,1.9048234466134193,0.9885650758029616,-1.1441768386853959, ,0.04270789449076092,0.03334397103249149,0.021042023143989435,-0.03176806141811483,0.014426486703053255,-0.010909447382282885, ,1.1328530311584473
0.012655590848388866,0.02131810253937733,-0.08745562257917272, ,0.013142940317088412,0.021027374661475976,-0.08804898387636412, ,0.0008210419189270494, ,0.00832829888635269,0.001226388101430655,-0.020183140437941786,-0.02785556155686033,-0.03602407863163449,0.018848315168976733, ,0.02186832750928692, ,0.045537492263913175, ,0.00010271933936535728, ,0.22505588142065067,-0.2099733841172902,0.10117932337,1.9048234466134193,0.9885650758029616,-1.1441768386853959, ,0.04270789449076092,0.03334397103249149,0.021042023143989435,-0.03176806141811483,0.014426486703053255,-0.010909447382282885, ,1.1388840675354004
0.012733169492436885,0.02133152249758586,-0.08764649316671676, ,0.013181504470046958,0.02102783219506375,-0.08812847517089044, ,0.0007249404833100946, ,0.008630742259739645,0.0014817633095332698,-0.020071778723163253,-0.009626300318728333,-0.021687633933306017,-0.016227597381975652, ,0.021898895761457104, ,0.023727955361025118, ,0.00010387588424257798, ,0.22546518626298456,-0.20966447480232123,0.10138154461000001,1.9046137566699346,0.9891116218020234,-1.1444591528199004, ,0.04586609065175001,0.033030609661841556,0.021125744721485415,0.0,0.02621598240078345,-0.022019287734437232, ,1.1418449878692627
0.012733169492436885,0.02133152249758586,-0.08764649316671676, ,0.013220131300813625,0.021028146002874563,-0.08820773230935168, ,0.0008025948389981346, ,0.008630742259739645,0.0014817633095332698,-0.020071778723163253,-0.009626300318728333,-0.021687633933306017,-0.016227597381975652, ,0.021898895761457104, ,0.023727955361025118, ,0.0001051722088339612, ,0.22546518626298456,-0.20966447480232123,0.10138154461000001,1.9046137566699346,0.9891116218020234,-1.1444591528199004, ,0.04586609065175001,0.033030609661841556,0.021125744721485415,0.0,0.02621598240078345,-0.022019287734437232, ,1.144167184829712
0.012733169492436885,0.02133152249758586,-0.08764649316671676, ,0.01325882042736865,0.021028317389281775,-0.08828675703201537, ,0.0008821451469590763, ,0.008630742259739645,0.0014817633095332698,-0.020071778723163253,-0.009626300318728333,-0.021687633933306017,-0.016227597381975652, ,0.021898895761457104, ,0.023727955361025118, ,0.00010661104760826696, ,0.22546518626298456,-0.20966447480232123,0.10138154461000001,1.9046137566699346,0.9891116218020234,-1.1444591528199004, ,0.04586609065175001,0.033030609661841556,0.021125744721485415,0.0,0.02621598240078345,-0.022019287734437232, ,1.1476430892944336
0.012818091312764571,0.02134019166798681,-0.08783935649148152, ,0.013297571468830597,0.021028347654891474,-0.08836555107258036, ,0.0007771927983083036, ,0.008630742259739645,0.0014817633095332698,-0.020071778723163253,-0.009626300318728333,-0.021687633933306017,-0.016227597381975652, ,0.021898895761457104, ,0.023727955361025118, ,0.00010785057025281417, ,0.22599805483130606,-0.20930150635723266,0.10159154359000001,1.9041943767829654,0.9904779867996778,-1.1455733318568648, ,0.051630544917557544,0.0340987932297775,0.018985472610250298,-0.015834449264098514,0.14262641103090848,-0.11694418663506738, ,1.149893045425415
0.012818091312764571,0.02134019166798681,-0.08783935649148152, ,0.013336384045455542,0.021028238096546546,-0.08844411615818511, ,0.0008553809922870909, ,0.00799341683756164,0.0007434509713327328,-0.017215496277832608,0.07715245018613909,0.06947368517987057,-0.03648191568227823, ,0.01899528215578431, ,0.10382240601159502, ,0.00059800544948545, ,0.22599805483130606,-0.20930150635723266,0.10159154359000001,1.9041943767829654,0.9904779867996778,-1.1455733318568648, ,0.051630544917557544,0.0340987932297775,0.018985472610250298,-0.015834449264098514,0.14262641103090848,-0.11694418663506738, ,1.1518630981445312
0.012818091312764571,0.02134019166798681,-0.08783935649148152, ,0.013375257778634818,0.021027990007330927,-0.08852245400941783, ,0.0009351612516659263, ,0.00799341683756164,0.0007434509713327328,-0.017215496277832608,0.07715245018613909,0.06947368517987057,-0.03648191568227823, ,0.01899528215578431, ,0.10382240601159502, ,0.0006013770075072549, ,0.22599805483130606,-0.20930150635723266,0.10159154359000001,1.9041943767829654,0.9904779867996778,-1.1455733318568648, ,0.051630544917557544,0.0340987932297775,0.018985472610250298,-0.015834449264098514,0.14262641103090848,-0.11694418663506738, ,1.1538410186767578
0.012818091312764571,0.02134019166798681,-0.08783935649148152, ,0.013414192290894635,0.021027604676573948,-0.08860056634032502, ,0.0010161138899279546, ,0.00799341683756164,0.0007434509713327328,-0.017215496277832608,0.07715245018613909,0.06947368517987057,-0.03648191568227823, ,0.01899528215578431, ,0.10382240601159502, ,0.0006054833132737964, ,0.22599805483130606,-0.20930150635723266,0.10159154359000001,1.9041943767829654,0.9904779867996778,-1.1455733318568648, ,0.051630544917557544,0.0340987932297775,0.018985472610250298,-0.015834449264098514,0.14262641103090848,-0.11694418663506738, ,1.156205177307129
0.012818091312764571,0.02134019166798681,-0.08783935649148152, ,0.01345318720589372,0.021027083389854373,-0.0886784548584217, ,0.0010979388219323758, ,0.00799341683756164,0.0007434509713327328,-0.017215496277832608,0.07715245018613909,0.06947368517987057,-0.03648191568227823, ,0.01899528215578431, ,0.10382240601159502, ,0.0006103113084567237, ,0.22599805483130606,-0.20930150635723266,0.10159154359000001,1.9041943767829654,0.9904779867996778,-1.1455733318568648, ,0.051630544917557544,0.0340987932297775,0.018985472610250298,-0.015834449264098514,0.14262641103090848,-0.11694418663506738, ,1.158177137374878
0.012911332903723372,0.021346095920964685,-0.08804272024157431, ,0.013492242148422567,0.021026427429004926,-0.08875612126469927, ,0.0009739530353793045, ,0.010127069796646496,0.000780913262455563,-0.023517099177223045,1.0433279282049215e-05,-0.009277599985606212,0.05462563582390186, ,0.025616817169605077, ,0.009277218182313864, ,0.0006138418106598555, ,0.22653864613250177,-0.20893853791214412,0.10179246854000001,1.903565306952512,0.9914344422980359,-1.1464349359228803, ,0.05789929320223964,0.04147593599583513,0.024281724878048784,-0.09108795046937404,0.0742793341940165,-0.05947496764261477, ,1.1601660251617432
0.012911332903723372,0.021346095920964685,-0.08804272024157431, ,0.013531356744401722,0.021025638072116243,-0.08883356725363657, ,0.0010547804474799088, ,0.010127069796646496,0.000780913262455563,-0.023517099177223045,1.0433279282049215e-05,-0.009277599985606212,0.05462563582390186, ,0.025616817169605077, ,0.009277218182313864, ,0.0006180816052446637, ,0.22653864613250177,-0.20893853791214412,0.10179246854000001,1.903565306952512,0.9914344422980359,-1.1464349359228803, ,0.05789929320223964,0.04147593599583513,0.024281724878048784,-0.09108795046937404,0.0742793341940165,-0.05947496764261477, ,1.1620781421661377
0.012911332903723372,0.021346095920964685,-0.08804272024157431, ,0.013570530620880393,0.021024716593541454,-0.08891079451320731, ,0.0011363886850330777, ,0.010127069796646496,0.000780913262455563,-0.023517099177223045,1.0433279282049215e-05,-0.009277599985606212,0.05462563582390186, ,0.025616817169605077, ,0.009277218182313864, ,0.0006230178631474104, ,0.22653864613250177,-0.20893853791214412,0.10179246854000001,1.903565306952512,0.9914344422980359,-1.1464349359228803, ,0.05789929320223964,0.04147593599583513,0.024281724878048784,-0.09108795046937404,0.0742793341940165,-0.05947496764261477, ,1.1639621257781982
0.012911332903723372,0.021346095920964685,-0.08804272024157431, ,0.013609763406034977,0.02102366426389988,-0.08898780472489085, ,0.001218586074367538, ,0.010127069796646496,0.000780913262455563,-0.023517099177223045,1.0433279282049215e-05,-0.009277599985606212,0.05462563582390186, ,0.025616817169605077, ,0.009277218182313864, ,0.000628636431177789, ,0.22653864613250177,-0.20893853791214412,0.10179246854000001,1.903565306952512,0.9914344422980359,-1.1464349359228803, ,0.05789929320223964,0.04147593599583513,0.024281724878048784,-0.09108795046937404,0.0742793341940165,-0.05947496764261477, ,1.1659040451049805
0.012911332903723372,0.021346095920964685,-0.08804272024157431, ,0.013649054729168017,0.02102248235008202,-0.08906459956368021, ,0.001301228874542993, ,0.010127069796646496,0.000780913262455563,-0.023517099177223045,1.0433279282049215e-05,-0.009277599985606212,0.05462563582390186, ,0.025616817169605077, ,0.009277218182313864, ,0.0006349223418634451, ,0.22653864613250177,-0.20893853791214412,0.10179246854000001,1.903565306952512,0.9914344422980359,-1.1464349359228803, ,0.05789929320223964,0.04147593599583513,0.024281724878048784,-0.09108795046937404,0.0742793341940165,-0.05947496764261477, ,1.1678590774536133
0.013021286008310113,0.02136247590307067,-0.08830615949997743, ,0.013688404220706248,0.021021172115253103,-0.08914118069809267, ,0.0011219605100853771, ,0.01277267355976427,0.0024974396281259165,-0.03175000701088687,-0.00041613072640307903,-0.013022727973879624,0.015523031768569985, ,0.03431386512405445, ,0.013028136650913577, ,0.0006394319545321667, ,0.22716418749531395,-0.20847517393969064,0.10208802266000001,1.9031459270655429,0.992117624796863,-1.1469920254413624, ,0.06438055736666945,0.04608884971271043,0.033534340042105266,-0.04875263626571236,0.06651911590273449,-0.053147029970575854, ,1.1697959899902344
0.013021286008310113,0.02136247590307067,-0.08830615949997743, ,0.013727811512199652,0.021019734818857626,-0.08921754979017789, ,0.0012030303402348489, ,0.01277267355976427,0.0024974396281259165,-0.03175000701088687,-0.00041613072640307903,-0.013022727973879624,0.015523031768569985, ,0.03431386512405445, ,0.013028136650913577, ,0.0006446025819239345, ,0.22716418749531395,-0.20847517393969064,0.10208802266000001,1.9031459270655429,0.992117624796863,-1.1469920254413624, ,0.06438055736666945,0.04608884971271043,0.033534340042105266,-0.04875263626571236,0.06651911590273449,-0.053147029970575854, ,1.171687126159668
0.013021286008310113,0.02136247590307067,-0.08830615949997743, ,0.013767276236319658,0.02101817171662368,-0.08929370849552735, ,0.001284639954112561, ,0.01277267355976427,0.0024974396281259165,-0.03175000701088687,-0.00041613072640307903,-0.013022727973879624,0.015523031768569985, ,0.03431386512405445, ,0.013028136650913577, ,0.0006504211034892856, ,0.22716418749531395,-0.20847517393969064,0.10208802266000001,1.9031459270655429,0.992117624796863,-1.1469920254413624, ,0.06438055736666945,0.04608884971271043,0.033534340042105266,-0.04875263626571236,0.06651911590273449,-0.053147029970575854, ,1.1735870838165283
0.013021286008310113,0.02136247590307067,-0.08830615949997743, ,0.013806798026858073,0.021016484060567032,-0.08936965846328467, ,0.0013666636496658267, ,0.01277267355976427,0.0024974396281259165,-0.03175000701088687,-0.00041613072640307903,-0.013022727973879624,0.015523031768569985, ,0.03431386512405445, ,0.013028136650913577, ,0.0006568737390404256, ,0.22716418749531395,-0.20847517393969064,0.10208802266000001,1.9031459270655429,0.992117624796863,-1.1469920254413624, ,0.06438055736666945,0.04608884971271043,0.033534340042105266,-0.04875263626571236,0.06651911590273449,-0.053147029970575854, ,1.1754651069641113
0.013021286008310113,0.02136247590307067,-0.08830615949997743, ,0.013846376518725487,0.02101467309899541,-0.08944540133615346, ,0.0014490041760443094, ,0.01277267355976427,0.0024974396281259165,-0.03175000701088687,-0.00041613072640307903,-0.013022727973879624,0.015523031768569985, ,0.03431386512405445, ,0.013028136650913577, ,0.0006639463322279602, ,0.22716418749531395,-0.20847517393969064,0.10208802266000001,1.9031459270655429,0.992117624796863,-1.1469920254413624, ,0.06438055736666945,0.04608884971271043,0.033534340042105266,-0.04875263626571236,0.06651911590273449,-0.053147029970575854, ,1.1773860454559326
0.013155132662809838,0.02139430445476658,-0.08864479304886833, ,0.013886011347949808,0.021012740076512774,-0.08952093875040723, ,0.0015315853514146411, ,0.01405677072196349,0.003251000279674544,-0.0367044664392294,0.050896311024727046,0.04509523505201832,-0.024920263228478075, ,0.03431386512405445, ,0.06799961824793199, ,0.0006716245536366919, ,0.22782061978962304,-0.20799636450148873,0.10244839128000001,1.9031459270655429,0.9930740802952212,-1.1477719507672373, ,0.06807528088842953,0.0518279309440037,0.039137129041769046,-0.028789443736581617,0.12893894211656698,-0.10404621282273498, ,1.1801271438598633
0.013155132662809838,0.02139430445476658,-0.08864479304886833, ,0.013925702151675195,0.021010686234023503,-0.08959627233589919, ,0.0012830639540198537, ,0.01405677072196349,0.003251000279674544,-0.0367044664392294,0.050896311024727046,0.04509523505201832,-0.024920263228478075, ,0.03943830197329509, ,0.06799961824793199, ,0.0006769880571488248, ,0.22782061978962304,-0.20799636450148873,0.10244839128000001,1.9031459270655429,0.9930740802952212,-1.1477719507672373, ,0.06807528088842953,0.0518279309440037,0.039137129041769046,-0.028789443736581617,0.12893894211656698,-0.10404621282273498, ,1.184880018234253
0.013155132662809838,0.02139430445476658,-0.08864479304886833, ,0.013965448568159995,0.021008512808736782,-0.08967140371607044, ,0.0013635895726438318, ,0.01405677072196349,0.003251000279674544,-0.0367044664392294,0.050896311024727046,0.04509523505201832,-0.024920263228478075, ,0.03943830197329509, ,0.06799961824793199, ,0.000682958505109651, ,0.22782061978962304,-0.20799636450148873,0.10244839128000001,1.9031459270655429,0.9930740802952212,-1.1477719507672373, ,0.06807528088842953,0.0518279309440037,0.039137129041769046,-0.028789443736581617,0.12893894211656698,-0.10404621282273498, ,1.1890320777893066
0.013155132662809838,0.02139430445476658,-0.08864479304886833, ,0.014005250236775903,0.02100622103417062,-0.08974633450795995, ,0.0014445422171072441, ,0.01405677072196349,0.003251000279674544,-0.0367044664392294,0.050896311024727046,0.04509523505201832,-0.024920263228478075, ,0.03943830197329509, ,0.06799961824793199, ,0.0006895238819372164, ,0.22782061978962304,-0.20799636450148873,0.10244839128000001,1.9031459270655429,0.9930740802952212,-1.1477719507672373, ,0.06807528088842953,0.0518279309440037,0.039137129041769046,-0.028789443736581617,0.12893894211656698,-0.10404621282273498, ,1.1913042068481445
0.013171441031854815,0.02139815378550888,-0.0886874168257825, ,0.014045106798006721,0.0210038121401562,-0.08982106632221382, ,0.0014845734690355434, ,0.014249413107066223,0.003319747572858023,-0.037318014260029515,0.055887478687415934,0.050670089667733884,-0.028482060197177944, ,0.040083671066346874, ,0.07543736398693171, ,0.0006963191775534415, ,0.22789784711836528,-0.20793458263849493,0.10249376143000001,1.9031459270655429,0.9932107167949866,-1.1478833686709338, ,0.06886570504968853,0.0526912501712775,0.039822028800000006,-0.027494966040685787,0.13553642595258178,-0.10942601851112481, ,1.1936609745025635
0.013171441031854815,0.02139815378550888,-0.0886874168257825, ,0.014085017893445967,0.021001287352842124,-0.0898956007630942, ,0.0015658333480260223, ,0.014249413107066223,0.003319747572858023,-0.037318014260029515,0.055887478687415934,0.050670089667733884,-0.028482060197177944, ,0.040083671066346874, ,0.07543736398693171, ,0.0007036879417099889, ,0.22789784711836528,-0.20793458263849493,0.10249376143000001,1.9031459270655429,0.9932107167949866,-1.1478833686709338, ,0.06886570504968853,0.0526912501712775,0.039822028800000006,-0.027494966040685787,0.13553642595258178,-0.10942601851112481, ,1.1958351135253906
0.013171441031854815,0.02139815378550888,-0.0886874168257825, ,0.01412498316579653,0.020998647894698755,-0.08996993942848874, ,0.0016473347517874139, ,0.014249413107066223,0.003319747572858023,-0.037318014260029515,0.055887478687415934,0.050670089667733884,-0.028482060197177944, ,0.040083671066346874, ,0.07543736398693171, ,0.0007116177468366899, ,0.22789784711836528,-0.20793458263849493,0.10249376143000001,1.9031459270655429,0.9932107167949866,-1.1478833686709338, ,0.06886570504968853,0.0526912501712775,0.039822028800000006,-0.027494966040685787,0.13553642595258178,-0.10942601851112481, ,1.1977250576019287
0.01346257596612375,0.02146224772008976,-0.08945962786274304, ,0.014165002258868666,0.020995894984522267,-0.09004408390992008, ,0.0010259027448020872, ,0.015709704414452394,0.0031103593751828926,-0.0395445211195483,-0.01995580412593958,-0.03557112094025704,0.08444554747260795, ,0.042664250829080014, ,0.04078531674655966, ,0.0007142367884864015, ,0.22928021630285148,-0.2069151818990973,0.10330135010000001,1.9014684075176667,0.9959434467902953,-1.1501117267448622, ,0.07634508572684696,0.05077417953904269,0.04202852643799473,-0.12125011058462049,0.08252265876120282,-0.06224510029714667, ,1.1998310089111328
0.01346257596612375,0.02146224772008976,-0.08945962786274304, ,0.01420507481757879,0.020993029837438924,-0.09011803579255466, ,0.001097711696143484, ,0.015709704414452394,0.0031103593751828926,-0.0395445211195483,-0.01995580412593958,-0.03557112094025704,0.08444554747260795, ,0.042664250829080014, ,0.04078531674655966, ,0.0007174060025992699, ,0.22928021630285148,-0.2069151818990973,0.10330135010000001,1.9014684075176667,0.9959434467902953,-1.1501117267448622, ,0.07634508572684696,0.05077417953904269,0.04202852643799473,-0.12125011058462049,0.08252265876120282,-0.06224510029714667, ,1.201991081237793
0.01346257596612375,0.02146224772008976,-0.08945962786274304, ,0.014245200487948102,0.020990053664909428,-0.09019179665521235, ,0.001171127451891723, ,0.015709704414452394,0.0031103593751828926,-0.0395445211195483,-0.01995580412593958,-0.03557112094025704,0.08444554747260795, ,0.042664250829080014, ,0.04078531674655966, ,0.000721125030872159, ,0.22928021630285148,-0.2069151818990973,0.10330135010000001,1.9014684075176667,0.9959434467902953,-1.1501117267448622, ,0.07634508572684696,0.05077417953904269,0.04202852643799473,-0.12125011058462049,0.08252265876120282,-0.06224510029714667, ,1.2038919925689697
0.01346257596612375,0.02146224772008976,-0.08945962786274304, ,0.014285378917100843,0.020986967674733164,-0.0902653680703758, ,0.001245838312080207, ,0.015709704414452394,0.0031103593751828926,-0.0395445211195483,-0.01995580412593958,-0.03557112094025704,0.08444554747260795, ,0.042664250829080014, ,0.04078531674655966, ,0.0007253909925079967, ,0.22928021630285148,-0.2069151818990973,0.10330135010000001,1.9014684075176667,0.9959434467902953,-1.1501117267448622, ,0.07634508572684696,0.05077417953904269,0.04202852643799473,-0.12125011058462049,0.08252265876120282,-0.06224510029714667, ,1.2057790756225586
0.01346257596612375,0.02146224772008976,-0.08945962786274304, ,0.014325609753263269,0.02098377307105221,-0.0903387516041991, ,0.001321598978626908, ,0.015709704414452394,0.0031103593751828926,-0.0395445211195483,-0.01995580412593958,-0.03557112094025704,0.08444554747260795, ,0.042664250829080014, ,0.04078531674655966, ,0.0007301991214283105, ,0.22928021630285148,-0.2069151818990973,0.10330135010000001,1.9014684075176667,0.9959434467902953,-1.1501117267448622, ,0.07634508572684696,0.05077417953904269,0.04202852643799473,-0.12125011058462049,0.08252265876120282,-0.06224510029714667, ,1.2076761722564697
0.01362810877862341,0.021482603112594926,-0.0898284662548883, ,0.01436589264576231,0.020980471054355885,-0.09041194881651782, ,0.0010662614774282844, ,0.017242383950829276,0.0011328831960154555,-0.0375880996567247,-0.0438125451838099,-0.058491135929854846,0.01434457631481237, ,0.041369656324986515, ,0.07307993613111674, ,0.0007328876202763103, ,0.23019149878200995,-0.206251026871914,0.10370579258000001,1.9012587175741824,0.9966266292891226,-1.1506688162633443, ,0.09442481747111521,0.0731101244672348,0.03942775128712872,-0.045307743741673706,0.048854428345469166,-0.03479091594282861, ,1.210193157196045
0.01362810877862341,0.021482603112594926,-0.0898284662548883, ,0.014406227245023757,0.020977062821484833,-0.09048496126085778, ,0.0011366727878117672, ,0.017242383950829276,0.0011328831960154555,-0.0375880996567247,-0.0438125451838099,-0.058491135929854846,0.01434457631481237, ,0.041369656324986515, ,0.07307993613111674, ,0.0007360922644630997, ,0.23019149878200995,-0.206251026871914,0.10370579258000001,1.9012587175741824,0.9966266292891226,-1.1506688162633443, ,0.09442481747111521,0.0731101244672348,0.03942775128712872,-0.045307743741673706,0.048854428345469166,-0.03479091594282861, ,1.2121541500091553
0.01362810877862341,0.021482603112594926,-0.0898284662548883, ,0.014446613202570714,0.02097354956563521,-0.0905577904844445, ,0.001208717848594665, ,0.017242383950829276,0.0011328831960154555,-0.0375880996567247,-0.0438125451838099,-0.058491135929854846,0.01434457631481237, ,0.041369656324986515, ,0.07307993613111674, ,0.0007398137257554742, ,0.23019149878200995,-0.206251026871914,0.10370579258000001,1.9012587175741824,0.9966266292891226,-1.1506688162633443, ,0.09442481747111521,0.0731101244672348,0.03942775128712872,-0.045307743741673706,0.048854428345469166,-0.03479091594282861, ,1.2141029834747314
0.01362810877862341,0.021482603112594926,-0.0898284662548883, ,0.014487050171023296,0.02096993247636301,-0.09063043802821237, ,0.0012820960268407524, ,0.017242383950829276,0.0011328831960154555,-0.0375880996567247,-0.0438125451838099,-0.058491135929854846,0.01434457631481237, ,0.041369656324986515, ,0.07307993613111674, ,0.0007440503062327029, ,0.23019149878200995,-0.206251026871914,0.10370579258000001,1.9012587175741824,0.9966266292891226,-1.1506688162633443, ,0.09442481747111521,0.0731101244672348,0.03942775128712872,-0.045307743741673706,0.048854428345469166,-0.03479091594282861, ,1.216027021408081
0.01362810877862341,0.021482603112594926,-0.0898284662548883, ,0.014527537804095648,0.020966212739588416,-0.09070290542681425, ,0.0013565675267358727, ,0.017242383950829276,0.0011328831960154555,-0.0375880996567247,-0.0438125451838099,-0.058491135929854846,0.01434457631481237, ,0.041369656324986515, ,0.07307993613111674, ,0.0007487985017404794, ,0.23019149878200995,-0.206251026871914,0.10370579258000001,1.9012587175741824,0.9966266292891226,-1.1506688162633443, ,0.09442481747111521,0.0731101244672348,0.03942775128712872,-0.045307743741673706,0.048854428345469166,-0.03479091594282861, ,1.2179009914398193
0.013785797928290926,0.02149109700885547,-0.09015779628247776, ,0.014568075756595914,0.020962391537599726,-0.09077519420863, ,0.0011281260014778572, ,0.016837869334482444,0.0005418839336227279,-0.034465338375932214,0.02782193910493647,0.009189987076222749,-0.03225007786781743, ,0.038362312642620085, ,0.029299616500428498, ,0.000751716405584613, ,0.23110278126116846,-0.20555598091323377,0.10405579088000001,1.9012587175741824,0.9975830847874807,-1.1513670628490786, ,0.10063302392202628,0.07442897377134963,0.036787093579676675,-0.028368343185446634,0.12494379935545631,-0.1044505022335762, ,1.2201600074768066
0.013785797928290926,0.02149109700885547,-0.09015779628247776, ,0.014608663684423928,0.020958470049057813,-0.09084730589577661, ,0.001198425232440955, ,0.016837869334482444,0.0005418839336227279,-0.034465338375932214,0.02782193910493647,0.009189987076222749,-0.03225007786781743, ,0.038362312642620085, ,0.029299616500428498, ,0.000755126396629318, ,0.23110278126116846,-0.20555598091323377,0.10405579088000001,1.9012587175741824,0.9975830847874807,-1.1513670628490786, ,0.10063302392202628,0.07442897377134963,0.036787093579676675,-0.028368343185446634,0.12494379935545631,-0.1044505022335762, ,1.2220520973205566
0.013785797928290926,0.02149109700885547,-0.09015779628247776, ,0.014649301244569975,0.020954449449000583,-0.09091924200411708, ,0.0012702079230291158, ,0.016837869334482444,0.0005418839336227279,-0.034465338375932214,0.02782193910493647,0.009189987076222749,-0.03225007786781743, ,0.038362312642620085, ,0.029299616500428498, ,0.0007590285294050741, ,0.23110278126116846,-0.20555598091323377,0.10405579088000001,1.9012587175741824,0.9975830847874807,-1.1513670628490786, ,0.10063302392202628,0.07442897377134963,0.036787093579676675,-0.028368343185446634,0.12494379935545631,-0.1044505022335762, ,1.2239961624145508
0.013785797928290926,0.02149109700885547,-0.09015779628247776, ,0.01468998809511403,0.020950330908846546,-0.0909910040432692, ,0.00134321368565896, ,0.016837869334482444,0.0005418839336227279,-0.034465338375932214,0.02782193910493647,0.009189987076222749,-0.03225007786781743, ,0.038362312642620085, ,0.029299616500428498, ,0.0007634208990009679, ,0.23110278126116846,-0.20555598091323377,0.10405579088000001,1.9012587175741824,0.9975830847874807,-1.1513670628490786, ,0.10063302392202628,0.07442897377134963,0.036787093579676675,-0.028368343185446634,0.12494379935545631,-0.1044505022335762, ,1.2261531352996826
0.013785797928290926,0.02149109700885547,-0.09015779628247776, ,0.014730723895223355,0.020946115596399854,-0.09106259351661626, ,0.0014172324642802892, ,0.016837869334482444,0.0005418839336227279,-0.034465338375932214,0.02782193910493647,0.009189987076222749,-0.03225007786781743, ,0.038362312642620085, ,0.029299616500428498, ,0.0007683000897866345, ,0.23110278126116846,-0.20555598091323377,0.10405579088000001,1.9012587175741824,0.9975830847874807,-1.1513670628490786, ,0.10063302392202628,0.07442897377134963,0.036787093579676675,-0.028368343185446634,0.12494379935545631,-0.1044505022335762, ,1.230445146560669
0.013890233515062399,0.021487717034579034,-0.09035831322853558, ,0.014771508305151813,0.020941804675853895,-0.09113401192131435, ,0.001294748632374129, ,0.01636104661257453,-0.0007772540393177479,-0.02905238460201575,0.060006947514623266,0.03827463271313047,-0.05992678821720486, ,0.03335159698071315, ,0.07117415656174043, ,0.0007721997086206159, ,0.231774659021226,-0.20506944874215763,0.10427097502,1.9008393376872132,0.9985395402858388,-1.1521469881749535, ,0.11021712143840974,0.0778481883170392,0.031479864664031625,-0.01329284825588289,0.1633376535597998,-0.13575811592111564, ,1.2329092025756836
0.013890233515062399,0.021487717034579034,-0.09035831322853558, ,0.014812340986238069,0.02093739930779604,-0.0912052607483033, ,0.0013676446505033017, ,0.01636104661257453,-0.0007772540393177479,-0.02905238460201575,0.060006947514623266,0.03827463271313047,-0.05992678821720486, ,0.03335159698071315, ,0.07117415656174043, ,0.0007765779802521062, ,0.231774659021226,-0.20506944874215763,0.10427097502,1.9008393376872132,0.9985395402858388,-1.1521469881749535, ,0.11021712143840974,0.0778481883170392,0.031479864664031625,-0.01329284825588289,0.1633376535597998,-0.13575811592111564, ,1.2352240085601807
0.013890233515062399,0.021487717034579034,-0.09035831322853558, ,0.014853221600904434,0.020932900649211505,-0.09127634148231506, ,0.0014415072492649514, ,0.01636104661257453,-0.0007772540393177479,-0.02905238460201575,0.060006947514623266,0.03827463271313047,-0.05992678821720486, ,0.03335159698071315, ,0.07117415656174043, ,0.0007814314785660686, ,0.231774659021226,-0.20506944874215763,0.10427097502,1.9008393376872132,0.9985395402858388,-1.1521469881749535, ,0.11021712143840974,0.0778481883170392,0.031479864664031625,-0.01329284825588289,0.1633376535597998,-0.13575811592111564, ,1.2371540069580078
0.013890233515062399,0.021487717034579034,-0.09035831322853558, ,0.014894149812655274,0.020928309853487672,-0.09134725560188314, ,0.001516176554571231, ,0.01636104661257453,-0.0007772540393177479,-0.02905238460201575,0.060006947514623266,0.03827463271313047,-0.05992678821720486, ,0.03335159698071315, ,0.07117415656174043, ,0.0007867557182472654, ,0.231774659021226,-0.20506944874215763,0.10427097502,1.9008393376872132,0.9985395402858388,-1.1521469881749535, ,0.11021712143840974,0.0778481883170392,0.031479864664031625,-0.01329284825588289,0.1633376535597998,-0.13575811592111564, ,1.239063024520874
0.013890233515062399,0.021487717034579034,-0.09035831322853558, ,0.01493512528607559,0.020923628070418556,-0.09141800457935233, ,0.0015915215774894658, ,0.01636104661257453,-0.0007772540393177479,-0.02905238460201575,0.060006947514623266,0.03827463271313047,-0.05992678821720486, ,0.03335159698071315, ,0.07117415656174043, ,0.0007925454006878568, ,0.231774659021226,-0.20506944874215763,0.10427097502,1.9008393376872132,0.9985395402858388,-1.1521469881749535, ,0.11021712143840974,0.0778481883170392,0.031479864664031625,-0.01329284825588289,0.1633376535597998,-0.13575811592111564, ,1.2411351203918457
0.013890233515062399,0.021487717034579034,-0.09035831322853558, ,0.014976147686829895,0.020918856446208826,-0.09148858988088704, ,0.0016674343370271642, ,0.01636104661257453,-0.0007772540393177479,-0.02905238460201575,0.060006947514623266,0.03827463271313047,-0.05992678821720486, ,0.03335159698071315, ,0.07117415656174043, ,0.0007987946073759947, ,0.23365900584253677,-0.203741138687791,0.10474930603000002,1.8987424382523679,1.0016821797804438,-1.1546279212198307, ,0.1144715820970697,0.08397959429953167,0.028343080996441283,-0.13621988473364005,0.12835905239750825,-0.09979466260423318, ,1.2431511878967285
0.014151279045073881,0.021448566515164108,-0.09079904204673189, ,0.01501721668166045,0.020913996123477975,-0.09155901296648161, ,0.0012701060164371448, ,0.01707304489894122,-0.0027585878953734193,-0.02837654812876219,-0.04996410387226249,-0.06763671858030075,0.05839468059262048, ,0.033231418161157676, ,0.08408994575403407, ,0.0008021372414828115, ,0.23365900584253677,-0.203741138687791,0.10474930603000002,1.8987424382523679,1.0016821797804438,-1.1546279212198307, ,0.1144715820970697,0.08397959429953167,0.028343080996441283,-0.13621988473364005,0.12835905239750825,-0.09979466260423318, ,1.2451441287994385
0.014151279045073881,0.021448566515164108,-0.09079904204673189, ,0.015058331938385933,0.020909048241264886,-0.09162927528996861, ,0.001342800118153229, ,0.01707304489894122,-0.0027585878953734193,-0.02837654812876219,-0.04996410387226249,-0.06763671858030075,0.05839468059262048, ,0.033231418161157676, ,0.08408994575403407, ,0.0008059447265297862, ,0.23365900584253677,-0.203741138687791,0.10474930603000002,1.8987424382523679,1.0016821797804438,-1.1546279212198307, ,0.1144715820970697,0.08397959429953167,0.028343080996441283,-0.13621988473364005,0.12835905239750825,-0.09979466260423318, ,1.2470650672912598
0.014151279045073881,0.021448566515164108,-0.09079904204673189, ,0.015099493125900105,0.020904013935031752,-0.0916993782990295, ,0.0014164225438784907, ,0.01707304489894122,-0.0027585878953734193,-0.02837654812876219,-0.04996410387226249,-0.06763671858030075,0.05839468059262048, ,0.033231418161157676, ,0.08408994575403407, ,0.0008102138021755813, ,0.23365900584253677,-0.203741138687791,0.10474930603000002,1.8987424382523679,1.0016821797804438,-1.1546279212198307, ,0.1144715820970697,0.08397959429953167,0.028343080996441283,-0.13621988473364005,0.12835905239750825,-0.09979466260423318, ,1.2490050792694092
0.014151279045073881,0.021448566515164108,-0.09079904204673189, ,0.01514069991417063,0.02089889433666841,-0.09176932343520154, ,0.0014908182762587003, ,0.01707304489894122,-0.0027585878953734193,-0.02837654812876219,-0.04996410387226249,-0.06763671858030075,0.05839468059262048, ,0.033231418161157676, ,0.08408994575403407, ,0.0008149402221344919, ,0.23365900584253677,-0.203741138687791,0.10474930603000002,1.8987424382523679,1.0016821797804438,-1.1546279212198307, ,0.1144715820970697,0.08397959429953167,0.028343080996441283,-0.13621988473364005,0.12835905239750825,-0.09979466260423318, ,1.2509469985961914
0.014336529076880232,0.021420916553550808,-0.09110708967068037, ,0.01518195197423703,0.020893690574496727,-0.09183911213388966, ,0.0012363510808050002, ,0.01899610837089897,-0.0022112115151355664,-0.031653117300318535,-0.0908323722699204,-0.09282892851876035,-0.03768382826021322, ,0.03698190671708708, ,0.12987570229781642, ,0.0008178465039184264, ,0.23489464310241268,-0.20277579707851295,0.10507337853000001,1.8981133684219145,1.0023653622792712,-1.1548582957777507, ,0.12119660480009038,0.09895405793375472,0.03311603226611227,0.030581398443616854,0.02394709496185271,0.011483733871853457, ,1.2531230449676514
0.014336529076880232,0.021420916553550808,-0.09110708967068037, ,0.015223248978209881,0.020888403773274628,-0.09190874582437417, ,0.0013086231823281494, ,0.01899610837089897,-0.0022112115151355664,-0.031653117300318535,-0.0908323722699204,-0.09282892851876035,-0.03768382826021322, ,0.03698190671708708, ,0.12987570229781642, ,0.0008212079880171231, ,0.23489464310241268,-0.20277579707851295,0.10507337853000001,1.8981133684219145,1.0023653622792712,-1.1548582957777507, ,0.12119660480009038,0.09895405793375472,0.03311603226611227,0.030581398443616854,0.02394709496185271,0.011483733871853457, ,1.2550091743469238
0.014336529076880232,0.021420916553550808,-0.09110708967068037, ,0.01526459059926917,0.020883035054200482,-0.09197822592982041, ,0.0013818440862379253, ,0.01899610837089897,-0.0022112115151355664,-0.031653117300318535,-0.0908323722699204,-0.09282892851876035,-0.03768382826021322, ,0.03698190671708708, ,0.12987570229781642, ,0.0008250218390254279, ,0.23489464310241268,-0.20277579707851295,0.10507337853000001,1.8981133684219145,1.0023653622792712,-1.1548582957777507, ,0.12119660480009038,0.09895405793375472,0.03311603226611227,0.030581398443616854,0.02394709496185271,0.011483733871853457, ,1.2569680213928223
0.014336529076880232,0.021420916553550808,-0.09110708967068037, ,0.015305976511662813,0.020877585534917312,-0.09204755386728841, ,0.001455853642959154, ,0.01899610837089897,-0.0022112115151355664,-0.031653117300318535,-0.0908323722699204,-0.09282892851876035,-0.03768382826021322, ,0.03698190671708708, ,0.12987570229781642, ,0.0008292842160790341, ,0.23489464310241268,-0.20277579707851295,0.10507337853000001,1.8981133684219145,1.0023653622792712,-1.1548582957777507, ,0.12119660480009038,0.09895405793375472,0.03311603226611227,0.030581398443616854,0.02394709496185271,0.011483733871853457, ,1.2588751316070557
0.014336529076880232,0.021420916553550808,-0.09110708967068037, ,0.015347406390705339,0.02087205632951684,-0.09211673104774129, ,0.0015305215449010648, ,0.01899610837089897,-0.0022112115151355664,-0.031653117300318535,-0.0908323722699204,-0.09282892851876035,-0.03768382826021322, ,0.03698190671708708, ,0.12987570229781642, ,0.0008339905068764974, ,0.23489464310241268,-0.20277579707851295,0.10507337853000001,1.8981133684219145,1.0023653622792712,-1.1548582957777507, ,0.12119660480009038,0.09895405793375472,0.03311603226611227,0.030581398443616854,0.02394709496185271,0.011483733871853457, ,1.2607920169830322
0.01453146567194246,0.02140030608920019,-0.09144449026818299, ,0.015388879912776572,0.020866448548544216,-0.09218575887605522, ,0.0012528536239789596, ,0.01946014922350382,-0.001375286455063623,-0.03403495616847791,0.04317826325176302,0.01649096417770126,-0.09645845129650973, ,0.0392296706846327, ,0.046219786320125716, ,0.0008367829276571805, ,0.23614572582803706,-0.20177184180486377,0.10543115457,1.8981133684219145,1.003321817777629,-1.1553931848832037, ,0.12569131332247785,0.09585549652370785,0.03661795751724139,0.018794080879053876,0.14924738279046074,-0.13219703087989307, ,1.2628960609436035
0.01453146567194246,0.02140030608920019,-0.09144449026818299, ,0.015430396755319943,0.020860763299001633,-0.09225463875102834, ,0.0013249619161976203, ,0.01946014922350382,-0.001375286455063623,-0.03403495616847791,0.04317826325176302,0.01649096417770126,-0.09645845129650973, ,0.0392296706846327, ,0.046219786320125716, ,0.0008400159010912232, ,0.23614572582803706,-0.20177184180486377,0.10543115457,1.8981133684219145,1.003321817777629,-1.1553931848832037, ,0.12569131332247785,0.09585549652370785,0.03661795751724139,0.018794080879053876,0.14924738279046074,-0.13219703087989307, ,1.2647981643676758
0.01453146567194246,0.02140030608920019,-0.09144449026818299, ,0.015471956596841448,0.020855001684353065,-0.09232337206539082, ,0.0013979675558561033, ,0.01946014922350382,-0.001375286455063623,-0.03403495616847791,0.04317826325176302,0.01649096417770126,-0.09645845129650973, ,0.0392296706846327, ,0.046219786320125716, ,0.0008436866356620449, ,0.23614572582803706,-0.20177184180486377,0.10543115457,1.8981133684219145,1.003321817777629,-1.1553931848832037, ,0.12569131332247785,0.09585549652370785,0.03661795751724139,0.018794080879053876,0.14924738279046074,-0.13219703087989307, ,1.266700029373169
0.01453146567194246,0.02140030608920019,-0.09144449026818299, ,0.01551355911690787,0.02084916480452828,-0.09239196020581257, ,0.0014717212823852294, ,0.01946014922350382,-0.001375286455063623,-0.03403495616847791,0.04317826325176302,0.01649096417770126,-0.09645845129650973, ,0.0392296706846327, ,0.046219786320125716, ,0.0008477914372746147, ,0.23614572582803706,-0.20177184180486377,0.10543115457,1.8981133684219145,1.003321817777629,-1.1553931848832037, ,0.12569131332247785,0.09585549652370785,0.03661795751724139,0.018794080879053876,0.14924738279046074,-0.13219703087989307, ,1.2686030864715576
0.01453146567194246,0.02140030608920019,-0.09144449026818299, ,0.01555520399614551,0.020843253755927136,-0.09246040455291425, ,0.0015461013202141855, ,0.01946014922350382,-0.001375286455063623,-0.03403495616847791,0.04317826325176302,0.01649096417770126,-0.09645845129650973, ,0.0392296706846327, ,0.046219786320125716, ,0.0008523259170339626, ,0.23614572582803706,-0.20177184180486377,0.10543115457,1.8981133684219145,1.003321817777629,-1.1553931848832037, ,0.12569131332247785,0.09585549652370785,0.03661795751724139,0.018794080879053876,0.14924738279046074,-0.13219703087989307, ,1.2705700397491455
0.01453146567194246,0.02140030608920019,-0.09144449026818299, ,0.01559689091623885,0.020837269631423804,-0.0925287064812754, ,0.0016210076497974448, ,0.01946014922350382,-0.001375286455063623,-0.03403495616847791,0.04317826325176302,0.01649096417770126,-0.09645845129650973, ,0.0392296706846327, ,0.046219786320125716, ,0.0008572851540195334, ,0.23750492681390056,-0.200713827401095,0.10582133786000002,1.8981133684219145,1.0053713652741108,-1.1569827746985095, ,0.13673910887387722,0.10783743358917133,0.03847539014492755,-0.010819646340173237,0.19994116587796265,-0.15745936443205147, ,1.272956132888794
0.01473802787765763,0.02138044010484295,-0.09180484429046391, ,0.01563861955992921,0.02083121352037096,-0.09259686735944384, ,0.0013190965700296165, ,0.020678253592308283,-0.0024013938058590686,-0.03558496044211648,0.055858737594614224,0.046557215178668086,-0.07634243901758272, ,0.041226766469196, ,0.07271668165399736, ,0.0008602454836093417, ,0.23750492681390056,-0.200713827401095,0.10582133786000002,1.8981133684219145,1.0053713652741108,-1.1569827746985095, ,0.13673910887387722,0.10783743358917133,0.03847539014492755,-0.010819646340173237,0.19994116587796265,-0.15745936443205147, ,1.2763609886169434
0.01473802787765763,0.02138044010484295,-0.09180484429046391, ,0.015680389611013038,0.02082508650860423,-0.09266488854994528, ,0.001391452256318825, ,0.020678253592308283,-0.0024013938058590686,-0.03558496044211648,0.055858737594614224,0.046557215178668086,-0.07634243901758272, ,0.041226766469196, ,0.07271668165399736, ,0.0008636289662380645, ,0.23750492681390056,-0.200713827401095,0.10582133786000002,1.8981133684219145,1.0053713652741108,-1.1569827746985095, ,0.13673910887387722,0.10783743358917133,0.03847539014492755,-0.010819646340173237,0.19994116587796265,-0.15745936443205147, ,1.2783570289611816
0.01473802787765763,0.02138044010484295,-0.09180484429046391, ,0.01572220075434066,0.02081888967844607,-0.0927327714092927, ,0.0014645763450373524, ,0.020678253592308283,-0.0024013938058590686,-0.03558496044211648,0.055858737594614224,0.046557215178668086,-0.07634243901758272, ,0.041226766469196, ,0.07271668165399736, ,0.0008674324306608448, ,0.23750492681390056,-0.200713827401095,0.10582133786000002,1.8981133684219145,1.0053713652741108,-1.1569827746985095, ,0.13673910887387722,0.10783743358917133,0.03847539014492755,-0.010819646340173237,0.19994116587796265,-0.15745936443205147, ,1.2811551094055176
0.014945207347359976,0.021349549624530756,-0.09216262787039368, ,0.015764052675815324,0.02081262410871038,-0.0928005172879952, ,0.0011686315033234901, ,0.02156596197964214,-0.0032288125756295975,-0.037504860747790504,-0.0019268713173961618,-0.0006219081391719576,0.0782152640714718, ,0.043383528285134566, ,0.0020063392082283484, ,0.000869326764451176, ,0.23887957326551254,-0.1996403675315778,0.10620503970000002,1.897064918704492,1.0071476397710615,-1.158431207446563, ,0.14313264186798005,0.10845364749539518,0.04022427151515152,-0.15561779536146209,0.18676524519697182,-0.12888653363406444, ,1.2832791805267334
0.014945207347359976,0.021349549624530756,-0.09216262787039368, ,0.015805945062390584,0.020806290874706524,-0.09286812753056721, ,0.0012384382317425682, ,0.02156596197964214,-0.0032288125756295975,-0.037504860747790504,-0.0019268713173961618,-0.0006219081391719576,0.0782152640714718, ,0.043383528285134566, ,0.0020063392082283484, ,0.0008716337111217472, ,0.23887957326551254,-0.1996403675315778,0.10620503970000002,1.897064918704492,1.0071476397710615,-1.158431207446563, ,0.14313264186798005,0.10845364749539518,0.04022427151515152,-0.15561779536146209,0.18676524519697182,-0.12888653363406444, ,1.2855219841003418
0.014945207347359976,0.021349549624530756,-0.09216262787039368, ,0.015847877602070303,0.02079989104824367,-0.0929356034755383, ,0.0013093622208439606, ,0.02156596197964214,-0.0032288125756295975,-0.037504860747790504,-0.0019268713173961618,-0.0006219081391719576,0.0782152640714718, ,0.043383528285134566, ,0.0020063392082283484, ,0.0008743525217411399, ,0.23887957326551254,-0.1996403675315778,0.10620503970000002,1.897064918704492,1.0071476397710615,-1.158431207446563, ,0.14313264186798005,0.10845364749539518,0.04022427151515152,-0.15561779536146209,0.18676524519697182,-0.12888653363406444, ,1.2874581813812256
0.014945207347359976,0.021349549624530756,-0.09216262787039368, ,0.01588984998390642,0.020793425697634815,-0.09300294645546181, ,0.0013812164411338554, ,0.02156596197964214,-0.0032288125756295975,-0.037504860747790504,-0.0019268713173961618,-0.0006219081391719576,0.0782152640714718, ,0.043383528285134566, ,0.0020063392082283484, ,0.0008774813113670208, ,0.23887957326551254,-0.1996403675315778,0.10620503970000002,1.897064918704492,1.0071476397710615,-1.158431207446563, ,0.14313264186798005,0.10845364749539518,0.04022427151515152,-0.15561779536146209,0.18676524519697182,-0.12888653363406444, ,1.289335012435913
