NicholasDascanio/dvrk_moveit_final/test/execution/third_experiment_notsharpbends/thirdexp_600vel5.0/thirdexp_600vel5.0_7.csv
Current Position (x),Current Position (y),Current Position (z), ,Planned Position (x),Planned Position (y),Planned Position (z), ,Position Error,,Cartesian linear Velocity(x),Cartesian linear Velocity(y),Cartesian linear Velocity(z),Cartesian Angular Velocity(x),Cartesian Angular Velocity(y),Cartesian Angular Velocity(z), ,Total Linear Velocity, ,Total Angular Velocity, ,MSE, ,Joint 1 Position,Joint 2 Position,Joint 3 Position,Joint 4 Position,Joint 5 Position,Joint 6 Position, ,Joint 1 Velocity,Joint 2 Velocity,Joint 3 Velocity,Joint 4 Velocity,Joint 5 Velocity,Joint 6 Velocity, ,Time Stamp
0.009953875762698254,0.020590176470286974,-0.07743895165192129, ,0.010077443098878642,0.020502115042701715,-0.07760756899003719, ,0.00022683806627716717, ,2.8043822195817454e-05,-2.421343388647273e-05,-2.8333822959274194e-06,0.09842531813712588,-0.00027770442755533807,-0.10324347732748415, ,3.7158772842494197e-05, ,0.09842570990418878, ,1.890317218976393e-05, ,0.21957274107995126,-0.22599805483130606,0.09101770606000001,1.9249536811879335,0.9936206262942829,-1.1108087593976455, ,0.0003991353450319959,0.00016694530949634044,0.0,-0.0016195016914535372,0.0,-0.22023725370858172, ,0.020206212997436523
0.009956200654704712,0.02059098502585823,-0.07744953333062188, ,0.010103451016899972,0.020499831900152424,-0.07773435094981283, ,0.0003333356232000681, ,0.0003390859305516838,0.00027063534452952587,-0.0012793579556571084,0.15655796044647444,-0.00030843703922614257,-0.16494661995425206, ,0.00135091803478592, ,0.15655826427424263, ,2.546244043078342e-05, ,0.21958046381282548,-0.2259748866326834,0.09103066896,1.9249536811879335,0.9937572627940484,-1.113288860765418, ,0.000726654414794266,0.00024812811092958704,0.001343791583825432,-0.0016009421725453902,0.0,-0.22888347859288816, ,0.03871607780456543
0.009977682042088544,0.020593486610426755,-0.07750168488575887, ,0.010129651185008378,0.020497528887840313,-0.07786114082487763, ,0.00040188440762427925, ,0.001515299121448852,0.0003660373603565695,-0.003524211953891567,0.15532566748122792,-0.1419190467907329,-0.2589164097076225, ,0.003853593734761448, ,0.2103974306400522, ,3.006431553442233e-05, ,0.2195881865456997,-0.2259131047696896,0.09106955766000001,1.9247439912444493,0.9917077152975667,-1.1180702126810764, ,-0.00022359982213011455,0.002674996142480102,0.002560490519209131,-0.00044207468959345697,-0.15622601088404875,-0.2961370164069925, ,0.0578160285949707
0.010016513911828825,0.020602561772286962,-0.07762082717585442, ,0.010156042671668974,0.020495206258844666,-0.07798793644418857, ,0.0004071396516992965, ,0.002066707830387617,0.001086408507774591,-0.007214774604080112,0.14070659736132743,-0.09451272101824143,-0.18974129217601415, ,0.0075831746181681614, ,0.16950221519415648, ,3.259994640001931e-05, ,0.21957274107995126,-0.22582043197519888,0.0911680757,1.923905231470511,0.9884284393031961,-1.1220938396838882, ,0.0007484979790601594,0.003326311314560418,0.006795568054607509,-0.025520737265104766,-0.09674243484753159,-0.2572915046774802, ,0.07766103744506836
0.010058435772975367,0.02062339675629469,-0.07777574214413234, ,0.010182624547633596,0.020492864265837726,-0.07811473564455296, ,0.0003838986534795772, ,0.0025354380326323175,0.0012220064132397964,-0.009413891096505466,0.14096630666632395,-0.12922479467942918,-0.1993556130569434, ,0.009825634395202303, ,0.19123427282040853, ,3.371339235154593e-05, ,0.2195881865456997,-0.22569686824921129,0.09131714905,1.9234858515835418,0.9869254378057764,-1.1285460443164403, ,-0.0010545862622705286,0.005554646595976724,0.008756905728422212,-0.0439541239485591,-0.13202839823885057,-0.2808959028573645, ,0.09820222854614258
0.010108836193703221,0.020645189027003706,-0.07794811883378845, ,0.010209395885937982,0.020490503161084864,-0.07824153627061878, ,0.00034660317519245274, ,0.0012366567470126408,0.0005714109133523047,-0.0062798910265427135,-0.2233371037642137,0.003441612233464431,0.24393365625141605, ,0.006425952197696595, ,0.22336361969395488, ,3.386612221730388e-05, ,0.21958046381282548,-0.22551924539310414,0.09147659272000001,1.9234858515835418,0.984329344310233,-1.125040565563819, ,-0.0007257737505034671,0.00890147411839312,0.00641256502415459,-0.0239090001714743,0.008789100048955886,0.3060965500051511, ,0.11770009994506836
0.010117783588639767,0.020649336032681084,-0.07805451396207923, ,0.010236355761899883,0.020488123196444642,-0.0783683361748642, ,0.0003722006449165331, ,0.0004104850310412481,0.00018938013809452638,-0.0047476967326112365,-0.022151719605266226,0.10433334114377267,0.08842453388679267, ,0.004769170479471356, ,0.10665901158964944, ,3.433194753318575e-05, ,0.21958046381282548,-0.2252952861397516,0.09159974027000001,1.922647091809604,0.9869254378057764,-1.1226651750263201, ,-0.0005040913034479437,0.011875477607116856,0.005509792985126254,-0.015741410492653665,0.11739507458154039,0.05979246175964009, ,0.1368560791015625
0.010136829811026428,0.020645901925601524,-0.07816495188606337, ,0.01026350325311621,0.020485724623368888,-0.07849513321758923, ,0.0003882301389248253, ,0.001094675216143557,0.00010762255282585593,-0.005159949343342092,0.03135593962029574,0.014532613119459551,-0.045224086076987476, ,0.0052758860553059886, ,0.034559973812108985, ,3.4879638552612184e-05, ,0.21957274107995126,-0.22498637682478265,0.09171251750000001,1.9220180219791505,0.9876086203046036,-1.1228138708440993, ,0.0,0.013959538328695318,0.0052397406315789485,0.004980639911905648,0.014567393377247261,-0.05743918980701666, ,0.15790820121765137
0.0101640227683937,0.020650015001734794,-0.07828679794579695, ,0.01029083743946092,0.02048330769290308,-0.07862192526690519, ,0.0003952007198487697, ,0.0014832009095870416,0.0002875015450866868,-0.006883639139010756,0.028739778512137434,0.005850151150685544,-0.04046529290303885, ,0.007047483939162103, ,0.029329151401921265, ,3.5384033490901836e-05, ,0.21957274107995126,-0.2246929129755621,0.09183436876,1.9220180219791505,0.9876086203046036,-1.1239573732060673, ,0.0,0.015508570282476021,0.0069467123942433505,-0.005883884615289426,0.007736470533853505,-0.06204661551401303, ,0.17646503448486328
0.010178230834636396,0.02064847527681127,-0.07835800235460809, ,0.01031835740308256,0.020480872655686183,-0.07874871019872573, ,0.0004476368095315132, ,0.0012597920205262895,-0.00026399197756668243,-0.006352577904389968,-0.0025992349607961702,-0.004934015909305136,0.0204331584942215, ,0.006481667511570222, ,0.005576784470394805, ,3.666304842271765e-05, ,0.21957274107995126,-0.22453845831807762,0.09190307213000001,1.9213889521486966,0.9876086203046036,-1.1242840881666296, ,0.0,0.016674915051567523,0.006231929389671363,-0.04789177518674965,0.006248109453146014,-0.032633860389198535, ,0.19398212432861328
0.01021774564435426,0.020652802302421388,-0.07853197803344206, ,0.010346062228402035,0.020478419761951017,-0.07887548589675697, ,0.000406044416685868, ,0.0014442401664955308,0.00010126134254850172,-0.006857685735231054,-0.01622957703011979,-0.004362807931618255,0.026659356219274084, ,0.007008847063619325, ,0.016805750458048423, ,3.7354657339821364e-05, ,0.2195881865456997,-0.22411370800999528,0.09207807128,1.9211792622052122,0.9876086203046036,-1.1250191968278946, ,0.0003452337946483034,0.014895140724920854,0.006845213373442201,-0.035251372343124254,0.004159279536734955,-0.006640803598317385, ,0.21410918235778809
0.01024623744258029,0.020651898362198422,-0.0786643568058075, ,0.01037395100210997,0.02047594926152442,-0.07900225025248832, ,0.0004017969893187072, ,0.0013194616540320604,1.6820737655977308e-05,-0.00624018939105546,0.009912955924306572,-0.0003949082971135906,-0.016008431371044407, ,0.006378183568220455, ,0.00992081842683582, ,3.790596047646266e-05, ,0.21959590927857392,-0.22378935322927784,0.09220899657,1.9205501923747585,0.9876086203046036,-1.1253459117884568, ,-0.000168849802255992,0.01577933846998184,0.006207642837100547,-0.016401155257696594,0.003303205321768096,-0.040272674684340266, ,0.23102307319641113
0.01025889526513561,0.0206476216903998,-0.07873107812150991, ,0.010402022813164616,0.020473461403827106,-0.07912900116518215, ,0.00045734018969390705, ,0.0013170086040955524,-0.0003384626824056505,-0.007086665406132424,-0.00817774974252684,-0.016749363856881777,0.055501691181594724, ,0.007215947285638732, ,0.018639119147323295, ,3.881366786244503e-05, ,0.21959590927857392,-0.22362717583891914,0.09227381107,1.9197114326008204,0.9876086203046036,-1.1255092692687378, ,-0.000168849802255992,0.015892972962396716,0.00693159770234987,-0.08891903486734892,0.0029958790170967337,-0.036671511631207854, ,0.2485790252685547
0.010291263827982264,0.020653448376112597,-0.07888436087217829, ,0.01043027675278918,0.02047095643787424,-0.07925573654186496, ,0.00043651779897341177, ,0.0016140327215802158,0.0003166602523868019,-0.007381997779813478,0.011807338571652125,0.00047043173927842645,-0.03298197834305353, ,0.007563019672256871, ,0.011816705473416893, ,3.9450126170557485e-05, ,0.2195881865456997,-0.22328737559245324,0.09242806958000001,1.919501742657336,0.9877452568043691,-1.1261924383534183, ,-0.00041342153320641286,0.016680777211895023,0.00739842615884812,0.0,0.0,-0.040623162664800955, ,0.2658541202545166
0.010318019343623447,0.02065557603003764,-0.07901781378422662, ,0.010458711914469699,0.020468434612275314,-0.07938245429731772, ,0.00043333475918827416, ,0.0016069367338099685,6.16237034993616e-05,-0.00740857723838687,-0.000595403456828507,-0.005488841109473287,-0.0013816607029092161, ,0.007581098854680952, ,0.005521037917138549, ,3.9986315373661986e-05, ,0.21957274107995126,-0.22297846627748427,0.09256158745000001,1.9190823627703668,0.9878818933041345,-1.1270389649183796, ,0.0003269782776278105,0.017434676016621492,0.007364221692094315,-0.026295336272174296,0.000664040136149847,-0.031553163828993584, ,0.2897670269012451
0.010347862037331082,0.020652161442277314,-0.07915868652695397, ,0.010487327393952573,0.020465896175234203,-0.07950915235406569, ,0.0004206799631279147, ,0.0014944518309654659,0.0002756072152721343,-0.006129885718737296,0.008120044161991304,0.005991279651693467,-0.04816449607724022, ,0.006315444919953428, ,0.010091111950750945, ,4.037859359795203e-05, ,0.21958046381282548,-0.22262322056526995,0.09270029048,1.918243602996429,0.9878818933041345,-1.1274473586190825, ,0.0006899456699960316,0.016086953985162026,0.006171565873692368,0.027570911979600373,0.0006047214056545494,-0.02572551055061917, ,0.30637216567993164
0.010374859095317266,0.020654540750919582,-0.07927151317599665, ,0.010516122289242051,0.020463341374549655,-0.0796358286423698, ,0.0004350152302170216, ,0.0013354668456678697,-1.0802097956936856e-05,-0.00580352820836506,-0.014750934733747967,-0.001563868391913032,0.0009619430357507116, ,0.00595521015972462, ,0.014833602168150575, ,4.0815227060363324e-05, ,0.21959590927857392,-0.22232203398317518,0.09281306771,1.9184532929399134,0.9878818933041345,-1.1276923948395043, ,0.0007246586934398924,0.015561977953176579,0.005765042171552661,-0.006145303558593839,0.0005595924359821006,-0.0022881526339038833, ,0.3247380256652832
0.010403157199214723,0.02064935003728805,-0.07942208374885025, ,0.01054509570059817,0.02046077045761514,-0.07976248110021616, ,0.0004142211400466195, ,0.001459800947640425,-0.00024026488204115085,-0.007384843161838688,-0.025261539404529507,-0.006113827737197372,0.05867613919241423, ,0.007531577161871858, ,0.025990849172794962, ,4.1086233398532976e-05, ,0.21959590927857392,-0.22195134280521242,0.09296343735000001,1.9171951532790064,0.9882918028034308,-1.1284350422512963, ,0.00040187148175740186,0.017409088526595264,0.007313503911845732,-0.06614236740409057,0.009635946004699462,-0.004376564936128802, ,0.3427541255950928
0.010419166704503621,0.020650586121860454,-0.07949629405442665, ,0.010574246730533941,0.02045818367141915,-0.07988910767330724, ,0.00046408087289550047, ,0.0015778780821882165,0.00033732857860909073,-0.007064170728627528,0.02362687514198024,0.008770511699589721,-0.04229529962109303, ,0.0072461022553780155, ,0.025202204007898594, ,4.160439148814124e-05, ,0.21959590927857392,-0.22178144268197947,0.09303732588000001,1.9169854633355217,0.9882918028034308,-1.1286800784717181, ,0.00040187148175740186,0.01586374817092457,0.007159016413483147,0.004231675850577336,0.00889121835749319,-0.05158184723141833, ,0.36017513275146484
0.010452555937642114,0.020657369577089343,-0.07964340523477026, ,0.010603574483813454,0.020455581262545187,-0.08001570631505181, ,0.0004495922814652028, ,0.0016079551746175469,0.00020258370134300938,-0.00730363211466509,0.006517700702515092,0.00536053699590433,-0.01973088881896752, ,0.007481283450451295, ,0.008438942975852168, ,4.221890280161531e-05, ,0.21959590927857392,-0.2214416424355136,0.09318510294000001,1.9171951532790064,0.9882918028034308,-1.1290884721724208, ,0.0003476092539267553,0.017166595795671268,0.00735062829718505,-0.005501646883490412,0.007494977898162242,-0.03224499975461127, ,0.3787040710449219
0.010479623648254475,0.020648209467289333,-0.0797796653258542, ,0.010633078067449096,0.02045296347717223,-0.08014227498655536, ,0.0004394940516787194, ,0.0012853751855539568,-0.0006409201614158066,-0.0065155224113688055,-0.017909069867447662,-0.014987659420037052,0.04543226356348147, ,0.006671956258399504, ,0.023353044912088772, ,4.273275547467489e-05, ,0.21960363201144817,-0.2210709512575508,0.09331862081,1.9159370136180989,0.9884284393031961,-1.129444926296539, ,0.0001702989785579604,0.019202133055133706,0.006288516194236085,-0.06891450524898289,0.0002820364489839081,-0.022267505546531563, ,0.3939170837402344
0.010494025153855686,0.020646933730638323,-0.07984429638100561, ,0.010662756590699445,0.020450330561074433,-0.080268811656611, ,0.0004973291900585008, ,0.0013766664600451406,-0.00032994367919902067,-0.007046458779540374,-0.005622761402942645,-0.0001789955193546134,0.020016301558569375, ,0.007187256410162241, ,0.005625608217622362, ,4.348745035943752e-05, ,0.2196113547443224,-0.2208778829356952,0.09338343531000001,1.9159370136180989,0.9885650758029616,-1.1297197016805165, ,-0.0003874994821848261,0.019268414529638737,0.006958851690694627,-0.044256917937107565,0.009897785080008246,-0.028586788785716293, ,0.4107401371002197
0.010526380818845677,0.02064845885894257,-0.08000058169230995, ,0.010692609165066558,0.020447682759621805,-0.08039531430168984, ,0.00047302932050100993, ,0.0016803112053000737,0.00010015973803511433,-0.008144251059135008,0.014649220372411204,0.021463178944040217,-0.02844609078784374, ,0.008316387619273282, ,0.025985912954380106, ,4.4072168666098775e-05, ,0.2196113547443224,-0.22048402355910976,0.09354158269000001,1.9157273236746146,0.988974985302258,-1.1304623490923085, ,-0.00032698913985922687,0.021220246323450532,0.008257548740279938,0.0,0.022952780558781027,-0.041686527874489634, ,0.4261810779571533
0.010543657672182282,0.02064448163313198,-0.08009072000051254, ,0.010722634904294127,0.020445020317779755,-0.08052178090593033, ,0.000507573807555182, ,0.001613718719065625,-0.00028115280609530347,-0.008206229383129308,0.0015888477960725002,0.003089900606163494,0.022062949217942808, ,0.008368114225628909, ,0.003474461952595473, ,4.4770350910361797e-05, ,0.21960363201144817,-0.22026778703863145,0.09362973041000001,1.9148885639006763,0.988974985302258,-1.1307890640528708, ,6.68860658782926e-05,0.018614543263725143,0.007944544399002496,-0.08907433286875838,0.020294427719509227,-0.01712871164851953, ,0.4426310062408447
0.010567966694611235,0.020641144593568212,-0.08020663441768602, ,0.010752832924364441,0.02044234348010979,-0.08064820946113024, ,0.0005183492303536665, ,0.001981607301137347,0.0003978603280767022,-0.008773733885225241,0.016516795083535398,0.01984216012779149,-0.05537077013631161, ,0.009003525233225469, ,0.025816967025158507, ,4.5466813619365154e-05, ,0.2196113547443224,-0.21998976865515937,0.09374380393000001,1.9140498041267384,0.988974985302258,-1.130952421533152, ,0.00030129985482425114,0.021611692452395984,0.00892370393277311,0.027520780304268452,0.015305770528747702,-0.03964866019070825, ,0.4630241394042969
0.010624912396825906,0.020645915127290013,-0.08044782510200339, ,0.010783202343496615,0.02043965249076938,-0.08077459796673624, ,0.000417588897801616, ,0.0015024577453068187,-0.0002772763692077876,-0.00651812704552616,0.024739283287976522,0.008146555266435812,-0.045965544694721326, ,0.006694792128436333, ,0.02604608393878525, ,4.5693092564099165e-05, ,0.21964224567581928,-0.21937967275809564,0.09398491387,1.9142594940702229,0.988974985302258,-1.1322592813754009, ,0.0011561936528901241,0.020884010026071917,0.006483032771672773,0.0,0.010042962274415366,-0.06112983890345191, ,0.47829508781433105
0.010639866616975177,0.02064072473677249,-0.08051973495110655, ,0.010813742282143723,0.020436947593512174,-0.08090094442983474, ,0.00046591687855813643, ,0.0014412125393683294,-0.0003395258853999976,-0.006538361433329781,0.005742203163490459,0.002866337935163945,-0.010226323605107994, ,0.006703919871488876, ,0.006417848422953008, ,4.61011093854217e-05, ,0.21964224567581928,-0.21916343623761736,0.09405491353,1.9138401141832537,0.988974985302258,-1.1325043175958227, ,0.0009568635457816025,0.019799069801475232,0.006472495538399026,-0.020725742661912974,0.009009707325036621,-0.03892468616144436, ,0.49366211891174316
0.010666643679250657,0.020632319452774647,-0.08066040715123537, ,0.010844451862990764,0.02043422903168807,-0.0810272468651412, ,0.0004532404889567178, ,0.0017061738047481486,-9.908736663614688e-05,-0.008263860324959783,-0.010427563454009284,-0.005634269530863372,0.0239589874699663, ,0.008438734195877961, ,0.011852385168966102, ,4.6433517314056915e-05, ,0.2196499684086935,-0.2187927450596546,0.09419491285,1.9125819745223467,0.9893848948015543,-1.1332469650076147, ,7.760470836538672e-05,0.019171099304741573,0.008202271637487128,-0.04655429495114997,0.0049003729758551615,-0.02429671402430602, ,0.5091211795806885
0.010686538803960888,0.020636283744800712,-0.08075247319519796, ,0.010875330210952178,0.020431497048243475,-0.08115350329499237, ,0.00048826727043873, ,0.0020027539052552765,0.0002328528362495118,-0.009361884910090074,-0.011518121604981054,-0.0017501773052014094,0.010576462259223629, ,0.009576540749045917, ,0.011650329351235932, ,4.687931552751597e-05, ,0.2196499684086935,-0.21859195400492476,0.09428824573000001,1.9125819745223467,0.9895215313013198,-1.1334400616514517, ,0.00010009784044211458,0.019799069801475232,0.009380925512367492,-0.027863457492426923,0.004744831984818961,-0.017922514229890347, ,0.524118185043335
0.010707884301495612,0.02064084012709743,-0.08084520401136663, ,0.0109063764531692,0.020428751885721404,-0.08127971174933545, ,0.000522663879334281, ,0.0019426929210976593,0.00030935686598391744,-0.008996716041170732,-0.011534532472674112,-7.785404084746273e-05,0.006418059810975042, ,0.009209270165527403, ,0.011534792658453013, ,4.760239608752218e-05, ,0.21965769114156772,-0.21839888568306914,0.09438157861,1.9125819745223467,0.9895215313013198,-1.1336850978718733, ,0.00011250567475836207,0.018574464975234056,0.009040188149829742,-0.020072203704975453,0.004744831984818961,-0.013773081605364971, ,0.5384550094604492
0.010729917756011977,0.02064390475753435,-0.08094929626522847, ,0.010937589719007856,0.020425993786261795,-0.08140587026571879, ,0.0005468753546643345, ,0.00188210950126299,0.0002669349135840382,-0.008741209060448323,0.006342915015974675,0.014996800248955498,-0.02245580328355517, ,0.008945519898882256, ,0.016283013774273863, ,4.837652138481087e-05, ,0.2196808593401904,-0.2179509671763641,0.09458120727000001,1.9117432147484084,0.9897948043008505,-1.134152969899688, ,0.0008936345970187243,0.018319872887735674,0.007709976534365925,-0.016894903492614296,0.010313128172875725,-0.03604154157082645, ,0.55361008644104
0.010768089108644924,0.020638698585270836,-0.08112352032555001, ,0.010968969140056642,0.020423222991601108,-0.08153197688928218, ,0.0005036062777043087, ,0.0018021369438097413,-0.0003698024880955621,-0.007939291149769122,-0.008125443655001782,-0.01032509444742181,0.04010693589413351, ,0.008149650017347241, ,0.01313888801974426, ,4.895945646612053e-05, ,0.21970402753881307,-0.2177578988545085,0.09466028096000001,1.911114144917955,0.989931440800616,-1.134509424023806, ,0.003001023667458853,0.019386504914907208,0.0078621971964462,-0.06967628882875834,0.008332916032991721,-0.03366860491523832, ,0.566972017288208
0.010799916329055009,0.020640004672172554,-0.08126031357034036, ,0.011000513850123565,0.020420439743073334,-0.08165802967274789, ,0.0004966147618259396, ,0.001796619171771158,-2.059086788999932e-05,-0.007934560122526291,0.02055145415268224,0.00488853497219434,-0.0335172032435166, ,0.008135447668702724, ,0.02112486711235431, ,4.949014117840707e-05, ,0.21972719573743574,-0.2174103758751684,0.09479768770000001,1.911114144917955,0.9900680773003815,-1.1351109143683458, ,0.0011544913869465452,0.02030749872854072,0.007948508742514971,-0.010949553596991858,0.009034883538519554,-0.05809190802241463, ,0.5902500152587891
0.010828814785905971,0.020642362290506453,-0.08138345663684242, ,0.011032222985234172,0.020417644281609394,-0.08178402667641044, ,0.0005023240345395821, ,0.001642692766283825,8.836231768399526e-05,-0.00721266838159075,0.03239958751664657,0.005189721615474568,-0.04757754444557812, ,0.0073978937952897525, ,0.03281259609014447, ,5.001503359016037e-05, ,0.21975036393605843,-0.21713235749169632,0.09491824267000001,1.9109044549744705,0.9900680773003815,-1.1358460230296108, ,0.000980715115298584,0.017586534758797404,0.0072900739221967974,-0.005011348735600345,0.007810589179956305,-0.07029290000318299, ,0.6035010814666748
0.010862854047566919,0.020630354411830705,-0.08153404215548936, ,0.01106409568362933,0.020414836847737716,-0.08190996596812737, ,0.00047777058242000543, ,0.0016053342379780933,-0.0005881940790036639,-0.006753722869281654,-0.010198697775439289,-0.011836498526995413,0.024654659100866238, ,0.006966767032509246, ,0.015624215808898233, ,5.043498539045275e-05, ,0.21978897760042954,-0.21666899351924285,0.09506861231000001,1.9100656952005322,0.990204713800147,-1.1366925495945723, ,0.0028685968373898816,0.020088260279100503,0.006598513471416737,-0.05147019909448852,0.0022315241427631398,-0.028550052318852166, ,0.6183412075042725
0.010880674485809694,0.020628455508952204,-0.0815992866668443, ,0.011096131085762464,0.02041201768158407,-0.08203584562330955, ,0.0005327763152103139, ,0.001938865111480369,-0.00033719567107869043,-0.00741731814717239,-0.007491213767262957,-0.0104328339955436,0.010987773252653054, ,0.007673949917577183, ,0.012843764496223835, ,5.1012899916102736e-05, ,0.21982759126480067,-0.21647592519738723,0.09513342681,1.9100656952005322,0.990204713800147,-1.1367742283347129, ,0.0046153973476384565,0.0201994341333484,0.007343850401106501,-0.0368247219192613,0.002231762862417395,-0.02811345328339538, ,0.633735179901123
0.010924343337150602,0.020629938912387413,-0.08178172219394311, ,0.011128328334297428,0.0204091870228721,-0.08216166372491171, ,0.0004844552019953273, ,0.002370144508431405,0.00034920016140338857,-0.010239842790050526,-0.001453123147935954,0.0004163067113621064,-0.005159025813703463, ,0.01051636373032625, ,0.0015115441044323476, ,5.141341847768327e-05, ,0.2198970958606687,-0.21606662035505333,0.09531749999000001,1.9094366253700787,0.9904779867996778,-1.1374054578428086, ,0.0020247967427160975,0.020934688188500063,0.010329968560311285,-0.02063103581291862,0.0074045541039785695,-0.030805853435273978, ,0.6485061645507812
0.010946459637451961,0.02062793471579144,-0.08188701034479777, ,0.011160686574105964,0.02040634511092318,-0.08228741836342246, ,0.0005052936915822124, ,0.002211979821832937,3.3269945086864694e-05,-0.010306950162538648,-0.012082231160935914,-0.010732240654435569,0.04573011146900586, ,0.010541687875975916, ,0.01616048213921699, ,5.186080236149382e-05, ,0.21992026405929135,-0.21585810656744928,0.09542249948,1.9083881756526562,0.9906146232994433,-1.1377619119669267, ,0.0015808114207944643,0.020096768648553743,0.010296581460892051,-0.07384743683555779,0.007172866290431626,-0.030751960977322818, ,0.6621291637420654
0.010969765406817471,0.020630938216525493,-0.08198785618678962, ,0.011193204952265326,0.020403492184656685,-0.0824131076368555, ,0.0005315032677848183, ,0.0024041203220364236,0.0004401399806148534,-0.010035364056073184,0.006627816444367912,0.004361772263160228,-0.02893594190765301, ,0.010328700279478041, ,0.007934286755288993, ,5.2526477447946554e-05, ,0.21993570952503982,-0.21564959277984522,0.0955236101,1.9081784857091717,0.9906146232994433,-1.1380886269274888, ,0.002312338106025921,0.02103678598059649,0.010158680816326532,0.0,0.007172866290431626,-0.036378374597684685, ,0.6744282245635986
0.0109942399753615,0.020635008563011686,-0.08208859989394823, ,0.01122588261805593,0.020400628482590062,-0.08253872965073934, ,0.0005578612138890192, ,0.002285581080684788,0.0003602403031362308,-0.009401381682176732,0.023259311800171625,0.008621760518590323,-0.048154364147193554, ,0.009681922922971249, ,0.02480585145511378, ,5.324666246041344e-05, ,0.2199666004565367,-0.2154333562593669,0.09562601701000001,1.9081784857091717,0.9907512597992087,-1.1385267597917477, ,0.0026136266602095346,0.020824433082833174,0.009538210491017966,0.005641761997587151,0.010782234693654661,-0.05693875902593355, ,0.6867120265960693
0.011041213176662868,0.02063601488638741,-0.08227133160475629, ,0.011258718722959363,0.020397754242839003,-0.08266428251810808, ,0.0005084163817559782, ,0.002353482017442877,-0.00020416948971957113,-0.00932989674525737,-0.0036992645338714885,-0.003960827175109681,0.011961815580346931, ,0.009624320031260567, ,0.005419653061624998, ,5.379749746622539e-05, ,0.22005155051815317,-0.21500860595128457,0.09580879390000001,1.9077591058222025,0.9907512597992087,-1.1390985109727316, ,0.005032118523538809,0.02302206248385997,0.009342411448680353,-0.041813753082927584,0.010782234693654661,-0.035685769920554236, ,0.6981680393218994
0.011063257598217935,0.02063140993676438,-0.08236784495010736, ,0.011291712420655138,0.02039486970311773,-0.08278976435949187, ,0.0005349381983405147, ,0.0022100740662939268,-0.00033817734304400547,-0.010197655883357477,-0.013872601114707808,-0.012113251993373424,0.0516874391617944, ,0.01043987436750216, ,0.018416835375858857, ,5.4405386330245916e-05, ,0.2200901641825243,-0.21477692396505785,0.09590471936000002,1.9069203460482644,0.9908878962989741,-1.1397000013172711, ,0.0021705118584589927,0.023038830191422863,0.010113531123809524,-0.08346861339891422,0.008443308440732277,-0.03479784782463048, ,0.7112140655517578
0.011079802448009445,0.02063399246148007,-0.08244181332092196, ,0.011324862867018918,0.020391975100738976,-0.08291517330290687, ,0.0005854030102501556, ,0.002196421301320447,-1.2042259618308003e-06,-0.01004349671030234,-0.007152210955180532,-0.004805985333014214,0.020235668837925408, ,0.010280860574529172, ,0.008616931842292508, ,5.513488123804502e-05, ,0.22009788691539853,-0.21461474657469912,0.09597990418,1.9069203460482644,0.9910245327987396,-1.1399747767012487, ,0.001294331986016663,0.021690729499079034,0.010037058298676748,-0.04858721821534517,0.0073545922715958405,-0.032296967312870524, ,0.7231781482696533
0.011113859157580014,0.020636149022067694,-0.08258230910992442, ,0.011358169220120095,0.020389070672614237,-0.08304050748384662, ,0.0005750485782018107, ,0.002502066442201548,0.00011029320526570422,-0.010329990749152383,0.00762128816814146,0.011461763365844854,-0.02555829398488521, ,0.010629261966378131, ,0.013764299298237777, ,5.5811444370381696e-05, ,0.22014422331264388,-0.21427494632823324,0.09612249608000001,1.9069203460482644,0.9912978057982704,-1.1405243274692038, ,0.0033693783515925156,0.025005781701836833,0.010451976062992127,-0.005144309919548211,0.017199929223333275,-0.04098704532319784, ,0.735274076461792
0.011140906769509944,0.020637196542944807,-0.0826938301807097, ,0.011391630640219369,0.020386156655253763,-0.0831657650452711, ,0.000590428658640514, ,0.0026111779018039996,0.00010045050901013791,-0.010683988625960985,-0.013207021192734225,0.010411519749386002,-0.0026836579813447553, ,0.01099890691383892, ,0.016817402090342583, ,5.650779312356487e-05, ,0.22017511424414077,-0.21402009614338383,0.09623397702000001,1.90671065610478,0.9912978057982704,-1.140687684949485, ,0.0037948745177675816,0.02573127482604956,0.010806520705563096,-0.007903359731725759,0.017199929223333275,-0.01274138708747458, ,0.7466530799865723
0.011163074476884631,0.02063184311606595,-0.08278779246346989, ,0.011425246289766064,0.020383233284767023,-0.08329094413759854, ,0.0006194372566018931, ,0.0024279213324628055,-0.000563928593943636,-0.01010303622052197,-0.02351410244203226,-0.016542417927112092,0.07096013196156671, ,0.010405967438391976, ,0.028750034769901615, ,5.72595102760059e-05, ,0.22026778703863145,-0.2135335639723077,0.09642971681000001,1.905452516443873,0.9915710787978013,-1.1413189144575806, ,0.004239586813741393,0.026822199422970826,0.011023398975778548,-0.05930102905085196,0.013529052707559903,-0.03936384034519071, ,0.7587521076202393
0.011216543677781209,0.02062961507242916,-0.083004877888735, ,0.01145901533339609,0.02038030079686251,-0.08341604291869507, ,0.0005385227884129132, ,0.002520126986037752,-0.00024111194654197784,-0.010315959139508236,0.008141740964208671,0.002682474387490976,-0.009092638274101169, ,0.010622061380190029, ,0.008572251626003296, ,5.777393171863619e-05, ,0.2203141234358768,-0.21324010012308717,0.09654638291,1.905452516443873,0.9918443517973322,-1.1417867864853952, ,0.004269872619942503,0.026374914274171976,0.010343384103896106,-0.032555226233167305,0.014908163902696989,-0.05308912491067609, ,0.7743220329284668
0.011247667161329945,0.02062829401679893,-0.08312611765187158, ,0.011492936937929521,0.020377359426848162,-0.08354105955386547, ,0.0005434171636756309, ,0.0021672297903786325,-0.0004031983531750514,-0.009257356288321594,0.013288787729363188,0.017585295376813182,-0.016262882733740183, ,0.009516201938023123, ,0.022041652043742758, ,5.8285031909191545e-05, ,0.22036818256599638,-0.21291574534236973,0.09666823417,1.905452516443873,0.9919809882970977,-1.141979883129232, ,0.003260720165467938,0.02662652681214107,0.00932600206088993,-0.02108742566892773,0.027334520676278708,-0.0523742138001386, ,0.7857091426849365
0.01127456053449118,0.020620009013655398,-0.08323858224437203, ,0.011527010272368042,0.020374409409631283,-0.0836659922158429, ,0.0005538314900433384, ,0.0024747106998337727,-0.0003776794676785813,-0.010030241536597966,-0.01172050845920576,0.010377507721573122,0.0019915822540034823, ,0.010337919525256175, ,0.015654484454378354, ,5.8957868654056615e-05, ,0.22040679623036752,-0.2125913905616523,0.09677841882,1.9048234466134193,0.9919809882970977,-1.1423065980897946, ,0.0043418904956088284,0.02832744524133456,0.010068780986093553,-0.01865107495380604,0.020171263219480713,-0.020728967574812317, ,0.7952170372009277
0.011300913529505005,0.020612781998609976,-0.08334446116459263, ,0.011561234507892707,0.0203714509797188,-0.08379083908478077, ,0.0005703165087030876, ,0.002899257892249466,-0.0007120886055851062,-0.011311741380915388,-0.026776878945652647,-0.031372147417007994,0.07714467890022601, ,0.011699070885189495, ,0.0412457597144471, ,5.9655405781734607e-05, ,0.22047630082623554,-0.21232881764392866,0.09688341831000001,1.9037749968959967,0.992117624796863,-1.1427447309540533, ,0.007599234508754004,0.027013077585673433,0.011139029034965036,-0.1130798756808652,0.0,-0.03435181554615104, ,0.8045120239257812
0.011320547589767471,0.02061323840167787,-0.08342551808325702, ,0.011595608817861253,0.02036848437121759,-0.08391559834824142, ,0.0006129778794982656, ,0.0031638018484313425,0.00010635037301229036,-0.013185171517004874,0.0012870033685663516,-0.004402263114231031,0.018288409398627588, ,0.013559856211288305, ,0.004586491000435598, ,6.0442157908208585e-05, ,0.22051491449060664,-0.21214347205494727,0.09696638087000001,1.903565306952512,0.992390897796394,-1.1431309242417271, ,0.0050639854267180255,0.026921118172615822,0.013285080500417015,-0.06143714763116412,0.014617863852209744,-0.05303289899658899, ,0.8168561458587646
0.01137503862676712,0.020618715732811353,-0.08364177959937333, ,0.01163013237780635,0.020365509817834294,-0.08404026820118801, ,0.0005366369564005595, ,0.0030059507879309456,0.0002637062647457605,-0.01213908459582745,-0.015193122391483868,0.02139897172277909,0.0038289782301563074, ,0.012508503346051601, ,0.026243983981180264, ,6.1020987949837026e-05, ,0.22060758728509736,-0.21165693988387113,0.09718675017000002,1.903565306952512,0.9928008072956902,-1.1440369291338002, ,0.005185751910973568,0.0272770743197674,0.012405616448598132,-0.006815639224149796,0.030308927687581578,-0.006563610213963362, ,0.826336145401001
0.011404268144444663,0.020618498974450755,-0.08376261134877983, ,0.0116648043654325,0.020362527552875664,-0.08416484684597411, ,0.0005433174820608396, ,0.0028790196007060227,1.8360649587956322e-05,-0.012270526096703554,-0.014712509910104882,0.014770364544949819,-0.006614109567878816, ,0.01260376537644944, ,0.020847573922930244, ,6.160199415059715e-05, ,0.22063847821659424,-0.21137119876752483,0.09730730514000001,1.9033556170090276,0.9928008072956902,-1.1442819653542218, ,0.0027678071492081664,0.0301547319855325,0.012386323110419907,-0.005711437325128524,0.02025218957593756,-0.014987494293048995, ,0.8363871574401855
0.011434688210505006,0.020614323955981378,-0.08388692534592908, ,0.011699623960613996,0.02035953780924882,-0.0842893324923345, ,0.0005450123335584181, ,0.0028786831067494838,-0.0005670754346578275,-0.0120737221689889,-0.012541557241171373,-0.01147148068301642,0.05556758220071182, ,0.012425101930833857, ,0.01699662526869342, ,6.217308418145363e-05, ,0.22069253734671382,-0.21108545765117853,0.09743045269000002,1.9025168572350895,0.9928008072956902,-1.144445322834503, ,0.005612639024593732,0.02862652837359601,0.012021744543396226,-0.09521585141910038,0.01516747011822213,-0.04571322541455929, ,0.8464062213897705
0.011464622894513065,0.020610355060073294,-0.08400652582609174, ,0.011734590345392395,0.020356540819461047,-0.08441372335737495, ,0.0005505578287110226, ,0.0031094811292533687,-0.0003174360217039111,-0.011844661070551907,-0.012014739331844868,-0.009704778295209718,0.022094231216183695, ,0.01225012793391587, ,0.015444625273320396, ,6.274378039051018e-05, ,0.22076204194258184,-0.21079199380195798,0.09755100766000001,1.9018877874046358,0.9930740802952212,-1.1449948736024582, ,0.0073406272569671365,0.028583416132069512,0.011851794285714288,-0.054253198818783384,0.009653717957500384,-0.035937400338356934, ,0.8622732162475586
0.011494340032423198,0.02060976262351231,-0.08412027448319184, ,0.011769702703974488,0.020353536815620337,-0.08453801766556389, ,0.0005621259929340424, ,0.0028778202537034507,3.117167594387309e-05,-0.010644314919668444,0.043289875210432024,0.0365875554267737,-0.05189849627227187, ,0.011026525345505862, ,0.05668035260298441, ,6.332826766340781e-05, ,0.22083926927132408,-0.2105139754184859,0.09766767376,1.9016780974611516,0.9934839897945175,-1.1455741635339691, ,0.008317525861999388,0.02685255844891646,0.011023398975778548,0.0,0.048402672610202806,-0.08136370728468588, ,0.8717830181121826
0.01152306898572409,0.020608706307131786,-0.08422186525012987, ,0.01180496022272969,0.02035052602943529,-0.08466221364872172, ,0.0005831178589568258, ,0.0029292581774251775,-0.0004930087703361864,-0.010244383129618105,-0.041363724957049375,-0.022373879800981437,0.0032073134916552133, ,0.010666348804724357, ,0.04702709991951484, ,6.3947980502105e-05, ,0.22091649660006632,-0.2102282343021396,0.09777137696,1.9018877874046358,0.9937572627940484,-1.1460420355617837, ,0.006613405229650331,0.029983235879453642,0.010062420416929882,-0.007588515345949717,-0.015314210799557845,0.009098556674017821, ,0.8811750411987305
0.011551777541860035,0.020603158939580306,-0.08432759638350233, ,0.011840362090187096,0.02034750869221536,-0.08478630954601173, ,0.0005992126967699038, ,0.0027202954674191717,-0.00027799292942834594,-0.010487346187349788,-0.0032850042219035942,-0.0012557116452877456,-0.004989888950267517, ,0.01083797571284387, ,0.003516807872640688, ,6.459044669580471e-05, ,0.22097827846306012,-0.2099424931857933,0.09787508016000002,1.9014684075176667,0.9936206262942829,-1.146175653878509, ,0.005537957093179842,0.02691348314193726,0.010507131609498682,-0.026241914748371075,0.010486068750072837,-0.037221478649927364, ,0.8905580043792725
0.011551777541860035,0.020603158939580306,-0.08432759638350233, ,0.011875907497033981,0.020344485034871004,-0.08491030360393033, ,0.0007152063489354268, ,0.0027202954674191717,-0.00027799292942834594,-0.010487346187349788,-0.0032850042219035942,-0.0012557116452877456,-0.004989888950267517, ,0.01083797571284387, ,0.003516807872640688, ,6.563109490116281e-05, ,0.22097827846306012,-0.2099424931857933,0.09787508016000002,1.9014684075176667,0.9936206262942829,-1.146175653878509, ,0.005537957093179842,0.02691348314193726,0.010507131609498682,-0.026241914748371075,0.010486068750072837,-0.037221478649927364, ,0.8994741439819336
0.011577212911563413,0.020595092245208106,-0.08442933873773105, ,0.011911595636113078,0.020341455287913805,-0.08503419407629774, ,0.000736202073601666, ,0.0028305745229985435,-0.0011060674012132927,-0.011465376205812835,-0.030497820309792548,-0.024684375726835205,0.08798530622313024, ,0.011861297937708768, ,0.039235637506556856, ,6.670034477474523e-05, ,0.2210323375931797,-0.20967219753519545,0.09797489449,1.9006296477437288,0.9936206262942829,-1.1463390113587901, ,0.006935932247426869,0.030454730923771108,0.01125711061484099,-0.12229691672843317,0.008271634653335743,-0.033529896152131144, ,0.9074740409851074
0.011597163789185955,0.020592062353064367,-0.08451080430097604, ,0.011947425702419846,0.020338419681456634,-0.08515797922424796, ,0.0007783658484508337, ,0.003317775746437724,-0.00019660680725698074,-0.013232800476959258,-0.02807672093031956,-0.020828392888940533,0.04599229186333982, ,0.013643800738918879, ,0.0349588873218934, ,6.784478430349657e-05, ,0.2210709512575508,-0.2094714064804656,0.09805656076000001,1.9002102678567596,0.9937572627940484,-1.146532108002627, ,0.006017946210999718,0.028643809706752423,0.01318610225165563,-0.07139716222956796,0.0,-0.02195891045529056, ,0.9152112007141113
0.011642177421909221,0.020599801324864976,-0.08468671874005632, ,0.011983396893100549,0.02033537844521383,-0.0852816573162199, ,0.0007350524445307561, ,0.0037587990724116276,0.00045817967683410386,-0.014970890270819154,0.04485437631176002,0.04177245883835935,-0.026379544968617795, ,0.015442346148948155, ,0.06129316960057019, ,6.8872884763179e-05, ,0.22117134678491573,-0.20911616076825126,0.09823933765000001,1.9002102678567596,0.9944404452928756,-1.147497591221812, ,0.008836550095403406,0.02976692018772609,0.015525157426900587,-0.032346316428926325,0.06176960095120952,-0.09261655133762813, ,0.9227612018585205
0.011700612889977102,0.02060897299516146,-0.0849090561886344, ,0.012019508407449649,0.020332331808501247,-0.08540522662794701, ,0.0006514674221083743, ,0.0043925613350992996,0.0009670503612161623,-0.016548366654393257,0.026997610458654293,0.012303136482719097,-0.040601641950081396, ,0.017148709001320546, ,0.02966878657408372, ,6.969920538527935e-05, ,0.22129491051090333,-0.20870685592591737,0.09846618840000002,1.8997908879697907,0.9947137182924064,-1.1481288207299076, ,0.009446027492349395,0.028879166633740346,0.016999798847385277,-0.01251708207482814,0.02616802610919782,-0.07342305771045235, ,0.9308922290802002
0.011700612889977102,0.02060897299516146,-0.0849090561886344, ,0.012055759446907554,0.02032928000023654,-0.08552868544244821, ,0.0007670056456711963, ,0.0043925613350992996,0.0009670503612161623,-0.016548366654393257,0.026997610458654293,0.012303136482719097,-0.040601641950081396, ,0.017148709001320546, ,0.02966878657408372, ,7.076284116769782e-05, ,0.22129491051090333,-0.20870685592591737,0.09846618840000002,1.8997908879697907,0.9947137182924064,-1.1481288207299076, ,0.009446027492349395,0.028879166633740346,0.016999798847385277,-0.01251708207482814,0.02616802610919782,-0.07342305771045235, ,0.9382212162017822
0.011744375008584865,0.020609492346660666,-0.08507853152683768, ,0.01209214921505775,0.02032622324893926,-0.08565203205001856, ,0.0007280735749225384, ,0.004360404803194455,-8.194411258268533e-05,-0.017280046243249202,-0.02407663330334097,-0.024584188484203833,0.10000350458189261, ,0.01782189224112129, ,0.03441024635087106, ,7.172401224815516e-05, ,0.22139530603826824,-0.20840566934382262,0.09863600239,1.8985327483088836,0.9947137182924064,-1.1485372144306103, ,0.01038234343614224,0.03117507935560801,0.017389532227074237,-0.14311214709441059,0.016535543305332828,-0.047161432382746976, ,0.9461262226104736
0.011785908463179062,0.020614072643737914,-0.08522854309246122, ,0.012128676917625108,0.020323161782731,-0.08577526474821878, ,0.0007078304255182887, ,0.004518223302319158,0.00043664043982680564,-0.016646387529798422,-0.013470170368371837,-0.01149920903405491,0.02510805242384241, ,0.01725419411260753, ,0.01771090116166728, ,7.262537065613303e-05, ,0.22149570156563317,-0.20812765096035055,0.09878766832000001,1.8981133684219145,0.9947137182924064,-1.1487822506510321, ,0.011102646588144463,0.030820702032630976,0.016891634697773068,-0.058140152723776775,0.012461767953416095,-0.03720095796153064, ,0.9551980495452881
0.011835057429501885,0.020623034953160282,-0.08540420646482996, ,0.012165341762473117,0.020320095829335486,-0.08589838184186649, ,0.0006671350362701543, ,0.004497933570391814,0.0003782893440675971,-0.015467563804299147,0.006210853131922673,-0.007300548397268057,-0.015746647126512477, ,0.01611272910687565, ,0.009584978778703533, ,7.34250172668456e-05, ,0.221626988024495,-0.2077955734467589,0.09896914892000001,1.8981133684219145,0.9951236277917028,-1.1494432193226836, ,0.01306220806035386,0.03090099041304812,0.015739932332015812,-0.030235792415358283,0.012840645853780345,-0.0569742551193293, ,0.9627740383148193
0.011835057429501885,0.020623034953160282,-0.08540420646482996, ,0.012202142959601378,0.02031702561607893,-0.08602138164302651, ,0.0007805758780357875, ,0.004497933570391814,0.0003782893440675971,-0.015467563804299147,0.006210853131922673,-0.007300548397268057,-0.015746647126512477, ,0.01611272910687565, ,0.009584978778703533, ,7.460708652050647e-05, ,0.221626988024495,-0.2077955734467589,0.09896914892000001,1.8981133684219145,0.9951236277917028,-1.1494432193226836, ,0.01306220806035386,0.03090099041304812,0.015739932332015812,-0.030235792415358283,0.012840645853780345,-0.0569742551193293, ,0.9685702323913574
0.011864394940107803,0.02062460847504599,-0.08550630867277889, ,0.01223907972114345,0.02031395136988982,-0.08614426247100074, ,0.0008024223144887135, ,0.004081799011488423,0.00022916344739886966,-0.014165101328007208,0.028941042191777545,0.03632443625300198,-0.04169521709783736, ,0.014743259296659037, ,0.046444031069138955, ,7.582008663565782e-05, ,0.22171966081898567,-0.20757933692628058,0.09907414841,1.89790367847843,0.9953969007912337,-1.1499110913504982, ,0.012969378373441406,0.03249895258851739,0.014680932276497697,0.0,0.05306466547133264,-0.06697278866108765, ,0.9745771884918213
0.011918159574761219,0.020616926367423478,-0.08569034506389796, ,0.012276151261364396,0.02031087331729946,-0.0862670226523195, ,0.0007445693776639558, ,0.004212571162256406,-0.0008386981122954256,-0.014568243275234913,-0.006415954869548677,-0.01491264890400375,0.03189216300293022, ,0.015188248169129627, ,0.01623425138473048, ,7.689739729765154e-05, ,0.22189728367509284,-0.20711597295382714,0.09925951788000001,1.897064918704492,0.9956701737907646,-1.1506239995987344, ,0.013851545987223877,0.03752350397725218,0.014586823736263738,-0.08519538754583005,0.017621850770739498,-0.06334006593095991, ,0.9810900688171387
0.011918159574761219,0.020616926367423478,-0.08569034506389796, ,0.012313356796658239,0.020307791684441894,-0.08638966052073138, ,0.0008606899584539065, ,0.004212571162256406,-0.0008386981122954256,-0.014568243275234913,-0.006415954869548677,-0.01491264890400375,0.03189216300293022, ,0.015188248169129627, ,0.01623425138473048, ,7.820174049964108e-05, ,0.22189728367509284,-0.20711597295382714,0.09925951788000001,1.897064918704492,0.9956701737907646,-1.1506239995987344, ,0.013851545987223877,0.03752350397725218,0.014586823736263738,-0.08519538754583005,0.017621850770739498,-0.06334006593095991, ,0.9867560863494873
0.011969795213574833,0.020611574108891348,-0.08587241920964638, ,0.012350695545545692,0.02030470669705416,-0.0865121744171931, ,0.0008053194378172638, ,0.005176663722880287,4.966748627977316e-05,-0.0185750782514616,-0.014982308339050865,-0.034593187133687454,0.045517221886448876, ,0.019282993704477006, ,0.03769822207882261, ,7.937604958671584e-05, ,0.22205946106545155,-0.20672211357724168,0.09944229477000001,1.8958067790435849,0.9958068102905301,-1.1513071686834147, ,0.013951329249995703,0.03548875899718429,0.01867387048065651,-0.10123597677103019,0.0,-0.05995668388933003, ,0.9926581382751465
0.011969795213574833,0.020611574108891348,-0.08587241920964638, ,0.012388166728672052,0.02030161858047626,-0.08663456268986168, ,0.0009230221225271446, ,0.005176663722880287,4.966748627977316e-05,-0.0185750782514616,-0.014982308339050865,-0.034593187133687454,0.045517221886448876, ,0.019282993704477006, ,0.03769822207882261, ,8.077665076006349e-05, ,0.22205946106545155,-0.20672211357724168,0.09944229477000001,1.8958067790435849,0.9958068102905301,-1.1513071686834147, ,0.013951329249995703,0.03548875899718429,0.01867387048065651,-0.10123597677103019,0.0,-0.05995668388933003, ,0.9986910820007324
0.012021243330374468,0.02061695463531103,-0.08605958090321177, ,0.01242576956880409,0.020298527559651523,-0.08675682369408266, ,0.0008667091723943631, ,0.005479889558841872,0.0004850907971151045,-0.02041603128397137,0.029278988701331023,0.0362795541487302,-0.02427662304648781, ,0.021144238838195325, ,0.04662039984428157, ,8.20457142155801e-05, ,0.22219847025718759,-0.20634369966640467,0.09963544198,1.8955970891001,0.9963533562895918,-1.1522429127390437, ,0.014040086042087702,0.04142162442534735,0.021042023143989435,-0.03359008759632594,0.06145104788086549,-0.08742522477574446, ,1.0055840015411377
0.012066743283691037,0.020623474702160693,-0.0862211724590295, ,0.012463503290828296,0.020295433859126754,-0.08687895579238243, ,0.0008352892981469817, ,0.005947533081411658,0.0009266138995571356,-0.021441962419899378,0.031459209308507805,0.015572879902341734,-0.044645526053432194, ,0.022270822065871654, ,0.03510259116400781, ,8.323592059032806e-05, ,0.22231431125030096,-0.20602706761856146,0.09980136710000001,1.8955970891001,0.9966266292891226,-1.1528741422471396, ,0.015058226207310501,0.0393926698042635,0.022031551203319507,-0.022868081793025973,0.03784967712384985,-0.09355184842790562, ,1.011301040649414
0.012066743283691037,0.020623474702160693,-0.0862211724590295, ,0.012501367121748208,0.020292337703052155,-0.08700095735445747, ,0.0009521628410748707, ,0.005947533081411658,0.0009266138995571356,-0.021441962419899378,0.031459209308507805,0.015572879902341734,-0.044645526053432194, ,0.022270822065871654, ,0.03510259116400781, ,8.464647295840816e-05, ,0.22231431125030096,-0.20602706761856146,0.09980136710000001,1.8955970891001,0.9966266292891226,-1.1528741422471396, ,0.015058226207310501,0.0393926698042635,0.022031551203319507,-0.022868081793025973,0.03784967712384985,-0.09355184842790562, ,1.0169270038604736
0.012066743283691037,0.020623474702160693,-0.0862211724590295, ,0.01253936029068213,0.020289239315181694,-0.0871228267571652, ,0.0010714758991936424, ,0.006755859092805695,0.0007892733103440938,-0.02359682722397151,-0.0046379436413262224,-0.004756977431819266,-0.02350143702775679, ,0.024557582117916858, ,0.006643194984482805, ,8.62782823003611e-05, ,0.2225151023050308,-0.20550192178311422,0.10008655090000002,1.8949680192696465,0.9966266292891226,-1.1536092509084044, ,0.017573507696013107,0.045361826748791,0.02406164882175227,-0.02421265511822618,0.01901337730385953,-0.057483698502207296, ,1.02264404296875
0.012146765507535726,0.02063164567057311,-0.08650284398408783, ,0.01257748202886059,0.02028613891887319,-0.08724456238451479, ,0.000924682552416962, ,0.006755859092805695,0.0007892733103440938,-0.02359682722397151,-0.0046379436413262224,-0.004756977431819266,-0.02350143702775679, ,0.024557582117916858, ,0.006643194984482805, ,8.777356259423036e-05, ,0.2225151023050308,-0.20550192178311422,0.10008655090000002,1.8949680192696465,0.9966266292891226,-1.1536092509084044, ,0.017573507696013107,0.045361826748791,0.02406164882175227,-0.02421265511822618,0.01901337730385953,-0.057483698502207296, ,1.0266170501708984
0.012219410643460854,0.020631276199911563,-0.08675435327633466, ,0.012615731569624202,0.020283036737088426,-0.08736616262765672, ,0.0008078686046303821, ,0.0069550941823412465,0.0001739479784870733,-0.02301751589423578,-0.013980611219083795,-0.04249780690552113,0.0331297003117475, ,0.02404598991361873, ,0.04473829032215522, ,8.902568433569951e-05, ,0.2227390615583833,-0.20502311234491227,0.10034062374000001,1.893500189665255,0.9967632657888881,-1.1542924199930849, ,0.02223973319861045,0.04407661010611741,0.023253739445255477,-0.10035125359742204,0.0,-0.0733208077738118, ,1.0303800106048584
0.012219410643460854,0.020631276199911563,-0.08675435327633466, ,0.012654108148420676,0.02027993299239339,-0.08748762588487363, ,0.0009220047118757079, ,0.0069550941823412465,0.0001739479784870733,-0.02301751589423578,-0.013980611219083795,-0.04249780690552113,0.0331297003117475, ,0.02404598991361873, ,0.04473829032215522, ,9.049304793176323e-05, ,0.2227390615583833,-0.20502311234491227,0.10034062374000001,1.893500189665255,0.9967632657888881,-1.1542924199930849, ,0.02223973319861045,0.04407661010611741,0.023253739445255477,-0.10035125359742204,0.0,-0.0733208077738118, ,1.0342621803283691
0.012219410643460854,0.020631276199911563,-0.08675435327633466, ,0.012692611002803516,0.02027682790695822,-0.08760895056157128, ,0.0010391769302642217, ,0.0069550941823412465,0.0001739479784870733,-0.02301751589423578,-0.013980611219083795,-0.04249780690552113,0.0331297003117475, ,0.02404598991361873, ,0.04473829032215522, ,9.217908100524201e-05, ,0.2227390615583833,-0.20502311234491227,0.10034062374000001,1.893500189665255,0.9967632657888881,-1.1542924199930849, ,0.02223973319861045,0.04407661010611741,0.023253739445255477,-0.10035125359742204,0.0,-0.0733208077738118, ,1.038438081741333
0.012281792702487785,0.02063321829846876,-0.08695509354416585, ,0.01273123937242816,0.020273721702557743,-0.08773013507026785, ,0.0009653649459010912, ,0.007347175015364397,0.00022364321101797207,-0.024243205569113246,0.010839460910406435,0.017728485261195318,-0.02320079692102387, ,0.02533306166373328, ,0.020779430409704768, ,9.370747001481266e-05, ,0.2229552980788616,-0.2045829165710815,0.10054673385000001,1.8932904997217703,0.9971731752881844,-1.1551984248851581, ,0.023807561856114094,0.05274982854834395,0.024134562909090912,-0.036991495386102635,0.02003117981853606,-0.05074824555957069, ,1.0424671173095703
0.012281792702487785,0.02063321829846876,-0.08695509354416585, ,0.012769992499051188,0.020270614600571064,-0.08785117783058556, ,0.0010829531529396629, ,0.007347175015364397,0.00022364321101797207,-0.024243205569113246,0.010839460910406435,0.017728485261195318,-0.02320079692102387, ,0.02533306166373328, ,0.020779430409704768, ,9.545315853900378e-05, ,0.2229552980788616,-0.2045829165710815,0.10054673385000001,1.8932904997217703,0.9971731752881844,-1.1551984248851581, ,0.023807561856114094,0.05274982854834395,0.024134562909090912,-0.036991495386102635,0.02003117981853606,-0.05074824555957069, ,1.0479931831359863
0.012360260761301749,0.02063642889552799,-0.08722117104169338, ,0.012808869626526564,0.020267506821982282,-0.08797207726924024, ,0.0009493226916471585, ,0.007803863215054768,0.0008760164287386161,-0.027072875263160476,0.06042777387236497,0.05556145620014228,-0.049561681274975435, ,0.028188796726312235, ,0.08208883436040701, ,9.692581169350699e-05, ,0.22321787099658522,-0.20403460253701156,0.10082154733000001,1.892661429891317,0.997992994286777,-1.156683719708742, ,0.024476900066667726,0.051884604460618246,0.02814277653710248,-0.037900951346912085,0.09407491767075933,-0.1363042374910857, ,1.0532941818237305
0.012360260761301749,0.02063642889552799,-0.08722117104169338, ,0.01284787000080391,0.02026439858738031,-0.08809283182003198, ,0.001065815102690042, ,0.007803863215054768,0.0008760164287386161,-0.027072875263160476,0.06042777387236497,0.05556145620014228,-0.049561681274975435, ,0.028188796726312235, ,0.08208883436040701, ,9.861239482562116e-05, ,0.22321787099658522,-0.20403460253701156,0.10082154733000001,1.892661429891317,0.997992994286777,-1.156683719708742, ,0.024476900066667726,0.051884604460618246,0.02814277653710248,-0.037900951346912085,0.09407491767075933,-0.1363042374910857, ,1.0570189952850342
0.01244605741116174,0.020639166862243423,-0.08751375766841245, ,0.012886992869926044,0.020261290116958975,-0.08821343992383593, ,0.0009092690316825623, ,0.007940824012116703,2.2105681283848203e-05,-0.027239996480781986,-0.014705136386011163,-0.02382196801122747,0.056341565319898035, ,0.028373836239140613, ,0.027994860206723465, ,9.998434904918824e-05, ,0.22349588938005732,-0.20347856577006737,0.10112099032,1.8914032902304099,0.9985395402858388,-1.1575377850242305, ,0.024288953559885022,0.05298545033973801,0.027654186666666667,-0.12626228543630397,0.02771021340051203,-0.08250218652749328, ,1.0608060359954834
0.01244605741116174,0.020639166862243423,-0.08751375766841245, ,0.012926237484026366,0.020258181630517597,-0.08833390002859229, ,0.001023892640920335, ,0.007940824012116703,2.2105681283848203e-05,-0.027239996480781986,-0.014705136386011163,-0.02382196801122747,0.056341565319898035, ,0.028373836239140613, ,0.027994860206723465, ,0.00010156577696247416, ,0.22349588938005732,-0.20347856577006737,0.10112099032,1.8914032902304099,0.9985395402858388,-1.1575377850242305, ,0.024288953559885022,0.05298545033973801,0.027654186666666667,-0.12626228543630397,0.02771021340051203,-0.08250218652749328, ,1.0646321773529053
0.01244605741116174,0.020639166862243423,-0.08751375766841245, ,0.012965603095326952,0.020255073347460528,-0.08845421058929669, ,0.0011410114996934396, ,0.007940824012116703,2.2105681283848203e-05,-0.027239996480781986,-0.014705136386011163,-0.02382196801122747,0.056341565319898035, ,0.028373836239140613, ,0.027994860206723465, ,0.00010335904645725139, ,0.22349588938005732,-0.20347856577006737,0.10112099032,1.8914032902304099,0.9985395402858388,-1.1575377850242305, ,0.024288953559885022,0.05298545033973801,0.027654186666666667,-0.12626228543630397,0.02771021340051203,-0.08250218652749328, ,1.0684161186218262
0.012524257129937717,0.020642608491030414,-0.08778110603730398, ,0.013005088958135484,0.020251965486797745,-0.08857437006799082, ,0.0010065133015243611, ,0.008938839487549971,0.0004252243798931835,-0.030017545927460542,-0.045146371010353854,-0.02561433897028068,0.01692461637259135, ,0.03132310218775658, ,0.051906307951392394, ,0.00010488246590222255, ,0.22371984863340982,-0.20294569720174588,0.10139321122000002,1.890774220399956,0.9988128132853697,-1.1581690145323265, ,0.025305851082258874,0.06036701116951067,0.030456618585086043,-0.0532113341158215,0.011109619559206408,-0.03231859016018179, ,1.072519063949585
0.012524257129937717,0.020642608491030414,-0.08778110603730398, ,0.01304469432884345,0.020248858267144766,-0.08869437693375348, ,0.001122478439488495, ,0.008938839487549971,0.0004252243798931835,-0.030017545927460542,-0.045146371010353854,-0.02561433897028068,0.01692461637259135, ,0.03132310218775658, ,0.051906307951392394, ,0.00010661437009137635, ,0.22371984863340982,-0.20294569720174588,0.10139321122000002,1.890774220399956,0.9988128132853697,-1.1581690145323265, ,0.025305851082258874,0.06036701116951067,0.030456618585086043,-0.0532113341158215,0.011109619559206408,-0.03231859016018179, ,1.076263189315796
0.012618533017138944,0.020646964450425354,-0.08811145384881479, ,0.013084418465923245,0.020245751906723085,-0.0888142296626893, ,0.0009337636752305033, ,0.008938839487549971,0.0004252243798931835,-0.030017545927460542,-0.045146371010353854,-0.02561433897028068,0.01692461637259135, ,0.03132310218775658, ,0.051906307951392394, ,0.00010797643991188249, ,0.22399014428400768,-0.20227381944168835,0.10173283920000001,1.8901451505695024,0.9996326322839623,-1.1594092731354888, ,0.027506359872020516,0.06420632040491935,0.031985565301204825,-0.03915803138315181,0.10973282910348948,-0.15742012543620618, ,1.0803780555725098
0.012618533017138944,0.020646964450425354,-0.08811145384881479, ,0.013124260629926287,0.020242646623359884,-0.08893392673792111, ,0.0010467544969731087, ,0.00890887807130897,0.0004484230758530062,-0.030851047288146024,0.06660902699997376,0.06711982959961384,-0.06257778226020887, ,0.03211473665655425, ,0.09456112338292201, ,0.00010954103806093963, ,0.22399014428400768,-0.20227381944168835,0.10173283920000001,1.8901451505695024,0.9996326322839623,-1.1594092731354888, ,0.027506359872020516,0.06420632040491935,0.031985565301204825,-0.03915803138315181,0.10973282910348948,-0.15742012543620618, ,1.0854861736297607
0.012618533017138944,0.020646964450425354,-0.08811145384881479, ,0.013164220083479948,0.020239542634488718,-0.08905346664957929, ,0.0011623919421938275, ,0.00890887807130897,0.0004484230758530062,-0.030851047288146024,0.06660902699997376,0.06711982959961384,-0.06257778226020887, ,0.03211473665655425, ,0.09456112338292201, ,0.000111520081113821, ,0.22399014428400768,-0.20227381944168835,0.10173283920000001,1.8901451505695024,0.9996326322839623,-1.1594092731354888, ,0.027506359872020516,0.06420632040491935,0.031985565301204825,-0.03915803138315181,0.10973282910348948,-0.15742012543620618, ,1.0875170230865479
0.012618533017138944,0.020646964450425354,-0.08811145384881479, ,0.013204296091286068,0.020236440157149056,-0.08917284789479199, ,0.0012799241755823453, ,0.00890887807130897,0.0004484230758530062,-0.030851047288146024,0.06660902699997376,0.06711982959961384,-0.06257778226020887, ,0.03211473665655425, ,0.09456112338292201, ,0.00011371220887079758, ,0.22399014428400768,-0.20227381944168835,0.10173283920000001,1.8901451505695024,0.9996326322839623,-1.1594092731354888, ,0.027506359872020516,0.06420632040491935,0.031985565301204825,-0.03915803138315181,0.10973282910348948,-0.15742012543620618, ,1.089543104171753
0.012713113303271068,0.020649148826637986,-0.08842847248361346, ,0.013244487920117568,0.02023333940798701,-0.0892920689776766, ,0.0010959267131636858, ,0.00927313764723562,-0.00017564860872428776,-0.030718688170357573,0.004550741857381821,-0.008883593216938651,0.04205277169859421, ,0.03208831153498095, ,0.009979986291069573, ,0.00011555156187509138, ,0.22429905359897667,-0.20164827807887617,0.10205820799000001,1.8890967008520798,1.0003158147827895,-1.1605381138349549, ,0.031083177713223314,0.06190276683527121,0.03135592818897638,-0.13225684888808412,0.05195226576539309,-0.11587655664905203, ,1.0914912223815918
0.012713113303271068,0.020649148826637986,-0.08842847248361346, ,0.013284794838816932,0.020230240603254984,-0.08941112840932908, ,0.0012115760587127788, ,0.00927313764723562,-0.00017564860872428776,-0.030718688170357573,0.004550741857381821,-0.008883593216938651,0.04205277169859421, ,0.03208831153498095, ,0.009979986291069573, ,0.00011760020579441417, ,0.22429905359897667,-0.20164827807887617,0.10205820799000001,1.8890967008520798,1.0003158147827895,-1.1605381138349549, ,0.031083177713223314,0.06190276683527121,0.03135592818897638,-0.13225684888808412,0.05195226576539309,-0.11587655664905203, ,1.0934290885925293
0.012713113303271068,0.020649148826637986,-0.08842847248361346, ,0.013325216118293135,0.02022714395881228,-0.0895300247078149, ,0.0013289752696230555, ,0.00927313764723562,-0.00017564860872428776,-0.030718688170357573,0.004550741857381821,-0.008883593216938651,0.04205277169859421, ,0.03208831153498095, ,0.009979986291069573, ,0.0006555620956085167, ,0.22429905359897667,-0.20164827807887617,0.10205820799000001,1.8890967008520798,1.0003158147827895,-1.1605381138349549, ,0.031083177713223314,0.06190276683527121,0.03135592818897638,-0.13225684888808412,0.05195226576539309,-0.11587655664905203, ,1.0953631401062012
0.012713113303271068,0.020649148826637986,-0.08842847248361346, ,0.013365751031519464,0.02022404969012492,-0.08964875639815979, ,0.0014476664368209611, ,0.00927313764723562,-0.00017564860872428776,-0.030718688170357573,0.004550741857381821,-0.008883593216938651,0.04205277169859421, ,0.03208831153498095, ,0.009979986291069573, ,0.0006635631495601575, ,0.22429905359897667,-0.20164827807887617,0.10205820799000001,1.8890967008520798,1.0003158147827895,-1.1605381138349549, ,0.031083177713223314,0.06190276683527121,0.03135592818897638,-0.13225684888808412,0.05195226576539309,-0.11587655664905203, ,1.0973711013793945
0.012713113303271068,0.020649148826637986,-0.08842847248361346, ,0.013406398853531452,0.020220958012265887,-0.08976732201233927, ,0.0015673258398564698, ,0.00927313764723562,-0.00017564860872428776,-0.030718688170357573,0.004550741857381821,-0.008883593216938651,0.04205277169859421, ,0.03208831153498095, ,0.009979986291069573, ,0.0006726007764631206, ,0.22429905359897667,-0.20164827807887617,0.10205820799000001,1.8890967008520798,1.0003158147827895,-1.1605381138349549, ,0.031083177713223314,0.06190276683527121,0.03135592818897638,-0.13225684888808412,0.05195226576539309,-0.11587655664905203, ,1.0993521213531494
0.012810757222655303,0.020647423766104747,-0.0887409124754163, ,0.01344715886142387,0.020217869139915332,-0.08988572008926995, ,0.0013784443026271889, ,0.011189100149827467,-0.0003166302631893474,-0.03525635070904898,-0.06683439864533736,-0.04887721329632815,0.030785281670467308, ,0.03699062695070056, ,0.082799543164256, ,0.0006795893262271214, ,0.22462340837969408,-0.20098412305169286,0.10237579904,1.888257941078142,1.0005890877823205,-1.1611693433430506, ,0.03635898144002712,0.07708931077048803,0.03563492510067114,-0.07594075051159,0.0027280455034923152,-0.03498118181672621, ,1.1013391017913818
0.012810757222655303,0.020647423766104747,-0.0887409124754163, ,0.013488030334348977,0.020214783287360562,-0.09000394917479977, ,0.001497043204340054, ,0.011189100149827467,-0.0003166302631893474,-0.03525635070904898,-0.06683439864533736,-0.04887721329632815,0.030785281670467308, ,0.03699062695070056, ,0.082799543164256, ,0.0006876035799341108, ,0.22462340837969408,-0.20098412305169286,0.10237579904,1.888257941078142,1.0005890877823205,-1.1611693433430506, ,0.03635898144002712,0.07708931077048803,0.03563492510067114,-0.07594075051159,0.0027280455034923152,-0.03498118181672621, ,1.1032421588897705
0.012810757222655303,0.020647423766104747,-0.0887409124754163, ,0.013529012553513534,0.020211700668496486,-0.09012200782169769, ,0.0016165301400270025, ,0.011189100149827467,-0.0003166302631893474,-0.03525635070904898,-0.06683439864533736,-0.04887721329632815,0.030785281670467308, ,0.03699062695070056, ,0.082799543164256, ,0.0006966222844010322, ,0.22462340837969408,-0.20098412305169286,0.10237579904,1.888257941078142,1.0005890877823205,-1.1611693433430506, ,0.03635898144002712,0.07708931077048803,0.03563492510067114,-0.07594075051159,0.0027280455034923152,-0.03498118181672621, ,1.1051180362701416
0.012810757222655303,0.020647423766104747,-0.0887409124754163, ,0.013570104802176821,0.02020862149682541,-0.09023989458964521, ,0.001736693282312127, ,0.011189100149827467,-0.0003166302631893474,-0.03525635070904898,-0.06683439864533736,-0.04887721329632815,0.030785281670467308, ,0.03699062695070056, ,0.082799543164256, ,0.0007066229670732542, ,0.22462340837969408,-0.20098412305169286,0.10237579904,1.888257941078142,1.0005890877823205,-1.1611693433430506, ,0.03635898144002712,0.07708931077048803,0.03563492510067114,-0.07594075051159,0.0027280455034923152,-0.03498118181672621, ,1.107011079788208
0.012810757222655303,0.020647423766104747,-0.0887409124754163, ,0.01361130636564798,0.020205545985457412,-0.09035760804522616, ,0.0018573743480566798, ,0.011189100149827467,-0.0003166302631893474,-0.03525635070904898,-0.06683439864533736,-0.04887721329632815,0.030785281670467308, ,0.03699062695070056, ,0.082799543164256, ,0.0007175825040350012, ,0.22462340837969408,-0.20098412305169286,0.10237579904,1.888257941078142,1.0005890877823205,-1.1611693433430506, ,0.03635898144002712,0.07708931077048803,0.03563492510067114,-0.07594075051159,0.0027280455034923152,-0.03498118181672621, ,1.1088972091674805
0.012917482228378133,0.020647858464172022,-0.08909020861522088, ,0.013652616531283761,0.020202474347110463,-0.09047514676191726, ,0.0016299825536532744, ,0.011189100149827467,-0.0003166302631893474,-0.03525635070904898,-0.06683439864533736,-0.04887721329632815,0.030785281670467308, ,0.03699062695070056, ,0.082799543164256, ,0.0007261900516729094, ,0.22498637682478265,-0.20027363162726422,0.10273487137000001,1.8872094913607194,1.001408906780913,-1.162409601946213, ,0.04311537553769685,0.08138674233145006,0.04617046817391306,-0.14239270417139027,0.14037046146108778,-0.17929650657368393, ,1.1108160018920898
0.012917482228378133,0.020647858464172022,-0.08909020861522088, ,0.013694034588486064,0.02019940679411055,-0.09059250932007827, ,0.0017495856298521484, ,0.013142956348338808,0.0008621829594600767,-0.044541933888022585,0.050087598633598455,0.05985814916138274,0.02388811981153284, ,0.04644851489030513, ,0.07804864016946311, ,0.0007357544963287902, ,0.22498637682478265,-0.20027363162726422,0.10273487137000001,1.8872094913607194,1.001408906780913,-1.162409601946213, ,0.04311537553769685,0.08138674233145006,0.04617046817391306,-0.14239270417139027,0.14037046146108778,-0.17929650657368393, ,1.1127820014953613
0.012917482228378133,0.020647858464172022,-0.08909020861522088, ,0.013735559828699527,0.020196343538391764,-0.09070969430694319, ,0.001869719389117855, ,0.013142956348338808,0.0008621829594600767,-0.044541933888022585,0.050087598633598455,0.05985814916138274,0.02388811981153284, ,0.04644851489030513, ,0.07804864016946311, ,0.0007462541712620223, ,0.22498637682478265,-0.20027363162726422,0.10273487137000001,1.8872094913607194,1.001408906780913,-1.162409601946213, ,0.04311537553769685,0.08138674233145006,0.04617046817391306,-0.14239270417139027,0.14037046146108778,-0.17929650657368393, ,1.1149132251739502
0.012917482228378133,0.020647858464172022,-0.08909020861522088, ,0.01377719154540928,0.020193284791496464,-0.09082670031660986, ,0.0019902614809800003, ,0.013142956348338808,0.0008621829594600767,-0.044541933888022585,0.050087598633598455,0.05985814916138274,0.02388811981153284, ,0.04644851489030513, ,0.07804864016946311, ,0.0007576670823603523, ,0.22498637682478265,-0.20027363162726422,0.10273487137000001,1.8872094913607194,1.001408906780913,-1.162409601946213, ,0.04311537553769685,0.08138674233145006,0.04617046817391306,-0.14239270417139027,0.14037046146108778,-0.17929650657368393, ,1.1169462203979492
0.012917482228378133,0.020647858464172022,-0.08909020861522088, ,0.013818929034138276,0.020190230764575535,-0.0909435259500307, ,0.00211111690783806, ,0.013142956348338808,0.0008621829594600767,-0.044541933888022585,0.050087598633598455,0.05985814916138274,0.02388811981153284, ,0.04644851489030513, ,0.07804864016946311, ,0.0007699711716828769, ,0.22498637682478265,-0.20027363162726422,0.10273487137000001,1.8872094913607194,1.001408906780913,-1.162409601946213, ,0.04311537553769685,0.08138674233145006,0.04617046817391306,-0.14239270417139027,0.14037046146108778,-0.17929650657368393, ,1.1192381381988525
0.013088762381241341,0.020669047976740896,-0.08968142578247726, ,0.013860771592445077,0.020187181668388458,-0.09106016981500334, ,0.0016520074057143018, ,0.016520402339577422,0.002849622290583601,-0.0573041202092263,0.08906122483208159,0.09723490782450778,0.03984999931150675, ,0.05970599830514489, ,0.13185564512946837, ,0.0007779174440615386, ,0.2255424135917268,-0.19931601275086036,0.10335190541000001,1.885112591925874,1.00359509077716,-1.1650907545469018, ,0.05146254965209912,0.08488098529380213,0.059882750075187986,-0.18616066092739464,0.19801094806686015,-0.23364148614817679, ,1.1213831901550293
0.013088762381241341,0.020669047976740896,-0.08968142578247726, ,0.01390271851992145,0.020184137713303407,-0.09117663052616072, ,0.0017701129299611295, ,0.016520402339577422,0.002849622290583601,-0.0573041202092263,0.08906122483208159,0.09723490782450778,0.03984999931150675, ,0.05970599830514489, ,0.13185564512946837, ,0.0007867763323284991, ,0.2255424135917268,-0.19931601275086036,0.10335190541000001,1.885112591925874,1.00359509077716,-1.1650907545469018, ,0.05146254965209912,0.08488098529380213,0.059882750075187986,-0.18616066092739464,0.19801094806686015,-0.23364148614817679, ,1.12335205078125
0.013088762381241341,0.020669047976740896,-0.08968142578247726, ,0.013944769118189836,0.02018109910929748,-0.09129290670496173, ,0.001888838901143224, ,0.016520402339577422,0.002849622290583601,-0.0573041202092263,0.08906122483208159,0.09723490782450778,0.03984999931150675, ,0.05970599830514489, ,0.13185564512946837, ,0.0007965290984242046, ,0.2255424135917268,-0.19931601275086036,0.10335190541000001,1.885112591925874,1.00359509077716,-1.1650907545469018, ,0.05146254965209912,0.08488098529380213,0.059882750075187986,-0.18616066092739464,0.19801094806686015,-0.23364148614817679, ,1.1253690719604492
0.013088762381241341,0.020669047976740896,-0.08968142578247726, ,0.013986922690901096,0.020178066065956828,-0.09140899697968159, ,0.002008048161766867, ,0.016520402339577422,0.002849622290583601,-0.0573041202092263,0.08906122483208159,0.09723490782450778,0.03984999931150675, ,0.05970599830514489, ,0.13185564512946837, ,0.0008071564586289647, ,0.2255424135917268,-0.19931601275086036,0.10335190541000001,1.885112591925874,1.00359509077716,-1.1650907545469018, ,0.05146254965209912,0.08488098529380213,0.059882750075187986,-0.18616066092739464,0.19801094806686015,-0.23364148614817679, ,1.1274971961975098
0.013088762381241341,0.020669047976740896,-0.08968142578247726, ,0.014029178543732182,0.020175038792476674,-0.0915248999854019, ,0.0021276336079457067, ,0.016520402339577422,0.002849622290583601,-0.0573041202092263,0.08906122483208159,0.09723490782450778,0.03984999931150675, ,0.05970599830514489, ,0.13185564512946837, ,0.0008186388686230234, ,0.2255424135917268,-0.19931601275086036,0.10335190541000001,1.885112591925874,1.00359509077716,-1.1650907545469018, ,0.05146254965209912,0.08488098529380213,0.059882750075187986,-0.18616066092739464,0.19801094806686015,-0.23364148614817679, ,1.129427194595337
0.013258074402594976,0.020703578050701534,-0.09027107025579857, ,0.014071535984383298,0.02017201749766183,-0.0916406143640021, ,0.0016792639551030796, ,0.018503520836932325,0.004052448617153849,-0.06449584637998233,0.015789252387925987,0.049560272103528105,0.02869183663850467, ,0.06721991389036244, ,0.052003894815510515, ,0.0008260580504030239, ,0.22602894576280294,-0.1984742348675699,0.10396634687,1.8836447623214823,1.0052347287743453,-1.1669178418321025, ,0.04927151690470964,0.090723653497582,0.06692777949579834,-0.12384025844679333,0.13140736266824654,-0.14140199676875917, ,1.1313321590423584
0.013258074402594976,0.020703578050701534,-0.09027107025579857, ,0.014113994322575978,0.02016900238992635,-0.09175613876414875, ,0.001795493949030995, ,0.018503520836932325,0.004052448617153849,-0.06449584637998233,0.015789252387925987,0.049560272103528105,0.02869183663850467, ,0.06721991389036244, ,0.052003894815510515, ,0.0008343438273143741, ,0.22602894576280294,-0.1984742348675699,0.10396634687,1.8836447623214823,1.0052347287743453,-1.1669178418321025, ,0.04927151690470964,0.090723653497582,0.06692777949579834,-0.12384025844679333,0.13140736266824654,-0.14140199676875917, ,1.1332762241363525
0.013258074402594976,0.020703578050701534,-0.09027107025579857, ,0.014156552870050767,0.02016599367729392,-0.09187147184128658, ,0.0019124711108527337, ,0.018503520836932325,0.004052448617153849,-0.06449584637998233,0.015789252387925987,0.049560272103528105,0.02869183663850467, ,0.06721991389036244, ,0.052003894815510515, ,0.000843480499208767, ,0.22602894576280294,-0.1984742348675699,0.10396634687,1.8836447623214823,1.0052347287743453,-1.1669178418321025, ,0.04927151690470964,0.090723653497582,0.06692777949579834,-0.12384025844679333,0.13140736266824654,-0.14140199676875917, ,1.1351821422576904
0.013258074402594976,0.020703578050701534,-0.09027107025579857, ,0.014199210940564014,0.020162991567398172,-0.09198661225762869, ,0.0020300384452206655, ,0.018503520836932325,0.004052448617153849,-0.06449584637998233,0.015789252387925987,0.049560272103528105,0.02869183663850467, ,0.06721991389036244, ,0.052003894815510515, ,0.0008534515743853375, ,0.22602894576280294,-0.1984742348675699,0.10396634687,1.8836447623214823,1.0052347287743453,-1.1669178418321025, ,0.04927151690470964,0.090723653497582,0.06692777949579834,-0.12384025844679333,0.13140736266824654,-0.14140199676875917, ,1.137099027633667
0.013258074402594976,0.020703578050701534,-0.09027107025579857, ,0.014241967849886522,0.020159996267482536,-0.09210155868214709, ,0.0021480724730945783, ,0.018503520836932325,0.004052448617153849,-0.06449584637998233,0.015789252387925987,0.049560272103528105,0.02869183663850467, ,0.06721991389036244, ,0.052003894815510515, ,0.0008642400818745812, ,0.22602894576280294,-0.1984742348675699,0.10396634687,1.8836447623214823,1.0052347287743453,-1.1669178418321025, ,0.04927151690470964,0.090723653497582,0.06692777949579834,-0.12384025844679333,0.13140736266824654,-0.14140199676875917, ,1.139024019241333
0.013457274559007942,0.020744178226764817,-0.09095524120816945, ,0.014284822915800455,0.02015700798440045,-0.09221630979056308, ,0.0016186102513726136, ,0.020963940071970843,0.004048623750843987,-0.07059762295477895,-0.014414152370922827,0.02257235227019523,0.034363051851690835, ,0.07375569472577839, ,0.02674930270880641, ,0.0008704745460853087, ,0.22656181433112443,-0.19749344779254338,0.10467412121000001,1.8823866226605752,1.0063278207724689,-1.1681359000222362, ,0.058687038687984396,0.10259128817131975,0.07306794275229357,-0.12270626905666183,0.11221366668276618,-0.12148807587317151, ,1.1409351825714111
0.013457274559007942,0.020744178226764817,-0.09095524120816945, ,0.014327775458097177,0.020154026924615657,-0.09233086426533751, ,0.001731585738609538, ,0.020963940071970843,0.004048623750843987,-0.07059762295477895,-0.014414152370922827,0.02257235227019523,0.034363051851690835, ,0.07375569472577839, ,0.02674930270880641, ,0.0008775328345486221, ,0.22656181433112443,-0.19749344779254338,0.10467412121000001,1.8823866226605752,1.0063278207724689,-1.1681359000222362, ,0.058687038687984396,0.10259128817131975,0.07306794275229357,-0.12270626905666183,0.11221366668276618,-0.12148807587317151, ,1.1429049968719482
0.013457274559007942,0.020744178226764817,-0.09095524120816945, ,0.014370824798574641,0.020151053294202387,-0.09244522079566192, ,0.0018456463358357156, ,0.020963940071970843,0.004048623750843987,-0.07059762295477895,-0.014414152370922827,0.02257235227019523,0.034363051851690835, ,0.07375569472577839, ,0.02674930270880641, ,0.0008854036760225009, ,0.22656181433112443,-0.19749344779254338,0.10467412121000001,1.8823866226605752,1.0063278207724689,-1.1681359000222362, ,0.058687038687984396,0.10259128817131975,0.07306794275229357,-0.12270626905666183,0.11221366668276618,-0.12148807587317151, ,1.144789218902588
0.013457274559007942,0.020744178226764817,-0.09095524120816945, ,0.014413970261035466,0.02014808729884499,-0.09255937807744803, ,0.0019605729152482854, ,0.020963940071970843,0.004048623750843987,-0.07059762295477895,-0.014414152370922827,0.02257235227019523,0.034363051851690835, ,0.07375569472577839, ,0.02674930270880641, ,0.0008940743956936766, ,0.22656181433112443,-0.19749344779254338,0.10467412121000001,1.8823866226605752,1.0063278207724689,-1.1681359000222362, ,0.058687038687984396,0.10259128817131975,0.07306794275229357,-0.12270626905666183,0.11221366668276618,-0.12148807587317151, ,1.1466832160949707
0.013457274559007942,0.020744178226764817,-0.09095524120816945, ,0.014457211171283998,0.02014512914383892,-0.09267333481331863, ,0.00207619331190017, ,0.020963940071970843,0.004048623750843987,-0.07059762295477895,-0.014414152370922827,0.02257235227019523,0.034363051851690835, ,0.07375569472577839, ,0.02674930270880641, ,0.0009035313470233286, ,0.22656181433112443,-0.19749344779254338,0.10467412121000001,1.8823866226605752,1.0063278207724689,-1.1681359000222362, ,0.058687038687984396,0.10259128817131975,0.07306794275229357,-0.12270626905666183,0.11221366668276618,-0.12148807587317151, ,1.14863920211792
0.013659670724918138,0.02077829270471474,-0.09163008612284669, ,0.014500546857124097,0.020142179034090085,-0.09278708971259787, ,0.0015653659566907507, ,0.02122163953595489,0.003375078542864081,-0.06943045190176961,0.012221569365154564,0.04274238849910499,0.027727779952050967, ,0.07267968623383324, ,0.04443720404098741, ,0.0009087840026556097, ,0.22715646476243972,-0.19647404705314575,0.10537411781000001,1.8811284829996682,1.0076941857701234,-1.1697401515000434, ,0.06517647085059805,0.10520725228211839,0.07207607022624436,-0.1353135652326732,0.1429678280911018,-0.15679359196417922, ,1.1509580612182617
0.013659670724918138,0.02077829270471474,-0.09163008612284669, ,0.014543976648356905,0.020139237174115615,-0.09290064149130224, ,0.0016747238225240126, ,0.02122163953595489,0.003375078542864081,-0.06943045190176961,0.012221569365154564,0.04274238849910499,0.027727779952050967, ,0.07267968623383324, ,0.04443720404098741, ,0.0009148150248592979, ,0.22715646476243972,-0.19647404705314575,0.10537411781000001,1.8811284829996682,1.0076941857701234,-1.1697401515000434, ,0.06517647085059805,0.10520725228211839,0.07207607022624436,-0.1353135652326732,0.1429678280911018,-0.15679359196417922, ,1.1530921459197998
0.013659670724918138,0.02077829270471474,-0.09163008612284669, ,0.01458749987677833,0.02013630376804343,-0.09301398887212972, ,0.0017855541294856056, ,0.02122163953595489,0.003375078542864081,-0.06943045190176961,0.012221569365154564,0.04274238849910499,0.027727779952050967, ,0.07267968623383324, ,0.04443720404098741, ,0.000921617674114191, ,0.22715646476243972,-0.19647404705314575,0.10537411781000001,1.8811284829996682,1.0076941857701234,-1.1697401515000434, ,0.06517647085059805,0.10520725228211839,0.07207607022624436,-0.1353135652326732,0.1429678280911018,-0.15679359196417922, ,1.1550920009613037
0.013659670724918138,0.02077829270471474,-0.09163008612284669, ,0.01463111587617666,0.020133379019612853,-0.09312713058445177, ,0.001897567248652291, ,0.02122163953595489,0.003375078542864081,-0.06943045190176961,0.012221569365154564,0.04274238849910499,0.027727779952050967, ,0.07267968623383324, ,0.04443720404098741, ,0.0009291831746920057, ,0.22715646476243972,-0.19647404705314575,0.10537411781000001,1.8811284829996682,1.0076941857701234,-1.1697401515000434, ,0.06517647085059805,0.10520725228211839,0.07207607022624436,-0.1353135652326732,0.1429678280911018,-0.15679359196417922, ,1.1571481227874756
0.013659670724918138,0.02077829270471474,-0.09163008612284669, ,0.014674823982329886,0.02013046313217461,-0.0932400653643026, ,0.002010535363780044, ,0.02122163953595489,0.003375078542864081,-0.06943045190176961,0.012221569365154564,0.04274238849910499,0.027727779952050967, ,0.07267968623383324, ,0.04443720404098741, ,0.0009375012684542214, ,0.22715646476243972,-0.19647404705314575,0.10537411781000001,1.8811284829996682,1.0076941857701234,-1.1697401515000434, ,0.06517647085059805,0.10520725228211839,0.07207607022624436,-0.1353135652326732,0.1429678280911018,-0.15679359196417922, ,1.1592450141906738
0.013875423344722597,0.020802169515417676,-0.09231064367823524, ,0.014718623533003662,0.020127556308691015,-0.09335279195437034, ,0.001500720682091974, ,0.02026716126100405,0.0009467536647141682,-0.06174923334561049,0.011372645741685759,0.034928502468583915,0.006989684258039457, ,0.06499709214150928, ,0.03672110565912247, ,0.0009418006532911509, ,0.2278746789197426,-0.19534652805350897,0.10608059586000002,1.8798703433387607,1.0091971872675431,-1.1715374996216883, ,0.07227489836898002,0.11364903180655184,0.06397113060240965,-0.12334515914183428,0.13938476254636273,-0.16540034183737592, ,1.16156005859375
0.013875423344722597,0.020802169515417676,-0.09231064367823524, ,0.014762513867949049,0.020124658751735802,-0.09346530910398662, ,0.0016059896253489891, ,0.02026716126100405,0.0009467536647141682,-0.06174923334561049,0.011372645741685759,0.034928502468583915,0.006989684258039457, ,0.06499709214150928, ,0.03672110565912247, ,0.0009468323879279527, ,0.2278746789197426,-0.19534652805350897,0.10608059586000002,1.8798703433387607,1.0091971872675431,-1.1715374996216883, ,0.07227489836898002,0.11364903180655184,0.06397113060240965,-0.12334515914183428,0.13938476254636273,-0.16540034183737592, ,1.164316177368164
0.013875423344722597,0.020802169515417676,-0.09231064367823524, ,0.01480649432889947,0.020121770663494756,-0.0935776155691181, ,0.0017131997979107415, ,0.02026716126100405,0.0009467536647141682,-0.06174923334561049,0.011372645741685759,0.034928502468583915,0.006989684258039457, ,0.06499709214150928, ,0.03672110565912247, ,0.0009525945489052669, ,0.2278746789197426,-0.19534652805350897,0.10608059586000002,1.8798703433387607,1.0091971872675431,-1.1715374996216883, ,0.07227489836898002,0.11364903180655184,0.06397113060240965,-0.12334515914183428,0.13938476254636273,-0.16540034183737592, ,1.169579029083252
0.014007685202346975,0.020801886630570737,-0.09269553316669862, ,0.014850564259568858,0.02011889224576555,-0.09368971011235575, ,0.0014715006741604943, ,0.020052827130766258,-0.0009802939828402672,-0.05509476607857881,-0.02284161692968651,0.005151483494120245,-0.010488133650061114, ,0.05863881053945847, ,0.023404478438244246, ,0.0009564669826758283, ,0.2283843792894414,-0.19458197749896075,0.10647855689,1.8790315835648228,1.0100170062661358,-1.1724510432642883, ,0.0830971467237047,0.12166274558778303,0.05688861257142858,-0.08386363419526031,0.11101282830910204,-0.12502549944122404, ,1.1718151569366455
0.014007685202346975,0.020801886630570737,-0.09269553316669862, ,0.014894723005649205,0.020116023699957946,-0.09380159150290657, ,0.0015749949419509562, ,0.020052827130766258,-0.0009802939828402672,-0.05509476607857881,-0.02284161692968651,0.005151483494120245,-0.010488133650061114, ,0.05863881053945847, ,0.023404478438244246, ,0.0009610486712630515, ,0.2283843792894414,-0.19458197749896075,0.10647855689,1.8790315835648228,1.0100170062661358,-1.1724510432642883, ,0.0830971467237047,0.12166274558778303,0.05688861257142858,-0.08386363419526031,0.11101282830910204,-0.12502549944122404, ,1.1737802028656006
0.014007685202346975,0.020801886630570737,-0.09269553316669862, ,0.014938969914807731,0.02011316522709401,-0.09391325851658239, ,0.0016806199496077635, ,0.020052827130766258,-0.0009802939828402672,-0.05509476607857881,-0.02284161692968651,0.005151483494120245,-0.010488133650061114, ,0.05863881053945847, ,0.023404478438244246, ,0.000966339636544998, ,0.2283843792894414,-0.19458197749896075,0.10647855689,1.8790315835648228,1.0100170062661358,-1.1724510432642883, ,0.0830971467237047,0.12166274558778303,0.05688861257142858,-0.08386363419526031,0.11101282830910204,-0.12502549944122404, ,1.17569899559021
0.014007685202346975,0.020801886630570737,-0.09269553316669862, ,0.014983304336685144,0.020110317027808224,-0.09402470993579196, ,0.0017879631132238854, ,0.020052827130766258,-0.0009802939828402672,-0.05509476607857881,-0.02284161692968651,0.005151483494120245,-0.010488133650061114, ,0.05863881053945847, ,0.023404478438244246, ,0.0009723368881995883, ,0.2283843792894414,-0.19458197749896075,0.10647855689,1.8790315835648228,1.0100170062661358,-1.1724510432642883, ,0.0830971467237047,0.12166274558778303,0.05688861257142858,-0.08386363419526031,0.11101282830910204,-0.12502549944122404, ,1.1776161193847656
0.014007685202346975,0.020801886630570737,-0.09269553316669862, ,0.01502772562289269,0.020107479302347457,-0.09413594454953017, ,0.0018966994882764006, ,0.020052827130766258,-0.0009802939828402672,-0.05509476607857881,-0.02284161692968651,0.005151483494120245,-0.010488133650061114, ,0.05863881053945847, ,0.023404478438244246, ,0.00097903516791029, ,0.2283843792894414,-0.19458197749896075,0.10647855689,1.8790315835648228,1.0100170062661358,-1.1724510432642883, ,0.0830971467237047,0.12166274558778303,0.05688861257142858,-0.08386363419526031,0.11101282830910204,-0.12502549944122404, ,1.1795520782470703
0.014281037589024218,0.020763848850343488,-0.09339499666639373, ,0.015072233127010013,0.02010465225057143,-0.09424696115336922, ,0.0013365530380598815, ,0.01810223768435557,-0.004337145118003763,-0.04317220427857257,-0.06409311586209127,-0.03649803007097615,0.020693851249676896, ,0.04701426442289963, ,0.07375556741153626, ,0.0009816072389185603, ,0.22962773928219157,-0.19279802620501488,0.10719799784000002,1.8777734439039155,1.01138337126379,-1.1741369734822364, ,0.0891051094445735,0.12789345223513582,0.044124131634349036,-0.10274934281752615,0.07677465208029954,-0.09289389681686087, ,1.1815621852874756
0.014281037589024218,0.020763848850343488,-0.09339499666639373, ,0.0151168262045826,0.020101836071952702,-0.09435775854944825, ,0.0014365632502999581, ,0.01810223768435557,-0.004337145118003763,-0.04317220427857257,-0.06409311586209127,-0.03649803007097615,0.020693851249676896, ,0.04701426442289963, ,0.07375556741153626, ,0.0009848569247141415, ,0.22962773928219157,-0.19279802620501488,0.10719799784000002,1.8777734439039155,1.01138337126379,-1.1741369734822364, ,0.0891051094445735,0.12789345223513582,0.044124131634349036,-0.10274934281752615,0.07677465208029954,-0.09289389681686087, ,1.1834940910339355
0.014281037589024218,0.020763848850343488,-0.09339499666639373, ,0.015161504213119502,0.02009903096557673,-0.09446833554646522, ,0.0015392402825824898, ,0.01810223768435557,-0.004337145118003763,-0.04317220427857257,-0.06409311586209127,-0.03649803007097615,0.020693851249676896, ,0.04701426442289963, ,0.07375556741153626, ,0.000988788721578456, ,0.22962773928219157,-0.19279802620501488,0.10719799784000002,1.8777734439039155,1.01138337126379,-1.1741369734822364, ,0.0891051094445735,0.12789345223513582,0.044124131634349036,-0.10274934281752615,0.07677465208029954,-0.09289389681686087, ,1.1854581832885742
0.014281037589024218,0.020763848850343488,-0.09339499666639373, ,0.015206266512090973,0.020096237130142205,-0.09457869095966522, ,0.0016440456651057092, ,0.01810223768435557,-0.004337145118003763,-0.04317220427857257,-0.06409311586209127,-0.03649803007097615,0.020693851249676896, ,0.04701426442289963, ,0.07375556741153626, ,0.0009934032070962537, ,0.22962773928219157,-0.19279802620501488,0.10719799784000002,1.8777734439039155,1.01138337126379,-1.1741369734822364, ,0.0891051094445735,0.12789345223513582,0.044124131634349036,-0.10274934281752615,0.07677465208029954,-0.09289389681686087, ,1.1873791217803955
0.014281037589024218,0.020763848850343488,-0.09339499666639373, ,0.015251112462926125,0.020093454763960867,-0.09468882361083306, ,0.0017505603829030872, ,0.01810223768435557,-0.004337145118003763,-0.04317220427857257,-0.06409311586209127,-0.03649803007097615,0.020693851249676896, ,0.04701426442289963, ,0.07375556741153626, ,0.0009986980125214762, ,0.22962773928219157,-0.19279802620501488,0.10719799784000002,1.8777734439039155,1.01138337126379,-1.1741369734822364, ,0.0891051094445735,0.12789345223513582,0.044124131634349036,-0.10274934281752615,0.07677465208029954,-0.09289389681686087, ,1.1892971992492676
0.01444272785538281,0.020712885794599935,-0.09376739458560525, ,0.01529604142900997,0.020090684064958172,-0.09479873232828197, ,0.0014761221449375607, ,0.017893365156823368,-0.005979437818054749,-0.039961828624350715,-0.05481901362787331,-0.019834192745336758,0.013333503699832128, ,0.04419133331613089, ,0.058295947926542135, ,0.0010020134578854767, ,0.2304617944326078,-0.1915701116780132,0.10757781081000001,1.876724994186493,1.012203190262383,-1.1750505171248367, ,0.09518248902554742,0.13733276636537015,0.040843106461538464,-0.10545585215245734,0.10137098252193213,-0.11175208506315595, ,1.1913831233978271
0.01444272785538281,0.020712885794599935,-0.09376739458560525, ,0.015341052775681752,0.02008792523067301,-0.09490841594684554, ,0.0015809785310688476, ,0.017893365156823368,-0.005979437818054749,-0.039961828624350715,-0.05481901362787331,-0.019834192745336758,0.013333503699832128, ,0.04419133331613089, ,0.058295947926542135, ,0.0010060063204591551, ,0.2304617944326078,-0.1915701116780132,0.10757781081000001,1.876724994186493,1.012203190262383,-1.1750505171248367, ,0.09518248902554742,0.13733276636537015,0.040843106461538464,-0.10545585215245734,0.10137098252193213,-0.11175208506315595, ,1.19327712059021
0.01444272785538281,0.020712885794599935,-0.09376739458560525, ,0.015386145870232206,0.020085178458257916,-0.0950178733078665, ,0.0016875280992232678, ,0.017893365156823368,-0.005979437818054749,-0.039961828624350715,-0.05481901362787331,-0.019834192745336758,0.013333503699832128, ,0.04419133331613089, ,0.058295947926542135, ,0.0010106742778479504, ,0.2304617944326078,-0.1915701116780132,0.10757781081000001,1.876724994186493,1.012203190262383,-1.1750505171248367, ,0.09518248902554742,0.13733276636537015,0.040843106461538464,-0.10545585215245734,0.10137098252193213,-0.11175208506315595, ,1.1951420307159424
0.01444272785538281,0.020712885794599935,-0.09376739458560525, ,0.015431320081901284,0.020082443944479233,-0.09512710325918887, ,0.0017954328708517332, ,0.017893365156823368,-0.005979437818054749,-0.039961828624350715,-0.05481901362787331,-0.019834192745336758,0.013333503699832128, ,0.04419133331613089, ,0.058295947926542135, ,0.0010160127716779082, ,0.2304617944326078,-0.1915701116780132,0.10757781081000001,1.876724994186493,1.012203190262383,-1.1750505171248367, ,0.09518248902554742,0.13733276636537015,0.040843106461538464,-0.10545585215245734,0.10137098252193213,-0.11175208506315595, ,1.1970291137695312
0.01444272785538281,0.020712885794599935,-0.09376739458560525, ,0.015476574781875444,0.020079721885717525,-0.0952361046551467, ,0.0019044278067970916, ,0.017893365156823368,-0.005979437818054749,-0.039961828624350715,-0.05481901362787331,-0.019834192745336758,0.013333503699832128, ,0.04419133331613089, ,0.058295947926542135, ,0.0010220155759692539, ,0.2304617944326078,-0.1915701116780132,0.10757781081000001,1.876724994186493,1.012203190262383,-1.1750505171248367, ,0.09518248902554742,0.13733276636537015,0.040843106461538464,-0.10545585215245734,0.10137098252193213,-0.11175208506315595, ,1.1989891529083252
0.014631655997110967,0.020653153863637485,-0.09420262636897347, ,0.0155219093432855,0.020077012477967376,-0.09534487635655636, ,0.0015585971098362572, ,0.018572983333338837,-0.005735405803497494,-0.044316344602345646,-0.014217244815845386,0.029882469339293297,-0.002339682284005929, ,0.04839203435013995, ,0.03308959191999402, ,0.0010256167943173545, ,0.23144258150763433,-0.1901259606305332,0.10802503086000001,1.8756765444690702,1.0135695552600372,-1.1766547686026443, ,0.09349452370292687,0.1422742752001061,0.04564129375358167,-0.11499156924709464,0.15413654063982968,-0.16182183575525655, ,1.2011120319366455
0.014631655997110967,0.020653153863637485,-0.09420262636897347, ,0.015567323141204365,0.020074315916837504,-0.0954534172307049, ,0.001665834371413422, ,0.018572983333338837,-0.005735405803497494,-0.044316344602345646,-0.014217244815845386,0.029882469339293297,-0.002339682284005929, ,0.04839203435013995, ,0.03308959191999402, ,0.001029884911497995, ,0.23144258150763433,-0.1901259606305332,0.10802503086000001,1.8756765444690702,1.0135695552600372,-1.1766547686026443, ,0.09349452370292687,0.1422742752001061,0.04564129375358167,-0.11499156924709464,0.15413654063982968,-0.16182183575525655, ,1.2033381462097168
0.014631655997110967,0.020653153863637485,-0.09420262636897347, ,0.015612815552644363,0.02007163239755126,-0.0955617261513422, ,0.0017742585796236931, ,0.018572983333338837,-0.005735405803497494,-0.044316344602345646,-0.014217244815845386,0.029882469339293297,-0.002339682284005929, ,0.04839203435013995, ,0.03308959191999402, ,0.0010348145384392248, ,0.23144258150763433,-0.1901259606305332,0.10802503086000001,1.8756765444690702,1.0135695552600372,-1.1766547686026443, ,0.09349452370292687,0.1422742752001061,0.04564129375358167,-0.11499156924709464,0.15413654063982968,-0.16182183575525655, ,1.2052950859069824
0.014631655997110967,0.020653153863637485,-0.09420262636897347, ,0.01565838595655476,0.02006896211494657,-0.09566980199867053, ,0.001883629140047203, ,0.018572983333338837,-0.005735405803497494,-0.044316344602345646,-0.014217244815845386,0.029882469339293297,-0.002339682284005929, ,0.04839203435013995, ,0.03308959191999402, ,0.0010403988450287509, ,0.23144258150763433,-0.1901259606305332,0.10802503086000001,1.8756765444690702,1.0135695552600372,-1.1766547686026443, ,0.09349452370292687,0.1422742752001061,0.04564129375358167,-0.11499156924709464,0.15413654063982968,-0.16182183575525655, ,1.2072510719299316
0.014631655997110967,0.020653153863637485,-0.09420262636897347, ,0.015704033733819858,0.020066305263475994,-0.09577764365933528, ,0.0019937564431592486, ,0.018572983333338837,-0.005735405803497494,-0.044316344602345646,-0.014217244815845386,0.029882469339293297,-0.002339682284005929, ,0.04839203435013995, ,0.03308959191999402, ,0.0010466299404413685, ,0.23144258150763433,-0.1901259606305332,0.10802503086000001,1.8756765444690702,1.0135695552600372,-1.1766547686026443, ,0.09349452370292687,0.1422742752001061,0.04564129375358167,-0.11499156924709464,0.15413654063982968,-0.16182183575525655, ,1.2094700336456299
0.014828889042721805,0.020599095616299214,-0.09467966407929164, ,0.015749758267256074,0.020063662037206876,-0.09588525002641513, ,0.001608765589579666, ,0.02067307048456451,-0.004916518563308615,-0.04928671108589407,0.006945382982773241,0.027477940378319608,-0.012713276122074726, ,0.053672412724858225, ,0.02833698494057321, ,0.0010502801719292796, ,0.23144258150763433,-0.1901259606305332,0.10802503086000001,1.8756765444690702,1.0135695552600372,-1.1766547686026443, ,0.09349452370292687,0.1422742752001061,0.04564129375358167,-0.11499156924709464,0.15413654063982968,-0.16182183575525655, ,1.2114500999450684
0.014828889042721805,0.020599095616299214,-0.09467966407929164, ,0.015795558941609653,0.020061032629821847,-0.09599261999941273, ,0.0017169204172045413, ,0.02067307048456451,-0.004916518563308615,-0.04928671108589407,0.006945382982773241,0.027477940378319608,-0.012713276122074726, ,0.053672412724858225, ,0.02833698494057321, ,0.001054581076737507, ,0.2324156458497866,-0.18868180958305322,0.10851762106000001,1.8744184048081631,1.0152091932572225,-1.1784818558878447, ,0.10259128817131975,0.1420612897581898,0.05105388307692308,-0.12586249319343754,0.16303470924117286,-0.19301395171550492, ,1.2136821746826172
0.014828889042721805,0.020599095616299214,-0.09467966407929164, ,0.015841435143554575,0.020058417234618372,-0.09609975248424502, ,0.0018259884437234772, ,0.02067307048456451,-0.004916518563308615,-0.04928671108589407,0.006945382982773241,0.027477940378319608,-0.012713276122074726, ,0.053672412724858225, ,0.02833698494057321, ,0.0010595259957566479, ,0.2324156458497866,-0.18868180958305322,0.10851762106000001,1.8744184048081631,1.0152091932572225,-1.1784818558878447, ,0.10259128817131975,0.1420612897581898,0.05105388307692308,-0.12586249319343754,0.16303470924117286,-0.19301395171550492, ,1.2157680988311768
0.014828889042721805,0.020599095616299214,-0.09467966407929164, ,0.01588738626168981,0.020055816044509372,-0.09620664639323384, ,0.0019357799572212314, ,0.02067307048456451,-0.004916518563308615,-0.04928671108589407,0.006945382982773241,0.027477940378319608,-0.012713276122074726, ,0.053672412724858225, ,0.02833698494057321, ,0.0010651072311799892, ,0.2324156458497866,-0.18868180958305322,0.10851762106000001,1.8744184048081631,1.0152091932572225,-1.1784818558878447, ,0.10259128817131975,0.1420612897581898,0.05105388307692308,-0.12586249319343754,0.16303470924117286,-0.19301395171550492, ,1.2179341316223145
0.014828889042721805,0.020599095616299214,-0.09467966407929164, ,0.015933411686536933,0.02005322925202329,-0.09631330064509579, ,0.002046144859847549, ,0.02067307048456451,-0.004916518563308615,-0.04928671108589407,0.006945382982773241,0.027477940378319608,-0.012713276122074726, ,0.053672412724858225, ,0.02833698494057321, ,0.0010713163300956068, ,0.2324156458497866,-0.18868180958305322,0.10851762106000001,1.8744184048081631,1.0152091932572225,-1.1784818558878447, ,0.10259128817131975,0.1420612897581898,0.05105388307692308,-0.12586249319343754,0.16303470924117286,-0.19301395171550492, ,1.2208452224731445
0.015033864751994462,0.020558883988435077,-0.0951779190810265, ,0.015979510810537893,0.020050657049304085,-0.09641971416493357, ,0.0016415225006416873, ,0.022042035829127497,-0.0037056326963192834,-0.053756211589591325,-0.0451169279206511,-0.014354353240020152,-0.005344292152760837, ,0.05821780948848457, ,0.047340635277542835, ,0.0010749025324260852, ,0.2333809874590647,-0.18733805406293816,0.10903224819000001,1.8733699550907406,1.0164389217551115,-1.179566295761253, ,0.10127741895247683,0.13914507559893075,0.05550108543554008,-0.09233594819444955,0.11046775197600588,-0.12159187809536588, ,1.2228682041168213
0.015033864751994462,0.020558883988435077,-0.0951779190810265, ,0.016025683028052747,0.020048099628111233,-0.09652588588422545, ,0.0017497481698807533, ,0.022042035829127497,-0.0037056326963192834,-0.053756211589591325,-0.0451169279206511,-0.014354353240020152,-0.005344292152760837, ,0.05821780948848457, ,0.047340635277542835, ,0.0010791203176601768, ,0.2333809874590647,-0.18733805406293816,0.10903224819000001,1.8733699550907406,1.0164389217551115,-1.179566295761253, ,0.10127741895247683,0.13914507559893075,0.05550108543554008,-0.09233594819444955,0.11046775197600588,-0.12159187809536588, ,1.2248210906982422
0.015033864751994462,0.020558883988435077,-0.0951779190810265, ,0.016071927735356744,0.02004555717982045,-0.09663181474081668, ,0.001858733913024184, ,0.022042035829127497,-0.0037056326963192834,-0.053756211589591325,-0.0451169279206511,-0.014354353240020152,-0.005344292152760837, ,0.05821780948848457, ,0.047340635277542835, ,0.0010839626381282763, ,0.2333809874590647,-0.18733805406293816,0.10903224819000001,1.8733699550907406,1.0164389217551115,-1.179566295761253, ,0.10127741895247683,0.13914507559893075,0.05550108543554008,-0.09233594819444955,0.11046775197600588,-0.12159187809536588, ,1.2267482280731201
0.015033864751994462,0.020558883988435077,-0.0951779190810265, ,0.016118244330638378,0.020043029895423153,-0.09673749967890867, ,0.0019683181036477828, ,0.022042035829127497,-0.0037056326963192834,-0.053756211589591325,-0.0451169279206511,-0.014354353240020152,-0.005344292152760837, ,0.05821780948848457, ,0.047340635277542835, ,0.001089421622483335, ,0.2333809874590647,-0.18733805406293816,0.10903224819000001,1.8733699550907406,1.0164389217551115,-1.179566295761253, ,0.10127741895247683,0.13914507559893075,0.05550108543554008,-0.09233594819444955,0.11046775197600588,-0.12159187809536588, ,1.2286791801452637
