NicholasDascanio/dvrk_moveit_final/test/execution/third_experiment_notsharpbends/thirdexp_600vel5.0/thirdexp_600vel5.0_13.csv
Current Position (x),Current Position (y),Current Position (z), ,Planned Position (x),Planned Position (y),Planned Position (z), ,Position Error,,Cartesian linear Velocity(x),Cartesian linear Velocity(y),Cartesian linear Velocity(z),Cartesian Angular Velocity(x),Cartesian Angular Velocity(y),Cartesian Angular Velocity(z), ,Total Linear Velocity, ,Total Angular Velocity, ,MSE, ,Joint 1 Position,Joint 2 Position,Joint 3 Position,Joint 4 Position,Joint 5 Position,Joint 6 Position, ,Joint 1 Velocity,Joint 2 Velocity,Joint 3 Velocity,Joint 4 Velocity,Joint 5 Velocity,Joint 6 Velocity, ,Time Stamp
0.009348018612595814,0.02015133177826828,-0.07879190507852511, ,0.009440321060029592,0.02005255220856675,-0.07887563297111949, ,0.00015902045525963392, ,-8.972537694720235e-06,3.0079702136644573e-05,6.628480522891855e-06,-0.0017794760792173374,0.00018623830957696872,0.0035674187889396295, ,3.2081640658713085e-05, ,0.0017891953008156473, ,1.3251704604969494e-05, ,0.21103912125393318,-0.19462059116333186,0.09411065400000002,2.1184974990241496,1.246808060359644,-1.093629744442255, ,-0.00013709627565602797,-0.0003105844412163238,0.0,0.0007671175368996664,0.0,0.00479523738103671, ,0.019068002700805664
0.009350133638705472,0.020154601725056558,-0.07880019310998577, ,0.00949955076067811,0.02007897281419195,-0.0790009604498738, ,0.00026144355655258834, ,0.0006462731670358981,0.0008343901202142693,-0.0001111266140970799,0.11206877107490941,0.02190278136441636,-0.26999433623742936, ,0.0010612374868531895, ,0.11418905937846181, ,1.9112000536919195e-05, ,0.21106228945255584,-0.19462059116333186,0.09413657980000001,2.119755638685057,1.2469446968594096,-1.097008311951574, ,0.00186967037417964,-0.00025287457675802507,0.0003884563665681619,0.10238733220186591,0.0,-0.1943681159713826, ,0.04031109809875488
0.00936641988700821,0.02017084175765682,-0.07883010277718752, ,0.009558719896220608,0.020105046559817152,-0.07912604248373943, ,0.0003590106008405316, ,0.000658908163396892,0.0006828130138442994,-0.001555225788152816,0.1884073079881216,0.0161418857409001,-0.38517754919686226, ,0.0018218454467384846, ,0.1890975255750167, ,2.435858164539856e-05, ,0.2110777349183043,-0.1946283138962061,0.09415343157000002,2.119965328628541,1.2466714238598786,-1.1002976619702252, ,0.0011967826427403301,0.00018370273006743622,0.0017500342254449575,0.049712675850713976,0.0,-0.38176645895474115, ,0.05875706672668457
0.009401641318481261,0.020186463009974925,-0.07892743003168706, ,0.009617828316822502,0.02013077550054631,-0.07925087926502147, ,0.0003930105895555185, ,0.0022326672453798395,0.0013747698599995107,-0.007322071493310146,-0.01860006011956561,-0.05858546528741582,-0.03918049207154812, ,0.007777372702249786, ,0.06146721856687877, ,2.7916314338292197e-05, ,0.21117813044566922,-0.19462059116333186,0.09423509784,2.119965328628541,1.2442119668641007,-1.1027844704114205, ,0.006203542933355733,0.00026052665444862866,0.007159016413483147,0.0,-0.06315664029915316,-0.02494974957927365, ,0.0781869888305664
0.009464426307561762,0.020230957967851324,-0.0791317523243256, ,0.00967687587426373,0.020156161686329152,-0.07937547098606931, ,0.00033185552308730306, ,0.0026581251860494383,0.0018784775836786808,-0.008167984956565233,0.0482948012688042,-0.013113698510248321,-0.12239633942551172, ,0.008792626785424798, ,0.050043549852654357, ,2.892962933260722e-05, ,0.2113634760346506,-0.19460514569758341,0.0944476894,2.120594398458995,1.2438020573648043,-1.1065341537073596, ,0.009126672156861812,-0.00020672732112891518,0.008563877161290324,0.028253486322549065,-0.01359015492189281,-0.10383167777230451, ,0.09850907325744629
0.009506980879507881,0.020258483081267604,-0.07925090223436636, ,0.009735862421935314,0.02018120716196608,-0.07949981783927813, ,0.0003468678516905998, ,0.002656751307403592,0.001715545699446344,-0.007279029522296476,-0.18437995071041346,-0.04896078700095092,0.269841932796125, ,0.007936352773330026, ,0.19076982168910345, ,2.985820285461573e-05, ,0.21150248522638665,-0.19460514569758341,0.09456565179000001,2.1212234682894486,1.242708965366681,-1.1031107695334308, ,0.009881177553274948,-0.00020672732112891518,0.007381284300278036,0.036653183060660684,-0.04758381890348717,0.3602518882093052, ,0.12260913848876953
0.009564591491007577,0.02029161146895468,-0.07938837074771482, ,0.00979478781483679,0.020205913967113926,-0.07962392001708914, ,0.000340320242755267, ,0.0020513083262952985,0.0009877740642484111,-0.004027472418892476,0.044365844390840334,0.02506072544703786,-0.06238866793992265, ,0.004626456261164679, ,0.050954569053073336, ,3.0437900274186695e-05, ,0.2118963446029721,-0.19458197749896075,0.09473287320000001,2.121642848176417,1.2450317858626934,-1.0995323983068521, ,0.013833373405024893,0.0019355713561277892,0.00469460993810787,0.0333846837862536,0.0377762984966593,-0.045527370744442554, ,0.14148998260498047
0.009606483687070896,0.020310581607093616,-0.07947911021938125, ,0.009853651909573257,0.020230284136291125,-0.07974777771199051, ,0.0003737941085908121, ,0.002161612870015013,0.0011445734512887937,-0.005065153259076688,0.023563132682275483,-0.005330781490133715,-0.07045337010318552, ,0.0056248018741236454, ,0.024158610261438708, ,3.128442595527139e-05, ,0.21215119478782152,-0.19454336383458962,0.09483139124000001,2.1220622280633865,1.2451684223624588,-1.0998888524309702, ,0.011101735209777084,0.0019230703684257112,0.005419806573664513,0.034660541609963055,-0.002034220664566145,-0.041055107194054585, ,0.16316819190979004
0.009653578592824574,0.020334053350442707,-0.07958916364640932, ,0.009912454564352552,0.02025431969888319,-0.07987139111651756, ,0.00039118610495423597, ,0.0026218581806395267,0.0014458022869466795,-0.006282724097224185,-0.0027501784823915293,-0.01263765422021404,-0.0005725005658154875, ,0.006959677194681382, ,0.012933436360289818, ,3.248911025589549e-05, ,0.21242149043841937,-0.1945356411017154,0.09494805734,2.122271918006871,1.2450317858626934,-1.1001041494878359, ,0.014806825020825521,-0.0006570851228417391,0.0067437813378492814,0.01244626575055707,0.0,0.012715514327897155, ,0.18143916130065918
0.009690255808410394,0.020354989214151013,-0.07966376905293897, ,0.009971195638981935,0.020278022679147738,-0.07999476042325322, ,0.000440915324222786, ,0.0027619928754824942,0.0013074928250231144,-0.00574129967731378,0.003307937086842562,-0.01320616146275713,-0.019860031028676645, ,0.006503896072080664, ,0.013614152273014945, ,3.397424357509276e-05, ,0.21263772695889765,-0.19454336383458962,0.09502972361,2.122900987837325,1.2450317858626934,-1.0999407920075548, ,0.0173899471428387,0.0006056254902016989,0.006202808224299066,0.021765018511426256,0.0,0.0012927391154732458, ,0.1999971866607666
0.009751524795863867,0.020382828991617353,-0.07979657726381433, ,0.010029874994865852,0.020301395096220264,-0.08011788582482893, ,0.0004328388891784829, ,0.0032246051938153433,0.0017173452008544575,-0.007354934921697928,0.003708204111692522,-0.012333311655209834,-0.025427898066666264, ,0.008212333462377817, ,0.01287871626350763, ,3.514002978612623e-05, ,0.2130238636026089,-0.19452791836884117,0.09517231551000001,2.123110677780809,1.2450317858626934,-1.0999407920075548, ,0.018203902082960056,0.00044696094108480664,0.007920841133764296,0.030824979832146906,0.0,0.004788464101544058, ,0.21785402297973633
0.009821383920635786,0.020425972694928924,-0.07997398157321627, ,0.010088492495002592,0.020324438964119312,-0.08024076751392549, ,0.00039093583508357485, ,0.0036018610764205344,0.0022893192533521086,-0.009062923263248946,0.007213926473606988,-0.003935481375179142,-0.0521648389804346, ,0.010017532826656515, ,0.008217584053645326, ,3.5772873574333336e-05, ,0.2133482183833263,-0.19451247290309273,0.09536287014000001,2.1241591274982317,1.2450317858626934,-1.0994507195667116, ,0.016285728772691056,0.0008095954859819799,0.00976030117647059,0.06498990290005695,0.0,0.011698709916432029, ,0.23481297492980957
0.009877896308607163,0.02045469533258145,-0.08012184638841749, ,0.010147048003981307,0.020347156291751763,-0.08036340568327244, ,0.0003773038210198315, ,0.003313435557730008,0.0016348592601939812,-0.007928844921479414,-0.0027263013390836166,-0.010627626360711774,-0.022048797072783843, ,0.008747468307158448, ,0.01097174232826982, ,3.6208684273946184e-05, ,0.21363395949967262,-0.1944738592387216,0.09551972123000001,2.1243688174417166,1.2450317858626934,-1.0992873620864305, ,0.01733277471387594,0.0032513602137166247,0.00846826768740032,0.03609525146258379,0.0,0.015014942210701257, ,0.25346899032592773
0.009918933479402817,0.020471869488271014,-0.08021424806634762, ,0.010205541387979288,0.02036954908291821,-0.0804858005256496, ,0.00040786553760166315, ,0.0031782078751819705,0.0013930615040258563,-0.006371317840453181,-0.0018210636264118672,-0.01605300903479793,-0.012869461474828914, ,0.0072550201016912735, ,0.016155969834825222, ,3.681153264994727e-05, ,0.2140973234721261,-0.19442752284147627,0.09568564635000001,2.124788197328685,1.2450317858626934,-1.098960647125868, ,0.021406934707527806,0.0018725857362040994,0.006721017518987343,0.018355129534306965,3.471317032473728e-05,0.013515104238192615, ,0.27069997787475586
0.009971047102206736,0.02049696036835183,-0.08030860598894675, ,0.010263972514758945,0.020391619336318383,-0.08060795223388728, ,0.0004318682724034616, ,0.003542555576757293,0.0017519259134418852,-0.005893246355068705,0.008740315483041699,-0.004570080362101646,-0.07362793770732608, ,0.007095723854698262, ,0.00986299863889006, ,3.750508077790545e-05, ,0.21421316446523944,-0.19441980010860202,0.09572194247000002,2.1254172671591385,1.2450317858626934,-1.0987972896455869, ,0.02218254828388751,0.0022574978034617726,0.006557765137916839,0.09274142181969716,1.2650733670362528e-05,0.017865758653137172, ,0.28828001022338867
0.010053445980441549,0.02053070322213969,-0.08046247223752993, ,0.010322341253664746,0.02041336904555642,-0.08072986100086654, ,0.0003969492759974921, ,0.0033775352046605312,0.0011260899979590267,-0.00710423698790298,-0.0051102646026925285,-0.02215496076697979,0.0011370826943061549, ,0.0079464461190216, ,0.022736690014154515, ,3.7890818109050534e-05, ,0.21475375576643516,-0.19436574097848247,0.09588786759000001,2.126256026933077,1.2448951493629279,-1.0981141205609066, ,0.022115344105912555,0.004128519979825749,0.00755636220113852,0.0,0.0,0.0022866008119473875, ,0.30559515953063965
0.010085735535315736,0.020542345863559304,-0.08053588875680578, ,0.010380647475620506,0.020434800199146237,-0.08085152701952009, ,0.0004451591124055249, ,0.003402361049279441,0.0014958638817219175,-0.007391161868287169,-0.0068036486424854145,-0.020830906113682976,0.008722796415575343, ,0.008273025034744929, ,0.021913837233802726, ,3.876756235308214e-05, ,0.21496226955403921,-0.19434257277985978,0.09596564499000002,2.1260463369895928,1.2448951493629279,-1.0981957993010472, ,0.02138281693521198,0.0008085777863041955,0.00792872649079144,0.004171974666750723,0.0,0.014620580854714335, ,0.32231807708740234
0.010127726213307254,0.02056037767426372,-0.08062119680528276, ,0.010438891053126205,0.02045591478051676,-0.08097295048283255, ,0.00048110986622531843, ,0.0038374690089083363,0.0015750146565740445,-0.008044257269517406,-0.010119409828246701,-0.025120494190864914,0.01567649750740812, ,0.009050796350649959, ,0.0270821278702546, ,3.9773264514262504e-05, ,0.21523256520463707,-0.19432712731411134,0.09605768158000001,2.126256026933077,1.2448951493629279,-1.098032441820766, ,0.02502556475698069,0.0012502360391129048,0.00863350217886179,0.0012485527503133436,0.0,0.019437141416374842, ,0.33807802200317383
0.010242351606270692,0.020608677889913236,-0.08085332081758134, ,0.010497071860254985,0.020476714768017476,-0.08109413158384081, ,0.0003745483927034925, ,0.003708747697379291,0.001473384160312497,-0.007014444270698785,-0.003997946964885656,-0.016052525894970887,-0.0234876188005787, ,0.00807019818798863, ,0.016542888217044468, ,4.0089906517573696e-05, ,0.21595850209481418,-0.1942498999853691,0.09630916184,2.127094786707015,1.2450317858626934,-1.0975721085434784, ,0.023771778947512718,0.0036135975809411763,0.007599623816793894,0.041721092517022516,0.0,0.019591496799671315, ,0.35329103469848633
0.010242351606270692,0.020608677889913236,-0.08085332081758134, ,0.0105551897726505,0.020497202134923575,-0.08121507051563485, ,0.0004910778006957788, ,0.003708747697379291,0.001473384160312497,-0.007014444270698785,-0.003997946964885656,-0.016052525894970887,-0.0234876188005787, ,0.00807019818798863, ,0.016542888217044468, ,4.10058126926016e-05, ,0.2161747386152925,-0.19421128632099796,0.09638823553,2.127094786707015,1.2450317858626934,-1.0974087510631974, ,0.024288953559885022,0.003126262557871489,0.008732901052631581,0.03169367087090895,0.0,0.020277943278090266, ,0.37007808685302734
0.010334955173874897,0.020646698214223394,-0.08104503911512778, ,0.010613244667523327,0.020517378849441468,-0.08133576747135804, ,0.0004227191946186596, ,0.003690297255300777,0.001509718754963754,-0.007624318063891388,-0.01904140797710879,-0.020571997729852583,0.020843326852557416, ,0.008603939242634752, ,0.02803180840731208, ,4.149381626516782e-05, ,0.2165299843275068,-0.19417267265662685,0.09651527195000001,2.1277238565374685,1.2450317858626934,-1.0970003573624947, ,0.023190845933155128,0.0024159828760782465,0.008198050190427176,0.01732783961716744,0.0,0.04307620867842572, ,0.38536596298217773
0.010421623378347459,0.020681650213786422,-0.08122634381791746, ,0.01067123642364871,0.020537246874713855,-0.08145622264420715, ,0.000368786213809841, ,0.0038567585034019374,0.001627024811582124,-0.008278834189727857,-0.006899424512995137,-0.014138613282741373,-0.020140385947284473, ,0.00927690096056188, ,0.01573220916714224, ,4.167617113491286e-05, ,0.21704740743007986,-0.1940645543963877,0.09671101174,2.1285626163114064,1.2451684223624588,-1.0966217028253478, ,0.02198215000196219,0.004739162507816838,0.008883888187395427,0.04184121643745177,0.00020143415325573393,0.023735168755304206, ,0.4002511501312256
0.010449890850302773,0.020691477134797107,-0.08128876322916259, ,0.01072916492136299,0.020556808168825467,-0.08157643622743399, ,0.00042294856790971023, ,0.0037972904151496955,0.0014998883444895838,-0.007874774849258312,0.010189274162332064,-0.014685288975334554,-0.04120265638261412, ,0.00887024004576171, ,0.017873975214311447, ,4.210254827220051e-05, ,0.217225030286187,-0.1940259407320166,0.09677841882,2.1285626163114064,1.245305058862224,-1.0965697632487628, ,0.02305002223912334,0.004270384710784349,0.008477281277275149,0.02986440766543448,0.0028489871204194677,-0.014124232449962172, ,0.41669416427612305
0.010497972719723705,0.020706909496416934,-0.08139530804416256, ,0.010787030042560836,0.020576064684807917,-0.08169640841434433, ,0.00043741963094306725, ,0.003547867852554357,0.0012326206825020681,-0.007543325974149872,-0.01041528855595258,-0.015539445772475638,-0.00017932787158963094, ,0.008426653356962337, ,0.018707019703726287, ,4.256401269773016e-05, ,0.21751849413540755,-0.19394871340327433,0.09689119605,2.1285626163114064,1.245305058862224,-1.096406405768482, ,0.021426268132416073,0.0056913759344444075,0.008061139433198382,0.020142161071147184,0.0028489871204194677,0.022207362903208162, ,0.43219518661499023
0.010579002606484705,0.020739274941910933,-0.0815551167723635, ,0.010844831670692168,0.020595018370645393,-0.08181613939829956, ,0.0003995095255200529, ,0.0038514202951057037,0.0018044989246269935,-0.006835685932955778,0.012740942972721497,0.004197508976376193,-0.09267592356500923, ,0.00805085441630524, ,0.013414570232252386, ,4.301539686055656e-05, ,0.21799730357360947,-0.19382514967728676,0.09706489891000002,2.129820755972314,1.2454416953619898,-1.0961094299714755, ,0.02170561334823211,0.0056797358885604535,0.007577931265461467,0.11304459208282357,0.005302590755748311,0.017480222959698668, ,0.4456930160522461
0.010612751395342207,0.020752466489812688,-0.08162248193121835, ,0.010902569690759317,0.020613671169279937,-0.08193562937271669, ,0.00044868709082970375, ,0.0041351238152211,0.0016302196397132848,-0.008082010500321098,0.0019574701134627273,-0.007779878428043144,-0.04701388893818292, ,0.009223652138291865, ,0.00802235396363594, ,4.3651514588167805e-05, ,0.2181980946283393,-0.1937788132800414,0.09713749115,2.1302401358592826,1.2454416953619898,-1.096027751231335, ,0.024432786189101642,0.006406769038310602,0.008776204694214878,0.06500877230850417,0.005302590755748311,0.017251127814466433, ,0.46063899993896484
0.010696904940507498,0.020783080953362006,-0.08181596331393635, ,0.010960243989313737,0.02063202501861661,-0.08205487853106855, ,0.00038632347977479037, ,0.003914244943929047,0.001443878086902559,-0.009326970617481471,-0.02205190620505051,-0.017832973682432255,0.03653745003452567, ,0.010217557355369932, ,0.028360208868257485, ,4.3989434578367035e-05, ,0.21868462679941544,-0.19364752682117958,0.09734489755,2.1304498258027675,1.2457149683615205,-1.0955154783774628, ,0.021670916090082388,0.0054397941032091265,0.0092933556126021,-0.003353576481760246,0.00936158371221003,0.022575644599619617, ,0.4736499786376953
0.01073748091783893,0.020795159107415532,-0.08191370486112269, ,0.011017854454452877,0.020650081851529056,-0.08217388706688483, ,0.00040908618945671466, ,0.0038207731062439186,0.001298541199552581,-0.0092669369095461,-0.02077135236097786,-0.014967132153388749,0.03356849770605558, ,0.010107454479830224, ,0.025602032252537116, ,4.440065468978226e-05, ,0.2189240315185164,-0.19357029949243734,0.09744860075,2.1302401358592826,1.245851604861286,-1.095300181320597, ,0.021106970987204356,0.007176784916804954,0.009826533942011105,0.0,0.00810201206407982,0.037356024366148946, ,0.490293025970459
0.010774409188668895,0.02081151792251129,-0.08199473398403723, ,0.011075400975817941,0.020667843595864526,-0.0822926551737515, ,0.00044720845625876665, ,0.0037205268814472737,0.0014825268203798479,-0.008155925114385405,0.011100900795788342,-0.0020774064431208546,-0.03294312442160367, ,0.009086215962664543, ,0.011293607923049979, ,4.493980043456602e-05, ,0.219117099840372,-0.19350851762944354,0.09753674847,2.1308692056897365,1.2459882413610515,-1.0951665630038716, ,0.021154021747318497,0.005536441951865049,0.008844426163242644,0.03346373887733392,0.01512160958987117,-0.004355798067930666, ,0.5054211616516113
0.010816640076088003,0.02082877033327178,-0.08207734892047153, ,0.011132883444589663,0.020685312174449563,-0.0824111830453125, ,0.0004817004612435805, ,0.003927024358031784,0.0015451507921264165,-0.007473709057579014,0.0015193224593107479,-0.00042144558163933164,-0.02948594542809892, ,0.008582851411758357, ,0.001576684431395736, ,4.558257681226455e-05, ,0.2193642272923472,-0.19345445849932397,0.09762619248000001,2.1314982755201903,1.2459882413610515,-1.0948398480433092, ,0.02392158849469896,0.005555278021560007,0.008227691900826447,0.05910275415393956,0.01512160958987117,0.02745337403027348, ,0.5187771320343018
0.010889960320667993,0.020848546702778227,-0.08221723143641371, ,0.011190301753486431,0.02070248950509512,-0.08252947087526903, ,0.0004571992436992424, ,0.0037365954764318416,0.0006883622077171024,-0.007171076350966674,-0.015136190227864235,-0.02185417409330654,0.037487441497588904, ,0.00811543740749059, ,0.026584001973950465, ,4.609988469995515e-05, ,0.21985848219629756,-0.19332317204046215,0.09777785841000002,2.1317079654636744,1.2462615143605824,-1.0944909326697183, ,0.02671648129461452,0.007645581896107233,0.007669143726528648,-0.021189052580313558,0.011087795428908004,0.017957279137837588, ,0.5319271087646484
0.010928618972053914,0.020858850187087233,-0.08229953187751272, ,0.011247655796760327,0.020719377500601783,-0.0826475188573811, ,0.0004922723473364433, ,0.003967503355411768,0.0014050565016156934,-0.008885400286179911,-0.006368418611987364,-0.013560543715815864,0.016071761399429306, ,0.009831866806135152, ,0.014981490116205894, ,4.6718764825636745e-05, ,0.22011333238114697,-0.19326139017746835,0.09786600613000002,2.1314982755201903,1.2463981508603477,-1.0946023505734148, ,0.023730167931600595,0.0051535589525080385,0.009543925416417017,0.0,0.012531172966241549,0.015617988112444978, ,0.5483121871948242
0.010964308409922203,0.020873935157743103,-0.08237564026954342, ,0.011304945470194557,0.02073597806876548,-0.0827653271854663, ,0.000535650686242122, ,0.0042457560578429,0.00155910904599342,-0.009328096196372374,-0.00695248125231095,-0.012685264034720043,-0.0048307550676351015, ,0.010366804916114943, ,0.014465574602075804, ,4.7630686601666394e-05, ,0.2203141234358768,-0.193215053780223,0.09794896869000001,2.1319176554071593,1.2465347873601134,-1.0945504109968303, ,0.02425790939633711,0.006585015774889144,0.010011823708359523,0.025527677313241272,0.008428499144580463,0.021279338070586365, ,0.5600299835205078
0.011071702113962006,0.020920059259714487,-0.08260719302479867, ,0.01136217067110042,0.020752293112382445,-0.08288289605340204, ,0.00043419998025999505, ,0.0045160755360205826,0.0017987051987060933,-0.009529330689423753,0.014852502933787419,-0.00897091879148032,-0.060041184416649566, ,0.010697589542849795, ,0.017351488373667102, ,4.8149623177365684e-05, ,0.22088560566856943,-0.19306832185561273,0.09819785637,2.1333854850115506,1.2465347873601134,-1.0938969810757055, ,0.025339637265279248,0.006497804658504534,0.010296581460892051,0.05077665040006442,0.007731231117261287,-0.013769224998164296, ,0.5712780952453613
0.01111420527940722,0.020935079684858846,-0.08269831025287015, ,0.011419331298313937,0.020768324529254662,-0.08300022565512485, ,0.0004605019863725413, ,0.004305887740801743,0.0013297787719178313,-0.00955547598394704,-0.013282760094083346,-0.022731320886555797,0.024557615907713864, ,0.010564852204286565, ,0.02632763918965446, ,4.873730895581893e-05, ,0.2211327331205446,-0.19300653999261894,0.09829507812,2.1335951749550355,1.2465347873601134,-1.093651944855284, ,0.02607058834023922,0.006608772582925084,0.010171654865900383,-0.009923289792263573,0.0066169915067379875,0.016679472792850803, ,0.5828320980072021
0.011201910379226084,0.020963848799325852,-0.08288917202910209, ,0.01147642725219319,0.020784074212195233,-0.08311731618463078, ,0.0003996600698387582, ,0.004768167704907166,0.0016102170544634385,-0.010277780743165913,-0.014318087919827194,-0.019871977495985748,0.036164033233291586, ,0.01144381925884871, ,0.0244929176824337, ,4.90971620299929e-05, ,0.22167332442174031,-0.19287525353375712,0.09850248452000002,2.1335951749550355,1.2470813333591748,-1.0938525802496477, ,0.02953530705212287,0.005444076677925225,0.011061674666666669,-0.00762394882174012,0.013945776093097122,0.029785401106518408, ,0.5970849990844727
0.011244337005743853,0.02097655546489558,-0.0829836979834284, ,0.011533458434614828,0.020799544049033645,-0.0832341678359763, ,0.0004214966061704491, ,0.004521753178093638,0.0014157243595852033,-0.010023402946932105,0.009739985769396718,-0.0007420242969409913,0.003292199125565567, ,0.011086890181763778, ,0.009768204628777193, ,4.9514641089172146e-05, ,0.22193589733946395,-0.19281347167076332,0.09860359514000001,2.1333854850115506,1.2472179698589405,-1.093637283192782, ,0.027363593298290304,0.00798586363033223,0.010887772740943269,0.0,0.03198797773500169,-0.004275555925798993, ,0.609328031539917
0.01129803473042984,0.020992771325862483,-0.08309710139383954, ,0.011590424748971288,0.02081473592262121,-0.08335078080327822, ,0.0004260771884566348, ,0.004084138070321332,0.001098833119741311,-0.008519095038780854,-0.011912149762725829,-0.00675233555170184,0.0279501726846739, ,0.009511182801432693, ,0.013692819377367965, ,4.9930735740532156e-05, ,0.22225252938730716,-0.19271307614339842,0.09872415011,2.1335951749550355,1.2472179698589405,-1.0932288894920792, ,0.0255580235815973,0.008399781510837883,0.009218062222222224,0.005320167900306165,0.02202183749657356,0.0327533725896921, ,0.6219611167907715
0.011342171877955049,0.02100920097597929,-0.08317818941286144, ,0.011647326100167622,0.020829651710836204,-0.08346715528071445, ,0.00045701018668255965, ,0.004346835693867479,0.0016748286822001316,-0.008069403844263573,0.02139171262350993,0.005925778466599942,-0.0821054479206367, ,0.009317473373507237, ,0.022197301304162757, ,5.042891856407445e-05, ,0.22250737957215658,-0.19263584881465617,0.09881229783,2.1344339347289734,1.2472179698589405,-1.0928204957913765, ,0.02519833817272193,0.007704919223193126,0.00892370393277311,0.08565314564235753,0.01768226159900203,-0.0037326113324570465, ,0.6343691349029541
0.011374904014716952,0.02101916204383609,-0.08324383264354544, ,0.011704162394618738,0.020844293286589342,-0.08358329146252416, ,0.0005042047726658257, ,0.004346835693867479,0.0016748286822001316,-0.008069403844263573,0.02139171262350993,0.005925778466599942,-0.0821054479206367, ,0.009317473373507237, ,0.022197301304162757, ,5.1055102605320966e-05, ,0.22270817062688641,-0.19257406695166238,0.09888359378000001,2.1346436246724583,1.2473546063587058,-1.0927685562147915, ,0.027993198099843887,0.009021806396183166,0.009647977904300425,0.07595109625414732,0.0,0.052287387715423045, ,0.6467151641845703
0.011450577343225382,0.021038918581561913,-0.08339215759983536, ,0.011760933540245596,0.020858662517829026,-0.08369918954300798, ,0.00047231539427556354, ,0.0039931814188985905,0.001144047386880939,-0.007939958297595088,0.04736951354162478,0.036955146272892474,-0.011167684271917739, ,0.008960874959244502, ,0.06007956073128686, ,5.1561153759722304e-05, ,0.22321787099658522,-0.19241188956130367,0.09905081519000002,2.1348533146159423,1.2484476983568293,-1.093088148263379, ,0.027723325024385268,0.0070345078096462664,0.009123030652920965,0.0,0.07733134831418824,-0.035161988012436515, ,0.6599900722503662
0.011493402863310503,0.02104704699519405,-0.08347982665545725, ,0.011817639446472857,0.02087276126754675,-0.08381484971652908, ,0.0004977402215737514, ,0.004614384061446271,0.0010162662550258338,-0.00942718358815714,-0.015512810428814645,-0.013865600251386305,0.029084963207149636, ,0.010545004873040739, ,0.020806299124876797, ,5.228167764192994e-05, ,0.22350361211293154,-0.19231149403393874,0.09914544436000002,2.1346436246724583,1.2487209713563603,-1.092902590370069, ,0.02926208497023459,0.010917792016942868,0.010126390031786397,0.0,0.01910626959380194,0.029803435797328578, ,0.6700479984283447
0.011543933393626301,0.02106051995527173,-0.08358353799266854, ,0.011874280024225383,0.02088659139378232,-0.08393027217751237, ,0.00050951411736011, ,0.00465341454693032,0.0011458227217067054,-0.009798721994882667,-0.04008618430537537,-0.022222579946505117,0.05616810062212569, ,0.010907892985730996, ,0.04583388638671369, ,5.301571826071828e-05, ,0.22380479869502629,-0.1922033757736996,0.09925562901000001,2.1348533146159423,1.2487209713563603,-1.0922491604489444, ,0.027886259641043427,0.010662527492513738,0.010417796939175933,0.00739369107270687,0.006444516811222238,0.07253325679238862, ,0.6800620555877686
0.011554886715563501,0.021064282934108846,-0.08360389205677812, ,0.011930855185925479,0.020900154749629214,-0.08404545712044625, ,0.0006027188872925306, ,0.004749515571685352,0.0012038734026362063,-0.010030558795288743,-0.03631944382980663,-0.021315880816022117,0.04561801166121434, ,0.011163302337615016, ,0.04211257144288427, ,5.4000092301502356e-05, ,0.22386658055802008,-0.19218020757507692,0.09927766594000001,2.1350630045594268,1.2487209713563603,-1.0921674817088038, ,0.028084327185105295,0.010985504388206228,0.010668996329537843,0.01265928163342789,0.0064463080250763164,0.06635383811788378, ,0.6892549991607666
0.011652467076856477,0.021097393282812463,-0.0838185680818847, ,0.011987364845489212,0.020913453183239936,-0.08416040473988162, ,0.0005126819446951867, ,0.0059616458773485825,0.002382053918834354,-0.013563854639494487,0.016964760453359803,-0.005133357103611536,-0.07204642740799228, ,0.015006450450405572, ,0.017724389785949233, ,5.469745288537499e-05, ,0.22439172639346736,-0.19197941652034708,0.09950840556000001,2.135901764333365,1.2489942443558912,-1.0919819238154942, ,0.02992650317201854,0.010385310169930554,0.014600193877176905,0.06619979505032701,0.014460357980350932,-0.011791452325230203, ,0.6987349987030029
0.011713277668447972,0.0211183287926281,-0.08396337456757008, ,0.012043808918323962,0.02092648853783135,-0.08427511523043371, ,0.0004931894477659899, ,0.005969160689296635,0.002167119461008529,-0.013476029769493367,0.013203982192726125,-0.007787314092922745,-0.04512630408671105, ,0.01489733749504245, ,0.015329284461157017, ,5.5319838673871063e-05, ,0.2247160811741848,-0.19187902099298218,0.09966266407,2.135901764333365,1.2491308808556565,-1.0919299842389094, ,0.03169570526335029,0.010479298787109098,0.014507114316939893,0.040268358511124994,0.01938160252726026,-0.010924029976507793, ,0.7090699672698975
0.01173669570007424,0.021125518667360677,-0.08401751742125216, ,0.01210018732132521,0.02093926265168996,-0.08438958878678066, ,0.0005524984734272394, ,0.005807414047367807,0.0018927405665793123,-0.012764913373091083,-0.0019841794463274424,-0.015107454188469288,-0.02431076707233407, ,0.01415102604733874, ,0.015237184819317623, ,5.609050705392102e-05, ,0.2248473676330466,-0.19183268459573682,0.09972099712000002,2.135901764333365,1.2492675173554222,-1.0918780446623249, ,0.031748725847598115,0.011386746658333948,0.013672799587982834,0.03491381787028303,0.01221076884149246,0.009392523130709209, ,0.7197179794311523
0.011824490052864432,0.021150453189044092,-0.08421506425356733, ,0.012156499972872985,0.02095177735817721,-0.0845038256036658, ,0.00048278959191911573, ,0.0053306038267904665,0.001355947815961182,-0.011892802985351624,-0.012516000385984643,-0.021015508835852813,0.011490744971639065, ,0.013103155897958001, ,0.02446020521944082, ,5.664790941383702e-05, ,0.22532617707124852,-0.1916396162738812,0.09992969981000001,2.1361114542768496,1.2492675173554222,-1.0915513297017623, ,0.03028948022932358,0.012375709645079652,0.012631888596352102,0.0,0.011408588110173633,0.012620796657378247, ,0.7290911674499512
0.011874492543357294,0.0211652332197552,-0.08431605838775363, ,0.012212746792829327,0.020964034485734806,-0.08461782587589647, ,0.0004959440338963018, ,0.005205396266724244,0.0012753392180454464,-0.010588137796654542,-0.02134353350050497,-0.01768698106242109,0.022005496290972558, ,0.011867236511322085, ,0.02771958853075161, ,5.7225910736736794e-05, ,0.22561964092046904,-0.19153149801364205,0.10003988446,2.1365308341638185,1.249540790354953,-1.0913657718084524, ,0.03135016239130188,0.011836336724738071,0.011353393813257305,0.01676087690527837,0.013370242108687775,0.04205451882346018, ,0.7387020587921143
0.011931436515474628,0.021181723391595464,-0.08442652714902212, ,0.012268927702534724,0.020976035857890176,-0.08473158979834496, ,0.0004992703504884567, ,0.00546301166572992,0.001695264707823459,-0.010558061725209771,0.025673210616101436,0.0204941999008371,-0.0631321289632702, ,0.012007959288856392, ,0.032850050863249165, ,5.795270296131075e-05, ,0.22595944116693492,-0.19140021155478024,0.10016173572,2.137159903994272,1.2499506998542493,-1.091291631818839, ,0.031855300959540374,0.0128221782946184,0.011729610839469811,0.0781473970191887,0.04528398255094984,0.0022529965791156376, ,0.7461371421813965
0.011950010730557962,0.021185002047103448,-0.0844648543231697, ,0.012325042624805292,0.020987783293261557,-0.08484511756594901, ,0.0005693367126566841, ,0.005608405486020935,0.0015871935371655744,-0.010835485844456013,0.017144611164406458,0.020380866297086114,-0.03774643408529531, ,0.0123037046821458, ,0.02663301060030134, ,5.885037822942628e-05, ,0.2260752821600483,-0.1913461524246607,0.10020321700000001,2.137159903994272,1.2500873363540146,-1.0912396922422543, ,0.033496979018168296,0.01381323749031598,0.012030824410876134,0.06705131198209213,0.04995182223039246,0.017826076150197878, ,0.7538340091705322
0.011950010730557962,0.021185002047103448,-0.0844648543231697, ,0.012381091483929758,0.020999278605563526,-0.08495840937371216, ,0.0006811170241456235, ,0.005608405486020935,0.0015871935371655744,-0.010835485844456013,0.017144611164406458,0.020380866297086114,-0.03774643408529531, ,0.0123037046821458, ,0.02663301060030134, ,6.002331378528923e-05, ,0.2260752821600483,-0.1913461524246607,0.10020321700000001,2.137159903994272,1.2500873363540146,-1.0912396922422543, ,0.033496979018168296,0.01381323749031598,0.012030824410876134,0.06705131198209213,0.04995182223039246,0.017826076150197878, ,0.7617831230163574
0.012039434569620446,0.02120497548258986,-0.0846511571811037, ,0.012437074205665899,0.021010523603612257,-0.08507146541670352, ,0.000610399726658939, ,0.005956088729655975,0.001629401415788154,-0.0123280309907461,-0.015211247805792487,0.0008156192086084485,0.02508117263151664, ,0.013788048811855273, ,0.015233089304192203, ,6.0987653554866784e-05, ,0.22663904165986667,-0.19112219317130816,0.10040932711000002,2.137159903994272,1.2511804283521382,-1.0911508905901388, ,0.0348117907404515,0.013558642885908098,0.013419386284751476,0.033556523906026,0.03632875942967383,0.05702730136409695, ,0.7698781490325928
0.012101977200475102,0.021220383529324007,-0.0847860651799967, ,0.012492990717237851,0.021021520091330737,-0.0851842858900591, ,0.0005924676963213011, ,0.006483631788506603,0.0014295233859208895,-0.01425256606313757,-0.03892128879929496,-0.02254482780004917,0.05958574814854983, ,0.015723124933165442, ,0.0449792773865127, ,6.18858934571911e-05, ,0.2269865646392068,-0.19096773851382368,0.10055191901,2.137369593937757,1.2511804283521382,-1.0902524244485927, ,0.036968033330140544,0.01693076566609648,0.015155862530922933,0.0,0.01857924258291168,0.0662175196388627, ,0.7772049903869629
0.012175157143465076,0.02124428304736451,-0.08494328996679155, ,0.012548840947332952,0.021032269867754208,-0.08529687098898098, ,0.0005564249391015404, ,0.007244159704867363,0.0023854663810237257,-0.016175604647187806,-0.0015534808842073385,-0.008700384210699458,-0.04537814147661755, ,0.01788346961265465, ,0.008837922882455647, ,6.267385612370329e-05, ,0.227372701282918,-0.19079783839059072,0.10072302929000002,2.1382083537116947,1.2515903378514344,-1.0898515694984168, ,0.03672482258454752,0.016255043089837405,0.017351646535947715,0.06808386800991569,0.018614718348528878,0.020753512080367863, ,0.7846591472625732
0.012175157143465076,0.02124428304736451,-0.08494328996679155, ,0.012604624826098296,0.02104277472703545,-0.08540922090873876, ,0.0006649358888283868, ,0.007244159704867363,0.0023854663810237257,-0.016175604647187806,-0.0015534808842073385,-0.008700384210699458,-0.04537814147661755, ,0.01788346961265465, ,0.008837922882455647, ,6.371991790232342e-05, ,0.227372701282918,-0.19079783839059072,0.10072302929000002,2.1382083537116947,1.2515903378514344,-1.0898515694984168, ,0.03672482258454752,0.016255043089837405,0.017351646535947715,0.06808386800991569,0.018614718348528878,0.020753512080367863, ,0.7929060459136963
0.01223317240422597,0.021264715484643242,-0.08507249124594425, ,0.012660342285138185,0.02105303645845009,-0.08552133584466909, ,0.0006547851488031002, ,0.007578473596365078,0.002728310198988923,-0.016757888712864884,0.03346645813215293,0.018506586709751402,-0.07964724101636096, ,0.018593110893701296, ,0.0382425973224545, ,6.471968159530793e-05, ,0.22766616513213855,-0.19067427466460315,0.10086302861000002,2.138837423542148,1.2518636108509653,-1.089829369085388, ,0.03894006629399704,0.015526332061268125,0.018308978758620694,0.08312341470063055,0.05016573976139744,-0.011970215544538934, ,0.8008160591125488
0.012326336614543326,0.02129191540813251,-0.08528368837322702, ,0.012715993257510166,0.021063056846401928,-0.08563321599217641, ,0.0005712951050849378, ,0.00707004442142132,0.0018171831590869743,-0.015880382566027227,2.2082438262712237e-05,-0.011552182961335929,0.006400688572050791, ,0.01747782117993892, ,0.011552160354011558, ,6.565550308488366e-05, ,0.22816814276896313,-0.19047348360987332,0.10108987936000001,2.139047113485633,1.2522735203502617,-1.0898369078359151, ,0.03931107769613537,0.016350265602768914,0.01703616205347594,0.0,0.03355713665973014,0.0009072411620621862, ,0.8065371513366699
0.012326336614543326,0.02129191540813251,-0.08528368837322702, ,0.01277157767772293,0.02107283767042822,-0.08574486154673305, ,0.0006774329158378443, ,0.00707004442142132,0.0018171831590869743,-0.015880382566027227,2.2082438262712237e-05,-0.011552182961335929,0.006400688572050791, ,0.01747782117993892, ,0.011552160354011558, ,6.683891787942354e-05, ,0.22816814276896313,-0.19047348360987332,0.10108987936000001,2.139047113485633,1.2522735203502617,-1.0898369078359151, ,0.03931107769613537,0.016350265602768914,0.01703616205347594,0.0,0.03355713665973014,0.0009072411620621862, ,0.8121931552886963
0.01239415749346614,0.02130718925832203,-0.08543032141028717, ,0.012827095481732343,0.021082380705205152,-0.08585627270388009, ,0.0006476177049401711, ,0.007261836937268241,0.0014346436089633164,-0.015215524100104178,-0.00711716348027736,-0.011803464123133309,0.019183911637230135, ,0.016920539342144617, ,0.013783140635978233, ,6.793207423957488e-05, ,0.2285620021455486,-0.19030358348664037,0.10124802674000001,2.139047113485633,1.252683429849558,-1.0897627678463015, ,0.043213543514786325,0.01926450295543459,0.01637082376156218,0.0,0.038207958889233395,0.014728585746080236, ,0.817885160446167
0.01239415749346614,0.02130718925832203,-0.08543032141028717, ,0.012882546606938786,0.021091687720552827,-0.08596744965922656, ,0.0007572790732274253, ,0.007261836937268241,0.0014346436089633164,-0.015215524100104178,-0.00711716348027736,-0.011803464123133309,0.019183911637230135, ,0.016920539342144617, ,0.013783140635978233, ,6.927547921653775e-05, ,0.2285620021455486,-0.19030358348664037,0.10124802674000001,2.139047113485633,1.252683429849558,-1.0897627678463015, ,0.043213543514786325,0.01926450295543459,0.01637082376156218,0.0,0.038207958889233395,0.014728585746080236, ,0.8238081932067871
0.012455200646628181,0.02131700785066975,-0.08555897066973926, ,0.012937930992183978,0.021100760481440967,-0.0860783926084515, ,0.0007413438214717709, ,0.007623739162053321,0.001487400806826766,-0.01583210207517025,-0.004164489225947363,-0.015371704792258375,0.01013852599783088, ,0.01763488633617423, ,0.015925805600708717, ,7.056106327394053e-05, ,0.22893269332351138,-0.19013368336340744,0.10138543348000001,2.138837423542148,1.2529567028490889,-1.0896588886931322, ,0.04549230180175972,0.020012007920386078,0.01701796102564103,0.0,0.03647835258467235,0.00519154337336851, ,0.829599142074585
0.012561182529220921,0.02134360217770762,-0.08576863688850236, ,0.012993248577747382,0.021109600747993992,-0.08618910174730239, ,0.0006467058348917362, ,0.008423097009493917,0.002178223039288627,-0.016681233820803346,0.013734669919324143,0.0035456140061152696,-0.04301548753988754, ,0.018813739145224335, ,0.014184894953260705, ,7.160178730520827e-05, ,0.22955051195344933,-0.1898711104456838,0.10161487681,2.1396761833160864,1.253639885347916,-1.0893175120700678, ,0.04889074784053105,0.019869543877401755,0.018225184805491994,0.06446127723572355,0.04886196690102659,0.010905179387005928, ,0.8352351188659668
0.012561182529220921,0.02134360217770762,-0.08576863688850236, ,0.013048499305343906,0.02111821027549642,-0.08629957727159665, ,0.0007551005497770413, ,0.008423097009493917,0.002178223039288627,-0.016681233820803346,0.013734669919324143,0.0035456140061152696,-0.04301548753988754, ,0.018813739145224335, ,0.014184894953260705, ,7.288514879656557e-05, ,0.22955051195344933,-0.1898711104456838,0.10161487681,2.1396761833160864,1.253639885347916,-1.0893175120700678, ,0.04889074784053105,0.019869543877401755,0.018225184805491994,0.06446127723572355,0.04886196690102659,0.010905179387005928, ,0.8414480686187744
0.012647965221132668,0.021367411797416445,-0.08595070500679168, ,0.013103683118119998,0.021126590814398185,-0.08640981937722217, ,0.0006902604962130014, ,0.009239518708499941,0.0026252920961085933,-0.020098728124893016,0.013954959056631683,0.018209644136045828,-0.03801328585789268, ,0.022275990141696872, ,0.022941855680558114, ,7.399742485746958e-05, ,0.23002932139165125,-0.18966259665807975,0.10181320918000002,2.14030525314654,1.254186431346978,-1.088946396283448, ,0.04871506240167905,0.023419778272080645,0.021880235604395604,0.07494220779976309,0.06425054417822973,0.02404701597291725, ,0.8474631309509277
0.012647965221132668,0.021367411797416445,-0.08595070500679168, ,0.013158799960650893,0.021134744110319896,-0.08651982826013628, ,0.000799367037858737, ,0.009239518708499941,0.0026252920961085933,-0.020098728124893016,0.013954959056631683,0.018209644136045828,-0.03801328585789268, ,0.022275990141696872, ,0.022941855680558114, ,7.552646755264282e-05, ,0.23002932139165125,-0.18966259665807975,0.10181320918000002,2.14030525314654,1.254186431346978,-1.088946396283448, ,0.04871506240167905,0.023419778272080645,0.021880235604395604,0.07494220779976309,0.06425054417822973,0.02404701597291725, ,0.8512041568756104
0.012733617938858889,0.02138843789996943,-0.08614867470395114, ,0.013213849778937517,0.02114267190405824,-0.08662960411636773, ,0.0007227147740975629, ,0.009428253384922656,0.002723493201319365,-0.021499805477197317,0.04780737428044879,0.042308775207025334,-0.038151247083307166, ,0.02363368385726741, ,0.06384021382564045, ,7.686212605496123e-05, ,0.23049268536410472,-0.18943863740472722,0.10202839332000001,2.14030525314654,1.2550062503455706,-1.0888797950443616, ,0.049710288925338283,0.023106145984531475,0.023598239288888892,0.041683107653302395,0.10134264169747319,-0.02403827829636428, ,0.8551151752471924
0.012733617938858889,0.02138843789996943,-0.08614867470395114, ,0.013268832520403395,0.02115037593159108,-0.08673914714201557, ,0.0008317366465413089, ,0.009428253384922656,0.002723493201319365,-0.021499805477197317,0.04780737428044879,0.042308775207025334,-0.038151247083307166, ,0.02363368385726741, ,0.06384021382564045, ,7.843889906526677e-05, ,0.23049268536410472,-0.18943863740472722,0.10202839332000001,2.14030525314654,1.2550062503455706,-1.0888797950443616, ,0.049710288925338283,0.023106145984531475,0.023598239288888892,0.041683107653302395,0.10134264169747319,-0.02403827829636428, ,0.8589119911193848
0.012733617938858889,0.02138843789996943,-0.08614867470395114, ,0.01332374813389077,0.02115785792408325,-0.08684845753325067, ,0.0009439898201519382, ,0.009428253384922656,0.002723493201319365,-0.021499805477197317,0.04780737428044879,0.042308775207025334,-0.038151247083307166, ,0.02363368385726741, ,0.06384021382564045, ,8.026091763476076e-05, ,0.23049268536410472,-0.18943863740472722,0.10202839332000001,2.14030525314654,1.2550062503455706,-1.0888797950443616, ,0.049710288925338283,0.023106145984531475,0.023598239288888892,0.041683107653302395,0.10134264169747319,-0.02403827829636428, ,0.8626370429992676
0.012834731273441018,0.021414219740891884,-0.08638357317704706, ,0.013378596569658553,0.021165119607891424,-0.08695753548631535, ,0.0008290193418438559, ,0.0104144340002915,0.0026498671356226704,-0.024041232269022567,-0.0027453244767976556,0.011154153774024055,0.02040793980828826, ,0.026333687178136916, ,0.011486684536395479, ,8.18012344701855e-05, ,0.23103327666530044,-0.1891837872198778,0.10228376245000001,2.14030525314654,1.2559627058439287,-1.0886795754885499, ,0.05376597255437438,0.02773142652205458,0.025942689771986976,0.02714754048081933,0.07297601091447896,0.03688003565818043, ,0.8671779632568359
0.012834731273441018,0.021414219740891884,-0.08638357317704706, ,0.01343337777937873,0.021172162704569352,-0.08706638119752352, ,0.0009397851034846536, ,0.0104144340002915,0.0026498671356226704,-0.024041232269022567,-0.0027453244767976556,0.011154153774024055,0.02040793980828826, ,0.026333687178136916, ,0.011486684536395479, ,8.358146987051644e-05, ,0.23103327666530044,-0.1891837872198778,0.10228376245000001,2.14030525314654,1.2559627058439287,-1.0886795754885499, ,0.05376597255437438,0.02773142652205458,0.025942689771986976,0.02714754048081933,0.07297601091447896,0.03688003565818043, ,0.8708651065826416
0.012940377627765932,0.021440418239522637,-0.08662940613086587, ,0.013488091716132827,0.0211789889308738,-0.08717499486326134, ,0.0008160901120177176, ,0.01148881761766001,0.0027870858754176263,-0.02665449832034124,-0.006110073626751015,0.003876709631489693,0.04322785077314461, ,0.029158584647370683, ,0.007235221023290309, ,8.506303875699289e-05, ,0.23157386796649615,-0.1888980461035315,0.10254820561000001,2.1405149430900248,1.2566458883427558,-1.0883381988654857, ,0.06013747880764941,0.029692409749208632,0.0287005612972973,0.0,0.07797865709002114,0.03226117477727426, ,0.8759541511535645
0.012940377627765932,0.021440418239522637,-0.08662940613086587, ,0.0135427383344094,0.02118559999876921,-0.087283376679988, ,0.0009249044468742721, ,0.01148881761766001,0.0027870858754176263,-0.02665449832034124,-0.006110073626751015,0.003876709631489693,0.04322785077314461, ,0.029158584647370683, ,0.007235221023290309, ,8.677844414190262e-05, ,0.23157386796649615,-0.1888980461035315,0.10254820561000001,2.1405149430900248,1.2566458883427558,-1.0883381988654857, ,0.06013747880764941,0.029692409749208632,0.0287005612972973,0.0,0.07797865709002114,0.03226117477727426, ,0.8834090232849121
0.012940377627765932,0.021440418239522637,-0.08662940613086587, ,0.013597317590100421,0.021191997615433358,-0.08739152684423501, ,0.0010363932180071631, ,0.01148881761766001,0.0027870858754176263,-0.02665449832034124,-0.006110073626751015,0.003876709631489693,0.04322785077314461, ,0.029158584647370683, ,0.007235221023290309, ,8.87305625349419e-05, ,0.23157386796649615,-0.1888980461035315,0.10254820561000001,2.1405149430900248,1.2566458883427558,-1.0883381988654857, ,0.06013747880764941,0.029692409749208632,0.0287005612972973,0.0,0.07797865709002114,0.03226117477727426, ,0.8876900672912598
0.013145058634679536,0.02150077242539847,-0.08708411090617886, ,0.013651829440498415,0.021198183483262523,-0.08749944555260722, ,0.0007217198806026046, ,0.01207690068471873,0.0037093171433081047,-0.026086830989170397,0.0501395355310554,0.04431766903701165,-0.10195793229655496, ,0.028985053301240283, ,0.06691798510893825, ,8.995637054289848e-05, ,0.2326241596373907,-0.18840379119958114,0.10304598097,2.141982772694416,1.2584221628397065,-1.0883980930311496, ,0.06130293382330153,0.029002732750143877,0.028648941582733817,0.12613266509753523,0.09917770828666246,-0.0025849201281977208, ,0.8916001319885254
0.013145058634679536,0.02150077242539847,-0.08708411090617886, ,0.013706273844293279,0.02120415929987683,-0.08760713300178301, ,0.0008224925350565011, ,0.01207690068471873,0.0037093171433081047,-0.026086830989170397,0.0501395355310554,0.04431766903701165,-0.10195793229655496, ,0.028985053301240283, ,0.06691798510893825, ,9.139713241278795e-05, ,0.2326241596373907,-0.18840379119958114,0.10304598097,2.141982772694416,1.2584221628397065,-1.0883980930311496, ,0.06130293382330153,0.029002732750143877,0.028648941582733817,0.12613266509753523,0.09917770828666246,-0.0025849201281977208, ,0.8953251838684082
0.013145058634679536,0.02150077242539847,-0.08708411090617886, ,0.01376065076156881,0.02120992675812576,-0.08771458938851427, ,0.0009279267134571207, ,0.01207690068471873,0.0037093171433081047,-0.026086830989170397,0.0501395355310554,0.04431766903701165,-0.10195793229655496, ,0.028985053301240283, ,0.06691798510893825, ,9.306037448562623e-05, ,0.2326241596373907,-0.18840379119958114,0.10304598097,2.141982772694416,1.2584221628397065,-1.0883980930311496, ,0.06130293382330153,0.029002732750143877,0.028648941582733817,0.12613266509753523,0.09917770828666246,-0.0025849201281977208, ,0.8991570472717285
0.01325860140363794,0.021526424788216834,-0.08732450894784786, ,0.013814960153800116,0.0212154875460933,-0.08782181490962714, ,0.0008084121764561765, ,0.011095120909767654,0.0012625894959203826,-0.02165967392875953,-0.04078766563685384,-0.039032311290665846,0.061447322789655326, ,0.02436877746087721, ,0.0564548512143726, ,9.465358562587244e-05, ,0.23324197826732865,-0.1881103273503606,0.10330523897,2.1424021525813854,1.2589687088387682,-1.0880269772445297, ,0.06759041421543502,0.03356807271258252,0.023152342325581398,-0.014946737994800452,0.03885526420228349,0.05011977849617755, ,0.901108980178833
0.01325860140363794,0.021526424788216834,-0.08732450894784786, ,0.013869201983850056,0.02122084334710305,-0.08792880976202216, ,0.0009118073040507354, ,0.011095120909767654,0.0012625894959203826,-0.02165967392875953,-0.04078766563685384,-0.039032311290665846,0.061447322789655326, ,0.02436877746087721, ,0.0564548512143726, ,9.64694827779277e-05, ,0.23324197826732865,-0.1881103273503606,0.10330523897,2.1424021525813854,1.2589687088387682,-1.0880269772445297, ,0.06759041421543502,0.03356807271258252,0.023152342325581398,-0.014946737994800452,0.03885526420228349,0.05011977849617755, ,0.9031391143798828
0.01325860140363794,0.021526424788216834,-0.08732450894784786, ,0.013923376215966166,0.021225995839723896,-0.08803557414267447, ,0.0010187231299486654, ,0.011095120909767654,0.0012625894959203826,-0.02165967392875953,-0.04078766563685384,-0.039032311290665846,0.061447322789655326, ,0.02436877746087721, ,0.0564548512143726, ,9.851439108651026e-05, ,0.23324197826732865,-0.1881103273503606,0.10330523897,2.1424021525813854,1.2589687088387682,-1.0880269772445297, ,0.06759041421543502,0.03356807271258252,0.023152342325581398,-0.014946737994800452,0.03885526420228349,0.05011977849617755, ,0.9050471782684326
0.01325860140363794,0.021526424788216834,-0.08732450894784786, ,0.013977482815777492,0.02123094669777524,-0.08814210824863417, ,0.0011280808496278152, ,0.011095120909767654,0.0012625894959203826,-0.02165967392875953,-0.04078766563685384,-0.039032311290665846,0.061447322789655326, ,0.02436877746087721, ,0.0564548512143726, ,0.00010079219298593792, ,0.23324197826732865,-0.1881103273503606,0.10330523897,2.1424021525813854,1.2589687088387682,-1.0880269772445297, ,0.06759041421543502,0.03356807271258252,0.023152342325581398,-0.014946737994800452,0.03885526420228349,0.05011977849617755, ,0.9070460796356201
0.01325860140363794,0.021526424788216834,-0.08732450894784786, ,0.014031521750291659,0.021235697590332118,-0.088248412277027, ,0.001239163236837458, ,0.011095120909767654,0.0012625894959203826,-0.02165967392875953,-0.04078766563685384,-0.039032311290665846,0.061447322789655326, ,0.02436877746087721, ,0.0564548512143726, ,0.0005638221020058, ,0.23324197826732865,-0.1881103273503606,0.10330523897,2.1424021525813854,1.2589687088387682,-1.0880269772445297, ,0.06759041421543502,0.03356807271258252,0.023152342325581398,-0.014946737994800452,0.03885526420228349,0.05011977849617755, ,0.909027099609375
0.01325860140363794,0.021526424788216834,-0.08732450894784786, ,0.014085492987891298,0.021240250181730837,-0.08835448642505374, ,0.0013514803739077448, ,0.011095120909767654,0.0012625894959203826,-0.02165967392875953,-0.04078766563685384,-0.039032311290665846,0.061447322789655326, ,0.02436877746087721, ,0.0564548512143726, ,0.0005731989861951089, ,0.23324197826732865,-0.1881103273503606,0.10330523897,2.1424021525813854,1.2589687088387682,-1.0880269772445297, ,0.06759041421543502,0.03356807271258252,0.023152342325581398,-0.014946737994800452,0.03885526420228349,0.05011977849617755, ,0.9109361171722412
0.013372206774308087,0.02153642645025082,-0.0875527054125673, ,0.01413939649833133,0.021244606131573893,-0.08846033088999129, ,0.0012237332954155911, ,0.012842947264413675,0.0016188651006339527,-0.026343956126756655,-0.005394514486321155,-0.009461756548887873,0.012727639467085978, ,0.029352445265412568, ,0.010890956578223223, ,0.0005808523310094675, ,0.23393702422600884,-0.18773963617239783,0.10355023778000001,2.141982772694416,1.2596518913375954,-1.0878489581017468, ,0.07408036031106227,0.041952670892338985,0.028343080996441283,0.0059317587258620845,0.07698514965700161,0.007629465967316076, ,0.9128470420837402
0.013372206774308087,0.02153642645025082,-0.0875527054125673, ,0.014193232252735418,0.021248767094735662,-0.08856594586919282, ,0.0013354725620487043, ,0.012842947264413675,0.0016188651006339527,-0.026343956126756655,-0.005394514486321155,-0.009461756548887873,0.012727639467085978, ,0.029352445265412568, ,0.010890956578223223, ,0.000589626984858761, ,0.23393702422600884,-0.18773963617239783,0.10355023778000001,2.141982772694416,1.2596518913375954,-1.0878489581017468, ,0.07408036031106227,0.041952670892338985,0.028343080996441283,0.0059317587258620845,0.07698514965700161,0.007629465967316076, ,0.9147570133209229
0.013372206774308087,0.02153642645025082,-0.0875527054125673, ,0.014247000223593324,0.02125273472136749,-0.08867133156008819, ,0.0014481260421201655, ,0.012842947264413675,0.0016188651006339527,-0.026343956126756655,-0.005394514486321155,-0.009461756548887873,0.012727639467085978, ,0.029352445265412568, ,0.010890956578223223, ,0.0005994947901146392, ,0.23393702422600884,-0.18773963617239783,0.10355023778000001,2.141982772694416,1.2596518913375954,-1.0878489581017468, ,0.07408036031106227,0.041952670892338985,0.028343080996441283,0.0059317587258620845,0.07698514965700161,0.007629465967316076, ,0.9170541763305664
0.013372206774308087,0.02153642645025082,-0.0875527054125673, ,0.014300700384757246,0.02125651065690313,-0.08877648816018334, ,0.00156144082480671, ,0.012842947264413675,0.0016188651006339527,-0.026343956126756655,-0.005394514486321155,-0.009461756548887873,0.012727639467085978, ,0.029352445265412568, ,0.010890956578223223, ,0.0006104259950543219, ,0.23393702422600884,-0.18773963617239783,0.10355023778000001,2.141982772694416,1.2596518913375954,-1.0878489581017468, ,0.07408036031106227,0.041952670892338985,0.028343080996441283,0.0059317587258620845,0.07698514965700161,0.007629465967316076, ,0.9195411205291748
0.013523541978884696,0.021563893995676958,-0.0878786622408625, ,0.01435433271143881,0.021260096542063837,-0.08888141586706222, ,0.0013371690128687137, ,0.015866592979645454,0.003243816877100295,-0.03479491991163154,0.040237920641984885,0.021187981600706462,-0.022970929327456768, ,0.038379129385262875, ,0.04547493618293638, ,0.0006185916469398768, ,0.23476335664355086,-0.1872917176656928,0.10390282866000002,2.142192462637901,1.260744983335719,-1.0880051926700527, ,0.08533897622164638,0.04367093490955857,0.03774599886255925,0.01432054891438914,0.12496445691955971,-0.03849707970196256, ,0.9216501712799072
0.013523541978884696,0.021563893995676958,-0.0878786622408625, ,0.014407897180206002,0.021263494012864145,-0.08898611487838542, ,0.0014487151604557936, ,0.015866592979645454,0.003243816877100295,-0.03479491991163154,0.040237920641984885,0.021187981600706462,-0.022970929327456768, ,0.038379129385262875, ,0.04547493618293638, ,0.000627815241534498, ,0.23476335664355086,-0.1872917176656928,0.10390282866000002,2.142192462637901,1.260744983335719,-1.0880051926700527, ,0.08533897622164638,0.04367093490955857,0.03774599886255925,0.01432054891438914,0.12496445691955971,-0.03849707970196256, ,0.9237060546875
0.013523541978884696,0.021563893995676958,-0.0878786622408625, ,0.014461393768979905,0.021266704700616486,-0.08909058539189162, ,0.0015609757145079663, ,0.015866592979645454,0.003243816877100295,-0.03479491991163154,0.040237920641984885,0.021187981600706462,-0.022970929327456768, ,0.038379129385262875, ,0.04547493618293638, ,0.0006380697522265142, ,0.23476335664355086,-0.1872917176656928,0.10390282866000002,2.142192462637901,1.260744983335719,-1.0880051926700527, ,0.08533897622164638,0.04367093490955857,0.03774599886255925,0.01432054891438914,0.12496445691955971,-0.03849707970196256, ,0.9258091449737549
0.013523541978884696,0.021563893995676958,-0.0878786622408625, ,0.014514822457031696,0.021269730231937352,-0.08919482760539733, ,0.0016737564258439428, ,0.015866592979645454,0.003243816877100295,-0.03479491991163154,0.040237920641984885,0.021187981600706462,-0.022970929327456768, ,0.038379129385262875, ,0.04547493618293638, ,0.0006493272160701818, ,0.23476335664355086,-0.1872917176656928,0.10390282866000002,2.142192462637901,1.260744983335719,-1.0880051926700527, ,0.08533897622164638,0.04367093490955857,0.03774599886255925,0.01432054891438914,0.12496445691955971,-0.03849707970196256, ,0.9278101921081543
0.013523541978884696,0.021563893995676958,-0.0878786622408625, ,0.014568183224979275,0.02127257222875176,-0.08929884171679753, ,0.0017869117070503304, ,0.015866592979645454,0.003243816877100295,-0.03479491991163154,0.040237920641984885,0.021187981600706462,-0.022970929327456768, ,0.038379129385262875, ,0.04547493618293638, ,0.0006615593073710437, ,0.23476335664355086,-0.1872917176656928,0.10390282866000002,2.142192462637901,1.260744983335719,-1.0880051926700527, ,0.08533897622164638,0.04367093490955857,0.03774599886255925,0.01432054891438914,0.12496445691955971,-0.03849707970196256, ,0.9297850131988525
0.013705965465717541,0.021606860559613486,-0.08828887438394079, ,0.014621476054784406,0.021275232308299124,-0.08940262792406524, ,0.0014793863200337945, ,0.019453532452203826,0.005161866113333373,-0.045342329469686776,0.04617097636932133,0.036155752569323914,-0.014982956292225376, ,0.04960858422066238, ,0.05864133225121442, ,0.0006702595947397963, ,0.23569780732133203,-0.1868129082274909,0.10434745613000002,2.14261184252487,1.2621113483333735,-1.088220905565471, ,0.0959524181582111,0.046701250766963964,0.049162998518518526,0.029430740768543323,0.1528744065747595,-0.021008650396408104, ,0.9317340850830078
0.013705965465717541,0.021606860559613486,-0.08828887438394079, ,0.014674700929749101,0.021277712083138497,-0.08950618642525322, ,0.001590168457982519, ,0.019453532452203826,0.005161866113333373,-0.045342329469686776,0.04617097636932133,0.036155752569323914,-0.014982956292225376, ,0.04960858422066238, ,0.05864133225121442, ,0.0006799428459318249, ,0.23569780732133203,-0.1868129082274909,0.10434745613000002,2.14261184252487,1.2621113483333735,-1.088220905565471, ,0.0959524181582111,0.046701250766963964,0.049162998518518526,0.029430740768543323,0.1528744065747595,-0.021008650396408104, ,0.9336249828338623
0.013705965465717541,0.021606860559613486,-0.08828887438394079, ,0.01472785783451277,0.02128001316115371,-0.0896095174184924, ,0.0017015261561291167, ,0.019453532452203826,0.005161866113333373,-0.045342329469686776,0.04617097636932133,0.036155752569323914,-0.014982956292225376, ,0.04960858422066238, ,0.05864133225121442, ,0.0006905843387463801, ,0.23569780732133203,-0.1868129082274909,0.10434745613000002,2.14261184252487,1.2621113483333735,-1.088220905565471, ,0.0959524181582111,0.046701250766963964,0.049162998518518526,0.029430740768543323,0.1528744065747595,-0.021008650396408104, ,0.935535192489624
0.013705965465717541,0.021606860559613486,-0.08828887438394079, ,0.014780946755049233,0.021282137145558697,-0.08971262110199381, ,0.001813307691820497, ,0.019453532452203826,0.005161866113333373,-0.045342329469686776,0.04617097636932133,0.036155752569323914,-0.014982956292225376, ,0.04960858422066238, ,0.05864133225121442, ,0.0007021588063038452, ,0.23569780732133203,-0.1868129082274909,0.10434745613000002,2.14261184252487,1.2621113483333735,-1.088220905565471, ,0.0959524181582111,0.046701250766963964,0.049162998518518526,0.029430740768543323,0.1528744065747595,-0.021008650396408104, ,0.937391996383667
0.013705965465717541,0.021606860559613486,-0.08828887438394079, ,0.014833967678663035,0.021284085634903055,-0.0898154976740482, ,0.0019253964044658816, ,0.019453532452203826,0.005161866113333373,-0.045342329469686776,0.04617097636932133,0.036155752569323914,-0.014982956292225376, ,0.04960858422066238, ,0.05864133225121442, ,0.0007146408226116212, ,0.23569780732133203,-0.1868129082274909,0.10434745613000002,2.14261184252487,1.2621113483333735,-1.088220905565471, ,0.0959524181582111,0.046701250766963964,0.049162998518518526,0.029430740768543323,0.1528744065747595,-0.021008650396408104, ,0.939324140548706
0.013919597604745796,0.021668526049427643,-0.08880411921206881, ,0.01488692059398666,0.02128586022307711,-0.08991814733302594, ,0.0015242065327421036, ,0.022847475234964325,0.006732515070523796,-0.056666075881334516,0.061087816516808814,0.06888988010640315,-0.055253173396763576, ,0.061468512586333984, ,0.09207036784455526, ,0.0007228182540270806, ,0.23668631712923277,-0.18629548512491784,0.10490615712000001,2.1432409123553238,1.2638876228303242,-1.088444157211416, ,0.09999677719543813,0.05789929320223964,0.061264659692307696,0.08356001228862465,0.18542635755989922,-0.01529617220583318, ,0.9412250518798828
0.013919597604745796,0.021668526049427643,-0.08880411921206881, ,0.01493980549097742,0.02128746249931722,-0.090020570277378, ,0.0016327237226928006, ,0.022847475234964325,0.006732515070523796,-0.056666075881334516,0.061087816516808814,0.06888988010640315,-0.055253173396763576, ,0.061468512586333984, ,0.09207036784455526, ,0.0007319173087137377, ,0.23668631712923277,-0.18629548512491784,0.10490615712000001,2.1432409123553238,1.2638876228303242,-1.088444157211416, ,0.09999677719543813,0.05789929320223964,0.061264659692307696,0.08356001228862465,0.18542635755989922,-0.01529617220583318, ,0.9432141780853271
0.013919597604745796,0.021668526049427643,-0.08880411921206881, ,0.014992622360913886,0.021288894048211427,-0.09012276670563626, ,0.0017419339241167432, ,0.022847475234964325,0.006732515070523796,-0.056666075881334516,0.061087816516808814,0.06888988010640315,-0.055253173396763576, ,0.061468512586333984, ,0.09207036784455526, ,0.0007419174732226784, ,0.23668631712923277,-0.18629548512491784,0.10490615712000001,2.1432409123553238,1.2638876228303242,-1.088444157211416, ,0.09999677719543813,0.05789929320223964,0.061264659692307696,0.08356001228862465,0.18542635755989922,-0.01529617220583318, ,0.9451069831848145
0.013919597604745796,0.021668526049427643,-0.08880411921206881, ,0.015045371196393155,0.021290156449704258,-0.09022473681641294, ,0.0018516706271413078, ,0.022847475234964325,0.006732515070523796,-0.056666075881334516,0.061087816516808814,0.06888988010640315,-0.055253173396763576, ,0.061468512586333984, ,0.09207036784455526, ,0.0007527974061042336, ,0.23668631712923277,-0.18629548512491784,0.10490615712000001,2.1432409123553238,1.2638876228303242,-1.088444157211416, ,0.09999677719543813,0.05789929320223964,0.061264659692307696,0.08356001228862465,0.18542635755989922,-0.01529617220583318, ,0.9470629692077637
0.013919597604745796,0.021668526049427643,-0.08880411921206881, ,0.015098051991327521,0.021291251279102467,-0.09032648080840164, ,0.001961804226615558, ,0.022847475234964325,0.006732515070523796,-0.056666075881334516,0.061087816516808814,0.06888988010640315,-0.055253173396763576, ,0.061468512586333984, ,0.09207036784455526, ,0.00076453533640046, ,0.23668631712923277,-0.18629548512491784,0.10490615712000001,2.1432409123553238,1.2638876228303242,-1.088444157211416, ,0.09999677719543813,0.05789929320223964,0.061264659692307696,0.08356001228862465,0.18542635755989922,-0.01529617220583318, ,0.9489991664886475
0.014138408078930773,0.02172835624543789,-0.08936041849952388, ,0.01515066474094129,0.021292180107080075,-0.09042799888037739, ,0.0015344839663680894, ,0.025362959172463274,0.007462339298804675,-0.06397024095864991,0.044617124691054895,0.061734888852858244,-0.010654248084349782, ,0.06921819077455184, ,0.07616306893499471, ,0.0007719386886116872, ,0.2376439360056366,-0.18573172562509946,0.10550504310000001,2.1432409123553238,1.2656638973272747,-1.0885857301172206, ,0.10832984196172464,0.06263824525311602,0.06895589402597403,0.05653093725909541,0.19331743756650344,0.004849531360425846, ,0.9512701034545898
0.014138408078930773,0.02172835624543789,-0.08936041849952388, ,0.015203209441767564,0.021292944499683948,-0.09052929123119734, ,0.0016400148759963603, ,0.025362959172463274,0.007462339298804675,-0.06397024095864991,0.044617124691054895,0.061734888852858244,-0.010654248084349782, ,0.06921819077455184, ,0.07616306893499471, ,0.0007802060808724936, ,0.2376439360056366,-0.18573172562509946,0.10550504310000001,2.1432409123553238,1.2656638973272747,-1.0885857301172206, ,0.10832984196172464,0.06263824525311602,0.06895589402597403,0.05653093725909541,0.19331743756650344,0.004849531360425846, ,0.9531769752502441
0.014138408078930773,0.02172835624543789,-0.08936041849952388, ,0.015255686091644906,0.021293546018338886,-0.09063035805980042, ,0.001746458295534054, ,0.025362959172463274,0.007462339298804675,-0.06397024095864991,0.044617124691054895,0.061734888852858244,-0.010654248084349782, ,0.06921819077455184, ,0.07616306893499471, ,0.0007893216678032629, ,0.2376439360056366,-0.18573172562509946,0.10550504310000001,2.1432409123553238,1.2656638973272747,-1.0885857301172206, ,0.10832984196172464,0.06263824525311602,0.06895589402597403,0.05653093725909541,0.19331743756650344,0.004849531360425846, ,0.9553000926971436
0.014138408078930773,0.02172835624543789,-0.08936041849952388, ,0.015308094689714958,0.021293986219852918,-0.09073119956520785, ,0.001853613988027759, ,0.025362959172463274,0.007462339298804675,-0.06397024095864991,0.044617124691054895,0.061734888852858244,-0.010654248084349782, ,0.06921819077455184, ,0.07616306893499471, ,0.0007992683250016227, ,0.2376439360056366,-0.18573172562509946,0.10550504310000001,2.1432409123553238,1.2656638973272747,-1.0885857301172206, ,0.10832984196172464,0.06263824525311602,0.06895589402597403,0.05653093725909541,0.19331743756650344,0.004849531360425846, ,0.9578189849853516
0.014138408078930773,0.02172835624543789,-0.08936041849952388, ,0.015360435236418276,0.021294266656422804,-0.09083181594652355, ,0.0019613247033485877, ,0.025362959172463274,0.007462339298804675,-0.06397024095864991,0.044617124691054895,0.061734888852858244,-0.010654248084349782, ,0.06921819077455184, ,0.07616306893499471, ,0.0008100281062826132, ,0.2376439360056366,-0.18573172562509946,0.10550504310000001,2.1432409123553238,1.2656638973272747,-1.0885857301172206, ,0.10832984196172464,0.06263824525311602,0.06895589402597403,0.05653093725909541,0.19331743756650344,0.004849531360425846, ,0.9600529670715332
0.014268098800462418,0.021763965350185644,-0.08968837373096601, ,0.015412707733491541,0.021294388875639336,-0.09093220740293416, ,0.0017543528375270384, ,0.02585779742942514,0.007326441463218551,-0.06505134346984516,0.04907960660836068,0.06839307900946288,-0.0028384700576793804, ,0.0703845133509277, ,0.08417396367518098, ,0.0008186916359270574, ,0.238207695505455,-0.18540737084438202,0.10585763398,2.1432409123553238,1.266620352825633,-1.0884671893015494, ,0.11086091303559671,0.06526612211724263,0.07017097585903086,0.04591273820456621,0.20669883674370254,-0.0012854556610738255, ,0.9623801708221436
0.014268098800462418,0.021763965350185644,-0.08968837373096601, ,0.015464912183964691,0.021294354420492437,-0.0910323741337101, ,0.0018599015519090633, ,0.02585779742942514,0.007326441463218551,-0.06505134346984516,0.04907960660836068,0.06839307900946288,-0.0028384700576793804, ,0.0703845133509277, ,0.08417396367518098, ,0.0008281571806178029, ,0.238207695505455,-0.18540737084438202,0.10585763398,2.1432409123553238,1.266620352825633,-1.0884671893015494, ,0.11086091303559671,0.06526612211724263,0.07017097585903086,0.04591273820456621,0.20669883674370254,-0.0012854556610738255, ,0.9643681049346924
0.014268098800462418,0.021763965350185644,-0.08968837373096601, ,0.015517048592157289,0.021294164829376645,-0.09113231633820462, ,0.0019661023280913184, ,0.02585779742942514,0.007326441463218551,-0.06505134346984516,0.04907960660836068,0.06839307900946288,-0.0028384700576793804, ,0.0703845133509277, ,0.08417396367518098, ,0.0008384089387031498, ,0.238207695505455,-0.18540737084438202,0.10585763398,2.1432409123553238,1.266620352825633,-1.0884671893015494, ,0.11086091303559671,0.06526612211724263,0.07017097585903086,0.04591273820456621,0.20669883674370254,-0.0012854556610738255, ,0.9663090705871582
0.014268098800462418,0.021763965350185644,-0.08968837373096601, ,0.015569116963675817,0.021293821636096343,-0.09123203421585509, ,0.0020728171809199247, ,0.02585779742942514,0.007326441463218551,-0.06505134346984516,0.04907960660836068,0.06839307900946288,-0.0028384700576793804, ,0.0703845133509277, ,0.08417396367518098, ,0.0008494304408657996, ,0.238207695505455,-0.18540737084438202,0.10585763398,2.1432409123553238,1.266620352825633,-1.0884671893015494, ,0.11086091303559671,0.06526612211724263,0.07017097585903086,0.04591273820456621,0.20669883674370254,-0.0012854556610738255, ,0.9682450294494629
0.014268098800462418,0.021763965350185644,-0.08968837373096601, ,0.015621117305410019,0.0212933263698712,-0.0913315279661828, ,0.0021799348534378075, ,0.02585779742942514,0.007326441463218551,-0.06505134346984516,0.04907960660836068,0.06839307900946288,-0.0028384700576793804, ,0.0703845133509277, ,0.08417396367518098, ,0.0008612048161982951, ,0.238207695505455,-0.18540737084438202,0.10585763398,2.1432409123553238,1.266620352825633,-1.0884671893015494, ,0.11086091303559671,0.06526612211724263,0.07017097585903086,0.04591273820456621,0.20669883674370254,-0.0012854556610738255, ,0.9701781272888184
0.014664129881868729,0.021853781113513188,-0.09064694507300337, ,0.015673049625529747,0.02129268055534147,-0.09143079778879352, ,0.0013954131881207176, ,0.024324026519640968,0.004033176769027614,-0.05331070461285744,0.022790697742905267,0.0356448286058959,0.012850745454334024, ,0.05873632613040894, ,0.04230294448200975, ,0.0008658908545484918, ,0.24002253773089777,-0.18431074277624215,0.10689207340000001,2.1432409123553238,1.2698996288200035,-1.0884458205656249, ,0.12276447808340334,0.07344964516909504,0.05771308521739131,0.028983534189561556,0.18542172569947205,0.0072205605494529285, ,0.9720971584320068
0.014664129881868729,0.021853781113513188,-0.09064694507300337, ,0.0157249139334827,0.021291885712572976,-0.09152984388337751, ,0.0014901340728660558, ,0.024324026519640968,0.004033176769027614,-0.05331070461285744,0.022790697742905267,0.0356448286058959,0.012850745454334024, ,0.05873632613040894, ,0.04230294448200975, ,0.0008713190564469054, ,0.24002253773089777,-0.18431074277624215,0.10689207340000001,2.1432409123553238,1.2698996288200035,-1.0884458205656249, ,0.12276447808340334,0.07344964516909504,0.05771308521739131,0.028983534189561556,0.18542172569947205,0.0072205605494529285, ,0.9740331172943115
0.014664129881868729,0.021853781113513188,-0.09064694507300337, ,0.015776710239989708,0.021290943357063014,-0.09162866644970995, ,0.0015869462041433924, ,0.024324026519640968,0.004033176769027614,-0.05331070461285744,0.022790697742905267,0.0356448286058959,0.012850745454334024, ,0.05873632613040894, ,0.04230294448200975, ,0.000877488255996013, ,0.24002253773089777,-0.18431074277624215,0.10689207340000001,2.1432409123553238,1.2698996288200035,-1.0884458205656249, ,0.12276447808340334,0.07344964516909504,0.05771308521739131,0.028983534189561556,0.18542172569947205,0.0072205605494529285, ,0.9759721755981445
0.014664129881868729,0.021853781113513188,-0.09064694507300337, ,0.015828438557043092,0.02128985499974508,-0.09172726568765124, ,0.0016854435568446175, ,0.024324026519640968,0.004033176769027614,-0.05331070461285744,0.022790697742905267,0.0356448286058959,0.012850745454334024, ,0.05873632613040894, ,0.04230294448200975, ,0.0008843938568579669, ,0.24002253773089777,-0.18431074277624215,0.10689207340000001,2.1432409123553238,1.2698996288200035,-1.0884458205656249, ,0.12276447808340334,0.07344964516909504,0.05771308521739131,0.028983534189561556,0.18542172569947205,0.0072205605494529285, ,0.9779021739959717
0.014664129881868729,0.021853781113513188,-0.09064694507300337, ,0.015880098897902407,0.021288622146994597,-0.09182564179714728, ,0.0017853042521928427, ,0.024324026519640968,0.004033176769027614,-0.05331070461285744,0.022790697742905267,0.0356448286058959,0.012850745454334024, ,0.05873632613040894, ,0.04230294448200975, ,0.000892028690716737, ,0.24002253773089777,-0.18431074277624215,0.10689207340000001,2.1432409123553238,1.2698996288200035,-1.0884458205656249, ,0.12276447808340334,0.07344964516909504,0.05771308521739131,0.028983534189561556,0.18542172569947205,0.0072205605494529285, ,0.9799020290374756
0.014899406531247838,0.021874603602287997,-0.0911257680921566, ,0.0159316912770917,0.021287246300633958,-0.0919237949782297, ,0.0016088963302094536, ,0.025763294131127202,0.0015875350595667423,-0.049892401750533125,0.023294282883031692,0.018932853669911487,-0.013247742749970499, ,0.05617400951052833, ,0.03001278746010873, ,0.0008980527885276002, ,0.24131223412089325,-0.1835075785573228,0.1074105894,2.1432409123553238,1.2716759033169542,-1.0885873934714294, ,0.14577103157983223,0.0916878662400684,0.054179631020408174,0.023775853913341312,0.19349882552929956,-0.02553497607545449, ,0.9821469783782959
0.014899406531247838,0.021874603602287997,-0.0911257680921566, ,0.015983215710396386,0.021285728957938094,-0.09202172543101614, ,0.001524518034206596, ,0.025763294131127202,0.0015875350595667423,-0.049892401750533125,0.023294282883031692,0.018932853669911487,-0.013247742749970499, ,0.05617400951052833, ,0.03001278746010873, ,0.0009032733322415918, ,0.24131223412089325,-0.1835075785573228,0.1074105894,2.1432409123553238,1.2716759033169542,-1.0885873934714294, ,0.14577103157983223,0.0916878662400684,0.054179631020408174,0.023775853913341312,0.19349882552929956,-0.02553497607545449, ,0.9841160774230957
0.014899406531247838,0.021874603602287997,-0.0911257680921566, ,0.01603467221486002,0.02128407161163955,-0.09211943335571043, ,0.0016201626030618544, ,0.025763294131127202,0.0015875350595667423,-0.049892401750533125,0.023294282883031692,0.018932853669911487,-0.013247742749970499, ,0.05617400951052833, ,0.03001278746010873, ,0.0009091980369591146, ,0.24131223412089325,-0.1835075785573228,0.1074105894,2.1432409123553238,1.2716759033169542,-1.0885873934714294, ,0.14577103157983223,0.0916878662400684,0.054179631020408174,0.023775853913341312,0.19349882552929956,-0.02553497607545449, ,0.9860341548919678
0.014899406531247838,0.021874603602287997,-0.0911257680921566, ,0.016086060808780896,0.02128227574993392,-0.0922169189526034, ,0.0017174431167627298, ,0.025763294131127202,0.0015875350595667423,-0.049892401750533125,0.023294282883031692,0.018932853669911487,-0.013247742749970499, ,0.05617400951052833, ,0.03001278746010873, ,0.0009158229966296361, ,0.24131223412089325,-0.1835075785573228,0.1074105894,2.1432409123553238,1.2716759033169542,-1.0885873934714294, ,0.14577103157983223,0.0916878662400684,0.054179631020408174,0.023775853913341312,0.19349882552929956,-0.02553497607545449, ,0.9879510402679443
0.014899406531247838,0.021874603602287997,-0.0911257680921566, ,0.016137381511709206,0.02128034285648515,-0.09231418242207237, ,0.00181605520450223, ,0.025763294131127202,0.0015875350595667423,-0.049892401750533125,0.023294282883031692,0.018932853669911487,-0.013247742749970499, ,0.05617400951052833, ,0.03001278746010873, ,0.0009231419576692507, ,0.24131223412089325,-0.1835075785573228,0.1074105894,2.1432409123553238,1.2716759033169542,-1.0885873934714294, ,0.14577103157983223,0.0916878662400684,0.054179631020408174,0.023775853913341312,0.19349882552929956,-0.02553497607545449, ,0.9898250102996826
0.01517345329424169,0.02188800598486125,-0.09164035783542351, ,0.016188634344443818,0.021278274410430804,-0.09241122396458175, ,0.0014130108798697644, ,0.026220044039459604,0.0009039293828278215,-0.04617145667096253,0.01857994067045508,-0.008311644302081093,-0.020206614805169523, ,0.053104719271256026, ,0.020349147308335803, ,0.0009270925134934484, ,0.24291083982585773,-0.18254995968091897,0.10797188297000002,2.1432409123553238,1.2738620873132014,-1.0890632200883232, ,0.15816156926411795,0.09029204715363537,0.05040763139240506,0.019784750692306903,0.17623913976682498,-0.032524878493761886, ,0.9930171966552734
0.01517345329424169,0.02188800598486125,-0.09164035783542351, ,0.016239819329028682,0.021276071886387454,-0.09250804378068404, ,0.0015048185141820023, ,0.026220044039459604,0.0009039293828278215,-0.04617145667096253,0.01857994067045508,-0.008311644302081093,-0.020206614805169523, ,0.053104719271256026, ,0.020349147308335803, ,0.0009317143214989568, ,0.24291083982585773,-0.18254995968091897,0.10797188297000002,2.1432409123553238,1.2738620873132014,-1.0890632200883232, ,0.15816156926411795,0.09029204715363537,0.05040763139240506,0.019784750692306903,0.17623913976682498,-0.032524878493761886, ,0.995136022567749
0.01517345329424169,0.02188800598486125,-0.09164035783542351, ,0.016290936488750175,0.02127373675445601,-0.09260464207101855, ,0.001598730579068482, ,0.026220044039459604,0.0009039293828278215,-0.04617145667096253,0.01857994067045508,-0.008311644302081093,-0.020206614805169523, ,0.053104719271256026, ,0.020349147308335803, ,0.0009370081013209371, ,0.24291083982585773,-0.18254995968091897,0.10797188297000002,2.1432409123553238,1.2738620873132014,-1.0890632200883232, ,0.15816156926411795,0.09029204715363537,0.05040763139240506,0.019784750692306903,0.17623913976682498,-0.032524878493761886, ,1.0007460117340088
0.01517345329424169,0.02188800598486125,-0.09164035783542351, ,0.0163419858481338,0.021271270480226794,-0.09270101903631335, ,0.0016943533265689902, ,0.026220044039459604,0.0009039293828278215,-0.04617145667096253,0.01857994067045508,-0.008311644302081093,-0.020206614805169523, ,0.053104719271256026, ,0.020349147308335803, ,0.0009429714495512368, ,0.24291083982585773,-0.18254995968091897,0.10797188297000002,2.1432409123553238,1.2738620873132014,-1.0890632200883232, ,0.15816156926411795,0.09029204715363537,0.05040763139240506,0.019784750692306903,0.17623913976682498,-0.032524878493761886, ,1.0029621124267578
0.01517345329424169,0.02188800598486125,-0.09164035783542351, ,0.016392967432940782,0.021268674524785258,-0.09279717487738433, ,0.0017913715026475709, ,0.026220044039459604,0.0009039293828278215,-0.04617145667096253,0.01857994067045508,-0.008311644302081093,-0.020206614805169523, ,0.053104719271256026, ,0.020349147308335803, ,0.000949599574966052, ,0.24291083982585773,-0.18254995968091897,0.10797188297000002,2.1432409123553238,1.2738620873132014,-1.0890632200883232, ,0.15816156926411795,0.09029204715363537,0.05040763139240506,0.019784750692306903,0.17623913976682498,-0.032524878493761886, ,1.004953145980835
0.01517345329424169,0.02188800598486125,-0.09164035783542351, ,0.016443881270165144,0.021265950344716865,-0.092893109795136, ,0.001889531141317306, ,0.026220044039459604,0.0009039293828278215,-0.04617145667096253,0.01857994067045508,-0.008311644302081093,-0.020206614805169523, ,0.053104719271256026, ,0.020349147308335803, ,0.0009568858661780772, ,0.24291083982585773,-0.18254995968091897,0.10797188297000002,2.1432409123553238,1.2738620873132014,-1.0890632200883232, ,0.15816156926411795,0.09029204715363537,0.05040763139240506,0.019784750692306903,0.17623913976682498,-0.032524878493761886, ,1.0070180892944336
0.01517345329424169,0.02188800598486125,-0.09164035783542351, ,0.016494727388030365,0.021263099392112784,-0.09298882399056199, ,0.001988626272614222, ,0.026220044039459604,0.0009039293828278215,-0.04617145667096253,0.01857994067045508,-0.008311644302081093,-0.020206614805169523, ,0.053104719271256026, ,0.020349147308335803, ,0.0009648223308429706, ,0.24291083982585773,-0.18254995968091897,0.10797188297000002,2.1432409123553238,1.2738620873132014,-1.0890632200883232, ,0.15816156926411795,0.09029204715363537,0.05040763139240506,0.019784750692306903,0.17623913976682498,-0.032524878493761886, ,1.0089771747589111
0.01517345329424169,0.02188800598486125,-0.09164035783542351, ,0.01654550581598621,0.021260123114574904,-0.09308431766474494, ,0.002088488690397552, ,0.02387883910458256,-0.002048023072360889,-0.037868667309229116,-0.039867579877194914,-0.0624375414270125,-0.0029911280250467104, ,0.04481550311292446, ,0.07407963707623848, ,0.000973399936641097, ,0.2452971642839931,-0.18109808590056475,0.10865113893000002,2.143450602298808,1.2757749983099174,-1.089152853417543, ,0.15232253861712805,0.10063302392202628,0.040843106461538464,0.0,0.10851589964639348,-0.009950091471827092, ,1.010956048965454
0.015554700027629993,0.02187709901609758,-0.09226692627362365, ,0.016596216584705697,0.021257022955221427,-0.0931795910188564, ,0.0015173028692799812, ,0.02387883910458256,-0.002048023072360889,-0.037868667309229116,-0.039867579877194914,-0.0624375414270125,-0.0029911280250467104, ,0.04481550311292446, ,0.07407963707623848, ,0.0009775204134035128, ,0.2452971642839931,-0.18109808590056475,0.10865113893000002,2.143450602298808,1.2757749983099174,-1.089152853417543, ,0.15232253861712805,0.10063302392202628,0.040843106461538464,0.0,0.10851589964639348,-0.009950091471827092, ,1.012916088104248
0.015554700027629993,0.02187709901609758,-0.09226692627362365, ,0.016646859726081778,0.021253800352691848,-0.09327464425415825, ,0.0016114619322275046, ,0.02387883910458256,-0.002048023072360889,-0.037868667309229116,-0.039867579877194914,-0.0624375414270125,-0.0029911280250467104, ,0.04481550311292446, ,0.07407963707623848, ,0.0009822868909886557, ,0.2452971642839931,-0.18109808590056475,0.10865113893000002,2.143450602298808,1.2757749983099174,-1.089152853417543, ,0.15232253861712805,0.10063302392202628,0.040843106461538464,0.0,0.10851589964639348,-0.009950091471827092, ,1.0148491859436035
0.01577912806055088,0.021843476877961603,-0.09260624613917708, ,0.016697435273224353,0.02125045674115252,-0.09336947757200215, ,0.0013332228769269594, ,0.02146277053688718,-0.004379634408772145,-0.031263579993400854,-0.055137916672256745,-0.07183201501083031,-0.022475061923774103, ,0.03817385428113524, ,0.09055384237203705, ,0.000984905816256852, ,0.24676448353009575,-0.180040071496796,0.10901539642000001,2.143450602298808,1.2767314538082757,-1.089361027562434, ,0.1427021677570989,0.11047373871766097,0.033393734842767295,0.0,0.08526285378547316,-0.021818554889859957, ,1.016822099685669
0.01577912806055088,0.021843476877961603,-0.09260624613917708, ,0.016747943260456758,0.021246993550301952,-0.09346409117382959, ,0.0014248836286597471, ,0.02146277053688718,-0.004379634408772145,-0.031263579993400854,-0.055137916672256745,-0.07183201501083031,-0.022475061923774103, ,0.03817385428113524, ,0.09055384237203705, ,0.0009881649111635402, ,0.24676448353009575,-0.180040071496796,0.10901539642000001,2.143450602298808,1.2767314538082757,-1.089361027562434, ,0.1427021677570989,0.11047373871766097,0.033393734842767295,0.0,0.08526285378547316,-0.021818554889859957, ,1.0193281173706055
0.01577912806055088,0.021843476877961603,-0.09260624613917708, ,0.016798383723312757,0.021243412205376,-0.09355848526117308, ,0.0015184594373301974, ,0.02146277053688718,-0.004379634408772145,-0.031263579993400854,-0.055137916672256745,-0.07183201501083031,-0.022475061923774103, ,0.03817385428113524, ,0.09055384237203705, ,0.000992064135620648, ,0.24676448353009575,-0.180040071496796,0.10901539642000001,2.143450602298808,1.2767314538082757,-1.089361027562434, ,0.1427021677570989,0.11047373871766097,0.033393734842767295,0.0,0.08526285378547316,-0.021818554889859957, ,1.0212249755859375
0.01577912806055088,0.021843476877961603,-0.09260624613917708, ,0.01684875669853355,0.021239714127153347,-0.09365266003565587, ,0.0016135727207659833, ,0.02146277053688718,-0.004379634408772145,-0.031263579993400854,-0.055137916672256745,-0.07183201501083031,-0.022475061923774103, ,0.03817385428113524, ,0.09055384237203705, ,0.0009966006946363073, ,0.24676448353009575,-0.180040071496796,0.10901539642000001,2.143450602298808,1.2767314538082757,-1.089361027562434, ,0.1427021677570989,0.11047373871766097,0.033393734842767295,0.0,0.08526285378547316,-0.021818554889859957, ,1.0230960845947266
0.01577912806055088,0.021843476877961603,-0.09260624613917708, ,0.016899062224064457,0.021235900731960473,-0.09374661569899159, ,0.0017099251553053414, ,0.02146277053688718,-0.004379634408772145,-0.031263579993400854,-0.055137916672256745,-0.07183201501083031,-0.022475061923774103, ,0.03817385428113524, ,0.09055384237203705, ,0.0010017697124672423, ,0.24676448353009575,-0.180040071496796,0.10901539642000001,2.143450602298808,1.2767314538082757,-1.089361027562434, ,0.1427021677570989,0.11047373871766097,0.033393734842767295,0.0,0.08526285378547316,-0.021818554889859957, ,1.024986982345581
0.01600090699640429,0.02179242126022228,-0.09293114152393198, ,0.016949300339051485,0.021231973431677556,-0.09384035245298615, ,0.001428361373886024, ,0.024090132307474994,-0.004609013013739037,-0.036951037076188055,-0.0018576909195510997,-0.032842497905374815,-0.0763844030910412, ,0.044350384626948736, ,0.03289394773920288, ,0.001004838717225651, ,0.24824724824194686,-0.1788507706341654,0.10936409843000001,2.1432409123553238,1.2779611823061645,-1.0900370737351395, ,0.15531414330355284,0.12404828961891604,0.039822028800000006,-0.0012885888329843105,0.14635426513180638,-0.09973492784452136, ,1.0269780158996582
0.01600090699640429,0.02179242126022228,-0.09293114152393198, ,0.01699947108383858,0.021227933633743135,-0.0939338704995364, ,0.0015235622454229539, ,0.024090132307474994,-0.004609013013739037,-0.036951037076188055,-0.0018576909195510997,-0.032842497905374815,-0.0763844030910412, ,0.044350384626948736, ,0.03289394773920288, ,0.0010085438852842031, ,0.24824724824194686,-0.1788507706341654,0.10936409843000001,2.1432409123553238,1.2779611823061645,-1.0900370737351395, ,0.15531414330355284,0.12404828961891604,0.039822028800000006,-0.0012885888329843105,0.14635426513180638,-0.09973492784452136, ,1.0288841724395752
0.01600090699640429,0.02179242126022228,-0.09293114152393198, ,0.017049574499963936,0.021223782741159967,-0.0940271700406315, ,0.0016199789528885769, ,0.024090132307474994,-0.004609013013739037,-0.036951037076188055,-0.0018576909195510997,-0.032842497905374815,-0.0763844030910412, ,0.044350384626948736, ,0.03289394773920288, ,0.001012880304203383, ,0.24824724824194686,-0.1788507706341654,0.10936409843000001,2.1432409123553238,1.2779611823061645,-1.0900370737351395, ,0.15531414330355284,0.12404828961891604,0.039822028800000006,-0.0012885888329843105,0.14635426513180638,-0.09973492784452136, ,1.0308430194854736
0.01600090699640429,0.02179242126022228,-0.09293114152393198, ,0.017099610630157698,0.021219522152499816,-0.09412025127835236, ,0.0017173657358028997, ,0.024090132307474994,-0.004609013013739037,-0.036951037076188055,-0.0018576909195510997,-0.032842497905374815,-0.0763844030910412, ,0.044350384626948736, ,0.03289394773920288, ,0.0010178414692146472, ,0.24824724824194686,-0.1788507706341654,0.10936409843000001,2.1432409123553238,1.2779611823061645,-1.0900370737351395, ,0.15531414330355284,0.12404828961891604,0.039822028800000006,-0.0012885888329843105,0.14635426513180638,-0.09973492784452136, ,1.0328600406646729
0.01600090699640429,0.02179242126022228,-0.09293114152393198, ,0.017149579518337663,0.02121515326190936,-0.0942131144148728, ,0.001815527856472646, ,0.024090132307474994,-0.004609013013739037,-0.036951037076188055,-0.0018576909195510997,-0.032842497905374815,-0.0763844030910412, ,0.044350384626948736, ,0.03289394773920288, ,0.001023419695698969, ,0.24824724824194686,-0.1788507706341654,0.10936409843000001,2.1432409123553238,1.2779611823061645,-1.0900370737351395, ,0.15531414330355284,0.12404828961891604,0.039822028800000006,-0.0012885888329843105,0.14635426513180638,-0.09973492784452136, ,1.0348131656646729
0.01621598042058268,0.021755819656532914,-0.09328592009140288, ,0.017199481209606786,0.02121067745911497,-0.09430575965245908, ,0.0015180667138541696, ,0.025941319600866864,-0.0031326990610886863,-0.04371438996717238,0.04106407831239647,-0.0040743887398892705,-0.07551170829258771, ,0.05092851614021055, ,0.04126377998266569, ,0.001026854744436158, ,0.24824724824194686,-0.1788507706341654,0.10936409843000001,2.1432409123553238,1.2779611823061645,-1.0900370737351395, ,0.15531414330355284,0.12404828961891604,0.039822028800000006,-0.0012885888329843105,0.14635426513180638,-0.09973492784452136, ,1.039647102355957
0.01621598042058268,0.021755819656532914,-0.09328592009140288, ,0.017249315750250023,0.021206096129428385,-0.09439818719347035, ,0.0016146566093546068, ,0.025941319600866864,-0.0031326990610886863,-0.04371438996717238,0.04106407831239647,-0.0040743887398892705,-0.07551170829258771, ,0.05092851614021055, ,0.04126377998266569, ,0.0010309085504011128, ,0.24959872649493614,-0.17779275623039667,0.10974650398000001,2.14261184252487,1.2794641838035845,-1.0910993131955191, ,0.15816156926411795,0.11891847313091576,0.04740717714285715,-0.036409276974604846,0.19093448310115263,-0.15207129420915239, ,1.041593074798584
0.01621598042058268,0.021755819656532914,-0.09328592009140288, ,0.01729908318773058,0.021201410653751925,-0.09449039724035939, ,0.0017120882421553072, ,0.025941319600866864,-0.0031326990610886863,-0.04371438996717238,0.04106407831239647,-0.0040743887398892705,-0.07551170829258771, ,0.05092851614021055, ,0.04126377998266569, ,0.0010355741647281962, ,0.24959872649493614,-0.17779275623039667,0.10974650398000001,2.14261184252487,1.2794641838035845,-1.0910993131955191, ,0.15816156926411795,0.11891847313091576,0.04740717714285715,-0.036409276974604846,0.19093448310115263,-0.15207129420915239, ,1.0437541007995605
0.01621598042058268,0.021755819656532914,-0.09328592009140288, ,0.017348783570687736,0.021196622408583454,-0.094582389995672, ,0.0018101874907527629, ,0.025941319600866864,-0.0031326990610886863,-0.04371438996717238,0.04106407831239647,-0.0040743887398892705,-0.07551170829258771, ,0.05092851614021055, ,0.04126377998266569, ,0.0010408436431365265, ,0.24959872649493614,-0.17779275623039667,0.10974650398000001,2.14261184252487,1.2794641838035845,-1.0910993131955191, ,0.15816156926411795,0.11891847313091576,0.04740717714285715,-0.036409276974604846,0.19093448310115263,-0.15207129420915239, ,1.0459010601043701
0.016477549639186573,0.0217216356525734,-0.09371790614419924, ,0.017398416948932603,0.021191732766022413,-0.09467416566204832, ,0.001429414543374637, ,0.028178469313140466,-0.003553686723649012,-0.04576678586907298,-0.020443265568299944,-0.05622393673675105,0.020363557824299224, ,0.05386328537090006, ,0.05982355200634678, ,0.0010434691221921895, ,0.25122822313139753,-0.17662662356638875,0.11021446467000001,2.1417730827509316,1.2812404583005352,-1.0920576735027292, ,0.17573507696013105,0.12228987314235924,0.04946835875776398,-0.08581919526867691,0.160782651202911,-0.08597769557421106, ,1.047875165939331
0.016477549639186573,0.0217216356525734,-0.09371790614419924, ,0.017447983373445504,0.021186743093774517,-0.09476572444222237, ,0.0015250491361652031, ,0.028178469313140466,-0.003553686723649012,-0.04576678586907298,-0.020443265568299944,-0.05622393673675105,0.020363557824299224, ,0.05386328537090006, ,0.05982355200634678, ,0.0010467012028228808, ,0.25122822313139753,-0.17662662356638875,0.11021446467000001,2.1417730827509316,1.2812404583005352,-1.0920576735027292, ,0.17573507696013105,0.12228987314235924,0.04946835875776398,-0.08581919526867691,0.160782651202911,-0.08597769557421106, ,1.0497751235961914
0.016477549639186573,0.0217216356525734,-0.09371790614419924, ,0.017497482896372728,0.021181654755157257,-0.0948570665390225, ,0.001621582444349526, ,0.028178469313140466,-0.003553686723649012,-0.04576678586907298,-0.020443265568299944,-0.05622393673675105,0.020363557824299224, ,0.05386328537090006, ,0.05982355200634678, ,0.0010505337444330586, ,0.25122822313139753,-0.17662662356638875,0.11021446467000001,2.1417730827509316,1.2812404583005352,-1.0920576735027292, ,0.17573507696013105,0.12228987314235924,0.04946835875776398,-0.08581919526867691,0.160782651202911,-0.08597769557421106, ,1.0516619682312012
0.016477549639186573,0.0217216356525734,-0.09371790614419924, ,0.017546915571023357,0.021176469109105252,-0.0949481921553716, ,0.001718823354965999, ,0.028178469313140466,-0.003553686723649012,-0.04576678586907298,-0.020443265568299944,-0.05622393673675105,0.020363557824299224, ,0.05386328537090006, ,0.05982355200634678, ,0.0010549595034432106, ,0.25122822313139753,-0.17662662356638875,0.11021446467000001,2.1417730827509316,1.2812404583005352,-1.0920576735027292, ,0.17573507696013105,0.12228987314235924,0.04946835875776398,-0.08581919526867691,0.160782651202911,-0.08597769557421106, ,1.053529977798462
0.016477549639186573,0.0217216356525734,-0.09371790614419924, ,0.0175962814518659,0.021171187510175656,-0.09503910149428792, ,0.001816620813286539, ,0.028178469313140466,-0.003553686723649012,-0.04576678586907298,-0.020443265568299944,-0.05622393673675105,0.020363557824299224, ,0.05386328537090006, ,0.05982355200634678, ,0.0010599704331132325, ,0.25122822313139753,-0.17662662356638875,0.11021446467000001,2.1417730827509316,1.2812404583005352,-1.0920576735027292, ,0.17573507696013105,0.12228987314235924,0.04946835875776398,-0.08581919526867691,0.160782651202911,-0.08597769557421106, ,1.055454969406128
0.016812266557279198,0.021685466646545453,-0.0942601992696528, ,0.01764558059452541,0.021165811308553207,-0.0951297947588843, ,0.0013117355944957784, ,0.027408634990971306,-0.002997162844626955,-0.04529141591600653,-0.08504662698448531,-0.06294136641028172,0.04640592723710293, ,0.053023849472310085, ,0.10580337322637923, ,0.001061615957043837, ,0.253205242747199,-0.1752519771147768,0.11078094340000001,2.1413537028639626,1.282743459797955,-1.0918130531208594, ,0.16111535069349878,0.12012271083350731,0.04871196183486239,0.007244608689349754,0.11832281125014961,0.05804407520366625, ,1.0574400424957275
0.016812266557279198,0.021685466646545453,-0.0942601992696528, ,0.01769481305577992,0.02116034185005582,-0.09522027215236956, ,0.001405839362812202, ,0.027408634990971306,-0.002997162844626955,-0.04529141591600653,-0.08504662698448531,-0.06294136641028172,0.04640592723710293, ,0.053023849472310085, ,0.10580337322637923, ,0.001063851173964411, ,0.253205242747199,-0.1752519771147768,0.11078094340000001,2.1413537028639626,1.282743459797955,-1.0918130531208594, ,0.16111535069349878,0.12012271083350731,0.04871196183486239,0.007244608689349754,0.11832281125014961,0.05804407520366625, ,1.0593280792236328
0.016812266557279198,0.021685466646545453,-0.0942601992696528, ,0.017743978893557756,0.021154780476139657,-0.09531053387804801, ,0.0015009725109495964, ,0.027408634990971306,-0.002997162844626955,-0.04529141591600653,-0.08504662698448531,-0.06294136641028172,0.04640592723710293, ,0.053023849472310085, ,0.10580337322637923, ,0.00106667131162238, ,0.253205242747199,-0.1752519771147768,0.11078094340000001,2.1413537028639626,1.282743459797955,-1.0918130531208594, ,0.16111535069349878,0.12012271083350731,0.04871196183486239,0.007244608689349754,0.11832281125014961,0.05804407520366625, ,1.0612151622772217
0.016812266557279198,0.021685466646545453,-0.0942601992696528, ,0.01779307816693387,0.02114912852390463,-0.09540058013931993, ,0.001596909052931325, ,0.027408634990971306,-0.002997162844626955,-0.04529141591600653,-0.08504662698448531,-0.06294136641028172,0.04640592723710293, ,0.053023849472310085, ,0.10580337322637923, ,0.0010700702715025654, ,0.253205242747199,-0.1752519771147768,0.11078094340000001,2.1413537028639626,1.282743459797955,-1.0918130531208594, ,0.16111535069349878,0.12012271083350731,0.04871196183486239,0.007244608689349754,0.11832281125014961,0.05804407520366625, ,1.0634791851043701
0.016812266557279198,0.021685466646545453,-0.0942601992696528, ,0.017842110936127035,0.021143387326099605,-0.09549041113968196, ,0.0016934729638999702, ,0.027408634990971306,-0.002997162844626955,-0.04529141591600653,-0.08504662698448531,-0.06294136641028172,0.04640592723710293, ,0.053023849472310085, ,0.10580337322637923, ,0.0010740409892885361, ,0.253205242747199,-0.1752519771147768,0.11078094340000001,2.1413537028639626,1.282743459797955,-1.0918130531208594, ,0.16111535069349878,0.12012271083350731,0.04871196183486239,0.007244608689349754,0.11832281125014961,0.05804407520366625, ,1.0654540061950684
0.017063387594594352,0.02165313583566765,-0.09468284728183259, ,0.017891077262496367,0.02113755821112772,-0.09558002708272743, ,0.001325074363351621, ,0.02832822817479341,-0.003432777074661667,-0.0484116752401597,0.009586719950745072,0.009779984590360707,-0.0491594620365752, ,0.05619575401688435, ,0.013685297887686045, ,0.0010756298081117202, ,0.25473434385629545,-0.17403950805352356,0.11125668183000001,2.1413537028639626,1.2843830977951403,-1.0920882443433895, ,0.16277348466290012,0.13107312369954527,0.05257033504950496,0.009235248329447512,0.20485472292798101,-0.07284634407620352, ,1.0678050518035889
0.017063387594594352,0.02165313583566765,-0.09468284728183259, ,0.017939977208538203,0.021131642503051825,-0.09566942817214645, ,0.001419051267702999, ,0.02832822817479341,-0.003432777074661667,-0.0484116752401597,0.009586719950745072,0.009779984590360707,-0.0491594620365752, ,0.05619575401688435, ,0.013685297887686045, ,0.001077789691505376, ,0.25473434385629545,-0.17403950805352356,0.11125668183000001,2.1413537028639626,1.2843830977951403,-1.0920882443433895, ,0.16277348466290012,0.13107312369954527,0.05257033504950496,0.009235248329447512,0.20485472292798101,-0.07284634407620352, ,1.069709062576294
0.017063387594594352,0.02165313583566765,-0.09468284728183259, ,0.017988810837883232,0.021125641521599615,-0.09575861461172604, ,0.0015139133986656907, ,0.02832822817479341,-0.003432777074661667,-0.0484116752401597,0.009586719950745072,0.009779984590360707,-0.0491594620365752, ,0.05619575401688435, ,0.013685297887686045, ,0.001080515464675128, ,0.25473434385629545,-0.17403950805352356,0.11125668183000001,2.1413537028639626,1.2843830977951403,-1.0920882443433895, ,0.16277348466290012,0.13107312369954527,0.05257033504950496,0.009235248329447512,0.20485472292798101,-0.07284634407620352, ,1.0716450214385986
0.017063387594594352,0.02165313583566765,-0.09468284728183259, ,0.0180375782152929,0.021119556582168967,-0.09584758660535068, ,0.00160946322634928, ,0.02832822817479341,-0.003432777074661667,-0.0484116752401597,0.009586719950745072,0.009779984590360707,-0.0491594620365752, ,0.05619575401688435, ,0.013685297887686045, ,0.001083800854499191, ,0.25473434385629545,-0.17403950805352356,0.11125668183000001,2.1413537028639626,1.2843830977951403,-1.0920882443433895, ,0.16277348466290012,0.13107312369954527,0.05257033504950496,0.009235248329447512,0.20485472292798101,-0.07284634407620352, ,1.0735881328582764
0.017063387594594352,0.02165313583566765,-0.09468284728183259, ,0.01808627940665654,0.021113388995833413,-0.09593634435700277, ,0.0017055466067378837, ,0.02832822817479341,-0.003432777074661667,-0.0484116752401597,0.009586719950745072,0.009779984590360707,-0.0491594620365752, ,0.05619575401688435, ,0.013685297887686045, ,0.0010876387912414052, ,0.25473434385629545,-0.17403950805352356,0.11125668183000001,2.1413537028639626,1.2843830977951403,-1.0920882443433895, ,0.16277348466290012,0.13107312369954527,0.05257033504950496,0.009235248329447512,0.20485472292798101,-0.07284634407620352, ,1.0756890773773193
0.017350527780124383,0.021622812400096815,-0.09518743917634459, ,0.01813491447898776,0.021107140069347396,-0.09602488807076226, ,0.001257974998485941, ,0.027161215083484735,-0.0029345214868126256,-0.048130234733222574,0.04089002473352115,0.015461346162681796,-0.0844510682443291, ,0.05534313432254256, ,0.04371257334443915, ,0.0010886837986478133, ,0.2563483950270084,-0.17274208893065382,0.11180630879000002,2.1413537028639626,1.2867059182911527,-1.0934105975252444, ,0.1508695414284114,0.12228987314235924,0.05222561154098361,-0.011664686376499778,0.20043012949229522,-0.13641186091028593, ,1.078092098236084
