NicholasDascanio/dvrk_moveit_final/test/execution/third_experiment_notsharpbends/thirdexp_600vel5.0/thirdexp_600vel5.0_6.csv
Current Position (x),Current Position (y),Current Position (z), ,Planned Position (x),Planned Position (y),Planned Position (z), ,Position Error,,Cartesian linear Velocity(x),Cartesian linear Velocity(y),Cartesian linear Velocity(z),Cartesian Angular Velocity(x),Cartesian Angular Velocity(y),Cartesian Angular Velocity(z), ,Total Linear Velocity, ,Total Angular Velocity, ,MSE, ,Joint 1 Position,Joint 2 Position,Joint 3 Position,Joint 4 Position,Joint 5 Position,Joint 6 Position, ,Joint 1 Velocity,Joint 2 Velocity,Joint 3 Velocity,Joint 4 Velocity,Joint 5 Velocity,Joint 6 Velocity, ,Time Stamp
0.010119201792001035,0.02000451446308441,-0.08036713018677964, ,0.010230287921557876,0.019923358806103873,-0.08040491192795099, ,0.00014266684550308178, ,3.713217302399999e-05,5.663910430056045e-05,1.8773666914017227e-05,-0.017960500319589696,-0.00022758081064259262,0.018619593831155388, ,7.027970531278929e-05, ,0.017961942120922066, ,1.1888903791923482e-05, ,0.21425177812961058,-0.21320148645871603,0.09370491523,1.9025168572350895,0.9914344422980359,-1.1365518083658723, ,0.00045501864600955955,-0.0005766914694491203,0.0,0.0014368748330703916,0.0,0.02736935225407411, ,0.025384187698364258
0.010125851419329597,0.020012416143593656,-0.08037304864523652, ,0.010256721787018048,0.019956609595678187,-0.08043656222154842, ,0.00015580564272541482, ,0.0005224578885940329,0.0006630062209091439,-0.0013717514146317715,0.1782060990268393,0.00828389686455768,-0.21925600136486562, ,0.0016106649055165464, ,0.17839853328326838, ,1.3566931283113484e-05, ,0.21427494632823324,-0.21320920919159025,0.09371139668,1.9033556170090276,0.9911611692985051,-1.138861013502837, ,0.00138557335344888,-0.0003985980122473548,0.00155014741727081,0.04305551682864553,0.0,-0.24552019215463083, ,0.04378008842468262
0.010140399522172817,0.02001781356572759,-0.08038669558567707, ,0.010283269209476887,0.01998940955351099,-0.08046889240700554, ,0.00016725684708515773, ,0.0011927147458069948,0.00046663763264375894,-0.0012347318012322025,-0.022600652228687488,-0.12731260837006883,-0.08780529703549825, ,0.0017790114575344745, ,0.12930309250420008, ,1.4554041728551698e-05, ,0.21429039179398168,-0.21323237739021295,0.09371398926,1.9037749968959967,0.9892482583017889,-1.1423652447398018, ,0.001311806445431218,-0.0009733373297685378,0.00040714473325560523,0.04273088750448931,-0.14622075033889048,-0.011680922489265777, ,0.06323409080505371
0.010160914874901224,0.02002598458069178,-0.0804126109383382, ,0.01030992982669429,0.020021761404695075,-0.08050189795580034, ,0.00017376841646477394, ,0.0012298547024690478,0.0005420079153817947,-0.0019911449542252373,0.11225943999804765,-0.09649712219359122,-0.17006919195995357, ,0.0024022850368468707, ,0.14803336265953307, ,1.5226136947105436e-05, ,0.2143212827254786,-0.21324010012308717,0.09372435958000001,1.9037749968959967,0.9882918028034308,-1.1438723241378626, ,0.0031358673970245028,-0.0012245594965011035,0.000824264583162196,0.029617741016968298,-0.050371626490447255,-0.24351936875970703, ,0.08153414726257324
0.010183771223791872,0.020036277838512487,-0.08043265913957352, ,0.010336703277255974,0.020053667867067727,-0.08053557435238634, ,0.00018515444120573198, ,0.0011971443380029657,0.0007276132568034333,-0.0011856026918922846,-0.11071394269014226,-0.0729557154896974,0.019973799312515736, ,0.0018352736473100924, ,0.1325900204714044, ,1.585869601892616e-05, ,0.21439851005422084,-0.2132864365203325,0.09373732248000001,1.9044040667264504,0.9861056188071837,-1.1477254707484186, ,0.004149070836113514,-0.0024767000077916784,0.0,0.013302857155502905,-0.1593350262048626,0.04559948486292631, ,0.1028900146484375
0.01018737703906357,0.02004016510619209,-0.08043492159243852, ,0.010363589200573231,0.02008513165121867,-0.08056991709417538, ,0.00022648730985360072, ,0.0006045848669312176,0.0008670890426390102,-0.00026451741801779185,-0.15934293655932263,-0.016326436741360535,0.1005641994537917, ,0.0010896493626950242, ,0.1601771643150732, ,1.6953862948996144e-05, ,0.2144525691843404,-0.21332505018470363,0.09374250764000001,1.9050331365569038,0.9851491633088256,-1.1456386855802947, ,0.002554741921866944,-0.0037060690762046778,0.00031399339529438293,0.07163278257596427,-0.03155038085147383,0.24446267820163944, ,0.12194705009460449
0.010194759411301855,0.020050725292239953,-0.08044641814987581, ,0.010390587236881372,0.020116155460498435,-0.08060492169152408, ,0.0002602940969453217, ,0.00045784931284043127,0.0007486978594804177,-0.0008890242571959631,-0.0012041815871159452,0.0668954257698716,0.045291418402806295, ,0.0012492151968103208, ,0.0669062631016454, ,1.8214355552542814e-05, ,0.21458385564320223,-0.21339455478057165,0.09376584086,1.9050331365569038,0.9863788918067147,-1.1416590435649883, ,0.007617946332956883,-0.004296987730123933,0.0016601825757475521,0.007113201838784194,0.07906609080095915,0.04176345213938293, ,0.14908099174499512
0.01022916514861845,0.02008340292527452,-0.08049957828061108, ,0.010417697027239478,0.02014674199102623,-0.08064058366771795, ,0.0002438003808443149, ,0.000988844401576539,0.0005559548645607115,-0.0020768885945546996,0.014757566655279414,-0.010526071558213938,-0.00026652179690291457, ,0.00236650909487992, ,0.018126884894956792, ,1.8966268056431677e-05, ,0.21484642856092587,-0.21349495030793658,0.09383324794,1.9065009661612955,0.9869254378057764,-1.141859678959352, ,0.006988568044364964,-0.0023841768509410425,0.0022639015804434342,-0.016619480873979273,0.0,-0.023011587551460932, ,0.1687030792236328
0.010240013690081245,0.020092717559597673,-0.08052000577052135, ,0.010444918213528663,0.02017689393169825,-0.08067689855895668, ,0.0002714532600877058, ,0.001085278189135261,0.000773736611366953,-0.0020515249604284524,-0.011292446555877644,-0.010941163475968536,0.02748388663272609, ,0.002446477417603377, ,0.01572349857343717, ,2.0073486161704433e-05, ,0.2149236558896681,-0.21354900943805613,0.09385658116000001,1.9065009661612955,0.9869254378057764,-1.141859678959352, ,0.008116706874850731,-0.004690733264308129,0.0023038489326005214,-0.013385768855688797,0.0,0.0189470026182093, ,0.18597412109375
0.010264382130309248,0.020111647689503392,-0.08055876934874377, ,0.010472250438451638,0.020206613964195628,-0.08071386191433935, ,0.00027619111274970466, ,0.00111729641231439,0.0009469692586863449,-0.0014343598967103124,0.0023451407443132385,-0.005865137134606508,-0.0069842184059965475, ,0.0020499976495494798, ,0.006316606582042835, ,2.1028783534648082e-05, ,0.21510127874577528,-0.21364940496542106,0.09390065502000002,1.90671065610478,0.9867888013060109,-1.1417482610556557, ,0.009220373154933981,-0.005743985439599017,0.0017530839438641697,0.01579155957357269,0.0,0.009496870188082677, ,0.20423221588134766
0.0102877093702202,0.02013338057390537,-0.0805932705865566, ,0.010499693345531766,0.020235904762992602,-0.0807514692958492, ,0.00028368159397241757, ,0.0011778726995255076,0.0013329715298448046,-0.001589209309298321,0.01560182199642341,0.00020693386745688764,-0.0379407697036347, ,0.002385326691341199, ,0.015603194263465577, ,2.1895045389332348e-05, ,0.21527890160188243,-0.21377296869140866,0.0939421363,1.9071300359917491,0.9867888013060109,-1.141503224835234, ,0.008720627158822446,-0.0075766819783241535,0.0020037802245699505,0.04207761232662036,0.0,0.0008454685577125956, ,0.22157502174377441
0.010311042509704504,0.020157038525112306,-0.08063264732817248, ,0.010527246579111742,0.020264768995364627,-0.08078971627833866, ,0.0002881331444928562, ,0.0011790033030866028,0.001390123382458098,-0.002059824687593317,0.001903512972754344,-0.002591586049425481,-0.010210711983076144, ,0.0027505216870195312, ,0.0032155372571220295, ,2.2666890609576968e-05, ,0.2154565244579896,-0.21394286881464158,0.09398880274000002,1.9071300359917491,0.9867888013060109,-1.1410131523943907, ,0.007998833387856013,-0.008485449400478127,0.002473033926408943,0.025412464300528702,0.0,0.01692464497999052, ,0.2435131072998047
0.010335698202561012,0.020194316564889493,-0.08067246343006375, ,0.010554909784353188,0.020293209321396524,-0.08082859844951401, ,0.0002867257211694137, ,0.0012426575401184204,0.001898216935757695,-0.0019377128329960214,0.00955004982887891,0.007661447053728994,-0.049683443796775126, ,0.002983648156262391, ,0.012243415481957839, ,2.331825837086217e-05, ,0.21560325638259986,-0.21414365986937142,0.09403935805000001,1.9085978655961409,0.9867888013060109,-1.1407681161739691, ,0.007632392522724175,-0.010696968987764203,0.0024861575651631035,0.07190204819563757,-1.6911305552379203e-05,0.023051514098816832, ,0.26027512550354004
0.010360353615891806,0.020224958376409054,-0.08071527116498302, ,0.010582682607235161,0.020321228393990202,-0.08086811140992092, ,0.0002864580896911569, ,0.001154258785869961,0.001405415134429962,-0.0021251933626316643,-0.0008018042496033744,-0.010495736779771173,0.021282154058837443, ,0.0027971327950986643, ,0.01052631847141122, ,2.388144781463715e-05, ,0.21578087923870704,-0.21436761912272395,0.09409120965000001,1.9088075555396251,0.9867888013060109,-1.1404414012134068, ,0.008558211845930468,-0.01142923540388664,0.002536838910654563,-0.008677375310607326,-0.00011811111017523339,0.014642115803620348, ,0.27965402603149414
0.010372310862099525,0.020238399240955798,-0.08073719071180632, ,0.010610564694553624,0.020348828858873416,-0.08090825077292879, ,0.00031340251068509345, ,0.0013675579013177604,0.0015359641622483798,-0.0024352296335935194,-0.009490380501570427,-0.010140629356014412,0.023860363693205145, ,0.0031874353153436745, ,0.013888833130072695, ,2.4560547679143077e-05, ,0.21587355203319772,-0.2144834601158373,0.09411713545000001,1.9085978655961409,0.9867888013060109,-1.1402780437331255, ,0.010123825870257848,-0.011372128106041261,0.0028685055861696384,0.0,-0.00014736566996031422,0.029765275023230085, ,0.2969040870666504
0.010404744695585305,0.02028410993638106,-0.08079129884576301, ,0.010638555693920216,0.020376013354607182,-0.08094901216471653, ,0.0002966265534293039, ,0.0015413173031673124,0.0022269543932477093,-0.0022499574893032168,0.0124300769991554,0.009999899768553939,-0.06695829578448859, ,0.0035209790687136815, ,0.015953206872864077, ,2.505133744743539e-05, ,0.21608206582080178,-0.21476147849930938,0.09418454253000001,1.909856005257048,0.9867888013060109,-1.1397879712922823, ,0.00970097879046789,-0.01179108911259644,0.002905127032646362,0.09307353930455867,-0.0001864008306019882,0.026817151885675104, ,0.31421899795532227
0.01043057261545927,0.020315990851611603,-0.08083630200894056, ,0.010666655253761299,0.02040278451259427,-0.08099039122425647, ,0.00029497735162397644, ,0.001206852881105109,0.001464973328249649,-0.0022487071249051895,0.0035338742193925855,-0.008734900532605405,0.009807597033808249, ,0.0029426730132167114, ,0.009422672352124857, ,2.5635082213142138e-05, ,0.2161747386152925,-0.21488504222529697,0.09421435720000002,1.9100656952005322,0.9867888013060109,-1.13946125633172, ,0.008568346703154277,-0.011014175066342459,0.0026775611901159865,0.0,-0.0001963182572696765,0.010373214809909704, ,0.3313150405883789
0.010444964663900172,0.02033001685072401,-0.08086043215750374, ,0.010694863023317274,0.020429144957087236,-0.08103238360330062, ,0.00031912829899924817, ,0.001463039261827131,0.001465823317025859,-0.002234323358130833,0.006827278419870849,-0.011001493304953553,0.0033439562135047615, ,0.003046526341109397, ,0.012947763726052776, ,2.630595069134279e-05, ,0.21638325240289655,-0.2151090014786495,0.09426750509000001,1.909856005257048,0.9867888013060109,-1.1390528626310172, ,0.011566256827701802,-0.01066026407924455,0.002696142775897089,0.003504985596430746,-0.00020630341065358654,0.00616486422345985, ,0.3470652103424072
0.010461365859579071,0.020347821353101286,-0.08088334987275654, ,0.010723178652641474,0.02045509730519633,-0.08107498496636424, ,0.00034172807553823584, ,0.0016721138377139907,0.0015877001551125505,-0.002622243421834941,-0.002524212458046263,-0.010660783350947394,0.007366803479402571, ,0.003491835768213569, ,0.010955544261478264, ,2.7043481421721967e-05, ,0.21650681612888412,-0.21521711973888863,0.09429602347,1.910275385144017,0.9867888013060109,-1.1389711838908765, ,0.012816982922537922,-0.010386834817197632,0.0031269751707891638,0.010874003127969772,-0.00020843079243112181,0.021542609856586944, ,0.36392807960510254
0.010505049865123177,0.02038842741023873,-0.08095468215529, ,0.010751601792598934,0.020480644166897783,-0.08111819099071181, ,0.0003098821105061116, ,0.001953998497209245,0.0018326878047825723,-0.0029825056241335945,0.0016082105059507085,-0.004266256011042092,-0.024873532285018006, ,0.004009014157481023, ,0.0045593070906889, ,2.7546353782648505e-05, ,0.21682344817672733,-0.21544107899224116,0.09438028232000001,1.9109044549744705,0.9867888013060109,-1.1386444689303143, ,0.01410687402385473,-0.009128237461847516,0.0035706818022864834,0.046777762223693176,-0.00020902939850081132,0.024700396498527018, ,0.3788430690765381
0.010523256401452463,0.020403448890100092,-0.08098476398595206, ,0.010780132094865856,0.020505788145041726,-0.08116199736634169, ,0.00032843586298234435, ,0.0018739558656872951,0.0017925987877461488,-0.0031752399006750396,0.005219102110035035,-0.005966462158167549,-0.018910643704912793, ,0.004099666989794612, ,0.007927023224203097, ,2.8103390033788485e-05, ,0.21696245736846337,-0.21553375178673184,0.09441528215000002,1.9109044549744705,0.9867888013060109,-1.1385627901901736, ,0.01302813585371647,-0.009303095685864134,0.0037374029845143137,0.033821241579188165,-0.00020797645860770388,0.015790629742001273, ,0.39678001403808594
0.010558017145509243,0.02043345062014702,-0.08103575052265047, ,0.010808769211928264,0.020530531835360393,-0.08120639979597116, ,0.00031846904974517645, ,0.0014791785377438913,0.0011495796750038902,-0.0013776175465883863,-0.0069839011362479095,-0.009887602218668806,0.003899635566466209, ,0.0023253672140916607, ,0.012105352234055285, ,2.8566963942079915e-05, ,0.217225030286187,-0.21568820644421632,0.09447620778000002,1.9115335248049241,0.9867888013060109,-1.1381543964894711, ,0.013531575867456262,-0.007879219397481796,0.0017953766864657798,0.017727748161191523,-0.000204603916201771,0.026536077759095493, ,0.41273999214172363
0.010593011221470324,0.02045985975445949,-0.08107015312437026, ,0.010837512797081497,0.020554877826476064,-0.08125139399502102, ,0.00031883805870745464, ,0.0019317058263352387,0.001418290645227382,-0.0018861780569943939,-0.0009239614565426267,-0.005875416293829945,-0.027947031813461008, ,0.0030497054638971544, ,0.0059476231702340916, ,2.8996975119083798e-05, ,0.217533939601156,-0.21584266110170083,0.09452028164000001,1.9121625946353775,0.9867888013060109,-1.1375826453084872, ,0.01657009630844609,-0.006736288637191834,0.0024098050711043877,0.05059377751819919,-0.00019968012657088535,0.02618241588677097, ,0.4287581443786621
0.010629469189677224,0.02048270159885225,-0.08112135761549602, ,0.010866362504428661,0.020578828699909228,-0.08129697569160087, ,0.0003101621685285125, ,0.0019307499931574992,0.0014184624423178882,-0.0030409242244657563,-0.0059674957337494,-0.008665280757519841,-0.006167803197023987, ,0.0038596821425991752, ,0.01052131625220572, ,2.9355628181358303e-05, ,0.21783512618325074,-0.2159662248276884,0.09457991098000001,1.9121625946353775,0.9867888013060109,-1.1371742516077843, ,0.014225294792155717,-0.005853216380254671,0.0035256333598937583,0.026603839070962716,-0.00019443458035894794,0.024920298019464195, ,0.4456601142883301
0.0106501170156666,0.020497260134842796,-0.0811538995989374, ,0.01089531798888024,0.020602387030086655,-0.08134314062649423, ,0.00032708920477339494, ,0.001958742226485382,0.0013516071944560176,-0.0034526566679381546,-0.008274234080769181,-0.014428931975800433,0.016295992442249156, ,0.0041933699079117715, ,0.01663301016337674, ,2.976378826685622e-05, ,0.21798958084073525,-0.2160280066906822,0.09461750339000001,1.9123722845788622,0.9867888013060109,-1.1370925728676435, ,0.014285253885062589,-0.006295371038688518,0.003910830228332925,0.0,-0.00019163766157214115,0.02075998498991589, ,0.4606602191925049
0.010670071462433251,0.02051503060753147,-0.08118706003388414, ,0.010924378906152676,0.020625555384349462,-0.08138988455314314, ,0.0003435488143400007, ,0.0019248776344841967,0.0014271239227448209,-0.003270852155269905,-0.015413139987503568,-0.009966383662382483,0.01006982538114251, ,0.004054665266115296, ,0.018354663908822, ,3.0344055633688868e-05, ,0.21812086729959707,-0.216089788553676,0.09465639209000001,1.9130013544093158,0.9867888013060109,-1.136847536647222, ,0.01377914063575879,-0.006073586425437671,0.003749720225988701,0.01828030328664302,-0.00018883065606326545,0.03634749278479135, ,0.4739241600036621
0.010710712076603384,0.020544725070066952,-0.08125475179803088, ,0.01095354491276768,0.0206483363229611,-0.08143720323763298, ,0.0003209230528627869, ,0.0022306751256307576,0.0017270506029962726,-0.003625634757446053,0.016312538580466187,-0.006435482063388315,-0.0413971354472363, ,0.004593891889870558, ,0.01753608689819059, ,3.079620006463456e-05, ,0.2184143311488176,-0.2162133522796636,0.09473416949,1.913420734296285,0.9867888013060109,-1.1363574642063785, ,0.015669904484555942,-0.00635343929500484,0.004205071678986273,0.04384113671965797,-0.00018327679388619665,-0.0012765616322193921, ,0.4873790740966797
0.010726780417489059,0.020555462185807626,-0.08128348065026472, ,0.010982815666051008,0.02067073239911548,-0.08148509245867792, ,0.0003456712193311135, ,0.002233460688481316,0.0016736830452017504,-0.0036802612759076147,-0.006602491318389644,-0.008809046548605115,-0.009719200810911505, ,0.004618861834016295, ,0.011008732535117891, ,3.132291188195711e-05, ,0.21853017214193096,-0.21625968867690895,0.09476657674000001,1.913420734296285,0.9867888013060109,-1.1363574642063785, ,0.015871707904076063,-0.006479233116375659,0.004245418848614073,0.033434092674995655,-0.00018120769319440313,0.02882756080629342, ,0.5008740425109863
0.010758431539524004,0.02057646317080098,-0.08133574628256408, ,0.01101219082413183,0.020692746158945126,-0.0815335480076061, ,0.00034211259884137855, ,0.0019302896422556707,0.0014113148352878288,-0.003186027294193846,-0.016645199429067177,-0.009192545839891679,0.007984019355384238, ,0.003983540835318648, ,0.01901487740490708, ,3.180658202238105e-05, ,0.2187695768610319,-0.21636008420427386,0.09482620608,1.913420734296285,0.9867888013060109,-1.1360307492458164, ,0.013888034766350178,-0.005732913648670209,0.0036660095558112777,0.022299986198694433,-0.00017689435991968886,0.03887561327123339, ,0.5140290260314941
0.010773730829036017,0.020588392788240255,-0.08135889893958928, ,0.011041670045941497,0.020714380141529112,-0.08158256568834311, ,0.00037106744891294874, ,0.0021004101732471996,0.0014629345692110916,-0.0035447519258166244,-0.009726902209684682,-0.012851207161717936,0.009089981455571926, ,0.004372318225524515, ,0.0161172625327781, ,3.237524629347791e-05, ,0.21887769512127106,-0.216398697868645,0.09485342817,1.9138401141832537,0.9867888013060109,-1.1357857130253945, ,0.015283772194954224,-0.006254729228693211,0.004046954146341464,0.011831865201988864,-0.00017487273789653266,0.02641691812721503, ,0.5302281379699707
0.010827421313122563,0.020638143318514046,-0.08145566829662358, ,0.011071252991212428,0.020735636878901034,-0.0816321413173989, ,0.00031638838255950276, ,0.0025085545246419758,0.0023555280634845605,-0.004420371611408394,0.016083249136555944,0.007128934545340135,-0.0838213444948849, ,0.005601878563831091, ,0.01759240202054787, ,3.271017785506432e-05, ,0.21919432716911427,-0.21655315252612947,0.09496490911000001,1.9157273236746146,0.9866521648062454,-1.1351025439407143, ,0.014953819974546296,-0.006478081958993691,0.005164984280155643,0.10254082808443087,0.0,0.017353116201384057, ,0.5428180694580078
0.010867972832688477,0.02066434672480831,-0.08152420592401736, ,0.011100939320477645,0.02075651889605744,-0.08168227072385123, ,0.00034535394306237565, ,0.001808595049219844,0.0008783478789621844,-0.002544948395848484,-0.0017186162168003997,-0.02174641264551206,0.029295940701436513, ,0.0034311713844707025, ,0.021814217944789577, ,3.313338766625314e-05, ,0.21949551375120901,-0.21666899351924285,0.09504268651000002,1.9157273236746146,0.9866521648062454,-1.1348575077202927, ,0.015667317411007225,-0.005509961593518878,0.002904067733819508,-0.028297480516318807,0.0,0.0015576317970905848, ,0.5599281787872314
0.010888205456089128,0.020673526977205207,-0.08155006886209115, ,0.011130728695069338,0.020777028710965338,-0.08173294974933122, ,0.00032089803560402224, ,0.0019058432190226366,0.0011371222139442533,-0.0021734104920120997,-0.0029365413797848797,-0.015518977927219752,0.007072441528479077, ,0.0031062837075399798, ,0.01579436453714509, ,3.34488639851902e-05, ,0.2196808593401904,-0.21673849811511087,0.09507250118,1.9153079437876455,0.9866521648062454,-1.1346941502400116, ,0.016742579668043538,-0.006525870064285482,0.002621595049374589,0.0055133392422008695,0.0,0.015123956196748747, ,0.5727221965789795
0.010909314247814333,0.020685561865205235,-0.08157777366049075, ,0.011160620777117877,0.02079716883457095,-0.08178417424800846, ,0.00034382014165730313, ,0.002113899689602004,0.001232206796865837,-0.002978699178450648,-0.003006114893314117,-0.015792595758076882,0.005710777435786272, ,0.003854809240889149, ,0.01607615648391549, ,3.394583258847548e-05, ,0.21985848219629756,-0.21680027997810467,0.09510490843000001,1.9153079437876455,0.9866521648062454,-1.134775828980152, ,0.01705859096862678,-0.005491527112027415,0.003449287899523604,0.005727346645932023,0.0,0.013831656073304395, ,0.5853941440582275
0.010931008431680836,0.02070045828587988,-0.08161138628170787, ,0.011190615229551205,0.02081694177080702,-0.08183594008657583, ,0.00036247552061063757, ,0.0022581867461387893,0.0015134308744672682,-0.003976028394616174,-0.0009527459701109578,-0.0152255026752829,0.0056864847376368426, ,0.004816501031560331, ,0.01525528287528381, ,3.4485970428882915e-05, ,0.2200206595866563,-0.21686206184109846,0.09514379713000001,1.91551763373113,0.9866521648062454,-1.1346941502400116, ,0.01615542076242267,-0.00629069081035933,0.004499664271186442,0.004187361598467582,0.0,0.011519964367262304, ,0.5970292091369629
0.010972984291141734,0.020730248107460405,-0.08169491002431084, ,0.011220711716093653,0.020836350016601383,-0.08188824314423356, ,0.0003316687918024844, ,0.0025633824287843777,0.0016766613697571332,-0.005506322463008465,0.0019205881093465127,-0.015835723526459886,0.0037235296818969106, ,0.0063009292879438, ,0.015951764580459455, ,3.490181365964687e-05, ,0.22029095523725414,-0.21696245736846337,0.09523713001,1.9157273236746146,0.9866521648062454,-1.1345307927597303, ,0.015813521339521876,-0.004553037660030519,0.0060565823269962,-0.0001453958608080689,0.0,0.0035938147274296697, ,0.6116201877593994
0.011004094948833249,0.020752406107496395,-0.08175629890498655, ,0.01125090990126474,0.020855396061884916,-0.08194107931267613, ,0.00032506668625781755, ,0.002335524990569459,0.0015704575688487287,-0.004301318586373422,0.0032845031401823625,-0.010972786167341968,-0.013403471853296546, ,0.005140268041514001, ,0.011453820134773344, ,3.52797738044179e-05, ,0.22048402355910976,-0.21701651649858295,0.09530583338000001,1.9161467035615838,0.9866521648062454,-1.1343674352794493, ,0.015613185514720433,-0.004611651398821568,0.004838642624544351,0.021446377272028107,0.0,0.008359703137352271, ,0.623056173324585
0.011027065132187146,0.020767451352497152,-0.08179539230738203, ,0.011281209450378455,0.02087408238959949,-0.0819944444960751, ,0.0003399724788360756, ,0.002524349989146814,0.0016247138993774803,-0.004362714580070839,-0.0023949220053930383,-0.011331593464883421,-0.012665383426978677, ,0.005295782909985885, ,0.011581910908172392, ,3.569097199675626e-05, ,0.22065392368234268,-0.2170628528958283,0.09535120353000001,1.916356393505068,0.9867888013060109,-1.134233816962724, ,0.017460338833205295,-0.004436087737288432,0.0049361052122714605,0.028225814817512695,0.0,0.018398970582233155, ,0.6343591213226318
0.011058449829757878,0.020785300135875345,-0.08185110998181229, ,0.011311610029542452,0.020892411475705957,-0.08204833461106548, ,0.0003383200855097593, ,0.0026881975992127595,0.0016664483186197745,-0.004419785692499606,-0.014859732053448697,-0.013047171464634737,0.0006234109846918281, ,0.00543488379808328, ,0.019774739397557, ,3.6081457070747525e-05, ,0.2208778829356952,-0.21711691202594788,0.09541342545,1.916356393505068,0.9867888013060109,-1.1339071020021618, ,0.01922547438380688,-0.0047087145876038745,0.005023277048249764,0.028225814817512695,0.0,0.03676089219928878, ,0.6459801197052002
0.01106767494371248,0.02079020150897476,-0.08186608393589408, ,0.011342111305656315,0.020910385789192597,-0.08210274558673014, ,0.0003817961693690744, ,0.0026531656795691825,0.001688716407988953,-0.004304672757773988,-0.013644244599623625,-0.013273006364397794,0.0011941046407669786, ,0.005331159234291959, ,0.019035180775753443, ,3.6591665178601195e-05, ,0.22094738753156323,-0.21713235749169632,0.09543027722000001,1.916356393505068,0.9867888013060109,-1.1339071020021618, ,0.01915175409858139,-0.005381950736576601,0.004913266971005552,0.02685075101020356,0.0,0.03553100332302616, ,0.6586630344390869
0.011109650598947906,0.020814626711765358,-0.08194018456741248, ,0.011372712946411647,0.02092800779208257,-0.08215767336458475, ,0.00035966435036360704, ,0.002235066310851927,0.0012148597260952145,-0.0039266158516893255,-0.013582058878343246,-0.013932194495212534,0.011368418538105747, ,0.0046786448481083995, ,0.01945709037584399, ,3.701625414615271e-05, ,0.22124085138078375,-0.21719413935469012,0.09551323978000001,1.9165660834485525,0.9867888013060109,-1.1335803870415995, ,0.015755759846998302,-0.0026045162776831936,0.004378452864211106,0.008139030437267051,0.0,0.02575614607640868, ,0.670159101486206
0.011132120355678619,0.020828415761969588,-0.08197964790601767, ,0.011403414620289985,0.02094527993944252,-0.08221311389856245, ,0.00037651584782365867, ,0.0023184696203903655,0.0013672397269077748,-0.004143471223653589,-0.009421825957495831,-0.012327870000453134,0.004136630647217064, ,0.004940951288239266, ,0.01551602983691758, ,3.747583248825611e-05, ,0.22140302877114246,-0.217225030286187,0.09555860993000001,1.9167757733920372,0.9869254378057764,-1.1334467687248742, ,0.016010956902053446,-0.003282100770256909,0.004641262097902099,0.013820961266051464,0.0006990808737121012,0.02275878254026022, ,0.6813681125640869
0.011158326109834641,0.020847084592020525,-0.08202777737793282, ,0.011434215996562747,0.020962204679390226,-0.08226906315499968, ,0.0003841701320113454, ,0.0026885825702302633,0.001840042057992586,-0.004989801278947801,0.013035234731998725,-0.0034255842280956784,-0.052637704834297555, ,0.005959223759477124, ,0.013477832493721866, ,3.8052932105763634e-05, ,0.2215652061615012,-0.21725592121768392,0.09561305411000001,1.9174048432224908,0.9869254378057764,-1.1332017325044526, ,0.01671309291272821,-0.0026590582887388594,0.00562259495940699,0.058617539525474036,0.0006990808737121012,0.003370741718868699, ,0.6907241344451904
0.011183371685851883,0.020863472887926237,-0.08207562789141443, ,0.011465116745289557,0.020978784453102802,-0.08232551711262004, ,0.00039385486978804125, ,0.0028415430929814773,0.001934517391869294,-0.0049191921980513195,-0.0042520258086745566,-0.005498989485440244,-0.030333742584715044, ,0.006001264580909968, ,0.006951158605449147, ,3.864134311518335e-05, ,0.2217351062847341,-0.21729453488205502,0.09566749829000001,1.917614533165975,0.9870620743055418,-1.133149792927868, ,0.018817557318752877,-0.0041047266375641095,0.00560281798100598,0.05561546799903101,0.0013481407919832863,0.029676167086692733, ,0.7004530429840088
0.011214809438730721,0.02088090072683073,-0.0821314126848549, ,0.011496116537317795,0.020995021694825,-0.08238247176252024, ,0.0003939390048339977, ,0.003092878965762368,0.001634789705537728,-0.006152193594164678,0.001197917835275666,-0.01997997614708245,0.005609114896807183, ,0.007077282225421587, ,0.020015854844710572, ,3.921322997916649e-05, ,0.22195134280521242,-0.21732542581355194,0.09572972021000001,1.9178242231094598,0.9870620743055418,-1.1329047567074462, ,0.02033796432886215,-0.002510826868815367,0.006752357575243748,-0.00409685417516689,0.0013481407919832863,0.0010921063069611273, ,0.7100272178649902
0.011245415208633477,0.020897568881497467,-0.08219992478170422, ,0.01152721504428107,0.021010918831876606,-0.08243992310815393, ,0.000387115687257212, ,0.003267597056807808,0.0019716135009245446,-0.007105288874866636,-0.018944607733635085,-0.012163906211225978,0.013079570590517516, ,0.008065332002961228, ,0.022513523899807757, ,3.974988598299059e-05, ,0.222144411127068,-0.2173485940121746,0.09580490503000001,1.917614533165975,0.9871987108053072,-1.1328528171308614, ,0.01935487284488492,-0.002175523071739884,0.007796775095447872,0.015823587936867386,0.003996505405487154,0.03691701849282216, ,0.7199652194976807
0.011278078018437096,0.020918283069725013,-0.08227249701322965, ,0.011558411938598608,0.021026478284661254,-0.08249786716531776, ,0.00037561285491904755, ,0.003006681731028455,0.0017636694921341393,-0.006668554985631259,-0.0085259138784303,-0.009910902735663064,0.015532090353199732, ,0.007524645553484395, ,0.013073530024855532, ,4.023981236804348e-05, ,0.22233747944892363,-0.21737176221079726,0.09588527501,1.9178242231094598,0.9873353473050727,-1.132719198814136, ,0.018127400488724122,-0.0021255597153065574,0.007323591503448277,0.0011641957211210637,0.008612336688392298,0.019197241963298764, ,0.7311141490936279
0.01132111803295087,0.020945000903476483,-0.0823568953164682, ,0.011589706893474218,0.021041702466673824,-0.0825562999621356, ,0.000348214561780204, ,0.0029040600373275533,0.0016121752182347727,-0.0061089131281192085,0.0028165219157864282,-0.003193863756751518,-0.0027854875199112097, ,0.0069535238003188326, ,0.004258350959109371, ,4.064149406186858e-05, ,0.22260777509952148,-0.21739493040941996,0.09597990418,1.9184532929399134,0.9874719838048381,-1.132585580497411, ,0.019414267912944105,-0.001603429004215219,0.006552370020567668,0.03253775478909836,0.013677958720202561,0.020214480903973635, ,0.7436790466308594
0.01137149139956059,0.020974397188510623,-0.08244732363005537, ,0.011621099582895058,0.021056593784508894,-0.08261521753904341, ,0.0003118475432908209, ,0.002614831909927636,0.0009025542884430771,-0.004903389032532689,-0.03268823013093341,-0.02052737383596072,0.07973969326658335, ,0.005629846726610296, ,0.038599138110320716, ,4.09343244472634e-05, ,0.22293985261311314,-0.21743354407379106,0.0960810148,1.9190823627703668,0.9874719838048381,-1.132177186796708, ,0.019948905099531383,-0.0012444509842061968,0.005379537831813577,-0.051859800135328586,0.011416071398035157,0.03745030404771105, ,0.7539570331573486
0.011396033595534573,0.020984550171557932,-0.08248604272039174, ,0.011652589681631156,0.02107115463786858,-0.08267461594877475, ,0.00032997154628988527, ,0.0027022488772579013,0.0008496201839974302,-0.004259317118485199,-0.015719694146207212,-0.025712057269513273,0.04435783670780803, ,0.005115250313280717, ,0.03013666656548443, ,4.1267568926129274e-05, ,0.22313292093496875,-0.21744126680666528,0.09612508866000001,1.9190823627703668,0.9876086203046036,-1.1321252472201235, ,0.02167586604807464,-0.0008884180839349787,0.004701538229043684,-0.03420794376258568,0.0035877928780678413,0.014734432861599435, ,0.7637381553649902
0.011396033595534573,0.020984550171557932,-0.08248604272039174, ,0.011684176865233657,0.021085387419570677,-0.08273449125634534, ,0.00039360052016879966, ,0.0027022488772579013,0.0008496201839974302,-0.004259317118485199,-0.015719694146207212,-0.025712057269513273,0.04435783670780803, ,0.005115250313280717, ,0.03013666656548443, ,4.186896430629844e-05, ,0.22313292093496875,-0.21744126680666528,0.09612508866000001,1.9190823627703668,0.9876086203046036,-1.1321252472201235, ,0.02167586604807464,-0.0008884180839349787,0.004701538229043684,-0.03420794376258568,0.0035877928780678413,0.014734432861599435, ,0.7712521553039551
0.011424316635299527,0.020996106231335965,-0.08252959067323223, ,0.011715860810034513,0.021099294515556657,-0.08279483953903799, ,0.00040743439795082933, ,0.0025260771389225578,0.0008244375611257053,-0.003848867816138396,-0.009362311455912233,-0.014847259375859933,0.03505597521721913, ,0.0046770232488291125, ,0.017552606243146317, ,4.2493856339438116e-05, ,0.2233646029211955,-0.2174489895395395,0.09617564397000002,1.9190823627703668,0.9878818933041345,-1.1319396893268134, ,0.020847307020753686,-0.0006789007642000421,0.004337911633986929,-0.02411620475726869,0.012162611847457245,0.011971357786911354, ,0.7791101932525635
0.011444694184768338,0.02100394096672588,-0.08256140144939876, ,0.011747641193145131,0.021112878304899656,-0.08285565688638741, ,0.0004361542109509164, ,0.002783233485056635,0.0010429922831562317,-0.004740084220331978,-0.012094498583453937,-0.015996781165350586,0.03366807839679957, ,0.005594874435669148, ,0.02005427388973116, ,4.317988413735865e-05, ,0.2235267803115542,-0.2174489895395395,0.09621194009,1.9190823627703668,0.9880185298038998,-1.13205110723051, ,0.021239243858207427,-0.000536098321540099,0.005272694975173785,-0.01998739107433498,0.010352180314253256,0.0162369200520635, ,0.7882401943206787
0.01148801815321382,0.021023256578757643,-0.08264726702188668, ,0.011779517692455504,0.02112614115981265,-0.08291693940016552, ,0.00041021995320016227, ,0.003743215598109268,0.0019288326453464778,-0.008182590380798615,-0.02974691518543584,-0.012991946784789446,0.03674329499303179, ,0.009202545502610722, ,0.0324602773806113, ,4.378575254718193e-05, ,0.2238125214279005,-0.21745671227241375,0.09630527297000001,1.9188726728268826,0.9880185298038998,-1.131642713529807, ,0.02264303067489162,0.0,0.008938727003367005,0.0,0.010352180314253256,0.047126685359671176, ,0.7964529991149902
0.011525449546197396,0.021044579881339894,-0.08273107363248929, ,0.01181148998663315,0.021139085445656337,-0.08297868319436635, ,0.00038994990753224044, ,0.003912531771526318,0.0021133276074645417,-0.008872303036736476,-0.001849227930430424,-0.006403656736572518,0.010442499839022859, ,0.009924304490258145, ,0.0066653138381799915, ,4.43281942071403e-05, ,0.22402875794837881,-0.21745671227241375,0.09639730956,1.9190823627703668,0.9881551663036653,-1.1315090952130817, ,0.023083663721350227,1.8446231040901008e-06,0.00972454915750916,0.0021349201486174792,0.01763441640373603,0.010633522826113006, ,0.8038651943206787
0.011525449546197396,0.021044579881339894,-0.08273107363248929, ,0.011843557755122148,0.02115171352094728,-0.08304088439519042, ,0.00045678568060557247, ,0.003912531771526318,0.0021133276074645417,-0.008872303036736476,-0.001849227930430424,-0.006403656736572518,0.010442499839022859, ,0.009924304490258145, ,0.0066653138381799915, ,4.502687646658282e-05, ,0.22402875794837881,-0.21745671227241375,0.09639730956,1.9190823627703668,0.9881551663036653,-1.1315090952130817, ,0.023083663721350227,1.8446231040901008e-06,0.00972454915750916,0.0021349201486174792,0.01763441640373603,0.010633522826113006, ,0.8112900257110596
0.01156954880944045,0.021072188295396862,-0.08282746283161596, ,0.01187572067814199,0.021164027737365917,-0.08310353914103019, ,0.0004223669315952217, ,0.0043020588394420975,0.002533928337976459,-0.009499993172506951,-0.004130698408791666,-0.0017529219803961837,-0.014919765603819407, ,0.010732118772996352, ,0.004487240514607433, ,4.562652851046622e-05, ,0.2242836081332282,-0.21745671227241375,0.09650490163000001,1.9197114326008204,0.9884284393031961,-1.1313235373197719, ,0.02465496013470272,-3.541001477196926e-05,0.01047259140039448,0.0388626855801436,0.015728834273435664,0.02468405401198274, ,0.818763017654419
0.011609415349761322,0.021096118128882794,-0.082918646803007, ,0.011907978436687068,0.02117603043976456,-0.0831666435824549, ,0.00039626796100823334, ,0.0042263651151761865,0.00267131626080782,-0.009367566212574212,0.0295357568985764,0.017641981082358954,-0.054724395162508974, ,0.010618351538680402, ,0.034403493426527744, ,4.6150454605972025e-05, ,0.22451529011945495,-0.21746443500528798,0.09660601225000001,1.9199211225443051,0.9887017123027271,-1.1313830156468836, ,0.02437630145349879,0.0,0.010486380197498356,0.05846982630669753,0.032085951977455104,-0.010907490219678217, ,0.8284330368041992
0.011653071609036128,0.021119680015922827,-0.08301174361914782, ,0.011940330712524911,0.021187723966175537,-0.08323019388219556, ,0.0003672441818855704, ,0.004279353698594291,0.0020245000563893223,-0.00945416863773842,-0.004685898094230059,-0.009764322728877234,0.042271921774095375, ,0.010573210164694058, ,0.010830492314463718, ,4.670712812925099e-05, ,0.2247778630371786,-0.21746443500528798,0.09670841916,1.9201308124877896,0.9888383488024926,-1.1312493973301583, ,0.027152200732037418,0.0,0.01037707590879479,-0.030863700976433765,0.026180077197361713,0.007951378133585513, ,0.8344821929931641
0.011653071609036128,0.021119680015922827,-0.08301174361914782, ,0.01197277718819585,0.02119911064781909,-0.08329418621512928, ,0.00043392937519145055, ,0.004279353698594291,0.0020245000563893223,-0.00945416863773842,-0.004685898094230059,-0.009764322728877234,0.042271921774095375, ,0.010573210164694058, ,0.010830492314463718, ,4.7416809266457986e-05, ,0.2247778630371786,-0.21746443500528798,0.09670841916,1.9201308124877896,0.9888383488024926,-1.1312493973301583, ,0.027152200732037418,0.0,0.01037707590879479,-0.030863700976433765,0.026180077197361713,0.007951378133585513, ,0.8401482105255127
0.01170125856867967,0.02114281168141976,-0.08311237025733154, ,0.012005317547011857,0.021210192809111395,-0.08335861676826521, ,0.00039702572060311045, ,0.004279247091368488,0.0019097623401341192,-0.00883268513488628,-0.02038375514007203,-0.025491191154767626,0.04023841484781947, ,0.009998773652644673, ,0.03263890694154387, ,4.8027781191646804e-05, ,0.22507904961927333,-0.21745671227241375,0.09681860381000001,1.9201308124877896,0.988974985302258,-1.1311974577535735, ,0.02735570526332395,0.00019789824660233315,0.009613042558841281,-0.02120667281296239,0.0069249997585013635,0.025294964212307945, ,0.8458330631256104
0.01170125856867967,0.02114281168141976,-0.08311237025733154, ,0.012037951473055121,0.021220972767672867,-0.08342348174072874, ,0.00046503937721729407, ,0.004279247091368488,0.0019097623401341192,-0.00883268513488628,-0.02038375514007203,-0.025491191154767626,0.04023841484781947, ,0.009998773652644673, ,0.03263890694154387, ,4.8791962224128596e-05, ,0.22507904961927333,-0.21745671227241375,0.09681860381000001,1.9201308124877896,0.988974985302258,-1.1311974577535735, ,0.02735570526332395,0.00019789824660233315,0.009613042558841281,-0.02120667281296239,0.0069249997585013635,0.025294964212307945, ,0.8515682220458984
0.011730255003501052,0.02115643300694931,-0.08317238755630306, ,0.01207067865117783,0.0212314528343357,-0.0834887773437463, ,0.0004707639875744771, ,0.004484555868978049,0.002036534970068621,-0.009226747299833594,-0.00608519313602558,-0.021775558515483615,0.025841532315992687, ,0.010459043061450908, ,0.022609830987695718, ,4.9558837167159545e-05, ,0.22526439520825473,-0.2174489895395395,0.0968847146,1.9201308124877896,0.9891116218020234,-1.1312271969171293, ,0.02882653145761567,0.00018562168860450397,0.010087911032298925,-0.017874327201385792,0.011859671200940274,0.007811917884744545, ,0.8571000099182129
0.011730255003501052,0.02115643300694931,-0.08317238755630306, ,0.012103498767000244,0.02124163531315258,-0.0835544998006315, ,0.0005409067454183857, ,0.004484555868978049,0.002036534970068621,-0.009226747299833594,-0.00608519313602558,-0.021775558515483615,0.025841532315992687, ,0.010459043061450908, ,0.022609830987695718, ,5.0479565415790775e-05, ,0.22526439520825473,-0.2174489895395395,0.0968847146,1.9201308124877896,0.9891116218020234,-1.1312271969171293, ,0.02882653145761567,0.00018562168860450397,0.010087911032298925,-0.017874327201385792,0.011859671200940274,0.007811917884744545, ,0.8626160621643066
0.011787806135847286,0.021183699581085548,-0.08329548298142175, ,0.01213641150691036,0.021251522501403938,-0.08362064534676811, ,0.00048151450351175757, ,0.004445428276593249,0.0022328033334407015,-0.009515932296559348,-0.0009503832235013839,0.0005658253706997964,0.01815820064697384, ,0.010737793570415665, ,0.0011060328171075848, ,5.1248972891931535e-05, ,0.2256350863862175,-0.21744126680666528,0.09702082505000001,1.9199211225443051,0.9895215313013198,-1.1312347356676566, ,0.028034546989208504,0.0005230611900493682,0.010548881801324505,0.0,0.03112471494512033,0.013542945178330918, ,0.8692901134490967
0.011822924913226809,0.021200114486433927,-0.08336735662232, ,0.012169416558062899,0.021261116689606695,-0.08368721022959692, ,0.0004754829742705912, ,0.004691863513152875,0.002227771099644692,-0.009667270904345677,0.002751432751247424,-0.0055181040663360255,0.01135223246027391, ,0.010974182157977689, ,0.00616601737243309, ,5.199373227988245e-05, ,0.22585904563957002,-0.21743354407379106,0.09709989874000001,1.9199211225443051,0.9896581678010851,-1.1311827960910716, ,0.03020271851001616,0.0009625998950180926,0.010697657165883145,0.0,0.02688341001286116,0.005834344517410641, ,0.8794581890106201
0.011891958721699935,0.021237696466920315,-0.08350971710932695, ,0.012202513608377851,0.02127042016152172,-0.08375419070859894, ,0.0003965886011585559, ,0.004759665725086017,0.002360037416812848,-0.009879942815012286,-0.012888373949132234,-0.016818621397836978,0.0065445129467928435, ,0.011217729915238117, ,0.02118905648293223, ,5.2546852749581094e-05, ,0.2262683504819039,-0.21742582134091684,0.09725674983,1.9205501923747585,0.9897948043008505,-1.1308041415539247, ,0.028870380760106718,0.0009620233630176952,0.010821203478260872,0.01522702615639355,0.009462949407385625,0.02593351914019424, ,0.8863370418548584
0.011891958721699935,0.021237696466920315,-0.08350971710932695, ,0.012235702346539874,0.021279435194162356,-0.08382158305528198, ,0.0004660066192837957, ,0.004759665725086017,0.002360037416812848,-0.009879942815012286,-0.012888373949132234,-0.016818621397836978,0.0065445129467928435, ,0.011217729915238117, ,0.02118905648293223, ,5.3372740424145474e-05, ,0.2262683504819039,-0.21742582134091684,0.09725674983,1.9205501923747585,0.9897948043008505,-1.1308041415539247, ,0.028870380760106718,0.0009620233630176952,0.010821203478260872,0.01522702615639355,0.009462949407385625,0.02593351914019424, ,0.8903610706329346
0.011891958721699935,0.021237696466920315,-0.08350971710932695, ,0.012268982461997199,0.021288164057801887,-0.08388938355316423, ,0.000537438821684087, ,0.004759665725086017,0.002360037416812848,-0.009879942815012286,-0.012888373949132234,-0.016818621397836978,0.0065445129467928435, ,0.011217729915238117, ,0.02118905648293223, ,5.435381864928396e-05, ,0.2262683504819039,-0.21742582134091684,0.09725674983,1.9205501923747585,0.9897948043008505,-1.1308041415539247, ,0.028870380760106718,0.0009620233630176952,0.010821203478260872,0.01522702615639355,0.009462949407385625,0.02593351914019424, ,0.8942000865936279
0.011937882169661525,0.02125914601426114,-0.08360194327206688, ,0.012302353644960278,0.021296609015982296,-0.08395758849776001, ,0.0005106138064748428, ,0.005015628407623946,0.0023512025452341358,-0.009604744646068242,0.002154013108635299,-0.011898065790093192,-0.002929785319228723, ,0.011087641834414401, ,0.01209147055897657, ,5.526517050682653e-05, ,0.22656953706399866,-0.21741809860804262,0.09735915674000001,1.9205501923747585,0.9900680773003815,-1.130945298621177, ,0.033053619490933744,0.0006600389235350865,0.010661855100401608,0.01522702615639355,0.019450099250918052,0.00885500276362925, ,0.89823317527771
0.011937882169661525,0.02125914601426114,-0.08360194327206688, ,0.012335815586401382,0.021304772325521516,-0.0840261941965646, ,0.0005834566062481872, ,0.005015628407623946,0.0023512025452341358,-0.009604744646068242,0.002154013108635299,-0.011898065790093192,-0.002929785319228723, ,0.011087641834414401, ,0.01209147055897657, ,5.633272415295415e-05, ,0.22656953706399866,-0.21741809860804262,0.09735915674000001,1.9205501923747585,0.9900680773003815,-1.130945298621177, ,0.033053619490933744,0.0006600389235350865,0.010661855100401608,0.01522702615639355,0.019450099250918052,0.00885500276362925, ,0.9022831916809082
0.011988613128714475,0.02128246728189016,-0.08370306525446093, ,0.012369367978053332,0.021312656236522037,-0.08409519696903808, ,0.0005474056173022318, ,0.005308950340217776,0.002679782501845919,-0.01091594664120366,0.016098556517416634,0.019736733659608482,0.0031534140404279403, ,0.012430771458188083, ,0.025469629414335563, ,5.730966835294589e-05, ,0.22691706004333878,-0.21740265314229418,0.09747323026000002,1.9205501923747585,0.9906146232994433,-1.1310642552754004, ,0.03488858145532014,0.0009880942213364738,0.012309746151468317,0.01522702615639355,0.05595552799923305,0.003477141767570826, ,0.9065899848937988
0.011988613128714475,0.02128246728189016,-0.08370306525446093, ,0.012403010512408144,0.021320262992378627,-0.08416459314659214, ,0.0006214191037927301, ,0.005308950340217776,0.002679782501845919,-0.01091594664120366,0.016098556517416634,0.019736733659608482,0.0031534140404279403, ,0.012430771458188083, ,0.025469629414335563, ,5.844344859251375e-05, ,0.22691706004333878,-0.21740265314229418,0.09747323026000002,1.9205501923747585,0.9906146232994433,-1.1310642552754004, ,0.03488858145532014,0.0009880942213364738,0.012309746151468317,0.01522702615639355,0.05595552799923305,0.003477141767570826, ,0.9103782176971436
0.011988613128714475,0.02128246728189016,-0.08370306525446093, ,0.01243674288271654,0.021327594829786484,-0.08423437907257347, ,0.0006965279214205361, ,0.005308950340217776,0.002679782501845919,-0.01091594664120366,0.016098556517416634,0.019736733659608482,0.0031534140404279403, ,0.012430771458188083, ,0.025469629414335563, ,5.9734408557403526e-05, ,0.22691706004333878,-0.21740265314229418,0.09747323026000002,1.9205501923747585,0.9906146232994433,-1.1310642552754004, ,0.03488858145532014,0.0009880942213364738,0.012309746151468317,0.01522702615639355,0.05595552799923305,0.003477141767570826, ,0.9141931533813477
0.012052017697430494,0.021311466784252418,-0.08383555565265441, ,0.012470564782986724,0.02133465397874934,-0.08430455110224956, ,0.000629027853562314, ,0.006587671438877949,0.003187429786763378,-0.014353783741294706,0.020783771239009527,-0.0024777760208436334,-0.016319983717518863, ,0.01611174203256777, ,0.02093093193395371, ,6.086425121028049e-05, ,0.22731864215279846,-0.21737176221079726,0.09761971103000001,1.9205501923747585,0.9910245327987396,-1.1312351515062087, ,0.03927853541327433,0.0038456946871853817,0.015786730941526265,0.01522702615639355,0.03658469962691491,-0.015311579682520242, ,0.9189431667327881
0.012052017697430494,0.021311466784252418,-0.08383555565265441, ,0.012504475907983339,0.02134144266258714,-0.08437510560279284, ,0.0007047915537752986, ,0.006587671438877949,0.003187429786763378,-0.014353783741294706,0.020783771239009527,-0.0024777760208436334,-0.016319983717518863, ,0.01611174203256777, ,0.02093093193395371, ,6.215136611393333e-05, ,0.22731864215279846,-0.21737176221079726,0.09761971103000001,1.9205501923747585,0.9910245327987396,-1.1312351515062087, ,0.03927853541327433,0.0038456946871853817,0.015786730941526265,0.01522702615639355,0.03658469962691491,-0.015311579682520242, ,0.9230170249938965
0.012052017697430494,0.021311466784252418,-0.08383555565265441, ,0.012538475953226496,0.021347963097944622,-0.0844460389532666, ,0.000781449599060343, ,0.006587671438877949,0.003187429786763378,-0.014353783741294706,0.020783771239009527,-0.0024777760208436334,-0.016319983717518863, ,0.01611174203256777, ,0.02093093193395371, ,6.359564494213658e-05, ,0.22731864215279846,-0.21737176221079726,0.09761971103000001,1.9205501923747585,0.9910245327987396,-1.1312351515062087, ,0.03927853541327433,0.0038456946871853817,0.015786730941526265,0.01522702615639355,0.03658469962691491,-0.015311579682520242, ,0.9271550178527832
0.012085115372093884,0.02132749881641935,-0.08390911006997741, ,0.012572564614990622,0.02135421749479881,-0.08451734754460882, ,0.0007799188917579506, ,0.007087588417015834,0.003534566587260994,-0.015944615258120905,0.010327265292974485,-0.01187983486237488,-0.010826844378836966, ,0.01780330941870923, ,0.01574108808932965, ,6.502393291122558e-05, ,0.22751171047465404,-0.21735631674504882,0.09770008101000001,1.9205501923747585,0.9911611692985051,-1.131183211929624, ,0.040210568456979144,0.003867348727872206,0.017408537180327872,0.01522702615639355,0.0273163777688277,-0.004131659402100104, ,0.9311790466308594
0.012085115372093884,0.02132749881641935,-0.08390911006997741, ,0.012606741590303866,0.02136020805646723,-0.08458902777961792, ,0.0008575849216208045, ,0.007087588417015834,0.003534566587260994,-0.015944615258120905,0.010327265292974485,-0.01187983486237488,-0.010826844378836966, ,0.01780330941870923, ,0.01574108808932965, ,6.660898096307386e-05, ,0.22751171047465404,-0.21735631674504882,0.09770008101000001,1.9205501923747585,0.9911611692985051,-1.131183211929624, ,0.040210568456979144,0.003867348727872206,0.017408537180327872,0.01522702615639355,0.0273163777688277,-0.004131659402100104, ,0.9351160526275635
0.012085115372093884,0.02132749881641935,-0.08390911006997741, ,0.012641006576946624,0.021365936979616203,-0.08466107607293741, ,0.0009359195444215372, ,0.007087588417015834,0.003534566587260994,-0.015944615258120905,0.010327265292974485,-0.01187983486237488,-0.010826844378836966, ,0.01780330941870923, ,0.01574108808932965, ,6.849878653580965e-05, ,0.22751171047465404,-0.21735631674504882,0.09770008101000001,1.9205501923747585,0.9911611692985051,-1.131183211929624, ,0.040210568456979144,0.003867348727872206,0.017408537180327872,0.01522702615639355,0.0273163777688277,-0.004131659402100104, ,0.9371540546417236
0.012224968627974283,0.021399697877582308,-0.08424857681065315, ,0.012675359273450692,0.021371406454268518,-0.08473348885104089, ,0.0006624136359396417, ,0.008292866977534038,0.004292529620259531,-0.02082336022221404,0.0032068183473077908,-0.009518720916871854,-0.0029947383007959925, ,0.02282125728771239, ,0.010044193178396608, ,6.978710508115419e-05, ,0.22824537009770537,-0.21727136668343236,0.09806822737000001,1.9205501923747585,0.9917077152975667,-1.131383847323988, ,0.04106315082582033,0.007546470010897437,0.022498321355932206,0.011731155390081592,0.0316242658710157,0.0016417766521749678, ,0.9390830993652344
0.012224968627974283,0.021399697877582308,-0.08424857681065315, ,0.012709799379098595,0.02137661866381143,-0.08480626255221628, ,0.0007393286777116574, ,0.008292866977534038,0.004292529620259531,-0.02082336022221404,0.0032068183473077908,-0.009518720916871854,-0.0029947383007959925, ,0.02282125728771239, ,0.010044193178396608, ,7.123632926433709e-05, ,0.22824537009770537,-0.21727136668343236,0.09806822737000001,1.9205501923747585,0.9917077152975667,-1.131383847323988, ,0.04106315082582033,0.007546470010897437,0.022498321355932206,0.011731155390081592,0.0316242658710157,0.0016417766521749678, ,0.9410321712493896
0.012224968627974283,0.021399697877582308,-0.08424857681065315, ,0.012744326593921797,0.02138157578500508,-0.08487939362655225, ,0.0008173071407088047, ,0.008292866977534038,0.004292529620259531,-0.02082336022221404,0.0032068183473077908,-0.009518720916871854,-0.0029947383007959925, ,0.02282125728771239, ,0.010044193178396608, ,7.284771330633377e-05, ,0.22824537009770537,-0.21727136668343236,0.09806822737000001,1.9205501923747585,0.9917077152975667,-1.131383847323988, ,0.04106315082582033,0.007546470010897437,0.022498321355932206,0.011731155390081592,0.0316242658710157,0.0016417766521749678, ,0.9430170059204102
0.012224968627974283,0.021399697877582308,-0.08424857681065315, ,0.012778940618700578,0.021386279987990104,-0.08495287853592143, ,0.0008961617747294508, ,0.008292866977534038,0.004292529620259531,-0.02082336022221404,0.0032068183473077908,-0.009518720916871854,-0.0029947383007959925, ,0.02282125728771239, ,0.010044193178396608, ,0.00040734885924190574, ,0.22824537009770537,-0.21727136668343236,0.09806822737000001,1.9205501923747585,0.9917077152975667,-1.131383847323988, ,0.04106315082582033,0.007546470010897437,0.022498321355932206,0.011731155390081592,0.0316242658710157,0.0016417766521749678, ,0.9449360370635986
0.012224968627974283,0.021399697877582308,-0.08424857681065315, ,0.012813641154962275,0.021390733436295793,-0.08502671375396656, ,0.0009757626800545036, ,0.008292866977534038,0.004292529620259531,-0.02082336022221404,0.0032068183473077908,-0.009518720916871854,-0.0029947383007959925, ,0.02282125728771239, ,0.010044193178396608, ,0.0004139583222746104, ,0.22824537009770537,-0.21727136668343236,0.09806822737000001,1.9205501923747585,0.9917077152975667,-1.131383847323988, ,0.04106315082582033,0.007546470010897437,0.022498321355932206,0.011731155390081592,0.0316242658710157,0.0016417766521749678, ,0.9468731880187988
0.012308746629389345,0.021442882878530498,-0.08446086290324244, ,0.012848427904980742,0.021394938286848457,-0.0851008957660849, ,0.0008385682015279581, ,0.009137412231981149,0.004916583832434217,-0.023321305451538137,0.044040576118034025,0.024123765758223763,-0.01995793109594137, ,0.025525445869611262, ,0.050214754012274446, ,0.00041883889559936154, ,0.22865467494003927,-0.21720186208756434,0.09828989296000001,1.9205501923747585,0.9922542612966285,-1.1315844827183519, ,0.04604412496771994,0.0076242862905053785,0.02524375835182251,0.010474056847702765,0.07436736598415708,-0.03979637187781114, ,0.9492461681365967
0.012308746629389345,0.021442882878530498,-0.08446086290324244, ,0.01288330057177535,0.021398896689978672,-0.08517542106941339, ,0.0009179544598378595, ,0.009137412231981149,0.004916583832434217,-0.023321305451538137,0.044040576118034025,0.024123765758223763,-0.01995793109594137, ,0.025525445869611262, ,0.050214754012274446, ,0.000424510663374799, ,0.22865467494003927,-0.21720186208756434,0.09828989296000001,1.9205501923747585,0.9922542612966285,-1.1315844827183519, ,0.04604412496771994,0.0076242862905053785,0.02524375835182251,0.010474056847702765,0.07436736598415708,-0.03979637187781114, ,0.9511752128601074
0.012308746629389345,0.021442882878530498,-0.08446086290324244, ,0.012918258859109586,0.021402610789430072,-0.08525028617281291, ,0.000998156349415456, ,0.009137412231981149,0.004916583832434217,-0.023321305451538137,0.044040576118034025,0.024123765758223763,-0.01995793109594137, ,0.025525445869611262, ,0.050214754012274446, ,0.00043095612052132325, ,0.22865467494003927,-0.21720186208756434,0.09828989296000001,1.9205501923747585,0.9922542612966285,-1.1315844827183519, ,0.04604412496771994,0.0076242862905053785,0.02524375835182251,0.010474056847702765,0.07436736598415708,-0.03979637187781114, ,0.9530670642852783
0.012308746629389345,0.021442882878530498,-0.08446086290324244, ,0.012953302471490326,0.021406082722367072,-0.08532548759685414, ,0.0010790654965678822, ,0.009137412231981149,0.004916583832434217,-0.023321305451538137,0.044040576118034025,0.024123765758223763,-0.01995793109594137, ,0.025525445869611262, ,0.050214754012274446, ,0.00043815733581072943, ,0.22865467494003927,-0.21720186208756434,0.09828989296000001,1.9205501923747585,0.9922542612966285,-1.1315844827183519, ,0.04604412496771994,0.0076242862905053785,0.02524375835182251,0.010474056847702765,0.07436736598415708,-0.03979637187781114, ,0.9549641609191895
0.012308746629389345,0.021442882878530498,-0.08446086290324244, ,0.012988431114166785,0.021409314619382728,-0.08540102187380198, ,0.0011606018769556472, ,0.009137412231981149,0.004916583832434217,-0.023321305451538137,0.044040576118034025,0.024123765758223763,-0.01995793109594137, ,0.025525445869611262, ,0.050214754012274446, ,0.0004460962868123219, ,0.22865467494003927,-0.21720186208756434,0.09828989296000001,1.9205501923747585,0.9922542612966285,-1.1315844827183519, ,0.04604412496771994,0.0076242862905053785,0.02524375835182251,0.010474056847702765,0.07436736598415708,-0.03979637187781114, ,0.9568400382995605
0.012407946261795344,0.021494014003925095,-0.08471793955597999, ,0.013023644493129571,0.02141230860450704,-0.08547688554760045, ,0.0009806931745244933, ,0.011345736322036662,0.005756603128062584,-0.029618099797551544,0.03703308129318887,0.028566713057370473,-0.01199481172011797, ,0.03223501276377791, ,0.04677054000955207, ,0.00045190712254832374, ,0.2291643753097381,-0.21708602109445096,0.09857896563000001,1.9205501923747585,0.9930740802952212,-1.1320896326602494, ,0.05523686935883049,0.01455697830318619,0.03217941721212122,0.00939075485933557,0.08922869456190086,-0.03376105786565012, ,0.9588770866394043
0.012407946261795344,0.021494014003925095,-0.08471793955597999, ,0.013058942315109503,0.02141506679521487,-0.08555307517385749, ,0.0010618286224440276, ,0.011345736322036662,0.005756603128062584,-0.029618099797551544,0.03703308129318887,0.028566713057370473,-0.01199481172011797, ,0.03223501276377791, ,0.04677054000955207, ,0.000458465418246127, ,0.2291643753097381,-0.21708602109445096,0.09857896563000001,1.9205501923747585,0.9930740802952212,-1.1320896326602494, ,0.05523686935883049,0.01455697830318619,0.03217941721212122,0.00939075485933557,0.08922869456190086,-0.03376105786565012, ,0.9609050750732422
0.012407946261795344,0.021494014003925095,-0.08471793955597999, ,0.013094324287576472,0.02141759130243389,-0.08562958731983059, ,0.0011437031384551695, ,0.011345736322036662,0.005756603128062584,-0.029618099797551544,0.03703308129318887,0.028566713057370473,-0.01199481172011797, ,0.03223501276377791, ,0.04677054000955207, ,0.00046575518122707424, ,0.2291643753097381,-0.21708602109445096,0.09857896563000001,1.9205501923747585,0.9930740802952212,-1.1320896326602494, ,0.05523686935883049,0.01455697830318619,0.03217941721212122,0.00939075485933557,0.08922869456190086,-0.03376105786565012, ,0.9628159999847412
0.012407946261795344,0.021494014003925095,-0.08471793955597999, ,0.013129790118739186,0.021419884230552633,-0.08570641856441075, ,0.0012262318407283619, ,0.011345736322036662,0.005756603128062584,-0.029618099797551544,0.03703308129318887,0.028566713057370473,-0.01199481172011797, ,0.03223501276377791, ,0.04677054000955207, ,0.0004737601986955088, ,0.2291643753097381,-0.21708602109445096,0.09857896563000001,1.9205501923747585,0.9930740802952212,-1.1320896326602494, ,0.05523686935883049,0.01455697830318619,0.03217941721212122,0.00939075485933557,0.08922869456190086,-0.03376105786565012, ,0.9647531509399414
0.012407946261795344,0.021494014003925095,-0.08471793955597999, ,0.013165339517543041,0.021421947677428596,-0.08578356549810802, ,0.001309349742354214, ,0.011345736322036662,0.005756603128062584,-0.029618099797551544,0.03703308129318887,0.028566713057370473,-0.01199481172011797, ,0.03223501276377791, ,0.04677054000955207, ,0.0004824642564419537, ,0.2291643753097381,-0.21708602109445096,0.09857896563000001,1.9205501923747585,0.9930740802952212,-1.1320896326602494, ,0.05523686935883049,0.01455697830318619,0.03217941721212122,0.00939075485933557,0.08922869456190086,-0.03376105786565012, ,0.9667501449584961
0.012407946261795344,0.021494014003925095,-0.08471793955597999, ,0.013200972193670132,0.021423783734396202,-0.08586102472303624, ,0.0013930061444688544, ,0.01338893780538891,0.0068779259476672025,-0.0352729809816432,0.061816134009799295,0.028905147325989693,-0.022324358849925032, ,0.038350393847124034, ,0.06823992499680216, ,0.0004918512862154269, ,0.2297667484739276,-0.21692384370409226,0.09893933425000001,1.920759882318243,0.9940305357935793,-1.132706200505843, ,0.06407626033657716,0.015659561313279006,0.03829041230769231,-0.0034022718158971967,0.1023200465015254,-0.06966090986472193, ,0.9688770771026611
0.012407946261795344,0.021494014003925095,-0.08471793955597999, ,0.013236687857537368,0.0214253944862748,-0.08593879285289788, ,0.0014771608048248742, ,0.01338893780538891,0.0068779259476672025,-0.0352729809816432,0.061816134009799295,0.028905147325989693,-0.022324358849925032, ,0.038350393847124034, ,0.06823992499680216, ,0.0005019054649767477, ,0.2297667484739276,-0.21692384370409226,0.09893933425000001,1.920759882318243,0.9940305357935793,-1.132706200505843, ,0.06407626033657716,0.015659561313279006,0.03829041230769231,-0.0034022718158971967,0.1023200465015254,-0.06966090986472193, ,0.9708011150360107
0.0125343345495419,0.021559225725282027,-0.08504981699713184, ,0.013272486220296082,0.021426782011376815,-0.08601686651296911, ,0.0012237622287320775, ,0.01338893780538891,0.0068779259476672025,-0.0352729809816432,0.061816134009799295,0.028905147325989693,-0.022324358849925032, ,0.038350393847124034, ,0.06823992499680216, ,0.0005091969474389228, ,0.2297667484739276,-0.21692384370409226,0.09893933425000001,1.920759882318243,0.9940305357935793,-1.132706200505843, ,0.06407626033657716,0.015659561313279006,0.03829041230769231,-0.0034022718158971967,0.1023200465015254,-0.06966090986472193, ,0.9728000164031982
0.0125343345495419,0.021559225725282027,-0.08504981699713184, ,0.013308366993830829,0.021427948381515516,-0.08609524234008471, ,0.001307392103955973, ,0.01338893780538891,0.0068779259476672025,-0.0352729809816432,0.061816134009799295,0.028905147325989693,-0.022324358849925032, ,0.038350393847124034, ,0.06823992499680216, ,0.0005171788990040934, ,0.2297667484739276,-0.21692384370409226,0.09893933425000001,1.920759882318243,0.9940305357935793,-1.132706200505843, ,0.06407626033657716,0.015659561313279006,0.03829041230769231,-0.0034022718158971967,0.1023200465015254,-0.06966090986472193, ,0.975229024887085
0.0125343345495419,0.021559225725282027,-0.08504981699713184, ,0.01334432989075823,0.021428895662013326,-0.08617391698262279, ,0.0013916462034455994, ,0.01338893780538891,0.0068779259476672025,-0.0352729809816432,0.061816134009799295,0.028905147325989693,-0.022324358849925032, ,0.038350393847124034, ,0.06823992499680216, ,0.0005258369911272765, ,0.2297667484739276,-0.21692384370409226,0.09893933425000001,1.920759882318243,0.9940305357935793,-1.132706200505843, ,0.06407626033657716,0.015659561313279006,0.03829041230769231,-0.0034022718158971967,0.1023200465015254,-0.06966090986472193, ,0.9774270057678223
0.012679232909859749,0.021630298626480617,-0.08543392380670385, ,0.013380374624426136,0.02142962591170951,-0.08625288710048981, ,0.001096617580985937, ,0.014939056596313238,0.007305685847232643,-0.03917643083381109,0.04022102236382883,0.005111710196705839,-0.01165795988698047, ,0.042559854212187914, ,0.04054340806552476, ,0.0005314328792631458, ,0.2297667484739276,-0.21692384370409226,0.09893933425000001,1.920759882318243,0.9940305357935793,-1.132706200505843, ,0.06407626033657716,0.015659561313279006,0.03829041230769231,-0.0034022718158971967,0.1023200465015254,-0.06966090986472193, ,0.9794511795043945
0.012679232909859749,0.021630298626480617,-0.08543392380670385, ,0.013416500908912573,0.021430141182968668,-0.08633214936510589, ,0.0011791676125077568, ,0.014939056596313238,0.007305685847232643,-0.03917643083381109,0.04022102236382883,0.005111710196705839,-0.01165795988698047, ,0.042559854212187914, ,0.04054340806552476, ,0.0005377215659936759, ,0.2304540716997336,-0.2167462208479851,0.09935414705000001,1.9203405024312739,0.9949869912919374,-1.133322768351437, ,0.06982850740137658,0.01995309957074659,0.04225148944297083,-0.00924081676651843,0.08394313551963027,-0.05414467037609449, ,0.981687068939209
0.012679232909859749,0.021630298626480617,-0.08543392380670385, ,0.013452708459024552,0.021430443521688256,-0.08641170045938898, ,0.0012626375848213502, ,0.014939056596313238,0.007305685847232643,-0.03917643083381109,0.04022102236382883,0.005111710196705839,-0.01165795988698047, ,0.042559854212187914, ,0.04054340806552476, ,0.0005446919123285574, ,0.2304540716997336,-0.2167462208479851,0.09935414705000001,1.9203405024312739,0.9949869912919374,-1.133322768351437, ,0.06982850740137658,0.01995309957074659,0.04225148944297083,-0.00924081676651843,0.08394313551963027,-0.05414467037609449, ,0.9836151599884033
0.012679232909859749,0.021630298626480617,-0.08543392380670385, ,0.013488996990297524,0.02143053496730695,-0.08649153707774022, ,0.0013469109905877021, ,0.014939056596313238,0.007305685847232643,-0.03917643083381109,0.04022102236382883,0.005111710196705839,-0.01165795988698047, ,0.042559854212187914, ,0.04054340806552476, ,0.0005523320940262636, ,0.2304540716997336,-0.2167462208479851,0.09935414705000001,1.9203405024312739,0.9949869912919374,-1.133322768351437, ,0.06982850740137658,0.01995309957074659,0.04225148944297083,-0.00924081676651843,0.08394313551963027,-0.05414467037609449, ,0.9855210781097412
0.012679232909859749,0.021630298626480617,-0.08543392380670385, ,0.013525366218993458,0.021430417552812466,-0.0865716559260292, ,0.0014318967825164043, ,0.014939056596313238,0.007305685847232643,-0.03917643083381109,0.04022102236382883,0.005111710196705839,-0.01165795988698047, ,0.042559854212187914, ,0.04054340806552476, ,0.0005606298741063592, ,0.2304540716997336,-0.2167462208479851,0.09935414705000001,1.9203405024312739,0.9949869912919374,-1.133322768351437, ,0.06982850740137658,0.01995309957074659,0.04225148944297083,-0.00924081676651843,0.08394313551963027,-0.05414467037609449, ,0.9874300956726074
0.012817020448114362,0.021688593419840974,-0.08579902470915829, ,0.013561815862101017,0.021430093304749643,-0.08665205372157767, ,0.0011615511242416153, ,0.01575842043914629,0.00631413808423663,-0.04217372635797953,0.0222540061116207,-0.006047689682011908,0.06771685141210798, ,0.045462284911797476, ,0.023058228941157444, ,0.0005662459605562214, ,0.23111050399404268,-0.21651453886175837,0.09974562663000001,1.919501742657336,0.9958068102905301,-1.133909597033475, ,0.07402257531861994,0.03087083329813623,0.04512411195467422,-0.10158506236748577,0.09792120538560252,-0.06767113314540148, ,0.9897680282592773
0.012817020448114362,0.021688593419840974,-0.08579902470915829, ,0.013598345637333637,0.021429564243228574,-0.0867327271931462, ,0.001244735110073719, ,0.01575842043914629,0.00631413808423663,-0.04217372635797953,0.0222540061116207,-0.006047689682011908,0.06771685141210798, ,0.045462284911797476, ,0.023058228941157444, ,0.0005725282674961983, ,0.23111050399404268,-0.21651453886175837,0.09974562663000001,1.919501742657336,0.9958068102905301,-1.133909597033475, ,0.07402257531861994,0.03087083329813623,0.04512411195467422,-0.10158506236748577,0.09792120538560252,-0.06767113314540148, ,0.9917171001434326
0.012817020448114362,0.021688593419840974,-0.08579902470915829, ,0.013634955263128688,0.021428832381932425,-0.08681367308091763, ,0.001328911011596233, ,0.01575842043914629,0.00631413808423663,-0.04217372635797953,0.0222540061116207,-0.006047689682011908,0.06771685141210798, ,0.045462284911797476, ,0.023058228941157444, ,0.0005794675587264738, ,0.23111050399404268,-0.21651453886175837,0.09974562663000001,1.919501742657336,0.9958068102905301,-1.133909597033475, ,0.07402257531861994,0.03087083329813623,0.04512411195467422,-0.10158506236748577,0.09792120538560252,-0.06767113314540148, ,0.9936749935150146
0.012817020448114362,0.021688593419840974,-0.08579902470915829, ,0.013671644458646826,0.021427899728125668,-0.08689488813648269, ,0.0014139519269147482, ,0.01575842043914629,0.00631413808423663,-0.04217372635797953,0.0222540061116207,-0.006047689682011908,0.06771685141210798, ,0.045462284911797476, ,0.023058228941157444, ,0.0005870537802554581, ,0.23111050399404268,-0.21651453886175837,0.09974562663000001,1.919501742657336,0.9958068102905301,-1.133909597033475, ,0.07402257531861994,0.03087083329813623,0.04512411195467422,-0.10158506236748577,0.09792120538560252,-0.06767113314540148, ,0.9955730438232422
0.012817020448114362,0.021688593419840974,-0.08579902470915829, ,0.013708412943770586,0.021426768282661796,-0.08697636912282455, ,0.0014997575978011538, ,0.01575842043914629,0.00631413808423663,-0.04217372635797953,0.0222540061116207,-0.006047689682011908,0.06771685141210798, ,0.045462284911797476, ,0.023058228941157444, ,0.0005952763371702843, ,0.23111050399404268,-0.21651453886175837,0.09974562663000001,1.919501742657336,0.9958068102905301,-1.133909597033475, ,0.07402257531861994,0.03087083329813623,0.04512411195467422,-0.10158506236748577,0.09792120538560252,-0.06767113314540148, ,0.9975230693817139
0.012999020638584928,0.021762250681551725,-0.08627966688360507, ,0.013745260439103436,0.021425440039991764,-0.0870581128143043, ,0.0011297315234904814, ,0.01674687823726797,0.006411313824433592,-0.04354800877258246,0.0544896049139617,0.009967135756280316,-0.003729132467998217, ,0.04709556182599558, ,0.055392275823649764, ,0.0006000482584767146, ,0.23196000461020738,-0.2161206794851729,0.10026155005000001,1.9190823627703668,0.997036538788419,-1.1347490006864616, ,0.07967837242524835,0.037375715462178334,0.04671205724340176,-0.05082621469809279,0.10960807506806347,-0.10219543589197846, ,0.9994621276855469
0.012999020638584928,0.021762250681551725,-0.08627966688360507, ,0.013782186665968985,0.02142391698817164,-0.08714011599664509, ,0.0012116894778185102, ,0.01674687823726797,0.006411313824433592,-0.04354800877258246,0.0544896049139617,0.009967135756280316,-0.003729132467998217, ,0.04709556182599558, ,0.055392275823649764, ,0.0006054610126301818, ,0.23196000461020738,-0.2161206794851729,0.10026155005000001,1.9190823627703668,0.997036538788419,-1.1347490006864616, ,0.07967837242524835,0.037375715462178334,0.04671205724340176,-0.05082621469809279,0.10960807506806347,-0.10219543589197846, ,1.0013611316680908
0.012999020638584928,0.021762250681551725,-0.08627966688360507, ,0.013819191346409604,0.021422201108870772,-0.08722237546691783, ,0.0012949954343184685, ,0.01674687823726797,0.006411313824433592,-0.04354800877258246,0.0544896049139617,0.009967135756280316,-0.003729132467998217, ,0.04709556182599558, ,0.055392275823649764, ,0.0006115095601888509, ,0.23196000461020738,-0.2161206794851729,0.10026155005000001,1.9190823627703668,0.997036538788419,-1.1347490006864616, ,0.07967837242524835,0.037375715462178334,0.04671205724340176,-0.05082621469809279,0.10960807506806347,-0.10219543589197846, ,1.0032382011413574
0.012999020638584928,0.021762250681551725,-0.08627966688360507, ,0.01385627420318569,0.021420294377379905,-0.0873048880335256, ,0.0013794550352323675, ,0.01674687823726797,0.006411313824433592,-0.04354800877258246,0.0544896049139617,0.009967135756280316,-0.003729132467998217, ,0.04709556182599558, ,0.055392275823649764, ,0.0006181873469283598, ,0.23196000461020738,-0.2161206794851729,0.10026155005000001,1.9190823627703668,0.997036538788419,-1.1347490006864616, ,0.07967837242524835,0.037375715462178334,0.04671205724340176,-0.05082621469809279,0.10960807506806347,-0.10219543589197846, ,1.0051310062408447
0.012999020638584928,0.021762250681551725,-0.08627966688360507, ,0.013893434959774622,0.021418198762618818,-0.08738765051618858, ,0.0014649151616880683, ,0.01674687823726797,0.006411313824433592,-0.04354800877258246,0.0544896049139617,0.009967135756280316,-0.003729132467998217, ,0.04709556182599558, ,0.055392275823649764, ,0.0006254867246418055, ,0.23196000461020738,-0.2161206794851729,0.10026155005000001,1.9190823627703668,0.997036538788419,-1.1347490006864616, ,0.07967837242524835,0.037375715462178334,0.04671205724340176,-0.05082621469809279,0.10960807506806347,-0.10219543589197846, ,1.0070221424102783
0.012999020638584928,0.021762250681551725,-0.08627966688360507, ,0.013930673340369532,0.021415916227144983,-0.08747065974592934, ,0.0015512537861868778, ,0.017088348999946133,0.005553594506780746,-0.042310770283513696,0.08262346774194229,0.04782741045481444,-0.06211123656023905, ,0.04596798195999005, ,0.0954670781687991, ,0.0006333992636293703, ,0.23284039615786897,-0.2156804837113421,0.10073080703000001,1.9188726728268826,0.998266267286308,-1.135670083079589, ,0.08626994687133707,0.04821999062930426,0.04564129375358167,0.0,0.1461214140885739,-0.1265355752717844, ,1.0089070796966553
0.013174724593985734,0.021822936941821296,-0.08671590518959514, ,0.013967989069878655,0.021413448727160896,-0.08755391256505704, ,0.0012244204702584701, ,0.017088348999946133,0.005553594506780746,-0.042310770283513696,0.08262346774194229,0.04782741045481444,-0.06211123656023905, ,0.04596798195999005, ,0.0954670781687991, ,0.0006384079179228373, ,0.23284039615786897,-0.2156804837113421,0.10073080703000001,1.9188726728268826,0.998266267286308,-1.135670083079589, ,0.08626994687133707,0.04821999062930426,0.04564129375358167,0.0,0.1461214140885739,-0.1265355752717844, ,1.0112581253051758
0.013174724593985734,0.021822936941821296,-0.08671590518959514, ,0.014005381873923934,0.021410798212522588,-0.08763740582715357, ,0.0013072923444749731, ,0.017088348999946133,0.005553594506780746,-0.042310770283513696,0.08262346774194229,0.04782741045481444,-0.06211123656023905, ,0.04596798195999005, ,0.0954670781687991, ,0.0006440287954568889, ,0.23284039615786897,-0.2156804837113421,0.10073080703000001,1.9188726728268826,0.998266267286308,-1.135670083079589, ,0.08626994687133707,0.04821999062930426,0.04564129375358167,0.0,0.1461214140885739,-0.1265355752717844, ,1.0131490230560303
0.013174724593985734,0.021822936941821296,-0.08671590518959514, ,0.014042851478840027,0.021407966626747436,-0.08772113639705703, ,0.0013915223429951122, ,0.017088348999946133,0.005553594506780746,-0.042310770283513696,0.08262346774194229,0.04782741045481444,-0.06211123656023905, ,0.04596798195999005, ,0.0954670781687991, ,0.0006502579083530407, ,0.23284039615786897,-0.2156804837113421,0.10073080703000001,1.9188726728268826,0.998266267286308,-1.135670083079589, ,0.08626994687133707,0.04821999062930426,0.04564129375358167,0.0,0.1461214140885739,-0.1265355752717844, ,1.0151331424713135
0.013174724593985734,0.021822936941821296,-0.08671590518959514, ,0.01408039761167379,0.021404955907022145,-0.08780510115084768, ,0.001476922341366937, ,0.017088348999946133,0.005553594506780746,-0.042310770283513696,0.08262346774194229,0.04782741045481444,-0.06211123656023905, ,0.04596798195999005, ,0.0954670781687991, ,0.0006570898458159656, ,0.23284039615786897,-0.2156804837113421,0.10073080703000001,1.9188726728268826,0.998266267286308,-1.135670083079589, ,0.08626994687133707,0.04821999062930426,0.04564129375358167,0.0,0.1461214140885739,-0.1265355752717844, ,1.0171310901641846
0.013352985582378577,0.021864556093891416,-0.08714688006798829, ,0.014118020000182379,0.02140176798421093,-0.08788929697583242, ,0.0011621675266237981, ,0.017828339179449915,0.003439105294242116,-0.04284473446552111,0.06183821986782748,0.029264090267783868,0.09949726932114557, ,0.0465333041438431, ,0.0684120460313213, ,0.0006612298268061937, ,0.23381346050002125,-0.21512444694439795,0.10119487885000002,1.917614533165975,1.0000425417832586,-1.137036837087502, ,0.09947268507177229,0.05797003149570604,0.04603702751445087,-0.1839740059412245,0.18282371086240543,-0.1555501550962691, ,1.0197172164916992
0.013352985582378577,0.021864556093891416,-0.08714688006798829, ,0.014155718372833125,0.021398404782863385,-0.08797372077052978, ,0.0012431180656009332, ,0.017828339179449915,0.003439105294242116,-0.04284473446552111,0.06183821986782748,0.029264090267783868,0.09949726932114557, ,0.0465333041438431, ,0.0684120460313213, ,0.0006659606254955817, ,0.23381346050002125,-0.21512444694439795,0.10119487885000002,1.917614533165975,1.0000425417832586,-1.137036837087502, ,0.09947268507177229,0.05797003149570604,0.04603702751445087,-0.1839740059412245,0.18282371086240543,-0.1555501550962691, ,1.0230140686035156
0.013352985582378577,0.021864556093891416,-0.08714688006798829, ,0.014193492458802068,0.02139486822122261,-0.08805836944465484, ,0.0013258474236590313, ,0.017828339179449915,0.003439105294242116,-0.04284473446552111,0.06183821986782748,0.029264090267783868,0.09949726932114557, ,0.0465333041438431, ,0.0684120460313213, ,0.0006712822932227062, ,0.23381346050002125,-0.21512444694439795,0.10119487885000002,1.917614533165975,1.0000425417832586,-1.137036837087502, ,0.09947268507177229,0.05797003149570604,0.04603702751445087,-0.1839740059412245,0.18282371086240543,-0.1555501550962691, ,1.02972412109375
0.013371590061409484,0.021867887399148703,-0.08719197921490238, ,0.014231341987972886,0.021391160211232944,-0.08814323991910394, ,0.001367968974167766, ,0.017769643283142764,0.0032350667037562126,-0.04239239458726003,0.05650823509852755,0.024474073521788972,0.10179989226268626, ,0.04607972436798908, ,0.06157941212173425, ,0.0006768557866702668, ,0.23391385602738618,-0.21506266508140415,0.10124284158,1.9174048432224908,1.000179178283024,-1.1371482549911982, ,0.09968166130091469,0.05886907044570147,0.04551089005714286,-0.1849396234057145,0.17801775060693875,-0.15148689976358823, ,1.0319390296936035
0.013371590061409484,0.021867887399148703,-0.08719197921490238, ,0.014269266690936049,0.021387282658548588,-0.0882283291259405, ,0.00145286798643036, ,0.017769643283142764,0.0032350667037562126,-0.04239239458726003,0.05650823509852755,0.024474073521788972,0.10179989226268626, ,0.04607972436798908, ,0.06157941212173425, ,0.0006830146136524898, ,0.23391385602738618,-0.21506266508140415,0.10124284158,1.9174048432224908,1.000179178283024,-1.1371482549911982, ,0.09968166130091469,0.05886907044570147,0.04551089005714286,-0.1849396234057145,0.17801775060693875,-0.15148689976358823, ,1.0339250564575195
0.013371590061409484,0.021867887399148703,-0.08719197921490238, ,0.014307266298987643,0.021383237462540918,-0.08831363400837841, ,0.0015389883230064203, ,0.017769643283142764,0.0032350667037562126,-0.04239239458726003,0.05650823509852755,0.024474073521788972,0.10179989226268626, ,0.04607972436798908, ,0.06157941212173425, ,0.0006897545641198436, ,0.23391385602738618,-0.21506266508140415,0.10124284158,1.9174048432224908,1.000179178283024,-1.1371482549911982, ,0.09968166130091469,0.05886907044570147,0.04551089005714286,-0.1849396234057145,0.17801775060693875,-0.15148689976358823, ,1.0359041690826416
0.013371590061409484,0.021867887399148703,-0.08719197921490238, ,0.014345340544128513,0.02137902651630697,-0.08839915152076817, ,0.001626173404473732, ,0.017769643283142764,0.0032350667037562126,-0.04239239458726003,0.05650823509852755,0.024474073521788972,0.10179989226268626, ,0.04607972436798908, ,0.06157941212173425, ,0.0006970703363101083, ,0.23391385602738618,-0.21506266508140415,0.10124284158,1.9174048432224908,1.000179178283024,-1.1371482549911982, ,0.09968166130091469,0.05886907044570147,0.04551089005714286,-0.1849396234057145,0.17801775060693875,-0.15148689976358823, ,1.0379011631011963
0.013371590061409484,0.021867887399148703,-0.08719197921490238, ,0.014383489159063316,0.021374651706677288,-0.08848487862858151, ,0.0017142958105450295, ,0.017769643283142764,0.0032350667037562126,-0.04239239458726003,0.05650823509852755,0.024474073521788972,0.10179989226268626, ,0.04607972436798908, ,0.06157941212173425, ,0.000704955805102627, ,0.23391385602738618,-0.21506266508140415,0.10124284158,1.9174048432224908,1.000179178283024,-1.1371482549911982, ,0.09968166130091469,0.05886907044570147,0.04551089005714286,-0.1849396234057145,0.17801775060693875,-0.15148689976358823, ,1.0398762226104736
0.013726545284719694,0.021903453772450187,-0.08789338758710234, ,0.014421711877198904,0.021370114914224,-0.08857081230839592, ,0.0011075247997281358, ,0.016317605769408154,-0.0010978016445152754,-0.025517612455446936,-0.05395292641202383,-0.08723634171658015,-0.049430172502131754, ,0.03030871115575361, ,0.10257234893082881, ,0.0007080524896766694, ,0.23607622123216904,-0.21374980049278597,0.10198950462,1.916356393505068,1.0015455432806784,-1.1382624340281624, ,0.11190677070574384,0.07888357569282692,0.02690677621621622,0.02679118015648377,0.02064575741097792,-0.01552347173054618, ,1.0418081283569336
0.013726545284719694,0.021903453772450187,-0.08789338758710234, ,0.0144600084326442,0.021365418013268776,-0.08865694954788032, ,0.0011876352703874867, ,0.016317605769408154,-0.0010978016445152754,-0.025517612455446936,-0.05395292641202383,-0.08723634171658015,-0.049430172502131754, ,0.03030871115575361, ,0.10257234893082881, ,0.0007117134269340038, ,0.23607622123216904,-0.21374980049278597,0.10198950462,1.916356393505068,1.0015455432806784,-1.1382624340281624, ,0.11190677070574384,0.07888357569282692,0.02690677621621622,0.02679118015648377,0.02064575741097792,-0.01552347173054618, ,1.0437321662902832
0.013726545284719694,0.021903453772450187,-0.08789338758710234, ,0.014498378560208594,0.021360562871890816,-0.08874328734577877, ,0.0012699554066424304, ,0.016317605769408154,-0.0010978016445152754,-0.025517612455446936,-0.05395292641202383,-0.08723634171658015,-0.049430172502131754, ,0.03030871115575361, ,0.10257234893082881, ,0.0007159425328408858, ,0.23607622123216904,-0.21374980049278597,0.10198950462,1.916356393505068,1.0015455432806784,-1.1382624340281624, ,0.11190677070574384,0.07888357569282692,0.02690677621621622,0.02679118015648377,0.02064575741097792,-0.01552347173054618, ,1.0456700325012207
0.013726545284719694,0.021903453772450187,-0.08789338758710234, ,0.014536821995401019,0.021355551351934947,-0.08882982271189682, ,0.0013541256046718337, ,0.016317605769408154,-0.0010978016445152754,-0.025517612455446936,-0.05395292641202383,-0.08723634171658015,-0.049430172502131754, ,0.03030871115575361, ,0.10257234893082881, ,0.0007207409018020208, ,0.23607622123216904,-0.21374980049278597,0.10198950462,1.916356393505068,1.0015455432806784,-1.1382624340281624, ,0.11190677070574384,0.07888357569282692,0.02690677621621622,0.02679118015648377,0.02064575741097792,-0.01552347173054618, ,1.0476281642913818
0.013726545284719694,0.021903453772450187,-0.08789338758710234, ,0.014575338474428925,0.021350385309019625,-0.08891655266708565, ,0.0014398615853739051, ,0.016317605769408154,-0.0010978016445152754,-0.025517612455446936,-0.05395292641202383,-0.08723634171658015,-0.049430172502131754, ,0.03030871115575361, ,0.10257234893082881, ,0.0007261074740674826, ,0.23607622123216904,-0.21374980049278597,0.10198950462,1.916356393505068,1.0015455432806784,-1.1382624340281624, ,0.11190677070574384,0.07888357569282692,0.02690677621621622,0.02679118015648377,0.02064575741097792,-0.01552347173054618, ,1.0495421886444092
0.013883788289113186,0.021878153979229625,-0.08815396698186047, ,0.014613927734197379,0.02134506659254504,-0.0890034742432264, ,0.0012405435736899744, ,0.01578388633479305,-0.002834000388116146,-0.027344028387261222,-0.008788808033621589,-0.016226930958035277,0.017967942829487216, ,0.03169950337896253, ,0.0184537570243324, ,0.0007299181118424641, ,0.23715740383456047,-0.2128462407465017,0.10226302181000001,1.9159370136180989,1.0022287257795057,-1.138737844806504, ,0.10882676784228298,0.09405048717390563,0.02890891382940109,-0.08156740151599312,0.11941284657331046,-0.09735664859735145, ,1.0515010356903076
0.013883788289113186,0.021878153979229625,-0.08815396698186047, ,0.01465258951230798,0.021339597045700952,-0.0890905844832168, ,0.0013260283689592006, ,0.01578388633479305,-0.002834000388116146,-0.027344028387261222,-0.008788808033621589,-0.016226930958035277,0.017967942829487216, ,0.03169950337896253, ,0.0184537570243324, ,0.0007343012754977342, ,0.23715740383456047,-0.2128462407465017,0.10226302181000001,1.9159370136180989,1.0022287257795057,-1.138737844806504, ,0.10882676784228298,0.09405048717390563,0.02890891382940109,-0.08156740151599312,0.11941284657331046,-0.09735664859735145, ,1.05344820022583
0.013883788289113186,0.021878153979229625,-0.08815396698186047, ,0.014691323547057648,0.0213339785054747,-0.08917788044095414, ,0.0014130247382027625, ,0.01578388633479305,-0.002834000388116146,-0.027344028387261222,-0.008788808033621589,-0.016226930958035277,0.017967942829487216, ,0.03169950337896253, ,0.0184537570243324, ,0.000739255461356895, ,0.23715740383456047,-0.2128462407465017,0.10226302181000001,1.9159370136180989,1.0022287257795057,-1.138737844806504, ,0.10882676784228298,0.09405048717390563,0.02890891382940109,-0.08156740151599312,0.11941284657331046,-0.09735664859735145, ,1.0553841590881348
0.013883788289113186,0.021878153979229625,-0.08815396698186047, ,0.014730129577438085,0.021328212802659344,-0.0892653591813216, ,0.0015013065959470122, ,0.01578388633479305,-0.002834000388116146,-0.027344028387261222,-0.008788808033621589,-0.016226930958035277,0.017967942829487216, ,0.03169950337896253, ,0.0184537570243324, ,0.0007447775710278378, ,0.23715740383456047,-0.2128462407465017,0.10226302181000001,1.9159370136180989,1.0022287257795057,-1.138737844806504, ,0.10882676784228298,0.09405048717390563,0.02890891382940109,-0.08156740151599312,0.11941284657331046,-0.09735664859735145, ,1.057265043258667
0.013883788289113186,0.021878153979229625,-0.08815396698186047, ,0.014769007343133996,0.02132230176186183,-0.08935301778017234, ,0.001590693961164913, ,0.01578388633479305,-0.002834000388116146,-0.027344028387261222,-0.008788808033621589,-0.016226930958035277,0.017967942829487216, ,0.03169950337896253, ,0.0184537570243324, ,0.0007508633004532845, ,0.23715740383456047,-0.2128462407465017,0.10226302181000001,1.9159370136180989,1.0022287257795057,-1.138737844806504, ,0.10882676784228298,0.09405048717390563,0.02890891382940109,-0.08156740151599312,0.11941284657331046,-0.09735664859735145, ,1.0591330528259277
0.014035437706046651,0.02185134825908428,-0.08843819274934323, ,0.014807956584523026,0.021316247201510496,-0.08944085332431484, ,0.00137420769464495, ,0.016766323162435384,-0.002553115591005057,-0.03285633835287482,0.11835802792160224,0.11967873079775014,0.07134957484747603, ,0.03697522091302286, ,0.16831988322218575, ,0.0007553157604117964, ,0.23822314097120345,-0.2119349582673432,0.10257024254000001,1.9144691840137071,1.0045515462755181,-1.1407136279094836, ,0.1171567179734207,0.09693252457453604,0.03579508206741574,-0.20217100293944779,0.3032856410978562,-0.2506313431728662, ,1.0612289905548096
0.014035437706046651,0.02185134825908428,-0.08843819274934323, ,0.014846977042674033,0.021310050933863678,-0.08952886291149796, ,0.0014632704096643346, ,0.016766323162435384,-0.002553115591005057,-0.03285633835287482,0.11835802792160224,0.11967873079775014,0.07134957484747603, ,0.03697522091302286, ,0.16831988322218575, ,0.0007603367153710342, ,0.23822314097120345,-0.2119349582673432,0.10257024254000001,1.9144691840137071,1.0045515462755181,-1.1407136279094836, ,0.1171567179734207,0.09693252457453604,0.03579508206741574,-0.20217100293944779,0.3032856410978562,-0.2506313431728662, ,1.063127040863037
0.014035437706046651,0.02185134825908428,-0.08843819274934323, ,0.014886068459346079,0.02130371476501735,-0.08961704365039495, ,0.001553436374362716, ,0.016766323162435384,-0.002553115591005057,-0.03285633835287482,0.11835802792160224,0.11967873079775014,0.07134957484747603, ,0.03697522091302286, ,0.16831988322218575, ,0.0007659219242371728, ,0.23822314097120345,-0.2119349582673432,0.10257024254000001,1.9144691840137071,1.0045515462755181,-1.1407136279094836, ,0.1171567179734207,0.09693252457453604,0.03579508206741574,-0.20217100293944779,0.3032856410978562,-0.2506313431728662, ,1.065096139907837
0.014035437706046651,0.02185134825908428,-0.08843819274934323, ,0.01492523057698764,0.021297240494913345,-0.08970539266058986, ,0.0016445553753386927, ,0.016766323162435384,-0.002553115591005057,-0.03285633835287482,0.11835802792160224,0.11967873079775014,0.07134957484747603, ,0.03697522091302286, ,0.16831988322218575, ,0.0007720662141050156, ,0.23822314097120345,-0.2119349582673432,0.10257024254000001,1.9144691840137071,1.0045515462755181,-1.1407136279094836, ,0.1171567179734207,0.09693252457453604,0.03579508206741574,-0.20217100293944779,0.3032856410978562,-0.2506313431728662, ,1.0671851634979248
0.014035437706046651,0.02185134825908428,-0.08843819274934323, ,0.014964463138735907,0.02129062991734704,-0.08979390707256094, ,0.0017365064467262064, ,0.016766323162435384,-0.002553115591005057,-0.03285633835287482,0.11835802792160224,0.11967873079775014,0.07134957484747603, ,0.03697522091302286, ,0.16831988322218575, ,0.0007787637157204406, ,0.23822314097120345,-0.2119349582673432,0.10257024254000001,1.9144691840137071,1.0045515462755181,-1.1407136279094836, ,0.1171567179734207,0.09693252457453604,0.03579508206741574,-0.20217100293944779,0.3032856410978562,-0.2506313431728662, ,1.0698981285095215
0.014147733559392592,0.021839316725383293,-0.08866494381162732, ,0.015003765888414853,0.0212838848199759,-0.08988258402766627, ,0.0015886924326600036, ,0.019133465115033874,-0.0011014391432562912,-0.040639699512703936,0.07775145310102724,0.08925073840829002,0.01303300391190741, ,0.044932035698122826, ,0.11836752895736481, ,0.000784349431009679, ,0.23897996879287745,-0.2113016941716568,0.10281783393,1.913420734296285,1.0066010937719998,-1.1423848964649301, ,0.1170122583951551,0.09947268507177229,0.041159719689922485,-0.1735970488013339,0.2964840736566718,-0.24508512098884125, ,1.072106122970581
0.014147733559392592,0.021839316725383293,-0.08866494381162732, ,0.015043138570535136,0.021277006984327045,-0.08997142067812909, ,0.001680721327754907, ,0.019133465115033874,-0.0011014391432562912,-0.040639699512703936,0.07775145310102724,0.08925073840829002,0.01303300391190741, ,0.044932035698122826, ,0.11836752895736481, ,0.0007904889645490298, ,0.23897996879287745,-0.2113016941716568,0.10281783393,1.913420734296285,1.0066010937719998,-1.1423848964649301, ,0.1170122583951551,0.09947268507177229,0.041159719689922485,-0.1735970488013339,0.2964840736566718,-0.24508512098884125, ,1.0742900371551514
0.014147733559392592,0.021839316725383293,-0.08866494381162732, ,0.01508258093029256,0.021269998185805328,-0.09006041418702168, ,0.0017735277767740366, ,0.019133465115033874,-0.0011014391432562912,-0.040639699512703936,0.07775145310102724,0.08925073840829002,0.01303300391190741, ,0.044932035698122826, ,0.11836752895736481, ,0.0007971763034077033, ,0.23897996879287745,-0.2113016941716568,0.10281783393,1.913420734296285,1.0066010937719998,-1.1423848964649301, ,0.1170122583951551,0.09947268507177229,0.041159719689922485,-0.1735970488013339,0.2964840736566718,-0.24508512098884125, ,1.0764400959014893
0.014147733559392592,0.021839316725383293,-0.08866494381162732, ,0.015122092713567131,0.021262860193701716,-0.09014956172825124, ,0.0018670212244650123, ,0.019133465115033874,-0.0011014391432562912,-0.040639699512703936,0.07775145310102724,0.08925073840829002,0.01303300391190741, ,0.044932035698122826, ,0.11836752895736481, ,0.0008044049853067392, ,0.23897996879287745,-0.2113016941716568,0.10281783393,1.913420734296285,1.0066010937719998,-1.1423848964649301, ,0.1170122583951551,0.09947268507177229,0.041159719689922485,-0.1735970488013339,0.2964840736566718,-0.24508512098884125, ,1.079280138015747
0.014432715032880974,0.021825628383511406,-0.0892682190464082, ,0.01516167366692219,0.021255594771200762,-0.09023886048654418, ,0.0013410681618084895, ,0.021775172722907184,-0.00032997000835648007,-0.046839340384628364,-0.03823875365688656,-0.03256722115785646,-0.011275453074223151, ,0.05165453353758926, ,0.0502254987362128, ,0.0008080067515919858, ,0.24064807909370994,-0.20977259306256035,0.10345949748000001,1.911952904691893,1.0093338237673086,-1.144694933278999, ,0.11730153468290579,0.11351308798860141,0.049162998518518526,-0.04707942361454662,0.10239457389333431,-0.07858608646214282, ,1.0812811851501465
0.014432715032880974,0.021825628383511406,-0.0892682190464082, ,0.015201323537603248,0.021248203675389057,-0.09032830765743144, ,0.0014310716929290283, ,0.021775172722907184,-0.00032997000835648007,-0.046839340384628364,-0.03823875365688656,-0.03256722115785646,-0.011275453074223151, ,0.05165453353758926, ,0.0502254987362128, ,0.000812160517867566, ,0.24064807909370994,-0.20977259306256035,0.10345949748000001,1.911952904691893,1.0093338237673086,-1.144694933278999, ,0.11730153468290579,0.11351308798860141,0.049162998518518526,-0.04707942361454662,0.10239457389333431,-0.07858608646214282, ,1.0832040309906006
0.014432715032880974,0.021825628383511406,-0.0892682190464082, ,0.015241042073536892,0.02124068865726301,-0.09041790044723308, ,0.0015222727782502536, ,0.021775172722907184,-0.00032997000835648007,-0.046839340384628364,-0.03823875365688656,-0.03256722115785646,-0.011275453074223151, ,0.05165453353758926, ,0.0502254987362128, ,0.0008168632480687758, ,0.24064807909370994,-0.20977259306256035,0.10345949748000001,1.911952904691893,1.0093338237673086,-1.144694933278999, ,0.11730153468290579,0.11351308798860141,0.049162998518518526,-0.04707942361454662,0.10239457389333431,-0.07858608646214282, ,1.0851330757141113
0.014432715032880974,0.021825628383511406,-0.0892682190464082, ,0.015280829023330108,0.021233051461737002,-0.09050763607304343, ,0.001614496613476935, ,0.021775172722907184,-0.00032997000835648007,-0.046839340384628364,-0.03823875365688656,-0.03256722115785646,-0.011275453074223151, ,0.05165453353758926, ,0.0502254987362128, ,0.0008221108359990927, ,0.24064807909370994,-0.20977259306256035,0.10345949748000001,1.911952904691893,1.0093338237673086,-1.144694933278999, ,0.11730153468290579,0.11351308798860141,0.049162998518518526,-0.04707942361454662,0.10239457389333431,-0.07858608646214282, ,1.0870521068572998
0.014432715032880974,0.021825628383511406,-0.0892682190464082, ,0.0153206841362688,0.0212252938276512,-0.09059751176271587, ,0.001707603535121619, ,0.021775172722907184,-0.00032997000835648007,-0.046839340384628364,-0.03823875365688656,-0.03256722115785646,-0.011275453074223151, ,0.05165453353758926, ,0.0502254987362128, ,0.0008278983699802856, ,0.24064807909370994,-0.20977259306256035,0.10345949748000001,1.911952904691893,1.0093338237673086,-1.144694933278999, ,0.11730153468290579,0.11351308798860141,0.049162998518518526,-0.04707942361454662,0.10239457389333431,-0.07858608646214282, ,1.088947057723999
0.014664883655256717,0.021815678548674618,-0.08977996538531165, ,0.015360607162317111,0.02121741748777991,-0.09068752475484775, ,0.001290585721481544, ,0.022655679731580794,-0.0013849483064418198,-0.05109461569185963,-0.10041544715997977,-0.08030239648287306,0.07227691361431345, ,0.0559093700430465, ,0.12857444797319656, ,0.0008309028333017224, ,0.2418064890248436,-0.20858329219992977,0.10396505058000001,1.911114144917955,1.0100170062661358,-1.1452520227974812, ,0.11474841784579294,0.12569131332247785,0.05274440900662252,-0.0975852628543396,0.0586946022420984,-0.04301469821451768, ,1.0929841995239258
0.014664883655256717,0.021815678548674618,-0.08977996538531165, ,0.015400597852116171,0.021209424168839235,-0.0907776722987655, ,0.0013799416066210028, ,0.022655679731580794,-0.0013849483064418198,-0.05109461569185963,-0.10041544715997977,-0.08030239648287306,0.07227691361431345, ,0.0559093700430465, ,0.12857444797319656, ,0.0008344450189360403, ,0.2418064890248436,-0.20858329219992977,0.10396505058000001,1.911114144917955,1.0100170062661358,-1.1452520227974812, ,0.11474841784579294,0.12569131332247785,0.05274440900662252,-0.0975852628543396,0.0586946022420984,-0.04301469821451768, ,1.0950491428375244
0.014664883655256717,0.021815678548674618,-0.08977996538531165, ,0.015440655956983258,0.021201315591495247,-0.09086795165450928, ,0.0014707068468062783, ,0.022655679731580794,-0.0013849483064418198,-0.05109461569185963,-0.10041544715997977,-0.08030239648287306,0.07227691361431345, ,0.0559093700430465, ,0.12857444797319656, ,0.000838523620396747, ,0.2418064890248436,-0.20858329219992977,0.10396505058000001,1.911114144917955,1.0100170062661358,-1.1452520227974812, ,0.11474841784579294,0.12569131332247785,0.05274440900662252,-0.0975852628543396,0.0586946022420984,-0.04301469821451768, ,1.096987009048462
0.014664883655256717,0.021815678548674618,-0.08977996538531165, ,0.015480781228910799,0.021193093470372057,-0.09095836009281777, ,0.001562662828987131, ,0.022655679731580794,-0.0013849483064418198,-0.05109461569185963,-0.10041544715997977,-0.08030239648287306,0.07227691361431345, ,0.0559093700430465, ,0.12857444797319656, ,0.0008431359720438194, ,0.2418064890248436,-0.20858329219992977,0.10396505058000001,1.911114144917955,1.0100170062661358,-1.1452520227974812, ,0.11474841784579294,0.12569131332247785,0.05274440900662252,-0.0975852628543396,0.0586946022420984,-0.04301469821451768, ,1.0988690853118896
0.014664883655256717,0.021815678548674618,-0.08977996538531165, ,0.015520973420565305,0.021184759514059688,-0.09104889489511374, ,0.0016556360153584858, ,0.022655679731580794,-0.0013849483064418198,-0.05109461569185963,-0.10041544715997977,-0.08030239648287306,0.07227691361431345, ,0.0559093700430465, ,0.12857444797319656, ,0.000848278377381254, ,0.2418064890248436,-0.20858329219992977,0.10396505058000001,1.911114144917955,1.0100170062661358,-1.1452520227974812, ,0.11474841784579294,0.12569131332247785,0.05274440900662252,-0.0975852628543396,0.0586946022420984,-0.04301469821451768, ,1.1007521152496338
0.014876479418558434,0.02179728161185349,-0.09025963940550326, ,0.015561232285285736,0.021176315425122404,-0.09113955335348843, ,0.0012762186526663274, ,0.021451228917888344,-0.002111330742698038,-0.04866583336951824,-0.02632757909443631,-0.0017228404165500993,0.05717289136095394, ,0.05322571067766429, ,0.026378715403971346, ,0.0008509698256534872, ,0.24294945349022884,-0.2073013185428085,0.10449134432000001,1.9094366253700787,1.0112467347640248,-1.1461731051906083, ,0.11164346065702443,0.12652925541129437,0.05089077162939297,-0.14685020284987754,0.15157443220607983,-0.12858022920352624, ,1.1031301021575928
0.014876479418558434,0.02179728161185349,-0.09025963940550326, ,0.015601557577083576,0.021167762900106236,-0.09123033277068653, ,0.0013653855695813356, ,0.021451228917888344,-0.002111330742698038,-0.04866583336951824,-0.02632757909443631,-0.0017228404165500993,0.05717289136095394, ,0.05322571067766429, ,0.026378715403971346, ,0.0008541849240530361, ,0.24294945349022884,-0.2073013185428085,0.10449134432000001,1.9094366253700787,1.0112467347640248,-1.1461731051906083, ,0.11164346065702443,0.12652925541129437,0.05089077162939297,-0.14685020284987754,0.15157443220607983,-0.12858022920352624, ,1.1050469875335693
0.014876479418558434,0.02179728161185349,-0.09025963940550326, ,0.015641949050641223,0.021159103629547316,-0.09132123046009075, ,0.0014560873812795418, ,0.021451228917888344,-0.002111330742698038,-0.04866583336951824,-0.02632757909443631,-0.0017228404165500993,0.05717289136095394, ,0.05322571067766429, ,0.026378715403971346, ,0.0008579234486320828, ,0.24294945349022884,-0.2073013185428085,0.10449134432000001,1.9094366253700787,1.0112467347640248,-1.1461731051906083, ,0.11164346065702443,0.12652925541129437,0.05089077162939297,-0.14685020284987754,0.15157443220607983,-0.12858022920352624, ,1.1069002151489258
0.014876479418558434,0.02179728161185349,-0.09025963940550326, ,0.01568240646131079,0.02115033929797992,-0.09141224374570796, ,0.0015480793005457952, ,0.021451228917888344,-0.002111330742698038,-0.04866583336951824,-0.02632757909443631,-0.0017228404165500993,0.05717289136095394, ,0.05322571067766429, ,0.026378715403971346, ,0.0008621836699401921, ,0.24294945349022884,-0.2073013185428085,0.10449134432000001,1.9094366253700787,1.0112467347640248,-1.1461731051906083, ,0.11164346065702443,0.12652925541129437,0.05089077162939297,-0.14685020284987754,0.15157443220607983,-0.12858022920352624, ,1.108814001083374
0.014876479418558434,0.02179728161185349,-0.09025963940550326, ,0.01572292956511348,0.021141471583944416,-0.09150336996215241, ,0.0016411673713707504, ,0.021451228917888344,-0.002111330742698038,-0.04866583336951824,-0.02632757909443631,-0.0017228404165500993,0.05717289136095394, ,0.05322571067766429, ,0.026378715403971346, ,0.0008669627110532629, ,0.24294945349022884,-0.2073013185428085,0.10449134432000001,1.9094366253700787,1.0112467347640248,-1.1461731051906083, ,0.11164346065702443,0.12652925541129437,0.05089077162939297,-0.14685020284987754,0.15157443220607983,-0.12858022920352624, ,1.1107141971588135
