NicholasDascanio/dvrk_moveit_final/test/execution/third_experiment_notsharpbends/thirdexp_600vel5.0/thirdexp_600vel5.0_21.csv
Current Position (x),Current Position (y),Current Position (z), ,Planned Position (x),Planned Position (y),Planned Position (z), ,Position Error,,Cartesian linear Velocity(x),Cartesian linear Velocity(y),Cartesian linear Velocity(z),Cartesian Angular Velocity(x),Cartesian Angular Velocity(y),Cartesian Angular Velocity(z), ,Total Linear Velocity, ,Total Angular Velocity, ,MSE, ,Joint 1 Position,Joint 2 Position,Joint 3 Position,Joint 4 Position,Joint 5 Position,Joint 6 Position, ,Joint 1 Velocity,Joint 2 Velocity,Joint 3 Velocity,Joint 4 Velocity,Joint 5 Velocity,Joint 6 Velocity, ,Time Stamp
0.009829203488959201,0.020718951402849253,-0.07754978356794942, ,0.009885937015530411,0.02061575179815562,-0.07758976491755802, ,0.00012436784054832502, ,0.0001068958030087165,0.00010899224354109864,-0.0007993158037252128,0.008684852762084859,-0.010299379570545022,-0.11187493161350132, ,0.0008137639559097487, ,0.013472337846006047, ,1.0363986712360419e-05, ,0.11102200779985155,-0.15062418197887484,0.09380213698,3.275147227284786,1.3285166872193777,-0.660792154893177, ,0.00022613821503190718,0.00016501767316011236,0.0008122826635288111,0.0,0.0,-0.11265736604674692, ,0.018536090850830078
0.009845065817836705,0.020720417766226414,-0.07757572403246261, ,0.009915993359563903,0.020612052102885192,-0.07772748819624363, ,0.00019951489812792715, ,0.0010716464028708895,0.000311648689566845,-0.002812585788987073,0.02044876826252298,-0.0007538330757633927,-0.22976626478863535, ,0.0030259196517599214, ,0.02046265837041892, ,1.4721942667102372e-05, ,0.11102200779985155,-0.1506087365131264,0.09383065536000001,3.2766150568891774,1.328653323719143,-0.662782183820106, ,0.0001980747878623082,0.00035933550053338537,0.00292486439955931,0.08429566252396216,0.0,-0.14794367126891483, ,0.043546199798583984
0.009850309611702635,0.020722467689792277,-0.07762384786899901, ,0.00994626202898209,0.02060831339038599,-0.07786513457446606, ,0.00028365003911484877, ,0.0001508339281321375,0.0001982482277909245,-0.0033650171897921114,-0.006155334599202738,-0.006634341887134887,-0.002678296099825867, ,0.003374224936380859, ,0.009050007506741576, ,1.8985399305971902e-05, ,0.11102200779985155,-0.15055467738300682,0.09387472922000001,3.2766150568891774,1.3282434142198467,-0.6657150797146395, ,0.0001746586683979571,0.004193571405677298,0.0033047326804979257,-0.026985869257363765,-0.0013007116808448594,-0.02881797819760401, ,0.061895132064819336
0.009868484492349174,0.02073785506713944,-0.077771573061901, ,0.009976741724862152,0.020604536152850725,-0.0780027022037319, ,0.00028794833130612354, ,0.001410652962384263,0.0016337298638928453,-0.012237137447088856,0.010720884652699582,-0.0035247890393407854,-0.023237409748882568, ,0.012426043133170075, ,0.011285443327526668, ,2.1320978788029152e-05, ,0.11104517599847423,-0.15047745005426458,0.09401991370000001,3.2766150568891774,1.3278335047205503,-0.6612152102563815, ,0.0002857032696594468,0.003162152717045261,0.012502991773940349,0.002272038346616244,0.01206061355056701,-0.02189337775849598, ,0.08292603492736816
0.009880919902335394,0.02074951173556066,-0.07785997374049104, ,0.010007431151942794,0.02060072088124279,-0.07814018924276814, ,0.00034156191579605595, ,0.0010214703616014328,0.001039265932986247,-0.008071326415829994,0.06957106275663125,-0.04354156635646508,-0.4441895883074259, ,0.008201815987326892, ,0.08207314262050973, ,2.378928894025539e-05, ,0.11105289873134845,-0.15044655912276766,0.09411324658,3.2768247468326623,1.3282434142198467,-0.6647349348329528, ,0.0003311468551719491,0.0032501133641663926,0.008504437544046985,0.009542257144644054,0.037788492529182115,-0.4409797258019419, ,0.1091451644897461
0.009912410896532988,0.02076320854737851,-0.07802987590251134, ,0.010038329018619714,0.020596868065297765,-0.07827759385751333, ,0.00032386527241905574, ,0.001548430720358103,0.0007395362699604171,-0.008658424644166125,-0.15152511925238404,0.06829781752632332,0.4180260170184937, ,0.008826826661322798, ,0.1662060576352308, ,2.5175940279231225e-05, ,0.11107606692997113,-0.15034616359540276,0.09427398654000001,3.2780828864935696,1.3270136857219577,-0.6675710744862913, ,0.001211806034885819,0.0031513595713748947,0.007717447441860466,0.059339227966000406,-0.11832155971463852,0.4908107924365771, ,0.13152813911437988
0.009938102288072334,0.020765271182583936,-0.07818765334306672, ,0.010069434036942219,0.020592978193524163,-0.07841491422110898, ,0.0003139751726313896, ,0.0011657288414865141,-0.0003049190173514371,-0.0046885984565521194,-0.08248061609540412,-0.001153655866610967,-0.34356476006247194, ,0.004840955982633902, ,0.08248868377583823, ,2.6040048193662854e-05, ,0.11115329425871337,-0.15006814521193068,0.09443343021000002,3.278292576437054,1.3274235952212539,-0.6711724778030032, ,0.0009142321116785542,0.0087712325365406,0.003700072362369338,0.06826837334444477,-0.10347042045289287,-0.26815861818014886, ,0.1511991024017334
0.009961846267991136,0.020759831198238692,-0.07831191236389698, ,0.010100744922608294,0.02058905175320501,-0.07855214851388932, ,0.0003258402413202098, ,0.0012564808033627898,0.00010634986489783558,-0.006652412733978414,0.01657305221128221,0.05871870512492472,0.6224678521891871, ,0.006770867705558952, ,0.06101272308393718, ,2.6838094039804087e-05, ,0.11116873972446181,-0.14983646322570393,0.09453842970000001,3.2793410261544764,1.3255106842245379,-0.6623432192787431, ,0.0006919920681455687,0.012443868549497873,0.007256861740318907,0.04950796218705817,0.07633594610985141,0.670587124341706, ,0.1735081672668457
0.009977067610895332,0.020767647791382245,-0.07842834223000306, ,0.010132260394961025,0.02058508923039865,-0.07868929492337304, ,0.0003542721222330505, ,0.0009055924250619183,0.00025467155826796526,-0.0056509238229564196,0.2784403873472344,-0.045224381153982904,-0.10552531547562172, ,0.0057286905393620765, ,0.2820891595773867, ,2.7771693842358543e-05, ,0.11117646245733605,-0.1495738903079803,0.09470046595,3.2793410261544764,1.3308395077153898,-0.6555802088637871, ,0.0,0.014599529470533966,0.008089797623158965,0.021486377999057074,0.2858827361004141,-0.10915291399488111, ,0.1918339729309082
0.010017243406752214,0.02076418162990023,-0.07857019483602981, ,0.01016397917698395,0.020581091109940247,-0.07882635164425421, ,0.00034737563985465095, ,0.001864143234243732,-0.00033793042900028187,-0.00706199448266898,-0.026977569298462966,0.005115167590235404,-0.17799752056246565, ,0.007311702472466184, ,0.027458225856107722, ,2.8736351221303337e-05, ,0.11126913525182673,-0.14926498099301133,0.09485083559000002,3.2812282356458375,1.3319325997135134,-0.6587585568172942, ,0.003994178723888876,0.015249388005539254,0.006712520657395703,0.08688135209336906,-0.028676140306091526,-0.08896667916168007, ,0.21041297912597656
0.010039492664242117,0.020758658526852526,-0.07872775584204902, ,0.010195899995297414,0.020577057875442728,-0.0789633168783932, ,0.00033605215613628336, ,0.0013633778956038982,-0.0003235232784974517,-0.008082933351721843,-0.03388659007550062,0.0034452712151428356,-0.0409231989293157, ,0.00820349182765049, ,0.03406128074792332, ,2.9440214813526548e-05, ,0.11133091711482053,-0.14893290347941968,0.09499602007,3.2812282356458375,1.3309761442151555,-0.6588770976329655, ,0.00271217009829973,0.017861272644169163,0.007713710179176756,0.028302945458347967,-0.020249416841982417,-0.009375374083321925, ,0.22763705253601074
0.01004560545612483,0.020758261197872482,-0.07877139555638701, ,0.0102280215801539,0.02057299000929803,-0.07910018883480736, ,0.000419173085438439, ,0.001321014834014059,-0.0001807528651527158,-0.008278371634678093,-0.03243079566339102,0.006678322652664369,0.011115236313573557, ,0.00838505746621864, ,0.03311127394006248, ,3.073610684812067e-05, ,0.11134636258056899,-0.14884795341780319,0.09503879764,3.2812282356458375,1.3309761442151555,-0.6587137401526844, ,0.0023860994934821866,0.01664274667809028,0.00797237813813814,0.023787767114264724,-0.01576243693418316,0.038019732992249894, ,0.24604010581970215
0.010090697635135665,0.02075397185688871,-0.0789762392326879, ,0.010260342665434226,0.020568887992678354,-0.07923696572966248, ,0.00036195825632339123, ,0.002156194235521528,-0.00025807593798486315,-0.008459548258866412,-0.014350167765486815,0.013739818840649082,-0.0843527654987954, ,0.008733826968468791, ,0.01986730714884991, ,3.1402773212888677e-05, ,0.111415867176437,-0.14844637130834354,0.09524101888000001,3.2831154451371978,1.3309761442151555,-0.6580603102315599, ,0.003948645123862938,0.017021872925286237,0.008304906944734099,0.1017114611686059,-0.007304205279966442,0.01828899386200193, ,0.26293516159057617
0.010119244026519439,0.020751081476659085,-0.07913177747483813, ,0.0102928619886432,0.020564752305537094,-0.07937364578626276, ,0.0003512293223158013, ,0.0014890199314325574,-0.00011445795965889574,-0.007722138422260249,-0.021709356284219404,-0.0014544920994484286,0.0220515454115837, ,0.007865221089917352, ,0.021758025417839104, ,3.1903534989529574e-05, ,0.11153170816955037,-0.14812973926050033,0.09539398110000001,3.2833251350806827,1.3309761442151555,-0.6575702377907164, ,0.006698552405144486,0.015229809269534711,0.007567131363420429,0.009998472182585049,-0.005091134638438425,0.03426969914063319, ,0.28157901763916016
0.010152555255875474,0.020747122106021046,-0.07928562263617814, ,0.010325578290905583,0.02056058342661032,-0.07951022723504277, ,0.0003393830806013582, ,0.0017904851348956518,-0.00012357126559095055,-0.008271543950068093,-0.012741769997728336,0.005331353032665673,-0.06102326938523842, ,0.008464014779870728, ,0.013812168153991645, ,3.2261420371006235e-05, ,0.11163982642978951,-0.1478131072126571,0.09554564703000001,3.28416389485462,1.3309761442151555,-0.6569984866097326, ,0.004142199637740823,0.015574748327338055,0.008143564171779142,0.06033729644857737,-0.003939019225826888,0.0003748281835357324, ,0.29877519607543945
0.010190200367961397,0.02074778005263924,-0.07946172073477266, ,0.01035849031696183,0.020556381833417788,-0.079646708313558, ,0.000314920925885487, ,0.0016577388573970212,-3.503584720967914e-05,-0.008303098744996271,-0.01308783615759867,0.003095226832160021,-0.008226262976431151, ,0.008467040474632936, ,0.013448860359401406, ,3.241992451646708e-05, ,0.11174794469002866,-0.1475196433634366,0.09571934989000001,3.285212344572043,1.3308395077153898,-0.6565603537454738, ,0.00498971860176162,0.014937343232877502,0.008214962104177412,0.03677932991513933,0.0,0.029802386696519287, ,0.31981706619262695
0.01020521394646945,0.020747731558778834,-0.07955108166670002, ,0.010391596815163866,0.020552148002264178,-0.07978308726647575, ,0.0003561152898275702, ,0.0014120998834184413,-0.00014469137738507096,-0.006714507779797719,-0.013007868172811257,-0.00027569596463384357,0.0016997206229310239, ,0.0068629131132780675, ,0.013010788946796885, ,3.281221701146322e-05, ,0.11180972655302245,-0.14735746597307786,0.09580749761000001,3.285212344572043,1.3308395077153898,-0.6563153175250521, ,0.00575703973076457,0.013587763682484362,0.006623206453222454,0.02199283475594668,0.0,0.025011147776796, ,0.3368082046508789
0.010238274339527577,0.02074130741092728,-0.07966930712094843, ,0.010424896537471239,0.020547882408240077,-0.07991936234556601, ,0.0003671085558638202, ,0.0023248315875091597,-0.00045252440002446987,-0.006104167408891402,-0.0013118939180710304,0.018543874200020526,-0.10835847583225167, ,0.006547555268851867, ,0.018590221287644898, ,3.3227237836669296e-05, ,0.11189467661463892,-0.14708717032248,0.09592416371000001,3.286680174176435,1.3308395077153898,-0.6558252450842088, ,0.004953378780791354,0.014496935771229878,0.006070431219512196,0.1407258426642336,0.0,0.0318207038500871, ,0.35444211959838867
0.01027135363945304,0.02073741811862105,-0.07981491091922367, ,0.010458388239446528,0.020543585525223448,-0.08005553180969224, ,0.0003611806041135828, ,0.0012150941125986855,-3.684146758855438e-05,-0.007523325518795242,-0.015958835816208404,-0.0031228131500415698,0.024104152566748742, ,0.007620907941837492, ,0.016261499883989193, ,3.3568641482732806e-05, ,0.11201051760775228,-0.14679370647325948,0.09606675561000001,3.2875189339503725,1.3307028712156246,-0.6551420759995286, ,0.004842449605518693,0.013967757073663642,0.007408749544186048,-0.0026433563978474498,0.0,0.0232316742609606, ,0.37276220321655273
0.010284102855083261,0.020738812282626674,-0.07990013736440456, ,0.0104920706802514,0.020539257825880595,-0.0801915939248032, ,0.00040990184692410724, ,0.0014064895420581956,0.00020803340974190896,-0.00873666475974025,-0.014947172164129479,-0.0029924506258348013,0.022896321006830256, ,0.008851598830469841, ,0.015243774649047618, ,3.431260314095515e-05, ,0.11207229947074608,-0.14665469728152344,0.09614712559000001,3.287309244006888,1.3307028712156246,-0.6548970397791068, ,0.005220965134325546,0.013139980830583048,0.008628825308775734,0.0,0.0,0.024781018475651402, ,0.38825297355651855
0.010314596168533457,0.020738280138220523,-0.0800117529653554, ,0.010525942622642542,0.020534899781667545,-0.08032754696392291, ,0.0004309950610243226, ,0.002492029628993741,-3.646819544481463e-05,-0.0082763019007235,-0.0011718863875727192,0.016091440991605026,-0.10084908437220123, ,0.00864342031564942, ,0.016134055660633265, ,3.510297806972627e-05, ,0.11213408133373988,-0.14646935169254205,0.09626249540000001,3.2887770736112802,1.3307028712156246,-0.6545703248185446, ,0.0052409248175641346,0.013412995273282088,0.008296256,0.12895266853489695,0.0,0.02761863420395915, ,0.4074060916900635
0.010360023437889663,0.020741055664116388,-0.08026548429864185, ,0.010560002832967279,0.020530511862830773,-0.08046338920714158, ,0.0003514068916849713, ,0.0012568467441896134,5.82348855262592e-05,-0.007768243962780049,-0.017292169940497523,0.00042640090972002886,0.054027881672459116, ,0.007869477066841287, ,0.017297425551164314, ,3.5445614317916364e-05, ,0.11227309052547592,-0.14606004685020815,0.09651397566000001,3.289406143441733,1.3307028712156246,-0.6532634649762956, ,0.00467828957653269,0.0130874281559055,0.0076765356722891575,0.0,0.0,0.055893155891651024, ,0.4226670265197754
0.010379437952699013,0.020738653353637282,-0.08033873203926739, ,0.010594250081159502,0.020526094538409072,-0.08059911894160743, ,0.00039890705606091475, ,0.0023238740060533116,-0.00030979863005299504,-0.007901069670892259,-0.006136351104511674,0.01410956609415602,-0.0785347918959552, ,0.008241557348674248, ,0.015386183069617925, ,3.5984596287624705e-05, ,0.11231942692272127,-0.1459133149255979,0.0965865679,3.2902449032156715,1.3307028712156246,-0.653018428755874, ,0.005413848686651267,0.016108800128750767,0.00784670518226601,0.1126951218496628,0.0,0.03431055542430092, ,0.4379451274871826
0.010421106293546752,0.020736759987399614,-0.08051494789862744, ,0.010628683140735505,0.020521648276234056,-0.08073473446151674, ,0.0003710354821254848, ,0.0018869497642835758,3.112913143896818e-05,-0.009183347282408232,-0.011557907884662693,-0.0001536246652140763,-0.031095259913606482, ,0.009375255502921969, ,0.011558925983597994, ,3.635918507962689e-05, ,0.11245071338158309,-0.14559668287775468,0.09676156705000001,3.291503042876579,1.3307028712156246,-0.6526917137953117, ,0.006338101812300632,0.015305958315882386,0.009117808540354896,0.03775589514933922,5.545669635579734e-05,0.007793535399507019, ,0.4542880058288574
0.010439945922643119,0.02073748426307384,-0.08061549415472091, ,0.010663300788789794,0.02051717354293166,-0.08087023406810512, ,0.000404124526738922, ,0.00164018993887296,0.00010082300388002347,-0.010135468658181136,-0.01706872609114083,-0.005399717610288834,0.0051504654042494845, ,0.010267819302785943, ,0.017902465017024936, ,3.685158093224388e-05, ,0.11252021797745111,-0.14543450548739598,0.09686008509,3.2917127328200633,1.3305662347158589,-0.6524986171514746, ,0.0060501041980449664,0.01663399501463116,0.010024425122718693,0.0,0.0,0.007068961380252663, ,0.4696800708770752
0.010471812817640761,0.02073662057268532,-0.08074950514810116, ,0.010698101805991005,0.020512670803923518,-0.08100561606963877, ,0.0004085988366452932, ,0.00282899311105199,-0.00013857242160543958,-0.009564012808321667,-0.009293556128241058,0.014291432978014707,-0.1047398396054, ,0.00997460502156101, ,0.017047438577494516, ,3.732967416412347e-05, ,0.1126128907719418,-0.14521054623404345,0.09699101038,3.2927611825374856,1.3302929617163284,-0.6519490663835196, ,0.007493103466454289,0.01646944490775265,0.009515419068100361,0.12910444823540598,-0.005484893174361969,0.02471597779866545, ,0.4882509708404541
0.010521300703034394,0.020728686393061226,-0.08095972368046028, ,0.010733084976577628,0.020508140523427518,-0.08114087878140475, ,0.000355401504964347, ,0.0015615386930449165,-0.0004516377048248126,-0.007388755477453573,-0.026206008885314998,-0.004651521550813902,0.033440759316055016, ,0.00756545353643098, ,0.026615625718981496, ,3.7560422585470454e-05, ,0.11281368182667163,-0.14476262772733844,0.09719841678,3.2938096322549084,1.3302929617163284,-0.6511322789821139, ,0.008839961137569978,0.018162094078176226,0.007178373826047769,0.0,-0.005484893174361969,0.036238777937577585, ,0.5044431686401367
0.010539901744776344,0.02072352903729902,-0.08102970821863544, ,0.010768249088353814,0.020503583164459698,-0.08127602052570247, ,0.00040148281272132236, ,0.0017028319247038648,-0.00047008414452709424,-0.007102560438762843,-0.023058086041531284,-0.00022043541252008553,0.014001220002109165, ,0.007318946676469604, ,0.02305913930733112, ,3.795805814467344e-05, ,0.11289090915541389,-0.1446004503369797,0.09726193499,3.294019322198393,1.3302929617163284,-0.6508055640215518, ,0.00800016114152534,0.017694749498129922,0.0069015647833622195,0.010213384987982882,-0.005396497205936121,0.056541992942212765, ,0.5218920707702637
0.010593881897466875,0.020712394389482226,-0.08118108881111269, ,0.010803592932685284,0.020498999188834872,-0.08141103963183442, ,0.00037735077832475755, ,0.0023038293815102083,-0.00034345687618536126,-0.00871365192360711,-0.018546960845029187,0.007374913901176569,-0.0224993107264213, ,0.009019607657248213, ,0.01995943539788724, ,3.838581435659698e-05, ,0.11309942294301795,-0.14422203642614273,0.09741748979,3.2965356015202074,1.3302929617163284,-0.6498254191398649, ,0.00835014940962862,0.018044674188718537,0.008586960388140163,0.07143222451651758,-0.00484021498130441,0.05057589793077792, ,0.5356521606445312
0.010613588726836758,0.02071230933599899,-0.08127106923207379, ,0.010839115304495321,0.02049438905716808,-0.08154593443609692, ,0.00041701602551796836, ,0.0019191158429359076,2.5219251049947043e-05,-0.009517247268097783,-0.02215367769673392,-0.007508765579590474,0.018526373261260668, ,0.009708843246821211, ,0.023391599302676154, ,3.893922974846933e-05, ,0.11319209573750864,-0.14406758176865822,0.09750693380000001,3.296745291463692,1.3302929617163284,-0.6494987041793028, ,0.01016924123058143,0.016127964234954245,0.009408630549320734,0.0,-0.00461655154980042,0.020913495671692633, ,0.5490460395812988
0.010652374797549543,0.02070969787987903,-0.08147182808667155, ,0.01087481500226001,0.02048975322887571,-0.08168070328177154, ,0.00037614377743711925, ,0.0019165193998411552,-8.700264483181412e-05,-0.009159997479218996,-0.019352876715071753,-0.008722260593871965,-0.01613017692843825, ,0.009358748307838692, ,0.021227614150641037, ,3.931584490918873e-05, ,0.11338516405936425,-0.14368916785782124,0.09770526617000001,3.296745291463692,1.3302929617163284,-0.6489269529983188, ,0.009796359003037781,0.016651507555443198,0.009040188149829742,0.007374667065228294,-0.004207357552213518,-0.006665277122641206, ,0.5682580471038818
0.010673804785044951,0.020708054056055775,-0.08153916575225846, ,0.010910690828004912,0.020485092162176664,-0.08181534451911543, ,0.0004267337750096937, ,0.002618060305873504,-0.00024223519095336547,-0.007927660056440916,-0.0065936942435316425,0.008726803872020168,-0.10583260100514456, ,0.008352287807745579, ,0.010937727290660452, ,3.9853160017860256e-05, ,0.1134623913881065,-0.14356560413183364,0.09777267325000001,3.29758405123763,1.3302929617163284,-0.6487635955180376, ,0.008744299372890037,0.01478606132104562,0.007901196190476193,0.11293602885538434,-0.004068003135970497,0.007315545558227323, ,0.5828711986541748
0.010719689602841283,0.020701997860887174,-0.08170362534145664, ,0.01094674158730004,0.020480406314093584,-0.08194985650535283, ,0.0004016032909859011, ,0.0019251304498367392,-0.0002374192464166193,-0.007920793604928865,-0.022241153044958807,-0.004899277180836803,0.03452997314175675, ,0.008154843130271707, ,0.022774366609991395, ,4.0277489328797555e-05, ,0.11367862790858478,-0.14322580388536776,0.09793600579000002,3.298632500955053,1.3302929617163284,-0.6483552018173349, ,0.011283832257285374,0.01621338485536832,0.007812070387444827,0.009824388997595693,-0.003753479169951963,0.04671044352916359, ,0.5973851680755615
0.010748167993469058,0.02069842888970267,-0.08179865978741227, ,0.010982966089256394,0.020475696140453813,-0.08208423760466542, ,0.000431618712616108, ,0.0025058166927697245,-0.0001777274049391455,-0.00890501856961672,-0.014736773676258672,0.004024106854607813,-0.03205474889751824, ,0.009252570456551434, ,0.015276317565577178, ,4.07831524616169e-05, ,0.11380219163457238,-0.14303273556351215,0.09803063496000002,3.299471260728991,1.3302929617163284,-0.6477017718962104, ,0.010432990681179354,0.016235575972364545,0.0088542587659811,0.07091487971356894,-0.0035940937899456055,0.040143744237214604, ,0.6106741428375244
0.010796999575683312,0.02069915024806821,-0.08199984725060964, ,0.011019363146521423,0.020470962095890805,-0.08221848618818399, ,0.0003864173591515437, ,0.0022917726033123585,0.00015219561402023715,-0.011058033310020936,-0.017892840198178366,-1.3402237384071633e-05,-0.007237919901931264, ,0.011294046478377565, ,0.017892840597097004, ,4.1116272236931177e-05, ,0.11397981449067954,-0.14271610351566894,0.09823155991000002,3.300729400389898,1.3302929617163284,-0.6468849844948047, ,0.00854426538252448,0.016429525893087046,0.01099296861283644,0.03595716114479791,-0.0033648952069431633,0.030518721073203123, ,0.625399112701416
0.01081734984486001,0.020699879669372576,-0.08209484022900845, ,0.011055931575274677,0.02046620463384535,-0.08235260063397855, ,0.0004218597997992391, ,0.0024109395275410473,-0.0002742350930996485,-0.008256178517075176,-0.01283024313368778,0.0030143526358987656,-0.048581412668793525, ,0.011482737230878974, ,0.020199574572777376, ,4.154867834706253e-05, ,0.1141574373467867,-0.14236858053632884,0.09844155889000002,3.3017778501073205,1.3302929617163284,-0.6463949120539614, ,0.009996611835456696,0.016095139341667362,0.008198050190427176,0.07186510334039499,-0.0031526860596315107,0.024390894676037382, ,0.6435589790344238
0.010865045904306033,0.020694911145581824,-0.08227880007812896, ,0.011092670195224204,0.020461424206566457,-0.08248657932705007, ,0.00038665383069224436, ,0.0017592745752328786,-0.0005806110148776032,-0.00642281884231812,-0.020013645235022685,-0.0029679420652035955,0.007181035875149518, ,0.006684665890146994, ,0.020232515038065453, ,4.1850927817923125e-05, ,0.11425783287415162,-0.14221412587884436,0.09850896597000001,3.3021972299942894,1.3302929617163284,-0.6460681970933991, ,0.009816997877226704,0.01728226945155177,0.0062687176387249115,0.02314818433291812,-0.0030568399528703998,0.032431845436542324, ,0.6566309928894043
0.010888407879191842,0.020687916197096076,-0.08234984983165736, ,0.011129577829601715,0.02045662126511288,-0.08262042065932065, ,0.0004299637930386851, ,0.0024171806107966785,-0.0005681125029516378,-0.008084434225675247,-0.01866221783546758,-0.000786559837082949,-0.022555461382398553, ,0.00845716209319005, ,0.018678785195554198, ,4.2273789849754056e-05, ,0.11437367386726499,-0.14202105755698874,0.09857896563000001,3.3028262998247433,1.3302929617163284,-0.6457414821328368, ,0.01212275696965646,0.01946603929404529,0.007964405760000001,0.05421128374009858,-0.0029678246028701535,0.03349676871568982, ,0.6695361137390137
0.010944942631928007,0.020681091508581002,-0.08253439299411161, ,0.011166653305159058,0.02045179625935381,-0.0827541230296251, ,0.000387315404353465, ,0.0022825895056747076,-2.7280682768596404e-05,-0.01019182839510171,-0.020558955174214872,0.0014694692655714669,0.028313800312017526, ,0.010444344169083578, ,0.020611401403381278, ,4.2678858532344785e-05, ,0.11458218765486905,-0.14168125731052286,0.09874748333000001,3.3047135093161035,1.3302929617163284,-0.6444346222905879, ,0.010048816295856073,0.016599080209632813,0.009601453598553349,0.03648849291905789,-0.002804356019935968,0.0686418623215464, ,0.6843380928039551
0.010963144671849707,0.020680733208690218,-0.08262588069022549, ,0.011203895452163283,0.020446949637970717,-0.08288768484370143, ,0.00042562555249563123, ,0.0020162224320478487,-9.110250533969763e-05,-0.012023269736167139,-0.027725693699410168,-0.0019246734315216795,0.05100328108125462, ,0.01219149161139049, ,0.02779241277178966, ,4.318347877431372e-05, ,0.11466713771648553,-0.1415036344544157,0.09885377911000001,3.3049231992595884,1.3302929617163284,-0.6437811923694634, ,0.007538551489739517,0.021106970987204356,0.011842982542750931,0.0,-0.0027313164335233497,0.05406695470168018, ,0.6954782009124756
0.010999670569496736,0.02068043582863389,-0.08277387703622556, ,0.011241303104393311,0.020442081848457933,-0.083021104514182, ,0.00041990514124379106, ,0.00342514971552319,6.302074199590548e-05,-0.012278105826518984,-0.007078799525187801,0.014854914904159848,-0.10114489313048944, ,0.01274705867543057, ,0.016455321950475433, ,4.365366669419065e-05, ,0.11476753324385044,-0.14127195246818897,0.09900155617,3.3061813389204957,1.3302929617163284,-0.6432094411884794, ,0.009222190777558367,0.017560499918295853,0.012309746151468317,0.14079297057001483,-0.0026467556462377788,0.03987464462639087, ,0.7064981460571289
0.011042657585528373,0.020681683279366578,-0.08295411071635232, ,0.011278875099135159,0.020437193337124057,-0.08315438046058438, ,0.0003945656042372364, ,0.0028271536413821317,-2.372703468604123e-05,-0.011921670218563855,-0.01931674178560202,-0.00132706645856049,-0.00987357421382339, ,0.01225232963498565, ,0.019362266855431947, ,4.403482647600701e-05, ,0.11492198790133493,-0.1410016568175911,0.09918174048000002,3.3072297886379185,1.3302929617163284,-0.6423926537870738, ,0.012268988700388278,0.019370675966211632,0.011869457168405368,0.04769208015561249,-0.002548109677546638,0.039781358891882515, ,0.7232730388641357
0.011064492885438605,0.020680729734841467,-0.08305863543696189, ,0.01131661027717777,0.020432284549093217,-0.08328751110930256, ,0.00042151187756484036, ,0.0023711732870985024,-0.0001946721791135763,-0.009739417533151709,-0.02175987556936284,-0.0021535225938730095,0.03019525654824197, ,0.010025797419648637, ,0.02186617837492486, ,4.4479185003432996e-05, ,0.1150378288944483,-0.14081631122860971,0.09928544368000002,3.3072297886379185,1.3302929617163284,-0.641984260086371, ,0.012004782181049107,0.01802068772473809,0.00965967951485749,0.02669054894968902,-0.0024876983268366975,0.059183116062388214, ,0.7348480224609375
0.01109454773101115,0.02067660450076453,-0.08315346593708564, ,0.011354507482809235,0.020427355928306204,-0.08342049489359725, ,0.00044833958897593765, ,0.002672696186152211,-0.0004233562149983947,-0.009724384258893456,-0.019211121620543444,-0.004532946891950002,-0.023428820114098303, ,0.010093868663840697, ,0.019738660402528526, ,4.4983253000531156e-05, ,0.11517683808618434,-0.1406232429067541,0.09938007285000001,3.3080685484118564,1.3302929617163284,-0.6414941876455276, ,0.013617009837633918,0.020329250548087142,0.009630478548972188,0.04544724982923104,-0.002428316511668421,0.024007213753903522, ,0.747028112411499
0.011152274908247576,0.020667934715804068,-0.08331939977096016, ,0.011392565563812263,0.0204224079175214,-0.08355333025358748, ,0.0004156278125064491, ,0.0026205595012213888,-0.0003554111964699171,-0.009858179374309451,-0.021618022621351984,-0.0028165154638995736,0.012878954081167016, ,0.01020673061239877, ,0.0218007240317473, ,4.538141773961111e-05, ,0.11539307460666262,-0.14028344266028822,0.09954599797000001,3.310375137790186,1.3302929617163284,-0.6405140427638409, ,0.013574158426329678,0.01980320149383781,0.00977227700613497,0.03764740839578708,-0.0023337782639915993,0.0527950568333273, ,0.7623980045318604
0.011182233104120632,0.020664646558276385,-0.08346491083621065, ,0.011430783371460234,0.020417440958316282,-0.08368601563624116, ,0.0004144576898101367, ,0.002355548755458913,-0.0002582917389451294,-0.01114497512186997,-0.02518294722287659,-0.001857004467730983,0.03602693079187986, ,0.01139411229665795, ,0.025251319262090025, ,4.576359296373065e-05, ,0.11554752926414712,-0.14000542427681614,0.09968988616,3.310375137790186,1.3302929617163284,-0.6395338978821541, ,0.010546448272779592,0.02095317764594188,0.011008162764340015,0.01925138505576068,-0.0022618162183340087,0.05802026937547461, ,0.7740151882171631
0.01121076462959775,0.020661227102267907,-0.08357847940941551, ,0.011469159760512618,0.020412455491088527,-0.08381854949536603, ,0.0004316120994337227, ,0.002462821698706553,-0.0003062338353934189,-0.01127615249565772,-0.02616985273888687,0.0028208392374042563,0.049984447913600724, ,0.01154603330096044, ,0.026321438867788628, ,4.617901767709398e-05, ,0.11566337025726048,-0.13978918775633786,0.09980266339,3.3110042076206394,1.3302929617163284,-0.6388804679610297, ,0.01027162095059076,0.021455333836416634,0.011139029034965036,0.032113777434287526,-0.0022118404778608343,0.08488974239261518, ,0.7851161956787109
0.01124328665279082,0.020655167509406318,-0.08367461481554081, ,0.011507693589211412,0.02040745195505702,-0.08395093029160065, ,0.000455658058421094, ,0.003689990074645269,-0.000649427097448951,-0.010283981957350629,-0.005065309457593914,0.014603876418129316,-0.13175214107321573, ,0.010945230340426593, ,0.015457375304636927, ,4.664408005302766e-05, ,0.1157637657846254,-0.13958839670160803,0.09989729256,3.3124720372250316,1.3301563252165627,-0.6381972988763491, ,0.012104201729396783,0.02168577275102166,0.01027665259354839,0.16714118164623576,0.0,0.03542805436507074, ,0.7984011173248291
0.01124328665279082,0.020655167509406318,-0.08367461481554081, ,0.011546383719276498,0.020402430788263103,-0.08408315649240587, ,0.0005680228724815259, ,0.003689990074645269,-0.000649427097448951,-0.010283981957350629,-0.005065309457593914,0.014603876418129316,-0.13175214107321573, ,0.010945230340426593, ,0.015457375304636927, ,4.7504754788802434e-05, ,0.1157637657846254,-0.13958839670160803,0.09989729256,3.3124720372250316,1.3301563252165627,-0.6381972988763491, ,0.012104201729396783,0.02168577275102166,0.01027665259354839,0.16714118164623576,0.0,0.03542805436507074, ,0.8084330558776855
0.01130464809783604,0.02064373961131034,-0.08389688343492327, ,0.011585229015901463,0.020397392427571933,-0.08421522657205455, ,0.0004906678504618613, ,0.0024168622785977357,-0.0004023303814575175,-0.010378005366195289,-0.023709583584250987,-0.011163291371832949,0.027902884741452895, ,0.01066330569712463, ,0.026206169266163912, ,4.81472524449391e-05, ,0.11607267509959437,-0.13910958726340608,0.10011766186000001,3.313520486942454,1.3301563252165627,-0.637135475254522, ,0.014161608947690012,0.021567486717834268,0.010263409484536084,0.0,0.0,0.03063374665352569, ,0.8178691864013672
0.01134362174918144,0.020636963543567442,-0.08401785275870186, ,0.011624228347749595,0.020392337308673323,-0.08434713901162369, ,0.0004970025093716977, ,0.004713833664150784,-0.0005845139060144471,-0.012662692999959275,-0.004110095628769144,0.018389571909607917,-0.15054094310810173, ,0.013524262579927346, ,0.018843272421125684, ,4.878952374104688e-05, ,0.11623485248995309,-0.1388547370785567,0.10023821683,3.314778626603361,1.3301563252165627,-0.6364003665932567, ,0.016386969704450145,0.023957824175327134,0.012732862925659475,0.20956432245835377,0.0,0.05883231799403651, ,0.8273060321807861
0.01138495366074291,0.020634302945158133,-0.08414417039945453, ,0.011663380586949663,0.02038726586608326,-0.08447889229898461, ,0.0005005872768057686, ,0.0041164935046496326,-0.00011177965467987954,-0.014243277536710001,-0.014005352748271343,0.01254846949321473,-0.03733715445245148, ,0.014826630380931828, ,0.01880461129671201, ,4.942477041951355e-05, ,0.11637386168168913,-0.13864622329095264,0.10036525325000001,3.316456146151237,1.3301563252165627,-0.6356652579319917, ,0.01513507839848019,0.022224108093318682,0.014298753608617595,0.13212305844641278,0.0,0.0959435701765441, ,0.837043046951294
0.011422391854986842,0.020634300833233463,-0.08429847008710964, ,0.011702684609091959,0.020382178533144873,-0.08461048492879411, ,0.0004893699455802104, ,0.0031385595115266357,0.0001269811037185281,-0.015504817970322566,-0.027671594895987868,-0.005152616208644,0.06309299671676592, ,0.015819799628975503, ,0.028147215170047313, ,5.0017059156634925e-05, ,0.11653603907204785,-0.13840681857185166,0.10051951176000001,3.317085215981691,1.3301563252165627,-0.634685113050305, ,0.014311105648992727,0.02336787529142349,0.015449865683802135,0.011170057447103235,0.0,0.07738896346623726, ,0.8469560146331787
0.011456917012393273,0.020635837988111777,-0.08445009393530684, ,0.011742139293223347,0.02037707574202956,-0.08474191540248563, ,0.00048318673221209914, ,0.003926395703369797,0.00012586131898751447,-0.016812375149702942,-0.021041531545938765,0.008510101268749546,0.008411800972020007, ,0.017265236241227836, ,0.02269728023769897, ,5.058010610453088e-05, ,0.11666732553090967,-0.13819058205137338,0.10067117769000002,3.3177142858121447,1.3301563252165627,-0.6337049681686183, ,0.013715412857128309,0.024054991523059767,0.016784838271865124,0.05686742354320411,0.0,0.09728036713140306, ,0.8564670085906982
0.011506511065967034,0.02063511616394626,-0.08462844924067825, ,0.011781743521843944,0.02037195792373837,-0.08487318222825996, ,0.0004526581484608641, ,0.004259282052958198,-0.00021216759541103913,-0.01508399627903485,-0.014238115074477451,0.00978889513456072,-0.0448538992306556, ,0.015675249358180286, ,0.017278472384834095, ,5.1056854596030186e-05, ,0.11682950292126838,-0.13792028640077553,0.10085136200000001,3.3193918053600204,1.3302929617163284,-0.6326728837103469, ,0.01588765135752064,0.024533852522872487,0.015127076467236471,0.12813634193583565,0.0016276478245911647,0.08455884819016216, ,0.8656511306762695
0.011542188972285454,0.0206323562609623,-0.08476218374610162, ,0.011821496180902658,0.020366825508102912,-0.08500428392107623, ,0.0004551171192367379, ,0.0037859837714728155,-0.0003782220553251181,-0.013832123783215904,-0.019763335276399417,0.002978682340954438,-0.0029967363752005636, ,0.014345883499986918, ,0.019986532050189274, ,5.152815847871081e-05, ,0.11697623484587864,-0.13768860441454878,0.10098487987000002,3.3202305651339588,1.3302929617163284,-0.6319377750490819, ,0.01652105528524909,0.025078472927714267,0.013815101058109283,0.08416880047911657,0.0016035129117092318,0.08322446176191216, ,0.8755559921264648
0.011596253163147847,0.020625159494492076,-0.08494133225134064, ,0.011861396159792731,0.020361678923786902,-0.08513521900264272, ,0.0004210877487406016, ,0.004009077826899778,-0.0006147721990854456,-0.012603965748943131,-0.018048267831137547,0.001228985984481937,-0.024642232534354738, ,0.01324049102108526, ,0.01809005417832519, ,5.190915371495102e-05, ,0.11716930316773426,-0.13742603149682514,0.10112228661000001,3.321069324907897,1.3302929617163284,-0.6310393089075357, ,0.019438128135696595,0.025724299690558627,0.01292923012987013,0.08283441349445929,0.001564751545265985,0.07778011908588817, ,0.8909521102905273
0.01164103503440558,0.020616467097616435,-0.08507923624682671, ,0.011901442351347762,0.020356518598286914,-0.08526598600140806, ,0.0004126265428409659, ,0.0035399137376528594,-0.0009832015487916818,-0.00963286355374435,-0.017055890992152385,0.0007767602590142628,-0.03256325038442082, ,0.010309691304817327, ,0.017073567028997885, ,5.2382571562482565e-05, ,0.11745504428408057,-0.13703989485311394,0.10130117463,3.3225371545122884,1.3302929617163284,-0.6298958065455678, ,0.018214384176289976,0.02497287935749231,0.009578359302465424,0.09457711392873418,0.0015099249971844708,0.06376222992861302, ,0.8986330032348633
0.011676062014248988,0.020603863138440228,-0.08517789743580247, ,0.011941633651837799,0.020351344957933785,-0.08539658345255165, ,0.00045658827369271266, ,0.00327465010042276,-0.0012011022083689854,-0.009720411237589011,-0.02362280506954994,-0.0042271026351063876,-0.004873070934258644, ,0.010327263646435797, ,0.023998025528383968, ,5.294792164816399e-05, ,0.11764038987306195,-0.1367541537367676,0.10139839638,3.3233759142862267,1.3302929617163284,-0.6292423766244433, ,0.018309269063953457,0.02804283142980815,0.009578359302465424,0.06173951810039704,0.0014741279656163475,0.059484373772921664, ,0.9075171947479248
0.011676062014248988,0.020603863138440228,-0.08517789743580247, ,0.01198196896096454,0.020346158427893907,-0.08552700989797557, ,0.0005309145779983453, ,0.00327465010042276,-0.0012011022083689854,-0.009720411237589011,-0.02362280506954994,-0.0042271026351063876,-0.004873070934258644, ,0.010327263646435797, ,0.023998025528383968, ,5.367155632255331e-05, ,0.11764038987306195,-0.1367541537367676,0.10139839638,3.3233759142862267,1.3302929617163284,-0.6292423766244433, ,0.018309269063953457,0.02804283142980815,0.009578359302465424,0.06173951810039704,0.0014741279656163475,0.059484373772921664, ,0.9149770736694336
0.011716095208796663,0.020592780611656807,-0.08528753196802313, ,0.012022447181857455,0.020340959432170028,-0.08565726388629424, ,0.0005421873562015138, ,0.00442304586296165,-0.0010299393047929198,-0.012399503345891502,-0.013450866413219858,0.011704512009977611,-0.08933144840400767, ,0.0132049912117424, ,0.0178303425529123, ,5.4407513920106784e-05, ,0.11782573546204335,-0.13647613535329553,0.10150728474000001,3.3246340539471335,1.3302929617163284,-0.6285072679631782, ,0.01764867799116064,0.028514705997136652,0.012367089689440995,0.16283159977278958,0.0014423933366526933,0.07466643520815666, ,0.9231030941009521
0.011758988302722827,0.020587431036361473,-0.08541678642193916, ,0.012063067221070032,0.020335748393602783,-0.08578734397282628, ,0.0005414065383504946, ,0.004668873728485665,-0.0003470172897354078,-0.01470098951199659,-0.014020449763851979,0.01154269735712771,-0.03861688024921702, ,0.015428476772635485, ,0.018160566819706594, ,5.512861967215593e-05, ,0.11799563558527629,-0.13623673063419459,0.10163691374000001,3.3261018835515253,1.3302929617163284,-0.6275271230814915, ,0.018960427883810346,0.024616586655893846,0.01478998284122563,0.1462508821057233,0.0014131530116540452,0.10888422517329485, ,0.9310050010681152
0.011788866562397728,0.020584973567481818,-0.08551633247812808, ,0.012103827988574732,0.020330525733871632,-0.08591724871958527, ,0.0005698054340496658, ,0.004801968150815173,-0.00039736563216027357,-0.016644424144483194,-0.020385575020918627,0.010956342970178761,-0.011174250267455854, ,0.017290334236022567, ,0.023143289367844905, ,5.5899681383769714e-05, ,0.11811919931126387,-0.13606683051096163,0.10173672807,3.3269406433254636,1.3302929617163284,-0.626873693160367, ,0.019163356534424632,0.028352835840594795,0.01667938379057592,0.13266798799002238,0.0013940392809031756,0.12352395478265624, ,0.9396190643310547
0.011852517067861825,0.020583716861186978,-0.08576094641954286, ,0.012144728397759638,0.020325291873496323,-0.08604697669527057, ,0.00048371918942340304, ,0.00408181946295737,4.218435504401612e-05,-0.01627672358662826,-0.02394793374156475,0.0005281293175278309,0.03835860890662062, ,0.01678078545132762, ,0.023953732665752833, ,5.6468872770833884e-05, ,0.11838949496186173,-0.13568841660012462,0.10198302317,3.3281987829863704,1.3304295982160936,-0.6251881787809709, ,0.018334030440199146,0.023843452652882107,0.01632050360655738,0.06260024977428205,2.0026036391043944e-05,0.1035688835467992, ,0.9476251602172852
0.011852517067861825,0.020583716861186978,-0.08576094641954286, ,0.012185767365423608,0.020320047231837588,-0.08617652647525822, ,0.0005943771672723005, ,0.00408181946295737,4.218435504401612e-05,-0.01627672358662826,-0.02394793374156475,0.0005281293175278309,0.03835860890662062, ,0.01678078545132762, ,0.023953732665752833, ,5.726822564759954e-05, ,0.11838949496186173,-0.13568841660012462,0.10198302317,3.3281987829863704,1.3304295982160936,-0.6251881787809709, ,0.018334030440199146,0.023843452652882107,0.01632050360655738,0.06260024977428205,2.0026036391043944e-05,0.1035688835467992, ,0.9551961421966553
0.011896706096803494,0.02058112965358152,-0.0859228759476816, ,0.012226943811772443,0.020314792227098793,-0.08630589664159173, ,0.000571574514037108, ,0.004717805073242316,-0.0004353929316934552,-0.01707190299737405,-0.027331014222354587,-0.001147348395576571,0.019976310098074695, ,0.01771714208516229, ,0.027355059799317728, ,5.8004788252861274e-05, ,0.11859028601659156,-0.13541812094952677,0.10214635571000001,3.3290375427603087,1.3305662347158589,-0.6243194518029807, ,0.022551554552868527,0.030068739403824703,0.01707268115755627,0.08160997641356875,0.0006679606027111086,0.10458206101822254, ,0.9632441997528076
0.011960598815902689,0.02057713776786755,-0.08610379676391232, ,0.012268256660414513,0.02030952727632686,-0.08643508578297351, ,0.0005253771394178089, ,0.006261535711076179,-0.0002393164206532447,-0.018228680519254303,-0.003495478507287219,0.023242387077172952,-0.1127428088029053, ,0.019275603629544728, ,0.023503721287349105, ,5.863028502558273e-05, ,0.1188219680028183,-0.13513237983318047,0.10233042889,3.331553822082123,1.3307028712156246,-0.6231240098644282, ,0.022213703548331177,0.02678434703880067,0.018478899675174017,0.24470973635063245,0.004101815713292452,0.1318512451876117, ,0.9715151786804199
0.012006988474083916,0.02057628204173644,-0.08624877550725267, ,0.012309704838356725,0.0203042527954136,-0.08656409249475543, ,0.0005148416364876994, ,0.005466785316116546,-0.00014788782363984792,-0.017288717790095318,-0.016355924618704252,0.013035105703589067,0.017846293077212215, ,0.018133046498767017, ,0.020914796347178726, ,5.9348401087894066e-05, ,0.1190073135917997,-0.1349238660455764,0.10247690966,3.333021651686515,1.3307028712156246,-0.6218171500221792, ,0.023688702336113525,0.02586452481833491,0.01748497422612514,0.15111409439650755,0.004101815713292452,0.1705495924035597, ,0.9779341220855713
0.012006988474083916,0.02057628204173644,-0.08624877550725267, ,0.012351287276000524,0.020298969199096573,-0.08669291537892977, ,0.000626661234884979, ,0.005466785316116546,-0.00014788782363984792,-0.017288717790095318,-0.016355924618704252,0.013035105703589067,0.017846293077212215, ,0.018133046498767017, ,0.020914796347178726, ,6.029285589130732e-05, ,0.1190073135917997,-0.1349238660455764,0.10247690966,3.333021651686515,1.3307028712156246,-0.6218171500221792, ,0.023688702336113525,0.02586452481833491,0.01748497422612514,0.15111409439650755,0.004101815713292452,0.1705495924035597, ,0.9843311309814453
0.012016896151175361,0.020575757710256604,-0.0862823154149314, ,0.012393002907137298,0.020293676900960594,-0.08682155304412008, ,0.0007154041484268435, ,0.005159148529533461,-0.00013351039381560327,-0.01688309544225325,-0.01824696753038845,0.007411217632946439,0.02960886862153142, ,0.017654278526387773, ,0.019694582990102436, ,6.141111024434691e-05, ,0.11905364998904504,-0.13486980691545683,0.10251061320000002,3.333231341629999,1.3307028712156246,-0.6214904350616169, ,0.023635601882558102,0.025571797779162162,0.01705440205567452,0.12181320042817076,0.004101815713292452,0.15331628606929676, ,0.9901540279388428
0.012016896151175361,0.020575757710256604,-0.0862823154149314, ,0.012434850668944163,0.020288376313438786,-0.08695000410557262, ,0.0008384999903223042, ,0.005159148529533461,-0.00013351039381560327,-0.01688309544225325,-0.01824696753038845,0.007411217632946439,0.02960886862153142, ,0.017654278526387773, ,0.019694582990102436, ,6.277133198985473e-05, ,0.11905364998904504,-0.13486980691545683,0.10251061320000002,3.333231341629999,1.3307028712156246,-0.6214904350616169, ,0.023635601882558102,0.025571797779162162,0.01705440205567452,0.12181320042817076,0.004101815713292452,0.15331628606929676, ,0.9958009719848633
0.012117715627495054,0.0205760083805473,-0.08665150831683487, ,0.01247682950198015,0.02028306784781369,-0.08707826718514669, ,0.0006300000494037581, ,0.005292000177222334,-0.0002284089365688657,-0.019467694209211777,0.02515703998436547,-0.01425753768588086,0.0249346253879248, ,0.020175444340618708, ,0.028916279937282397, ,6.368390648042124e-05, ,0.11954790489299541,-0.13431377014851267,0.10288783359,3.3346991712343907,1.3313860537144517,-0.6191887686751794, ,0.025105010994304438,0.03225592846990849,0.020011069748743723,0.08216195858733732,0.0564661044131169,0.10527228365318389, ,1.0014960765838623
0.012117715627495054,0.0205760083805473,-0.08665150831683487, ,0.012518938350181854,0.020277751914218527,-0.08720634091130576, ,0.0007468438931894928, ,0.005292000177222334,-0.0006032926940264362,-0.020372728643809186,0.034028472126064704,0.0389940497619608,-0.18284880227173064, ,0.020175444340618708, ,0.028916279937282397, ,6.482516351070507e-05, ,0.11954790489299541,-0.13431377014851267,0.10288783359,3.3346991712343907,1.3313860537144517,-0.6191887686751794, ,0.025105010994304438,0.03225592846990849,0.020011069748743723,0.08216195858733732,0.0564661044131169,0.10527228365318389, ,1.0076990127563477
0.012183568998950105,0.020570084447366452,-0.08683247667175842, ,0.012561176160859038,0.020272428921638337,-0.08733422391910846, ,0.0006949361704104497, ,0.0077234058893449545,-0.0006032926940264362,-0.020372728643809186,0.034028472126064704,0.0389940497619608,-0.18284880227173064, ,0.021795940745939765, ,0.05175393050355235, ,6.584651183698739e-05, ,0.11975641868059947,-0.13402030629929215,0.10307190677000001,3.337634830443174,1.3315226902142172,-0.6175849330359238, ,0.02263223027867178,0.03194107760298579,0.020958962526315794,0.37305197995335676,0.03597412732900777,0.18618151477990158, ,1.0142250061035156
0.012240964818607,0.020567584857964546,-0.08699626873426229, ,0.012603541884690837,0.020267099277911108,-0.08746191485019973, ,0.0006622537413693027, ,0.006596693376200348,-8.937077189173116e-06,-0.020926602309575767,0.008776681002418511,0.022015905383847005,-0.03523842538692927, ,0.021941721162983, ,0.023700763828679212, ,6.678913700100025e-05, ,0.11993404153670663,-0.1337886243130654,0.10323783189,3.3401511097649883,1.3315226902142172,-0.615869679492972, ,0.02329902812631249,0.02831054342436479,0.02138095506040269,0.22944623090732483,0.02425268782447151,0.19319229113834724, ,1.0217230319976807
0.012312623561871709,0.02056765569110148,-0.08728074146370927, ,0.01264603447572131,0.02026176338972903,-0.08758941235280104, ,0.0005477322843193226, ,0.005135633348453326,-0.00018961461793131837,-0.021669466615103935,-0.02896803987340603,-0.006003628768026745,0.11501645267102027, ,0.022270529113071903, ,0.029583544658254645, ,6.748946940687993e-05, ,0.12025067358454984,-0.13337159673785728,0.10352560827000001,3.3411995594824107,1.3317959632137482,-0.613642153096148, ,0.024521173529320612,0.03435805270038768,0.021760671475409835,0.038397255352680223,0.012270403423509268,0.1570140138349775, ,1.0282211303710938
0.012312623561871709,0.02056765569110148,-0.08728074146370927, ,0.012688652891355205,0.02025642166263956,-0.08771671508170223, ,0.0006544751123536386, ,0.005135633348453326,-0.00018961461793131837,-0.021669466615103935,-0.02896803987340603,-0.006003628768026745,0.11501645267102027, ,0.022270529113071903, ,0.029583544658254645, ,6.853263441398813e-05, ,0.12025067358454984,-0.13337159673785728,0.10352560827000001,3.3411995594824107,1.3317959632137482,-0.613642153096148, ,0.024521173529320612,0.03435805270038768,0.021760671475409835,0.038397255352680223,0.012270403423509268,0.1570140138349775, ,1.0319890975952148
0.012312623561871709,0.02056765569110148,-0.08728074146370927, ,0.012731396092353775,0.02025107450104671,-0.08784382169825218, ,0.0007698398747244403, ,0.005135633348453326,-0.00018961461793131837,-0.021669466615103935,-0.02896803987340603,-0.006003628768026745,0.11501645267102027, ,0.022270529113071903, ,0.029583544658254645, ,6.979818362578106e-05, ,0.12025067358454984,-0.13337159673785728,0.10352560827000001,3.3411995594824107,1.3317959632137482,-0.613642153096148, ,0.024521173529320612,0.03435805270038768,0.021760671475409835,0.038397255352680223,0.012270403423509268,0.1570140138349775, ,1.0356760025024414
0.012360026176469351,0.02056662123361917,-0.08747301356820025, ,0.012774263042830938,0.020245722308212175,-0.087970730870349, ,0.0007226969037145904, ,0.0048332722097593084,-0.00018112521394162123,-0.01966030095327256,0.0659949319367701,-0.0437076171624161,0.04573584243643209, ,0.02024649994863327, ,0.07915607305847304, ,7.095973847929307e-05, ,0.12049780103652502,-0.13305496469001407,0.10372523693,3.341409249425896,1.3326157822123406,-0.6129221219359371, ,0.027059293287274244,0.03404985344760344,0.020579859844961242,0.0,0.105262260267005,0.04049154874944498, ,1.0401360988616943
0.012360026176469351,0.02056662123361917,-0.08747301356820025, ,0.01281725271024854,0.020240365486256438,-0.08809744127243213, ,0.0008398862266350367, ,0.0048332722097593084,-0.00018112521394162123,-0.01966030095327256,0.0659949319367701,-0.0437076171624161,0.04573584243643209, ,0.02024649994863327, ,0.07915607305847304, ,7.234459314134951e-05, ,0.12049780103652502,-0.13305496469001407,0.10372523693,3.341409249425896,1.3326157822123406,-0.6129221219359371, ,0.027059293287274244,0.03404985344760344,0.020579859844961242,0.0,0.105262260267005,0.04049154874944498, ,1.0439021587371826
0.012444124139349878,0.020555004904204137,-0.08769148794019765, ,0.012860364065412674,0.020235004436159984,-0.08822395158547228, ,0.000747779051014655, ,0.0048332722097593084,-0.00018112521394162123,-0.01966030095327256,0.0659949319367701,-0.0437076171624161,0.04573584243643209, ,0.02024649994863327, ,0.07915607305847304, ,7.353647034437709e-05, ,0.12081443308436823,-0.1326533825805544,0.10394819881000002,3.3447642885216484,1.3328890552118715,-0.611429704200378, ,0.032332859134061594,0.041841684990507395,0.023738914336810735,0.464014051060298,0.03563866847945111,0.1889285473221417, ,1.0482730865478516
0.012444124139349878,0.020555004904204137,-0.08769148794019765, ,0.012903596082469056,0.020229639557764523,-0.08835026049696292, ,0.0008665785346548354, ,0.009754504436904895,-0.0013534817053019073,-0.02311274063687691,0.03495160224494881,0.04085462219401336,-0.270888638684433, ,0.025123316844790328, ,0.053765305341459166, ,7.495281993879851e-05, ,0.12081443308436823,-0.1326533825805544,0.10394819881000002,3.3447642885216484,1.3328890552118715,-0.611429704200378, ,0.032332859134061594,0.041841684990507395,0.023738914336810735,0.464014051060298,0.03563866847945111,0.1889285473221417, ,1.0522890090942383
0.012444124139349878,0.020555004904204137,-0.08769148794019765, ,0.012946947738899137,0.020224271249774113,-0.08847636670091141, ,0.0009890657164495578, ,0.009754504436904895,-0.0013534817053019073,-0.02311274063687691,0.03495160224494881,0.04085462219401336,-0.270888638684433, ,0.025123316844790328, ,0.053765305341459166, ,7.659823185364548e-05, ,0.12081443308436823,-0.1326533825805544,0.10394819881000002,3.3447642885216484,1.3328890552118715,-0.611429704200378, ,0.032332859134061594,0.041841684990507395,0.023738914336810735,0.464014051060298,0.03563866847945111,0.1889285473221417, ,1.058454990386963
0.012444124139349878,0.020555004904204137,-0.08769148794019765, ,0.012990418015515807,0.020218899909756297,-0.08860226889782893, ,0.0011139683654453252, ,0.009754504436904895,-0.0013534817053019073,-0.02311274063687691,0.03495160224494881,0.04085462219401336,-0.270888638684433, ,0.025123316844790328, ,0.053765305341459166, ,7.847473947422759e-05, ,0.12108472873496609,-0.13231358233408852,0.10416338295000001,3.348748397447854,1.3328890552118715,-0.6092243782165828, ,0.03390387336851403,0.04029594121378802,0.027275362191780828,0.42344618332585626,0.021167592409944862,0.25576338389265496, ,1.0624620914459229
0.012528791862633133,0.020546187853020655,-0.08790356416619739, ,0.013034005896459115,0.02021352593414335,-0.08872796579472265, ,0.0010225180767893327, ,0.0099824867891344,-0.0007228760933831744,-0.0267031104033923,0.012938944756885954,0.043325762436674256,-0.16580146803635623, ,0.028517164963533556, ,0.0452164174274218, ,8.01587250731398e-05, ,0.12108472873496609,-0.13231358233408852,0.10416338295000001,3.348748397447854,1.3328890552118715,-0.6092243782165828, ,0.03390387336851403,0.04029594121378802,0.027275362191780828,0.42344618332585626,0.021167592409944862,0.25576338389265496, ,1.0671961307525635
0.012528791862633133,0.020546187853020655,-0.08790356416619739, ,0.013077710369192416,0.020208149718233346,-0.08885345610508613, ,0.0011479878061110074, ,0.0099824867891344,-0.0007228760933831744,-0.0267031104033923,0.012938944756885954,0.043325762436674256,-0.16580146803635623, ,0.028517164963533556, ,0.0452164174274218, ,8.207281491028074e-05, ,0.12108472873496609,-0.13231358233408852,0.10416338295000001,3.348748397447854,1.3328890552118715,-0.6092243782165828, ,0.03390387336851403,0.04029594121378802,0.027275362191780828,0.42344618332585626,0.021167592409944862,0.25576338389265496, ,1.0710279941558838
0.012665312295305584,0.02054704830594897,-0.08840160933158758, ,0.013121530424497466,0.02020277165619143,-0.08897873854888992, ,0.0008122435142465757, ,0.006898217503471355,0.0005346967761300347,-0.031626064451054835,-0.05817127236213186,-0.008719635832901914,0.2409387166750308, ,0.032374052233692906, ,0.0588208920203399, ,8.332396912731937e-05, ,0.12166393370053293,-0.13163398184115677,0.10466634347,3.351474366713153,1.333025691711637,-0.6046801079322671, ,0.03369919799661605,0.040658501096174283,0.03173070023904383,0.0,0.0,0.2477801333693512, ,1.0747950077056885
0.012665312295305584,0.02054704830594897,-0.08840160933158758, ,0.013165465056471025,0.020197392141051044,-0.08910381185257289, ,0.0009303228464520607, ,0.006898217503471355,0.0005346967761300347,-0.031626064451054835,-0.05817127236213186,-0.008719635832901914,0.2409387166750308, ,0.032374052233692906, ,0.0588208920203399, ,8.479257472000672e-05, ,0.12166393370053293,-0.13163398184115677,0.10466634347,3.351474366713153,1.333025691711637,-0.6046801079322671, ,0.03369919799661605,0.040658501096174283,0.03173070023904383,0.0,0.0,0.2477801333693512, ,1.0785541534423828
0.012743440131085098,0.020545678198301554,-0.08870123657579339, ,0.013209513262520355,0.020192011564714764,-0.08922867474903308, ,0.0007877152265564646, ,0.010040629734951626,-0.0004200385893282036,-0.03478645217105497,-0.025077329466724117,0.024849543162930688,-0.04968181989711756, ,0.03620894823852268, ,0.03530327618730057, ,8.597673195586199e-05, ,0.12198056574837612,-0.1312015088002002,0.10496967533000001,3.352942196317544,1.333298964711168,-0.6026159390157244, ,0.03600035719213611,0.05005112951396138,0.03508548792951543,0.28961110773719634,0.007303736542366078,0.24259654602269196, ,1.0826539993286133
0.012743440131085098,0.020545678198301554,-0.08870123657579339, ,0.013253674043358931,0.020186630317955888,-0.08935332597761908, ,0.0009024824727319454, ,0.010040629734951626,-0.0004200385893282036,-0.03478645217105497,-0.025077329466724117,0.024849543162930688,-0.04968181989711756, ,0.03620894823852268, ,0.03530327618730057, ,8.737087128567158e-05, ,0.12198056574837612,-0.1312015088002002,0.10496967533000001,3.352942196317544,1.333298964711168,-0.6026159390157244, ,0.03600035719213611,0.05005112951396138,0.03508548792951543,0.28961110773719634,0.007303736542366078,0.24259654602269196, ,1.0869951248168945
0.012743440131085098,0.020545678198301554,-0.08870123657579339, ,0.013297946403002048,0.0201812487904194,-0.08947776428411987, ,0.0010214114159942348, ,0.010040629734951626,-0.0004200385893282036,-0.03478645217105497,-0.025077329466724117,0.024849543162930688,-0.04968181989711756, ,0.03620894823852268, ,0.03530327618730057, ,8.89805094480725e-05, ,0.12198056574837612,-0.1312015088002002,0.10496967533000001,3.352942196317544,1.333298964711168,-0.6026159390157244, ,0.03600035719213611,0.05005112951396138,0.03508548792951543,0.28961110773719634,0.007303736542366078,0.24259654602269196, ,1.09079909324646
0.012869894956812171,0.02053946725766833,-0.08906192942288124, ,0.013342329348763445,0.020175867370623095,-0.08960198842075641, ,0.0008044021716427722, ,0.011835792009390604,-0.00048485086699296114,-0.03365568208612149,0.04687860592055862,0.033352779170657626,-0.2486366939777719, ,0.03567948976001279, ,0.05753232474472519, ,9.033804580897326e-05, ,0.1223821478578358,-0.1306995311633756,0.10533911798000001,3.3581844449046576,1.3337088742104641,-0.6003364730423154, ,0.039213612214244124,0.04617856036908554,0.03462785113043479,0.4730438820521087,0.05250646305854712,0.21937700215700207, ,1.0927062034606934
0.012869894956812171,0.02053946725766833,-0.08906192942288124, ,0.013386821891250024,0.020170486445958816,-0.08972599714617355, ,0.0009188831460396655, ,0.011835792009390604,-0.00048485086699296114,-0.03365568208612149,0.04687860592055862,0.033352779170657626,-0.2486366939777719, ,0.03567948976001279, ,0.05753232474472519, ,9.190726001395564e-05, ,0.1223821478578358,-0.1306995311633756,0.10533911798000001,3.3581844449046576,1.3337088742104641,-0.6003364730423154, ,0.039213612214244124,0.04617856036908554,0.03462785113043479,0.4730438820521087,0.05250646305854712,0.21937700215700207, ,1.0946831703186035
0.012869894956812171,0.02053946725766833,-0.08906192942288124, ,0.013431423044358485,0.02016510640269373,-0.0898497892254288, ,0.0010373923613132164, ,0.011835792009390604,-0.00048485086699296114,-0.03365568208612149,0.04687860592055862,0.033352779170657626,-0.2486366939777719, ,0.03567948976001279, ,0.05753232474472519, ,9.369456644363287e-05, ,0.1223821478578358,-0.1306995311633756,0.10533911798000001,3.3581844449046576,1.3337088742104641,-0.6003364730423154, ,0.039213612214244124,0.04617856036908554,0.03462785113043479,0.4730438820521087,0.05250646305854712,0.21937700215700207, ,1.0967040061950684
0.012869894956812171,0.02053946725766833,-0.08906192942288124, ,0.013476131825270906,0.020159727625971232,-0.08997336342998523, ,0.0011586359557107363, ,0.011835792009390604,-0.00048485086699296114,-0.03365568208612149,0.04687860592055862,0.033352779170657626,-0.2486366939777719, ,0.03567948976001279, ,0.05753232474472519, ,9.570388981960854e-05, ,0.1223821478578358,-0.1306995311633756,0.10533911798000001,3.3581844449046576,1.3337088742104641,-0.6003364730423154, ,0.039213612214244124,0.04617856036908554,0.03462785113043479,0.4730438820521087,0.05250646305854712,0.21937700215700207, ,1.099066972732544
0.012869894956812171,0.02053946725766833,-0.08906192942288124, ,0.013520947254450131,0.020154350499812373,-0.09009671853770139, ,0.0012817848975516194, ,0.011835792009390604,-0.00048485086699296114,-0.03365568208612149,0.04687860592055862,0.033352779170657626,-0.2486366939777719, ,0.03567948976001279, ,0.05753232474472519, ,0.0005361324381643727, ,0.1223821478578358,-0.1306995311633756,0.10533911798000001,3.3581844449046576,1.3337088742104641,-0.6003364730423154, ,0.039213612214244124,0.04617856036908554,0.03462785113043479,0.4730438820521087,0.05250646305854712,0.21937700215700207, ,1.101067066192627
0.012977564545188494,0.020532825415418912,-0.08940234149883297, ,0.013565868355636343,0.020148975407116843,-0.09021985333282248, ,0.0010778533299915386, ,0.010755156871689233,-0.0008379673965620508,-0.03410162387757682,-0.011135651414402339,0.01766222196842388,0.002047908126673288, ,0.03576725233757917, ,0.02087847453171541, ,0.0005416602023666907, ,0.12278372996729547,-0.13019755352655102,0.10568393112,3.3615394840004096,1.3338455107102296,-0.5974257775608114, ,0.04393376924003276,0.05316355269382116,0.03462785113043479,0.2914980008704354,0.027920679261196176,0.2951146664201307, ,1.103219985961914
0.012977564545188494,0.020532825415418912,-0.08940234149883297, ,0.013610894155842216,0.020143602729664346,-0.09034276660597121, ,0.0011987493803847233, ,0.010755156871689233,-0.0008379673965620508,-0.03410162387757682,-0.011135651414402339,0.01766222196842388,0.002047908126673288, ,0.03576725233757917, ,0.02087847453171541, ,0.0005482974667911152, ,0.12278372996729547,-0.13019755352655102,0.10568393112,3.3615394840004096,1.3338455107102296,-0.5974257775608114, ,0.04393376924003276,0.05316355269382116,0.03462785113043479,0.2914980008704354,0.027920679261196176,0.2951146664201307, ,1.1052110195159912
0.012977564545188494,0.020532825415418912,-0.08940234149883297, ,0.013656023685349189,0.020138232848115393,-0.09046545715413916, ,0.0013214480676878213, ,0.010755156871689233,-0.0008379673965620508,-0.03410162387757682,-0.011135651414402339,0.01766222196842388,0.002047908126673288, ,0.03576725233757917, ,0.02087847453171541, ,0.0005560289728000823, ,0.12278372996729547,-0.13019755352655102,0.10568393112,3.3615394840004096,1.3338455107102296,-0.5974257775608114, ,0.04393376924003276,0.05316355269382116,0.03462785113043479,0.2914980008704354,0.027920679261196176,0.2951146664201307, ,1.1072211265563965
0.012977564545188494,0.020532825415418912,-0.08940234149883297, ,0.013701255977702621,0.020132866142013046,-0.09058792378067702, ,0.001445441820655625, ,0.010755156871689233,-0.0008379673965620508,-0.03410162387757682,-0.011135651414402339,0.01766222196842388,0.002047908126673288, ,0.03576725233757917, ,0.02087847453171541, ,0.0005648350406006322, ,0.12278372996729547,-0.13019755352655102,0.10568393112,3.3615394840004096,1.3338455107102296,-0.5974257775608114, ,0.04393376924003276,0.05316355269382116,0.03462785113043479,0.2914980008704354,0.027920679261196176,0.2951146664201307, ,1.109133005142212
0.012977564545188494,0.020532825415418912,-0.08940234149883297, ,0.013746590069708395,0.020127502989783535,-0.09071016529528629, ,0.0015703788105599326, ,0.010755156871689233,-0.0008379673965620508,-0.03410162387757682,-0.011135651414402339,0.01766222196842388,0.002047908126673288, ,0.03576725233757917, ,0.02087847453171541, ,0.0005746933128551352, ,0.12278372996729547,-0.13019755352655102,0.10568393112,3.3615394840004096,1.3338455107102296,-0.5974257775608114, ,0.04393376924003276,0.05316355269382116,0.03462785113043479,0.2914980008704354,0.027920679261196176,0.2951146664201307, ,1.1110491752624512
0.013108433754077312,0.020525249279000353,-0.08979551355293923, ,0.013792025001428277,0.020122143768737687,-0.09083218051400926, ,0.00130555330570343, ,0.015265956292999917,-0.0006643872526500335,-0.04483854128154533,-0.0068656469148744015,0.05595636282967965,-0.1127703331352313, ,0.047370725308127935, ,0.056374377223163574, ,0.000581789040941041, ,0.12328570760412007,-0.1296337940267326,0.10608189215000001,3.3657332828701003,1.3338455107102296,-0.5933418405537833, ,0.054319943651099475,0.06083137279389152,0.04564129375358167,0.5448657275402485,0.01803149756261077,0.432558587447311, ,1.112889051437378
0.013108433754077312,0.020525249279000353,-0.08979551355293923, ,0.013837559816176046,0.020116788855071937,-0.09095396825922111, ,0.0014284544230930272, ,0.015265956292999917,-0.0006643872526500335,-0.04483854128154533,-0.0068656469148744015,0.05595636282967965,-0.1127703331352313, ,0.047370725308127935, ,0.056374377223163574, ,0.0005899300542309639, ,0.12328570760412007,-0.1296337940267326,0.10608189215000001,3.3657332828701003,1.3338455107102296,-0.5933418405537833, ,0.054319943651099475,0.06083137279389152,0.04564129375358167,0.5448657275402485,0.01803149756261077,0.432558587447311, ,1.1147551536560059
0.013108433754077312,0.020525249279000353,-0.08979551355293923, ,0.013883193560512203,0.02011143862386998,-0.09107552735961995, ,0.0015523940740867711, ,0.015265956292999917,-0.0006643872526500335,-0.04483854128154533,-0.0068656469148744015,0.05595636282967965,-0.1127703331352313, ,0.047370725308127935, ,0.056374377223163574, ,0.0005990963782295907, ,0.12328570760412007,-0.1296337940267326,0.10608189215000001,3.3657332828701003,1.3338455107102296,-0.5933418405537833, ,0.054319943651099475,0.06083137279389152,0.04564129375358167,0.5448657275402485,0.01803149756261077,0.432558587447311, ,1.1166291236877441
0.013108433754077312,0.020525249279000353,-0.08979551355293923, ,0.013928925284241701,0.02010609344910317,-0.09119685665021793, ,0.0016770988155439598, ,0.015265956292999917,-0.0006643872526500335,-0.04483854128154533,-0.0068656469148744015,0.05595636282967965,-0.1127703331352313, ,0.047370725308127935, ,0.056374377223163574, ,0.000609266212543877, ,0.12328570760412007,-0.1296337940267326,0.10608189215000001,3.3657332828701003,1.3338455107102296,-0.5933418405537833, ,0.054319943651099475,0.06083137279389152,0.04564129375358167,0.5448657275402485,0.01803149756261077,0.432558587447311, ,1.1184861660003662
0.013108433754077312,0.020525249279000353,-0.08979551355293923, ,0.013974754040407962,0.020100753703632228,-0.09131795497233258, ,0.0018023693316020395, ,0.015265956292999917,-0.0006643872526500335,-0.04483854128154533,-0.0068656469148744015,0.05595636282967965,-0.1127703331352313, ,0.047370725308127935, ,0.056374377223163574, ,0.0006204167089836729, ,0.12328570760412007,-0.1296337940267326,0.10608189215000001,3.3657332828701003,1.3338455107102296,-0.5933418405537833, ,0.054319943651099475,0.06083137279389152,0.04564129375358167,0.5448657275402485,0.01803149756261077,0.432558587447311, ,1.1204180717468262
0.013276186066034376,0.020521291724571226,-0.09028122814005603, ,0.014020678885289645,0.020095419759208342,-0.09143882117357721, ,0.0015352414229566683, ,0.015265956292999917,-0.0006643872526500335,-0.04483854128154533,-0.0068656469148744015,0.05595636282967965,-0.1127703331352313, ,0.047370725308127935, ,0.056374377223163574, ,0.0006288873081871266, ,0.12384174437106424,-0.1290314208625431,0.10657577864000001,3.3722336711181207,1.3338455107102296,-0.5884411161453496, ,0.05949651508368074,0.061862413010737145,0.05688861257142858,0.7468608769674886,0.013458708687729774,0.5367393276900798, ,1.1228210926055908
0.013276186066034376,0.020521291724571226,-0.09028122814005603, ,0.014066698878396112,0.020090091986474205,-0.09155945410785239, ,0.0015635553541182843, ,0.018895036710060306,0.00019131158112902814,-0.05573028311799996,0.005872436070405253,0.08806001786299034,-0.20873359225908134, ,0.05884660966281772, ,0.08825256174843471, ,0.0006374622443883299, ,0.12384174437106424,-0.1290314208625431,0.10657577864000001,3.3722336711181207,1.3338455107102296,-0.5884411161453496, ,0.05949651508368074,0.061862413010737145,0.05688861257142858,0.7468608769674886,0.013458708687729774,0.5367393276900798, ,1.1250221729278564
0.013276186066034376,0.020521291724571226,-0.09028122814005603, ,0.014112813082463534,0.020084770754965196,-0.09167985263533626, ,0.0016872005809395734, ,0.018895036710060306,0.00019131158112902814,-0.05573028311799996,0.005872436070405253,0.08806001786299034,-0.20873359225908134, ,0.05884660966281772, ,0.08825256174843471, ,0.0006470053201751594, ,0.12384174437106424,-0.1290314208625431,0.10657577864000001,3.3722336711181207,1.3338455107102296,-0.5884411161453496, ,0.05949651508368074,0.061862413010737145,0.05688861257142858,0.7468608769674886,0.013458708687729774,0.5367393276900798, ,1.1268980503082275
0.013276186066034376,0.020521291724571226,-0.09028122814005603, ,0.014159020563450189,0.02007945643311063,-0.0918000156224761, ,0.0018114443384667923, ,0.018895036710060306,0.00019131158112902814,-0.05573028311799996,0.005872436070405253,0.08806001786299034,-0.20873359225908134, ,0.05884660966281772, ,0.08825256174843471, ,0.0006574957617813903, ,0.12384174437106424,-0.1290314208625431,0.10657577864000001,3.3722336711181207,1.3338455107102296,-0.5884411161453496, ,0.05949651508368074,0.061862413010737145,0.05688861257142858,0.7468608769674886,0.013458708687729774,0.5367393276900798, ,1.128770112991333
0.013276186066034376,0.020521291724571226,-0.09028122814005603, ,0.014205320390532664,0.020074149388234968,-0.09191994194197885, ,0.0019361326882518873, ,0.018895036710060306,0.00019131158112902814,-0.05573028311799996,0.005872436070405253,0.08806001786299034,-0.20873359225908134, ,0.05884660966281772, ,0.08825256174843471, ,0.0006689121629105912, ,0.12384174437106424,-0.1290314208625431,0.10657577864000001,3.3722336711181207,1.3338455107102296,-0.5884411161453496, ,0.05949651508368074,0.061862413010737145,0.05688861257142858,0.7468608769674886,0.013458708687729774,0.5367393276900798, ,1.1306431293487549
0.01347865316242011,0.020526629210391403,-0.09090519029255775, ,0.014251711636101849,0.02006884998655862,-0.09203963047280227, ,0.0014471128995545892, ,0.018895036710060306,0.00019131158112902814,-0.05573028311799996,0.005872436070405253,0.08806001786299034,-0.20873359225908134, ,0.05884660966281772, ,0.08825256174843471, ,0.0006757988950932814, ,0.12448273119962487,-0.1283672658353598,0.10721096074000001,3.3797825090835634,1.3338455107102296,-0.5819068169341044, ,0.06562720716353443,0.06697031867217415,0.06582153520661158,0.6743444191410194,0.010585699653886461,0.6836692852908358, ,1.1325831413269043
0.01347865316242011,0.020526629210391403,-0.09090519029255775, ,0.014298193375757976,0.02006355859319968,-0.09215908010014548, ,0.0015679031243532187, ,0.020009610816681036,0.0008874319484123566,-0.0646176834050864,-0.019907089417702126,0.08782003020362592,0.007533857416004265, ,0.06765069895528117, ,0.09004178667330928, ,0.000683624370788544, ,0.12448273119962487,-0.1283672658353598,0.10721096074000001,3.3797825090835634,1.3338455107102296,-0.5819068169341044, ,0.06562720716353443,0.06697031867217415,0.06582153520661158,0.6743444191410194,0.010585699653886461,0.6836692852908358, ,1.134491205215454
0.01347865316242011,0.020526629210391403,-0.09090519029255775, ,0.014344764688307336,0.020058275572174676,-0.09227828971544061, ,0.001689646806532885, ,0.020009610816681036,0.0008874319484123566,-0.0646176834050864,-0.019907089417702126,0.08782003020362592,0.007533857416004265, ,0.06765069895528117, ,0.09004178667330928, ,0.0006923723919689296, ,0.12448273119962487,-0.1283672658353598,0.10721096074000001,3.3797825090835634,1.3338455107102296,-0.5819068169341044, ,0.06562720716353443,0.06697031867217415,0.06582153520661158,0.6743444191410194,0.010585699653886461,0.6836692852908358, ,1.1364831924438477
0.01347865316242011,0.020526629210391403,-0.09090519029255775, ,0.014391424655757296,0.020053001286399887,-0.09239725821634305, ,0.0018121097920993853, ,0.020009610816681036,0.0008874319484123566,-0.0646176834050864,-0.019907089417702126,0.08782003020362592,0.007533857416004265, ,0.06765069895528117, ,0.09004178667330928, ,0.0007020253005907439, ,0.12448273119962487,-0.1283672658353598,0.10721096074000001,3.3797825090835634,1.3338455107102296,-0.5819068169341044, ,0.06562720716353443,0.06697031867217415,0.06582153520661158,0.6743444191410194,0.010585699653886461,0.6836692852908358, ,1.1407999992370605
0.01347865316242011,0.020526629210391403,-0.09090519029255775, ,0.014438172363312683,0.020047736097692472,-0.09251598450672292, ,0.0019351159424334193, ,0.020009610816681036,0.0008874319484123566,-0.0646176834050864,-0.019907089417702126,0.08782003020362592,0.007533857416004265, ,0.06765069895528117, ,0.09004178667330928, ,0.0007125645368458095, ,0.12448273119962487,-0.1283672658353598,0.10721096074000001,3.3797825090835634,1.3338455107102296,-0.5819068169341044, ,0.06562720716353443,0.06697031867217415,0.06582153520661158,0.6743444191410194,0.010585699653886461,0.6836692852908358, ,1.1431469917297363
0.013543216771562972,0.020529027214269552,-0.09111563549150473, ,0.014485006899371365,0.020042480366771597,-0.09263446749665535, ,0.0018521736256402704, ,0.019994413024498822,0.000988094612850857,-0.0666158247399642,-0.0324206540675881,0.07983822890467858,0.09604811877155739, ,0.06955875925391294, ,0.08616222923154797, ,0.0007222222409881355, ,0.12469896772010315,-0.1281433065820073,0.10742484859000001,3.3818794085184085,1.3338455107102296,-0.5797014909503093, ,0.06836955443693861,0.06957253779946537,0.06778217668085108,0.6113096145997237,0.009929697922697331,0.7107496110404996, ,1.1452620029449463
0.013543216771562972,0.020529027214269552,-0.09111563549150473, ,0.014531927355519936,0.020037234453259722,-0.09275270610241203, ,0.001974692108584677, ,0.019994413024498822,0.000988094612850857,-0.0666158247399642,-0.0324206540675881,0.07983822890467858,0.09604811877155739, ,0.06955875925391294, ,0.08616222923154797, ,0.0007327471978586948, ,0.12469896772010315,-0.1281433065820073,0.10742484859000001,3.3818794085184085,1.3338455107102296,-0.5797014909503093, ,0.06836955443693861,0.06957253779946537,0.06778217668085108,0.6113096145997237,0.009929697922697331,0.7107496110404996, ,1.1472411155700684
0.013543216771562972,0.020529027214269552,-0.09111563549150473, ,0.014578932826529717,0.020031998715683657,-0.09287069924645212, ,0.00209761623250119, ,0.019994413024498822,0.000988094612850857,-0.0666158247399642,-0.0324206540675881,0.07983822890467858,0.09604811877155739, ,0.06955875925391294, ,0.08616222923154797, ,0.0007441211064807156, ,0.12469896772010315,-0.1281433065820073,0.10742484859000001,3.3818794085184085,1.3338455107102296,-0.5797014909503093, ,0.06836955443693861,0.06957253779946537,0.06778217668085108,0.6113096145997237,0.009929697922697331,0.7107496110404996, ,1.1492581367492676
0.013543216771562972,0.020529027214269552,-0.09111563549150473, ,0.01462602241035246,0.020026773511475842,-0.09298844585741292, ,0.0022208434208690828, ,0.019994413024498822,0.000988094612850857,-0.0666158247399642,-0.0324206540675881,0.07983822890467858,0.09604811877155739, ,0.06955875925391294, ,0.08616222923154797, ,0.0007563254231285534, ,0.12469896772010315,-0.1281433065820073,0.10742484859000001,3.3818794085184085,1.3338455107102296,-0.5797014909503093, ,0.06836955443693861,0.06957253779946537,0.06778217668085108,0.6113096145997237,0.009929697922697331,0.7107496110404996, ,1.1511421203613281
0.013847217243719163,0.020550622619230983,-0.09224460397715632, ,0.014673195208116314,0.02002155919697527,-0.09310594487010049, ,0.001305394896686991, ,0.019994413024498822,0.000988094612850857,-0.0666158247399642,-0.0324206540675881,0.07983822890467858,0.09604811877155739, ,0.06955875925391294, ,0.08616222923154797, ,0.0007608259925839504, ,0.1257801503224946,-0.12692311478787982,0.10858502814000001,3.3887991766533982,1.3357584217069458,-0.5696629605020993, ,0.07339283956571599,0.07888357569282692,0.07443369869158879,0.3275289215123726,0.20692498263713732,0.5209945247561529, ,1.153191089630127
0.013847217243719163,0.020550622619230983,-0.09224460397715632, ,0.014720450324121358,0.020016356127428997,-0.09322319522548167, ,0.0014161982658759576, ,0.018993854332356147,0.0014487021478032571,-0.07132045394212937,0.13222934478083972,-0.03169425795125044,0.1906744790272141, ,0.07382054179443016, ,0.13596793847568914, ,0.000766154222448113, ,0.1257801503224946,-0.12692311478787982,0.10858502814000001,3.3887991766533982,1.3357584217069458,-0.5696629605020993, ,0.07339283956571599,0.07888357569282692,0.07443369869158879,0.3275289215123726,0.20692498263713732,0.5209945247561529, ,1.1551170349121094
0.013847217243719163,0.020550622619230983,-0.09224460397715632, ,0.014767786865835273,0.02001116465699309,-0.09334019587067378, ,0.0015293086409636331, ,0.018993854332356147,0.0014487021478032571,-0.07132045394212937,0.13222934478083972,-0.03169425795125044,0.1906744790272141, ,0.07382054179443016, ,0.13596793847568914, ,0.0007723086935651737, ,0.1257801503224946,-0.12692311478787982,0.10858502814000001,3.3887991766533982,1.3357584217069458,-0.5696629605020993, ,0.07339283956571599,0.07888357569282692,0.07443369869158879,0.3275289215123726,0.20692498263713732,0.5209945247561529, ,1.1570391654968262
0.013847217243719163,0.020550622619230983,-0.09224460397715632, ,0.014815203943890208,0.020005985138733667,-0.09345694575893657, ,0.001644202187299539, ,0.018993854332356147,0.0014487021478032571,-0.07132045394212937,0.13222934478083972,-0.03169425795125044,0.1906744790272141, ,0.07382054179443016, ,0.13596793847568914, ,0.0007792838415150486, ,0.1257801503224946,-0.12692311478787982,0.10858502814000001,3.3887991766533982,1.3357584217069458,-0.5696629605020993, ,0.07339283956571599,0.07888357569282692,0.07443369869158879,0.3275289215123726,0.20692498263713732,0.5209945247561529, ,1.1589720249176025
0.013847217243719163,0.020550622619230983,-0.09224460397715632, ,0.014862700672076942,0.020000817924628406,-0.09357344384966204, ,0.0017604849338285508, ,0.018993854332356147,0.0014487021478032571,-0.07132045394212937,0.13222934478083972,-0.03169425795125044,0.1906744790272141, ,0.07382054179443016, ,0.13596793847568914, ,0.000787071151771505, ,0.1257801503224946,-0.12692311478787982,0.10858502814000001,3.3887991766533982,1.3357584217069458,-0.5696629605020993, ,0.07339283956571599,0.07888357569282692,0.07443369869158879,0.3275289215123726,0.20692498263713732,0.5209945247561529, ,1.160858154296875
0.013847217243719163,0.020550622619230983,-0.09224460397715632, ,0.01491027616734217,0.019995663365567445,-0.0936896891083668, ,0.0018778565133595495, ,0.018993854332356147,0.0014487021478032571,-0.07132045394212937,0.13222934478083972,-0.03169425795125044,0.1906744790272141, ,0.07382054179443016, ,0.13596793847568914, ,0.0007956600128863714, ,0.12666054187015618,-0.12605044597309245,0.10933687634000001,3.3946704950709647,1.3378079692034275,-0.5640648211850354, ,0.08541578898152184,0.0857244277854298,0.06475126634146343,0.7391480279798724,0.15494796621917534,0.5395682238032251, ,1.1627461910247803
0.014073786238098188,0.020552871426001203,-0.09296677079115896, ,0.014957929549783087,0.01999052181135481,-0.09380568050668196, ,0.00134228014791584, ,0.022493479958406823,-0.0014029539288476067,-0.062272747254593606,0.12025588475190116,0.022675024356084275,-0.18849248127894208, ,0.06622552356154093, ,0.12237114890805662, ,0.0007999304826912891, ,0.12666054187015618,-0.12605044597309245,0.10933687634000001,3.3946704950709647,1.3378079692034275,-0.5640648211850354, ,0.08541578898152184,0.0857244277854298,0.06475126634146343,0.7391480279798724,0.15494796621917534,0.5395682238032251, ,1.165255069732666
0.014073786238098188,0.020552871426001203,-0.09296677079115896, ,0.015005659942644465,0.019985393610709057,-0.09392141702234436, ,0.0014497479431922037, ,0.022493479958406823,-0.0014029539288476067,-0.062272747254593606,0.12025588475190116,0.022675024356084275,-0.18849248127894208, ,0.06622552356154093, ,0.12237114890805662, ,0.000804967827346335, ,0.12666054187015618,-0.12605044597309245,0.10933687634000001,3.3946704950709647,1.3378079692034275,-0.5640648211850354, ,0.08541578898152184,0.0857244277854298,0.06475126634146343,0.7391480279798724,0.15494796621917534,0.5395682238032251, ,1.1671760082244873
0.014073786238098188,0.020552871426001203,-0.09296677079115896, ,0.01505346647231336,0.01998027911126508,-0.09403689763918713, ,0.0015597457456513427, ,0.022493479958406823,-0.0014029539288476067,-0.062272747254593606,0.12025588475190116,0.022675024356084275,-0.18849248127894208, ,0.06622552356154093, ,0.12237114890805662, ,0.0008107738113332965, ,0.12666054187015618,-0.12605044597309245,0.10933687634000001,3.3946704950709647,1.3378079692034275,-0.5640648211850354, ,0.08541578898152184,0.0857244277854298,0.06475126634146343,0.7391480279798724,0.15494796621917534,0.5395682238032251, ,1.1690351963043213
0.014073786238098188,0.020552871426001203,-0.09296677079115896, ,0.015101348268315362,0.019975178659574884,-0.09415212134713177, ,0.0016717262332303056, ,0.022493479958406823,-0.0014029539288476067,-0.062272747254593606,0.12025588475190116,0.022675024356084275,-0.18849248127894208, ,0.06622552356154093, ,0.12237114890805662, ,0.0008173459672256402, ,0.12666054187015618,-0.12605044597309245,0.10933687634000001,3.3946704950709647,1.3378079692034275,-0.5640648211850354, ,0.08541578898152184,0.0857244277854298,0.06475126634146343,0.7391480279798724,0.15494796621917534,0.5395682238032251, ,1.1709551811218262
0.014073786238098188,0.020552871426001203,-0.09296677079115896, ,0.015149304463310425,0.019970092601108814,-0.09426708714217774, ,0.0017852711906692013, ,0.022493479958406823,-0.0014029539288476067,-0.062272747254593606,0.12025588475190116,0.022675024356084275,-0.18849248127894208, ,0.06622552356154093, ,0.12237114890805662, ,0.0008246787340699096, ,0.12666054187015618,-0.12605044597309245,0.10933687634000001,3.3946704950709647,1.3378079692034275,-0.5640648211850354, ,0.08541578898152184,0.0857244277854298,0.06475126634146343,0.7391480279798724,0.15494796621917534,0.5395682238032251, ,1.1729850769042969
0.014073786238098188,0.020552871426001203,-0.09296677079115896, ,0.015197334193088776,0.019965021280256755,-0.09438179402639411, ,0.00190005751420073, ,0.022493479958406823,-0.0014029539288476067,-0.062272747254593606,0.12025588475190116,0.022675024356084275,-0.18849248127894208, ,0.06622552356154093, ,0.12237114890805662, ,0.0008327642888077354, ,0.12666054187015618,-0.12605044597309245,0.10933687634000001,3.3946704950709647,1.3378079692034275,-0.5640648211850354, ,0.08541578898152184,0.0857244277854298,0.06475126634146343,0.7391480279798724,0.15494796621917534,0.5395682238032251, ,1.1765789985656738
0.014073786238098188,0.020552871426001203,-0.09296677079115896, ,0.015245436596566374,0.019959965040329278,-0.09449624100791056, ,0.0020158327531319014, ,0.022493479958406823,-0.0014029539288476067,-0.062272747254593606,0.12025588475190116,0.022675024356084275,-0.18849248127894208, ,0.06622552356154093, ,0.12237114890805662, ,0.0008415931579444829, ,0.1276722198766796,-0.12509282709668862,0.10999539166000001,3.4034774726973147,1.3386277882020199,-0.5575455994748444, ,0.10084690920135046,0.09124705919083728,0.056485147234042556,0.7670943809282035,0.030489052425453255,0.6129366113409769, ,1.178812026977539
0.014328132037753209,0.0205260498607664,-0.09360546474583419, ,0.015293610815780881,0.019954924223558948,-0.09461042710090806, ,0.001506082036083376, ,0.02333178749216066,-0.003308044193611864,-0.055107050945523296,-0.005564097082122289,0.047766045326331566,-0.15523062594100898, ,0.05993415159889004, ,0.048083740090207085, ,0.0008465152977825488, ,0.1276722198766796,-0.12509282709668862,0.10999539166000001,3.4034774726973147,1.3386277882020199,-0.5575455994748444, ,0.10084690920135046,0.09124705919083728,0.056485147234042556,0.7670943809282035,0.030489052425453255,0.6129366113409769, ,1.1812160015106201
0.014552536371932635,0.020483938200660412,-0.09412530195870718, ,0.015341855995887811,0.019949899171101126,-0.09472435132560963, ,0.0011256479457803842, ,0.020291013300314995,-0.004713743187727186,-0.04493005638099713,-0.05958517226754502,0.002068057145187978,0.08237816746253628, ,0.049524282548997975, ,0.05961951455685907, ,0.0008485677437237093, ,0.12781122906841563,-0.12496926337070102,0.11007057648000002,3.404316232471253,1.3386277882020199,-0.5567288120734389, ,0.10236994774376568,0.09258238200826417,0.05492693627586208,0.742984436429595,0.027178171997495667,0.6102839181327824, ,1.1834101676940918
0.014552536371932635,0.020483938200660412,-0.09412530195870718, ,0.015390171285155643,0.01994489022303562,-0.09483801270827194, ,0.001224810835425887, ,0.020291013300314995,-0.004713743187727186,-0.04493005638099713,-0.05958517226754502,0.002068057145187978,0.08237816746253628, ,0.049524282548997975, ,0.05961951455685907, ,0.0008513140436631413, ,0.12781122906841563,-0.12496926337070102,0.11007057648000002,3.404316232471253,1.3386277882020199,-0.5567288120734389, ,0.10236994774376568,0.09258238200826417,0.05492693627586208,0.742984436429595,0.027178171997495667,0.6102839181327824, ,1.185312032699585
0.014552536371932635,0.020483938200660412,-0.09412530195870718, ,0.015438555834962255,0.019939897718367346,-0.09495141028117543, ,0.0013279553816647146, ,0.020291013300314995,-0.004713743187727186,-0.04493005638099713,-0.05958517226754502,0.002068057145187978,0.08237816746253628, ,0.049524282548997975, ,0.05961951455685907, ,0.0008547679664022832, ,0.12781122906841563,-0.12496926337070102,0.11007057648000002,3.404316232471253,1.3386277882020199,-0.5567288120734389, ,0.10236994774376568,0.09258238200826417,0.05492693627586208,0.742984436429595,0.027178171997495667,0.6102839181327824, ,1.1872169971466064
0.014552536371932635,0.020483938200660412,-0.09412530195870718, ,0.015487008799790338,0.01993492199502792,-0.0950645430826161, ,0.0014341657509908182, ,0.020291013300314995,-0.004713743187727186,-0.04493005638099713,-0.05958517226754502,0.002068057145187978,0.08237816746253628, ,0.049524282548997975, ,0.05961951455685907, ,0.0008589362957878121, ,0.12781122906841563,-0.12496926337070102,0.11007057648000002,3.404316232471253,1.3386277882020199,-0.5567288120734389, ,0.10236994774376568,0.09258238200826417,0.05492693627586208,0.742984436429595,0.027178171997495667,0.6102839181327824, ,1.1891231536865234
0.014552536371932635,0.020483938200660412,-0.09412530195870718, ,0.015535529337223611,0.019929963389876508,-0.0951774101568957, ,0.0015427556259790779, ,0.020291013300314995,-0.004713743187727186,-0.04493005638099713,-0.05958517226754502,0.002068057145187978,0.08237816746253628, ,0.049524282548997975, ,0.05961951455685907, ,0.0008638207195748926, ,0.12781122906841563,-0.12496926337070102,0.11007057648000002,3.404316232471253,1.3386277882020199,-0.5567288120734389, ,0.10236994774376568,0.09258238200826417,0.05492693627586208,0.742984436429595,0.027178171997495667,0.6102839181327824, ,1.191021203994751
0.014552536371932635,0.020483938200660412,-0.09412530195870718, ,0.015584116607941798,0.019925022238701372,-0.09529001055431296, ,0.0016532062631551226, ,0.017440928382071494,-0.00536923578774492,-0.036123844247104096,-0.07457415693490477,-0.03560778311646939,0.15121641257195267, ,0.04047155543047467, ,0.08263871724325685, ,0.0008694191986073765, ,0.12979597141709134,-0.12318531207675515,0.11090020208000001,3.4122844503236647,1.3390376977013165,-0.5470165807472391, ,0.10771503014582383,0.09683361383517426,0.03670233069124424,0.27082930686754636,0.016534299053473926,0.43190415416789707, ,1.1929831504821777
0.014722852329123426,0.020436618545074413,-0.09449293642028715, ,0.015632769775717655,0.019920098876220454,-0.09540234333115487, ,0.0013862767607745307, ,0.017440928382071494,-0.00536923578774492,-0.036123844247104096,-0.07457415693490477,-0.03560778311646939,0.15121641257195267, ,0.04047155543047467, ,0.08263871724325685, ,0.0008730590405944692, ,0.12979597141709134,-0.12318531207675515,0.11090020208000001,3.4122844503236647,1.3390376977013165,-0.5470165807472391, ,0.10771503014582383,0.09683361383517426,0.03670233069124424,0.27082930686754636,0.016534299053473926,0.43190415416789707, ,1.1948740482330322
0.014722852329123426,0.020436618545074413,-0.09449293642028715, ,0.01568148800741166,0.01991519363608309,-0.09551440754968707, ,0.001494747325671229, ,0.017440928382071494,-0.00536923578774492,-0.036123844247104096,-0.07457415693490477,-0.03560778311646939,0.15121641257195267, ,0.04047155543047467, ,0.08263871724325685, ,0.0008774065111194814, ,0.12979597141709134,-0.12318531207675515,0.11090020208000001,3.4122844503236647,1.3390376977013165,-0.5470165807472391, ,0.10771503014582383,0.09683361383517426,0.03670233069124424,0.27082930686754636,0.016534299053473926,0.43190415416789707, ,1.1968090534210205
0.014722852329123426,0.020436618545074413,-0.09449293642028715, ,0.015730270472968547,0.019910306850870797,-0.09562620227814463, ,0.0016050504106068651, ,0.017440928382071494,-0.00536923578774492,-0.036123844247104096,-0.07457415693490477,-0.03560778311646939,0.15121641257195267, ,0.04047155543047467, ,0.08263871724325685, ,0.0008824595937548106, ,0.12979597141709134,-0.12318531207675515,0.11090020208000001,3.4122844503236647,1.3390376977013165,-0.5470165807472391, ,0.10771503014582383,0.09683361383517426,0.03670233069124424,0.27082930686754636,0.016534299053473926,0.43190415416789707, ,1.1986830234527588
0.014722852329123426,0.020436618545074413,-0.09449293642028715, ,0.015779116345412757,0.019905438852098827,-0.09573772659072434, ,0.0017167842341873798, ,0.017440928382071494,-0.00536923578774492,-0.036123844247104096,-0.07457415693490477,-0.03560778311646939,0.15121641257195267, ,0.04047155543047467, ,0.08263871724325685, ,0.0008882135567922766, ,0.12979597141709134,-0.12318531207675515,0.11090020208000001,3.4122844503236647,1.3390376977013165,-0.5470165807472391, ,0.10771503014582383,0.09683361383517426,0.03670233069124424,0.27082930686754636,0.016534299053473926,0.43190415416789707, ,1.2005829811096191
0.014722852329123426,0.020436618545074413,-0.09449293642028715, ,0.0158280248008442,0.019900589970216858,-0.09584897956757381, ,0.0018296409053735994, ,0.017440928382071494,-0.00536923578774492,-0.036123844247104096,-0.07457415693490477,-0.03560778311646939,0.15121641257195267, ,0.04047155543047467, ,0.08263871724325685, ,0.0008946616893168063, ,0.12979597141709134,-0.12318531207675515,0.11090020208000001,3.4122844503236647,1.3390376977013165,-0.5470165807472391, ,0.10771503014582383,0.09683361383517426,0.03670233069124424,0.27082930686754636,0.016534299053473926,0.43190415416789707, ,1.202481985092163
0.014946072103684833,0.020367110167220818,-0.09490714446836375, ,0.015876995018434314,0.019895760534610594,-0.09595996029478356, ,0.0014822985912856705, ,0.024316092126025007,-0.007326391657538766,-0.04467226681984298,-0.013958626099861263,0.041982948309877074,-0.4375304877625324, ,0.05138637731757545, ,0.0442406293541203, ,0.0008986592192621728, ,0.1309466586153508,-0.12208868400861528,0.11132149633,3.41899452851517,1.3390376977013165,-0.5422792138190866, ,0.11060249598889368,0.11177496061068408,0.04564129375358167,0.8974817225837114,0.012176278952225823,0.4625184946783675, ,1.204406976699829
0.014946072103684833,0.020367110167220818,-0.09490714446836375, ,0.01592602618042184,0.019890950873602514,-0.09607066786437789, ,0.001593996348328576, ,0.024316092126025007,-0.007326391657538766,-0.04467226681984298,-0.013958626099861263,0.041982948309877074,-0.4375304877625324, ,0.05138637731757545, ,0.0442406293541203, ,0.000903357443107216, ,0.1309466586153508,-0.12208868400861528,0.11132149633,3.41899452851517,1.3390376977013165,-0.5422792138190866, ,0.11060249598889368,0.11177496061068408,0.04564129375358167,0.8974817225837114,0.012176278952225823,0.4625184946783675, ,1.2063930034637451
0.014946072103684833,0.020367110167220818,-0.09490714446836375, ,0.01597511747210818,0.019886161314453598,-0.09618110137430547, ,0.0017068135127916698, ,0.024316092126025007,-0.007326391657538766,-0.04467226681984298,-0.013958626099861263,0.041982948309877074,-0.4375304877625324, ,0.05138637731757545, ,0.0442406293541203, ,0.0009087497657225479, ,0.1309466586153508,-0.12208868400861528,0.11132149633,3.41899452851517,1.3390376977013165,-0.5422792138190866, ,0.11060249598889368,0.11177496061068408,0.04564129375358167,0.8974817225837114,0.012176278952225823,0.4625184946783675, ,1.208320140838623
0.014946072103684833,0.020367110167220818,-0.09490714446836375, ,0.016024268081853976,0.019881392183363718,-0.09629125992843023, ,0.0018204955737318768, ,0.024316092126025007,-0.007326391657538766,-0.04467226681984298,-0.013958626099861263,0.041982948309877074,-0.4375304877625324, ,0.05138637731757545, ,0.0442406293541203, ,0.0009148280711092767, ,0.1309466586153508,-0.12208868400861528,0.11132149633,3.41899452851517,1.3390376977013165,-0.5422792138190866, ,0.11060249598889368,0.11177496061068408,0.04564129375358167,0.8974817225837114,0.012176278952225823,0.4625184946783675, ,1.2102911472320557
0.014946072103684833,0.020367110167220818,-0.09490714446836375, ,0.016073477201074216,0.019876643805473538,-0.09640114263652283, ,0.0019348462554135573, ,0.024316092126025007,-0.007326391657538766,-0.04467226681984298,-0.013958626099861263,0.041982948309877074,-0.4375304877625324, ,0.05138637731757545, ,0.0442406293541203, ,0.0009215831584225502, ,0.1309466586153508,-0.12208868400861528,0.11132149633,3.41899452851517,1.3390376977013165,-0.5422792138190866, ,0.11060249598889368,0.11177496061068408,0.04564129375358167,0.8974817225837114,0.012176278952225823,0.4625184946783675, ,1.2123770713806152
0.014946072103684833,0.020367110167220818,-0.09490714446836375, ,0.01612274402423461,0.019871916504865247,-0.09651074861425087, ,0.0020497121330942474, ,0.024316092126025007,-0.007326391657538766,-0.04467226681984298,-0.013958626099861263,0.041982948309877074,-0.4375304877625324, ,0.05138637731757545, ,0.0442406293541203, ,0.0009290050595717061, ,0.1309466586153508,-0.12208868400861528,0.11132149633,3.41899452851517,1.3390376977013165,-0.5422792138190866, ,0.11060249598889368,0.11177496061068408,0.04564129375358167,0.8974817225837114,0.012176278952225823,0.4625184946783675, ,1.2161240577697754
0.014946072103684833,0.020367110167220818,-0.09490714446836375, ,0.016172067748846768,0.019867210604563906,-0.09662007698317075, ,0.0021649717538535333, ,0.024316092126025007,-0.007326391657538766,-0.04467226681984298,-0.013958626099861263,0.041982948309877074,-0.4375304877625324, ,0.05138637731757545, ,0.0442406293541203, ,0.0009370832732598224, ,0.1309466586153508,-0.12208868400861528,0.11132149633,3.41899452851517,1.3390376977013165,-0.5422792138190866, ,0.11060249598889368,0.11177496061068408,0.04564129375358167,0.8974817225837114,0.012176278952225823,0.4625184946783675, ,1.2182981967926025
0.015342597723356194,0.020271869329645448,-0.09571942745631547, ,0.016221447575464457,0.019862526426538563,-0.09672912687071769, ,0.0013997969789647647, ,0.024928509532754772,-0.00463782400138473,-0.05712560029172358,-0.07365270128462623,0.0386617335612625,-0.092644384078589, ,0.06250019366115785, ,0.08317957500470871, ,0.0009400879077124519, ,0.1326765507791771,-0.12042057370778278,0.11215112193000001,3.433043754728633,1.3390376977013165,-0.533621267364187, ,0.11572797751033022,0.10138562132315254,0.05813434861313869,0.7017075232946175,-0.025763624702048377,0.6181967971039699, ,1.221364974975586
0.015342597723356194,0.020271869329645448,-0.09571942745631547, ,0.016270882707679422,0.01985786429170327,-0.0968378974101971, ,0.0015113200261021732, ,0.024928509532754772,-0.00463782400138473,-0.05712560029172358,-0.07365270128462623,0.0386617335612625,-0.092644384078589, ,0.06250019366115785, ,0.08317957500470871, ,0.0009437732762181922, ,0.1326765507791771,-0.12042057370778278,0.11215112193000001,3.433043754728633,1.3390376977013165,-0.533621267364187, ,0.11572797751033022,0.10138562132315254,0.05813434861313869,0.7017075232946175,-0.025763624702048377,0.6181967971039699, ,1.22359299659729
0.015342597723356194,0.020271869329645448,-0.09571942745631547, ,0.016320372352116887,0.019853224519918545,-0.0969463877407757, ,0.0016238036337569025, ,0.024928509532754772,-0.00463782400138473,-0.05712560029172358,-0.07365270128462623,0.0386617335612625,-0.092644384078589, ,0.06250019366115785, ,0.08317957500470871, ,0.0009481324451767737, ,0.1326765507791771,-0.12042057370778278,0.11215112193000001,3.433043754728633,1.3390376977013165,-0.533621267364187, ,0.11572797751033022,0.10138562132315254,0.05813434861313869,0.7017075232946175,-0.025763624702048377,0.6181967971039699, ,1.2255890369415283
0.015342597723356194,0.020271869329645448,-0.09571942745631547, ,0.01636991571843176,0.019848607429992244,-0.09705459700747181, ,0.0017370119829866297, ,0.024928509532754772,-0.00463782400138473,-0.05712560029172358,-0.07365270128462623,0.0386617335612625,-0.092644384078589, ,0.06250019366115785, ,0.08317957500470871, ,0.0009531571556086835, ,0.1326765507791771,-0.12042057370778278,0.11215112193000001,3.433043754728633,1.3390376977013165,-0.533621267364187, ,0.11572797751033022,0.10138562132315254,0.05813434861313869,0.7017075232946175,-0.025763624702048377,0.6181967971039699, ,1.227532148361206
0.015342597723356194,0.020271869329645448,-0.09571942745631547, ,0.016419512019304024,0.019844013339680926,-0.09716252436114725, ,0.0018507657403627306, ,0.024928509532754772,-0.00463782400138473,-0.05712560029172358,-0.07365270128462623,0.0386617335612625,0.4736463555408335, ,0.06250019366115785, ,0.08317957500470871, ,0.0009588382226007977, ,0.13387357437468186,-0.11937800476976247,0.11273574872000001,3.435979413937416,1.3389010612015508,-0.5277106589105106, ,0.11832536353924038,0.10428235336095688,0.057297883165467633,0.05597263571006505,0.00022558960452332812,0.5467115766804417, ,1.2298400402069092
0.01556233025744255,0.020232871898040274,-0.09629595611468948, ,0.016469160470434684,0.019839442565691028,-0.09727016895849763, ,0.0013878826822858257, ,0.019741733274924823,-0.003487247939892293,-0.056582252954247965,-0.1320116417409303,-0.05570622864485897,0.4736463555408335, ,0.06002872879106353, ,0.14328181147925934, ,0.0009615366154290053, ,0.13387357437468186,-0.11937800476976247,0.11273574872000001,3.435979413937416,1.3389010612015508,-0.5277106589105106, ,0.11832536353924038,0.10428235336095688,0.057297883165467633,0.05597263571006505,0.00022558960452332812,0.5467115766804417, ,1.2320261001586914
0.01556233025744255,0.020232871898040274,-0.09629595611468948, ,0.016518860290541854,0.01983489542367972,-0.09737752996204305, ,0.0014977105747255057, ,0.019741733274924823,-0.003487247939892293,-0.056582252954247965,-0.1320116417409303,-0.05570622864485897,0.4736463555408335, ,0.06002872879106353, ,0.14328181147925934, ,0.0009648877026746085, ,0.13387357437468186,-0.11937800476976247,0.11273574872000001,3.435979413937416,1.3389010612015508,-0.5277106589105106, ,0.11832536353924038,0.10428235336095688,0.057297883165467633,0.05597263571006505,0.00022558960452332812,0.5467115766804417, ,1.233976125717163
0.01556233025744255,0.020232871898040274,-0.09629595611468948, ,0.016568610701356297,0.01983037222825636,-0.09748460654011973, ,0.001608569597454494, ,0.019741733274924823,-0.003487247939892293,-0.056582252954247965,-0.1320116417409303,-0.05570622864485897,0.4736463555408335, ,0.06002872879106353, ,0.14328181147925934, ,0.000968885726865788, ,0.13387357437468186,-0.11937800476976247,0.11273574872000001,3.435979413937416,1.3389010612015508,-0.5277106589105106, ,0.11832536353924038,0.10428235336095688,0.057297883165467633,0.05597263571006505,0.00022558960452332812,0.5467115766804417, ,1.2358851432800293
0.01556233025744255,0.020232871898040274,-0.09629595611468948, ,0.016618410927617115,0.019825873292983763,-0.0975913978668705, ,0.001720210330084126, ,0.019741733274924823,-0.003487247939892293,-0.056582252954247965,-0.1320116417409303,-0.05570622864485897,0.4736463555408335, ,0.06002872879106353, ,0.14328181147925934, ,0.0009735235330584937, ,0.13387357437468186,-0.11937800476976247,0.11273574872000001,3.435979413937416,1.3389010612015508,-0.5277106589105106, ,0.11832536353924038,0.10428235336095688,0.057297883165467633,0.05597263571006505,0.00022558960452332812,0.5467115766804417, ,1.2379381656646729
0.015792180532257036,0.020190745826880074,-0.0968698648525728, ,0.01666826019706781,0.019821398930378962,-0.09769790312223615, ,0.0012607855031991119, ,0.027050757937514734,-0.0044403273799096706,-0.06295291781335745,-0.05003074882706839,0.006444194851522478,-0.13008992098063746, ,0.0686624342231626, ,0.050434261586932275, ,0.0009752858764335895, ,0.13507059797018667,-0.11834315856461639,0.11332037551000002,3.439963522863622,1.3389010612015508,-0.5223198620612335, ,0.12893606190009615,0.10520725228211839,0.06448911546558705,0.6704840035227259,0.001151583971351625,0.5478514940122005, ,1.2401771545410156
