NicholasDascanio/dvrk_moveit_final/test/execution/third_experiment_notsharpbends/thirdexp_600vel5.0/thirdexp_600vel5.0_15.csv
Current Position (x),Current Position (y),Current Position (z), ,Planned Position (x),Planned Position (y),Planned Position (z), ,Position Error,,Cartesian linear Velocity(x),Cartesian linear Velocity(y),Cartesian linear Velocity(z),Cartesian Angular Velocity(x),Cartesian Angular Velocity(y),Cartesian Angular Velocity(z), ,Total Linear Velocity, ,Total Angular Velocity, ,MSE, ,Joint 1 Position,Joint 2 Position,Joint 3 Position,Joint 4 Position,Joint 5 Position,Joint 6 Position, ,Joint 1 Velocity,Joint 2 Velocity,Joint 3 Velocity,Joint 4 Velocity,Joint 5 Velocity,Joint 6 Velocity, ,Time Stamp
0.009709085394496395,0.02018267727447879,-0.07733794621471607, ,0.00977694247441852,0.020077444860642592,-0.07742828292594645, ,0.0001543993705080142, ,-6.44109289748683e-05,-1.8697634583627685e-05,-1.2965686101482294e-05,-0.011190770561969727,0.0037318302817619144,0.04023016663476033, ,6.831162658369783e-05, ,0.0117966055720501, ,1.2866614209001185e-05, ,0.1697765595069516,-0.1532653566218596,0.09326028776,2.7320502736598677,1.3067914837566725,-1.2153996403703655, ,-0.0005880077695710225,0.0001305449245668672,0.0,-0.0024682192130182482,0.0,0.03947516036846643, ,0.0185699462890625
0.009713309748945416,0.02018669400865327,-0.07737258796956861, ,0.009814991879152787,0.020091259738272003,-0.07758240222587325, ,0.00025193050175669477, ,1.763507220611945e-05,4.0924061533806875e-05,-0.00023525648709142968,0.07195026046760955,-0.022954057412724965,-0.25639422248816846, ,0.00023943974044159393, ,0.07552303445349326, ,1.8469539648395864e-05, ,0.1697765595069516,-0.1532576338889854,0.09329528759000001,2.7318405837163833,1.3067914837566725,-1.2187484687161287, ,-0.0004676372336283856,2.2053524210994153e-05,0.0002397880715488407,0.001745056365088761,0.0,-0.2656437130542524, ,0.03732585906982422
0.009727149224672533,0.02019303599210731,-0.07741949027118743, ,0.009853197610384081,0.02010491520892643,-0.07773626071704974, ,0.0003521320538387664, ,0.000618811745078496,0.00043550912558390715,-0.003342865695719817,0.04265312263956472,-0.04307562020630044,-0.30173201181848114, ,0.0034274403326585113, ,0.060620111569063835, ,2.3701935190733605e-05, ,0.1697765595069516,-0.15323446569036273,0.09333806516000001,2.732469653546837,1.3061083012578454,-1.2232554610863613, ,-0.00041652094960915664,0.00011150172906249928,0.003042752916905445,0.004488609097773228,-0.04369637018622982,-0.3003648245589208, ,0.05829191207885742
0.009763867445489929,0.020214286127939317,-0.07759347060240465, ,0.00989155857788619,0.020118412105232734,-0.07788985738913162, ,0.0003366630078712552, ,0.0011523150345662861,0.0011118810186309404,-0.007799217450537851,0.04275389927551936,-0.010302427904717432,-0.09635208190270683, ,0.007961903175701989, ,0.04397767496282508, ,2.6074403189874535e-05, ,0.16979200497270008,-0.1532035747588658,0.09349621254000001,2.7328890334338056,1.3037854807618328,-1.2250369000298473, ,0.00034850596061369155,0.0006256043775519115,0.008077490628803247,-0.024316431148474545,0.01419436911311011,-0.12833942580651536, ,0.08032894134521484
0.009797252861623204,0.020239389892264092,-0.07778233104925722, ,0.00993007369496155,0.020131751258344852,-0.0780431912374941, ,0.00031189018434005944, ,0.0016744375086321043,0.0011461820351202664,-0.00869421169304343,-0.07195851376647475,-0.002313986904569007,0.13019041922963664, ,0.0089278659931363, ,0.07199570951937306, ,2.705798304451519e-05, ,0.16982289590419697,-0.1531649610944947,0.09368676717,2.7326793434903216,1.3035122077623018,-1.2278361776076552, ,0.0018837989535149641,0.0017362870932010517,0.008596228559093363,0.0,-0.03494028604091614,0.14401413814665331, ,0.09937191009521484
0.00983379883224525,0.02026414480022124,-0.0779588085167049, ,0.009968741878436528,0.02014493349794459,-0.07819626126322317, ,0.00029800128713638704, ,0.00144849765562436,0.0009295894182352278,-0.007089008144372681,-0.03714056861195379,0.040416046190787716,0.2705236994769333, ,0.007294951570492184, ,0.05488969492183454, ,2.7500264604051243e-05, ,0.16987695503431655,-0.15312634743012357,0.09386565519000001,2.7328890334338056,1.3032389347627709,-1.2223859024312662, ,0.0032405757419533324,0.0036033747919803735,0.007647053058089295,0.002253462928353333,0.04537523582911083,0.27509801468328, ,0.11849689483642578
0.009859108806093414,0.020283724290889874,-0.07808765217579147, ,0.010007562048656807,0.020157959652242274,-0.07834906647310748, ,0.000325871975479587, ,0.0012888410531338014,0.0008495003364677445,-0.007160379371785051,0.06602619744222224,0.025668556372559125,-0.015522895036138191, ,0.007324875072640266, ,0.07084019703606094, ,2.8206783068482837e-05, ,0.16991556869868765,-0.15306456556712977,0.09401213596,2.7330987233772905,1.3048785727599563,-1.2202107314495794, ,0.0009800963918432197,0.005534532080729459,0.007897278889439764,0.006212561323605583,0.071250063092468,-0.024880239413974825, ,0.13767290115356445
0.009887920667924072,0.02030204084359022,-0.07822989906187845, ,0.010046533129482664,0.020170830547978007,-0.07850160587962995, ,0.00034087923000524357, ,0.0015362380076763592,0.0009057975804296746,-0.007741902835069132,0.004365005709185181,-0.00910837297156208,-0.06522285525785512, ,0.0079446558125946, ,0.010100282432580512, ,2.892399525531717e-05, ,0.1699541823630588,-0.15299506097126175,0.09416120931000001,2.733308413320775,1.3052884822592525,-1.2213617725620742, ,0.001591351351880342,0.0039044297351962043,0.007815903591756624,0.008721309192491596,-0.00947712228704034,-0.05637025242900012, ,0.15828204154968262
0.009906422154039647,0.020311623119393652,-0.0783161481692278, ,0.010085654048284542,0.020183547010421955,-0.07865387850095956, ,0.00040322368305394606, ,0.0018171705748187,0.001065170440930509,-0.008977333805833279,0.0006665839939837661,-0.0017753282246816002,-0.02377432963975872, ,0.009221128956238278, ,0.0018963296699717345, ,3.0494409824065427e-05, ,0.16997735056168145,-0.15294100184114218,0.09424806074000001,2.7335181032642595,1.3051518457594873,-1.2217404270992211, ,0.00231600907880894,0.004684551251203058,0.009165023889528194,0.01112871380032925,0.0,-0.012667621211528323, ,0.17885088920593262
0.009960543137280588,0.020339573803110043,-0.07856092277898656, ,0.010124923735938443,0.02019610986337573,-0.07880588336094241, ,0.0003280374520254554, ,0.0014783793702238931,0.0005831162331746291,-0.006315348939334191,-0.006296312184126931,-2.9656470758089495e-05,-0.006742624093569459, ,0.006512239425055321, ,0.006296381228959337, ,3.1030287460154095e-05, ,0.1700854688219206,-0.15279426991653192,0.09449824471000001,2.7339374831512284,1.3051518457594873,-1.2214953908787993, ,0.003241086191420202,0.005692031822613583,0.006425498797902381,0.016258872362145987,-0.0005974677435021559,0.010628354350427057, ,0.197922945022583
0.009974808609863575,0.020344152628045592,-0.07862230913478202, ,0.010164341126821002,0.02020851992917271,-0.07895761948909417, ,0.00040835258992285363, ,0.0017501286433553743,0.0006389813994083668,-0.006662652159507199,-0.0008215834665425701,-0.005248511575774613,-0.025654439799044877, ,0.006918249872306488, ,0.00531242506059273, ,3.221450766915837e-05, ,0.17013180521916596,-0.15273248805353812,0.09456046663,2.7339374831512284,1.3051518457594873,-1.2213320333985183, ,0.0060843072750129505,0.005618382330260006,0.00680718441025641,0.014180681785356282,-0.0007623432689269964,-0.0111912438475715, ,0.21539807319641113
0.01000374005363411,0.020355820503733017,-0.07873096516598133, ,0.010203905158805305,0.02022077802867915,-0.07910908592059128, ,0.0004486399942756668, ,0.001905876153855758,0.0008051672493856601,-0.007616226539139543,-0.0012037735819678936,-0.003135565461378227,-0.027034489943752696, ,0.007892247139364858, ,0.0033586925986376728, ,3.355950279842314e-05, ,0.17021675528078242,-0.15264753799192166,0.09467194757000001,2.734356863038198,1.3051518457594873,-1.2211686759182372, ,0.005334515502615173,0.00565838029279995,0.007789149887530563,0.02038999596021212,-0.0008303874499586431,-0.006297676467023303, ,0.23391985893249512
0.010053869362018408,0.02037927797014814,-0.07895190006840266, ,0.01024361477325596,0.020232884981295128,-0.07926028169626209, ,0.00039055531832540255, ,0.001838769538333358,0.0009337109584689404,-0.009102420521855737,-0.006627048831675014,-0.0005309981051279237,-0.006580086481628681, ,0.00933311035645503, ,0.0066482834415210025, ,3.4256509043616794e-05, ,0.17032487354102155,-0.15249308333443717,0.09489750203000001,2.7347762429251667,1.3051518457594873,-1.2211686759182372, ,0.0023037831507202607,0.006377750393141887,0.009250180905923347,0.010579150160169581,-0.0007941547181807837,0.0051926787049826, ,0.2520170211791992
0.010094192520665997,0.020394733555925824,-0.07913187818981697, ,0.010283468915024496,0.020244841604955027,-0.07941120586257976, ,0.00036921145594125354, ,0.0021273040001467867,0.0008070221244585869,-0.008853565307435095,-0.008521225792652737,-0.004296373553316699,-0.003720403514887286, ,0.009141243114118805, ,0.009543063466204234, ,3.4704324297651374e-05, ,0.17044071453413492,-0.1523386286769527,0.09508027892000001,2.7347762429251667,1.3051518457594873,-1.2209236396978156, ,0.0063832551819456825,0.0074870217030596625,0.009014607538200341,0.010579150160169581,-0.0007331330043430864,0.008360321237132427, ,0.2718849182128906
0.010141100859557923,0.020413316028247454,-0.07929544686219818, ,0.010323466532444812,0.020256648716128516,-0.07956185747165238, ,0.00035885442475162653, ,0.002269794757091975,0.0009102776495374632,-0.00860126901729185,-0.0025090125095176136,-0.003830700610916484,-0.02616811370040048, ,0.008942169890266813, ,0.004579231798672312, ,3.5025120891256645e-05, ,0.17058744645874518,-0.1522150649509651,0.09524879662,2.7356150026991046,1.3051518457594873,-1.2204335672569722, ,0.007223375002861843,0.006390674680851958,0.008815058948533483,0.024682303674158957,-0.000676137469257764,-0.000933961784048705, ,0.290179967880249
0.01017135266137761,0.0204245811938533,-0.07941474070161296, ,0.010363606577328648,0.02026830712982159,-0.07971223558121598, ,0.0003871515913405408, ,0.0014737326181151278,0.00048404256430588795,-0.008070310245125407,-0.021764979164388888,-0.00639503090234894,0.05777298295219413, ,0.008218034587803362, ,0.02268503259937689, ,3.549216961410879e-05, ,0.17066467378748745,-0.15210694669072594,0.09537064788,2.7360343825860736,1.3051518457594873,-1.2203518885168316, ,0.0041712118880451185,0.007942014194987431,0.008098023141840367,-0.03130662982614869,-0.000637520124798919,0.030013267265635274, ,0.3116118907928467
0.01019753360341515,0.020434775878139026,-0.07953750840145979, ,0.01040388800496083,0.020279817659577055,-0.07986233925462505, ,0.0004148605448885753, ,0.001209884076095149,0.00038994352199247053,-0.006429671780146391,-0.006295175843234286,-0.007652482676514215,0.0037517786603938753, ,0.00655412500859904, ,0.009909072561191022, ,3.6077635984425334e-05, ,0.17076506931485236,-0.15192160110174455,0.09555990622,2.7360343825860736,1.3051518457594873,-1.2198618160759882, ,0.004880239962142468,0.007179885460090419,0.007429482985074627,-0.015238922533246923,-0.0005732147595399587,-0.012018255243419582, ,0.32878589630126953
0.01023048188119566,0.02044524510769288,-0.07968749338302503, ,0.010444309774094622,0.020291181117475507,-0.08001216756084484, ,0.000418176281735681, ,0.0019758317985895603,0.00079911925975956,-0.008097366960741889,-0.004011874284414612,-0.008004064973762152,-0.008214002555869581, ,0.008373162758751955, ,0.008953220457854502, ,3.6835268697058536e-05, ,0.17083457391072038,-0.15185209650587653,0.09564675765000001,2.7358246926425895,1.3051518457594873,-1.2198618160759882, ,0.0071004462898859805,0.005616986817767105,0.008266119107420863,0.0,-0.0005497974012289745,-0.007451770545957299, ,0.34369897842407227
0.010279948121745857,0.020465528390936193,-0.07986233137998248, ,0.01048487084694727,0.020302398314136234,-0.08016171957444276, ,0.00039779144817720773, ,0.0026611023287395185,0.0011822644331412624,-0.010300604416202628,0.0007732806049268585,0.006077195484163426,-0.05826219878756383, ,0.010704282607115097, ,0.006126185753408656, ,3.7411298298179985e-05, ,0.1709658603695822,-0.1517208100470147,0.09582694196000001,2.736873142360012,1.3051518457594873,-1.2197801373358477, ,0.004253505903475669,0.007944795572808696,0.010576900079681276,0.06530677846592488,-0.0005119987062978765,0.007111579447162408, ,0.3611109256744385
0.010306092822467096,0.020477817593261026,-0.07998186778015719, ,0.010525570189195171,0.020313470058717944,-0.08031099437558042, ,0.0004283745352272604, ,0.0022008267286576714,0.0010047007947104043,-0.011579470543557346,-0.015013330919901247,-0.007954791038649938,0.029655397620804932, ,0.011829505486096112, ,0.01699054435846267, ,3.810158786417903e-05, ,0.17101219676682755,-0.15163585998539825,0.09594879322000001,2.7370828323034964,1.3051518457594873,-1.2196984585957071, ,0.004868352919988622,0.008462039293682264,0.011712361411764708,-0.02410946255293815,-0.000493213015379079,0.00805238776380164, ,0.3759880065917969
0.010348997409620638,0.020498768245994902,-0.08019625100483509, ,0.01056640676996944,0.020324397158919576,-0.08045999105000429, ,0.00038370681177294394, ,0.0022975084054374572,0.0009453692821892959,-0.010385021033659316,-0.016120577517276524,-0.0034851694399656223,0.025954035366818076, ,0.010678058335779464, ,0.016493007752503626, ,3.8506173037817555e-05, ,0.17110486956131823,-0.1514968507936622,0.09616656994000002,2.736873142360012,1.3051518457594873,-1.219208386154864, ,0.006082159374041312,0.008033221347799316,0.010555872445328034,0.00047752209947434394,-0.00046146010551257374,0.029101965654635208, ,0.3910388946533203
0.010363626028277667,0.020504035543052704,-0.08025187996247485, ,0.010607379561851137,0.020335180420981216,-0.0806087086890386, ,0.00046395536151707734, ,0.00229857727537663,0.0008657487753020134,-0.009677989657021765,-0.006307822823540153,-0.006440978424899221,-0.008731814486911443, ,0.009984811577302551, ,0.009015250797379804, ,3.927418277779064e-05, ,0.17114348322568937,-0.15145051439641685,0.09622231041000001,2.7370828323034964,1.3050152092597218,-1.2189336107708864, ,0.007077681305912898,0.007919721971409159,0.00985693782178218,0.005515188351873799,0.0,-0.002098295259888038, ,0.40921592712402344
0.010424082363706661,0.020522381982993162,-0.08047000554425884, ,0.010648487540866731,0.020345820649684848,-0.08075714638957562, ,0.00040494623470911157, ,0.0022660402378080653,0.00047269291890044275,-0.007674389173178226,-0.006772525339153071,0.002704711437730518,-0.03445180363284274, ,0.008015898336202814, ,0.00729263579305753, ,3.97042907042683e-05, ,0.17133655154754499,-0.15122655514306435,0.09644527229000001,2.7379215920774347,1.3050152092597218,-1.2183618595899024, ,0.006414866725010032,0.010806891383213698,0.00781974055964654,0.0500703070996395,0.0,0.01687046521429067, ,0.4242289066314697
0.010446483659861287,0.02052849890295024,-0.08056087687377786, ,0.010689729686483565,0.02035631864835521,-0.08090530325406851, ,0.000455460427457818, ,0.0020413193260007114,0.0006325153974492784,-0.009190607569935009,-0.01697688412199315,-0.004568340556127101,0.029535447924559664, ,0.009435800327649006, ,0.017580792483728763, ,4.0333633634969995e-05, ,0.17139833341053876,-0.1511184368828252,0.09653860517000001,2.738131282020919,1.3051518457594873,-1.218228241273177, ,0.006104798769718536,0.009189331370114767,0.009298780805604204,-0.006374949834973954,0.0001873423377656025,0.0259371558989875, ,0.4479389190673828
0.010486007074667536,0.02054128528377128,-0.08074020108992194, ,0.010731104981604815,0.020366675218860566,-0.08105317839052223, ,0.0004341848102412162, ,0.0020764915987451548,0.0005246462428150343,-0.008534451250444896,-0.01689895270550296,-0.0021677388043571362,0.021353879001519617, ,0.008799086838188358, ,0.01703741907654159, ,4.082489240660637e-05, ,0.17152189713652635,-0.15094853675959227,0.09672008577,2.7379215920774347,1.3051518457594873,-1.2177381688323337, ,0.006452281890913236,0.009865557278953482,0.008642871144872492,0.008003207429778164,0.00018884710686032467,0.032139124127777516, ,0.46379804611206055
0.010541584493898944,0.0205552186225261,-0.08091994906750925, ,0.010772612412565524,0.020376891161613637,-0.08120077091248554, ,0.00040501295181115165, ,0.0026421873542645663,0.0006428807147744372,-0.007934136909764125,-0.002629554291451442,0.0005332533263800957,-0.0467766797269035, ,0.008387191313624955, ,0.0026830735063792114, ,4.11585682047268e-05, ,0.17171496545838197,-0.150732300239114,0.09690545524000001,2.7389700417948575,1.3052884822592525,-1.2175228717754678, ,0.009511631605594302,0.009594872977398609,0.008164434402870324,0.058467614500951545,0.00029593622301800885,0.01226720529173004, ,0.4795339107513428
0.010563843469415262,0.020561132744766286,-0.0810040326905372, ,0.010814250969127538,0.020386967275572345,-0.08134807993904253, ,0.0004597891209845942, ,0.002880802278225651,0.0008529372574045066,-0.009688901967738498,-0.008842462864733456,0.00033732908466757496,-0.021980222154531086, ,0.01014403002123642, ,0.008848890045778502, ,4.186798615328675e-05, ,0.17180763825287268,-0.1506473501774975,0.09699101038,2.7389700417948575,1.3052884822592525,-1.2174411930353273, ,0.009685278035140028,0.009857150233246062,0.009943078352059926,0.04848271204198974,0.00029397240396565946,0.028044566987634773, ,0.495405912399292
0.01060857738135763,0.020575803662185782,-0.08118498239366194, ,0.010856019644474843,0.02039690435824062,-0.08149510459480386, ,0.0004352107698227829, ,0.002463290574022549,0.0007307940815418322,-0.009081520791656519,-0.011324287183904602,-0.00040349898565076713,0.0001445798481609522, ,0.009438001924717675, ,0.011331470773151652, ,4.243880891131797e-05, ,0.17196981564323138,-0.1504851727871388,0.09717637985000001,2.7389700417948575,1.305425118759018,-1.2172258959784616, ,0.007920781675114816,0.009256354535366289,0.009282524195804198,0.027990417603662197,0.0013083104481382282,0.02996934178353418, ,0.5090479850769043
0.010637443532675744,0.02058476223222925,-0.08129691426404743, ,0.010897917435209084,0.020406703205669355,-0.08164184400989902, ,0.0004674699994797984, ,0.0026335724508451666,0.0007988465587707001,-0.011091905826286578,-0.014938451870384591,-0.006121029281997785,0.01755743507508659, ,0.011428220969928808, ,0.016143858766185258, ,4.3104427415617086e-05, ,0.17206248843772207,-0.15037705452689965,0.09729045337000002,2.7391797317383415,1.305425118759018,-1.2170625384981806, ,0.008505699940001185,0.010863884380934035,0.01126507179632249,0.0,0.0013083104481382282,0.01997374975396797, ,0.5227530002593994
0.01070406694928893,0.02060959291198311,-0.08152455069830744, ,0.010939943341345027,0.020416364612456956,-0.0817882973199675, ,0.00040315893702641477, ,0.003416466205023689,0.0011992638299259072,-0.011484576216098974,-0.006927650661090142,0.0016529430454382404,-0.028419856924701663, ,0.012041842297888796, ,0.007122103944976379, ,4.349008500161365e-05, ,0.1722632794924519,-0.1501994316707925,0.09752508186000002,2.7404378713992488,1.305425118759018,-1.2164091085770559, ,0.011061538822528357,0.009487418990760766,0.011842982542750931,0.06057912242789072,0.0013083104481382282,0.033333594124986175, ,0.5411579608917236
0.010728844851173681,0.020617206592351674,-0.08161334814763109, ,0.010982096366305812,0.02042588937175054,-0.0819344636661512, ,0.0004515016999411008, ,0.0028046471227605235,0.0006922672621709344,-0.010418721616765537,-0.016616996063213277,-0.006590953709257776,0.03472025939027894, ,0.010811800940321645, ,0.01787638403587544, ,4.403479279764997e-05, ,0.17235595228694262,-0.150114481609176,0.09761711845000001,2.7406475613427332,1.3055617552587835,-1.2162754902603305, ,0.011923224218930868,0.010981200460447892,0.01064048865731463,0.0,0.004741029010162465,0.0371403182297864, ,0.5550520420074463
0.010779864860373595,0.020627014111555392,-0.08179358074508263, ,0.01102437551691832,0.02043527827524648,-0.08208034219508459, ,0.00042282410207583805, ,0.0024021557621063247,0.00030383227858159364,-0.008273764404787817,-0.004430915481029966,-0.006124845013153919,0.008295655532526792, ,0.008620779766637273, ,0.0075595436147565444, ,4.444844100159325e-05, ,0.17259535700604356,-0.1498905223558235,0.09780378421000001,2.7406475613427332,1.3059716647580797,-1.2162013502707172, ,0.011441562736253783,0.011838590380897402,0.008472772085106385,0.001531416763419154,0.010764990287474687,0.009916368185118055, ,0.5691449642181396
0.01079174477496666,0.020628943845115155,-0.08183576563056379, ,0.011066779803408602,0.02044453211319131,-0.08222593205888792, ,0.0005117438768880655, ,0.0024521019438402407,0.0003923172250878395,-0.00870578456998038,-0.009414055072520619,-0.003878293545083714,0.02675631451959239, ,0.009053032736436678, ,0.010181627754061643, ,4.515479589552604e-05, ,0.17264941613616314,-0.14983646322570393,0.09784656178000001,2.7406475613427332,1.3059716647580797,-1.216037992790436, ,0.011092275282919768,0.01157558882341923,0.00891870745800672,0.0018815395898725304,0.010764990287474687,0.029495261884460333, ,0.5851888656616211
0.01082463152924511,0.0206355783784886,-0.08193163267408161, ,0.0111093082393972,0.02045365167438253,-0.08237123241515794, ,0.0005544241042056935, ,0.0027753635462098537,0.0006616342965298311,-0.008402507153159846,0.0020167300342409174,0.0012507092563754378,-0.022459744685526677, ,0.008873698733610323, ,0.0023730637984152635, ,4.597383552761199e-05, ,0.17278070259502495,-0.14971289949971633,0.09794507982,2.741276631173187,1.3059716647580797,-1.2155479203495925, ,0.011420763822174657,0.009680124075268798,0.008732901052631581,0.04406060751712936,0.010764990287474687,0.020670526099969576, ,0.5983879566192627
0.010893223895571482,0.020647172867031834,-0.08217044242766156, ,0.011151959841894332,0.020462637746169497,-0.0825162424269598, ,0.00046965427738489393, ,0.003086409597908589,0.0010527775426540501,-0.011706898065720247,-0.004964368618124264,-0.0022577238872319733,0.01006435834202245, ,0.012152601658967655, ,0.005453627511640201, ,4.662639870680129e-05, ,0.17308188917711972,-0.14940399018474737,0.09818878234000002,2.741486321116671,1.3061083012578454,-1.2150875870723052, ,0.010932444404869056,0.009710753096226613,0.012058146495079488,0.01581873281845082,0.010001934587098932,0.02608491518966724, ,0.6095330715179443
0.010919985584077878,0.02065619841630041,-0.08225993075118157, ,0.01119473363129612,0.0204714911144541,-0.08266096126281856, ,0.0005200276416397593, ,0.0035026459353083702,0.0010882596820213479,-0.01279663156910946,-0.006506242268650487,-0.00391276030810615,-0.0030259359899713605, ,0.0133118975807048, ,0.007592136625584839, ,4.741936652659981e-05, ,0.1731745619716104,-0.14932676285600513,0.09828211522000001,2.7419057010036405,1.3062449377576106,-1.2148722900154392, ,0.012666436406629844,0.011572957905466558,0.013153436432700248,0.02496641443941084,0.007537459003546705,0.022611906186287972, ,0.6224029064178467
0.010972105085418148,0.02067377451119933,-0.08244027404915123, ,0.011237628631378513,0.020480212563691844,-0.0828053880967114, ,0.0004911998052809284, ,0.004468061533242829,0.0016825172237198353,-0.015514678564676032,-0.0024707572328765506,0.008285983838742688,-0.048510932786928675, ,0.016232673502481844, ,0.008646460002479548, ,4.8088245510811236e-05, ,0.1733367393619691,-0.14917230819852062,0.09846748469000001,2.742744460777579,1.3062449377576106,-1.2145455750548768, ,0.01189721994563094,0.012232139927619332,0.01604109921450151,0.09172989725293851,0.006336984013264297,0.04340858091175005, ,0.6339409351348877
0.011012813723630346,0.020688136284650115,-0.08260027718018711, ,0.011280643869294138,0.0204888028768923,-0.08294952210805795, ,0.0004831550620847682, ,0.004078542738272852,0.0014412236663901446,-0.015142958905220787,-0.010844112011541958,-0.002182076036756142,-0.014408950181243326, ,0.015748677434301802, ,0.011061438644734183, ,4.8706104523572825e-05, ,0.17346802582083093,-0.1490410217396588,0.09863211352000001,2.7429541507210633,1.306381574257376,-1.214330277998011, ,0.012609213600647195,0.012211676947429003,0.01554030392195122,0.04397463676185911,0.0024106948342900577,0.03133081877062365, ,0.6453039646148682
0.01104853533563247,0.02070015138263554,-0.082741418781128, ,0.011323778375566654,0.02049726283562039,-0.08309336248171371, ,0.0004907003789728433, ,0.003480921879009946,0.001027833229086132,-0.012922726591888414,-0.020889014831466084,-0.0027388125441916763,0.04227034178588546, ,0.013422746397190244, ,0.021067787600814934, ,4.932437166323453e-05, ,0.17359931227969275,-0.14892518074654545,0.09877729800000001,2.7429541507210633,1.3065182107571416,-1.2141149809411453, ,0.012877858808314666,0.011921726326441054,0.013240907331670824,0.015710429023011487,0.005251993295101757,0.06106864979002016, ,0.657649040222168
0.011114602046829326,0.020714325382525427,-0.08295997877211292, ,0.011367031184086607,0.02050559321999665,-0.08323690840796019, ,0.0004289284418418745, ,0.003386998033157027,0.0005874727614188751,-0.009737790675563955,0.005822487390036904,0.0027796812390895277,-0.01518118297044891, ,0.010326734583745192, ,0.006451968663811591, ,4.9731045094006595e-05, ,0.1738696079302906,-0.14866260782882182,0.09900414875,2.7435832205515167,1.3069281202564378,-1.2133874110304073, ,0.015315839502658291,0.013156376203863965,0.010178154325878597,0.048126326154267735,0.0210133620161319,0.030726017697649377, ,0.6756219863891602
0.01114871423655832,0.020720806513968085,-0.08305444360234245, ,0.011410401332106577,0.02051379480869866,-0.08338015908249714, ,0.0004662880612962804, ,0.0031111857711591407,0.0004878303645727678,-0.007953074439494482,0.01420561068966384,0.005381286960601569,-0.06566602052806671, ,0.008553879143838938, ,0.015190707442395802, ,5.0235254675785095e-05, ,0.17401633985490086,-0.14853904410283422,0.09910266679000002,2.74421229038197,1.3070647567562033,-1.2133354714538225, ,0.012981797750816796,0.0121709556955843,0.008357193871983212,0.07599902776416766,0.016822954497703952,0.007133440897020275, ,0.6869640350341797
0.011177852613844562,0.020720507765273528,-0.08314308401445875, ,0.01145388786023683,0.020521868378961288,-0.08352311370643432, ,0.0005099761071152218, ,0.002359492297980192,-0.00017645899875366088,-0.00804340629156819,-0.009178037992856157,-0.00782535010015136,0.026439682342334403, ,0.008384195039102307, ,0.012061196123170786, ,5.0850489422276275e-05, ,0.17415534904663693,-0.14836914397960127,0.09919211080000001,2.744421980325455,1.3070647567562033,-1.2130087564932601, ,0.012547526320041092,0.016111535069349876,0.008164434402870324,-0.013424031586105658,0.01413312079935744,0.013677330264853692, ,0.6980969905853271
0.01123966326261933,0.020727427617228573,-0.08335565264097874, ,0.011497489812440398,0.02052981470657798,-0.08366577148628312, ,0.00044910921885590036, ,0.003636676451347468,0.0007630221758389938,-0.012865726839132468,-0.007671680362275351,-0.0012945448609212032,-0.03219422562656451, ,0.013391584878265186, ,0.007780113975238687, ,5.126789893625379e-05, ,0.1744024764986121,-0.14805251193175809,0.09940859123000001,2.7448413602124235,1.3072013932559687,-1.212875138176535, ,0.0115710502234836,0.015916964367405365,0.01314258376237624,0.04700763092529393,0.004755819741032897,0.01600211054925854, ,0.7158129215240479
0.011281857806171903,0.02073724106272022,-0.08349225962233064, ,0.011541206236028577,0.02053763456590128,-0.0838081316339477, ,0.00045484007009547183, ,0.003958979443549343,0.0009451272473908518,-0.012974521895553006,-0.007190343066525727,0.00036464316812480444,-0.03794223241128115, ,0.01359797787049204, ,0.007199557652075706, ,5.1835043437437235e-05, ,0.17453376295747391,-0.14789033454139935,0.09954859055000001,2.745680119986362,1.3072013932559687,-1.2126301019561134, ,0.013380843423360234,0.014717267611425368,0.013329549389121339,0.06453618282601997,0.004157007793676519,0.027746220145810144, ,0.7254588603973389
0.011314583637287563,0.020743034892746915,-0.08360433114622012, ,0.0115850361816564,0.02054532872984385,-0.08395019336671714, ,0.00048151114335242005, ,0.003063343141936875,0.00036792435552025294,-0.011993821420832463,-0.02493420691235953,-0.015877921612773793,0.05743803214025896, ,0.012384312326950427, ,0.029560494260037037, ,5.246134182100128e-05, ,0.17466504941633573,-0.14775132534966331,0.09966266407,2.7458898099298463,1.3072013932559687,-1.2124667444758324, ,0.014523560079349674,0.015430397001377364,0.012122383196347033,-0.03558536040442097,0.003730352474224298,0.02573665363579771, ,0.7353248596191406
0.011350494749537608,0.02074745287020728,-0.083735065803103, ,0.011628978703317649,0.02055289796987907,-0.08409195590725722, ,0.0004927225062830983, ,0.003586766160225839,0.0005605967082367311,-0.012561685352294079,-0.01823663419839925,-0.012670673443986943,0.018490301149818485, ,0.013075744684241379, ,0.022206316210257926, ,5.3101385702051534e-05, ,0.17483494953956868,-0.1475814252264304,0.09979488565000001,2.745680119986362,1.3072013932559687,-1.2123033869955513, ,0.015989375157282357,0.015659561313279006,0.012783957881219905,0.0,0.003324804132173448,0.02139938025714963, ,0.7447719573974609
0.01136996464914666,0.020750567777178795,-0.08380401954333494, ,0.011673032858340886,0.02056034305604196,-0.0842334184836016, ,0.0005589447502731433, ,0.0037476263276550186,0.0006342830250998735,-0.013086641576369731,-0.018888252809524067,-0.01334261398734655,0.02001521280542312, ,0.013627443112925908, ,0.023125549904379632, ,5.390532493975808e-05, ,0.17491989960118515,-0.1474964751648139,0.09986488531000001,2.745680119986362,1.3072013932559687,-1.2121400295152702, ,0.016754403523741312,0.015708813368394435,0.013329549389121339,0.0,0.0031511802206416893,0.023041720275018884, ,0.7571070194244385
0.011429368150157344,0.02076598060192612,-0.08399582777277868, ,0.011717197707384091,0.020567664756930268,-0.08437458032914326, ,0.000515391625215685, ,0.004223419162382312,0.0012106994598862575,-0.013963272795105676,-0.006749434109272287,-0.002059108982571438,-0.03681963951217399, ,0.014638170983899773, ,0.007056504785739154, ,5.4569824941155085e-05, ,0.17513613612166343,-0.14730340684295828,0.10006192139000002,2.7465188797603,1.3072013932559687,-1.2117316358145673, ,0.014548051748960721,0.01306220806035386,0.01437618368231047,0.061172845637262684,0.00277327736583139,0.025520914302590725, ,0.7668778896331787
0.011474254263179554,0.020778237465849655,-0.08414641876401492, ,0.011761472314430482,0.020574863839704777,-0.08451544068262705, ,0.0005099335419364698, ,0.004385138668890586,0.001079340852181395,-0.014442975039362486,-0.01173900239395325,0.0011935615955816483,-0.01837991709947688, ,0.01513254591297297, ,0.011799497363002103, ,5.520205005377027e-05, ,0.1752905907791479,-0.1471489521854738,0.10021877248000001,2.7471479495907536,1.3074746662554997,-1.2116277566613978, ,0.015115791901635995,0.015549228503763852,0.014858965970149254,0.06433944948586898,0.006019909833458833,0.047715375450379474, ,0.7762629985809326
0.011505203500255782,0.020784410193537786,-0.08426542869337503, ,0.011805855746783785,0.020581941070090454,-0.08465599878814072, ,0.0005328513096701039, ,0.004160746115750774,0.00103864880493078,-0.015146908553317911,-0.010830028447228447,-0.002366369828791343,-0.010772396209309669, ,0.015742281864529507, ,0.011085505177374565, ,5.58779475785104e-05, ,0.17540643177226128,-0.14700994299373776,0.10034062374000001,2.7471479495907536,1.3076113027552652,-1.2114941383446725, ,0.013500774158268712,0.016100600875207125,0.01551004042843233,0.038545359259052975,0.007025745961674805,0.02930019035944053, ,0.785783052444458
0.011523225793720386,0.02078847544065527,-0.08433700525640309, ,0.01185034707506377,0.020588897212377343,-0.08479625389510659, ,0.000598121320520606, ,0.003933225696934769,0.0009310319107239853,-0.014417219818174423,-0.01373859704286894,-0.0023095459318943287,0.003549974071862267, ,0.01497308625792878, ,0.013931346964067996, ,5.670582181910275e-05, ,0.17546821363525508,-0.14693271566499552,0.10041321598000001,2.7471479495907536,1.3076113027552652,-1.2113307808643914, ,0.013053224423448525,0.015734860148975426,0.014748899555555556,0.031082929417097088,0.007025745961674805,0.0366006342125837, ,0.7990570068359375
0.011586870653040666,0.020802832799445694,-0.08455804954925554, ,0.011894945373201059,0.020595733029421158,-0.0849362052582729, ,0.000529907622334823, ,0.0036697447243422008,0.0007778774365667839,-0.013036898109345406,-0.009370311477183844,-0.004487698841700829,-0.0029820175340047527, ,0.013565870114430955, ,0.010389504390538328, ,5.733756159663944e-05, ,0.17569217288860758,-0.14668558821302033,0.10064006673,2.747777019421207,1.3077479392550304,-1.2107887688469632, ,0.01336953248217396,0.014816072062212455,0.01335189565800503,0.024839595846978573,0.007979448853082726,0.02304999438637961, ,0.8088109493255615
0.011636804961700237,0.020813221461365317,-0.0847000584395433, ,0.011939649718433358,0.020602449282644077,-0.08507585213770652, ,0.000526650511803446, ,0.004248923799337626,0.0007404619862656187,-0.011800234029497763,-0.0029556193082793574,0.0009728937651063314,-0.048557103870782534, ,0.012563723992375793, ,0.0031115878543266913, ,5.809213079820515e-05, ,0.17586979574471476,-0.14652341082266163,0.10077876976000001,2.74882546913863,1.3077479392550304,-1.2103803751462605, ,0.01702492672380172,0.015490849095408226,0.01223411023041475,0.08419540063852006,0.007979448853082726,0.03343263979784715, ,0.8165009021759033
0.011674191995624627,0.020818615221227528,-0.08481833915391254, ,0.011984459191300008,0.020609046732035848,-0.08521519379878323, ,0.0005455990226620535, ,0.004125187613414521,0.0005904263568169176,-0.013401367557563937,-0.0062561141302341465,-0.009597990888178937,-0.0027826599581884494, ,0.014034330356009862, ,0.011456873955819688, ,5.887914210340423e-05, ,0.17604741860082193,-0.1463612334323029,0.10090839876,2.7490351590821143,1.307884575754796,-1.2102467568295354, ,0.018541801789462832,0.01737402811396389,0.013767339256698359,0.01723480746117763,0.013204444689818197,0.01481309195570447, ,0.8242759704589844
0.011674191995624627,0.020818615221227528,-0.08481833915391254, ,0.012029372875637939,0.020615526136154375,-0.08535422951218043, ,0.0006742233384327209, ,0.004125187613414521,0.0005904263568169176,-0.013401367557563937,-0.0062561141302341465,-0.009597990888178937,-0.0027826599581884494, ,0.014034330356009862, ,0.011456873955819688, ,5.9970452476586076e-05, ,0.17604741860082193,-0.1463612334323029,0.10090839876,2.7490351590821143,1.307884575754796,-1.2102467568295354, ,0.018541801789462832,0.01737402811396389,0.013767339256698359,0.01723480746117763,0.013204444689818197,0.01481309195570447, ,0.8320510387420654
0.01171470332736383,0.020824783244567876,-0.08495608749260751, ,0.012074389858576685,0.020621888252126595,-0.08549295855386815, ,0.000677326594127835, ,0.004587667178145752,0.0008787794214891132,-0.015638223695460963,-0.022298939587345974,-0.01144966680449625,0.027110323098978963, ,0.01632093697550313, ,0.025066643999224737, ,6.104790268402818e-05, ,0.1762327641898033,-0.14619133330906997,0.10104969437000001,2.7490351590821143,1.3080212122545614,-1.2100314597726693, ,0.019514073937583958,0.017495748812402432,0.015992782650602413,0.013195335527831977,0.005030309274284201,0.04379759166844267, ,0.8402180671691895
0.011787953065871024,0.02084450090022845,-0.08517829965080771, ,0.012119509230534044,0.020628133835649258,-0.08563138020510082, ,0.0006016861188686468, ,0.0065507591039583556,0.0020394767255468636,-0.01937043201103899,-0.00035276097924579874,0.014494750866013009,-0.1096286990487062, ,0.020549587500639146, ,0.01449894878619506, ,6.191984050874168e-05, ,0.1764798916417785,-0.1459750967885917,0.10127913770000001,2.750502988686506,1.3080212122545614,-1.2094597085916854, ,0.018979388311694156,0.017147983657114344,0.020137561972187107,0.17494988291093624,0.004381589965106493,0.06561651817184154, ,0.84834885597229
0.011846292474045901,0.020862142100601118,-0.08537116683270907, ,0.012164730085211158,0.020634263640989838,-0.08576949375240954, ,0.0005585655194491621, ,0.005645152138845521,0.0015926245910965042,-0.02043170645847953,-0.0063691459346745865,-0.006839064971033634,-0.028140698832929596, ,0.021256971199217246, ,0.009345334077232299, ,6.267077325611896e-05, ,0.17665751449788566,-0.14579747393248452,0.10148006265000001,2.751551438403929,1.3082944852540923,-1.209355829438516, ,0.018728427384738656,0.018724731957077894,0.020986576442687747,0.0445985947767089,0.009949363812587077,0.017157697359263913, ,0.8564329147338867
0.011899784947008498,0.020877276167808278,-0.08557454932195478, ,0.012210051519588216,0.020640278420987413,-0.08590729848759267, ,0.0005129866326633094, ,0.005102792691282155,0.0013027432877961676,-0.020012441002691096,-0.020043671228236117,-0.010222543426375397,0.06489452277131592, ,0.020693801685777613, ,0.022499909787476017, ,6.329829368587694e-05, ,0.1768351373539928,-0.14561212834350312,0.10168876534000001,2.751761128347413,1.3084311217538576,-1.2088954961612286, ,0.018607243442837408,0.018758043399579122,0.02050040092664093,-0.01683595179689611,0.016856534851701237,0.05082288803226666, ,0.8646090030670166
0.011899784947008498,0.020877276167808278,-0.08557454932195478, ,0.012255472633919361,0.02064617892705309,-0.08604479370770805, ,0.0006332846497722271, ,0.005102792691282155,0.0013027432877961676,-0.020012441002691096,-0.020043671228236117,-0.010222543426375397,0.06489452277131592, ,0.020693801685777613, ,0.022499909787476017, ,6.419898438499712e-05, ,0.1768351373539928,-0.14561212834350312,0.10168876534000001,2.751761128347413,1.3084311217538576,-1.2088954961612286, ,0.018607243442837408,0.018758043399579122,0.02050040092664093,-0.01683595179689611,0.016856534851701237,0.05082288803226666, ,0.8801388740539551
0.011971466841806723,0.02089248589824371,-0.08584087885796932, ,0.012300992531728769,0.02065196590917128,-0.08618197871506462, ,0.0005317764172774512, ,0.005115384035600374,0.0009221204720375432,-0.017314871154254747,-0.02033958744396447,-0.011372553925952758,0.055803531733250845, ,0.01807822510881721, ,0.02330305224382887, ,6.499705371234409e-05, ,0.17712860120321336,-0.14534183269290527,0.10195968995000002,2.751551438403929,1.3084311217538576,-1.2081603874999636, ,0.02307804998990048,0.019280158788799427,0.01779755477094972,0.0,0.01603515391725418,0.058193508705326746, ,0.8861968517303467
0.011971466841806723,0.02089248589824371,-0.08584087885796932, ,0.012346610319805258,0.020657640115900374,-0.08631885281721453, ,0.0006514171292542435, ,0.005115384035600374,0.0009221204720375432,-0.017314871154254747,-0.02033958744396447,-0.011372553925952758,0.055803531733250845, ,0.01807822510881721, ,0.02330305224382887, ,6.606346952570206e-05, ,0.17712860120321336,-0.14534183269290527,0.10195968995000002,2.751551438403929,1.3084311217538576,-1.2081603874999636, ,0.02307804998990048,0.019280158788799427,0.01779755477094972,0.0,0.01603515391725418,0.058193508705326746, ,0.8919260501861572
0.01206042630109095,0.020903950365549824,-0.08606975574146804, ,0.012392325108197953,0.02066320229437341,-0.08645541532694336, ,0.0005628940999896956, ,0.004725843090171709,0.00010234722246582465,-0.010454326542719704,0.00801600618017324,-0.004094172185790895,-0.0772348998866856, ,0.011473317363721963, ,0.009001026390978852, ,6.690964978419995e-05, ,0.17753790604554726,-0.14501747791218783,0.10219820731000001,2.7530192680083205,1.3087043947533885,-1.2076481146460911, ,0.02417756472827281,0.02053601851514191,0.010925110781893005,0.08859513758136951,0.01697260524917297,0.009389810036402234, ,0.8975660800933838
0.01206042630109095,0.020903950365549824,-0.08606975574146804, ,0.012438136010212245,0.02066865319029914,-0.08659166556226364, ,0.0006858711585191048, ,0.004725843090171709,0.00010234722246582465,-0.010454326542719704,0.00801600618017324,-0.004094172185790895,-0.0772348998866856, ,0.011473317363721963, ,0.009001026390978852, ,6.802748897582784e-05, ,0.17753790604554726,-0.14501747791218783,0.10219820731000001,2.7530192680083205,1.3087043947533885,-1.2076481146460911, ,0.02417756472827281,0.02053601851514191,0.010925110781893005,0.08859513758136951,0.01697260524917297,0.009389810036402234, ,0.9039449691772461
0.012108287151266607,0.02090187969771703,-0.08619751770899217, ,0.01248404214240402,0.02067399354796248,-0.0867276028464048, ,0.0006885594843732748, ,0.005015975828481981,0.00010214677186617623,-0.014280215106348375,-0.012970643597065287,-0.013560888594594173,-0.006700379093966089, ,0.01513588421462382, ,0.018765252488341485, ,6.913613203634453e-05, ,0.1778004789632709,-0.14477035046021267,0.10232783631,2.7532289579518046,1.3087043947533885,-1.207321399685529, ,0.02517160253540339,0.02433878983289838,0.014640451764705886,0.028765828882484707,0.013729723604738968,0.02364252699725446, ,0.9100918769836426
0.012164414232230398,0.02090856641707324,-0.08636363609971875, ,0.012530042624576002,0.020679224110225904,-0.08686322650780612, ,0.0006602064759241513, ,0.005772195192789853,0.000923227733583674,-0.018654149150046487,-0.026315562620537466,-0.010811187871218285,0.004222648311758157, ,0.019548602694410267, ,0.028449751500234433, ,7.016521858137888e-05, ,0.17803988368237184,-0.14453866847398592,0.10249894659000001,2.7538580277822584,1.308841031253154,-1.2068610664082415, ,0.02324196462367641,0.022605274311212665,0.019076420982035932,0.043515175006242975,0.0027736998665078188,0.05223110071954423, ,0.9158098697662354
0.012164414232230398,0.02090856641707324,-0.08636363609971875, ,0.012576136579772669,0.020684345618529595,-0.0869985358801076, ,0.0007892325317060061, ,0.005772195192789853,0.000923227733583674,-0.018654149150046487,-0.026315562620537466,-0.010811187871218285,0.004222648311758157, ,0.019548602694410267, ,0.028449751500234433, ,7.147162236458852e-05, ,0.17803988368237184,-0.14453866847398592,0.10249894659000001,2.7538580277822584,1.308841031253154,-1.2068610664082415, ,0.02324196462367641,0.022605274311212665,0.019076420982035932,0.043515175006242975,0.0027736998665078188,0.05223110071954423, ,0.9218029975891113
0.01219067391986838,0.02091386656178121,-0.08643501494453773, ,0.012622323134275684,0.02068935881289277,-0.08713353030214174, ,0.0008512628726886075, ,0.007002419281891829,0.0014862174234051458,-0.01978840854838839,-0.006240983864706015,0.004063628250160697,-0.10671262291476558, ,0.021043379740597144, ,0.007447141725803491, ,7.289953269103436e-05, ,0.17813255647686255,-0.14445371841236945,0.10257283512000001,2.754487097612712,1.308841031253154,-1.2066160301878197, ,0.024313846158972786,0.022637629188566502,0.02047405079691517,0.1556396034856245,0.002718793260373655,0.0504395845758658, ,0.9281790256500244
0.01219067391986838,0.02091386656178121,-0.08643501494453773, ,0.012668601417599491,0.020694264431914237,-0.08726820911792543, ,0.0009853183846335403, ,0.007002419281891829,0.0014862174234051458,-0.01978840854838839,-0.006240983864706015,0.004063628250160697,-0.10671262291476558, ,0.021043379740597144, ,0.007447141725803491, ,7.460692642502197e-05, ,0.17813255647686255,-0.14445371841236945,0.10257283512000001,2.754487097612712,1.308841031253154,-1.2066160301878197, ,0.024313846158972786,0.022637629188566502,0.02047405079691517,0.1556396034856245,0.002718793260373655,0.0504395845758658, ,0.9339408874511719
0.012323191633409189,0.02094496901384269,-0.0868808473564438, ,0.012714970562486397,0.02069906321277324,-0.08740257167665158, ,0.0006972493517851135, ,0.007362857929097909,0.002101827140506504,-0.026989257178528916,0.0020053196795498376,-0.006272112112737885,-0.015129563401234976, ,0.028054399962598103, ,0.006583796548201905, ,7.582208274195116e-05, ,0.1785881977164418,-0.14399035443991598,0.10303431436,2.7559549272171036,1.3093875772522159,-1.2059181994406376, ,0.02445797462847185,0.02339091485296297,0.027847572587412592,0.040569122710906076,0.02695820076420951,0.023676512962782635, ,0.9377388954162598
0.012323191633409189,0.02094496901384269,-0.0868808473564438, ,0.012761429704902023,0.020703755891230458,-0.08753661733268024, ,0.0008247852081355748, ,0.007362857929097909,0.002101827140506504,-0.026989257178528916,0.0020053196795498376,-0.006272112112737885,-0.015129563401234976, ,0.028054399962598103, ,0.006583796548201905, ,7.730804530851113e-05, ,0.1785881977164418,-0.14399035443991598,0.10303431436,2.7559549272171036,1.3093875772522159,-1.2059181994406376, ,0.02445797462847185,0.02339091485296297,0.027847572587412592,0.040569122710906076,0.02695820076420951,0.023676512962782635, ,0.9415810108184814
0.012323191633409189,0.02094496901384269,-0.0868808473564438, ,0.012807977984030881,0.020708343201628582,-0.08767034544553098, ,0.0009561991494596703, ,0.007362857929097909,0.002101827140506504,-0.026989257178528916,0.0020053196795498376,-0.006272112112737885,-0.015129563401234976, ,0.028054399962598103, ,0.006583796548201905, ,7.906976631695652e-05, ,0.1785881977164418,-0.14399035443991598,0.10303431436,2.7559549272171036,1.3093875772522159,-1.2059181994406376, ,0.02445797462847185,0.02339091485296297,0.027847572587412592,0.040569122710906076,0.02695820076420951,0.023676512962782635, ,0.9454400539398193
0.012389737289419417,0.020961612223424166,-0.08712204578751952, ,0.012854614542271416,0.020712825876893295,-0.087803755379874, ,0.000861819862121732, ,0.00751470096787197,0.0016670814215954002,-0.027201037070856512,-0.007609581737645139,-0.00792240915815871,0.06608890947524024, ,0.02826917594895321, ,0.010984325649440407, ,8.060954821955569e-05, ,0.17882760243554274,-0.14376639518656348,0.10328190575000001,2.7561646171605885,1.3095242137519811,-1.2052945086830689, ,0.02948025522164361,0.027230112355371816,0.028093142010582012,0.0,0.04078421379857743,0.06481461374063086, ,0.9496030807495117
0.012389737289419417,0.020961612223424166,-0.08712204578751952, ,0.012901338525231698,0.020717204648533945,-0.08793684650552222, ,0.0009926586005299576, ,0.00751470096787197,0.0016670814215954002,-0.027201037070856512,-0.007609581737645139,-0.00792240915815871,0.06608890947524024, ,0.02826917594895321, ,0.010984325649440407, ,8.242096326114796e-05, ,0.17882760243554274,-0.14376639518656348,0.10328190575000001,2.7561646171605885,1.3095242137519811,-1.2052945086830689, ,0.02948025522164361,0.027230112355371816,0.028093142010582012,0.0,0.04078421379857743,0.06481461374063086, ,0.9534380435943604
0.012477322166505845,0.020982121196323946,-0.08738996872871334, ,0.012948149081724534,0.020721480246644476,-0.08806961819742253, ,0.0008669112348221375, ,0.010563978147298854,0.0026953465988940675,-0.03032179852489918,0.013960304821557851,0.01941509522131131,-0.1486388229102363, ,0.032222259284062554, ,0.023912557404388763, ,8.394389017719967e-05, ,0.1791287890176375,-0.14349609953596562,0.10355801552,2.7576324467649798,1.3095242137519811,-1.204314363801382, ,0.03450797874853483,0.030011682972318397,0.031667617335984104,0.24204128843062586,0.028030948364940324,0.09017127740075427, ,0.9594810009002686
0.012477322166505845,0.020982121196323946,-0.08738996872871334, ,0.01299504536376307,0.020725653399904273,-0.08820206983564763, ,0.0009966550293168178, ,0.010563978147298854,0.0026953465988940675,-0.03032179852489918,0.013960304821557851,0.01941509522131131,-0.1486388229102363, ,0.032222259284062554, ,0.023912557404388763, ,8.573388423543384e-05, ,0.1791287890176375,-0.14349609953596562,0.10355801552,2.7576324467649798,1.3095242137519811,-1.204314363801382, ,0.03450797874853483,0.030011682972318397,0.031667617335984104,0.24204128843062586,0.028030948364940324,0.09017127740075427, ,0.963688850402832
0.012486345330310131,0.020984467672763383,-0.08741490851399546, ,0.013042026526556002,0.020729724835578823,-0.08833420080538756, ,0.0011039808974665421, ,0.010563978147298854,0.0026953465988940675,-0.03032179852489918,0.013960304821557851,0.01941509522131131,-0.1486388229102363, ,0.032222259284062554, ,0.023912557404388763, ,8.773928881391916e-05, ,0.1791596799491344,-0.14347293133734293,0.10358394132000001,2.7578421367084642,1.3095242137519811,-1.204151006321101, ,0.034333191591342536,0.03028948022932358,0.03204992257545272,0.2522015696473642,0.02710285828681325,0.0889494367970404, ,0.9686059951782227
0.012486345330310131,0.020984467672763383,-0.08741490851399546, ,0.013089091728503,0.02073369527952067,-0.0884660104969413, ,0.0012373380266927257, ,0.010702140317542757,0.0027558562598261937,-0.030690329474546266,0.014984469405610587,0.020570832195507247,-0.15995526960349038, ,0.03261942480114266, ,0.025449287476945064, ,9.001307778407953e-05, ,0.1791596799491344,-0.14347293133734293,0.10358394132000001,2.7578421367084642,1.3095242137519811,-1.204151006321101, ,0.034333191591342536,0.03028948022932358,0.03204992257545272,0.2522015696473642,0.02710285828681325,0.0889494367970404, ,0.9732570648193359
0.012486345330310131,0.020984467672763383,-0.08741490851399546, ,0.013136240131190217,0.020737565456170177,-0.08859749830570919, ,0.0013718026724843255, ,0.010702140317542757,0.0027558562598261937,-0.030690329474546266,0.014984469405610587,0.020570832195507247,-0.15995526960349038, ,0.03261942480114266, ,0.025449287476945064, ,9.25541790994658e-05, ,0.1791596799491344,-0.14347293133734293,0.10358394132000001,2.7578421367084642,1.3095242137519811,-1.204151006321101, ,0.034333191591342536,0.03028948022932358,0.03204992257545272,0.2522015696473642,0.02710285828681325,0.0889494367970404, ,0.977078914642334
0.012715152598344036,0.021050372039569384,-0.08812392694454935, ,0.013183470899385343,0.020741336088556394,-0.08872866363218325, ,0.0008249434595650442, ,0.010399097019820523,0.003184730943130541,-0.035975166538298665,0.0317111028993703,0.002516808337050737,0.03503761657974859, ,0.03758319222027444, ,0.03180987446359649, ,9.391264003654886e-05, ,0.17993195323655686,-0.14287828090602767,0.10432412291000001,2.761616555691186,1.310344032750574,-1.2022874727989223, ,0.03916506048636846,0.02691348314193726,0.03765676482269504,0.045883035130657286,0.07661402161390886,0.07084022269121576, ,0.9809329509735107
0.012715152598344036,0.021050372039569384,-0.08812392694454935, ,0.013230783201033353,0.02074500789829771,-0.08885950588193975, ,0.0009487879374953749, ,0.010399097019820523,0.003184730943130541,-0.035975166538298665,0.0317111028993703,0.002516808337050737,0.03503761657974859, ,0.03758319222027444, ,0.03180987446359649, ,9.552144058078199e-05, ,0.17993195323655686,-0.14287828090602767,0.10432412291000001,2.761616555691186,1.310344032750574,-1.2022874727989223, ,0.03916506048636846,0.02691348314193726,0.03765676482269504,0.045883035130657286,0.07661402161390886,0.07084022269121576, ,0.984760046005249
0.01282583472197274,0.02107713587504765,-0.08850444492986058, ,0.013278176207251493,0.020748581605602903,-0.08899002446563059, ,0.0007405053766402909, ,0.008739295966398629,0.00117428864311226,-0.0294033351651288,0.013968423148314257,0.0032515994195792958,0.11347517971101058, ,0.030697074235805498, ,0.014341121514678264, ,9.667820372915826e-05, ,0.18037987174326187,-0.14252303519381332,0.10472338023000001,2.76182624563467,1.3114371247486976,-1.2014635624855416, ,0.03824947261526432,0.03641478954661196,0.030691351676300584,-0.0025940530456358374,0.08646560614347705,0.10297661890752374, ,0.9885399341583252
0.01282583472197274,0.02107713587504765,-0.08850444492986058, ,0.013325649092325302,0.02075205792927178,-0.0891202187989754, ,0.000857127489656834, ,0.008739295966398629,0.00117428864311226,-0.0294033351651288,0.013968423148314257,0.0032515994195792958,0.11347517971101058, ,0.030697074235805498, ,0.014341121514678264, ,9.827578626261977e-05, ,0.18037987174326187,-0.14252303519381332,0.10472338023000001,2.76182624563467,1.3114371247486976,-1.2014635624855416, ,0.03824947261526432,0.03641478954661196,0.030691351676300584,-0.0025940530456358374,0.08646560614347705,0.10297661890752374, ,0.9904599189758301
0.01282583472197274,0.02107713587504765,-0.08850444492986058, ,0.013373201033702996,0.020755437586696058,-0.08925008830275201, ,0.0009793281919164977, ,0.008739295966398629,0.00117428864311226,-0.0294033351651288,0.013968423148314257,0.0032515994195792958,0.11347517971101058, ,0.030697074235805498, ,0.014341121514678264, ,0.00010012285629543712, ,0.18037987174326187,-0.14252303519381332,0.10472338023000001,2.76182624563467,1.3114371247486976,-1.2014635624855416, ,0.03824947261526432,0.03641478954661196,0.030691351676300584,-0.0025940530456358374,0.08646560614347705,0.10297661890752374, ,0.992347002029419
0.01282583472197274,0.02107713587504765,-0.08850444492986058, ,0.01342083121199173,0.02075872129386024,-0.08937963240278961, ,0.0011051523792760763, ,0.008739295966398629,0.00117428864311226,-0.0294033351651288,0.013968423148314257,0.0032515994195792958,0.11347517971101058, ,0.030697074235805498, ,0.014341121514678264, ,0.00010222542851924598, ,0.18037987174326187,-0.14252303519381332,0.10472338023000001,2.76182624563467,1.3114371247486976,-1.2014635624855416, ,0.03824947261526432,0.03641478954661196,0.030691351676300584,-0.0025940530456358374,0.08646560614347705,0.10297661890752374, ,0.9942619800567627
0.01282583472197274,0.02107713587504765,-0.08850444492986058, ,0.013468538810952734,0.02076190976534219,-0.08950885052995894, ,0.001233396390354937, ,0.008739295966398629,0.00117428864311226,-0.0294033351651288,0.013968423148314257,0.0032515994195792958,0.11347517971101058, ,0.030697074235805498, ,0.014341121514678264, ,0.00010458695453560443, ,0.18037987174326187,-0.14252303519381332,0.10472338023000001,2.76182624563467,1.3114371247486976,-1.2014635624855416, ,0.03824947261526432,0.03641478954661196,0.030691351676300584,-0.0025940530456358374,0.08646560614347705,0.10297661890752374, ,0.9961578845977783
0.012922017837826535,0.021087687769178638,-0.08881143568063864, ,0.013516323017496414,0.020765003714314303,-0.08963774212016559, ,0.001067757452725033, ,0.010380092887639518,0.0009943593278800595,-0.031328127971533594,-0.02013751747338717,-0.0006922848253731288,0.05652631345198502, ,0.03301797512007289, ,0.02014866475817638, ,0.0005814194167645404, ,0.18078917658559576,-0.14211373035147942,0.10504226757000001,2.7622456255216394,1.3121203072475247,-1.200305398461072, ,0.04417920929165306,0.04355068451513115,0.032441571323828924,0.08065102755287837,0.05054283323569045,0.13770193995825983, ,0.9981000423431396
0.012922017837826535,0.021087687769178638,-0.08881143568063864, ,0.013564183021677913,0.02076800385254407,-0.08976630661433996, ,0.0011942999748527693, ,0.010380092887639518,0.0009943593278800595,-0.031328127971533594,-0.02013751747338717,-0.0006922848253731288,0.05652631345198502, ,0.03301797512007289, ,0.02014866475817638, ,0.0005883057151700262, ,0.18078917658559576,-0.14211373035147942,0.10504226757000001,2.7622456255216394,1.3121203072475247,-1.200305398461072, ,0.04417920929165306,0.04355068451513115,0.032441571323828924,0.08065102755287837,0.05054283323569045,0.13770193995825983, ,1.0000629425048828
0.012922017837826535,0.021087687769178638,-0.08881143568063864, ,0.01361211801669251,0.020770910890394956,-0.0898945434584296, ,0.0013227654010118522, ,0.010380092887639518,0.0009943593278800595,-0.031328127971533594,-0.02013751747338717,-0.0006922848253731288,0.05652631345198502, ,0.03301797512007289, ,0.02014866475817638, ,0.0005964663783460465, ,0.18078917658559576,-0.14211373035147942,0.10504226757000001,2.7622456255216394,1.3121203072475247,-1.200305398461072, ,0.04417920929165306,0.04355068451513115,0.032441571323828924,0.08065102755287837,0.05054283323569045,0.13770193995825983, ,1.0023488998413086
0.012922017837826535,0.021087687769178638,-0.08881143568063864, ,0.013660127198871165,0.02077372553682723,-0.09002245210339149, ,0.0014525627313069537, ,0.010380092887639518,0.0009943593278800595,-0.031328127971533594,-0.02013751747338717,-0.0006922848253731288,0.05652631345198502, ,0.03301797512007289, ,0.02014866475817638, ,0.0006058740305763861, ,0.18078917658559576,-0.14211373035147942,0.10504226757000001,2.7622456255216394,1.3121203072475247,-1.200305398461072, ,0.04417920929165306,0.04355068451513115,0.032441571323828924,0.08065102755287837,0.05054283323569045,0.13770193995825983, ,1.004431962966919
0.012922017837826535,0.021087687769178638,-0.08881143568063864, ,0.013708209767675606,0.020776448499398685,-0.09015003200518307, ,0.0015832901672456707, ,0.010380092887639518,0.0009943593278800595,-0.031328127971533594,-0.02013751747338717,-0.0006922848253731288,0.05652631345198502, ,0.03301797512007289, ,0.02014866475817638, ,0.0006164981190184436, ,0.18078917658559576,-0.14211373035147942,0.10504226757000001,2.7622456255216394,1.3121203072475247,-1.200305398461072, ,0.04417920929165306,0.04355068451513115,0.032441571323828924,0.08065102755287837,0.05054283323569045,0.13770193995825983, ,1.0088469982147217
0.012922017837826535,0.021087687769178638,-0.08881143568063864, ,0.013756364925693567,0.02077908048426567,-0.09027728262475322, ,0.0017146663765594803, ,0.010380092887639518,0.0009943593278800595,-0.031328127971533594,-0.02013751747338717,-0.0006922848253731288,0.05652631345198502, ,0.03301797512007289, ,0.02014866475817638, ,0.0006283063798522182, ,0.18078917658559576,-0.14211373035147942,0.10504226757000001,2.7622456255216394,1.3121203072475247,-1.200305398461072, ,0.04417920929165306,0.04355068451513115,0.032441571323828924,0.08065102755287837,0.05054283323569045,0.13770193995825983, ,1.010941982269287
0.012922017837826535,0.021087687769178638,-0.08881143568063864, ,0.013804591878634713,0.020781622196183725,-0.09040420342803572, ,0.0018464891469027272, ,0.010380092887639518,0.0009943593278800595,-0.031328127971533594,-0.02013751747338717,-0.0006922848253731288,0.05652631345198502, ,0.03301797512007289, ,0.02014866475817638, ,0.0006412657709910534, ,0.18078917658559576,-0.14211373035147942,0.10504226757000001,2.7622456255216394,1.3121203072475247,-1.200305398461072, ,0.04417920929165306,0.04355068451513115,0.032441571323828924,0.08065102755287837,0.05054283323569045,0.13770193995825983, ,1.012882947921753
0.013055140337268244,0.021111271454902374,-0.08916976285866764, ,0.013852889835325618,0.020784074338508443,-0.0905307938859388, ,0.0016111696595399602, ,0.015696007770471452,0.0033732677327244585,-0.042754076460458944,-0.005360144310404698,0.034821222054606936,-0.18705911449014004, ,0.04566896811965549, ,0.03522933152884807, ,0.0006514752856073576, ,0.18124481782517501,-0.14167353457764864,0.10541559909,2.7653909746739074,1.3123935802470557,-1.1984862657649509, ,0.05071990462772356,0.04663240371423625,0.044618519663865555,0.3896960111218747,0.028723978903591192,0.20316785560664202, ,1.0149588584899902
0.013055140337268244,0.021111271454902374,-0.08916976285866764, ,0.013901258007705225,0.0207864376131962,-0.09065705347433861, ,0.0017416846765147362, ,0.015696007770471452,0.0033732677327244585,-0.042754076460458944,-0.005360144310404698,0.034821222054606936,-0.18705911449014004, ,0.04566896811965549, ,0.03522933152884807, ,0.0006628316334293094, ,0.18124481782517501,-0.14167353457764864,0.10541559909,2.7653909746739074,1.3123935802470557,-1.1984862657649509, ,0.05071990462772356,0.04663240371423625,0.044618519663865555,0.3896960111218747,0.028723978903591192,0.20316785560664202, ,1.0169219970703125
0.013217826484182467,0.021148010824628007,-0.08962660309824491, ,0.0139496956108203,0.02078871272080509,-0.09078298167406954, ,0.0014148989209701707, ,0.016727410494790335,0.003976099828369583,-0.04910973357661411,-0.014300572266906154,0.02779910906256061,-0.06722421830613878, ,0.052032504876013824, ,0.03125717804640348, ,0.0006705849044348854, ,0.18178540912637073,-0.14120244787232095,0.1058939301,2.768955703713144,1.3129401262461173,-1.196399896435379, ,0.056185282154215976,0.04695543867316713,0.051218043472668826,0.30815568912996194,0.04633075707232978,0.24141899088614022, ,1.018799066543579
0.013217826484182467,0.021148010824628007,-0.08962660309824491, ,0.013998201862820612,0.020790900360495867,-0.09090857797091666, ,0.0015427161726445466, ,0.016727410494790335,0.003976099828369583,-0.04910973357661411,-0.014300572266906154,0.02779910906256061,-0.06722421830613878, ,0.052032504876013824, ,0.03125717804640348, ,0.000679484203090086, ,0.18178540912637073,-0.14120244787232095,0.1058939301,2.768955703713144,1.3129401262461173,-1.196399896435379, ,0.056185282154215976,0.04695543867316713,0.051218043472668826,0.30815568912996194,0.04633075707232978,0.24141899088614022, ,1.0207290649414062
0.013217826484182467,0.021148010824628007,-0.08962660309824491, ,0.014046775984954477,0.02079300123003235,-0.09103384185560709, ,0.0016713796718003315, ,0.016727410494790335,0.003976099828369583,-0.04910973357661411,-0.014300572266906154,0.02779910906256061,-0.06722421830613878, ,0.052032504876013824, ,0.03125717804640348, ,0.0006895033492386744, ,0.18178540912637073,-0.14120244787232095,0.1058939301,2.768955703713144,1.3129401262461173,-1.196399896435379, ,0.056185282154215976,0.04695543867316713,0.051218043472668826,0.30815568912996194,0.04633075707232978,0.24141899088614022, ,1.0226259231567383
0.013217826484182467,0.021148010824628007,-0.08962660309824491, ,0.014095417201564236,0.0207950160257826,-0.09115877282380172, ,0.0018006429027320726, ,0.016727410494790335,0.003976099828369583,-0.04910973357661411,-0.014300572266906154,0.02779910906256061,-0.06722421830613878, ,0.052032504876013824, ,0.03125717804640348, ,0.0007006147447736085, ,0.18178540912637073,-0.14120244787232095,0.1058939301,2.768955703713144,1.3129401262461173,-1.196399896435379, ,0.056185282154215976,0.04695543867316713,0.051218043472668826,0.30815568912996194,0.04633075707232978,0.24141899088614022, ,1.0245130062103271
0.013217826484182467,0.021148010824628007,-0.08962660309824491, ,0.014144124740081414,0.020796945442719605,-0.09128337037608662, ,0.0019303246292224935, ,0.016727410494790335,0.003976099828369583,-0.04910973357661411,-0.014300572266906154,0.02779910906256061,-0.06722421830613878, ,0.052032504876013824, ,0.03125717804640348, ,0.0007127900901641915, ,0.18178540912637073,-0.14120244787232095,0.1058939301,2.768955703713144,1.3129401262461173,-1.196399896435379, ,0.056185282154215976,0.04695543867316713,0.051218043472668826,0.30815568912996194,0.04633075707232978,0.24141899088614022, ,1.0264389514923096
0.013384061200210937,0.02118596463845058,-0.0901457056912171, ,0.014192897831022077,0.020798790174422196,-0.09140763401796516, ,0.001548090392317815, ,0.017197866300291954,0.003573184739210474,-0.05609078277463869,0.016021564068322003,0.015067087339325531,0.09410293555069886, ,0.05877678254834088, ,0.021980728509290677, ,0.0007209793088127564, ,0.18238778229056024,-0.14070819296837056,0.10643577932,2.770842913204505,1.3137599452447097,-1.1940462904723568, ,0.06407626033657716,0.05631865967861767,0.058561807058823544,0.12191347879823056,0.11603240986600295,0.20634291075735284, ,1.028331995010376
0.013384061200210937,0.02118596463845058,-0.0901457056912171, ,0.01424173570798232,0.020800550913075547,-0.09153156325984917, ,0.0016747389353338378, ,0.017197866300291954,0.003573184739210474,-0.05609078277463869,0.016021564068322003,0.015067087339325531,0.09410293555069886, ,0.05877678254834088, ,0.021980728509290677, ,0.0007302391110119901, ,0.18238778229056024,-0.14070819296837056,0.10643577932,2.770842913204505,1.3137599452447097,-1.1940462904723568, ,0.06407626033657716,0.05631865967861767,0.058561807058823544,0.12191347879823056,0.11603240986600295,0.20634291075735284, ,1.0302259922027588
0.013384061200210937,0.02118596463845058,-0.0901457056912171, ,0.014290637607633945,0.02080222834947242,-0.09165515761705079, ,0.0018021041696799189, ,0.017197866300291954,0.003573184739210474,-0.05609078277463869,0.016021564068322003,0.015067087339325531,0.09410293555069886, ,0.05877678254834088, ,0.021980728509290677, ,0.0007405455058068741, ,0.18238778229056024,-0.14070819296837056,0.10643577932,2.770842913204505,1.3137599452447097,-1.1940462904723568, ,0.06407626033657716,0.05631865967861767,0.058561807058823544,0.12191347879823056,0.11603240986600295,0.20634291075735284, ,1.0321810245513916
0.013384061200210937,0.02118596463845058,-0.0901457056912171, ,0.01433960276971924,0.02080382317301364,-0.0917784166097747, ,0.0019299836098376287, ,0.017197866300291954,0.003573184739210474,-0.05609078277463869,0.016021564068322003,0.015067087339325531,0.09410293555069886, ,0.05877678254834088, ,0.021980728509290677, ,0.0007518734877500242, ,0.18238778229056024,-0.14070819296837056,0.10643577932,2.770842913204505,1.3137599452447097,-1.1940462904723568, ,0.06407626033657716,0.05631865967861767,0.058561807058823544,0.12191347879823056,0.11603240986600295,0.20634291075735284, ,1.0340700149536133
0.013384061200210937,0.02118596463845058,-0.0901457056912171, ,0.014388630437046575,0.020805336071709157,-0.09190133976310821, ,0.002058224587308471, ,0.017197866300291954,0.003573184739210474,-0.05609078277463869,0.016021564068322003,0.015067087339325531,0.09410293555069886, ,0.05877678254834088, ,0.021980728509290677, ,0.0007641975547269908, ,0.18238778229056024,-0.14070819296837056,0.10643577932,2.770842913204505,1.3137599452447097,-1.1940462904723568, ,0.06407626033657716,0.05631865967861767,0.058561807058823544,0.12191347879823056,0.11603240986600295,0.20634291075735284, ,1.0359618663787842
0.013571449765129922,0.021224896527131158,-0.09075005887107694, ,0.01443771985548604,0.02080676773217862,-0.09202392660701489, ,0.001596243893419088, ,0.017197866300291954,0.003573184739210474,-0.05609078277463869,0.016021564068322003,0.015067087339325531,0.09410293555069886, ,0.05877678254834088, ,0.021980728509290677, ,0.000771973688733459, ,0.18304421458486933,-0.1400903743384326,0.10706707255000002,2.7727301226958656,1.3149896737425988,-1.1918635807401428, ,0.06886570504968853,0.06603823351320166,0.07142964807174888,0.27213264706416435,0.1226096752415056,0.25397494335483334, ,1.0378658771514893
0.013571449765129922,0.021224896527131158,-0.09075005887107694, ,0.014486870273964704,0.020808118839652407,-0.09214617667632474, ,0.001720710107747788, ,0.02148220481523348,0.004991412085368887,-0.06900544149623211,0.02853937144939645,0.04079386667667238,-0.019380103328965184, ,0.0724441182872669, ,0.04977017814916077, ,0.0007807582852058138, ,0.18304421458486933,-0.1400903743384326,0.10706707255000002,2.7727301226958656,1.3149896737425988,-1.1918635807401428, ,0.06886570504968853,0.06603823351320166,0.07142964807174888,0.27213264706416435,0.1226096752415056,0.25397494335483334, ,1.0403468608856201
0.013571449765129922,0.021224896527131158,-0.09075005887107694, ,0.014536080944461653,0.020809390077972306,-0.09226808951072657, ,0.0018459620647095062, ,0.02148220481523348,0.004991412085368887,-0.06900544149623211,0.02853937144939645,0.04079386667667238,-0.019380103328965184, ,0.0724441182872669, ,0.04977017814916077, ,0.0007905307969443797, ,0.18304421458486933,-0.1400903743384326,0.10706707255000002,2.7727301226958656,1.3149896737425988,-1.1918635807401428, ,0.06886570504968853,0.06603823351320166,0.07142964807174888,0.27213264706416435,0.1226096752415056,0.25397494335483334, ,1.0424768924713135
0.013571449765129922,0.021224896527131158,-0.09075005887107694, ,0.014585351122003957,0.020810582129592376,-0.09238966465475915, ,0.0019717909390610023, ,0.02148220481523348,0.004991412085368887,-0.06900544149623211,0.02853937144939645,0.04079386667667238,-0.019380103328965184, ,0.0724441182872669, ,0.04977017814916077, ,0.0008012695255090763, ,0.18304421458486933,-0.1400903743384326,0.10706707255000002,2.7727301226958656,1.3149896737425988,-1.1918635807401428, ,0.06886570504968853,0.06603823351320166,0.07142964807174888,0.27213264706416435,0.1226096752415056,0.25397494335483334, ,1.0445568561553955
0.013571449765129922,0.021224896527131158,-0.09075005887107694, ,0.014634680064661535,0.02081169567557973,-0.0925109016578036, ,0.002098037400317783, ,0.02148220481523348,0.004991412085368887,-0.06900544149623211,0.02853937144939645,0.04079386667667238,-0.019380103328965184, ,0.0724441182872669, ,0.04977017814916077, ,0.0008129521189758213, ,0.18304421458486933,-0.1400903743384326,0.10706707255000002,2.7727301226958656,1.3149896737425988,-1.1918635807401428, ,0.06886570504968853,0.06603823351320166,0.07142964807174888,0.27213264706416435,0.1226096752415056,0.25397494335483334, ,1.04744291305542
0.013749591913710751,0.021267114146348427,-0.09131173685363003, ,0.014684067033542709,0.02081273139561539,-0.0926318000740742, ,0.0016799626006902995, ,0.023496148683987694,0.005581329551453688,-0.07279377525465762,0.02924236164436071,0.05335080666142451,-0.044038006607626044, ,0.07669520166456043, ,0.06082253144595698, ,0.0008206932839911292, ,0.1836002513518135,-0.1395575057701111,0.10765429192,2.775456091961164,1.315946129240957,-1.1895397139406763, ,0.07425425787047792,0.06822210032959797,0.07621440918660287,0.37235115975980276,0.1258556531799585,0.31666459169808264, ,1.0494370460510254
0.013749591913710751,0.021267114146348427,-0.09131173685363003, ,0.014733511292789827,0.02081368996799509,-0.09275235946261051, ,0.001802521659106618, ,0.023496148683987694,0.005581329551453688,-0.07279377525465762,0.02924236164436071,0.05335080666142451,-0.044038006607626044, ,0.07669520166456043, ,0.06082253144595698, ,0.0008293820306735671, ,0.1836002513518135,-0.1395575057701111,0.10765429192,2.775456091961164,1.315946129240957,-1.1895397139406763, ,0.07425425787047792,0.06822210032959797,0.07621440918660287,0.37235115975980276,0.1258556531799585,0.31666459169808264, ,1.0513708591461182
0.013749591913710751,0.021267114146348427,-0.09131173685363003, ,0.014783012109574115,0.020814572069630118,-0.09287257938726928, ,0.0019258715033034235, ,0.023496148683987694,0.005581329551453688,-0.07279377525465762,0.02924236164436071,0.05335080666142451,-0.044038006607626044, ,0.07669520166456043, ,0.06082253144595698, ,0.0008390003593808466, ,0.1836002513518135,-0.1395575057701111,0.10765429192,2.775456091961164,1.315946129240957,-1.1895397139406763, ,0.07425425787047792,0.06822210032959797,0.07621440918660287,0.37235115975980276,0.1258556531799585,0.31666459169808264, ,1.053283929824829
0.013749591913710751,0.021267114146348427,-0.09131173685363003, ,0.014832568754091547,0.020815378376048053,-0.09299245941671537, ,0.0020498127663360357, ,0.023496148683987694,0.005581329551453688,-0.07279377525465762,0.02924236164436071,0.05335080666142451,-0.044038006607626044, ,0.07669520166456043, ,0.06082253144595698, ,0.0008495291629195873, ,0.1836002513518135,-0.1395575057701111,0.10765429192,2.775456091961164,1.315946129240957,-1.1895397139406763, ,0.07425425787047792,0.06822210032959797,0.07621440918660287,0.37235115975980276,0.1258556531799585,0.31666459169808264, ,1.0552289485931396
0.013749591913710751,0.021267114146348427,-0.09131173685363003, ,0.01488218049955816,0.020816109561393528,-0.09311199912441397, ,0.00217419094930742, ,0.023496148683987694,0.005581329551453688,-0.07279377525465762,0.02924236164436071,0.05335080666142451,-0.044038006607626044, ,0.07669520166456043, ,0.06082253144595698, ,0.0008609486610781031, ,0.1836002513518135,-0.1395575057701111,0.10765429192,2.775456091961164,1.315946129240957,-1.1895397139406763, ,0.07425425787047792,0.06822210032959797,0.07621440918660287,0.37235115975980276,0.1258556531799585,0.31666459169808264, ,1.0571670532226562
0.014011142587037879,0.02132002580571296,-0.09209836616239298, ,0.014931846622204963,0.020816766298429278,-0.09323119808862211, ,0.001544109524978193, ,0.022885150445803762,0.004257386433243731,-0.06767262446238573,0.029484590159956282,0.04001668274672629,0.06155868364786064, ,0.0715642337470061, ,0.0496916158391821, ,0.0008667876428208388, ,0.18448064289947508,-0.13874661881831754,0.10847873236000001,2.7794402008873704,1.3174491307383769,-1.1857829077327626, ,0.08450306461128297,0.07076580280273734,0.07111076571428573,0.2836399381358445,0.15023179622983548,0.33157870194265343, ,1.0591108798980713
0.014011142587037879,0.02132002580571296,-0.09209836616239298, ,0.01498156640127405,0.020817349258536785,-0.09335005589238012, ,0.001661665811910723, ,0.022885150445803762,0.004257386433243731,-0.06767262446238573,0.029484590159956282,0.04001668274672629,0.06155868364786064, ,0.0715642337470061, ,0.0496916158391821, ,0.0008735238984910921, ,0.18448064289947508,-0.13874661881831754,0.10847873236000001,2.7794402008873704,1.3174491307383769,-1.1857829077327626, ,0.08450306461128297,0.07076580280273734,0.07111076571428573,0.2836399381358445,0.15023179622983548,0.33157870194265343, ,1.0610120296478271
0.014011142587037879,0.02132002580571296,-0.09209836616239298, ,0.015031339119013352,0.020817859111717026,-0.09346857212350383, ,0.001780572022771704, ,0.022885150445803762,0.004257386433243731,-0.06767262446238573,0.029484590159956282,0.04001668274672629,0.06155868364786064, ,0.0715642337470061, ,0.0496916158391821, ,0.0008811461516363074, ,0.18448064289947508,-0.13874661881831754,0.10847873236000001,2.7794402008873704,1.3174491307383769,-1.1857829077327626, ,0.08450306461128297,0.07076580280273734,0.07111076571428573,0.2836399381358445,0.15023179622983548,0.33157870194265343, ,1.062943935394287
0.014011142587037879,0.02132002580571296,-0.09209836616239298, ,0.015081164060672374,0.02081829652659158,-0.09358674637457547, ,0.0019005141092828003, ,0.022885150445803762,0.004257386433243731,-0.06767262446238573,0.029484590159956282,0.04001668274672629,0.06155868364786064, ,0.0715642337470061, ,0.0496916158391821, ,0.0008896408846166948, ,0.18448064289947508,-0.13874661881831754,0.10847873236000001,2.7794402008873704,1.3174491307383769,-1.1857829077327626, ,0.08450306461128297,0.07076580280273734,0.07111076571428573,0.2836399381358445,0.15023179622983548,0.33157870194265343, ,1.0650298595428467
0.014011142587037879,0.02132002580571296,-0.09209836616239298, ,0.015131040514497268,0.02081866217040293,-0.09370457824293599, ,0.0020212506302834977, ,0.022885150445803762,0.004257386433243731,-0.06767262446238573,0.029484590159956282,0.04001668274672629,0.06155868364786064, ,0.0715642337470061, ,0.0496916158391821, ,0.0008989930312750981, ,0.18448064289947508,-0.13874661881831754,0.10847873236000001,2.7794402008873704,1.3174491307383769,-1.1857829077327626, ,0.08450306461128297,0.07076580280273734,0.07111076571428573,0.2836399381358445,0.15023179622983548,0.33157870194265343, ,1.0669100284576416
0.014260038611085423,0.021353318221004315,-0.09280441883948745, ,0.015180967771726724,0.020818956709015866,-0.09382206733067616, ,0.00147284119851148, ,0.02301033532651249,0.0021862796405314805,-0.0634614444543151,0.04557756301864241,0.02586407972536027,0.10185999780803132, ,0.06753969412673759, ,0.052394995488987635, ,0.0009036967047770356, ,0.18548459817312427,-0.13789711820215284,0.10922280282,2.782166170152669,1.3193620417350929,-1.1822786764957975, ,0.09854303380941928,0.08368336998101479,0.06692777949579834,0.21961531252648817,0.18563175455634248,0.30287388144932165, ,1.068889856338501
0.014260038611085423,0.021353318221004315,-0.09280441883948745, ,0.015230945126586754,0.02081918080691785,-0.09393921324462852, ,0.001586102323593715, ,0.02301033532651249,0.0021862796405314805,-0.0634614444543151,0.04557756301864241,0.02586407972536027,0.10185999780803132, ,0.06753969412673759, ,0.052394995488987635, ,0.0009092447179381468, ,0.18548459817312427,-0.13789711820215284,0.10922280282,2.782166170152669,1.3193620417350929,-1.1822786764957975, ,0.09854303380941928,0.08368336998101479,0.06692777949579834,0.21961531252648817,0.18563175455634248,0.30287388144932165, ,1.0707709789276123
0.014260038611085423,0.021353318221004315,-0.09280441883948745, ,0.015280971876286596,0.020819335127220083,-0.0940560155963595, ,0.001701157581840768, ,0.02301033532651249,0.0021862796405314805,-0.0634614444543151,0.04557756301864241,0.02586407972536027,0.10185999780803132, ,0.06753969412673759, ,0.052394995488987635, ,0.0009156311120018776, ,0.18548459817312427,-0.13789711820215284,0.10922280282,2.782166170152669,1.3193620417350929,-1.1822786764957975, ,0.09854303380941928,0.08368336998101479,0.06692777949579834,0.21961531252648817,0.18563175455634248,0.30287388144932165, ,1.072624921798706
0.014260038611085423,0.021353318221004315,-0.09280441883948745, ,0.015331047321013523,0.020819420331658255,-0.09417247400215968, ,0.0018176032408378276, ,0.02301033532651249,0.0021862796405314805,-0.0634614444543151,0.04557756301864241,0.02586407972536027,0.10185999780803132, ,0.06753969412673759, ,0.052394995488987635, ,0.0009228468890325652, ,0.18548459817312427,-0.13789711820215284,0.10922280282,2.782166170152669,1.3193620417350929,-1.1822786764957975, ,0.09854303380941928,0.08368336998101479,0.06692777949579834,0.21961531252648817,0.18563175455634248,0.30287388144932165, ,1.074512004852295
0.014260038611085423,0.021353318221004315,-0.09280441883948745, ,0.015381170763928843,0.02081943708059321,-0.0942885880830372, ,0.0019351291222357758, ,0.02301033532651249,0.0021862796405314805,-0.0634614444543151,0.04557756301864241,0.02586407972536027,0.10185999780803132, ,0.06753969412673759, ,0.052394995488987635, ,0.0009308808750103684, ,0.18548459817312427,-0.13789711820215284,0.10922280282,2.782166170152669,1.3193620417350929,-1.1822786764957975, ,0.09854303380941928,0.08368336998101479,0.06692777949579834,0.21961531252648817,0.18563175455634248,0.30287388144932165, ,1.076387882232666
0.014260038611085423,0.021353318221004315,-0.09280441883948745, ,0.015431341511162992,0.020819386033011963,-0.09440435746470816, ,0.0020534940149845916, ,0.02301033532651249,0.0021862796405314805,-0.0634614444543151,0.04557756301864241,0.02586407972536027,0.10185999780803132, ,0.06753969412673759, ,0.052394995488987635, ,0.0009397203485534724, ,0.1865271671111446,-0.13702444938736547,0.10990076249000001,2.784892139417968,1.3211383162320438,-1.1790714210558393, ,0.10845364749539518,0.08944103822664541,0.06664774694560671,0.3277789117844848,0.16368308475554233,0.3386530900303995, ,1.0782959461212158
0.014502336502201913,0.021373948335308042,-0.0934469406151915, ,0.01548155887181058,0.020819267846528537,-0.09451978177758863, ,0.0015548424529540942, ,0.025440451857018223,0.0017854185205160161,-0.0625204354595474,0.03072208003458142,0.023793367343583095,-0.00289986027600698, ,0.06752191614604917, ,0.03884604608914258, ,0.0009445259899941023, ,0.1865271671111446,-0.13702444938736547,0.10990076249000001,2.784892139417968,1.3211383162320438,-1.1790714210558393, ,0.10845364749539518,0.08944103822664541,0.06664774694560671,0.3277789117844848,0.16368308475554233,0.3386530900303995, ,1.0807619094848633
0.014502336502201913,0.021373948335308042,-0.0934469406151915, ,0.015531822157926575,0.02081908317738442,-0.09463486065678639, ,0.0016669943263380499, ,0.025440451857018223,0.0017854185205160161,-0.0625204354595474,0.03072208003458142,0.023793367343583095,-0.00289986027600698, ,0.06752191614604917, ,0.03884604608914258, ,0.0009501265197332027, ,0.1865271671111446,-0.13702444938736547,0.10990076249000001,2.784892139417968,1.3211383162320438,-1.1790714210558393, ,0.10845364749539518,0.08944103822664541,0.06664774694560671,0.3277789117844848,0.16368308475554233,0.3386530900303995, ,1.082854986190796
0.014502336502201913,0.021373948335308042,-0.0934469406151915, ,0.01558213068452062,0.02081883268044996,-0.09474959374209282, ,0.001780734128235779, ,0.025440451857018223,0.0017854185205160161,-0.0625204354595474,0.03072208003458142,0.023793367343583095,-0.00289986027600698, ,0.06752191614604917, ,0.03884604608914258, ,0.0009565158090293763, ,0.1865271671111446,-0.13702444938736547,0.10990076249000001,2.784892139417968,1.3211383162320438,-1.1790714210558393, ,0.10845364749539518,0.08944103822664541,0.06664774694560671,0.3277789117844848,0.16368308475554233,0.3386530900303995, ,1.0851800441741943
0.014502336502201913,0.021373948335308042,-0.0934469406151915, ,0.015632483769553528,0.020818517009224578,-0.09486398067797368, ,0.0018957160503163106, ,0.025440451857018223,0.0017854185205160161,-0.0625204354595474,0.03072208003458142,0.023793367343583095,-0.00289986027600698, ,0.06752191614604917, ,0.03884604608914258, ,0.0009636852765201161, ,0.1865271671111446,-0.13702444938736547,0.10990076249000001,2.784892139417968,1.3211383162320438,-1.1790714210558393, ,0.10845364749539518,0.08944103822664541,0.06664774694560671,0.3277789117844848,0.16368308475554233,0.3386530900303995, ,1.0872478485107422
0.014782323388118206,0.021388582358694046,-0.09409928080939564, ,0.015682880733931964,0.02081813681583798,-0.09497802111356185, ,0.0013815195158337764, ,0.02486444487869185,0.00045602460779348066,-0.05525124393360734,0.07750201157571464,0.034178011727885364,-0.08770325168027213, ,0.06059000357962855, ,0.08470055134933294, ,0.0009668506874240076, ,0.18777824983676894,-0.13602821684659053,0.11059298135000001,2.7892956282311427,1.3229145907289945,-1.175619129395459, ,0.1144715820970697,0.09386443279769613,0.05899559822222222,0.40596660241654875,0.1903054487050631,0.2951289437390955, ,1.0892138481140137
0.014782323388118206,0.021388582358694046,-0.09409928080939564, ,0.015733320901503946,0.020817692751050783,-0.09509171470264827, ,0.0014883669732487026, ,0.02486444487869185,0.00045602460779348066,-0.05525124393360734,0.07750201157571464,0.034178011727885364,-0.08770325168027213, ,0.06059000357962855, ,0.08470055134933294, ,0.0009707718625053963, ,0.18777824983676894,-0.13602821684659053,0.11059298135000001,2.7892956282311427,1.3229145907289945,-1.175619129395459, ,0.1144715820970697,0.09386443279769613,0.05899559822222222,0.40596660241654875,0.1903054487050631,0.2951289437390955, ,1.0911219120025635
0.014782323388118206,0.021388582358694046,-0.09409928080939564, ,0.015783803599054274,0.020817185464255542,-0.09520506110367426, ,0.0015975628573190544, ,0.02486444487869185,0.00045602460779348066,-0.05525124393360734,0.07750201157571464,0.034178011727885364,-0.08770325168027213, ,0.06059000357962855, ,0.08470055134933294, ,0.0009754494072428115, ,0.18777824983676894,-0.13602821684659053,0.11059298135000001,2.7892956282311427,1.3229145907289945,-1.175619129395459, ,0.1144715820970697,0.09386443279769613,0.05899559822222222,0.40596660241654875,0.1903054487050631,0.2951289437390955, ,1.0929958820343018
0.014782323388118206,0.021388582358694046,-0.09409928080939564, ,0.015834328156300034,0.020816615603477195,-0.09531805997972166, ,0.0017085908425867138, ,0.02486444487869185,0.00045602460779348066,-0.05525124393360734,0.07750201157571464,0.034178011727885364,-0.08770325168027213, ,0.06059000357962855, ,0.08470055134933294, ,0.000980880084541655, ,0.18777824983676894,-0.13602821684659053,0.11059298135000001,2.7892956282311427,1.3229145907289945,-1.175619129395459, ,0.1144715820970697,0.09386443279769613,0.05899559822222222,0.40596660241654875,0.1903054487050631,0.2951289437390955, ,1.0948960781097412
0.014782323388118206,0.021388582358694046,-0.09409928080939564, ,0.015884893905885607,0.020815983815374247,-0.09543071099850678, ,0.0018210538671160584, ,0.02486444487869185,0.00045602460779348066,-0.05525124393360734,0.07750201157571464,0.034178011727885364,-0.08770325168027213, ,0.06059000357962855, ,0.08470055134933294, ,0.0009870578329429377, ,0.18777824983676894,-0.13602821684659053,0.11059298135000001,2.7892956282311427,1.3229145907289945,-1.175619129395459, ,0.1144715820970697,0.09386443279769613,0.05899559822222222,0.40596660241654875,0.1903054487050631,0.2951289437390955, ,1.0967860221862793
0.01501843195114605,0.021377216837643778,-0.0946122503437368, ,0.015935500183378522,0.020815290745239395,-0.09554301383237013, ,0.00142235570363666, ,0.022922777839227186,-0.002306498699150363,-0.04924926158683365,-0.06944936564900725,-0.009468162237430022,0.042958035474391205, ,0.05437153158560199, ,0.07008973356896067, ,0.0009902351896633296, ,0.18892121430215417,-0.13502426157294134,0.11113483057000001,2.792650667326895,1.3242809557266486,-1.1724043352049731, ,0.11270420612644985,0.10662577703198964,0.05138326296774194,0.3058037118880367,0.08119652637067713,0.3574463758780908, ,1.098912000656128
0.01501843195114605,0.021377216837643778,-0.0946122503437368, ,0.01598614632726457,0.020814537037000393,-0.09565496815826885, ,0.0015298170193003583, ,0.022922777839227186,-0.002306498699150363,-0.04924926158683365,-0.06944936564900725,-0.009468162237430022,0.042958035474391205, ,0.05437153158560199, ,0.07008973356896067, ,0.000994145202921569, ,0.18892121430215417,-0.13502426157294134,0.11113483057000001,2.792650667326895,1.3242809557266486,-1.1724043352049731, ,0.11270420612644985,0.10662577703198964,0.05138326296774194,0.3058037118880367,0.08119652637067713,0.3574463758780908, ,1.1008059978485107
0.01501843195114605,0.021377216837643778,-0.0946122503437368, ,0.01603683167894329,0.020813723333220742,-0.09576657365776853, ,0.001639245328930859, ,0.022922777839227186,-0.002306498699150363,-0.04924926158683365,-0.06944936564900725,-0.009468162237430022,0.042958035474391205, ,0.05437153158560199, ,0.07008973356896067, ,0.0009987862110223554, ,0.18892121430215417,-0.13502426157294134,0.11113483057000001,2.792650667326895,1.3242809557266486,-1.1724043352049731, ,0.11270420612644985,0.10662577703198964,0.05138326296774194,0.3058037118880367,0.08119652637067713,0.3574463758780908, ,1.1027040481567383
0.01501843195114605,0.021377216837643778,-0.0946122503437368, ,0.016087555582723033,0.020812850275100797,-0.09587783001703432, ,0.0017502076636721682, ,0.022922777839227186,-0.002306498699150363,-0.04924926158683365,-0.06944936564900725,-0.009468162237430022,0.042958035474391205, ,0.05437153158560199, ,0.07008973356896067, ,0.0010041535071127112, ,0.18892121430215417,-0.13502426157294134,0.11113483057000001,2.792650667326895,1.3242809557266486,-1.1724043352049731, ,0.11270420612644985,0.10662577703198964,0.05138326296774194,0.3058037118880367,0.08119652637067713,0.3574463758780908, ,1.10453200340271
0.01501843195114605,0.021377216837643778,-0.0946122503437368, ,0.016138317385817176,0.020811918502478155,-0.09598873692682297, ,0.0018623697022733727, ,0.022922777839227186,-0.002306498699150363,-0.04924926158683365,-0.06944936564900725,-0.009468162237430022,0.042958035474391205, ,0.05437153158560199, ,0.07008973356896067, ,0.0010102401467947018, ,0.18892121430215417,-0.13502426157294134,0.11113483057000001,2.792650667326895,1.3242809557266486,-1.1724043352049731, ,0.11270420612644985,0.10662577703198964,0.05138326296774194,0.3058037118880367,0.08119652637067713,0.3574463758780908, ,1.1064040660858154
0.01501843195114605,0.021377216837643778,-0.0946122503437368, ,0.01618911643833819,0.02081092865382893,-0.09609929408247447, ,0.0019754704646234435, ,0.022922777839227186,-0.002306498699150363,-0.04924926158683365,-0.06944936564900725,-0.009468162237430022,0.042958035474391205, ,0.05437153158560199, ,0.07008973356896067, ,0.0010170375433991294, ,0.18998695143879715,-0.13398169263492102,0.11162612448,2.7955863265356786,1.324964138225476,-1.1691225239368488, ,0.1144715820970697,0.11270420612644985,0.05473818391752577,0.3078742555266349,0.06405572892046267,0.3408636357612494, ,1.1083848476409912
0.015237432126455331,0.02135235929840998,-0.09508444025230256, ,0.01623995209329414,0.02080988136626825,-0.09620950118390369, ,0.0016015900507266054, ,0.023914269764511845,-0.0025656428920570722,-0.05272808188497314,-0.08590140053646055,-0.018640841608839494,0.020001480335296324, ,0.05795451182684434, ,0.08789837320921434, ,0.0010211253231706503, ,0.18998695143879715,-0.13398169263492102,0.11162612448,2.7955863265356786,1.324964138225476,-1.1691225239368488, ,0.1144715820970697,0.11270420612644985,0.05473818391752577,0.3078742555266349,0.06405572892046267,0.3408636357612494, ,1.1109070777893066
0.015237432126455331,0.02135235929840998,-0.09508444025230256, ,0.016290823706583978,0.020808777275551107,-0.09631935793559186, ,0.001711764271493563, ,0.023914269764511845,-0.0025656428920570722,-0.05272808188497314,-0.08590140053646055,-0.018640841608839494,0.020001480335296324, ,0.05795451182684434, ,0.08789837320921434, ,0.0010259214269784482, ,0.18998695143879715,-0.13398169263492102,0.11162612448,2.7955863265356786,1.324964138225476,-1.1691225239368488, ,0.1144715820970697,0.11270420612644985,0.05473818391752577,0.3078742555266349,0.06405572892046267,0.3408636357612494, ,1.1128199100494385
0.015237432126455331,0.02135235929840998,-0.09508444025230256, ,0.016341730636992055,0.02080761701607336,-0.0964288640465784, ,0.0018231002970637614, ,0.023914269764511845,-0.0025656428920570722,-0.05272808188497314,-0.08590140053646055,-0.018640841608839494,0.020001480335296324, ,0.05795451182684434, ,0.08789837320921434, ,0.0010314192122893814, ,0.18998695143879715,-0.13398169263492102,0.11162612448,2.7955863265356786,1.324964138225476,-1.1691225239368488, ,0.1144715820970697,0.11270420612644985,0.05473818391752577,0.3078742555266349,0.06405572892046267,0.3408636357612494, ,1.114799976348877
0.015237432126455331,0.02135235929840998,-0.09508444025230256, ,0.016392672246184483,0.02080640122087226,-0.09653801923045234, ,0.001935340229101712, ,0.023914269764511845,-0.0025656428920570722,-0.05272808188497314,-0.08590140053646055,-0.018640841608839494,0.020001480335296324, ,0.05795451182684434, ,0.08789837320921434, ,0.0010376104521305617, ,0.18998695143879715,-0.13398169263492102,0.11162612448,2.7955863265356786,1.324964138225476,-1.1691225239368488, ,0.1144715820970697,0.11270420612644985,0.05473818391752577,0.3078742555266349,0.06405572892046267,0.3408636357612494, ,1.1167819499969482
0.015237432126455331,0.02135235929840998,-0.09508444025230256, ,0.016443647898703943,0.020805130521627583,-0.09664682320534448, ,0.00204828130766164, ,0.023914269764511845,-0.0025656428920570722,-0.05272808188497314,-0.08590140053646055,-0.018640841608839494,0.020001480335296324, ,0.05795451182684434, ,0.08789837320921434, ,0.00104448576407295, ,0.18998695143879715,-0.13398169263492102,0.11162612448,2.7955863265356786,1.324964138225476,-1.1691225239368488, ,0.1144715820970697,0.11270420612644985,0.05473818391752577,0.3078742555266349,0.06405572892046267,0.3408636357612494, ,1.1188628673553467
0.015237432126455331,0.02135235929840998,-0.09508444025230256, ,0.016494656961965483,0.02080380554866202,-0.0967552756939184, ,0.002161762377400824, ,0.023914269764511845,-0.0025656428920570722,-0.05272808188497314,-0.08590140053646055,-0.018640841608839494,0.020001480335296324, ,0.05795451182684434, ,0.08789837320921434, ,0.0010520349303792193, ,0.18998695143879715,-0.13398169263492102,0.11162612448,2.7955863265356786,1.324964138225476,-1.1691225239368488, ,0.1144715820970697,0.11270420612644985,0.05473818391752577,0.3078742555266349,0.06405572892046267,0.3408636357612494, ,1.1215510368347168
0.015237432126455331,0.02135235929840998,-0.09508444025230256, ,0.016545698806251192,0.02080242693094263,-0.09686337642336282, ,0.002275654019168744, ,0.023914269764511845,-0.0025656428920570722,-0.05272808188497314,-0.08590140053646055,-0.018640841608839494,0.020001480335296324, ,0.05795451182684434, ,0.08789837320921434, ,0.0010602471390288135, ,0.18998695143879715,-0.13398169263492102,0.11162612448,2.7955863265356786,1.324964138225476,-1.1691225239368488, ,0.1144715820970697,0.11270420612644985,0.05473818391752577,0.3078742555266349,0.06405572892046267,0.3408636357612494, ,1.1237640380859375
0.015237432126455331,0.02135235929840998,-0.09508444025230256, ,0.016596772804706512,0.020800995296080923,-0.09697112512538206, ,0.002389851282594734, ,0.023914269764511845,-0.0025656428920570722,-0.05272808188497314,-0.08590140053646055,-0.018640841608839494,0.020001480335296324, ,0.05795451182684434, ,0.08789837320921434, ,0.0010691111666525862, ,0.18998695143879715,-0.13398169263492102,0.11162612448,2.7955863265356786,1.324964138225476,-1.1691225239368488, ,0.1144715820970697,0.11270420612644985,0.05473818391752577,0.3078742555266349,0.06405572892046267,0.3408636357612494, ,1.1258950233459473
0.015237432126455331,0.02135235929840998,-0.09508444025230256, ,0.016647878333334934,0.02079951127033424,-0.09707852153618972, ,0.002504268278638962, ,0.023914269764511845,-0.0025656428920570722,-0.05272808188497314,-0.08590140053646055,-0.018640841608839494,0.020001480335296324, ,0.05795451182684434, ,0.08789837320921434, ,0.0010786155183875952, ,0.18998695143879715,-0.13398169263492102,0.11162612448,2.7955863265356786,1.324964138225476,-1.1691225239368488, ,0.1144715820970697,0.11270420612644985,0.05473818391752577,0.3078742555266349,0.06405572892046267,0.3408636357612494, ,1.1279850006103516
0.015560915040234435,0.021324422543386415,-0.09578691405612182, ,0.016699014770993583,0.02079797547860625,-0.0971855653964979, ,0.0018784682805694443, ,0.023914269764511845,-0.0025656428920570722,-0.05272808188497314,-0.08590140053646055,-0.018640841608839494,0.020001480335296324, ,0.05795451182684434, ,0.08789837320921434, ,0.0010838777076124758, ,0.1915083298150194,-0.1325298188545668,0.11236112091000001,2.8001995052923383,1.326193866723365,-1.165224560661683, ,0.12372482602147429,0.11364903180655184,0.05792295098181819,0.39129385353649737,0.09728862787792858,0.29712982666236804, ,1.1305999755859375
0.015560915040234435,0.021324422543386415,-0.09578691405612182, ,0.01675018149938892,0.020796388544447757,-0.09729225645151095, ,0.0019897814810327487, ,0.026170257518789104,-0.0021361423420363304,-0.055201100648230965,-0.028313773529024228,-0.010616205620517325,-0.09598521771875826, ,0.06112779233279494, ,0.03023013463980794, ,0.001089798647308033, ,0.1915083298150194,-0.1325298188545668,0.11236112091000001,2.8001995052923383,1.326193866723365,-1.165224560661683, ,0.12372482602147429,0.11364903180655184,0.05792295098181819,0.39129385353649737,0.09728862787792858,0.29712982666236804, ,1.1326279640197754
0.015560915040234435,0.021324422543386415,-0.09578691405612182, ,0.016801377903071478,0.020794751090057854,-0.09739859445091557, ,0.00210162167325892, ,0.026170257518789104,-0.0021361423420363304,-0.055201100648230965,-0.028313773529024228,-0.010616205620517325,-0.09598521771875826, ,0.06112779233279494, ,0.03023013463980794, ,0.0010963689266973245, ,0.1915083298150194,-0.1325298188545668,0.11236112091000001,2.8001995052923383,1.326193866723365,-1.165224560661683, ,0.12372482602147429,0.11364903180655184,0.05792295098181819,0.39129385353649737,0.09728862787792858,0.29712982666236804, ,1.134549856185913
0.015560915040234435,0.021324422543386415,-0.09578691405612182, ,0.01685260336943152,0.020793063736284405,-0.09750457914887414, ,0.002213859591873136, ,0.026170257518789104,-0.0021361423420363304,-0.055201100648230965,-0.028313773529024228,-0.010616205620517325,-0.09598521771875826, ,0.06112779233279494, ,0.03023013463980794, ,0.0011035785438920072, ,0.1915083298150194,-0.1325298188545668,0.11236112091000001,2.8001995052923383,1.326193866723365,-1.165224560661683, ,0.12372482602147429,0.11364903180655184,0.05792295098181819,0.39129385353649737,0.09728862787792858,0.29712982666236804, ,1.1365890502929688
0.015560915040234435,0.021324422543386415,-0.09578691405612182, ,0.016903857288695017,0.020791327102624824,-0.09761021030401405, ,0.0023263907322801703, ,0.026170257518789104,-0.0021361423420363304,-0.055201100648230965,-0.028313773529024228,-0.010616205620517325,-0.09598521771875826, ,0.06112779233279494, ,0.03023013463980794, ,0.001111417083561162, ,0.1915083298150194,-0.1325298188545668,0.11236112091000001,2.8001995052923383,1.326193866723365,-1.165224560661683, ,0.12372482602147429,0.11364903180655184,0.05792295098181819,0.39129385353649737,0.09728862787792858,0.29712982666236804, ,1.1385948657989502
0.015560915040234435,0.021324422543386415,-0.09578691405612182, ,0.016955139053918083,0.020789541807227134,-0.09771548767942145, ,0.002439129808504157, ,0.026170257518789104,-0.0021361423420363304,-0.055201100648230965,-0.028313773529024228,-0.010616205620517325,-0.09598521771875826, ,0.06112779233279494, ,0.03023013463980794, ,0.0011198738525098437, ,0.1915083298150194,-0.1325298188545668,0.11236112091000001,2.8001995052923383,1.326193866723365,-1.165224560661683, ,0.12372482602147429,0.11364903180655184,0.05792295098181819,0.39129385353649737,0.09728862787792858,0.29712982666236804, ,1.140941858291626
0.015886896949483146,0.02128780169395915,-0.0964660089493796, ,0.01700644806098273,0.020787708466890764,-0.09782041104263232, ,0.0018269901360508218, ,0.025733100871321017,-0.003795949108887398,-0.053129087487893294,-0.04252619310886553,-0.038840930777014566,0.029230942122914168, ,0.05915489537973223, ,0.057590552096535526, ,0.0011243492720259258, ,0.19313010371860653,-0.13106249960846417,0.11307278412,2.804183614218544,1.3274235952212539,-1.1615716336069388, ,0.13441493138593594,0.12150696742441842,0.055695145174825184,0.24052143433419176,0.11352973509998703,0.2725979403674391, ,1.1437230110168457
0.015886896949483146,0.02128780169395915,-0.0964660089493796, ,0.0170577837085925,0.02078582769706713,-0.09792498016562327, ,0.0019368920222978146, ,0.025733100871321017,-0.003795949108887398,-0.053129087487893294,-0.04252619310886553,-0.038840930777014566,0.029230942122914168, ,0.05915489537973223, ,0.057590552096535526, ,0.001129459603788642, ,0.19313010371860653,-0.13106249960846417,0.11307278412,2.804183614218544,1.3274235952212539,-1.1615716336069388, ,0.13441493138593594,0.12150696742441842,0.055695145174825184,0.24052143433419176,0.11352973509998703,0.2725979403674391, ,1.146528959274292
0.015886896949483146,0.02128780169395915,-0.0964660089493796, ,0.017109145398267675,0.020783900111860494,-0.09802919482480466, ,0.0020472806735096502, ,0.025733100871321017,-0.003795949108887398,-0.053129087487893294,-0.04252619310886553,-0.038840930777014566,0.029230942122914168, ,0.05915489537973223, ,0.057590552096535526, ,0.0011351959854743983, ,0.19313010371860653,-0.13106249960846417,0.11307278412,2.804183614218544,1.3274235952212539,-1.1615716336069388, ,0.13441493138593594,0.12150696742441842,0.055695145174825184,0.24052143433419176,0.11352973509998703,0.2725979403674391, ,1.148542881011963
0.016301998116177236,0.021234262744502047,-0.0972885709632144, ,0.017160532534340633,0.020781926324028976,-0.09813305480101048, ,0.0012864068317434971, ,0.027222942915003545,-0.00304211449439398,-0.05086446146223182,-0.09049506628640581,-0.043809229619347766,-0.007995828847285773, ,0.05777141612764404, ,0.10053986849600383, ,0.001136135183277312, ,0.19531563712201208,-0.12923993465014716,0.11393611326000001,2.808377413088235,1.3287899602189084,-1.1567232646136418, ,0.141426142412028,0.11138138680571688,0.053452387651006725,0.350424320078585,0.05196933682224912,0.35791163946419013, ,1.151421070098877
0.016301998116177236,0.021234262744502047,-0.0972885709632144, ,0.017211944523950945,0.020779906944985396,-0.09823655987949227, ,0.0013903685277509637, ,0.027222942915003545,-0.00304211449439398,-0.05086446146223182,-0.09049506628640581,-0.043809229619347766,-0.007995828847285773, ,0.05777141612764404, ,0.10053986849600383, ,0.0011377045249098654, ,0.19531563712201208,-0.12923993465014716,0.11393611326000001,2.808377413088235,1.3287899602189084,-1.1567232646136418, ,0.141426142412028,0.11138138680571688,0.053452387651006725,0.350424320078585,0.05196933682224912,0.35791163946419013, ,1.153364896774292
0.016301998116177236,0.021234262744502047,-0.0972885709632144, ,0.017263380777041405,0.020777842584797684,-0.0983397098499082, ,0.0014958171485561652, ,0.027222942915003545,-0.00304211449439398,-0.05086446146223182,-0.09049506628640581,-0.043809229619347766,-0.007995828847285773, ,0.05777141612764404, ,0.10053986849600383, ,0.0011399015348708857, ,0.19531563712201208,-0.12923993465014716,0.11393611326000001,2.808377413088235,1.3287899602189084,-1.1567232646136418, ,0.141426142412028,0.11138138680571688,0.053452387651006725,0.350424320078585,0.05196933682224912,0.35791163946419013, ,1.1552870273590088
