NicholasDascanio/dvrk_moveit_final/test/execution/third_experiment_notsharpbends/thirdexp_600vel5.0/thirdexp_600vel5.0_27.csv
Current Position (x),Current Position (y),Current Position (z), ,Planned Position (x),Planned Position (y),Planned Position (z), ,Position Error,,Cartesian linear Velocity(x),Cartesian linear Velocity(y),Cartesian linear Velocity(z),Cartesian Angular Velocity(x),Cartesian Angular Velocity(y),Cartesian Angular Velocity(z), ,Total Linear Velocity, ,Total Angular Velocity, ,MSE, ,Joint 1 Position,Joint 2 Position,Joint 3 Position,Joint 4 Position,Joint 5 Position,Joint 6 Position, ,Joint 1 Velocity,Joint 2 Velocity,Joint 3 Velocity,Joint 4 Velocity,Joint 5 Velocity,Joint 6 Velocity, ,Time Stamp
0.010010109597509611,0.020032495377880724,-0.080295141115188, ,0.010225270039359897,0.020016594273388474,-0.08003934004933805, ,0.000334635691687624, ,1.5071044727861099e-05,8.470329472543003e-22,1.8788535318524125e-06,0.34043634725776195,0.2127794198870964,0.6280427453627453, ,1.5187708180740902e-05, ,0.40146231213115974, ,2.7886307640635335e-05, ,0.06038404834356144,-0.1901259606305332,0.09261084647000001,4.003819780893508,0.8401778370576933,0.03970845017805408, ,0.0001876956004877159,0.0,0.0,0.0,0.0,0.7454458993220658, ,0.02080512046813965
0.010023292635788977,0.02003979201337088,-0.08026316785255494, ,0.010251440738906234,0.020042589178400964,-0.08008230884970448, ,0.00029115178172264594, ,0.0019554581062309457,0.0010574179129396776,0.004859427809661417,0.8968274552237443,-0.0029142808567244865,1.01963345016032, ,0.005343780280395217, ,0.8968321902556345, ,2.8444885155012272e-05, ,0.06039177107643567,-0.19013368336340744,0.09260306873000002,4.003819780893508,0.8433204765522985,0.049806043114823506, ,0.00013659831262643866,-0.00021506871312330857,-0.0011410939194138638,0.0,0.4862407498168932,1.2677215877779262, ,0.039640188217163086
0.010106328687660818,0.020094162719590428,-0.08011943402907766, ,0.010277736137389908,0.020068224371213222,-0.08012590862952935, ,0.00017347977458532907, ,0.0047814724749779755,0.002983963429663478,0.008497868322888227,0.8774212275589276,-0.7846807712159899,0.11419395537549468, ,0.010197072266669889, ,1.1771116868553515, ,2.497710149986247e-05, ,0.060422662007932566,-0.19014912882915588,0.09261343905000001,4.003610090950024,0.8631327690182873,0.06673033683577001, ,0.001626771484555933,-0.0005443712391657451,0.0004755656295352944,-0.0013491046703883757,1.1492055503885916,0.27182446398226223, ,0.059359073638916016
0.010158919938613216,0.02013239576868319,-0.08005458015618068, ,0.01030415581060908,0.02009350204517167,-0.08017013480100078, ,0.00018962873248136783, ,0.00023457373889513306,0.00016749833578592083,-0.000694562289581286,-0.17573090639112018,-0.08143074869824048,-0.31577998988712697, ,0.0007519955489088305, ,0.19368097039874743, ,2.3545142392308738e-05, ,0.060476721138052136,-0.19018001976065277,0.09264325372000001,4.003400401006539,0.8750201444978807,0.06847200283386018, ,0.0037207360979820744,-0.0016328390966873292,0.0005710783800023871,0.001755631025828085,-0.02607048688428312,-0.36823883774458843, ,0.0784001350402832
0.010132526111506383,0.020115235236305106,-0.08014320713395273, ,0.010330699335330264,0.020118424387918766,-0.08021498279004749, ,0.00021079502398443329, ,-0.0021971442756301314,-0.0015623304067345438,-0.005641004694262799,-0.7058316599426913,0.3678160402257946,-0.4057644525010578, ,0.006252139891943918, ,0.7959189478955294, ,2.307098085502693e-05, ,0.060584839398291276,-0.1902186334250239,0.09266140178000001,4.003610090950024,0.8657288625138307,0.055220341549373386, ,0.00739043406235875,-0.0017009252762465409,0.00027424360275390893,0.004166115431419685,-0.703388902018321,-0.5548084014113657, ,0.09732413291931152
0.010116864905706202,0.020106607908910196,-0.08024736050542627, ,0.010357366289286922,0.020142993581399933,-0.08026044803632111, ,0.00024359005753867358, ,0.0008695265860004149,0.0006615978980420264,-0.002694170590484264,0.03974690624073014,0.015572144020752592,0.06838328298073579, ,0.002907291425551538, ,0.04268850225728828, ,2.3278726806452804e-05, ,0.06074701678864999,-0.19024180162364657,0.09270806822000001,4.003610090950024,0.8579405820272006,0.05479182662840282, ,0.008502576559432939,-0.0017316697813410877,0.0028690222478386174,0.004034289419793664,0.0,0.0847828035333357, ,0.11701321601867676
0.010145493692098616,0.020126761303142424,-0.08028325623139473, ,0.010384156251178445,0.020167211801869304,-0.08030652599318044, ,0.00024318211646284663, ,0.0011512519762407996,0.000683181942663452,-0.0017135594468856703,0.08395304111500498,0.0015195287345398985,0.11046060468614154, ,0.0021744895165511555, ,0.08396679153104539, ,2.34230997008739e-05, ,0.06093236237763138,-0.19030358348664037,0.09276380869,4.003819780893508,0.8599901295236821,0.055897635237735555, ,0.010612496260173427,-0.0026149163949029425,0.0022209720468488567,0.001200565247774475,0.04052662772770566,0.10327117035334757, ,0.13671207427978516
0.010169912675844108,0.0201386727964008,-0.08030528900135471, ,0.010411068800669112,0.020191081219896073,-0.08035321212767474, ,0.0002513951977070331, ,0.001326121377864719,0.0006005510675445391,-0.0004497539075152372,0.01814217174277412,-0.06482400764243261,-0.04539835060769748, ,0.0015236594340218982, ,0.06731485989267492, ,2.3632419221584805e-05, ,0.06117948982960657,-0.19034991988388572,0.09279751223,4.003819780893508,0.8609465850220402,0.0569963209350936, ,0.01301919900651266,-0.0033429104412759404,0.0010825294815258115,0.001200565247774475,0.053095899913578826,-0.045594968122386136, ,0.15894222259521484
0.010192581770526617,0.020148776126644192,-0.08032849627974177, ,0.010438103518386919,0.020214604000370336,-0.08040050192052763, ,0.00026419509824496056, ,0.0011400699198035377,0.0006596966453732364,-0.0015825974597848016,0.0010442235008041043,-0.008998996702756772,-0.0001357882474930551, ,0.0020590225364659934, ,0.009059378806846033, ,2.4198389828735323e-05, ,0.061434340014455975,-0.1904039790140053,0.09282603061000001,4.003819780893508,0.8610832215218057,0.056803224291256615, ,0.013096458950934416,-0.004190638946274238,0.0017958073866967308,0.001200565247774475,-0.005080491004912211,0.00030195158273173955, ,0.17617511749267578
0.01021924540926111,0.0201622782379035,-0.08038033302699127, ,0.010465259985922478,0.02023778230250972,-0.08044839086611993, ,0.0002661877254284957, ,0.001394459164490175,0.0009938829051067426,-0.0028760451302684807,0.004619664071527425,-0.013804641857637797,-0.009695771743879332, ,0.0033472309722866597, ,0.01455710935435425, ,2.46824119984341e-05, ,0.06172008113080228,-0.19045803814412485,0.09288177108000001,4.004029470836993,0.8609465850220402,0.05691464219495301, ,0.014579342688350096,-0.005326332492375514,0.003190228624073704,0.007915866308838894,0.0,-0.002653960041920831, ,0.19774508476257324
0.010246760398538828,0.020181043194264857,-0.08044056580328815, ,0.010492537785827904,0.020260618279865143,-0.08049687447247372, ,0.00026440382859631187, ,0.0013969192503664458,0.0009494399861704054,-0.0026988555365058376,0.004628699471909983,-0.01401852376148606,-0.008312828476617157, ,0.003183809178690178, ,0.014762922038316934, ,2.5070137875593777e-05, ,0.06201354498002281,-0.19053526547286712,0.09294788187000001,4.004029470836993,0.8609465850220402,0.05691464219495301, ,0.01477455107558318,-0.005135677804401022,0.003008842372497167,0.006991494474086485,0.0,-0.002083261463112329, ,0.2157440185546875
0.010261278032066792,0.02018815171634182,-0.08046736368403055, ,0.010519936501615841,0.02028311408032728,-0.08054594826123593, ,0.00028652677050794174, ,0.0013894895739281787,0.0008204031436879291,-0.0024505105181041875,0.0031641311543539248,-0.015221572595588437,-0.003544579378790441, ,0.002934066187659611, ,0.01554696105855921, ,2.558620168599715e-05, ,0.062167999637507305,-0.19057387913723822,0.09297640025000001,4.004239160780477,0.8608099485222749,0.05702606009864941, ,0.015127840197428789,-0.0038713362998056807,0.002736909195876289,0.002219012658438214,0.0,-0.0018855556965165798, ,0.23439407348632812
0.01029044745828337,0.020206634669007403,-0.08051805395963284, ,0.010547455717758196,0.02030527184613249,-0.08059560776766171, ,0.00028600197777159554, ,0.0014532690574516837,0.0011653728070869797,-0.002534450262206207,0.007875150171708799,-0.012723283576629489,-0.008590769086062024, ,0.003145397091694688, ,0.014963286239784426, ,2.6024990367868183e-05, ,0.06261591814421233,-0.1907515019933454,0.09306195539,4.0044488507239615,0.8608099485222749,0.05702606009864941, ,0.015516177494844798,-0.008062141938053241,0.002909903456339058,0.007697002344449804,0.0,-0.0014553205640310874, ,0.2522120475769043
0.010318177300749416,0.020229245984227148,-0.08057013493090386, ,0.010575095019685085,0.020327093713869187,-0.08064584854059782, ,0.00028515512127980303, ,0.0014580418767059322,0.0010388488026989125,-0.002414339334692102,0.006702675817887624,-0.014563373840905938,-0.008262338618908733, ,0.0030056825135297677, ,0.016031772224793035, ,2.6399477191169574e-05, ,0.06278581826744527,-0.19082872932208764,0.09309177006000001,4.0044488507239615,0.8606733120225094,0.05713747800234581, ,0.015656977653600194,-0.006837066025026631,0.00276397909422176,0.007697002344449804,0.0,-0.0013448053161651285, ,0.26958513259887695
0.010348438549695079,0.020250383553179367,-0.080621819591328, ,0.010602853993783731,0.020348581814483752,-0.0806966661424662, ,0.00028279342802002094, ,0.0015408577120641467,0.0011110064180120827,-0.002387743971492653,0.00649758816726006,-0.00770240299838096,-0.006338791718772476, ,0.003051212713510991, ,0.01007698684444771, ,2.671118845530402e-05, ,0.06311017304816269,-0.19099090671244634,0.09314880682000001,4.0048682306109304,0.8604000390229785,0.05727863506959813, ,0.016834653460789564,-0.008327505825192946,0.0027196195185248424,0.01217416520149034,-0.007299898558485056,0.005048193563380703, ,0.290783166885376
0.010376956535857075,0.02027405857638171,-0.08066546481812871, ,0.01063073222739733,0.02036973827328696,-0.08074805614924825, ,0.00028351020086182603, ,0.0015834015211261398,0.001204756553052343,-0.0023166372983242237,0.007395139746176924,-0.006821256594207511,-0.004925025408142544, ,0.0030537529535334213, ,0.010060697457074231, ,2.6991120304421488e-05, ,0.06343452782888012,-0.1911685295685535,0.09319936213,4.0048682306109304,0.860263402523213,0.057390052973294525, ,0.017479635579014694,-0.009636281447126072,0.0026694840824534943,0.01217416520149034,-0.008844318843970942,0.006415615159599926, ,0.3082551956176758
0.010408225680134008,0.020302971743868595,-0.08072219760115998, ,0.010658729308824217,0.0203905652099599,-0.08080001415046702, ,0.00027655035460997905, ,0.0016065138855872233,0.0013857443142203012,-0.003134429559831109,0.006723389067935643,-0.0032239170809306916,-0.0014898679630664354, ,0.0037849468734080655, ,0.0074563799260101, ,2.7197440990741646e-05, ,0.06378205080822022,-0.19137704335615757,0.09326417663000001,4.0048682306109304,0.8601267660234476,0.05750147087699092, ,0.017313800685727198,-0.010026375251304698,0.003492394545055909,0.011764754440418166,-0.012460048677028815,0.00945217483121703, ,0.3300290107727051
0.0104437692745269,0.02032925906739763,-0.08077634460273515, ,0.010686844827316107,0.02041106473856025,-0.0808525357491717, ,0.0002675499635459901, ,0.0015725944859779923,0.0011237958453471128,-0.0018105130481070346,0.006893424675441346,-0.006203915209671798,0.0016012904481584548, ,0.0026483821508071002, ,0.009274042681879716, ,2.748966576044958e-05, ,0.06416046471905723,-0.19158555714376163,0.09332639855000001,4.005287610497899,0.8599901295236821,0.05753121004054684, ,0.018048106040028676,-0.00960840372992036,0.002148767235936868,0.007740986254937672,-0.010713368092979975,0.008736033318308627, ,0.3455820083618164
0.01045906231380479,0.020342648418467446,-0.08079875554461634, ,0.010715078373077657,0.020431238967528412,-0.08090561656192108, ,0.0002912246298099389, ,0.0015082408684868867,0.0013072792553733433,-0.0022622545484536046,0.010172078702676095,-0.012065165311378362,-0.004258748751147282, ,0.0030168800458259164, ,0.015780982195828998, ,2.788803058573641e-05, ,0.06433036484229017,-0.19168595267112656,0.09335102806000001,4.005287610497899,0.8598534930239167,0.05756094920410265, ,0.016423838968236546,-0.01040403102221348,0.002659233976627713,0.007740986254937672,-0.0029054592375937762,0.002758041647338804, ,0.36032700538635254
0.010473363842008816,0.020355571298135203,-0.08082500196115959, ,0.010743429537265085,0.02045108999969384,-0.08095925221876686, ,0.0003163580784005976, ,0.0014796394196448363,0.0013011357927158816,-0.0028025763613263067,0.005643526864498074,0.0004381187429383607,0.005955385674055107, ,0.0034258898733494476, ,0.0056605073385985845, ,2.838671418848885e-05, ,0.06460066049288803,-0.19184040732861105,0.09339899079000001,4.005497300441385,0.8594435835246205,0.05789520291519196, ,0.01776098475734059,-0.00967712151934137,0.003500068450889915,0.010264082172855118,-0.01743969086939484,0.01458960350096452, ,0.3788790702819824
0.010507804489021607,0.02038078715579347,-0.08088984759312134, ,0.01077189791198489,0.02047061993228077,-0.08101343836323711, ,0.0003051064441169496, ,0.0014861836777658836,0.0010561424670335448,-0.003275137283009312,-0.0012538559079689562,0.012857094215192632,0.013919875605893332, ,0.003748426744287135, ,0.01291808909705521, ,2.8786779473663405e-05, ,0.06486323341061166,-0.19196397105459864,0.09345084239000001,4.005706990384869,0.859306947024855,0.058088299559028944, ,0.01666612953257302,-0.006558812584900785,0.003449287899523604,0.009758659112546926,-0.0288313814424461,0.023859554491107604, ,0.3945651054382324
0.01054170079721532,0.020404141292424037,-0.08095072602370446, ,0.010800483090293191,0.02048983085691469,-0.08106817065232012, ,0.00029682354600656476, ,0.0017078072854921598,0.0011700189099021958,-0.003780317284863893,0.002182158633121457,0.0013673947401840272,0.0009542091176299286, ,0.00431002885699731, ,0.0025751861881322014, ,2.9114510065866645e-05, ,0.0652262018557002,-0.1921107029792089,0.09352084205000001,4.005916680328354,0.859306947024855,0.058088299559028944, ,0.018092839191319498,-0.006297066269408739,0.004037721551330799,0.013840586272937027,-0.017281707842909538,0.014417961873781703, ,0.4101262092590332
0.0105595888207579,0.020418761280231037,-0.08099261933746657, ,0.010829184666194192,0.020508724859628628,-0.08112344475644755, ,0.0003128748244043986, ,0.0018027934912974713,0.0013180859258976007,-0.003853340158091692,0.00798096408083607,-0.015638557004715333,-0.012241091426455268, ,0.004453722628798965, ,0.017557341826135893, ,2.949346145865084e-05, ,0.06541927017755582,-0.19218793030795114,0.09356621220000001,4.005916680328354,0.8591703105250895,0.05819971746272545, ,0.018252922015478127,-0.007007311083675807,0.0042670269274042326,0.0132398114135911,0.0,0.0003146424254144835, ,0.4277350902557373
0.010592761923410491,0.02044054931254602,-0.0810692505816787, ,0.01085800223463915,0.020527304020868765,-0.0811792563594784, ,0.0002999667869384154, ,0.0014962781083634087,0.0009555394511569851,-0.003186837935945902,-0.004994968605912507,0.018893030020632504,0.025472153540853495, ,0.0036479912075372263, ,0.019542167085711666, ,2.9785786094583297e-05, ,0.0657899613555186,-0.19230377130106452,0.09364528589000001,4.006126370271838,0.8584871280262623,0.058756806981207554, ,0.017515123949514724,-0.005462932792589602,0.003262763523146252,0.004514802060497527,-0.036625232804982616,0.03016066210479398, ,0.4434950351715088
0.010627818161245688,0.020457985679002172,-0.08112204875739529, ,0.010886935391525347,0.02054557041550127,-0.08123560115868204, ,0.00029615363062675335, ,0.0016858135237967863,0.0008990601547108194,-0.0027526540083259074,0.004082764045610359,-0.01122488314407604,-0.006326461485633863, ,0.003350728351919544, ,0.01194432767853655, ,3.004070830546474e-05, ,0.06615292980060715,-0.19240416682842942,0.09370491523,4.006545750158807,0.8584871280262623,0.058756806981207554, ,0.018041243642294827,-0.004684149785046125,0.0030579403954693806,0.010938247273722048,-0.00480118199914014,0.0041933498136903745, ,0.45844101905822754
0.010649398384139114,0.02047146055671937,-0.08116148773409151, ,0.01091598373369502,0.020563526112817823,-0.08129247486472223, ,0.00031096855726653485, ,0.0018945676729102668,0.001118893718526034,-0.0035738268770626642,0.004777183139747618,-0.013295209074996553,-0.006468771480286495, ,0.004196849814778832, ,0.014127422359211921, ,3.0470980096611242e-05, ,0.06637688905395966,-0.19246594869142322,0.0937476928,4.006545750158807,0.8584871280262623,0.058756806981207554, ,0.019886198985429752,-0.005316966864318082,0.003917563089030989,0.010938247273722048,-0.004599394681033412,0.004019400028243644, ,0.4729480743408203
0.010661560145591288,0.020477775728729712,-0.08118741129376396, ,0.010945146858934328,0.020581173176542098,-0.08134987320164025, ,0.0003427919598089005, ,0.0018219783135298056,0.0011502727265319769,-0.0039925559053823724,0.005394015115360704,-0.016187904776807628,-0.010382003191244906, ,0.00453687502340321, ,0.017062932312859477, ,3.1008304159402206e-05, ,0.06650817551282148,-0.19249683962292014,0.09377621118000001,4.006755440102292,0.8583504915264969,0.05886822488490384, ,0.01839088014699046,-0.004560764312935042,0.004364057950684932,0.011140743317854501,0.0,0.000263886284920744, ,0.4871032238006592
0.010704839055428936,0.020505409559965482,-0.08128986138018075, ,0.01097442436597173,0.02059851366483596,-0.08140779190683863, ,0.0003086295888633987, ,0.0017648610635871516,0.0010704570068049367,-0.00445661826961424,-0.003906337414079556,0.01603632211958945,0.00930874831414332, ,0.00491142129920079, ,0.01650524454098872, ,3.137754391644891e-05, ,0.06697153948527494,-0.19261268061603348,0.09388380325000001,4.006965130045776,0.8578039455274351,0.059313896499689656, ,0.018717345475043546,-0.0044436855255744635,0.004578560367921817,0.017430452468073877,-0.032365848177041474,0.026639620604239148, ,0.5012221336364746
0.010723874002343224,0.020516425432775542,-0.08133293279340366, ,0.01100381585447756,0.020615549630305523,-0.08146622673106484, ,0.00032551546957032155, ,0.0019240773421668605,0.0011865877690303143,-0.004726130628395841,-0.0016777655674776232,0.004639955279405046,0.007709748928704714, ,0.005238928790212127, ,0.004933972024279705, ,3.179273082686138e-05, ,0.06715688507425634,-0.19265129428040462,0.09393046969,4.0071748199892605,0.8578039455274351,0.059313896499689656, ,0.020229576115640757,-0.004363529485003637,0.004945300068301771,0.011657124768808168,-0.0233031639933725,0.019243692434688795, ,0.5169150829315186
0.010764087085560991,0.020541158595089527,-0.08142169750172365, ,0.011033320925062429,0.020632283120006947,-0.08152517343839401, ,0.0003024860473541208, ,0.0019732098367195787,0.0010875174831498505,-0.0035548402110771263,0.006693841028745448,-0.016148303704211244,-0.018877721701309885, ,0.004208698167150308, ,0.0174807099304886, ,3.2097833619098366e-05, ,0.06755846718371601,-0.19275941254064377,0.09402639515000001,4.0075941998762294,0.8576673090276697,0.05942531440338594, ,0.020012007920386078,-0.005289616420461682,0.003946682735381566,0.01984330165905778,0.0,0.00022977117965911374, ,0.5311050415039062
0.010783191193438329,0.02055261554656422,-0.0814597367096603, ,0.011062939179276227,0.02064871617545329,-0.08158462780621377, ,0.0003210795111052159, ,0.00205164838822451,0.0010272888396321413,-0.0034296904390211337,0.003498193472128177,-0.007185598495310832,-0.010127997270234071, ,0.004126422176226029, ,0.007991882308299562, ,3.245617813869512e-05, ,0.06777470370419429,-0.19281347167076332,0.09406658014000001,4.0075941998762294,0.8573940360281388,0.05964815021077885, ,0.021656079771444726,-0.005335361106905632,0.003751486462552991,0.01984330165905778,-0.010948840901130047,0.009152288480631146, ,0.5446381568908691
0.010800971211479049,0.02056260853926368,-0.08149653666107204, ,0.011092670219607192,0.020664850832620138,-0.08164458562520688, ,0.000342724807498859, ,0.0018835837263134437,0.0009640546642631573,-0.0038075746759385757,-0.005473228048543881,0.0208736336137432,0.014567153264376409, ,0.004356020427244246, ,0.021579267937348504, ,3.287477074930379e-05, ,0.06798321749179836,-0.19285980806800868,0.09410417255,4.0075941998762294,0.8569841265288425,0.059982403921868155, ,0.020967066186140252,-0.004963807772096593,0.0038964803131115466,0.017945531287719245,-0.039569811882565586,0.03248563945190788, ,0.5630590915679932
0.010853423019546858,0.020589949334877167,-0.08159552854587274, ,0.011122513649480545,0.02068068912195175,-0.08170504269933451, ,0.0003043629837626417, ,0.0020244094271590274,0.0011644830913098766,-0.004560351894054052,0.002027642042564977,0.001322506491132575,-0.012659463542968787, ,0.005123579197818584, ,0.0024208167422337997, ,3.3137101450779104e-05, ,0.06849291786149718,-0.1929910945268705,0.09421306091000001,4.008432959650167,0.8569841265288425,0.059982403921868155, ,0.020242521663496323,-0.005092872189098519,0.004835704772313298,0.027188253034669083,-0.01681453151158942,0.013918557051463666, ,0.575951099395752
0.010876369429561408,0.02060159415638288,-0.08164284065188288, ,0.011152469073257424,0.020696233068367605,-0.08176599484582073, ,0.0003167877718523902, ,0.0019872027230757316,0.0015633892267187407,-0.0044349207036534066,0.0029767976876187603,-0.029155111099419373,0.035549558858741746, ,0.005105064366343822, ,0.029306685687345246, ,3.342961200835475e-05, ,0.06871687711484968,-0.19304515365699007,0.09426361622000001,4.008852339537137,0.856847490029077,0.06009382182556455, ,0.02234972716874017,-0.005309493170307148,0.004914782943535946,-0.03575846852779216,0.0,0.00020294876920948384, ,0.589461088180542
0.010894823287196168,0.020613982897535604,-0.08168834078678124, ,0.011182536096233878,0.02071148469126797,-0.08182743789513518, ,0.00033411564737052796, ,0.0018214341063752138,0.0013718171503909007,-0.004144938166330132,-0.0007123986857031136,-0.012544104552521479,0.036235062470953774, ,0.004730752255262759, ,0.012564317318840692, ,3.388075381686961e-05, ,0.06892539090245375,-0.19309921278710965,0.09431028266000001,4.008852339537137,0.8564375805297808,0.06042807553665375, ,0.020756111451983986,-0.005028735088841722,0.004480678345991561,-0.025606934076388775,-0.013541392457150317,0.011042097560287702, ,0.6025400161743164
0.010934673712288116,0.02063923201443936,-0.08177073203944701, ,0.011212714324639599,0.020726446004540548,-0.0818893676909771, ,0.0003146224403950316, ,0.002022556042427865,0.0011768747254147136,-0.00434744680940638,-0.0028683056679951694,0.004073154272442004,0.01635168901010889, ,0.004937211847257431, ,0.004981742825474436, ,3.42494224178425e-05, ,0.06937330940915877,-0.19319960831447455,0.09439843038000001,4.008642649593652,0.8560276710304844,0.06084400798788364, ,0.022038305053058704,-0.0046982215936027414,0.004574615600229753,0.004634343963180474,-0.026112818453853753,0.020953317256563606, ,0.6141810417175293
0.010958260083363812,0.02065059906865003,-0.08181711247284626, ,0.011243003365637048,0.020741119016566282,-0.08195178009025854, ,0.0003277315440265054, ,0.002324745683826454,0.0013515476585497,-0.005192347804528396,0.0011340848868521634,-0.0029909843393777667,-0.004320709316236189, ,0.0058473583173080605, ,0.0031987704004573323, ,3.46462893318667e-05, ,0.06959726866251129,-0.1932459447117199,0.09444898569000001,4.009062029480622,0.8560276710304844,0.06084400798788364, ,0.023724235389617696,-0.005239762288785322,0.0055250820395421445,0.018949887459891637,-0.017727387130515707,0.014115560279178388, ,0.6258800029754639
0.010984739681415726,0.020663602614055608,-0.08186806349611962, ,0.011273402827320013,0.02075550573022579,-0.0820146709630881, ,0.0003365506558247372, ,0.0022752260969244585,0.0011560944954065698,-0.004510970597951691,0.0038590389270599977,-0.003172785627562208,-0.02408359064768161, ,0.005182862530496069, ,0.0049958731179990295, ,3.5056075700763316e-05, ,0.06985211884736069,-0.19330000384183949,0.09450472616000001,4.00948140936759,0.8560276710304844,0.06092568672802423, ,0.0225194450779475,-0.005334928820290123,0.0048445290510948915,0.035440631764591474,-0.012972008613870052,0.01043687238341292, ,0.637282133102417
0.011001742041853751,0.020672505528924835,-0.0819056585820118, ,0.011303912318712632,0.020769608142905172,-0.08207803619275422, ,0.00036117839711706295, ,0.002456825530804685,0.0010405016984303278,-0.004478165217808437,0.005900028151163021,-0.004111449796609497,-0.04044281168350591, ,0.005212734329623888, ,0.007191268998835389, ,3.5527456772364826e-05, ,0.07002974170346786,-0.1933386175062106,0.09454361486000001,4.009691099311074,0.8557543980309535,0.061230201275557505, ,0.023730167931600595,-0.0048259457953943865,0.00482837572597757,0.05071203193998269,-0.009860487926812368,0.009198370838751708, ,0.6540441513061523
0.011053248368089769,0.02069990060808652,-0.08201503890653522, ,0.011334531449768433,0.02078342824650236,-0.08214187167570908, ,0.0003196616801468113, ,0.0020532771764162107,0.0013244320417639382,-0.0047333799562346065,-0.0014007226721673791,0.005082422591300409,0.04240761295408894, ,0.00532681454591074, ,0.0052719105668464815, ,3.585413450093115e-05, ,0.0705780557375378,-0.1934312903007013,0.09465898467000002,4.0099007892545595,0.8552078520318918,0.0617575516304838, ,0.023027649007151364,-0.004579760552461264,0.004968437779164068,-0.01226662813641711,-0.029204948607829816,0.031720700101619544, ,0.66646409034729
0.01107634823926959,0.02071217171730614,-0.08206124025373605, ,0.011365259831368829,0.020796968027433256,-0.08220617332155157, ,0.00033416450500750117, ,0.002391619463668466,0.0011746341486010754,-0.005215709665808199,-0.006896282822563431,-0.005855854473273647,-0.005332411874841604, ,0.005856896478516817, ,0.009047084863154678, ,3.621268780816583e-05, ,0.07081746045663875,-0.1934621812321982,0.09470953998000001,4.0099007892545595,0.8552078520318918,0.06183923037062439, ,0.02482263708042657,-0.0028044542113286933,0.005500280220994476,0.012698184030886786,-0.019997625065588782,0.005711750099225416, ,0.6778960227966309
0.011103204304427669,0.02072195690572356,-0.0821115899964817, ,0.01139609707532242,0.020810229466637832,-0.08227093705301124, ,0.00034491985254171106, ,0.002495577251294194,0.0008750900248216112,-0.0049063814486746266,-0.0011087120681455565,0.0004511253117739991,-0.05429368835705268, ,0.005573712164134231, ,0.0011969768810551154, ,3.659033196702002e-05, ,0.07106458790861393,-0.1934930721636951,0.09476398416000001,4.010529859085013,0.8552078520318918,0.06183923037062439, ,0.023466108199424032,-0.002765222952151346,0.0051750524756335285,0.060589260991311136,-0.014970958849253552,0.0038710255550758656, ,0.6894152164459229
0.01112439956199533,0.020730933174242298,-0.08215305820928792, ,0.01142704279436372,0.020823214539586243,-0.08233615880593194, ,0.00036556067209086556, ,0.0028094739830142393,0.0007874942534227707,-0.00433034522221383,0.004894721820115071,-0.014469495028040204,-0.0754357247462864, ,0.005221607128457476, ,0.015274966007821324, ,3.712271975785315e-05, ,0.07128082442909223,-0.19351624036231777,0.09480805802000002,4.010739549028497,0.8550712155321264,0.061950648274320896, ,0.026323700848396886,-0.002946435844649743,0.004735080713436386,0.071286303943797,0.0,-0.006857977000181417, ,0.7000641822814941
0.01115109024616353,0.020742452927994554,-0.0822030098837189, ,0.011458096602151711,0.02083592521628494,-0.08240183452925495, ,0.0003775198153314886, ,0.0027049980846883337,0.0008694387363796059,-0.0045723882347084195,-0.0015329766253840242,-0.00747890964845725,-0.036189102175003054, ,0.005383277117461528, ,0.007634402718301449, ,3.767417440308942e-05, ,0.07158201101118698,-0.19354713129381465,0.09485990962000002,4.010739549028497,0.8546613060328301,0.06236658072555057, ,0.027097927343937973,-0.0021975953064531954,0.004889137974217312,0.04269191075690272,-0.013494247033708315,0.00477697503513074, ,0.7099711894989014
0.011176562889081119,0.02075385466584318,-0.08226212026724573, ,0.011489258113269287,0.020848363461282878,-0.0824679601850024, ,0.0003861091651173543, ,0.0026582576801486082,0.0010714442860569012,-0.006151544702494028,-0.012329394880063708,0.02292294859363702,0.002924214165325915, ,0.006786444502018372, ,0.026028360331111562, ,3.8234339539355454e-05, ,0.07186775212753328,-0.19356257675956312,0.09491953896000001,4.010739549028497,0.8541147600337682,0.06281225234033638, ,0.027618434679415244,-0.0017884950499630792,0.006239252455934196,0.031114413579601548,-0.047396804924316256,0.03332060605285407, ,0.7193200588226318
0.011203820185660641,0.020767717738421607,-0.08232437142237183, ,0.011520526943221646,0.020860531233677697,-0.08253453174826125, ,0.00039126062639167767, ,0.002676530952551209,0.0015940514375259096,-0.007069179724083494,-0.0068426429353199685,-0.003645816253378025,0.01682152511595061, ,0.007725161480308116, ,0.0077533038660688785, ,3.879324716140824e-05, ,0.07213804777813114,-0.19359346769106,0.09498564975000001,4.010949238971982,0.8539781235340028,0.06292367024403267, ,0.027474505373037285,-0.0028432771163561157,0.0073915598700696064,0.0,-0.025857891911174654,0.016400016865691, ,0.7284932136535645
0.011239006432791378,0.020780227719230267,-0.08240872998118637, ,0.0115519027084356,0.020872430487121625,-0.08260154520716682, ,0.0003789236612943906, ,0.0033293697013505575,0.0010673976461530047,-0.007653122656066554,0.006226234178748305,-0.0025158883917275887,-0.11039130082525667, ,0.008413936458761932, ,0.006715330237179024, ,3.9302771749527664e-05, ,0.0724392343602259,-0.19360891315680845,0.09507379747000001,4.011997688689405,0.8538414870342373,0.06303508814772918, ,0.027562283345475103,-0.0013441823068779753,0.008048919413845378,0.11301095079355171,-0.004542621188563516,-0.0003912281116753803, ,0.738332986831665
0.011268504670955191,0.020793165213387796,-0.0824874931465312, ,0.011583385026257914,0.020884063169827966,-0.08266899656288573, ,0.0003746405834782656, ,0.0031055643957640065,0.0011981267008084355,-0.0076944874761346455,-0.0018792620598699957,0.006543264855951397,-0.040485651449601215, ,0.008383625428644821, ,0.0068077833318714144, ,3.978681176238263e-05, ,0.07272497547657221,-0.19361663588968267,0.09515416745000001,4.012417068576373,0.853431577534941,0.0632876631186779, ,0.028600645436549364,-0.0004751891299321657,0.007968389954977489,0.06136111174632811,-0.02386418909390856,0.020050557920656287, ,0.7483220100402832
0.011298454303110696,0.020809290859733945,-0.08257525804233408, ,0.011614973514954625,0.020895431224576932,-0.08273688182960011, ,0.0003656867820031234, ,0.002772786522356105,0.0016304148739157281,-0.008727426520074544,-0.020754656663925276,0.04613151403971997,0.06287525073108152, ,0.009301320950432028, ,0.05058529737188078, ,4.023387000150116e-05, ,0.07303388479154119,-0.19363980408830536,0.09524231517000001,4.012626758519858,0.8527483950361139,0.06384475263715989, ,0.029888800490856935,-0.0018326046427249716,0.008680551237057221,0.0,-0.07807895413233139,0.06425906355673915, ,0.7583820819854736
0.01132796767122008,0.0208259662204195,-0.08265575578291301, ,0.011646667793709896,0.020906536588721828,-0.08280519703449034, ,0.0003611011492593098, ,0.003029852020000462,0.0015761004859624179,-0.007372670235823964,-0.005207834242635927,-0.004745815879972831,0.018734067845423818, ,0.008125291527764185, ,0.007045870001785079, ,4.065696999952181e-05, ,0.0733505168393844,-0.19364752682117958,0.09532527773,4.012417068576373,0.8523384855368175,0.06417900634824919, ,0.03109336224065229,-0.002040523925229256,0.007724932841901067,0.002986524990712878,-0.02635764797603741,0.022083806445588768, ,0.7684071063995361
0.01132796767122008,0.0208259662204195,-0.08265575578291301, ,0.011678467482624555,0.02091738119419538,-0.08287393821771957, ,0.00042285977591056923, ,0.003029852020000462,0.0015761004859624179,-0.007372670235823964,-0.005207834242635927,-0.004745815879972831,0.018734067845423818, ,0.008125291527764185, ,0.007045870001785079, ,4.123027267814572e-05, ,0.0733505168393844,-0.19364752682117958,0.09532527773,4.012417068576373,0.8523384855368175,0.06417900634824919, ,0.03109336224065229,-0.002040523925229256,0.007724932841901067,0.002986524990712878,-0.02635764797603741,0.022083806445588768, ,0.7787160873413086
0.011398157137119178,0.020850050364191443,-0.08279195489906986, ,0.011710372202715185,0.020927966967515626,-0.08294310143241605, ,0.0003555200680710844, ,0.0033776930510674022,0.0007463745152937172,-0.0057882360453411314,0.0039160585730310185,-0.004485752436973526,-0.07574157370982881, ,0.006743112173239838, ,0.0059546186423607254, ,4.172277649560955e-05, ,0.0740146718665677,-0.19366297228692803,0.0954717585,4.013465518293796,0.8523384855368175,0.06417900634824919, ,0.03125722712729604,-0.00039822277794685884,0.006145374814814816,0.08631858995360113,-0.010287265243778201,0.008979486891873376, ,0.787971019744873
0.011398157137119178,0.020850050364191443,-0.08279195489906986, ,0.011742381575913289,0.020938295829792182,-0.08301268274465783, ,0.00041832823031695614, ,0.0033776930510674022,0.0007463745152937172,-0.0057882360453411314,0.0039160585730310185,-0.004485752436973526,-0.07574157370982881, ,0.006743112173239838, ,0.0059546186423607254, ,4.236583819467481e-05, ,0.0740146718665677,-0.19366297228692803,0.0954717585,4.013465518293796,0.8523384855368175,0.06417900634824919, ,0.03125722712729604,-0.00039822277794685884,0.006145374814814816,0.08631858995360113,-0.010287265243778201,0.008979486891873376, ,0.7954680919647217
0.011428667770173165,0.020858782001851622,-0.08284695118521748, ,0.011774495225063419,0.020948369696732413,-0.08308267823345573, ,0.00042800680473684436, ,0.003458652903596191,0.0009777698905469056,-0.005962188402585073,0.005318492535414018,-0.021611276373275083,-0.05374494828923083, ,0.006961752969930376, ,0.02225609179072738, ,4.302037857937898e-05, ,0.07431585844866245,-0.19366297228692803,0.09553009155000002,4.013884898180765,0.852201849037052,0.06437210299208629, ,0.033030609661841556,-0.0003429516118207963,0.006446301707810603,0.05662849597310094,0.0,0.001924489562438111, ,0.8032341003417969
0.011463254846791228,0.020872220119345433,-0.0829244120427724, ,0.011806712773922774,0.020958190478647422,-0.08315308399073623, ,0.0004214796675684184, ,0.0030384124560656105,0.001399719540066984,-0.00788819835927993,-0.015592274164186253,0.02524622649311538,0.051769058674791146, ,0.008568245934808743, ,0.029673067505928984, ,4.364543660757673e-05, ,0.07467882689375101,-0.19367069501980225,0.09560916524000002,4.01409458812425,0.8516553030379903,0.06506281082729365, ,0.032543532770394644,0.0,0.007976370315473212,-0.001800320002571362,-0.058730975742981695,0.051674512244489594, ,0.8118300437927246
0.011494806497794531,0.020887030114950644,-0.08300775999151794, ,0.011839033847159765,0.02096776008045825,-0.08322389612132645, ,0.00041439669640391433, ,0.0030384124560656105,0.001399719540066984,-0.00788819835927993,-0.015592274164186253,0.02524622649311538,0.051769058674791146, ,0.008568245934808743, ,0.029673067505928984, ,4.4240510925129106e-05, ,0.07498001347584576,-0.19366297228692803,0.09568953522000001,4.013884898180765,0.851245393538694,0.0659688157193668, ,0.034025436198806304,-0.000424898897039314,0.008819939933554817,0.01337121981624486,-0.03171706461005159,0.0849023948694954, ,0.8200650215148926
0.011531774241078338,0.02090224877293035,-0.0830951663983963, ,0.011871458070352942,0.020977080401702132,-0.083295110742936, ,0.0004012014674059716, ,0.003952347034501954,0.0017091712546844083,-0.00905115066589866,0.0338516505537092,-0.030980089121819446,-0.021133770636813758, ,0.010023255051916698, ,0.045887908063673336, ,4.479146774013023e-05, ,0.07535070465380854,-0.19366297228692803,0.09578675697000001,4.014513968011219,0.8511087570389285,0.0664069485836255, ,0.03509502276570665,-0.000424898897039314,0.009802345550769233,0.05134511410607642,0.020785084825192507,0.03639918028396144, ,0.8281800746917725
0.011531774241078338,0.02090224877293035,-0.0830951663983963, ,0.01190398506998968,0.02098615333653833,-0.08336672398614181, ,0.0004683208306442009, ,0.003952347034501954,0.0017091712546844083,-0.00905115066589866,0.0338516505537092,-0.030980089121819446,-0.021133770636813758, ,0.010023255051916698, ,0.045887908063673336, ,4.5495007788022394e-05, ,0.07535070465380854,-0.19366297228692803,0.09578675697000001,4.014513968011219,0.8511087570389285,0.0664069485836255, ,0.03509502276570665,-0.000424898897039314,0.009802345550769233,0.05134511410607642,0.020785084825192507,0.03639918028396144, ,0.8358230590820312
0.011570513940802853,0.020917141624773584,-0.08318956581808998, ,0.011936614473465392,0.020994980773754633,-0.0834387319943714, ,0.0004496357598463411, ,0.004046313390393043,0.0017276393105501017,-0.010035025094102167,0.025051331344513664,-0.02305237869281633,-0.06544295861564672, ,0.01095714918580067, ,0.03404381388396517, ,4.6139961351141075e-05, ,0.0756827821674002,-0.19366297228692803,0.09588657130000001,4.0153527277851575,0.8511087570389285,0.06657030606390663, ,0.03394025091504678,-0.0006826447480468295,0.010726472404040406,0.08327536676692376,0.014137680475979847,0.02032610487936773, ,0.843682050704956
0.011610844652868626,0.020937753159573205,-0.08328946273716024, ,0.011969345909082194,0.021003564596773168,-0.08351113092388535, ,0.0004266041267721468, ,0.003999646900573262,0.001627408302751591,-0.009077138885874627,0.003849130828324193,-0.03108486556719808,-0.018984384414635118, ,0.010051869650298266, ,0.03132227025362369, ,4.682939733850644e-05, ,0.07605347334536297,-0.19367069501980225,0.09599416337000001,4.015562417728641,0.851245393538694,0.06654056690035076, ,0.03795877662338831,0.0012440070011807676,0.009683168097264439,0.025601480935331197,0.0,0.007201036581002076, ,0.8500831127166748
0.011610844652868626,0.020937753159573205,-0.08328946273716024, ,0.012002179006047546,0.02101190668365673,-0.08358391694376265, ,0.0004953227239869167, ,0.003999646900573262,0.001627408302751591,-0.009077138885874627,0.003849130828324193,-0.03108486556719808,-0.018984384414635118, ,0.010051869650298266, ,0.03132227025362369, ,4.767223470660952e-05, ,0.07605347334536297,-0.19367069501980225,0.09599416337000001,4.015562417728641,0.851245393538694,0.06654056690035076, ,0.03795877662338831,0.0012440070011807676,0.009683168097264439,0.025601480935331197,0.0,0.007201036581002076, ,0.8560659885406494
0.011651511319899516,0.0209562047449263,-0.08338673506881704, ,0.012035113394473728,0.021020008907114848,-0.08365708623588204, ,0.00047361511405742804, ,0.0040488736915272865,0.0017170805501439301,-0.009529270314970528,-0.0024573243995316026,-0.01773511528285567,0.0016553572719621018, ,0.010495176821826437, ,0.01790454352177707, ,4.845194793759443e-05, ,0.07647050092057109,-0.19367069501980225,0.09609527399000001,4.015562417728641,0.8508354840393977,0.06679314187129942, ,0.03944178784641346,0.00099824469206316,0.010037058298676748,0.017061644286198926,-0.017457212044353066,0.019536008399819768, ,0.8639051914215088
0.011666516070381066,0.02096128774386455,-0.08342550355255517, ,0.012068148705376194,0.021027873134509767,-0.08373063499490756, ,0.0005087706603692443, ,0.003793897457787833,0.0018998229748975757,-0.0108566340853656,-0.020472526640546947,0.036971260945155314,0.06542074208555566, ,0.011656306830196254, ,0.04226107348490741, ,4.9303036500958504e-05, ,0.07661723284518136,-0.19366297228692803,0.09613416269000001,4.015772107672126,0.8505622110398667,0.06701597767869233, ,0.03932736906691702,0.00020717962122196869,0.010947636783505157,0.0,-0.07703980639482445,0.0676683591483628, ,0.8727841377258301
0.011666516070381066,0.02096128774386455,-0.08342550355255517, ,0.0121012845706726,0.02103550122786304,-0.08380455942827084, ,0.0005815622468554138, ,0.003793897457787833,0.0018998229748975757,-0.0108566340853656,-0.020472526640546947,0.036971260945155314,0.06542074208555566, ,0.011656306830196254, ,0.04226107348490741, ,5.0311532169220224e-05, ,0.07661723284518136,-0.19366297228692803,0.09613416269000001,4.015772107672126,0.8505622110398667,0.06701597767869233, ,0.03932736906691702,0.00020717962122196869,0.010947636783505157,0.0,-0.07703980639482445,0.0676683591483628, ,0.8784470558166504
0.011745044074209624,0.02098423950746503,-0.08360733143766233, ,0.012134520623181629,0.021042895043861042,-0.083878855756155, ,0.00047839095903032724, ,0.004320320014877528,0.0011602583690120197,-0.009357836775232352,-0.002182218938475186,0.019719132043405696,-0.07038741847760516, ,0.010372100733491978, ,0.019839510484927596, ,5.106778242908781e-05, ,0.07733544700248424,-0.1936552495540538,0.09631953216000001,4.017659317163487,0.8496057555415087,0.06779590300456723, ,0.03913275940555496,0.0006376082130860358,0.009642137723970946,0.10617137439450565,-0.038482107180231956,0.03481351086610104, ,0.8841090202331543
0.011745044074209624,0.02098423950746503,-0.08360733143766233, ,0.012167856496622024,0.021050056433861465,-0.08395352021147796, ,0.0005504079209663389, ,0.004320320014877528,0.0011602583690120197,-0.009357836775232352,-0.002182218938475186,0.019719132043405696,-0.07038741847760516, ,0.010372100733491978, ,0.019839510484927596, ,5.197880209348936e-05, ,0.07733544700248424,-0.1936552495540538,0.09631953216000001,4.017659317163487,0.8496057555415087,0.06779590300456723, ,0.03913275940555496,0.0006376082130860358,0.009642137723970946,0.10617137439450565,-0.038482107180231956,0.03481351086610104, ,0.8896369934082031
0.011790289454522929,0.02100105910734529,-0.08371150413035733, ,0.012201291825611296,0.02105698724389949,-0.0840285490398763, ,0.0005220808176428061, ,0.004290221755616332,0.0020268818470874504,-0.010246735125502771,-0.0006124995321782241,-0.03680185656039463,0.005633230312265954, ,0.011292025215461955, ,0.03680695163971113, ,5.2812844032811316e-05, ,0.07776792004344081,-0.19363980408830536,0.09642842052000002,4.018078697050456,0.8493324825419778,0.06801873881196013, ,0.04147593599583513,0.000778950435470185,0.010925110781893005,0.0,-0.0039747349158088885,0.0062043703676336655, ,0.8957281112670898
0.011831275433495492,0.021022180497929987,-0.0838201234932949, ,0.012234826245664713,0.0210636893146936,-0.08410393849968854, ,0.0004951032192642024, ,0.004441088423989308,0.002115283289200353,-0.011545540499685224,-0.010326678263156383,-0.008724253082657975,0.03000637839689089, ,0.012549788652130116, ,0.013518604611833903, ,5.357452884540355e-05, ,0.07818494761864894,-0.19363208135543114,0.09654119775000002,4.017869007106971,0.8489225730426815,0.06843467126318986, ,0.043650847083013235,0.0013203889444934253,0.012021744543396226,0.0,-0.03512089933964947,0.03121150549626117, ,0.9014730453491211
0.011831275433495492,0.021022180497929987,-0.0838201234932949, ,0.012268459393193869,0.02107016448165214,-0.08417968486193872, ,0.0005680815567613648, ,0.004441088423989308,0.002115283289200353,-0.011545540499685224,-0.010326678263156383,-0.008724253082657975,0.03000637839689089, ,0.012549788652130116, ,0.013518604611833903, ,5.461266510457147e-05, ,0.07818494761864894,-0.19363208135543114,0.09654119775000002,4.017869007106971,0.8489225730426815,0.06843467126318986, ,0.043650847083013235,0.0013203889444934253,0.012021744543396226,0.0,-0.03512089933964947,0.03121150549626117, ,0.9097981452941895
0.011831275433495492,0.021022180497929987,-0.0838201234932949, ,0.012302190905506001,0.021076414574879118,-0.08425578441031963, ,0.0006438191916246586, ,0.004441088423989308,0.002115283289200353,-0.011545540499685224,-0.010326678263156383,-0.008724253082657975,0.03000637839689089, ,0.012549788652130116, ,0.013518604611833903, ,5.5811306049449304e-05, ,0.07818494761864894,-0.19363208135543114,0.09654119775000002,4.017869007106971,0.8489225730426815,0.06843467126318986, ,0.043650847083013235,0.0013203889444934253,0.012021744543396226,0.0,-0.03512089933964947,0.03121150549626117, ,0.9152071475982666
0.011853913359729074,0.02103215147467872,-0.0838794322774179, ,0.012336020420802606,0.021082441419180305,-0.08433223344117688, ,0.0006633137950897894, ,0.004434862780918097,0.0020349434271845377,-0.012284769579915464,-0.021111446161408226,0.031362189770366276,0.04756169112369514, ,0.013218342039341791, ,0.037805817362234685, ,5.704275958291111e-05, ,0.07840118413912722,-0.19363208135543114,0.09660212338000002,4.018078697050456,0.8486493000431506,0.06882086455086395, ,0.04430296057818431,0.0013203889444934253,0.012463858779342725,0.01324183229914141,-0.07455621603897529,0.06241297782305705, ,0.9193210601806641
0.01193516046692249,0.021059743918683906,-0.08408741909351036, ,0.012369947578178317,0.021088246834069704,-0.0844090282634921, ,0.0005415576668426165, ,0.005232640212494118,0.0017652780262275977,-0.013189679440500948,-0.002493237607453423,0.030154424682576425,-0.07772553983587809, ,0.014299103952572199, ,0.030257315851247635, ,5.799269768885954e-05, ,0.07912712102930433,-0.19362435862255692,0.09681341865000001,4.019965906541817,0.8475562080450271,0.06987556526071631, ,0.04551412065154474,0.0007355670011700232,0.013533399762107054,0.12646105441580935,-0.0507468834619949,0.048101502254691404, ,0.9231350421905518
0.01193516046692249,0.021059743918683906,-0.08408741909351036, ,0.012403972017619641,0.021093832633775282,-0.0844861651988663, ,0.000616396598871357, ,0.005232640212494118,0.0017652780262275977,-0.013189679440500948,-0.002493237607453423,0.030154424682576425,-0.07772553983587809, ,0.014299103952572199, ,0.030257315851247635, ,5.9099802121367595e-05, ,0.07912712102930433,-0.19362435862255692,0.09681341865000001,4.019965906541817,0.8475562080450271,0.06987556526071631, ,0.04551412065154474,0.0007355670011700232,0.013533399762107054,0.12646105441580935,-0.0507468834619949,0.048101502254691404, ,0.9268560409545898
0.011990524350622131,0.02108577445389164,-0.08423127976483522, ,0.012438093380004215,0.021099200627245362,-0.08456364058150347, ,0.000557639678151879, ,0.005948549929052995,0.0028793505780838596,-0.015713676062983406,0.0028314797832377668,-0.026832125986092963,-0.026693257613614095, ,0.01704686250963285, ,0.026981091613288644, ,6.006773179958157e-05, ,0.07962909866612893,-0.19361663588968267,0.09696508458000001,4.020385286428785,0.8474195715452616,0.07015034064469394, ,0.053523373693440936,0.00027618833900421545,0.016558016133056134,0.04751384349283828,-0.015569607687791375,0.02140635721641821, ,0.9313302040100098
0.011990524350622131,0.02108577445389164,-0.08423127976483522, ,0.012472311307099294,0.021104352618154687,-0.08464145075819454, ,0.0006330118983181036, ,0.005948549929052995,0.0028793505780838596,-0.015713676062983406,0.0028314797832377668,-0.026832125986092963,-0.026693257613614095, ,0.01704686250963285, ,0.026981091613288644, ,6.119246082308801e-05, ,0.07962909866612893,-0.19361663588968267,0.09696508458000001,4.020385286428785,0.8474195715452616,0.07015034064469394, ,0.053523373693440936,0.00027618833900421545,0.016558016133056134,0.04751384349283828,-0.015569607687791375,0.02140635721641821, ,0.9351820945739746
0.011990524350622131,0.02108577445389164,-0.08423127976483522, ,0.012506625441560946,0.021109290404910382,-0.0847195920883002, ,0.0007108883606223414, ,0.005948549929052995,0.0028793505780838596,-0.015713676062983406,0.0028314797832377668,-0.026832125986092963,-0.026693257613614095, ,0.01704686250963285, ,0.026981091613288644, ,6.24774028295862e-05, ,0.07962909866612893,-0.19361663588968267,0.09696508458000001,4.020385286428785,0.8474195715452616,0.07015034064469394, ,0.053523373693440936,0.00027618833900421545,0.016558016133056134,0.04751384349283828,-0.015569607687791375,0.02140635721641821, ,0.9389300346374512
0.012045451804165531,0.021111075022010768,-0.0843789617284726, ,0.012541035426932311,0.02111401578065841,-0.08479806094373485, ,0.0006490423156077723, ,0.005916284996555176,0.0028760018867998657,-0.01630869402648473,0.009422506209306201,-0.028444484556818774,0.04738891234253742, ,0.017585429078155558, ,0.029964498515067165, ,6.36167235033875e-05, ,0.08013879903582774,-0.19358574495818578,0.09711934309,4.02059497637227,0.8471462985457309,0.07078157015278952, ,0.054822034406973294,0.0044763944660939315,0.017127754322580648,0.0,-0.015553318584853613,0.05409669308073065, ,0.9431190490722656
0.012045451804165531,0.021111075022010768,-0.0843789617284726, ,0.012575540907643344,0.021118530533289288,-0.08487685370895, ,0.0007272870592125482, ,0.005916284996555176,0.0028760018867998657,-0.01630869402648473,0.009422506209306201,-0.028444484556818774,0.04738891234253742, ,0.017585429078155558, ,0.029964498515067165, ,6.491554084582423e-05, ,0.08013879903582774,-0.19358574495818578,0.09711934309,4.02059497637227,0.8471462985457309,0.07078157015278952, ,0.054822034406973294,0.0044763944660939315,0.017127754322580648,0.0,-0.015553318584853613,0.05409669308073065, ,0.947094202041626
0.012045451804165531,0.021111075022010768,-0.0843789617284726, ,0.01261014152900897,0.021122836445444663,-0.08495596678091795, ,0.0008074327507429989, ,0.005916284996555176,0.0028760018867998657,-0.01630869402648473,0.009422506209306201,-0.028444484556818774,0.04738891234253742, ,0.017585429078155558, ,0.029964498515067165, ,6.637588927050387e-05, ,0.08013879903582774,-0.19358574495818578,0.09711934309,4.02059497637227,0.8471462985457309,0.07078157015278952, ,0.054822034406973294,0.0044763944660939315,0.017127754322580648,0.0,-0.015553318584853613,0.05409669308073065, ,0.9516630172729492
0.012085911711885616,0.021126301348845303,-0.0844940158256123, ,0.012644836937228312,0.021126935294523037,-0.08503539656911459, ,0.0007781329699007676, ,0.006253636407268286,0.0028144005588052884,-0.01859512989563554,0.00655289013103726,0.07281901214528443,0.10815942606919161, ,0.019819376242840577, ,0.07311324555506131, ,6.776082744938747e-05, ,0.0805017674809163,-0.1935548540266889,0.09723600919000001,4.021224046202724,0.8465997525466691,0.07163563546827795, ,0.05897883254100111,0.0037353594482423076,0.018806152916174736,0.04467107573624546,-0.10346549629220626,0.16634621411071027, ,0.9557549953460693
0.012085911711885616,0.021126301348845303,-0.0844940158256123, ,0.012679626779383482,0.021130828852686065,-0.08511513949550423, ,0.0008592512397227206, ,0.006253636407268286,0.0028144005588052884,-0.01859512989563554,0.00655289013103726,0.07281901214528443,0.10815942606919161, ,0.019819376242840577, ,0.07311324555506131, ,6.945566773262801e-05, ,0.0805017674809163,-0.1935548540266889,0.09723600919000001,4.021224046202724,0.8465997525466691,0.07163563546827795, ,0.05897883254100111,0.0037353594482423076,0.018806152916174736,0.04467107573624546,-0.10346549629220626,0.16634621411071027, ,0.9579200744628906
0.012153644374000818,0.021150895232529512,-0.08467858069178683, ,0.012714510703438157,0.021134518886864833,-0.0851951919945215, ,0.0007627099463800482, ,0.006253636407268286,0.0028144005588052884,-0.01859512989563554,0.00655289013103726,0.07281901214528443,0.10815942606919161, ,0.019819376242840577, ,0.07311324555506131, ,7.093698029384045e-05, ,0.08108869517935735,-0.1935316858280662,0.09742397124,4.022691875807116,0.8457799335480763,0.07287589407144057, ,0.05832633162782469,0.0020989173416401242,0.018940322853745546,0.14510147847450944,-0.06679068365350209,0.08825635111782096, ,0.9615941047668457
0.012153644374000818,0.021150895232529512,-0.08467858069178683, ,0.012749488358237061,0.021138007158765546,-0.08527555051305652, ,0.0008435455669391169, ,0.006817102762584047,0.00255118860477831,-0.018475537879844014,0.005450594930335818,0.0439847206155812,-0.06025128965015136, ,0.019857667368609357, ,0.04432112904716781, ,7.258433335705e-05, ,0.08108869517935735,-0.1935316858280662,0.09742397124,4.022691875807116,0.8457799335480763,0.07287589407144057, ,0.05832633162782469,0.0020989173416401242,0.018940322853745546,0.14510147847450944,-0.06679068365350209,0.08825635111782096, ,0.9635860919952393
0.012153644374000818,0.021150895232529512,-0.08467858069178683, ,0.012784559393504338,0.021141295424876305,-0.08535621151043699, ,0.0009259208629934803, ,0.006817102762584047,0.00255118860477831,-0.018475537879844014,0.005450594930335818,0.0439847206155812,-0.06025128965015136, ,0.019857667368609357, ,0.04432112904716781, ,7.43999429945743e-05, ,0.08108869517935735,-0.1935316858280662,0.09742397124,4.022691875807116,0.8457799335480763,0.07287589407144057, ,0.05832633162782469,0.0020989173416401242,0.018940322853745546,0.14510147847450944,-0.06679068365350209,0.08825635111782096, ,0.9656691551208496
0.012153644374000818,0.021150895232529512,-0.08467858069178683, ,0.012819723459842341,0.02114438543647255,-0.08543717145841247, ,0.0010095363674726438, ,0.006817102762584047,0.00255118860477831,-0.018475537879844014,0.005450594930335818,0.0439847206155812,-0.06025128965015136, ,0.019857667368609357, ,0.04432112904716781, ,0.0004183431345921229, ,0.08108869517935735,-0.1935316858280662,0.09742397124,4.022691875807116,0.8457799335480763,0.07287589407144057, ,0.05832633162782469,0.0020989173416401242,0.018940322853745546,0.14510147847450944,-0.06679068365350209,0.08825635111782096, ,0.9676210880279541
0.012153644374000818,0.021150895232529512,-0.08467858069178683, ,0.012854980208731137,0.02114727893962348,-0.08551842684113793, ,0.0010941784978837482, ,0.006817102762584047,0.00255118860477831,-0.018475537879844014,0.005450594930335818,0.0439847206155812,-0.06025128965015136, ,0.019857667368609357, ,0.04432112904716781, ,0.00042611135715869326, ,0.08108869517935735,-0.1935316858280662,0.09742397124,4.022691875807116,0.8457799335480763,0.07287589407144057, ,0.05832633162782469,0.0020989173416401242,0.018940322853745546,0.14510147847450944,-0.06679068365350209,0.08825635111782096, ,0.9697210788726807
0.012255103938615924,0.02119521345559934,-0.08496631266707738, ,0.01289032929252643,0.0211499776751985,-0.08559997415515669, ,0.0008983787661972429, ,0.007767999669155841,0.0038467113154043026,-0.022281456858013998,0.00940859858167236,-0.054358922093507706,0.028645979989219868, ,0.023908206258931343, ,0.05516709750021804, ,0.00043147803226140406, ,0.08197680945989318,-0.19343901303357552,0.09772341423000001,4.023530635581053,0.8453700240487801,0.07353686274309201, ,0.06891571645495335,0.00728004249427206,0.023459221678939622,0.006149699432204158,-0.003071106178526714,0.04091409011708161, ,0.9717450141906738
0.012255103938615924,0.02119521345559934,-0.08496631266707738, ,0.01292577036445938,0.021152483378872804,-0.08568180990938455, ,0.0009816086888164025, ,0.007767999669155841,0.0038467113154043026,-0.022281456858013998,0.00940859858167236,-0.054358922093507706,0.028645979989219868, ,0.023908206258931343, ,0.05516709750021804, ,0.0004376592755934827, ,0.08197680945989318,-0.19343901303357552,0.09772341423000001,4.023530635581053,0.8453700240487801,0.07353686274309201, ,0.06891571645495335,0.00728004249427206,0.023459221678939622,0.006149699432204158,-0.003071106178526714,0.04091409011708161, ,0.9738171100616455
0.012255103938615924,0.02119521345559934,-0.08496631266707738, ,0.012961303078634811,0.021154797781133668,-0.08576393062509306, ,0.0010660886731670282, ,0.007767999669155841,0.0038467113154043026,-0.022281456858013998,0.00940859858167236,-0.054358922093507706,0.028645979989219868, ,0.023908206258931343, ,0.05516709750021804, ,0.00044464182445541097, ,0.08197680945989318,-0.19343901303357552,0.09772341423000001,4.023530635581053,0.8453700240487801,0.07353686274309201, ,0.06891571645495335,0.00728004249427206,0.023459221678939622,0.006149699432204158,-0.003071106178526714,0.04091409011708161, ,0.9757380485534668
0.012255103938615924,0.02119521345559934,-0.08496631266707738, ,0.012996927090030265,0.021156922607286792,-0.08584633283589284, ,0.0011516089937825178, ,0.007767999669155841,0.0038467113154043026,-0.022281456858013998,0.00940859858167236,-0.054358922093507706,0.028645979989219868, ,0.023908206258931343, ,0.05516709750021804, ,0.00045241069444801655, ,0.08197680945989318,-0.19343901303357552,0.09772341423000001,4.023530635581053,0.8453700240487801,0.07353686274309201, ,0.06891571645495335,0.00728004249427206,0.023459221678939622,0.006149699432204158,-0.003071106178526714,0.04091409011708161, ,0.9777970314025879
0.012255103938615924,0.02119521345559934,-0.08496631266707738, ,0.013032642054495003,0.02115885957746226,-0.08592901308771748, ,0.0012380142268976653, ,0.007767999669155841,0.0038467113154043026,-0.022281456858013998,0.00940859858167236,-0.054358922093507706,0.028645979989219868, ,0.023908206258931343, ,0.05516709750021804, ,0.000460949863278991, ,0.08197680945989318,-0.19343901303357552,0.09772341423000001,4.023530635581053,0.8453700240487801,0.07353686274309201, ,0.06891571645495335,0.00728004249427206,0.023459221678939622,0.006149699432204158,-0.003071106178526714,0.04091409011708161, ,0.9797320365905762
0.012343343975578378,0.02122599455598548,-0.08523284476075256, ,0.013068447628748706,0.021160610406620484,-0.08601196793880667, ,0.0010663410905569896, ,0.009847900277350686,0.0030333893301201474,-0.031263404460687975,-0.00638815365712142,0.15854102047060603,-0.09344979112668558, ,0.0329178226675656, ,0.15866957431314116, ,0.00046745944636800174, ,0.0827104690829445,-0.1933386175062106,0.09799304255,4.025417845072414,0.8442769320506565,0.07499995715364743, ,0.07875264859624131,0.012289166220988187,0.031171842504892373,0.2883968336332248,-0.16743349802295437,0.2032487795295409, ,0.9816000461578369
0.012343343975578378,0.02122599455598548,-0.08523284476075256, ,0.013104343470380414,0.021162176804558796,-0.08609519395968993, ,0.0011518850104910766, ,0.009847900277350686,0.0030333893301201474,-0.031263404460687975,-0.00638815365712142,0.15854102047060603,-0.09344979112668558, ,0.0329178226675656, ,0.15866957431314116, ,0.00047474056939058766, ,0.0827104690829445,-0.1933386175062106,0.09799304255,4.025417845072414,0.8442769320506565,0.07499995715364743, ,0.07875264859624131,0.012289166220988187,0.031171842504892373,0.2883968336332248,-0.16743349802295437,0.2032487795295409, ,0.9835150241851807
0.012343343975578378,0.02122599455598548,-0.08523284476075256, ,0.013140329237847281,0.021163560475916974,-0.08617868773316992, ,0.0012384274105086395, ,0.009847900277350686,0.0030333893301201474,-0.031263404460687975,-0.00638815365712142,0.15854102047060603,-0.09344979112668558, ,0.0329178226675656, ,0.15866957431314116, ,0.0004827793782444619, ,0.0827104690829445,-0.1933386175062106,0.09799304255,4.025417845072414,0.8442769320506565,0.07499995715364743, ,0.07875264859624131,0.012289166220988187,0.031171842504892373,0.2883968336332248,-0.16743349802295437,0.2032487795295409, ,0.9854590892791748
0.012343343975578378,0.02122599455598548,-0.08523284476075256, ,0.013176404590473628,0.02116476312018407,-0.08626244585430669, ,0.0013258271714925022, ,0.009847900277350686,0.0030333893301201474,-0.031263404460687975,-0.00638815365712142,0.15854102047060603,-0.09344979112668558, ,0.0329178226675656, ,0.15866957431314116, ,0.0004915611260907956, ,0.0827104690829445,-0.1933386175062106,0.09799304255,4.025417845072414,0.8442769320506565,0.07499995715364743, ,0.07875264859624131,0.012289166220988187,0.031171842504892373,0.2883968336332248,-0.16743349802295437,0.2032487795295409, ,0.9873850345611572
0.012343343975578378,0.02122599455598548,-0.08523284476075256, ,0.013212569188449555,0.021165786431703748,-0.08634646493039973, ,0.001413975732169917, ,0.009847900277350686,0.0030333893301201474,-0.031263404460687975,-0.00638815365712142,0.15854102047060603,-0.09344979112668558, ,0.0329178226675656, ,0.15866957431314116, ,0.0005010705550194465, ,0.0827104690829445,-0.1933386175062106,0.09799304255,4.025417845072414,0.8442769320506565,0.07499995715364743, ,0.07875264859624131,0.012289166220988187,0.031171842504892373,0.2883968336332248,-0.16743349802295437,0.2032487795295409, ,0.9893121719360352
0.012455838155858542,0.021266370743002715,-0.08560909846553649, ,0.013248822692830238,0.021166632099681008,-0.08643074158097289, ,0.0011462415460939692, ,0.011471447292711951,0.00466885769370751,-0.03961376249074758,-0.001300953684801473,0.16839394167868899,-0.03177665264882841, ,0.041504728812834325, ,0.1683986773221763, ,0.0005076539324793905, ,0.08360630609635454,-0.19319960831447455,0.09836896665000001,4.028353504281197,0.8423640210539404,0.07753995268708408, ,0.09107192088144989,0.013107312369954528,0.03972272199501248,0.26482566227726334,-0.18686946094787482,0.24662740240743475, ,0.9914791584014893
0.012455838155858542,0.021266370743002715,-0.08560909846553649, ,0.013285164765534128,0.021167301808188193,-0.08651527243775729, ,0.0012323751649930752, ,0.011471447292711951,0.00466885769370751,-0.03961376249074758,-0.001300953684801473,0.16839394167868899,-0.03177665264882841, ,0.041504728812834325, ,0.1683986773221763, ,0.0005149743489694278, ,0.08360630609635454,-0.19319960831447455,0.09836896665000001,4.028353504281197,0.8423640210539404,0.07753995268708408, ,0.09107192088144989,0.013107312369954528,0.03972272199501248,0.26482566227726334,-0.18686946094787482,0.24662740240743475, ,0.9934852123260498
0.012455838155858542,0.021266370743002715,-0.08560909846553649, ,0.013321595069342466,0.021167797236170724,-0.08660005414467503, ,0.0013195624000066426, ,0.011471447292711951,0.00466885769370751,-0.03961376249074758,-0.001300953684801473,0.16839394167868899,-0.03177665264882841, ,0.041504728812834325, ,0.1683986773221763, ,0.0005230202294797999, ,0.08360630609635454,-0.19319960831447455,0.09836896665000001,4.028353504281197,0.8423640210539404,0.07753995268708408, ,0.09107192088144989,0.013107312369954528,0.03972272199501248,0.26482566227726334,-0.18686946094787482,0.24662740240743475, ,0.9953911304473877
0.012455838155858542,0.021266370743002715,-0.08560909846553649, ,0.013358113267897825,0.02116812005745377,-0.0866850833578222, ,0.0014076565857635236, ,0.011471447292711951,0.00466885769370751,-0.03961376249074758,-0.001300953684801473,0.16839394167868899,-0.03177665264882841, ,0.041504728812834325, ,0.1683986773221763, ,0.0005317790052845892, ,0.08360630609635454,-0.19319960831447455,0.09836896665000001,4.028353504281197,0.8423640210539404,0.07753995268708408, ,0.09107192088144989,0.013107312369954528,0.03972272199501248,0.26482566227726334,-0.18686946094787482,0.24662740240743475, ,0.9973680973052979
0.012455838155858542,0.021266370743002715,-0.08560909846553649, ,0.013394719025702854,0.02116827194074816,-0.08677035674545289, ,0.00149654316858478, ,0.011471447292711951,0.00466885769370751,-0.03961376249074758,-0.001300953684801473,0.16839394167868899,-0.03177665264882841, ,0.041504728812834325, ,0.1683986773221763, ,0.0005412374774738068, ,0.08360630609635454,-0.19319960831447455,0.09836896665000001,4.028353504281197,0.8423640210539404,0.07753995268708408, ,0.09107192088144989,0.013107312369954528,0.03972272199501248,0.26482566227726334,-0.18686946094787482,0.24662740240743475, ,0.9994771480560303
0.012455838155858542,0.021266370743002715,-0.08560909846553649, ,0.013431412008119509,0.02116825454965612,-0.08685587098796273, ,0.001586131410473043, ,0.011471447292711951,0.00466885769370751,-0.03961376249074758,-0.001300953684801473,0.16839394167868899,-0.03177665264882841, ,0.041504728812834325, ,0.1683986773221763, ,0.0005513820787650615, ,0.08453303404126149,-0.1930528763898643,0.09879026090000001,4.030240713772558,0.8408610195565206,0.07958233702915019, ,0.10095419314730934,0.01719458988194796,0.04643968373177843,0.13463167041978172,-0.1141004341383945,0.1587038225816952, ,1.0015721321105957
0.012572455214853165,0.02132109272182433,-0.08602550499345914, ,0.013468191881367548,0.021168069542678157,-0.08694162277787212, ,0.0012903612145488798, ,0.012684641065928873,0.006442279583007179,-0.045482632402981824,-0.008119823907278624,0.05458767104077569,0.013095312491931974, ,0.04765577546847656, ,0.05518650860304316, ,0.0005584876473783675, ,0.08453303404126149,-0.1930528763898643,0.09879026090000001,4.030240713772558,0.8408610195565206,0.07958233702915019, ,0.10095419314730934,0.01719458988194796,0.04643968373177843,0.13463167041978172,-0.1141004341383945,0.1587038225816952, ,1.0038230419158936
0.012572455214853165,0.02132109272182433,-0.08602550499345914, ,0.013505058312523714,0.021167718573218548,-0.08702760881980974, ,0.0013774920130555286, ,0.012684641065928873,0.006442279583007179,-0.045482632402981824,-0.008119823907278624,0.05458767104077569,0.013095312491931974, ,0.04765577546847656, ,0.05518650860304316, ,0.0005662876889562452, ,0.08453303404126149,-0.1930528763898643,0.09879026090000001,4.030240713772558,0.8408610195565206,0.07958233702915019, ,0.10095419314730934,0.01719458988194796,0.04643968373177843,0.13463167041978172,-0.1141004341383945,0.1587038225816952, ,1.0058321952819824
0.012572455214853165,0.02132109272182433,-0.08602550499345914, ,0.013542010969520396,0.021167203289591666,-0.08711382583049643, ,0.0014656611351505455, ,0.012684641065928873,0.006442279583007179,-0.045482632402981824,-0.008119823907278624,0.05458767104077569,0.013095312491931974, ,0.04765577546847656, ,0.05518650860304316, ,0.0005747723441090216, ,0.08453303404126149,-0.1930528763898643,0.09879026090000001,4.030240713772558,0.8408610195565206,0.07958233702915019, ,0.10095419314730934,0.01719458988194796,0.04643968373177843,0.13463167041978172,-0.1141004341383945,0.1587038225816952, ,1.0091311931610107
0.012710625600799429,0.021390966049812696,-0.08651295897775303, ,0.013579049521144302,0.02116652533502818,-0.08720027053872804, ,0.001130013682098607, ,0.013482095199239806,0.006764477519375169,-0.04629426970099984,0.001613576038336625,-0.02155450433250626,-0.02847121124605491, ,0.04868967502685152, ,0.0216098970138367, ,0.0005799615154921018, ,0.08453303404126149,-0.1930528763898643,0.09879026090000001,4.030240713772558,0.8408610195565206,0.07958233702915019, ,0.10095419314730934,0.01719458988194796,0.04643968373177843,0.13463167041978172,-0.1141004341383945,0.1587038225816952, ,1.011564016342163
0.012710625600799429,0.021390966049812696,-0.08651295897775303, ,0.013616173637035885,0.021165686347681123,-0.08728693968535986, ,0.0012123589921602255, ,0.013482095199239806,0.006764477519375169,-0.04629426970099984,0.001613576038336625,-0.02155450433250626,-0.02847121124605491, ,0.04868967502685152, ,0.0216098970138367, ,0.0005858170476834734, ,0.08453303404126149,-0.1930528763898643,0.09879026090000001,4.030240713772558,0.8408610195565206,0.07958233702915019, ,0.10095419314730934,0.01719458988194796,0.04643968373177843,0.13463167041978172,-0.1141004341383945,0.1587038225816952, ,1.0138530731201172
0.012710625600799429,0.021390966049812696,-0.08651295897775303, ,0.01365338298768774,0.021164687960631968,-0.08737383002328918, ,0.001296569404705452, ,0.013482095199239806,0.006764477519375169,-0.04629426970099984,0.001613576038336625,-0.02155450433250626,-0.02847121124605491, ,0.04868967502685152, ,0.0216098970138367, ,0.000592337711509363, ,0.08561421664365292,-0.19284436260226023,0.09929192513000001,4.031498853433465,0.8401778370576933,0.0807111777286163, ,0.10555833321298196,0.019414267912944105,0.04783426882882884,0.11427688386392194,-0.04811674870068203,0.09425950285728596, ,1.0159120559692383
0.012710625600799429,0.021390966049812696,-0.08651295897775303, ,0.013690677244443488,0.021163531801896753,-0.08746093831743951, ,0.0013823503137073893, ,0.013482095199239806,0.006764477519375169,-0.04629426970099984,0.001613576038336625,-0.02155450433250626,-0.02847121124605491, ,0.04868967502685152, ,0.0216098970138367, ,0.0005995196442566177, ,0.08561421664365292,-0.19284436260226023,0.09929192513000001,4.031498853433465,0.8401778370576933,0.0807111777286163, ,0.10555833321298196,0.019414267912944105,0.04783426882882884,0.11427688386392194,-0.04811674870068203,0.09425950285728596, ,1.0177960395812988
0.012710625600799429,0.021390966049812696,-0.08651295897775303, ,0.013728056079496913,0.021162219494432376,-0.08754826134474371, ,0.001469469549421644, ,0.013482095199239806,0.006764477519375169,-0.04629426970099984,0.001613576038336625,-0.02155450433250626,-0.02847121124605491, ,0.04868967502685152, ,0.0216098970138367, ,0.000607357030789636, ,0.08561421664365292,-0.19284436260226023,0.09929192513000001,4.031498853433465,0.8401778370576933,0.0807111777286163, ,0.10555833321298196,0.019414267912944105,0.04783426882882884,0.11427688386392194,-0.04811674870068203,0.09425950285728596, ,1.019672155380249
0.012846823988550114,0.02144925283562271,-0.08695014744409972, ,0.013765519165890652,0.021160752656142284,-0.0876357958941274, ,0.001182094319187077, ,0.014844366827609739,0.00507283202919492,-0.044649876606934216,-0.00840532109573422,-0.022798955818369954,-0.09933084277179015, ,0.04732547234126162, ,0.024295356527286992, ,0.000612488613721756, ,0.08670312197891857,-0.19261268061603348,0.09974303405000001,4.032756993094372,0.8396312910586315,0.08172860052438585, ,0.11847308559109959,0.030671280400281442,0.04603702751445087,0.1792233122748673,-0.049805980753338086,0.08664147139456112, ,1.0218100547790527
0.012846823988550114,0.02144925283562271,-0.08695014744409972, ,0.013803066177514872,0.021159132899883228,-0.0877235387664928, ,0.0012636070744588739, ,0.014844366827609739,0.00507283202919492,-0.044649876606934216,-0.00840532109573422,-0.022798955818369954,-0.09933084277179015, ,0.04732547234126162, ,0.024295356527286992, ,0.0006182507239937659, ,0.08670312197891857,-0.19261268061603348,0.09974303405000001,4.032756993094372,0.8396312910586315,0.08172860052438585, ,0.11847308559109959,0.030671280400281442,0.04603702751445087,0.1792233122748673,-0.049805980753338086,0.08664147139456112, ,1.0236940383911133
0.012846823988550114,0.02144925283562271,-0.08695014744409972, ,0.013840696789106568,0.02115736183347079,-0.08781148677470253, ,0.0013471781408805894, ,0.014844366827609739,0.00507283202919492,-0.044649876606934216,-0.00840532109573422,-0.022798955818369954,-0.09933084277179015, ,0.04732547234126162, ,0.024295356527286992, ,0.0006246448241418959, ,0.08670312197891857,-0.19261268061603348,0.09974303405000001,4.032756993094372,0.8396312910586315,0.08172860052438585, ,0.11847308559109959,0.030671280400281442,0.04603702751445087,0.1792233122748673,-0.049805980753338086,0.08664147139456112, ,1.0256361961364746
0.012846823988550114,0.02144925283562271,-0.08695014744409972, ,0.013878410676247862,0.021155441059685906,-0.08789963674356209, ,0.0014324895754273018, ,0.014844366827609739,0.00507283202919492,-0.044649876606934216,-0.00840532109573422,-0.022798955818369954,-0.09933084277179015, ,0.04732547234126162, ,0.024295356527286992, ,0.000631669561109595, ,0.08670312197891857,-0.19261268061603348,0.09974303405000001,4.032756993094372,0.8396312910586315,0.08172860052438585, ,0.11847308559109959,0.030671280400281442,0.04603702751445087,0.1792233122748673,-0.049805980753338086,0.08664147139456112, ,1.027536153793335
0.012846823988550114,0.02144925283562271,-0.08695014744409972, ,0.013916207515365639,0.02115337217628083,-0.08798798550980427, ,0.0015192874456870767, ,0.014844366827609739,0.00507283202919492,-0.044649876606934216,-0.00840532109573422,-0.022798955818369954,-0.09933084277179015, ,0.04732547234126162, ,0.024295356527286992, ,0.0006393214394249182, ,0.08670312197891857,-0.19261268061603348,0.09974303405000001,4.032756993094372,0.8396312910586315,0.08172860052438585, ,0.11847308559109959,0.030671280400281442,0.04603702751445087,0.1792233122748673,-0.049805980753338086,0.08664147139456112, ,1.0294971466064453
0.012846823988550114,0.02144925283562271,-0.08695014744409972, ,0.013954086983729502,0.02115115677598508,-0.08807652992207232, ,0.001607367440241592, ,0.014844366827609739,0.00507283202919492,-0.044649876606934216,-0.00840532109573422,-0.022798955818369954,-0.09933084277179015, ,0.04732547234126162, ,0.024295356527286992, ,0.0006475953368677958, ,0.08796192743741717,-0.19224198943807072,0.10019932813000001,4.035482962359671,0.8382649260609771,0.08398628192331808, ,0.13089233318409763,0.03635898144002712,0.045381229401709404,0.3039945030885122,-0.178085763557052,0.28625782013495316, ,1.0313971042633057
0.01300252893849881,0.021486454651557366,-0.08740030036756502, ,0.013992048759451425,0.021148796446511898,-0.08816526684090352, ,0.001295506173209748, ,0.016006033111267803,0.0034538116421529846,-0.04502272415284217,0.004832308600325276,0.14049333112006926,-0.0397823451163176, ,0.04790790749929901, ,0.14057575289184923, ,0.0006530861066673039, ,0.08796192743741717,-0.19224198943807072,0.10019932813000001,4.035482962359671,0.8382649260609771,0.08398628192331808, ,0.13089233318409763,0.03635898144002712,0.045381229401709404,0.3039945030885122,-0.178085763557052,0.28625782013495316, ,1.0336511135101318
0.01300252893849881,0.021486454651557366,-0.08740030036756502, ,0.01403009252148386,0.021146292770564307,-0.08825419313871266, ,0.0013786696076203352, ,0.016006033111267803,0.0034538116421529846,-0.04502272415284217,0.004832308600325276,0.14049333112006926,-0.0397823451163176, ,0.04790790749929901, ,0.14057575289184923, ,0.000659183447011447, ,0.08796192743741717,-0.19224198943807072,0.10019932813000001,4.035482962359671,0.8382649260609771,0.08398628192331808, ,0.13089233318409763,0.03635898144002712,0.045381229401709404,0.3039945030885122,-0.178085763557052,0.28625782013495316, ,1.0355491638183594
0.01300252893849881,0.021486454651557366,-0.08740030036756502, ,0.014068217949619361,0.02114364732584096,-0.08834330569977546, ,0.0014637175231462013, ,0.016006033111267803,0.0034538116421529846,-0.04502272415284217,0.004832308600325276,0.14049333112006926,-0.0397823451163176, ,0.04790790749929901, ,0.14057575289184923, ,0.0006658878976459032, ,0.08796192743741717,-0.19224198943807072,0.10019932813000001,4.035482962359671,0.8382649260609771,0.08398628192331808, ,0.13089233318409763,0.03635898144002712,0.045381229401709404,0.3039945030885122,-0.178085763557052,0.28625782013495316, ,1.0377590656280518
0.01300252893849881,0.021486454651557366,-0.08740030036756502, ,0.014106424724489038,0.02114086168504242,-0.08843260142021248, ,0.0015503760408780282, ,0.016006033111267803,0.0034538116421529846,-0.04502272415284217,0.004832308600325276,0.14049333112006926,-0.0397823451163176, ,0.04790790749929901, ,0.14057575289184923, ,0.0006731977170114581, ,0.08796192743741717,-0.19224198943807072,0.10019932813000001,4.035482962359671,0.8382649260609771,0.08398628192331808, ,0.13089233318409763,0.03635898144002712,0.045381229401709404,0.3039945030885122,-0.178085763557052,0.28625782013495316, ,1.0402710437774658
0.013168029089791082,0.021517245005917986,-0.08782978686028735, ,0.0141447125275614,0.021137937415877415,-0.08852207720797205, ,0.001255806796834064, ,0.017285771666060375,0.002753401274423757,-0.042116485662832034,0.002524192900483984,0.06090437395497102,-0.03484777072018478, ,0.04560896277330488, ,0.06095557237031817, ,0.0006779732012722991, ,0.08933657388902913,-0.1918635755272337,0.10063488157000001,4.0384186215684545,0.8367619245635572,0.08651873870622767, ,0.14689929033819007,0.04331215954288945,0.04293480194070081,0.24741294647604137,-0.12752338918108322,0.2336689283887182, ,1.0424091815948486
0.013168029089791082,0.021517245005917986,-0.08782978686028735, ,0.0141830810411412,0.021134876081068843,-0.08861172998281401, ,0.0013371505171433466, ,0.017285771666060375,0.002753401274423757,-0.042116485662832034,0.002524192900483984,0.06090437395497102,-0.03484777072018478, ,0.04560896277330488, ,0.06095557237031817, ,0.0006833323664419825, ,0.08933657388902913,-0.1918635755272337,0.10063488157000001,4.0384186215684545,0.8367619245635572,0.08651873870622767, ,0.14689929033819007,0.04331215954288945,0.04293480194070081,0.24741294647604137,-0.12752338918108322,0.2336689283887182, ,1.0443711280822754
0.013168029089791082,0.021517245005917986,-0.08782978686028735, ,0.01422152994836861,0.021131679238359874,-0.08870155667629369, ,0.0014207419302026641, ,0.017285771666060375,0.002753401274423757,-0.042116485662832034,0.002524192900483984,0.06090437395497102,-0.03484777072018478, ,0.04560896277330488, ,0.06095557237031817, ,0.0006892792177626331, ,0.08933657388902913,-0.1918635755272337,0.10063488157000001,4.0384186215684545,0.8367619245635572,0.08651873870622767, ,0.14689929033819007,0.04331215954288945,0.04293480194070081,0.24741294647604137,-0.12752338918108322,0.2336689283887182, ,1.0465080738067627
0.013168029089791082,0.021517245005917986,-0.08782978686028735, ,0.01426005893321746,0.021128348440519976,-0.08879155423174469, ,0.0015062424088811764, ,0.017285771666060375,0.002753401274423757,-0.042116485662832034,0.002524192900483984,0.06090437395497102,-0.03484777072018478, ,0.04560896277330488, ,0.06095557237031817, ,0.0006958149232915814, ,0.08933657388902913,-0.1918635755272337,0.10063488157000001,4.0384186215684545,0.8367619245635572,0.08651873870622767, ,0.14689929033819007,0.04331215954288945,0.04293480194070081,0.24741294647604137,-0.12752338918108322,0.2336689283887182, ,1.0489051342010498
0.013168029089791082,0.021517245005917986,-0.08782978686028735, ,0.014298667680495042,0.021124885235351335,-0.08888171960426255, ,0.0015933776420533072, ,0.017285771666060375,0.002753401274423757,-0.042116485662832034,0.002524192900483984,0.06090437395497102,-0.03484777072018478, ,0.04560896277330488, ,0.06095557237031817, ,0.0007029384369325475, ,0.08933657388902913,-0.1918635755272337,0.10063488157000001,4.0384186215684545,0.8367619245635572,0.08651873870622767, ,0.14689929033819007,0.04331215954288945,0.04293480194070081,0.24741294647604137,-0.12752338918108322,0.2336689283887182, ,1.0509190559387207
0.013340875311712503,0.02154064065165523,-0.08823335627089304, ,0.014337355875839859,0.021121291165694615,-0.08897204976068884, ,0.0013093874819646403, ,0.017285771666060375,0.002753401274423757,-0.042116485662832034,0.002524192900483984,0.06090437395497102,-0.03484777072018478, ,0.04560896277330488, ,0.06095557237031817, ,0.0007077136262635089, ,0.08933657388902913,-0.1918635755272337,0.10063488157000001,4.0384186215684545,0.8367619245635572,0.08651873870622767, ,0.14689929033819007,0.04331215954288945,0.04293480194070081,0.24741294647604137,-0.12752338918108322,0.2336689283887182, ,1.0529022216796875
0.013340875311712503,0.02154064065165523,-0.08823335627089304, ,0.014376123205721337,0.02111756776943548,-0.08906254167959371, ,0.0013922202798844522, ,0.01801192686600109,0.002102380420279503,-0.039970131086614485,-0.007687978920009869,-0.018778190780183415,-0.02055617402608608, ,0.04389146718826897, ,0.020288505381200996, ,0.0007130613344949225, ,0.09082706133375446,-0.19137704335615757,0.10104839808,4.040305831059816,0.8358054690651993,0.08844216639407038, ,0.15659561313279005,0.05211254341486588,0.041159719689922485,0.1730994248391575,-0.07641511355762498,0.17183278566504498, ,1.0549421310424805
0.013340875311712503,0.02154064065165523,-0.08823335627089304, ,0.014414969357438396,0.021113716579510274,-0.08915319235126043, ,0.0014771731777913804, ,0.01801192686600109,0.002102380420279503,-0.039970131086614485,-0.007687978920009869,-0.018778190780183415,-0.02055617402608608, ,0.04389146718826897, ,0.020288505381200996, ,0.0007189846821173756, ,0.09082706133375446,-0.19137704335615757,0.10104839808,4.040305831059816,0.8358054690651993,0.08844216639407038, ,0.15659561313279005,0.05211254341486588,0.041159719689922485,0.1730994248391575,-0.07641511355762498,0.17183278566504498, ,1.057171106338501
0.013340875311712503,0.02154064065165523,-0.08823335627089304, ,0.014453894019118303,0.021109739123912327,-0.08924399877766823, ,0.0015639325580558998, ,0.01801192686600109,0.002102380420279503,-0.039970131086614485,-0.007687978920009869,-0.018778190780183415,-0.02055617402608608, ,0.04389146718826897, ,0.020288505381200996, ,0.0007254842811630566, ,0.09082706133375446,-0.19137704335615757,0.10104839808,4.040305831059816,0.8358054690651993,0.08844216639407038, ,0.15659561313279005,0.05211254341486588,0.041159719689922485,0.1730994248391575,-0.07641511355762498,0.17183278566504498, ,1.0591700077056885
0.013340875311712503,0.02154064065165523,-0.08823335627089304, ,0.01449289687971535,0.02110563692569836,-0.08933495797247572, ,0.0016522433972238908, ,0.01801192686600109,0.002102380420279503,-0.039970131086614485,-0.007687978920009869,-0.018778190780183415,-0.02055617402608608, ,0.04389146718826897, ,0.020288505381200996, ,0.0007325587782322233, ,0.09082706133375446,-0.19137704335615757,0.10104839808,4.040305831059816,0.8358054690651993,0.08844216639407038, ,0.15659561313279005,0.05211254341486588,0.041159719689922485,0.1730994248391575,-0.07641511355762498,0.17183278566504498, ,1.061143159866333
0.01354049395543009,0.021556618607562528,-0.0886712163912881, ,0.014531977629010134,0.021101411502994046,-0.08942606696100519, ,0.0013266698027872726, ,0.018780097024125,0.0008813451334732068,-0.04032813299863253,-0.021261728805743257,-0.026180713917842505,-0.04870378039913917, ,0.04449524833771848, ,0.0337251274790368, ,0.0007370596193273372, ,0.09254923076470653,-0.19074377926047117,0.10149821071000001,4.04240273049466,0.8349856500666065,0.0903358549183575, ,0.16221699411704404,0.06468775839023229,0.04137353641558442,0.19080797183266354,-0.07355274865767275,0.1609774740796939, ,1.0638492107391357
0.01354049395543009,0.021556618607562528,-0.0886712163912881, ,0.014571135957608004,0.02109706436900072,-0.08951732278022473, ,0.0014104286781800803, ,0.018780097024125,0.0008813451334732068,-0.04032813299863253,-0.021261728805743257,-0.026180713917842505,-0.04870378039913917, ,0.04449524833771848, ,0.0337251274790368, ,0.0007421225445818692, ,0.09254923076470653,-0.19074377926047117,0.10149821071000001,4.04240273049466,0.8349856500666065,0.0903358549183575, ,0.16221699411704404,0.06468775839023229,0.04137353641558442,0.19080797183266354,-0.07355274865767275,0.1609774740796939, ,1.0657031536102295
0.01354049395543009,0.021556618607562528,-0.0886712163912881, ,0.014610371556938076,0.021092597032001024,-0.08960872247873349, ,0.0014962859916447197, ,0.018780097024125,0.0008813451334732068,-0.04032813299863253,-0.021261728805743257,-0.026180713917842505,-0.04870378039913917, ,0.04449524833771848, ,0.0337251274790368, ,0.0007477506300077114, ,0.09254923076470653,-0.19074377926047117,0.10149821071000001,4.04240273049466,0.8349856500666065,0.0903358549183575, ,0.16221699411704404,0.06468775839023229,0.04137353641558442,0.19080797183266354,-0.07355274865767275,0.1609774740796939, ,1.067575216293335
0.01354049395543009,0.021556618607562528,-0.0886712163912881, ,0.014649684119252427,0.021088010995365208,-0.0897002631167439, ,0.0015839296312970467, ,0.018780097024125,0.0008813451334732068,-0.04032813299863253,-0.021261728805743257,-0.026180713917842505,-0.04870378039913917, ,0.04449524833771848, ,0.0337251274790368, ,0.0007539445485357805, ,0.09254923076470653,-0.19074377926047117,0.10149821071000001,4.04240273049466,0.8349856500666065,0.0903358549183575, ,0.16221699411704404,0.06468775839023229,0.04137353641558442,0.19080797183266354,-0.07355274865767275,0.1609774740796939, ,1.06951904296875
0.013728669858478374,0.021558302246445712,-0.08906872971109002, ,0.014689073337624104,0.021083307757557374,-0.08979194176606545, ,0.001292683365597043, ,0.019126417484886693,-0.0004056871350167253,-0.039446435280312483,-0.03753345744044185,0.01810156097016831,-0.03533946504485728, ,0.04384068526131382, ,0.041669310399816605, ,0.0007579058633671133, ,0.09419417286691635,-0.19004873330179095,0.10190265319000001,4.0442899399860215,0.8338925580684831,0.09220734302961553, ,0.1667784561660295,0.07299764735266984,0.040022139497487445,0.21381667130757753,-0.11781009751991481,0.19959264876720312, ,1.0720841884613037
0.013728669858478374,0.021558302246445712,-0.08906872971109002, ,0.014728538905947119,0.021078488812141374,-0.0898837555100884, ,0.0013763088668093085, ,0.019126417484886693,-0.0004056871350167253,-0.039446435280312483,-0.03753345744044185,0.01810156097016831,-0.03533946504485728, ,0.04384068526131382, ,0.041669310399816605, ,0.0007624197539031878, ,0.09419417286691635,-0.19004873330179095,0.10190265319000001,4.0442899399860215,0.8338925580684831,0.09220734302961553, ,0.1667784561660295,0.07299764735266984,0.040022139497487445,0.21381667130757753,-0.11781009751991481,0.19959264876720312, ,1.0740301609039307
0.013728669858478374,0.021558302246445712,-0.08906872971109002, ,0.014768080518934124,0.021073555647787127,-0.08997570144376758, ,0.0014621735566806935, ,0.019126417484886693,-0.0004056871350167253,-0.039446435280312483,-0.03753345744044185,0.01810156097016831,-0.03533946504485728, ,0.04384068526131382, ,0.041669310399816605, ,0.0007674904336334596, ,0.09419417286691635,-0.19004873330179095,0.10190265319000001,4.0442899399860215,0.8338925580684831,0.09220734302961553, ,0.1667784561660295,0.07299764735266984,0.040022139497487445,0.21381667130757753,-0.11781009751991481,0.19959264876720312, ,1.0759251117706299
0.013728669858478374,0.021558302246445712,-0.08906872971109002, ,0.014807697872116233,0.021068509748276575,-0.09006777667360474, ,0.0015499332175251696, ,0.019126417484886693,-0.0004056871350167253,-0.039446435280312483,-0.03753345744044185,0.01810156097016831,-0.03533946504485728, ,0.04384068526131382, ,0.041669310399816605, ,0.0007731195184096589, ,0.09419417286691635,-0.19004873330179095,0.10190265319000001,4.0442899399860215,0.8338925580684831,0.09220734302961553, ,0.1667784561660295,0.07299764735266984,0.040022139497487445,0.21381667130757753,-0.11781009751991481,0.19959264876720312, ,1.0778141021728516
0.013728669858478374,0.021558302246445712,-0.08906872971109002, ,0.014847390661841452,0.021063352592509896,-0.09015997831763371, ,0.0016393092804873847, ,0.019126417484886693,-0.0004056871350167253,-0.039446435280312483,-0.03753345744044185,0.01810156097016831,-0.03533946504485728, ,0.04384068526131382, ,0.041669310399816605, ,0.0007793065881387855, ,0.09419417286691635,-0.19004873330179095,0.10190265319000001,4.0442899399860215,0.8338925580684831,0.09220734302961553, ,0.1667784561660295,0.07299764735266984,0.040022139497487445,0.21381667130757753,-0.11781009751991481,0.19959264876720312, ,1.0797090530395508
0.013931724000214968,0.021549898692456607,-0.08948446021263645, ,0.014887158585273522,0.021058085654511564,-0.09025230350540238, ,0.001320726554917544, ,0.019126417484886693,-0.0004056871350167253,-0.039446435280312483,-0.03753345744044185,0.01810156097016831,-0.03533946504485728, ,0.04384068526131382, ,0.041669310399816605, ,0.0007831464460592024, ,0.09419417286691635,-0.19004873330179095,0.10190265319000001,4.0442899399860215,0.8338925580684831,0.09220734302961553, ,0.1667784561660295,0.07299764735266984,0.040022139497487445,0.21381667130757753,-0.11781009751991481,0.19959264876720312, ,1.0819621086120605
0.013931724000214968,0.021549898692456607,-0.08948446021263645, ,0.014927001340390735,0.021052710403436637,-0.09034474937795724, ,0.0014063678845075665, ,0.020255589640753417,-0.0011485991639891037,-0.04123143065344319,-0.03263567041374017,0.018967303396845072,-0.07739422948704051, ,0.04595257408963951, ,0.03774554832479623, ,0.000787535329428557, ,0.09588545136637151,-0.1892764600143685,0.10230968825000002,4.046806219307836,0.8327994660703596,0.0942421886211548, ,0.17316960138407075,0.08103923275702031,0.0416984594764398,0.2633911079914829,-0.11291392505199277,0.2099879086084483, ,1.0842030048370361
0.013931724000214968,0.021549898692456607,-0.08948446021263645, ,0.014966918625985155,0.02104722830357657,-0.09043731308782649, ,0.0014940662752495962, ,0.020255589640753417,-0.0011485991639891037,-0.04123143065344319,-0.03263567041374017,0.018967303396845072,-0.07739422948704051, ,0.04595257408963951, ,0.03774554832479623, ,0.0007924761052734593, ,0.09588545136637151,-0.1892764600143685,0.10230968825000002,4.046806219307836,0.8327994660703596,0.0942421886211548, ,0.17316960138407075,0.08103923275702031,0.0416984594764398,0.2633911079914829,-0.11291392505199277,0.2099879086084483, ,1.0860600471496582
0.013931724000214968,0.021549898692456607,-0.08948446021263645, ,0.015006910141661048,0.02104164081436562,-0.09052999179900323, ,0.00158350484921578, ,0.020255589640753417,-0.0011485991639891037,-0.04123143065344319,-0.03263567041374017,0.018967303396845072,-0.07739422948704051, ,0.04595257408963951, ,0.03774554832479623, ,0.0007979693604397254, ,0.09588545136637151,-0.1892764600143685,0.10230968825000002,4.046806219307836,0.8327994660703596,0.0942421886211548, ,0.17316960138407075,0.08103923275702031,0.0416984594764398,0.2633911079914829,-0.11291392505199277,0.2099879086084483, ,1.0880231857299805
0.013931724000214968,0.021549898692456607,-0.08948446021263645, ,0.01504697558783385,0.021035949390386856,-0.09062278268692953, ,0.0016744276766301753, ,0.020255589640753417,-0.0011485991639891037,-0.04123143065344319,-0.03263567041374017,0.018967303396845072,-0.07739422948704051, ,0.04595257408963951, ,0.03774554832479623, ,0.0008040139005513837, ,0.09588545136637151,-0.1892764600143685,0.10230968825000002,4.046806219307836,0.8327994660703596,0.0942421886211548, ,0.17316960138407075,0.08103923275702031,0.0416984594764398,0.2633911079914829,-0.11291392505199277,0.2099879086084483, ,1.0900111198425293
0.014070468918485096,0.021538369618722977,-0.08976725586243539, ,0.015087114665729321,0.021030155481378283,-0.09071568293848008, ,0.001480325674762636, ,0.020255589640753417,-0.0011485991639891037,-0.04123143065344319,-0.03263567041374017,0.018967303396845072,-0.07739422948704051, ,0.04595257408963951, ,0.03774554832479623, ,0.0008086461729774882, ,0.09588545136637151,-0.1892764600143685,0.10230968825000002,4.046806219307836,0.8327994660703596,0.0942421886211548, ,0.17316960138407075,0.08103923275702031,0.0416984594764398,0.2633911079914829,-0.11291392505199277,0.2099879086084483, ,1.0920720100402832
0.014070468918485096,0.021538369618722977,-0.08976725586243539, ,0.015127327077382019,0.021024260532238853,-0.09080868975194495, ,0.0015702999290108683, ,0.021132079771157657,-0.0016850616365289804,-0.04305206004386067,-0.03530966669593666,0.0067272781248269575,-0.0663403841221932, ,0.04798837465671927, ,0.03594274520166505, ,0.0008138274910457425, ,0.09712108862624744,-0.18865864138443056,0.10261042753,4.048693428799196,0.8319796470717669,0.09572748344473886, ,0.17972905598195224,0.09133488119198342,0.043640579506849325,0.2554071793681789,-0.10436796458904356,0.2150050392369952, ,1.094088077545166
0.014070468918485096,0.021538369618722977,-0.08976725586243539, ,0.015167612525634177,0.02101826598303497,-0.09090180033701362, ,0.0016617530055215671, ,0.021132079771157657,-0.0016850616365289804,-0.04305206004386067,-0.03530966669593666,0.0067272781248269575,-0.0663403841221932, ,0.04798837465671927, ,0.03594274520166505, ,0.0008195567174949035, ,0.09712108862624744,-0.18865864138443056,0.10261042753,4.048693428799196,0.8319796470717669,0.09572748344473886, ,0.17972905598195224,0.09133488119198342,0.043640579506849325,0.2554071793681789,-0.10436796458904356,0.2150050392369952, ,1.099020004272461
0.014070468918485096,0.021538369618722977,-0.08976725586243539, ,0.015207970714135129,0.02101217326900587,-0.09099501191475813, ,0.0017544736696735502, ,0.021132079771157657,-0.0016850616365289804,-0.04305206004386067,-0.03530966669593666,0.0067272781248269575,-0.0663403841221932, ,0.04798837465671927, ,0.03594274520166505, ,0.0008258313279122098, ,0.09712108862624744,-0.18865864138443056,0.10261042753,4.048693428799196,0.8319796470717669,0.09572748344473886, ,0.17972905598195224,0.09133488119198342,0.043640579506849325,0.2554071793681789,-0.10436796458904356,0.2150050392369952, ,1.101081132888794
0.01433437762569058,0.021520146418445713,-0.09030064319792781, ,0.015248401347339147,0.021005983820570652,-0.091088321717617, ,0.0013115791974446938, ,0.021055697104154537,-0.0011723021834756375,-0.041275256453675926,-0.0452175561440174,-0.07239349590906177,0.015310622730863525, ,0.04635044194253168, ,0.08535412020375134, ,0.0008290696470424264, ,0.09937612662552099,-0.18751567691904533,0.10315357304000002,4.051209708121011,0.8308865550736434,0.09825240147712161, ,0.18249411838167456,0.09107192088144989,0.04236386042553192,0.11752846024676775,-0.05905079806467375,0.15758250662462736, ,1.102966070175171
0.01433437762569058,0.021520146418445713,-0.09030064319792781, ,0.01528890413050549,0.020999699063333675,-0.09118172698937872, ,0.0013993909194341641, ,0.021055697104154537,-0.0011723021834756375,-0.041275256453675926,-0.0452175561440174,-0.07239349590906177,0.015310622730863525, ,0.04635044194253168, ,0.08535412020375134, ,0.0008328466091112459, ,0.09937612662552099,-0.18751567691904533,0.10315357304000002,4.051209708121011,0.8308865550736434,0.09825240147712161, ,0.18249411838167456,0.09107192088144989,0.04236386042553192,0.11752846024676775,-0.05905079806467375,0.15758250662462736, ,1.1049962043762207
0.01433437762569058,0.021520146418445713,-0.09030064319792781, ,0.015329478769696156,0.02099332041809112,-0.0912752249851648, ,0.0014891546533066543, ,0.021055697104154537,-0.0011723021834756375,-0.041275256453675926,-0.0452175561440174,-0.07239349590906177,0.015310622730863525, ,0.04635044194253168, ,0.08535412020375134, ,0.0008371644251914788, ,0.09937612662552099,-0.18751567691904533,0.10315357304000002,4.051209708121011,0.8308865550736434,0.09825240147712161, ,0.18249411838167456,0.09107192088144989,0.04236386042553192,0.11752846024676775,-0.05905079806467375,0.15758250662462736, ,1.1069700717926025
0.01433437762569058,0.021520146418445713,-0.09030064319792781, ,0.015370124971775527,0.02098684930083679,-0.0913688129714138, ,0.0015805584600264264, ,0.021055697104154537,-0.0011723021834756375,-0.041275256453675926,-0.0452175561440174,-0.07239349590906177,0.015310622730863525, ,0.04635044194253168, ,0.08535412020375134, ,0.0008420232097328836, ,0.09937612662552099,-0.18751567691904533,0.10315357304000002,4.051209708121011,0.8308865550736434,0.09825240147712161, ,0.18249411838167456,0.09107192088144989,0.04236386042553192,0.11752846024676775,-0.05905079806467375,0.15758250662462736, ,1.1088950634002686
0.01433437762569058,0.021520146418445713,-0.09030064319792781, ,0.015410842444408941,0.02098028712276844,-0.0914624882258646, ,0.001673352453611894, ,0.021055697104154537,-0.0011723021834756375,-0.041275256453675926,-0.0452175561440174,-0.07239349590906177,0.015310622730863525, ,0.04635044194253168, ,0.08535412020375134, ,0.0008474214515762537, ,0.09937612662552099,-0.18751567691904533,0.10315357304000002,4.051209708121011,0.8308865550736434,0.09825240147712161, ,0.18249411838167456,0.09107192088144989,0.04236386042553192,0.11752846024676775,-0.05905079806467375,0.15758250662462736, ,1.110826015472412
0.014567594137848795,0.02149843510036518,-0.09074150951970822, ,0.015451630896061459,0.020973635290293845,-0.09155624803753969, ,0.001311767770209454, ,0.022140213948859278,-0.00281947477148305,-0.041084992311296975,-0.04802818337879611,-0.0672187327782982,-0.06119030212822621, ,0.046755909839373506, ,0.08261323969532827, ,0.000850417234277113, ,0.10139175990569359,-0.18645766251527657,0.10360597825000001,4.052677537725402,0.8303400090745816,0.09984157545387512, ,0.18903773218818878,0.10314884952007694,0.04202852643799473,0.193454058555149,-0.05624598108700551,0.15691393981320662, ,1.112774133682251
0.014567594137848795,0.02149843510036518,-0.09074150951970822, ,0.015492490035996866,0.020966895205036903,-0.09165008970672893, ,0.0014012441039959148, ,0.022140213948859278,-0.00281947477148305,-0.041084992311296975,-0.04802818337879611,-0.0672187327782982,-0.06119030212822621, ,0.046755909839373506, ,0.08261323969532827, ,0.0008539481757496695, ,0.10139175990569359,-0.18645766251527657,0.10360597825000001,4.052677537725402,0.8303400090745816,0.09984157545387512, ,0.18903773218818878,0.10314884952007694,0.04202852643799473,0.193454058555149,-0.05624598108700551,0.15691393981320662, ,1.114670991897583
0.014567594137848795,0.02149843510036518,-0.09074150951970822, ,0.015533419574276426,0.020960068263843758,-0.09174401054497362, ,0.0014925367432578993, ,0.022140213948859278,-0.00281947477148305,-0.041084992311296975,-0.04802818337879611,-0.0672187327782982,-0.06119030212822621, ,0.046755909839373506, ,0.08261323969532827, ,0.0008580156188548174, ,0.10139175990569359,-0.18645766251527657,0.10360597825000001,4.052677537725402,0.8303400090745816,0.09984157545387512, ,0.18903773218818878,0.10314884952007694,0.04202852643799473,0.193454058555149,-0.05624598108700551,0.15691393981320662, ,1.1165461540222168
0.014567594137848795,0.02149843510036518,-0.09074150951970822, ,0.01557441922175792,0.020953155858788902,-0.09183800787504862, ,0.0015853500699046933, ,0.022140213948859278,-0.00281947477148305,-0.041084992311296975,-0.04802818337879611,-0.0672187327782982,-0.06119030212822621, ,0.046755909839373506, ,0.08261323969532827, ,0.0008626190014563989, ,0.10139175990569359,-0.18645766251527657,0.10360597825000001,4.052677537725402,0.8303400090745816,0.09984157545387512, ,0.18903773218818878,0.10314884952007694,0.04202852643799473,0.193454058555149,-0.05624598108700551,0.15691393981320662, ,1.1184661388397217
0.014567594137848795,0.02149843510036518,-0.09074150951970822, ,0.01561548869009415,0.020946159377181393,-0.09193207903094694, ,0.0016794484892770237, ,0.022140213948859278,-0.00281947477148305,-0.041084992311296975,-0.04802818337879611,-0.0672187327782982,-0.06119030212822621, ,0.046755909839373506, ,0.08261323969532827, ,0.0008677562938326294, ,0.10139175990569359,-0.18645766251527657,0.10360597825000001,4.052677537725402,0.8303400090745816,0.09984157545387512, ,0.18903773218818878,0.10314884952007694,0.04202852643799473,0.193454058555149,-0.05624598108700551,0.15691393981320662, ,1.1203820705413818
0.014784305739661713,0.02146309808012526,-0.09116132459575692, ,0.01565662769173232,0.020939080201570755,-0.09202622135786336, ,0.0013355099154297723, ,0.022642472181747995,-0.00414050473490727,-0.04467081361635872,-0.044192280348705405,0.058653943464182234,-0.06038425605751895, ,0.05025243193228046, ,0.07343748940095889, ,0.0008706797539676115, ,0.1032220475968848,-0.1853996481115078,0.10402856879000001,4.055193817047217,0.8291102805766927,0.1022328751695325, ,0.18828758245728333,0.11297254947436998,0.04474385258426967,0.30935205021252693,-0.14569348656600528,0.28382517525897527, ,1.1223411560058594
0.014784305739661713,0.02146309808012526,-0.09116132459575692, ,0.015697835939912398,0.020931919709753378,-0.0921204322121771, ,0.001427086300052027, ,0.022642472181747995,-0.00414050473490727,-0.04467081361635872,-0.044192280348705405,0.058653943464182234,-0.06038425605751895, ,0.05025243193228046, ,0.07343748940095889, ,0.0008741356952476389, ,0.1032220475968848,-0.1853996481115078,0.10402856879000001,4.055193817047217,0.8291102805766927,0.1022328751695325, ,0.18828758245728333,0.11297254947436998,0.04474385258426967,0.30935205021252693,-0.14569348656600528,0.28382517525897527, ,1.1242330074310303
0.014784305739661713,0.02146309808012526,-0.09116132459575692, ,0.01573911314866622,0.020924679274778417,-0.09221470896143578, ,0.0015202534723189063, ,0.022642472181747995,-0.00414050473490727,-0.04467081361635872,-0.044192280348705405,0.058653943464182234,-0.06038425605751895, ,0.05025243193228046, ,0.07343748940095889, ,0.0008781240765875851, ,0.1032220475968848,-0.1853996481115078,0.10402856879000001,4.055193817047217,0.8291102805766927,0.1022328751695325, ,0.18828758245728333,0.11297254947436998,0.04474385258426967,0.30935205021252693,-0.14569348656600528,0.28382517525897527, ,1.126121997833252
0.014784305739661713,0.02146309808012526,-0.09116132459575692, ,0.015780459032816458,0.020917360264953964,-0.0923090489843393, ,0.0016147515036431378, ,0.022642472181747995,-0.00414050473490727,-0.04467081361635872,-0.044192280348705405,0.058653943464182234,-0.06038425605751895, ,0.05025243193228046, ,0.07343748940095889, ,0.0008826432632566374, ,0.1032220475968848,-0.1853996481115078,0.10402856879000001,4.055193817047217,0.8291102805766927,0.1022328751695325, ,0.18828758245728333,0.11297254947436998,0.04474385258426967,0.30935205021252693,-0.14569348656600528,0.28382517525897527, ,1.12809419631958
