NicholasDascanio/dvrk_moveit_final/test/execution/third_experiment_notsharpbends/thirdexp_600vel5.0/thirdexp_600vel5.0_22.csv
Current Position (x),Current Position (y),Current Position (z), ,Planned Position (x),Planned Position (y),Planned Position (z), ,Position Error,,Cartesian linear Velocity(x),Cartesian linear Velocity(y),Cartesian linear Velocity(z),Cartesian Angular Velocity(x),Cartesian Angular Velocity(y),Cartesian Angular Velocity(z), ,Total Linear Velocity, ,Total Angular Velocity, ,MSE, ,Joint 1 Position,Joint 2 Position,Joint 3 Position,Joint 4 Position,Joint 5 Position,Joint 6 Position, ,Joint 1 Velocity,Joint 2 Velocity,Joint 3 Velocity,Joint 4 Velocity,Joint 5 Velocity,Joint 6 Velocity, ,Time Stamp
0.009536030804399171,0.020847058400236734,-0.07829317129206358, ,0.009596971164544726,0.020735621216000536,-0.07828429729914198, ,0.00012732133079549108, ,5.0717808194601137e-05,-1.2277906548767845e-05,2.9081507705333283e-06,0.007447613263911713,-0.008365231459011453,-0.09487545302484549, ,5.2263757979969064e-05, ,0.011200180386566484, ,1.0610110899624257e-05, ,0.10777073725980303,-0.1506705183761202,0.09452676309000001,3.261727070901776,1.329609779217501,-0.6737719516635515, ,0.0004040043474396339,0.0001271196645888291,0.0,0.0021514756989253953,0.0,-0.09340551003298492, ,0.018791913986206055
0.009541976268271619,0.02084881813769119,-0.07831358830262682, ,0.009629025065412307,0.02073935206647027,-0.07839924761811502, ,0.00016400558576491357, ,0.0002709336608605844,0.0002114881406804006,-0.00163299275181228,0.011442273868541677,-0.011724610403136613,-0.14686408002167003, ,0.0016687712874169467, ,0.016382677448342764, ,1.3242132570927485e-05, ,0.10777073725980303,-0.15065507291037172,0.09454880002,3.2621464507887454,1.3297464157172665,-0.6764970892517458, ,0.00037276272486317643,0.0003849103696315598,0.0016626977067606143,0.007329710771567977,0.0,-0.14060672219206438, ,0.0371859073638916
0.009553311087351407,0.020850969239897883,-0.07834495196956244, ,0.00966134986494541,0.020742885900734448,-0.07851423426650202, ,0.00022805894353404257, ,0.0005297192915438187,-0.00010835886588018973,-9.359014806470389e-05,0.01784390258403371,-0.005789641095279788,-0.21589353783373066, ,0.0005487287922674546, ,0.018759658937215182, ,1.6230808127951478e-05, ,0.10777845999267725,-0.15063962744462328,0.09457861469,3.2629852105626838,1.3294731427177355,-0.6800314754908188, ,0.00016004931129253808,0.0008403274947199314,0.00012486842307759855,0.05745424969012433,0.0,-0.16045836696532767, ,0.06192493438720703
0.009562724966714767,0.020852704275662777,-0.0784001993504306, ,0.00969394354350503,0.02074622439962897,-0.07862925522289681, ,0.0002846451678955574, ,0.0007963131635956677,0.00047517801499323564,-0.005310618694842806,-0.06516638793387641,0.02996348137032524,0.22118309603318825, ,0.005390972057288237, ,0.07172494913176505, ,1.9143595904523923e-05, ,0.10780162819129993,-0.1505855683145037,0.09462528113000002,3.2631949005061682,1.3285166872193777,-0.6767195092205865, ,0.000721242922635666,0.0026399139794431076,0.004948372637465052,0.020010987371297372,-0.045875742691052025,0.24696352879165984, ,0.08068680763244629
0.009587578891323188,0.020867981283880784,-0.07852737548886274, ,0.009726804087960868,0.02074936923902077,-0.07874430847322827, ,0.00028374705684890036, ,0.0017417212558082226,0.0006752109247300949,-0.006701151012348742,0.0018204654348394885,0.0054125188100246,-0.2474537173697329, ,0.006956646290858233, ,0.005710467647703057, ,2.09188093238251e-05, ,0.10782479638992261,-0.1505469546501326,0.09475491013000001,3.2642433502235906,1.3285166872193777,-0.6814568761487392, ,0.0007175702108167651,0.0024816255938872275,0.006689967039059219,0.10932916155847355,-0.018395191504093533,-0.13907985473417983, ,0.10259389877319336
0.009616934281438418,0.02088601023217038,-0.07869816153805774, ,0.00975992949168322,0.020752322089813213,-0.0788593920107509, ,0.00025360484002622186, ,0.00098606839924773,0.0006675479311347024,-0.006013612994984535,0.02175638920099831,-0.008931734983099283,-0.018865023329496307, ,0.006130374571084876, ,0.023518425819110896, ,2.1635208465566565e-05, ,0.10789430098579063,-0.15047745005426458,0.09492083525000002,3.264872420054044,1.3276968682207848,-0.6773578616406569, ,0.0041151448079038205,0.0037460763724795577,0.006300953924050633,0.0,0.024141754451918674,-0.020747806822477913, ,0.12353801727294922
0.009643880990234662,0.020896076630864725,-0.07881034579447319, ,0.009793317754534328,0.020755084617952148,-0.07897450383603458, ,0.00026297900455885356, ,0.0014850529694696842,0.0003417708296932963,-0.0041864061779532625,0.009353061515767862,0.016262743087026587,0.005585744757041428, ,0.004455130335799977, ,0.0187605056207574, ,2.2282804575333062e-05, ,0.10798697378028133,-0.15040022272552234,0.09503490877000001,3.2657111798279823,1.3276968682207848,-0.6768677891998136, ,0.0034372650337410947,0.0029279515237890436,0.004392943055708771,0.08551857604389525,0.01023423586573374,0.08969810173162564, ,0.1435079574584961
0.009662798789905797,0.02090065853857372,-0.07889945288654905, ,0.009826966882860529,0.02075765848443183,-0.07908964195695713, ,0.0002890883268685623, ,0.0010619929771132402,0.00024040869599464062,-0.004859061119011175,0.0036751114954478364,-0.0001721356556371068,-0.027713874483526295, ,0.004979568292817543, ,0.0036791401820546097, ,2.30908567840554e-05, ,0.10807964657477201,-0.15029210446528318,0.09512435278,3.265920869771467,1.3276968682207848,-0.6764593954991107, ,0.003564220461652703,0.0059603066005500084,0.0049361052122714605,0.028129243488202667,0.006676301601481271,-1.2555866061983445e-05, ,0.16603398323059082
0.009699633957623431,0.02090599741987033,-0.0790116653664934, ,0.009860874889483786,0.02076004534530026,-0.07920480438869389, ,0.00029086651246759703, ,0.0024401073219926343,0.0003762849251895972,-0.007113229914037567,0.015878664656459283,0.02078829307570127,-0.1637629995411084, ,0.007529525476265148, ,0.02615884366829926, ,2.374257357347978e-05, ,0.10813370570489159,-0.1501762634721698,0.09523842630000001,3.268227459149797,1.3276968682207848,-0.6762960380188296, ,0.0028103932394615058,0.006773748053952965,0.007296752872194229,0.16355991884720242,0.005008022674295541,-0.0027191347625657378, ,0.1880190372467041
0.009722731416854367,0.020913612890069183,-0.07913850374932575, ,0.009895039793693676,0.020762246851665354,-0.07931998915370853, ,0.00029247018021508653, ,0.0009238598085470692,0.00025078269614209407,-0.0053781496071421955,-0.009285757694759308,-0.009415667336904129,0.0188687085405801, ,0.005462682683749503, ,0.013224223336949642, ,2.452264305916066e-05, ,0.10824954669800495,-0.15002953154755955,0.09536675901000001,3.268227459149797,1.3278335047205503,-0.6763257771823856, ,0.006428336265765257,0.007192790688003718,0.005366850242587601,-0.019986029295542943,0.0,0.0, ,0.2050459384918213
0.009746407727142949,0.020915470842134236,-0.07923699985447746, ,0.009929459621238812,0.020764264649700683,-0.07943519428174427, ,0.0003092771242137902, ,0.001113119192539018,6.577446883784745e-05,-0.0038747111923082066,-0.008220254128897072,0.000657689891665811,0.02662664395954965, ,0.0040319657043863975, ,0.008246522483076241, ,2.532785521080924e-05, ,0.10838855588974099,-0.14987507689007507,0.09546398076000001,3.2684371490932813,1.3276968682207848,-0.675479250617424, ,0.006510628258763407,0.006174249503063346,0.0038860237911685787,0.019157686809860623,-0.000537848844299848,0.04650778057780832, ,0.2243039608001709
0.009787100453888547,0.020918952478689662,-0.0793666477814918, ,0.009964132404318907,0.020766100380650954,-0.07955041780981449, ,0.00029744831258175764, ,0.0020408790128198418,0.00038453006726976377,-0.007495107200334772,-0.0011506507950746325,0.009134252100342806,-0.06277636397350253, ,0.007777511328317891, ,0.009206439867378638, ,2.5911868787989697e-05, ,0.10853528781435126,-0.1496974540339679,0.09559490605000001,3.270114668641157,1.3276968682207848,-0.6749891781765807, ,0.005814778477632123,0.008111077067370943,0.007574327874465051,0.08586685850438452,-0.0005385053785157558,0.022719654825442068, ,0.24130797386169434
0.00981333533361714,0.020926797195735626,-0.07950497008759264, ,0.009999056181576314,0.020767755680838374,-0.07966565778219363, ,0.0002925866914671099, ,0.001278825150684797,0.00027121039764211187,-0.007211648315371121,-0.014841460012653263,-0.0008054519597322117,0.05576924367861185, ,0.007329175961212032, ,0.014863299386758684, ,2.6375774040920966e-05, ,0.10862796060884196,-0.1495429993764834,0.09573360908,3.2705340485281265,1.3276968682207848,-0.6740907120350345, ,0.00611183874862879,0.009966822442620838,0.0071816102434625806,0.0,-0.0005188569229163295,0.057307327206406286, ,0.264523983001709
0.00985390591971972,0.020929427533009724,-0.07963872993299188, ,0.010034228998087945,0.02076923218166778,-0.07978091225040773, ,0.00027999066871862467, ,0.002075506018047165,-4.4327447241872264e-05,-0.005737022557717281,-0.0029268124786907676,0.00887099692991177,-0.054637734344946974, ,0.006101075149617968, ,0.009341349559942796, ,2.6686786466835827e-05, ,0.10879013799920066,-0.1493499310546278,0.09586712695,3.272001878132518,1.3275602317210193,-0.6734075429503543, ,0.008008747204646602,0.009977452119377088,0.0057775885092491855,0.09109253279725386,0.0,0.03625221820175927, ,0.28152894973754883
0.009880319624485642,0.02092961466197173,-0.07974399941859832, ,0.01006964890535699,0.020770531509632848,-0.07989617927322513, ,0.00029036482932265795, ,0.0013754654775950865,-1.2770396338819675e-05,-0.0048608343513096425,-0.010818843652590266,-0.00011259733624834501,0.02597129893684457, ,0.005051710497836388, ,0.010819429440856445, ,2.7030510789583333e-05, ,0.10895231538955938,-0.1491645854656464,0.09597083015,3.272211568076002,1.3274235952212539,-0.6726426951255333, ,0.00802247080559242,0.008809579504824165,0.004850429817295981,0.022195991735176765,-0.0006697822227999347,0.049163285102934565, ,0.30318284034729004
0.009897122270444713,0.020929773512685275,-0.07979555936796365, ,0.010105313961304395,0.020771655286321907,-0.08001145691664806, ,0.0003390529533557373, ,0.0014108625507625924,7.105936224294901e-05,-0.0056213326553038396,-0.009238566418862414,0.00026811845153000124,0.004171332877053123, ,0.005796116233452536, ,0.009242455916409079, ,2.7648435668612284e-05, ,0.1090218199854274,-0.14907963540402994,0.09602268175,3.272840637906456,1.3274235952212539,-0.6722343014248304, ,0.006859957898064964,0.00908576946054535,0.00561071205353998,0.027352098010832684,-0.0006697822227999347,0.032341115487971334, ,0.3205089569091797
0.009937774979993638,0.020933098412020082,-0.07993995152220745, ,0.010141222230261157,0.020772605128423455,-0.08012674325390245, ,0.0003194370497463614, ,0.0014977647818061879,0.00028063787367968516,-0.006285093579567911,-0.009999334433410802,0.005622764502449539,0.03585842615330303, ,0.00646718317830013, ,0.011471798462041249, ,2.8078930355983325e-05, ,0.10919172010866034,-0.14887112161642588,0.09616786623000001,3.2740987775673633,1.3274235952212539,-0.6713358352832842, ,0.00620728280143287,0.007641864843547373,0.006315944298176051,0.03473922094461271,-0.0006697822227999347,0.0714174396815931, ,0.34063291549682617
0.009969652651352247,0.020933183779759702,-0.08004332292745892, ,0.01017737178295967,0.020773382647732156,-0.0802420363654289, ,0.0003288930979252643, ,0.0015444614484293804,-4.742875985163492e-06,-0.005393397351953077,-0.012476551674897392,0.003794984378945352,0.04322847553818734, ,0.005610179913034132, ,0.013040944887897376, ,2.851929292662734e-05, ,0.10935389749901905,-0.1486934987603187,0.09627156943000001,3.2749375373413017,1.3274235952212539,-0.6703556904015975, ,0.00821082637621607,0.009482000813587414,0.005388637185385657,0.032509225047885525,-0.0006697822227999347,0.07683771292491741, ,0.35812997817993164
0.010009029219593693,0.020935204269556515,-0.08015316683424646, ,0.0102137606965255,0.020773989451154492,-0.08035733433887413, ,0.0003310431471348761, ,0.001906747141252156,0.000307083002482902,-0.006760812006630142,-0.011415395201893346,0.0016080692780840178,0.013699070556885948, ,0.007031256190758624, ,0.011528101330806267, ,2.9087739356029865e-05, ,0.10953152035512623,-0.14853904410283422,0.09638175408,3.276405366945693,1.3272869587214886,-0.669100770135933, ,0.009951087821720137,0.008046308578588447,0.00680718441025641,0.04040515723237131,-0.0036189631415701846,0.055018826795492415, ,0.377349853515625
0.010026686856856972,0.02094056507547331,-0.08023947017725201, ,0.010250387054469286,0.020774427140714775,-0.08047263526908109, ,0.0003633311875208107, ,0.0016728838867665322,0.0005425624057090492,-0.008052021941514243,-0.014563881473637507,-0.005103443742071844,0.042995760693102916, ,0.008241842743544595, ,0.0154321660099708, ,2.9778899528900618e-05, ,0.10973231140985606,-0.14835369851385283,0.09655934581000002,3.2766150568891774,1.3272869587214886,-0.6685290189549491, ,0.009660004368324237,0.008036340936230651,0.008089797623158965,0.0,-0.0032041981949839818,0.04448403420969596, ,0.394744873046875
0.010071979885322484,0.020949180038779318,-0.08040734191022095, ,0.010287248946678354,0.020774697313560554,-0.08058793725807983, ,0.0003307562090801566, ,0.002913862854088899,0.000135617182358286,-0.0073316255752931695,0.0014238665391276134,0.017310235958695137,-0.1174023512470492, ,0.00789060975646894, ,0.01736869723621407, ,3.0248569644885145e-05, ,0.10982498420434675,-0.14826102571936214,0.0966384195,3.2776635066065998,1.3272869587214886,-0.6682839827345275, ,0.009190659073930532,0.009610398268539225,0.00744336986915888,0.15416381354898542,-0.0030394177069472486,0.03573424284128154, ,0.4105339050292969
0.010117982827789768,0.020952836791694525,-0.08054796727849092, ,0.010324344469408634,0.02077480156196883,-0.08070323841507863, ,0.0003136730718636102, ,0.001846165167557773,0.00012840958215818452,-0.006270001771436138,-0.01738385221879145,0.0010491038189146158,0.03922403664254852, ,0.006537410577629798, ,0.017415479525333698, ,3.059825020441943e-05, ,0.11004122072482504,-0.14807568013038075,0.09677841882,3.279131336210992,1.3270136857219577,-0.6670810020454478, ,0.010880601929117387,0.00928795297753139,0.006261325283018869,0.030299266697107058,-0.006093253687320466,0.07108958940138473, ,0.4270009994506836
0.010135609829531208,0.02095388221709609,-0.08061646820092563, ,0.010361671725276245,0.02077474147335165,-0.08081853685645464, ,0.0003521748547588993, ,0.0017270852073648646,2.0912769972450482e-05,-0.006288640775195251,-0.017960109360367984,-0.002906046876162546,0.024439171604340344, ,0.006521523093334469, ,0.018193697448501637, ,3.110242322377879e-05, ,0.11016478445081263,-0.1479675618701416,0.09684582590000002,3.279131336210992,1.3268770492221922,-0.6663161542206272, ,0.010640874489996364,0.010728644705891407,0.006239252455934196,0.018579434537119435,-0.00597353709290089,0.04474215514945075, ,0.44264888763427734
0.01018441403618223,0.02095522173949175,-0.08075890600542143, ,0.010399228823249401,0.020774518630261724,-0.08093383070574416, ,0.0003307531665927129, ,0.0022278242679935364,0.00017137305095621,-0.007410278283357578,-0.011523493520240718,0.003510500696150416,-0.032758882811408215, ,0.007739818727105688, ,0.012046347816002249, ,3.147316431338279e-05, ,0.11036557550554246,-0.14775132534966331,0.09698971409000001,3.281018545702352,1.3268770492221922,-0.6652543305987999, ,0.010141799024734515,0.010278123775147993,0.007422558956197579,0.06568976228236748,-0.00597353709290089,0.03372897780114091, ,0.46454691886901855
0.01022599619474577,0.020954507790401405,-0.08091203016834911, ,0.010437013878639882,0.020774134610398516,-0.08104911809363427, ,0.00030960627616277443, ,0.0016865818253370426,-0.00016470379920606622,-0.006007951599939051,-0.009674612012737244,-0.010023564383247526,0.03262002010181451, ,0.006242368782941324, ,0.013930899206958789, ,3.1725657595722144e-05, ,0.1106281484232661,-0.1474964751648139,0.09713360228000001,3.2812282356458375,1.3267404127224267,-0.6644078040338381, ,0.012005062307199034,0.01279624346797071,0.0060427964795144165,0.0,0.005836032012669732,0.034648649186047834, ,0.4800119400024414
0.010250686572530268,0.020953036217544595,-0.08096563487879856, ,0.010475025013095258,0.020773590986613966,-0.08116439715795305, ,0.00034933475411640374, ,0.0031851708690488036,-0.00013750689757284083,-0.005672557878056834,0.012269210379070116,0.014970333197789811,-0.1359216709226147, ,0.006507083409010666, ,0.01935573283307198, ,3.2128735626737444e-05, ,0.11085983040949283,-0.1472725159114614,0.09725026838,3.283534825024167,1.3267404127224267,-0.6638360528528544, ,0.011680039031580667,0.011368987846947499,0.005919290791527314,0.11655774451873613,0.005836032012669732,0.015065235651045998, ,0.4994199275970459
0.010290528923854621,0.0209504191673677,-0.08106468680975999, ,0.010513260354589979,0.020772889326918037,-0.08127966604366045, ,0.0003568503965192284, ,0.0019019083916341033,-0.00019312786062201655,-0.005532910462586813,-0.01765778817330354,0.002173575606821805,0.00185344347103328, ,0.00585385788072441, ,0.017791062613194214, ,3.253616628594287e-05, ,0.11095250320398353,-0.14717984311697072,0.09729693482000001,3.2837445149676516,1.3268770492221922,-0.6635390770558481, ,0.01061172620309951,0.011374647876520845,0.0054644293379073755,0.04723939575341598,-0.0077797682196800244,0.05061903434393328, ,0.5145249366760254
0.010334924869586723,0.020950695799618474,-0.08121995327409592, ,0.010551718037417895,0.02077203119448478,-0.08139492290283931, ,0.0003309602540010704, ,0.002057568154049587,0.0002241477100565837,-0.00803120820877399,-0.017450724359529095,-0.0015698116460003998,0.015515245773045992, ,0.008293620089994558, ,0.017521188768574763, ,3.294571823038521e-05, ,0.11119190792308449,-0.14691727019924708,0.09745248962000001,3.2845832747415895,1.3268770492221922,-0.6623138959537396, ,0.011026834947533207,0.01109249440939514,0.00801651309511827,0.028932694194580746,-0.006177777083876874,0.04608123892922352, ,0.5291328430175781
0.01035981112746665,0.02095127184774078,-0.08128102524112853, ,0.010590396202183303,0.020771018147658023,-0.08151016589468578, ,0.00037170729369795, ,0.0033729718059856443,7.508924671796569e-05,-0.008498015077285296,-0.005833897975798864,0.02017738080355537,-0.08111180397424422, ,0.009143239986608409, ,0.021003833396905588, ,3.3490456709478856e-05, ,0.11127685798470097,-0.1468323201376306,0.09751471154000001,3.2858414144024968,1.3268770492221922,-0.6617421447727556, ,0.012083987221839933,0.011882971166388465,0.008596228559093363,0.16251476717104116,-0.0057979267367260735,0.08109340182426292, ,0.5430629253387451
0.010391057659072238,0.020955386450623097,-0.08139134194433201, ,0.010629292995793111,0.020769851739957164,-0.08162539318550037, ,0.00038204605483743747, ,0.0023791972695675484,0.000461609209844448,-0.008750968319046681,-0.015263416584227599,0.0022756375136650684,0.029456142915052892, ,0.0090803694435353, ,0.015432121066074925, ,3.404539226538519e-05, ,0.11143903537505967,-0.14669331094589455,0.09762619248000001,3.2864704842329497,1.3268770492221922,-0.66092535737135, ,0.012194415517665225,0.009342278194156497,0.008819939933554817,0.044910532490665525,-0.005244056237316745,0.07567376407763914, ,0.5559909343719482
0.010414052854883199,0.020959576905957802,-0.08148378050400096, ,0.010668406571448418,0.0207685335200829,-0.08174060294867842, ,0.00040884123630964233, ,0.0020449919346435088,0.0002982939516821282,-0.008844472957512138,-0.015745902561712023,-0.008175382387524908,0.04657662780014429, ,0.009082712876147227, ,0.017741766274667583, ,3.467002043553884e-05, ,0.11157032183392149,-0.14658519268565542,0.09771822907000001,3.286680174176435,1.3267404127224267,-0.660160509546529, ,0.012753251116579864,0.012149027136506646,0.008873989704735376,0.0,0.0,0.048287311544235254, ,0.5691769123077393
0.010477691635464727,0.020962833511598562,-0.08166660555106624, ,0.010707735088636493,0.020767065031923198,-0.08185579336470164, ,0.00035642294652524567, ,0.0025242488617053496,7.482461155799069e-05,-0.007816320098192595,-0.008350749854303247,0.0072944847394707055,-0.00818939040309644, ,0.008214151868313918, ,0.011088034161584359, ,3.5076209019383386e-05, ,0.11180200382014822,-0.14633806523368023,0.09790359854000001,3.289406143441733,1.3267404127224267,-0.6587719709641395, ,0.011343155326072947,0.011801323902527552,0.007885550257425744,0.08043997303907544,0.0,0.07274862781495293, ,0.5831680297851562
0.010496887650175389,0.020965254271547846,-0.08174131518416078, ,0.010747276713122093,0.020765447814558788,-0.08197096262112809, ,0.00039415130141038827, ,0.0020925117557421043,0.0003436339597551656,-0.008552093531478136,-0.012885306714118226,-0.006033815722895303,0.03221997060475756, ,0.008811072211562342, ,0.014228071392420051, ,3.559404120849386e-05, ,0.11191012208038736,-0.14623766970631533,0.09797878336000002,3.2896158333852177,1.3267404127224267,-0.6582002197831555, ,0.01229310120161423,0.010856740729485729,0.00861016838918919,0.012748413264119619,0.0,0.046308984552865515, ,0.5967140197753906
0.010524642784188293,0.020967589417131907,-0.08183640236959179, ,0.010787029616939541,0.02076368340226915,-0.08208610891258306, ,0.0004156655753259957, ,0.002508191653910898,0.00021323447219672494,-0.009204811612053653,-0.013168151202863089,-0.002005269355217036,0.018744611653367604, ,0.009542801010514631, ,0.01331995665187219, ,3.616039252436644e-05, ,0.11204913127212342,-0.1461063832474535,0.09807470882000001,3.2902449032156715,1.3267404127224267,-0.6574651111218905, ,0.013512308352338144,0.013132707107455132,0.009260936930232559,0.039898168236842266,0.0,0.05988281505799084, ,0.6104550361633301
0.01055986353864603,0.020968991515672206,-0.08193210016733711, ,0.010826991978384489,0.020761773324538497,-0.08220123044075017, ,0.0004321204532548991, ,0.0032840719306155403,9.201541736350875e-05,-0.008608518449263415,-0.0029587780229770816,0.014068897464007014,-0.05638154015191194, ,0.00921412964819782, ,0.01437665454707208, ,3.675506928710509e-05, ,0.11218814046385946,-0.1459750967885917,0.09817193057000001,3.2917127328200633,1.3267404127224267,-0.6566483237204848, ,0.013403522818993048,0.012138263182203988,0.008752094241758242,0.1365849075179659,0.0,0.07985171141167927, ,0.6285619735717773
0.01061397664036087,0.020970279921621454,-0.0821287674584604, ,0.010867161982005425,0.020759719106060975,-0.08231632541436237, ,0.000378967889266744, ,0.002031359876514015,-4.303690142810532e-05,-0.007290561200635959,-0.01609446534458421,-0.01086007987681487,0.03629931157450988, ,0.007568392018322915, ,0.019415795864753574, ,3.715014202819927e-05, ,0.11250477251170266,-0.14565074200787426,0.09837026294000001,3.292341802650517,1.3268770492221922,-0.6552078455615107, ,0.01449250787392651,0.013298338222879872,0.0072900739221967974,0.0,0.0,0.03807558935524328, ,0.6427009105682373
0.010640530163222035,0.02096680017229459,-0.08219595749260095, ,0.010907537818595598,0.020757522266747222,-0.08243139204919157, ,0.00041294038336714547, ,0.0028756863116460177,-0.0004596133128771543,-0.006562959324434773,-0.007838216743948221,0.009410748918473013,-0.04402972713837571, ,0.00718005927931988, ,0.012247441559600175, ,3.775536346513542e-05, ,0.11274417723080361,-0.14539589182302484,0.09848692904,3.2944387020853623,1.3268770492221922,-0.6542277006798239, ,0.014298168081734336,0.014443978928229951,0.007111076571428573,0.16985501898186678,0.0,0.05241836459413855, ,0.655972957611084
0.010701783711429446,0.020960916103452343,-0.08234117431412107, ,0.010948117685184727,0.020755184321729295,-0.08254642856804106, ,0.00038096627329628843, ,0.002386941854268246,1.4806009272100035e-06,-0.00843390172710772,-0.023110450784400688,-0.007674446583314256,0.0706664422192433, ,0.008765169248243141, ,0.024351386472773604, ,3.823797000421503e-05, ,0.11293724555265923,-0.14521054623404345,0.09858544708000001,3.295487151802785,1.3270136857219577,-0.653277294961693, ,0.016538330700326034,0.014536908939716727,0.008423485732416712,0.005651656280840295,-0.0034163583999241567,0.07875197979682559, ,0.6676778793334961
0.010731605056683106,0.020960674529350118,-0.08244061300227071, ,0.010988899785030766,0.02075270678136733,-0.08266143320073499, ,0.00039775962777327393, ,0.002544351218699053,-0.00010996745692967995,-0.008984333898537502,-0.023866458955175016,-5.5133787389491026e-05,0.0692186292802555, ,0.009338312029809724, ,0.023866521410894927, ,3.8754325242705776e-05, ,0.11309942294301795,-0.14505609157655897,0.09867618738000002,3.295696841746269,1.3270136857219577,-0.6522971500800062, ,0.01498688274770543,0.01605972949034875,0.008878936187290971,0.0,-0.0034163583999241567,0.10522403014555465, ,0.6793298721313477
0.010767577291602848,0.02095800677308959,-0.08253034435572625, ,0.01102988232761145,0.020750091151254608,-0.08277640418410977, ,0.0004154254167267923, ,0.003973370993189394,-0.0002772032566091447,-0.00939894708715606,0.0007132242457761669,0.018558838552250944,-0.097083677409017, ,0.01020807156333423, ,0.018572536280324518, ,3.930522724653276e-05, ,0.11326932306625088,-0.1448784687204518,0.09877470542000001,3.2973743612941457,1.3268770492221922,-0.6511239085544827, ,0.015478215879704904,0.016954965438354615,0.009549647194244606,0.18297909953943067,0.003546113629415049,0.08505203048043802, ,0.6919229030609131
0.010773269966568005,0.020957584062833844,-0.08254714089916268, ,0.011071063528616533,0.020747338932223823,-0.0828913397620046, ,0.0005013550415867491, ,0.0038708455681974565,-0.0002111521491729761,-0.009638027245264292,-0.0004536094343472498,0.017796277479859405,-0.08375068981812984, ,0.01038843586991762, ,0.01780205523230534, ,4.0090800258685284e-05, ,0.11329249126487356,-0.1448475777889549,0.09879155719,3.29758405123763,1.3268770492221922,-0.6509605510742016, ,0.015020092047874451,0.01672782329604632,0.009784282260442262,0.17252339729866337,0.003546113629415049,0.08810299360739779, ,0.703636884689331
0.010826557317286845,0.0209590088007663,-0.08272900456586063, ,0.011112441609938786,0.020744451620352662,-0.08300623818525246, ,0.0004523528403505901, ,0.002431564021455117,0.00022003177059652223,-0.010150751787775712,-0.014074465734611755,-0.010861860706085713,0.05086618530951855, ,0.010440243264768242, ,0.017778371577421452, ,4.0706521301704115e-05, ,0.11357050964834564,-0.1445618366726086,0.09897563037000001,3.298632500955053,1.3270136857219577,-0.6495200729152271, ,0.015149575600011298,0.015058226207310501,0.010217326183450932,0.0,0.0049167655448913924,0.052525126151331966, ,0.7150568962097168
0.01090028523756207,0.02095788629137585,-0.08294097599583433, ,0.01115401479966653,0.020741430706969544,-0.08312109771167078, ,0.00037904556879386314, ,0.004074769326425395,-7.666494994988888e-05,-0.010529855027190173,-0.00976440716865186,0.009502481134392277,-0.13192954643358143, ,0.011291034915886596, ,0.013625001490339315, ,4.1091682561657365e-05, ,0.11391803262768574,-0.14421431369326848,0.09919081451000002,3.3009390903333826,1.3271503222217231,-0.6491414183780801, ,0.017528064565657697,0.016386969704450145,0.010598011656686628,0.1592534213235272,-0.009486750137363787,0.027567684820268702, ,0.7279629707336426
0.01090028523756207,0.02095788629137585,-0.08294097599583433, ,0.01119578133207469,0.020738277678659545,-0.08323591660605228, ,0.0004717370540959551, ,0.004074769326425395,-7.666494994988888e-05,-0.010529855027190173,-0.00976440716865186,0.009502481134392277,-0.13192954643358143, ,0.011291034915886596, ,0.013625001490339315, ,4.172423019852818e-05, ,0.11391803262768574,-0.14421431369326848,0.09919081451000002,3.3009390903333826,1.3271503222217231,-0.6491414183780801, ,0.017528064565657697,0.016386969704450145,0.010598011656686628,0.1592534213235272,-0.009486750137363787,0.027567684820268702, ,0.7413978576660156
0.010968436766543483,0.020955477301474238,-0.08314431846643693, ,0.011237739447617174,0.02073499401727014,-0.08335069314015556, ,0.0004046323252032333, ,0.0026366857552801264,-0.00029879233164588825,-0.008946030418652674,-0.031825946644955125,-0.0030191537430329877,0.08928239588442381, ,0.009331283345875125, ,0.03196883031754471, ,4.215043722618582e-05, ,0.11431961473714541,-0.14385906798105416,0.09939433204,3.3021972299942894,1.3270136857219577,-0.6473964256715724, ,0.01730117439534563,0.018326948929793505,0.008849339733333334,0.01730170407933229,-0.007443555932282398,0.10987945697254842, ,0.753896951675415
0.010997702141323938,0.020952666025664368,-0.08323220223572181, ,0.011279887392917985,0.020731581199916953,-0.08346542559269642, ,0.00042766827171473136, ,0.00279420316386717,-0.00018567889429874063,-0.008545080376073638,-0.00869208601887711,-0.004120716629552894,0.03309489585128872, ,0.00899224369144387, ,0.009619387680145898, ,4.274148923050135e-05, ,0.11448179212750413,-0.14368916785782124,0.09948118347000001,3.3028262998247433,1.3268770492221922,-0.64638654162633, ,0.01677513550618186,0.016308118501197934,0.008647563257328992,0.04458292081122627,0.008515791087003581,0.0786202514445207, ,0.7637009620666504
0.011040543429277056,0.020949533867974674,-0.08331982403478999, ,0.011322223420763423,0.020728040698989557,-0.08358011224933756, ,0.0004428914044584655, ,0.004238745331404942,-0.0002739175527157571,-0.009178985289946895,0.011311469572597509,0.017761178541007103,-0.14292560710543678, ,0.010114136827394342, ,0.021057272897943995, ,4.3357575139925965e-05, ,0.11465169225073707,-0.14353471320033673,0.09957062748,3.3049231992595884,1.3268770492221922,-0.6455697542249244, ,0.016232798761284774,0.01591162668653098,0.00942533226035503,0.20585320480010383,0.008515791087003581,0.060988092844520767, ,0.774418830871582
0.011079110909426091,0.020946978273314917,-0.08342259691634232, ,0.01136474579009368,0.020724373982157377,-0.08369475140268078, ,0.0004529989182436153, ,0.0032504417707652777,-7.9779522443796e-05,-0.009951839441807643,-0.008351103175435949,-0.005771536985472869,0.020662038433037617, ,0.010469519795714383, ,0.010151426786733114, ,4.3984129629432566e-05, ,0.11483703783971846,-0.14334936761135536,0.09967433068,3.3061813389204957,1.3268770492221922,-0.6445896093432376, ,0.019272327692622007,0.01726968909162344,0.010094303878326997,0.05326215510956779,0.008495728152217136,0.07481045488874595, ,0.7843070030212402
0.011111800500789845,0.020947152841563316,-0.08353215435006141, ,0.01140745276599445,0.02072058251237513,-0.08380934135225662, ,0.0004643027139432064, ,0.0031098075495092515,7.942941126776572e-05,-0.01126589656101469,-0.012856714733362487,-0.010154134554829716,0.041736282658812206, ,0.01168749919143705, ,0.016382960074804425, ,4.4623873257170896e-05, ,0.11503010616157407,-0.1431717447552482,0.09978451533,3.3066007188074646,1.3268770492221922,-0.6438545006819725, ,0.01883623294133997,0.018000178596068055,0.011377722514285715,0.0236951891624927,0.007464989913371319,0.06693457919531721, ,0.7944469451904297
0.011154366245110089,0.020946696332901398,-0.08364724463455804, ,0.011450342619689084,0.020716667747889234,-0.08392388040451583, ,0.0004658782174042509, ,0.0046234212446544555,-1.7624213399882772e-05,-0.012127038692073289,0.0038822990620049867,0.01021325724900072,-0.1126799350798161, ,0.012978497681067047, ,0.010926234820645763, ,4.525115711019001e-05, ,0.11522317448342968,-0.142994121899141,0.09990118143000001,3.3080685484118564,1.3268770492221922,-0.6431193920207074, ,0.01975373471242106,0.01816904873798024,0.01237669892773893,0.17561344888723568,0.006683929123795349,0.061944451879382474, ,0.8049318790435791
0.011178605531838387,0.02094660702030765,-0.08371373702160671, ,0.011493413628529691,0.02071263114224282,-0.0840383668728198, ,0.0005091496730404966, ,0.004281583708991227,5.112321156415956e-06,-0.012259311252646747,-0.0028240402760793806,0.005657539566909652,-0.0574076357598688, ,0.012985480259974902, ,0.0063231859475542385, ,4.597282519052048e-05, ,0.11533129274366882,-0.1428937263717761,0.09996858851000001,3.3089073081857943,1.3268770492221922,-0.6427926770601453, ,0.019823885848855395,0.018717345475043546,0.012463858779342725,0.1339130698430236,0.0063201378184193835,0.07642317681459745, ,0.8155150413513184
0.011239796862334003,0.020947598600887685,-0.08390368814299504, ,0.01153666407598944,0.02070847414428214,-0.08415279907743126, ,0.000455375565820266, ,0.0035467594656788,7.589610703003739e-05,-0.011906804544822009,-0.01358659197431768,-0.002895622715920851,0.03822895390258677, ,0.012424059618137645, ,0.013891719586542652, ,4.6540864081874796e-05, ,0.11564020205863781,-0.1426079852554298,0.10016043943000001,3.310375137790186,1.3268770492221922,-0.6412407809974745, ,0.019514073937583958,0.01839088014699046,0.012039918004535148,0.05691977565158933,0.005466575903964378,0.09655596627495734, ,0.8251888751983643
0.011276024839087488,0.020948383934448887,-0.0840206081955809, ,0.011580092251654047,0.02070419819816213,-0.08426717534550547, ,0.00046138814962323906, ,0.0038956166768834163,3.11559331628488e-05,-0.012372756157275486,-0.011913229116238317,-0.0018698183856342187,0.009635901584522787, ,0.01297158027816125, ,0.012059061274209153, ,4.7109729328675455e-05, ,0.11584099311336765,-0.14243036239932264,0.10027840182000002,3.3110042076206394,1.3268770492221922,-0.6402606361157879, ,0.020760652277066454,0.019303690308883396,0.012522650566037737,0.07787416766122067,0.00504637574530826,0.08865435134482175, ,0.8344278335571289
0.011322372976688031,0.020946624510717944,-0.08413946848482456, ,0.011623696451213491,0.020699804743352,-0.08438149401108089, ,0.00045857626325653206, ,0.004969784377666132,-0.00030323057532136285,-0.011851532416795535,-0.00045637058211389116,0.01471242720361383,-0.09713710285159363, ,0.012854941702266079, ,0.014719495728956249, ,4.765770873067338e-05, ,0.11604950690097171,-0.14223729407746702,0.10039895679000001,3.312681727168516,1.3268770492221922,-0.639280491234101, ,0.021885826005182372,0.020355414319706302,0.012076430265352543,0.1958824989673849,0.00468727867672593,0.09814249825153175, ,0.844916820526123
0.011334106680014628,0.020945635764703315,-0.08416896208575989, ,0.011667474976453852,0.02069529521464154,-0.08449575341506955, ,0.0005297144372093364, ,0.0048829361470635,-0.00030501313248685463,-0.011854373356392646,-0.0014983369712594776,0.013269857396548275,-0.09098454664814586, ,0.012824284233439332, ,0.013354171442238624, ,4.84827296608112e-05, ,0.11610356603109127,-0.14218323494734744,0.10042877146000001,3.3131011070554846,1.3268770492221922,-0.6390354550136794, ,0.02178034004096185,0.020496099688654595,0.012067281454545456,0.1868233221491248,0.004603227860231316,0.09539207278565473, ,0.8533868789672852
0.01140402789993911,0.020938880705452197,-0.08435834934609487, ,0.01171142613524907,0.020690671042146325,-0.08460995190524831, ,0.0004684074719756818, ,0.0030098638789327475,-0.000494846247284506,-0.010086606784572584,-0.027268774484630616,-0.01166867536892839,0.06945738881993832, ,0.010537731720097135, ,0.02966047778362781, ,4.9144118945949596e-05, ,0.1164897026748025,-0.14181254376938468,0.10062062238000001,3.314778626603361,1.3270136857219577,-0.6372682618941428, ,0.020585019860839646,0.022339204698321746,0.010030737732997482,0.007479517339575812,0.0,0.08001699174755716, ,0.8611109256744385
0.01145014499333575,0.020931817210844784,-0.08446789906787808, ,0.011755548241552609,0.02068593365131378,-0.08472408783624967, ,0.00046836156322738426, ,0.005574392395842493,-0.0006717349309209859,-0.012414939315258732,-0.009051694242813777,0.020835313637805004,-0.11611605534219989, ,0.01362555674465462, ,0.02271658354855188, ,4.979277070595816e-05, ,0.11670593919528079,-0.1415731390502837,0.10073210332000002,3.316456146151237,1.3271503222217231,-0.6363995349161524, ,0.024183726187174,0.024464279855238663,0.012552254940898346,0.23352644396822367,-0.003025300499832039,0.11751623560984514, ,0.869128942489624
0.01145014499333575,0.020931817210844784,-0.08446789906787808, ,0.011799839615389222,0.0206810844629291,-0.08483815956955182, ,0.0005676672252915097, ,0.005574392395842493,-0.0006717349309209859,-0.012414939315258732,-0.009051694242813777,0.020835313637805004,-0.11611605534219989, ,0.01362555674465462, ,0.02271658354855188, ,5.0663919978931386e-05, ,0.11670593919528079,-0.1415731390502837,0.10073210332000002,3.316456146151237,1.3271503222217231,-0.6363995349161524, ,0.024183726187174,0.024464279855238663,0.012552254940898346,0.23352644396822367,-0.003025300499832039,0.11751623560984514, ,0.8765509128570557
0.011507228396694656,0.02092733756129262,-0.08461135420014942, ,0.011844298582846559,0.02067612489312068,-0.08495216547347094, ,0.0005411805974585351, ,0.005186250043764088,-0.00015093421352072598,-0.014425227874846201,-0.017727143497507463,0.014540884400446007,-0.015564455437808312, ,0.015329943571145132, ,0.02292789373474836, ,5.1456718380670986e-05, ,0.11694534391438174,-0.14133373433118276,0.10086691748000001,3.3183433556425976,1.3271503222217231,-0.6350926750739034, ,0.023688702336113525,0.022916431190164403,0.014428271304347828,0.1760546719217667,-0.003025300499832039,0.14999220580530426, ,0.8853878974914551
0.011529414190578383,0.020926736491087214,-0.08467414938815324, ,0.011888923476067275,0.020671056353366274,-0.08506610392314976, ,0.0005901250856234382, ,0.005165817816853609,-8.755039673099489e-06,-0.014831547189088787,-0.020460018319137126,0.010117063515023044,0.015205026918816424, ,0.01570543034717003, ,0.022824692902732518, ,5.2348361564199425e-05, ,0.11706890764036934,-0.1412178933380694,0.10094080601000001,3.319182115416536,1.3271503222217231,-0.6343575664126384, ,0.025551142045899512,0.0222501621473554,0.014998880903954804,0.13990558069241227,-0.003025300499832039,0.15683410482104332, ,0.8938279151916504
0.011620871763063041,0.020927417206697878,-0.0849575280160085, ,0.011933712633240291,0.020665880250498474,-0.08517997330055052, ,0.0004644920818768459, ,0.005378582455295647,-6.58046678458403e-05,-0.017553133276613772,-0.021499902559878603,0.004769735540101546,0.0219590309920391, ,0.018358811707441476, ,0.022022591147043177, ,5.2934795209302986e-05, ,0.11750910341420014,-0.14080086576286127,0.10122598981000001,3.3214887047948656,1.3270136857219577,-0.6314690713441629, ,0.02604911928588273,0.027562283345475103,0.01769867946666667,0.12075934014790841,0.0025727581373703886,0.14480344532622597, ,0.901237964630127
0.011620871763063041,0.020927417206697878,-0.0849575280160085, ,0.011978664398593086,0.02066059798671073,-0.08529377199444477, ,0.0005588095196296598, ,0.005378582455295647,-6.58046678458403e-05,-0.017553133276613772,-0.021499902559878603,0.004769735540101546,0.0219590309920391, ,0.018358811707441476, ,0.022022591147043177, ,5.372538823616505e-05, ,0.11750910341420014,-0.14080086576286127,0.10122598981000001,3.3214887047948656,1.3270136857219577,-0.6314690713441629, ,0.02604911928588273,0.027562283345475103,0.01769867946666667,0.12075934014790841,0.0025727581373703886,0.14480344532622597, ,0.90920090675354
0.011677128801317136,0.020925241511221188,-0.08512723362654348, ,0.012023777122382678,0.020655210959562978,-0.08540749840040385, ,0.0005211812552206753, ,0.00583769881074565,-0.0003792614817674676,-0.015270690644919017,-0.011795512635872134,0.008425693541846021,-0.05789899652702249, ,0.016352876182780533, ,0.014495709696063376, ,5.441676453927118e-05, ,0.117779399064798,-0.14052284737938917,0.10139710009000001,3.3229565343992573,1.3270136857219577,-0.6299988540216326, ,0.028420767163363513,0.026382246749644362,0.015479894577259477,0.17961410413608583,0.0025727581373703886,0.12251732036983776, ,0.9172890186309814
0.011734911363873494,0.020920474749328177,-0.08527199938043638, ,0.012069049160888148,0.020649720561987495,-0.08552115092079057, ,0.0004970235280318102, ,0.005687815609301989,-0.0006385098998753134,-0.014227784926955589,-0.011541294747655738,0.007663795964014456,-0.062391768219507836, ,0.015335866627789992, ,0.013854048866893618, ,5.516513502002005e-05, ,0.11805741744827009,-0.14026027446166556,0.10154487715,3.324843743890618,1.3271503222217231,-0.6288850908232207, ,0.028159329839308835,0.027554280359602435,0.014402180397830021,0.1782136549494614,0.0036779425804448315,0.11664782380015035, ,0.9296488761901855
0.011795861009598502,0.02091338820682613,-0.08542477799933831, ,0.012114478876401952,0.020644128182294646,-0.08563472796474883, ,0.0004670088798223799, ,0.00532681095484858,-0.0006910263173514571,-0.012984972039402342,-0.015907349792273394,0.0010374756617061312,-0.015980689743215166, ,0.014052114829591586, ,0.015941134338888337, ,5.583665723552633e-05, ,0.1183817722289875,-0.1399590878795708,0.10169913566000001,3.3265212634384946,1.3271503222217231,-0.6275782309809717, ,0.029701703148191167,0.026754141967429035,0.01314258376237624,0.13749162943973892,0.0036779425804448315,0.12298251122753759, ,0.9356868267059326
0.011795861009598502,0.02091338820682613,-0.08542477799933831, ,0.012160064637221756,0.020638435204178743,-0.08574822794819568, ,0.000559341850262063, ,0.00532681095484858,-0.0006910263173514571,-0.012984972039402342,-0.015907349792273394,0.0010374756617061312,-0.015980689743215166, ,0.014052114829591586, ,0.015941134338888337, ,5.6703541922595986e-05, ,0.1186597906124596,-0.13971968316046984,0.10181191289000001,3.3275697131559174,1.3271503222217231,-0.6265164073591445, ,0.030671280400281442,0.0269517016638656,0.011887172776119406,0.0889324673076443,0.0036779425804448315,0.11039780109913075, ,0.9413189888000488
0.011842488163673864,0.020906761850185612,-0.08553651590929044, ,0.012205804817641965,0.020632643006723798,-0.08586164929381121, ,0.0005593316092635467, ,0.004850121685311059,-0.0008118848292185594,-0.011780330567892816,-0.02083754798550735,-0.007961365968585907,0.019246183277243676, ,0.012765540553657324, ,0.02230664760242315, ,5.7558972655553695e-05, ,0.1186597906124596,-0.13971968316046984,0.10181191289000001,3.3275697131559174,1.3271503222217231,-0.6265164073591445, ,0.030671280400281442,0.0269517016638656,0.011887172776119406,0.0889324673076443,0.0036779425804448315,0.11039780109913075, ,0.947523832321167
0.011902554391009254,0.020894584146176433,-0.08566915457909685, ,0.012251697797946074,0.020626752964409155,-0.08597499043102967, ,0.0005358826633338505, ,0.006275811693373528,-0.001299854527853644,-0.013258230224270902,-0.011830006762074404,0.011770317184723671,-0.09436206853207159, ,0.014726034866318766, ,0.016687990201211977, ,5.835199830046022e-05, ,0.11898414539317702,-0.13940305111262663,0.1019402456,3.329247232703793,1.3271503222217231,-0.6252095475168955, ,0.03145407409959256,0.032543532770394644,0.013285080500417015,0.22301650115790703,0.0036779425804448315,0.128128292514745, ,0.9539179801940918
0.011902554391009254,0.020894584146176433,-0.08566915457909685, ,0.012297741964397495,0.02062076644711559,-0.08608824979603003, ,0.0006378010280140079, ,0.006275811693373528,-0.001299854527853644,-0.013258230224270902,-0.011830006762074404,0.011770317184723671,-0.09436206853207159, ,0.014726034866318766, ,0.016687990201211977, ,5.935578362174575e-05, ,0.11898414539317702,-0.13940305111262663,0.1019402456,3.329247232703793,1.3271503222217231,-0.6252095475168955, ,0.03145407409959256,0.032543532770394644,0.013285080500417015,0.22301650115790703,0.0036779425804448315,0.128128292514745, ,0.9595978260040283
0.011967461400775219,0.02088533345350741,-0.0858084029503047, ,0.01234393570923214,0.02061468482013078,-0.08620142583172749, ,0.000607824459032891, ,0.006930486277587012,-0.0006950718975507119,-0.015764880026601653,-0.006895212238911717,0.020916187636587327,-0.08814322525967241, ,0.017235028495471958, ,0.022023394000593634, ,6.0281984285900175e-05, ,0.11930077744102023,-0.13910958726340608,0.10208672637,3.3317635120256077,1.3271503222217231,-0.6236576514542247, ,0.03170629520830965,0.028800285753708885,0.01605726967741936,0.2602446538270985,0.0036779425804448315,0.17217465951449604, ,0.9669489860534668
0.011967461400775219,0.02088533345350741,-0.0858084029503047, ,0.012390277430649785,0.02060850944415524,-0.08631451698776318, ,0.0007152316730858797, ,0.006286950441609528,-0.0006371539535734655,-0.017593446427273937,-0.02201926232334909,0.01364813487950561,0.020064162419507866, ,0.018693877826849264, ,0.02590594166119583, ,6.142627919002904e-05, ,0.11963285495461189,-0.13877750974981443,0.10226561439000001,3.334279791347422,1.3271503222217231,-0.6216156829507107, ,0.030049696503632293,0.03226689614364868,0.017757872374581943,0.17676081164483615,0.0036779425804448315,0.19892320001406788, ,0.9730358123779297
0.012039657991382721,0.02087712616512167,-0.08598518395953011, ,0.012436765532805512,0.020602241675308268,-0.0864275217204955, ,0.0006549187560077212, ,0.006286950441609528,-0.0006371539535734655,-0.017593446427273937,-0.02201926232334909,0.01364813487950561,0.020064162419507866, ,0.018693877826849264, ,0.02590594166119583, ,6.242764071861975e-05, ,0.11963285495461189,-0.13877750974981443,0.10226561439000001,3.334279791347422,1.3271503222217231,-0.6216156829507107, ,0.030049696503632293,0.03226689614364868,0.017757872374581943,0.17676081164483615,0.0036779425804448315,0.19892320001406788, ,0.9788739681243896
0.012105455149936242,0.020872793606973118,-0.08617941102001987, ,0.012483398425802235,0.020595882865133273,-0.08654043849299148, ,0.0005914909255084778, ,0.006943416355451705,-0.0003525286419379251,-0.020581383947137034,-0.024642153466557765,0.013046209431222396,0.05534232941509844, ,0.02172391935880841, ,0.027882532436050718, ,6.341627555775373e-05, ,0.11994948700245509,-0.1384454322362228,0.10246265047000001,3.3359573108952976,1.3272869587214886,-0.6195217748706119, ,0.03347334799240592,0.03373513741858186,0.020821975843137257,0.1749497232062954,0.005151265543016001,0.23273560820803932, ,0.9832289218902588
0.012105455149936242,0.020872793606973118,-0.08617941102001987, ,0.012530174525681654,0.02058943436060405,-0.08665326577501632, ,0.0006965754370268628, ,0.006943416355451705,-0.0003525286419379251,-0.020581383947137034,-0.024642153466557765,0.013046209431222396,0.05534232941509844, ,0.02172391935880841, ,0.027882532436050718, ,6.461826476853718e-05, ,0.11994948700245509,-0.1384454322362228,0.10246265047000001,3.3359573108952976,1.3272869587214886,-0.6195217748706119, ,0.03347334799240592,0.03373513741858186,0.020821975843137257,0.1749497232062954,0.005151265543016001,0.23273560820803932, ,0.9870209693908691
0.012105455149936242,0.020872793606973118,-0.08617941102001987, ,0.012577092254416356,0.020582897504130244,-0.08676600204302545, ,0.0008065794052891549, ,0.006943416355451705,-0.0003525286419379251,-0.020581383947137034,-0.024642153466557765,0.013046209431222396,0.05534232941509844, ,0.02172391935880841, ,0.027882532436050718, ,6.604125400331046e-05, ,0.11994948700245509,-0.1384454322362228,0.10246265047000001,3.3359573108952976,1.3272869587214886,-0.6195217748706119, ,0.03347334799240592,0.03373513741858186,0.020821975843137257,0.1749497232062954,0.005151265543016001,0.23273560820803932, ,0.9909079074859619
0.012182858918522972,0.02086922154952393,-0.08639466972432325, ,0.012624150039901527,0.020576273633563312,-0.08687864578015428, ,0.0007174880890237643, ,0.008358230963706895,-0.0003334280604483427,-0.022673495422511746,-0.008932128514481672,0.02271747856120338,-0.05207150901752272, ,0.024167304230898905, ,0.02441025931230465, ,6.726595187154717e-05, ,0.12030473271466942,-0.13809790925688267,0.10268301977000001,3.338263900273628,1.3275602317210193,-0.617294248473788, ,0.036331141484866304,0.03491425370068829,0.02308523408695653,0.27746049778505383,0.009348691191377677,0.22583862540865424, ,0.9950180053710938
0.012182858918522972,0.02086922154952393,-0.08639466972432325, ,0.012671346315946795,0.02056956408220216,-0.08699119547620937, ,0.0008271985903197017, ,0.008358230963706895,-0.0003334280604483427,-0.022673495422511746,-0.008932128514481672,0.02271747856120338,-0.05207150901752272, ,0.024167304230898905, ,0.02441025931230465, ,6.870900746858178e-05, ,0.12030473271466942,-0.13809790925688267,0.10268301977000001,3.338263900273628,1.3275602317210193,-0.617294248473788, ,0.036331141484866304,0.03491425370068829,0.02308523408695653,0.27746049778505383,0.009348691191377677,0.22583862540865424, ,1.0018210411071777
0.012182858918522972,0.02086922154952393,-0.08639466972432325, ,0.012718679522267629,0.020562770178799115,-0.08710364962766004, ,0.0009400365234137733, ,0.008358230963706895,-0.0003334280604483427,-0.022673495422511746,-0.008932128514481672,0.02271747856120338,-0.05207150901752272, ,0.024167304230898905, ,0.02441025931230465, ,7.037419109612661e-05, ,0.12030473271466942,-0.13809790925688267,0.10268301977000001,3.338263900273628,1.3275602317210193,-0.617294248473788, ,0.036331141484866304,0.03491425370068829,0.02308523408695653,0.27746049778505383,0.009348691191377677,0.22583862540865424, ,1.0061140060424805
0.012182858918522972,0.02086922154952393,-0.08639466972432325, ,0.012766148104477366,0.020555893247565446,-0.0872160067376274, ,0.0010549859661070924, ,0.008358230963706895,-0.0003334280604483427,-0.022673495422511746,-0.008932128514481672,0.02271747856120338,-0.05207150901752272, ,0.024167304230898905, ,0.02441025931230465, ,7.226311172404983e-05, ,0.12030473271466942,-0.13809790925688267,0.10268301977000001,3.338263900273628,1.3275602317210193,-0.617294248473788, ,0.036331141484866304,0.03491425370068829,0.02308523408695653,0.27746049778505383,0.009348691191377677,0.22583862540865424, ,1.0102260112762451
0.012232151693949575,0.02086780119514971,-0.0865234640234862, ,0.012813750514078973,0.020548934608177454,-0.08732826531587708, ,0.001042898944336065, ,0.009404220518975945,-0.0002753519122566219,-0.023935289443872652,-0.0032409262493944165,0.030289315557870483,-0.08682716335424617, ,0.02571795604256048, ,0.030462081085572613, ,7.411161526497158e-05, ,0.1205209692351477,-0.13790484093502706,0.10281524135000002,3.339941419821504,1.3276968682207848,-0.6160171277950948, ,0.040108597446521885,0.03503024789902945,0.0244682204608295,0.34066720607159684,0.009538455519840483,0.2534490352903345, ,1.0140578746795654
0.012409926923383044,0.020864567239524665,-0.08698130913397599, ,0.012861485208456381,0.02054189557578209,-0.08744042387880832, ,0.0007202834416555969, ,0.008189856578788225,2.7892187507506765e-05,-0.02461726332641872,-0.010064426398810531,0.013741020435046731,0.054388881497849775, ,0.02594386598865876, ,0.017032301098210436, ,7.528386979596677e-05, ,0.12126235159107325,-0.13726385410646644,0.10328320204000001,3.346441808069524,1.3278335047205503,-0.6108194275896547, ,0.03788301060218394,0.0347607844536523,0.0251243083911672,0.20994896054030404,0.018754916173438135,0.2653667441231282, ,1.0179309844970703
0.012409926923383044,0.020864567239524665,-0.08698130913397599, ,0.012909350650867046,0.020534777461002518,-0.08755248094944593, ,0.0008272983744568372, ,0.008189856578788225,2.7892187507506765e-05,-0.02461726332641872,-0.010064426398810531,0.013741020435046731,0.054388881497849775, ,0.02594386598865876, ,0.017032301098210436, ,7.666495272426249e-05, ,0.12126235159107325,-0.13726385410646644,0.10328320204000001,3.346441808069524,1.3278335047205503,-0.6108194275896547, ,0.03788301060218394,0.0347607844536523,0.0251243083911672,0.20994896054030404,0.018754916173438135,0.2653667441231282, ,1.0217080116271973
0.01248881435080927,0.02086326766777377,-0.08722786592082654, ,0.012957345310432617,0.020527581569944484,-0.08766443505743071, ,0.0009380230590333198, ,0.008235080960584822,-0.0002981618688791005,-0.026378758190441533,-0.023953030552701468,-0.009142670428037698,0.14626796384945986, ,0.027620887249055398, ,0.02563831747282221, ,7.825985750797143e-05, ,0.1216871018991556,-0.1368777174627552,0.10353597859000001,3.347699947730431,1.3282434142198467,-0.6083766041359648, ,0.04542697058806643,0.042920371577779635,0.026816181010101015,0.11090624089912145,0.024627281059031236,0.26028307351200997, ,1.0262298583984375
0.01248881435080927,0.02086326766777377,-0.08722786592082654, ,0.013005467662131523,0.02052030920420146,-0.08777628473900999, ,0.0008278371530523736, ,0.008235080960584822,-0.0002981618688791005,-0.026378758190441533,-0.023953030552701468,-0.009142670428037698,0.14626796384945986, ,0.02763592485510891, ,0.02563831747282221, ,7.961879969023142e-05, ,0.1216871018991556,-0.1368777174627552,0.10353597859000001,3.347699947730431,1.3282434142198467,-0.6083766041359648, ,0.04542697058806643,0.042920371577779635,0.026816181010101015,0.11090624089912145,0.024627281059031236,0.26028307351200997, ,1.030216932296753
0.01248881435080927,0.02086326766777377,-0.08722786592082654, ,0.013053716186790326,0.020512961660860866,-0.08788802853702908, ,0.0009368260578172527, ,0.008235080960584822,-0.0002981618688791005,-0.026378758190441533,-0.023953030552701468,-0.009142670428037698,0.14626796384945986, ,0.02763592485510891, ,0.02563831747282221, ,8.118651835643462e-05, ,0.1216871018991556,-0.1368777174627552,0.10353597859000001,3.347699947730431,1.3282434142198467,-0.6083766041359648, ,0.04542697058806643,0.042920371577779635,0.026816181010101015,0.11090624089912145,0.024627281059031236,0.26028307351200997, ,1.0339248180389404
0.01248881435080927,0.02086326766777377,-0.08722786592082654, ,0.013102089371075548,0.020505540232509625,-0.08799966500092098, ,0.0010486891762852726, ,0.008235080960584822,-0.0002981618688791005,-0.026378758190441533,-0.023953030552701468,-0.009142670428037698,0.14626796384945986, ,0.02763592485510891, ,0.02563831747282221, ,8.296626964071655e-05, ,0.1216871018991556,-0.1368777174627552,0.10353597859000001,3.347699947730431,1.3282434142198467,-0.6083766041359648, ,0.04542697058806643,0.042920371577779635,0.026816181010101015,0.11090624089912145,0.024627281059031236,0.26028307351200997, ,1.0415148735046387
0.012661020329118491,0.02085338643217507,-0.08767297754082731, ,0.013150585707485528,0.02049804620724009,-0.08811119268669851, ,0.0007469762039204578, ,0.01178217643199033,-0.0006224142472068738,-0.028198068262676002,0.020397036202954064,0.0354754927669729,-0.13893883438665772, ,0.030566945132221017, ,0.04092104403804724, ,8.429695087173807e-05, ,0.1224130387893327,-0.13619039423694923,0.10398968009000001,3.3537809560914824,1.328380050719612,-0.6035872976312274, ,0.04942549039503686,0.042612007884360474,0.029067174306569344,0.4468730533364266,0.03116094113907246,0.30517947363257614, ,1.0446338653564453
0.012661020329118491,0.02085338643217507,-0.08767297754082731, ,0.013199203694341563,0.020490480868655663,-0.08822261015694378, ,0.0008505514654241718, ,0.01178217643199033,-0.0006224142472068738,-0.028198068262676002,0.020397036202954064,0.0354754927669729,-0.13893883438665772, ,0.030566945132221017, ,0.04092104403804724, ,8.582945990084293e-05, ,0.1224130387893327,-0.13619039423694923,0.10398968009000001,3.3537809560914824,1.328380050719612,-0.6035872976312274, ,0.04942549039503686,0.042612007884360474,0.029067174306569344,0.4468730533364266,0.03116094113907246,0.30517947363257614, ,1.0467188358306885
0.012661020329118491,0.02085338643217507,-0.08767297754082731, ,0.013247941835780866,0.020482845495876704,-0.0883339159808, ,0.0009584451272186773, ,0.01178217643199033,-0.0006224142472068738,-0.028198068262676002,0.020397036202954064,0.0354754927669729,-0.13893883438665772, ,0.030566945132221017, ,0.04092104403804724, ,8.757120773980068e-05, ,0.1224130387893327,-0.13619039423694923,0.10398968009000001,3.3537809560914824,1.328380050719612,-0.6035872976312274, ,0.04942549039503686,0.042612007884360474,0.029067174306569344,0.4468730533364266,0.03116094113907246,0.30517947363257614, ,1.0487089157104492
0.012661020329118491,0.02085338643217507,-0.08767297754082731, ,0.013296798641746915,0.020475141363546334,-0.088445108733962, ,0.001069331554833296, ,0.01178217643199033,-0.0006224142472068738,-0.028198068262676002,0.020397036202954064,0.0354754927669729,-0.13893883438665772, ,0.030566945132221017, ,0.04092104403804724, ,8.952690564237737e-05, ,0.1224130387893327,-0.13619039423694923,0.10398968009000001,3.3537809560914824,1.328380050719612,-0.6035872976312274, ,0.04942549039503686,0.042612007884360474,0.029067174306569344,0.4468730533364266,0.03116094113907246,0.30517947363257614, ,1.0506939888000488
0.012775475875991149,0.02084309512076643,-0.08796295323375072, ,0.013345772627982073,0.020467369741836203,-0.08855618699866673, ,0.0009046182872018881, ,0.01178217643199033,-0.0006224142472068738,-0.028198068262676002,0.020397036202954064,0.0354754927669729,-0.13893883438665772, ,0.030566945132221017, ,0.04092104403804724, ,0.0004983383143442971, ,0.12294590735765419,-0.13569613933299887,0.10428523421000001,3.3573456851307193,1.3285166872193777,-0.6002682084490203, ,0.04866509823511321,0.04663240371423625,0.0257747759223301,0.19240173527261623,0.0,0.30425788518696456, ,1.0526180267333984
0.012775475875991149,0.02084309512076643,-0.08796295323375072, ,0.01339486231601901,0.020459531896452065,-0.08866714936368392, ,0.001013238618761497, ,0.009185702425896041,-0.0010176503565237256,-0.025533187974071506,-0.04446596523727275,0.008054375963826091,0.1070239990102628, ,0.02715430775078818, ,0.04518942558014548, ,0.0005038748767573853, ,0.12294590735765419,-0.13569613933299887,0.10428523421000001,3.3573456851307193,1.3285166872193777,-0.6002682084490203, ,0.04866509823511321,0.04663240371423625,0.0257747759223301,0.19240173527261623,0.0,0.30425788518696456, ,1.0545580387115479
0.012775475875991149,0.02084309512076643,-0.08796295323375072, ,0.01344406623317276,0.020451629088639813,-0.08877799442430785, ,0.0011245225041456362, ,0.009185702425896041,-0.0010176503565237256,-0.025533187974071506,-0.04446596523727275,0.008054375963826091,0.1070239990102628, ,0.02715430775078818, ,0.04518942558014548, ,0.0005104775110913029, ,0.12294590735765419,-0.13569613933299887,0.10428523421000001,3.3573456851307193,1.3285166872193777,-0.6002682084490203, ,0.04866509823511321,0.04663240371423625,0.0257747759223301,0.19240173527261623,0.0,0.30425788518696456, ,1.0564789772033691
0.012775475875991149,0.02084309512076643,-0.08796295323375072, ,0.013493382912531809,0.02044366257519125,-0.08888872078234689, ,0.001237732776334621, ,0.009185702425896041,-0.0010176503565237256,-0.025533187974071506,-0.04446596523727275,0.008054375963826091,0.1070239990102628, ,0.02715430775078818, ,0.04518942558014548, ,0.0005181328296728115, ,0.12294590735765419,-0.13569613933299887,0.10428523421000001,3.3573456851307193,1.3285166872193777,-0.6002682084490203, ,0.04866509823511321,0.04663240371423625,0.0257747759223301,0.19240173527261623,0.0,0.30425788518696456, ,1.058391809463501
0.012775475875991149,0.02084309512076643,-0.08796295323375072, ,0.01354281089295046,0.02043563360844968,-0.08899932704611546, ,0.0013523677721784192, ,0.009185702425896041,-0.0010176503565237256,-0.025533187974071506,-0.04446596523727275,0.008054375963826091,0.1070239990102628, ,0.02715430775078818, ,0.04518942558014548, ,0.0005268227769905782, ,0.12294590735765419,-0.13569613933299887,0.10428523421000001,3.3573456851307193,1.3285166872193777,-0.6002682084490203, ,0.04866509823511321,0.04663240371423625,0.0257747759223301,0.19240173527261623,0.0,0.30425788518696456, ,1.060338020324707
0.012775475875991149,0.02084309512076643,-0.08796295323375072, ,0.013592348719040307,0.02042754343631589,-0.0891098118304235, ,0.0014680766618004517, ,0.009185702425896041,-0.0010176503565237256,-0.025533187974071506,-0.04446596523727275,0.008054375963826091,0.1070239990102628, ,0.02715430775078818, ,0.04518942558014548, ,0.0005365264252875872, ,0.12347877592597568,-0.1351709934975516,0.10457689946000001,3.3607007242264717,1.3285166872193777,-0.5968377013631168, ,0.06036701116951067,0.05919958924421134,0.03555538285714287,0.536136085213865,0.0,0.38714243870815, ,1.0626628398895264
0.012888116809760998,0.020829395114071857,-0.08825107774447466, ,0.013641994941162066,0.020419393302253855,-0.08922017375656874, ,0.0012944422750186494, ,0.014423689372150012,-0.00150715342296554,-0.034976724773922795,-0.02065443633454559,0.051071145279751776,-0.15030923326062728, ,0.03786404102120341, ,0.05508915749050011, ,0.0005442602604889246, ,0.12347877592597568,-0.1351709934975516,0.10457689946000001,3.3607007242264717,1.3285166872193777,-0.5968377013631168, ,0.06036701116951067,0.05919958924421134,0.03555538285714287,0.536136085213865,0.0,0.38714243870815, ,1.0648138523101807
0.012888116809760998,0.020829395114071857,-0.08825107774447466, ,0.013691748115417152,0.02041118444529638,-0.08933041145232655, ,0.0014091432474427703, ,0.014423689372150012,-0.00150715342296554,-0.034976724773922795,-0.02065443633454559,0.051071145279751776,-0.15030923326062728, ,0.03786404102120341, ,0.05508915749050011, ,0.0005529964522763372, ,0.12347877592597568,-0.1351709934975516,0.10457689946000001,3.3607007242264717,1.3285166872193777,-0.5968377013631168, ,0.06036701116951067,0.05919958924421134,0.03555538285714287,0.536136085213865,0.0,0.38714243870815, ,1.0666429996490479
0.012888116809760998,0.020829395114071857,-0.08825107774447466, ,0.013741606803639618,0.02040291810005121,-0.08944052355194063, ,0.0015248308568615932, ,0.014423689372150012,-0.00150715342296554,-0.034976724773922795,-0.02065443633454559,0.051071145279751776,-0.15030923326062728, ,0.03786404102120341, ,0.05508915749050011, ,0.0005627147963221897, ,0.12347877592597568,-0.1351709934975516,0.10457689946000001,3.3607007242264717,1.3285166872193777,-0.5968377013631168, ,0.06036701116951067,0.05919958924421134,0.03555538285714287,0.536136085213865,0.0,0.38714243870815, ,1.068509817123413
0.012888116809760998,0.020829395114071857,-0.08825107774447466, ,0.013791569573387693,0.020394595496706486,-0.08955050869611449, ,0.0016412795013176068, ,0.014423689372150012,-0.00150715342296554,-0.034976724773922795,-0.02065443633454559,0.051071145279751776,-0.15030923326062728, ,0.03786404102120341, ,0.05508915749050011, ,0.0005733936547874909, ,0.12347877592597568,-0.1351709934975516,0.10457689946000001,3.3607007242264717,1.3285166872193777,-0.5968377013631168, ,0.06036701116951067,0.05919958924421134,0.03555538285714287,0.536136085213865,0.0,0.38714243870815, ,1.070389986038208
0.01306185963141464,0.020814161282977153,-0.08864426312978539, ,0.01384163499793565,0.02038621786103666,-0.08966036553200171, ,0.0013504255945459903, ,0.019751735567680683,-0.001224086646284461,-0.04492932810697617,0.01351232114407385,0.11689450766987487,-0.35936046788592385, ,0.04909454114458666, ,0.11767211080969257, ,0.0005810116149812017, ,0.12409659455591365,-0.1345686203333621,0.10497874936000001,3.368668942078884,1.3285166872193777,-0.592100334434964, ,0.06678180264494778,0.06202414480945802,0.04603702751445087,0.9359498821423303,0.0,0.5730126500773283, ,1.0731358528137207
0.01306185963141464,0.020814161282977153,-0.08864426312978539, ,0.013891801656265504,0.0203777864144084,-0.08977009271319725, ,0.0014651686051158968, ,0.019751735567680683,-0.001224086646284461,-0.04492932810697617,0.01351232114407385,0.11689450766987487,-0.35936046788592385, ,0.04909454114458666, ,0.11767211080969257, ,0.0005895956634291113, ,0.12409659455591365,-0.1345686203333621,0.10497874936000001,3.368668942078884,1.3285166872193777,-0.592100334434964, ,0.06678180264494778,0.06202414480945802,0.04603702751445087,0.9359498821423303,0.0,0.5730126500773283, ,1.0763218402862549
0.01306185963141464,0.020814161282977153,-0.08864426312978539, ,0.013942068133058916,0.02036930237378612,-0.08987968889972715, ,0.001580804633245264, ,0.019751735567680683,-0.001224086646284461,-0.04492932810697617,0.01351232114407385,0.11689450766987487,-0.35936046788592385, ,0.04909454114458666, ,0.11767211080969257, ,0.0005991265189081128, ,0.12409659455591365,-0.1345686203333621,0.10497874936000001,3.368668942078884,1.3285166872193777,-0.592100334434964, ,0.06678180264494778,0.06202414480945802,0.04603702751445087,0.9359498821423303,0.0,0.5730126500773283, ,1.0784080028533936
0.01306185963141464,0.020814161282977153,-0.08864426312978539, ,0.013992433018688681,0.02036076695173789,-0.08998915275804112, ,0.0016971332772921551, ,0.019751735567680683,-0.001224086646284461,-0.04492932810697617,0.01351232114407385,0.11689450766987487,-0.35936046788592385, ,0.04909454114458666, ,0.11767211080969257, ,0.0006095837261308179, ,0.12409659455591365,-0.1345686203333621,0.10497874936000001,3.368668942078884,1.3285166872193777,-0.592100334434964, ,0.06678180264494778,0.06202414480945802,0.04603702751445087,0.9359498821423303,0.0,0.5730126500773283, ,1.0806279182434082
0.013257379706090294,0.020807472848588054,-0.08911374460123452, ,0.01404289490921029,0.020352181356441332,-0.09009848296100119, ,0.0013394155868698104, ,0.02017113744627566,-0.0003731258350378533,-0.05266875475076126,-0.018849198773298374,0.10299791490093209,-0.05498751830735123, ,0.056400458648499956, ,0.10470653025923701, ,0.0006164689323642047, ,0.12478391778171963,-0.13396624716917258,0.10546096924000001,3.3772662297617493,1.328653323719143,-0.5855957743872748, ,0.0749580896986341,0.06622256912663697,0.05381355243243244,0.7808090986478289,0.0,0.7264885317135232, ,1.084317922592163
0.013257379706090294,0.020807472848588054,-0.08911374460123452, ,0.0140934524063543,0.020343546791689177,-0.09020767818787481, ,0.0014529059289493567, ,0.02017113744627566,-0.0003731258350378533,-0.05266875475076126,-0.018849198773298374,0.10299791490093209,-0.05498751830735123, ,0.056400458648499956, ,0.10470653025923701, ,0.0006242861005565893, ,0.12478391778171963,-0.13396624716917258,0.10546096924000001,3.3772662297617493,1.328653323719143,-0.5855957743872748, ,0.0749580896986341,0.06622256912663697,0.05381355243243244,0.7808090986478289,0.0,0.7264885317135232, ,1.0863690376281738
0.013257379706090294,0.020807472848588054,-0.08911374460123452, ,0.014144104117517686,0.02033486445689507,-0.09031673712432302, ,0.0015674277923804739, ,0.02017113744627566,-0.0003731258350378533,-0.05266875475076126,-0.018849198773298374,0.10299791490093209,-0.05498751830735123, ,0.056400458648499956, ,0.10470653025923701, ,0.000633018893999403, ,0.12478391778171963,-0.13396624716917258,0.10546096924000001,3.3772662297617493,1.328653323719143,-0.5855957743872748, ,0.0749580896986341,0.06622256912663697,0.05381355243243244,0.7808090986478289,0.0,0.7264885317135232, ,1.0884809494018555
0.013257379706090294,0.020807472848588054,-0.08911374460123452, ,0.01419484865575529,0.020326135547099708,-0.09042565846239412, ,0.0016827512021962024, ,0.02017113744627566,-0.0003731258350378533,-0.05266875475076126,-0.018849198773298374,0.10299791490093209,-0.05498751830735123, ,0.056400458648499956, ,0.10470653025923701, ,0.000642649465634236, ,0.12478391778171963,-0.13396624716917258,0.10546096924000001,3.3772662297617493,1.328653323719143,-0.5855957743872748, ,0.0749580896986341,0.06622256912663697,0.05381355243243244,0.7808090986478289,0.0,0.7264885317135232, ,1.0905029773712158
0.013432999950135225,0.020811728977607587,-0.08965833858430114, ,0.014245684639772325,0.020317361252976136,-0.09053444090051185, ,0.0017987034199316546, ,0.014506850054830479,0.0007678437183814904,-0.05266249064762426,-0.0738497499127098,0.010675197467489246,0.5253889884127279, ,0.056398601853800544, ,0.07461461220625122, ,0.0006531590470369398, ,0.12554074560339362,-0.13329436940911504,0.10601578136,3.3816697185749245,1.3287899602189084,-0.5781927481980397, ,0.07232998594395638,0.06682883208343011,0.053452387651006725,0.14355265752206497,0.021318435979250015,0.6780762994013236, ,1.093139886856079
0.013432999950135225,0.020811728977607587,-0.08965833858430114, ,0.014296610693915236,0.020308542760835706,-0.09064308314346832, ,0.0014031185738670935, ,0.014506850054830479,0.0007678437183814904,-0.05266249064762426,-0.0738497499127098,0.010675197467489246,0.5253889884127279, ,0.05462944447548689, ,0.07461461220625122, ,0.0006599154391705448, ,0.12554074560339362,-0.13329436940911504,0.10601578136,3.3816697185749245,1.3287899602189084,-0.5781927481980397, ,0.07232998594395638,0.06682883208343011,0.053452387651006725,0.14355265752206497,0.021318435979250015,0.6780762994013236, ,1.0951669216156006
0.013432999950135225,0.020811728977607587,-0.08965833858430114, ,0.014347625448164078,0.02029968125263405,-0.09075158390241277, ,0.001514568585395886, ,0.014506850054830479,0.0007678437183814904,-0.05266249064762426,-0.0738497499127098,0.010675197467489246,0.5253889884127279, ,0.05462944447548689, ,0.07461461220625122, ,0.0006675462708332712, ,0.12554074560339362,-0.13329436940911504,0.10601578136,3.3816697185749245,1.3287899602189084,-0.5781927481980397, ,0.07232998594395638,0.06682883208343011,0.053452387651006725,0.14355265752206497,0.021318435979250015,0.6780762994013236, ,1.0970399379730225
0.013432999950135225,0.020811728977607587,-0.08965833858430114, ,0.014398727538124042,0.02029077790597667,-0.09085994189484477, ,0.0016272277987870979, ,0.014506850054830479,0.0007678437183814904,-0.05266249064762426,-0.0738497499127098,0.010675197467489246,0.5253889884127279, ,0.05462944447548689, ,0.07461461220625122, ,0.0006760390277178183, ,0.12554074560339362,-0.13329436940911504,0.10601578136,3.3816697185749245,1.3287899602189084,-0.5781927481980397, ,0.07232998594395638,0.06682883208343011,0.053452387651006725,0.14355265752206497,0.021318435979250015,0.6780762994013236, ,1.0988938808441162
0.013432999950135225,0.020811728977607587,-0.08965833858430114, ,0.014449915605017159,0.020281833894124596,-0.09096815584460233, ,0.001740841033531295, ,0.014506850054830479,0.0007678437183814904,-0.05266249064762426,-0.0738497499127098,0.010675197467489246,0.5253889884127279, ,0.05462944447548689, ,0.07461461220625122, ,0.0006853793961898664, ,0.12554074560339362,-0.13329436940911504,0.10601578136,3.3816697185749245,1.3287899602189084,-0.5781927481980397, ,0.07232998594395638,0.06682883208343011,0.053452387651006725,0.14355265752206497,0.021318435979250015,0.6780762994013236, ,1.100766897201538
0.013432999950135225,0.020811728977607587,-0.08965833858430114, ,0.014501188295674088,0.020272850386000487,-0.09107622448185501, ,0.0018552134369176107, ,0.014506850054830479,0.0007678437183814904,-0.05266249064762426,-0.0738497499127098,0.010675197467489246,0.5253889884127279, ,0.05462944447548689, ,0.07461461220625122, ,0.000695551866109238, ,0.12554074560339362,-0.13329436940911504,0.10601578136,3.3816697185749245,1.3287899602189084,-0.5781927481980397, ,0.07232998594395638,0.06682883208343011,0.053452387651006725,0.14355265752206497,0.021318435979250015,0.6780762994013236, ,1.102694034576416
0.013632465193433304,0.02080796841206528,-0.09026105830812849, ,0.014552544262525814,0.020263828546194167,-0.09118414654309329, ,0.0014123475409908155, ,0.02188063793743739,-0.0010160575759832792,-0.057683657040721356,0.10742664898857612,0.026706748370646446,-0.09441539982696447, ,0.061702503832004256, ,0.1106937065508099, ,0.0007017311391685619, ,0.12645975081542635,-0.1324294233272019,0.10664059314000002,3.3860732073880992,1.3302929617163284,-0.5716588648253469, ,0.09115940591591815,0.08324293119164104,0.06010872271698114,0.703623709868333,0.14775983699745732,0.5990296064390233, ,1.1046619415283203
0.013632465193433304,0.02080796841206528,-0.09026105830812849, ,0.014603982163595352,0.020254769534968534,-0.09129192077112012, ,0.0015207076111268514, ,0.02188063793743739,-0.0010160575759832792,-0.057683657040721356,0.10742664898857612,0.026706748370646446,-0.09441539982696447, ,0.061702503832004256, ,0.1106937065508099, ,0.0007087309380741884, ,0.12645975081542635,-0.1324294233272019,0.10664059314000002,3.3860732073880992,1.3302929617163284,-0.5716588648253469, ,0.09115940591591815,0.08324293119164104,0.06010872271698114,0.703623709868333,0.14775983699745732,0.5990296064390233, ,1.1065490245819092
0.013632465193433304,0.02080796841206528,-0.09026105830812849, ,0.014655500662489626,0.020245674508265258,-0.09139954591504106, ,0.0016306225916169158, ,0.02188063793743739,-0.0010160575759832792,-0.057683657040721356,0.10742664898857612,0.026706748370646446,-0.09441539982696447, ,0.061702503832004256, ,0.1106937065508099, ,0.0007165435792059065, ,0.12645975081542635,-0.1324294233272019,0.10664059314000002,3.3860732073880992,1.3302929617163284,-0.5716588648253469, ,0.09115940591591815,0.08324293119164104,0.06010872271698114,0.703623709868333,0.14775983699745732,0.5990296064390233, ,1.1084859371185303
0.013632465193433304,0.02080796841206528,-0.09026105830812849, ,0.014707098428391107,0.020236544617710586,-0.0915070207302559, ,0.0017417761336590348, ,0.02188063793743739,-0.0010160575759832792,-0.057683657040721356,0.10742664898857612,0.026706748370646446,-0.09441539982696447, ,0.061702503832004256, ,0.1106937065508099, ,0.0007251589788231596, ,0.12645975081542635,-0.1324294233272019,0.10664059314000002,3.3860732073880992,1.3302929617163284,-0.5716588648253469, ,0.09115940591591815,0.08324293119164104,0.06010872271698114,0.703623709868333,0.14775983699745732,0.5990296064390233, ,1.110365867614746
0.013632465193433304,0.02080796841206528,-0.09026105830812849, ,0.014758774136049603,0.020227381010621177,-0.09161434397844864, ,0.0018539243971712916, ,0.02188063793743739,-0.0010160575759832792,-0.057683657040721356,0.10742664898857612,0.026706748370646446,-0.09441539982696447, ,0.061702503832004256, ,0.1106937065508099, ,0.0007345653573093939, ,0.12645975081542635,-0.1324294233272019,0.10664059314000002,3.3860732073880992,1.3302929617163284,-0.5716588648253469, ,0.09115940591591815,0.08324293119164104,0.06010872271698114,0.703623709868333,0.14775983699745732,0.5990296064390233, ,1.1122899055480957
0.01389478861568158,0.02078929847074197,-0.09088112679461303, ,0.014810526465773821,0.020218184830009794,-0.0917215144275788, ,0.0013678442800127933, ,0.025834312241974015,-0.002462705916369285,-0.05739923169049987,0.06178011235682132,0.09018367027921599,-0.33316247748894706, ,0.06299324097159958, ,0.10931264157039629, ,0.0007397990674143808, ,0.1274559833562013,-0.13153358631379186,0.10728614556,3.396557704562326,1.3315226902142172,-0.5648204669051207, ,0.1014940551427495,0.0870614142738264,0.05943586388059702,1.0478527960706936,0.06582957590062084,0.7074785929383838, ,1.114197015762329
0.01389478861568158,0.02078929847074197,-0.09088112679461303, ,0.014862354103423419,0.020208957214591105,-0.09182853085187209, ,0.0014732798085804306, ,0.025834312241974015,-0.002462705916369285,-0.05739923169049987,0.06178011235682132,0.09018367027921599,-0.33316247748894706, ,0.06299324097159958, ,0.10931264157039629, ,0.0007458112046370534, ,0.1274559833562013,-0.13153358631379186,0.10728614556,3.396557704562326,1.3315226902142172,-0.5648204669051207, ,0.1014940551427495,0.0870614142738264,0.05943586388059702,1.0478527960706936,0.06582957590062084,0.7074785929383838, ,1.1161608695983887
0.01389478861568158,0.02078929847074197,-0.09088112679461303, ,0.014914255740400544,0.020199699298787496,-0.0919353920318112, ,0.0015806377169726945, ,0.025834312241974015,-0.002462705916369285,-0.05739923169049987,0.06178011235682132,0.09018367027921599,-0.33316247748894706, ,0.06299324097159958, ,0.10931264157039629, ,0.0007525984120544164, ,0.1274559833562013,-0.13153358631379186,0.10728614556,3.396557704562326,1.3315226902142172,-0.5648204669051207, ,0.1014940551427495,0.0870614142738264,0.05943586388059702,1.0478527960706936,0.06582957590062084,0.7074785929383838, ,1.1181809902191162
0.01389478861568158,0.02078929847074197,-0.09088112679461303, ,0.014966230073641586,0.020190412212734907,-0.09204209675412674, ,0.0016895273879870708, ,0.025834312241974015,-0.002462705916369285,-0.05739923169049987,0.06178011235682132,0.09018367027921599,-0.33316247748894706, ,0.06299324097159958, ,0.10931264157039629, ,0.0007601542908925829, ,0.1274559833562013,-0.13153358631379186,0.10728614556,3.396557704562326,1.3315226902142172,-0.5648204669051207, ,0.1014940551427495,0.0870614142738264,0.05943586388059702,1.0478527960706936,0.06582957590062084,0.7074785929383838, ,1.120177984237671
0.01389478861568158,0.02078929847074197,-0.09088112679461303, ,0.015018275805608725,0.02018109708228853,-0.09214864381178729, ,0.0017996476832073034, ,0.025834312241974015,-0.002462705916369285,-0.05739923169049987,0.06178011235682132,0.09018367027921599,-0.33316247748894706, ,0.06299324097159958, ,0.10931264157039629, ,0.0007684702380311006, ,0.1274559833562013,-0.13153358631379186,0.10728614556,3.396557704562326,1.3315226902142172,-0.5648204669051207, ,0.1014940551427495,0.0870614142738264,0.05943586388059702,1.0478527960706936,0.06582957590062084,0.7074785929383838, ,1.1224370002746582
0.014049103509767739,0.020773058264633625,-0.09122680805047564, ,0.015070391644282284,0.020171755029028505,-0.09225503200399147, ,0.0015690250263883975, ,0.025834312241974015,-0.002462705916369285,-0.05739923169049987,0.06178011235682132,0.09018367027921599,-0.33316247748894706, ,0.06299324097159958, ,0.10931264157039629, ,0.0007748238474625077, ,0.1281124156505104,-0.1309852722797219,0.10764262531000002,3.4022193330364074,1.3317959632137482,-0.5603876145245014, ,0.1131072009040176,0.09367911308832258,0.05750473472924188,0.8761203759054182,0.031924553864712914,0.7537040607777216, ,1.1249079704284668
0.014049103509767739,0.020773058264633625,-0.09122680805047564, ,0.015122576303151704,0.02016238717026586,-0.09236126013615764, ,0.0016769748234067585, ,0.025288399543240164,-0.0030831348733828725,-0.05589975107047071,-0.001235351296308411,0.0684500049081046,-0.12232525728640323, ,0.061431189487479484, ,0.06845716503653758, ,0.0007819273984541946, ,0.1281124156505104,-0.1309852722797219,0.10764262531000002,3.4022193330364074,1.3317959632137482,-0.5603876145245014, ,0.1131072009040176,0.09367911308832258,0.05750473472924188,0.8761203759054182,0.031924553864712914,0.7537040607777216, ,1.1270878314971924
0.014049103509767739,0.020773058264633625,-0.09122680805047564, ,0.015174828501207945,0.020152994619048268,-0.09246732701991559, ,0.0017862315064039117, ,0.025288399543240164,-0.0030831348733828725,-0.05589975107047071,-0.001235351296308411,0.0684500049081046,-0.12232525728640323, ,0.061431189487479484, ,0.06845716503653758, ,0.0007897735242975519, ,0.1281124156505104,-0.1309852722797219,0.10764262531000002,3.4022193330364074,1.3317959632137482,-0.5603876145245014, ,0.1131072009040176,0.09367911308832258,0.05750473472924188,0.8761203759054182,0.031924553864712914,0.7537040607777216, ,1.1290509700775146
0.014049103509767739,0.020773058264633625,-0.09122680805047564, ,0.015227146962934552,0.02014357848416573,-0.09257323147309614, ,0.0018965461250779487, ,0.025288399543240164,-0.0030831348733828725,-0.05589975107047071,-0.001235351296308411,0.0684500049081046,-0.12232525728640323, ,0.061431189487479484, ,0.06845716503653758, ,0.000798353156861741, ,0.1281124156505104,-0.1309852722797219,0.10764262531000002,3.4022193330364074,1.3317959632137482,-0.5603876145245014, ,0.1131072009040176,0.09367911308832258,0.05750473472924188,0.8761203759054182,0.031924553864712914,0.7537040607777216, ,1.130983829498291
0.014049103509767739,0.020773058264633625,-0.09122680805047564, ,0.015279530418299908,0.020134139870156564,-0.09267897231972352, ,0.002007722131402004, ,0.025288399543240164,-0.0030831348733828725,-0.05589975107047071,-0.001235351296308411,0.0684500049081046,-0.12232525728640323, ,0.061431189487479484, ,0.06845716503653758, ,0.0008076559951274353, ,0.1281124156505104,-0.1309852722797219,0.10764262531000002,3.4022193330364074,1.3317959632137482,-0.5603876145245014, ,0.1131072009040176,0.09367911308832258,0.05750473472924188,0.8761203759054182,0.031924553864712914,0.7537040607777216, ,1.1328718662261963
0.014340271598114584,0.020739936033398174,-0.09191241588341476, ,0.01533197760274924,0.020124679877312687,-0.09278454839000473, ,0.0014569269186477524, ,0.021025476526432822,-0.0028014177426129994,-0.05123053363785787,-0.047353906051264646,-0.008079113168526636,0.31070989049373204, ,0.05544804939176753, ,0.048034483382265084, ,0.0008126122617191935, ,0.12957973489661304,-0.129819139615714,0.10834780707000001,3.4097681710018506,1.3323425092128096,-0.5507868011019977, ,0.1171567179734207,0.09405048717390563,0.05257033504950496,0.38805271468943303,0.04468725011066392,0.7054738740581441, ,1.1347999572753906
0.014340271598114584,0.020739936033398174,-0.09191241588341476, ,0.015384487257195396,0.020115199601686073,-0.09288995852032104, ,0.0015608560339594566, ,0.021025476526432822,-0.0028014177426129994,-0.05123053363785787,-0.047353906051264646,-0.008079113168526636,0.31070989049373204, ,0.05544804939176753, ,0.048034483382265084, ,0.0008182807751452561, ,0.12957973489661304,-0.129819139615714,0.10834780707000001,3.4097681710018506,1.3323425092128096,-0.5507868011019977, ,0.1171567179734207,0.09405048717390563,0.05257033504950496,0.38805271468943303,0.04468725011066392,0.7054738740581441, ,1.1367559432983398
0.014340271598114584,0.020739936033398174,-0.09191241588341476, ,0.01543705812801133,0.02010570013509414,-0.0929952015532186, ,0.0016666195347448142, ,0.021025476526432822,-0.0028014177426129994,-0.05123053363785787,-0.047353906051264646,-0.008079113168526636,0.31070989049373204, ,0.05544804939176753, ,0.048034483382265084, ,0.0008246592620595385, ,0.12957973489661304,-0.129819139615714,0.10834780707000001,3.4097681710018506,1.3323425092128096,-0.5507868011019977, ,0.1171567179734207,0.09405048717390563,0.05257033504950496,0.38805271468943303,0.04468725011066392,0.7054738740581441, ,1.1386668682098389
0.014340271598114584,0.020739936033398174,-0.09191241588341476, ,0.015489688967021718,0.020096182565125482,-0.0931002763373997, ,0.0017738633752349248, ,0.021025476526432822,-0.0028014177426129994,-0.05123053363785787,-0.047353906051264646,-0.008079113168526636,0.31070989049373204, ,0.05544804939176753, ,0.048034483382265084, ,0.0008317428748444294, ,0.12957973489661304,-0.129819139615714,0.10834780707000001,3.4097681710018506,1.3323425092128096,-0.5507868011019977, ,0.1171567179734207,0.09405048717390563,0.05257033504950496,0.38805271468943303,0.04468725011066392,0.7054738740581441, ,1.140805959701538
0.014340271598114584,0.020739936033398174,-0.09191241588341476, ,0.015542378531494526,0.020086647975145838,-0.09320518172771262, ,0.0018823097233235603, ,0.021025476526432822,-0.0028014177426129994,-0.05123053363785787,-0.047353906051264646,-0.008079113168526636,0.31070989049373204, ,0.05544804939176753, ,0.048034483382265084, ,0.0008395248514998304, ,0.12957973489661304,-0.129819139615714,0.10834780707000001,3.4097681710018506,1.3323425092128096,-0.5507868011019977, ,0.1171567179734207,0.09405048717390563,0.05257033504950496,0.38805271468943303,0.04468725011066392,0.7054738740581441, ,1.1427650451660156
0.01460041727184667,0.020690439682331575,-0.09247885992996974, ,0.015595125584132999,0.020077097444303707,-0.09330991658514355, ,0.0014339764613093338, ,0.026379484180010834,-0.005370773213551288,-0.0525381983081742,0.025538251020775865,0.03567034701529774,-0.18844088223954214, ,0.059033758748565895, ,0.04386542636683702, ,0.0008438958192190179, ,0.13093893588247657,-0.1286452842188319,0.10893113757000002,3.416478249193355,1.333025691711637,-0.5432576953465642, ,0.12619274143413667,0.11034528088194276,0.05436454443686007,0.8743366221709655,0.06994044164866242,0.6842308818694657, ,1.1448159217834473
0.01460041727184667,0.020690439682331575,-0.09247885992996974, ,0.01564792889306701,0.02006753204753641,-0.09341447977680639, ,0.0015364501345219179, ,0.026379484180010834,-0.005370773213551288,-0.0525381983081742,0.025538251020775865,0.03567034701529774,-0.18844088223954214, ,0.059033758748565895, ,0.04386542636683702, ,0.0008489509602066304, ,0.13093893588247657,-0.1286452842188319,0.10893113757000002,3.416478249193355,1.333025691711637,-0.5432576953465642, ,0.12619274143413667,0.11034528088194276,0.05436454443686007,0.8743366221709655,0.06994044164866242,0.6842308818694657, ,1.1466889381408691
0.01460041727184667,0.020690439682331575,-0.09247885992996974, ,0.01570078723184529,0.020057952855575475,-0.09351887017593445, ,0.0016408762740069565, ,0.026379484180010834,-0.005370773213551288,-0.0525381983081742,0.025538251020775865,0.03567034701529774,-0.18844088223954214, ,0.059033758748565895, ,0.04386542636683702, ,0.0008546895494370675, ,0.13093893588247657,-0.1286452842188319,0.10893113757000002,3.416478249193355,1.333025691711637,-0.5432576953465642, ,0.12619274143413667,0.11034528088194276,0.05436454443686007,0.8743366221709655,0.06994044164866242,0.6842308818694657, ,1.1486070156097412
0.01460041727184667,0.020690439682331575,-0.09247885992996974, ,0.01575369937942681,0.020048360934952658,-0.09362308666187022, ,0.0017468770854000653, ,0.026379484180010834,-0.005370773213551288,-0.0525381983081742,0.025538251020775865,0.03567034701529774,-0.18844088223954214, ,0.059033758748565895, ,0.04386542636683702, ,0.0008611081648037078, ,0.13093893588247657,-0.1286452842188319,0.10893113757000002,3.416478249193355,1.333025691711637,-0.5432576953465642, ,0.12619274143413667,0.11034528088194276,0.05436454443686007,0.8743366221709655,0.06994044164866242,0.6842308818694657, ,1.1504998207092285
0.01460041727184667,0.020690439682331575,-0.09247885992996974, ,0.015806664120172655,0.020038757348005705,-0.09372712812005699, ,0.0018541560879150607, ,0.026379484180010834,-0.005370773213551288,-0.0525381983081742,0.025538251020775865,0.03567034701529774,-0.18844088223954214, ,0.059033758748565895, ,0.04386542636683702, ,0.0008682013642545032, ,0.13093893588247657,-0.1286452842188319,0.10893113757000002,3.416478249193355,1.333025691711637,-0.5432576953465642, ,0.12619274143413667,0.11034528088194276,0.05436454443686007,0.8743366221709655,0.06994044164866242,0.6842308818694657, ,1.1528878211975098
0.014864119961718358,0.02063397051999983,-0.09297182266824762, ,0.015859680243837715,0.02002914315288414,-0.0938309934420296, ,0.0014474566790984766, ,0.02745703869883922,-0.006151484975681984,-0.05090929660402994,0.009724511960234612,0.05804808870691201,-0.28559538772337023, ,0.058167742110491874, ,0.058854097286245514, ,0.0008723095579768008, ,0.13215912767660404,-0.12759499254793735,0.10944057954000001,3.4261239865936433,1.3334356012109334,-0.5365675774055654, ,0.12823911021414972,0.11086091303559671,0.05257033504950496,0.991408243762153,0.03782496146595249,0.7054072636709962, ,1.1587088108062744
0.014864119961718358,0.02063397051999983,-0.09297182266824762, ,0.015912746545562587,0.02001951940355488,-0.09393468152540484, ,0.0015505692714778544, ,0.02745703869883922,-0.006151484975681984,-0.05090929660402994,0.009724511960234612,0.05804808870691201,-0.28559538772337023, ,0.058167742110491874, ,0.058854097286245514, ,0.0008770860348324421, ,0.13215912767660404,-0.12759499254793735,0.10944057954000001,3.4261239865936433,1.3334356012109334,-0.5365675774055654, ,0.12823911021414972,0.11086091303559671,0.05257033504950496,0.991408243762153,0.03782496146595249,0.7054072636709962, ,1.160876989364624
0.014864119961718358,0.02063397051999983,-0.09297182266824762, ,0.015965861825864885,0.02000988714980835,-0.0940381912738726, ,0.0016554326296244074, ,0.02745703869883922,-0.006151484975681984,-0.05090929660402994,0.009724511960234612,0.05804808870691201,-0.28559538772337023, ,0.058167742110491874, ,0.058854097286245514, ,0.0008825290180128055, ,0.13215912767660404,-0.12759499254793735,0.10944057954000001,3.4261239865936433,1.3334356012109334,-0.5365675774055654, ,0.12823911021414972,0.11086091303559671,0.05257033504950496,0.991408243762153,0.03782496146595249,0.7054072636709962, ,1.1631789207458496
0.014864119961718358,0.02063397051999983,-0.09297182266824762, ,0.016019024890631586,0.02000024743726384,-0.09414152159718607, ,0.0017617054023815202, ,0.02745703869883922,-0.006151484975681984,-0.05090929660402994,0.009724511960234612,0.05804808870691201,-0.28559538772337023, ,0.058167742110491874, ,0.058854097286245514, ,0.0008886344095709216, ,0.13215912767660404,-0.12759499254793735,0.10944057954000001,3.4261239865936433,1.3334356012109334,-0.5365675774055654, ,0.12823911021414972,0.11086091303559671,0.05257033504950496,0.991408243762153,0.03782496146595249,0.7054072636709962, ,1.1651358604431152
0.01513789060619237,0.02056645336749443,-0.09349159123160433, ,0.016072234551110263,0.019990601307375698,-0.0942446714111535, ,0.001331064971884366, ,0.02498756957852888,-0.006749486078501048,-0.0486784335341823,-0.0642769582568832,0.004693576533460975,0.026699751577951826, ,0.05513187904568015, ,0.0644459750190638, ,0.0008916856548282557, ,0.13354921959396446,-0.1263825234866841,0.10997465102000001,3.4345115843330243,1.3337088742104641,-0.5292759691200263, ,0.13673910887387722,0.12088782364136405,0.049777536000000004,0.6290698304535731,0.016364013295612035,0.6645750606834292, ,1.1670448780059814
0.01513789060619237,0.02056645336749443,-0.09349159123160433, ,0.016125489623901233,0.01998094979743873,-0.09434763963762854, ,0.001432126085155938, ,0.02498756957852888,-0.006749486078501048,-0.0486784335341823,-0.0642769582568832,0.004693576533460975,0.026699751577951826, ,0.05513187904568015, ,0.0644459750190638, ,0.0008953873016113221, ,0.13354921959396446,-0.1263825234866841,0.10997465102000001,3.4345115843330243,1.3337088742104641,-0.5292759691200263, ,0.13673910887387722,0.12088782364136405,0.049777536000000004,0.6290698304535731,0.016364013295612035,0.6645750606834292, ,1.168954849243164
0.01513789060619237,0.02056645336749443,-0.09349159123160433, ,0.016178788930948783,0.019971293940594263,-0.09445042520450043, ,0.001535267616244336, ,0.02498756957852888,-0.006749486078501048,-0.0486784335341823,-0.0642769582568832,0.004693576533460975,0.026699751577951826, ,0.05513187904568015, ,0.0644459750190638, ,0.0008997402289217508, ,0.13354921959396446,-0.1263825234866841,0.10997465102000001,3.4345115843330243,1.3337088742104641,-0.5292759691200263, ,0.13673910887387722,0.12088782364136405,0.049777536000000004,0.6290698304535731,0.016364013295612035,0.6645750606834292, ,1.170893907546997
0.01513789060619237,0.02056645336749443,-0.09349159123160433, ,0.016232131299533582,0.019961634765835796,-0.09455302704568577, ,0.0016400653106784777, ,0.02498756957852888,-0.006749486078501048,-0.0486784335341823,-0.0642769582568832,0.004693576533460975,0.026699751577951826, ,0.05513187904568015, ,0.0644459750190638, ,0.0009047424254201071, ,0.13354921959396446,-0.1263825234866841,0.10997465102000001,3.4345115843330243,1.3337088742104641,-0.5292759691200263, ,0.13673910887387722,0.12088782364136405,0.049777536000000004,0.6290698304535731,0.016364013295612035,0.6645750606834292, ,1.1728448867797852
0.015358205526306241,0.020507171737376928,-0.09394849135394884, ,0.016285515562263767,0.01995197329801482,-0.09465544410111885, ,0.0012914841836386937, ,0.020635612010991296,-0.005368316683302383,-0.043364621993253354,0.009068096908647454,-0.10469656966338117,0.2323971624739714, ,0.04832326300756338, ,0.10508781438838008, ,0.0009073380076900304, ,0.13490069784695374,-0.1252163908226762,0.11044650058000001,3.4378666234287767,1.334528693209057,-0.523981928511944, ,0.1353736684143663,0.11177496061068408,0.04525230545454546,0.1954503162700851,0.12815492928947592,0.43086185023961826, ,1.1747369766235352
0.015358205526306241,0.020507171737376928,-0.09394849135394884, ,0.016338940557067045,0.019942310557846604,-0.09475767531674265, ,0.0013912900626197524, ,0.020635612010991296,-0.005368316683302383,-0.043364621993253354,0.009068096908647454,-0.10469656966338117,0.2323971624739714, ,0.04832326300756338, ,0.10508781438838008, ,0.0009105643547228954, ,0.13490069784695374,-0.1252163908226762,0.11044650058000001,3.4378666234287767,1.334528693209057,-0.523981928511944, ,0.1353736684143663,0.11177496061068408,0.04525230545454546,0.1954503162700851,0.12815492928947592,0.43086185023961826, ,1.1767029762268066
0.015358205526306241,0.020507171737376928,-0.09394849135394884, ,0.016392405127182423,0.01993264756191589,-0.09485971964449902, ,0.001493313041575893, ,0.020635612010991296,-0.005368316683302383,-0.043364621993253354,0.009068096908647454,-0.10469656966338117,0.2323971624739714, ,0.04832326300756338, ,0.10508781438838008, ,0.0009144236175497364, ,0.13490069784695374,-0.1252163908226762,0.11044650058000001,3.4378666234287767,1.334528693209057,-0.523981928511944, ,0.1353736684143663,0.11177496061068408,0.04525230545454546,0.1954503162700851,0.12815492928947592,0.43086185023961826, ,1.1785869598388672
0.015358205526306241,0.020507171737376928,-0.09394849135394884, ,0.016445908121151882,0.019922985322682756,-0.09496157604232035, ,0.0015970946395752416, ,0.020635612010991296,-0.005368316683302383,-0.043364621993253354,0.009068096908647454,-0.10469656966338117,0.2323971624739714, ,0.04832326300756338, ,0.10508781438838008, ,0.0009189148742735885, ,0.13490069784695374,-0.1252163908226762,0.11044650058000001,3.4378666234287767,1.334528693209057,-0.523981928511944, ,0.1353736684143663,0.11177496061068408,0.04525230545454546,0.1954503162700851,0.12815492928947592,0.43086185023961826, ,1.1804778575897217
0.015358205526306241,0.020507171737376928,-0.09394849135394884, ,0.0164994483928121,0.019913324848488383,-0.09506324347411976, ,0.001702281321409209, ,0.020635612010991296,-0.005368316683302383,-0.043364621993253354,0.009068096908647454,-0.10469656966338117,0.2323971624739714, ,0.04832326300756338, ,0.10508781438838008, ,0.0009240349164117298, ,0.13490069784695374,-0.1252163908226762,0.11044650058000001,3.4378666234287767,1.334528693209057,-0.523981928511944, ,0.1353736684143663,0.11177496061068408,0.04525230545454546,0.1954503162700851,0.12815492928947592,0.43086185023961826, ,1.1823458671569824
0.015609036323818559,0.02043538857875487,-0.094407697111572, ,0.016553024801286124,0.019903667143560906,-0.09516472090978273, ,0.0013217136457242388, ,0.028184038159966243,-0.008351735189637423,-0.047120275105627,-0.016097657372043946,-0.005456647167133465,-0.31524475787485606, ,0.055537481161016235, ,0.016990505483620667, ,0.0009266172458228498, ,0.13490069784695374,-0.1252163908226762,0.11044650058000001,3.4378666234287767,1.334528693209057,-0.523981928511944, ,0.1353736684143663,0.11177496061068408,0.04525230545454546,0.1954503162700851,0.12815492928947592,0.43086185023961826, ,1.1842420101165771
0.015609036323818559,0.02043538857875487,-0.094407697111572, ,0.016606636210975426,0.019894013208020946,-0.09526600732515628, ,0.001423021169777798, ,0.028184038159966243,-0.008351735189637423,-0.047120275105627,-0.016097657372043946,-0.005456647167133465,-0.31524475787485606, ,0.055537481161016235, ,0.016990505483620667, ,0.0009298198517838495, ,0.1363680170930564,-0.1239884762956745,0.11092094272000001,3.4433185619593742,1.3350752392081187,-0.5189551245373121, ,0.15110977955170507,0.12789345223513582,0.04871196183486239,0.833334419643543,0.03441358102877618,0.5220082097558684, ,1.1861770153045654
0.015609036323818559,0.02043538857875487,-0.094407697111572, ,0.016660281491551274,0.019884364037887656,-0.09536710170204185, ,0.0015261722103137412, ,0.028184038159966243,-0.008351735189637423,-0.047120275105627,-0.016097657372043946,-0.005456647167133465,-0.31524475787485606, ,0.055537481161016235, ,0.016990505483620667, ,0.0009336426233128872, ,0.1363680170930564,-0.1239884762956745,0.11092094272000001,3.4433185619593742,1.3350752392081187,-0.5189551245373121, ,0.15110977955170507,0.12789345223513582,0.04871196183486239,0.833334419643543,0.03441358102877618,0.5220082097558684, ,1.188081979751587
0.015609036323818559,0.02043538857875487,-0.094407697111572, ,0.016713959517946634,0.019874720625084413,-0.09546800302818383, ,0.0016307827740067802, ,0.028184038159966243,-0.008351735189637423,-0.047120275105627,-0.016097657372043946,-0.005456647167133465,-0.31524475787485606, ,0.055537481161016235, ,0.016990505483620667, ,0.000938083006438326, ,0.1363680170930564,-0.1239884762956745,0.11092094272000001,3.4433185619593742,1.3350752392081187,-0.5189551245373121, ,0.15110977955170507,0.12789345223513582,0.04871196183486239,0.833334419643543,0.03441358102877618,0.5220082097558684, ,1.1900389194488525
0.015609036323818559,0.02043538857875487,-0.094407697111572, ,0.016767669170347808,0.019865083957444588,-0.09556871029726283, ,0.001736556665212021, ,0.028184038159966243,-0.008351735189637423,-0.047120275105627,-0.016097657372043946,-0.005456647167133465,-0.31524475787485606, ,0.055537481161016235, ,0.016990505483620667, ,0.0009431366371900583, ,0.1363680170930564,-0.1239884762956745,0.11092094272000001,3.4433185619593742,1.3350752392081187,-0.5189551245373121, ,0.15110977955170507,0.12789345223513582,0.04871196183486239,0.833334419643543,0.03441358102877618,0.5220082097558684, ,1.1919658184051514
0.015609036323818559,0.02043538857875487,-0.094407697111572, ,0.016821409334186476,0.019855455018717216,-0.09566922250888425, ,0.0018432627534864224, ,0.028184038159966243,-0.008351735189637423,-0.047120275105627,-0.016097657372043946,-0.005456647167133465,-0.31524475787485606, ,0.055537481161016235, ,0.016990505483620667, ,0.0009487978077328028, ,0.13782761360628482,-0.12278372996729547,0.11139279228000001,3.453173989303147,1.3349386027083532,-0.5128811586033544, ,0.15232253861712805,0.12276447808340334,0.049777536000000004,1.1082451722743376,-0.022510785032533995,0.7034792611779563, ,1.1940100193023682
0.01589740322549017,0.020351675233319915,-0.09486599214983486, ,0.016875178900131016,0.01984583478857309,-0.09576953866857055, ,0.0014241896422107574, ,0.030890334410992697,-0.008711467290894212,-0.048273118849289615,-0.03780507730707258,0.06178342151545323,-0.41012245095432937, ,0.057968926381475445, ,0.0724303314107697, ,0.0009517690066982899, ,0.13782761360628482,-0.12278372996729547,0.11139279228000001,3.453173989303147,1.3349386027083532,-0.5128811586033544, ,0.15232253861712805,0.12276447808340334,0.049777536000000004,1.1082451722743376,-0.022510785032533995,0.7034792611779563, ,1.1961050033569336
0.01589740322549017,0.020351675233319915,-0.09486599214983486, ,0.016928976764078788,0.01983622424261003,-0.0958696577877513, ,0.0015287833077562917, ,0.030890334410992697,-0.008711467290894212,-0.048273118849289615,-0.03780507730707258,0.06178342151545323,-0.41012245095432937, ,0.057968926381475445, ,0.0724303314107697, ,0.0009553529464564141, ,0.13782761360628482,-0.12278372996729547,0.11139279228000001,3.453173989303147,1.3349386027083532,-0.5128811586033544, ,0.15232253861712805,0.12276447808340334,0.049777536000000004,1.1082451722743376,-0.022510785032533995,0.7034792611779563, ,1.1991958618164062
0.01589740322549017,0.020351675233319915,-0.09486599214983486, ,0.016982801827147054,0.019826624352359257,-0.09596957888375432, ,0.0016345250782289326, ,0.030890334410992697,-0.008711467290894212,-0.048273118849289615,-0.03780507730707258,0.06178342151545323,-0.41012245095432937, ,0.057968926381475445, ,0.0724303314107697, ,0.0009595453670229111, ,0.13782761360628482,-0.12278372996729547,0.11139279228000001,3.453173989303147,1.3349386027083532,-0.5128811586033544, ,0.15232253861712805,0.12276447808340334,0.049777536000000004,1.1082451722743376,-0.022510785032533995,0.7034792611779563, ,1.2027568817138672
0.01589740322549017,0.020351675233319915,-0.09486599214983486, ,0.017036652995665716,0.01981703608529067,-0.09606930097979653, ,0.001741172363011254, ,0.030890334410992697,-0.008711467290894212,-0.048273118849289615,-0.03780507730707258,0.06178342151545323,-0.41012245095432937, ,0.057968926381475445, ,0.0724303314107697, ,0.0009643406246670113, ,0.13782761360628482,-0.12278372996729547,0.11139279228000001,3.453173989303147,1.3349386027083532,-0.5128811586033544, ,0.15232253861712805,0.12276447808340334,0.049777536000000004,1.1082451722743376,-0.022510785032533995,0.7034792611779563, ,1.2048828601837158
0.01589740322549017,0.020351675233319915,-0.09486599214983486, ,0.017090529181168157,0.019807460404818955,-0.09616882310497421, ,0.0018485366708134697, ,0.030890334410992697,-0.008711467290894212,-0.048273118849289615,-0.03780507730707258,0.06178342151545323,-0.41012245095432937, ,0.057968926381475445, ,0.0724303314107697, ,0.0009697320639727824, ,0.13782761360628482,-0.12278372996729547,0.11139279228000001,3.453173989303147,1.3349386027083532,-0.5128811586033544, ,0.15232253861712805,0.12276447808340334,0.049777536000000004,1.1082451722743376,-0.022510785032533995,0.7034792611779563, ,1.206960916519165
