NicholasDascanio/dvrk_moveit_final/test/execution/third_experiment_notsharpbends/thirdexp_600vel5.0/thirdexp_600vel5.0_26.csv
Current Position (x),Current Position (y),Current Position (z), ,Planned Position (x),Planned Position (y),Planned Position (z), ,Position Error,,Cartesian linear Velocity(x),Cartesian linear Velocity(y),Cartesian linear Velocity(z),Cartesian Angular Velocity(x),Cartesian Angular Velocity(y),Cartesian Angular Velocity(z), ,Total Linear Velocity, ,Total Angular Velocity, ,MSE, ,Joint 1 Position,Joint 2 Position,Joint 3 Position,Joint 4 Position,Joint 5 Position,Joint 6 Position, ,Joint 1 Velocity,Joint 2 Velocity,Joint 3 Velocity,Joint 4 Velocity,Joint 5 Velocity,Joint 6 Velocity, ,Time Stamp
0.008304559489989847,0.021024183242232767,-0.08038654785405282, ,0.008555365807828279,0.020962199489621445,-0.0801429637171606, ,0.0003550760853690057, ,9.330280987048355e-06,4.4080770623739695e-06,2.1167732408342073e-06,0.15766381528466075,0.0986039239901361,0.29332074976792594, ,1.0534040802949992e-05, ,0.1859586310886595, ,2.9589673780750476e-05, ,0.04028177467195504,-0.19984888131918185,0.09281566029,3.9753019485796126,0.8496057555415087,0.007190277820270041, ,0.00018686440709227037,2.1163551238242126e-05,0.0,-0.001232978183854519,0.0,0.34643702984869296, ,0.01919698715209961
0.008340431667893587,0.021032079845149165,-0.08033445096705547, ,0.008619127871398888,0.02095665144848405,-0.08023294056766545, ,0.0003060479995949317, ,0.0040309723543070775,0.0010621036290646474,0.0045394016098345875,0.970263705206052,-0.18539892031307237,0.7250780636853089, ,0.006163032469120139, ,0.9878180081853929, ,3.005109477108807e-05, ,0.040351279267823066,-0.19980254492193653,0.09281177142000001,3.9761407083535505,0.8560276710304844,0.02441528988519298, ,0.00695876086314541,0.003668798559143045,0.0007666096723820487,0.11866426328555714,0.7019186074906908,1.0934097712362525, ,0.03783893585205078
0.008438102325329865,0.0210822000164766,-0.08021119592423075, ,0.008682847184645973,0.020951040667364043,-0.0803226900376384, ,0.00029922192156633254, ,0.004705581449350503,0.002880445415503056,0.005310422965630458,0.8552313426314855,-0.6181625614984723,0.256023017062868, ,0.0076576794554263986, ,1.0552467018957363, ,3.0010812704070937e-05, ,0.040513456658181776,-0.1997716539904396,0.09284288238,3.9767697781840043,0.8758399634964732,0.03864418518150092, ,0.008605723119743941,0.0013882764283369103,0.002526778477157361,-0.01289235294473089,0.9917243408846617,0.4229325118193734, ,0.05919981002807617
0.008489365078105224,0.02110307661230949,-0.0802155062829619, ,0.008746523443352191,0.020945367856381337,-0.08041221349773375, ,0.00036013359306818305, ,0.0007915898055266143,-0.0004932359398062776,-0.004474042143897353,-0.3684072537137,0.021956676531284115,-0.48504155283695927, ,0.004570224197771907, ,0.36906097088608175, ,3.143999046662983e-05, ,0.04075286137728274,-0.19972531759319426,0.09290121543,3.9773988480144578,0.8825351519849798,0.0381671110489506, ,0.014809135698887449,0.002081633626762385,0.002860777931034483,0.07301367894592821,-0.21630885198630925,-0.5108733346252798, ,0.07752680778503418
0.008481560816168602,0.02107494358780836,-0.08038763495123898, ,0.008810156344506897,0.020939633723764534,-0.08050151231452414, ,0.00037316462107260745, ,-0.00024025903783891716,-0.0011537062129308813,-0.008342429655265389,-0.3654420406257087,0.4438195582875557,0.13017175828446426, ,0.0084252534077065, ,0.5749118935409456, ,3.2570081166751165e-05, ,0.04121622534973621,-0.1996403675315778,0.09297510396000001,3.978237607788396,0.8695546845072629,0.026453515841737107, ,0.023795622256386855,0.0038652246052201635,0.003861530065454546,0.02406450234150276,-0.6000676587268521,0.09628399617004735, ,0.09923696517944336
0.008528811134080622,0.0210732565397385,-0.08050197189037578, ,0.008873745586304653,0.020933838975852787,-0.08059058785050562, ,0.00038245237852659703, ,0.0022880131068951284,0.0003701524984138253,-0.005336165215128273,-0.01091164259376897,0.03612077864429075,0.07429385010295149, ,0.005817789619138085, ,0.037732937728692795, ,3.3485429019317056e-05, ,0.04179543031530305,-0.19952452653846442,0.09307491829,3.979495747449303,0.8672318640112505,0.02777586902359236, ,0.03111375133064616,0.006161798787298831,0.005001196709576139,0.12658536928006606,0.0956499120518175,0.0058161272943827586, ,0.1183919906616211
0.008555723762828177,0.021075574455148023,-0.08053378728112935, ,0.008937290868144012,0.020927984317097602,-0.08067944146410211, ,0.0004342711661235518, ,0.003354230641635685,7.569626049341513e-05,-0.003917570075923414,0.0875008264637527,-0.018731199999976213,0.043569464282744115, ,0.00515790155207629, ,0.08948325253563442, ,3.486621896279458e-05, ,0.04205800323302668,-0.19947046740834487,0.09311251070000001,3.9799151273362723,0.8677784100103122,0.028882093471477355, ,0.033030609661841556,0.007355734327317805,0.004458105659109992,0.06582428319208414,0.048312480934737285,0.13377010466858302, ,0.138563871383667
0.008639898284001465,0.0210809455025887,-0.0806145149112142, ,0.009000791890626372,0.02092207045006456,-0.08076807450967005, ,0.0004231619405088369, ,0.003378322521101461,-0.0001670719174376601,-0.0034444755668459927,0.013321588370580622,-0.0024036548327138613,0.05890325834914138, ,0.004827565433298305, ,0.013536700956479703, ,3.577475251012252e-05, ,0.042977008445059396,-0.19927739908648925,0.09320843616,3.9801248172797568,0.8690081385082012,0.030411373282567045, ,0.04029594121378802,0.009365685395765872,0.0035085487929515423,0.011050045652313498,-0.019349257580511366,0.07944598563367833, ,0.1571979522705078
0.008756918563262696,0.021069986406022506,-0.08072783573878117, ,0.009064248355554158,0.02091609807543551,-0.08085648833750282, ,0.0003669941561913478, ,0.003446979087961891,2.133515563436123e-05,-0.003814766712771525,-0.016399384825873015,-0.04708637946404908,0.00214580668729911, ,0.005141455542410359, ,0.049860474856258934, ,3.5875259369797766e-05, ,0.04424353663643222,-0.19897621250439448,0.09332510226000001,3.982012026771118,0.8688715020084359,0.03158461480809066, ,0.04125953980803077,0.010445989450416972,0.004036698307146478,-0.013345582423567271,0.0,-0.012146572947627441, ,0.18368887901306152
0.008789608607117382,0.02106963402932482,-0.08076556350978793, ,0.009127659965930027,0.02091006789200991,-0.08094468429383671, ,0.0004145169823432138, ,0.0035942957762770187,-0.0001721746531429683,-0.003560008776793077,-0.01737511872866847,-0.046047200459844645,-0.01220599086738507, ,0.005061844399958523, ,0.049216251588805784, ,3.642196906239812e-05, ,0.04505442358822579,-0.19876769871679043,0.09340158337000001,3.9824314066580864,0.8687348655086704,0.0315326752315061, ,0.04187861498608596,0.010988561284511134,0.004186284236530881,0.04402341829784575,0.0,0.011084429310652366, ,0.20311880111694336
0.008903675259404184,0.021056404886825954,-0.080886801728873, ,0.009191026425955191,0.020903980596707155,-0.08103266372085317, ,0.00035648222654273984, ,0.0033190129107503424,-0.00015798333860608978,-0.0035618413191024585,-0.010514605944610025,-0.0238875501416524,0.018760990075883995, ,0.004871090126395746, ,0.02609927181679784, ,3.635288456167275e-05, ,0.04591164693726471,-0.1985360167305637,0.0934884348,3.9836895463189936,0.868324956009374,0.03211196516301701, ,0.039556874347007415,0.01042448970856688,0.003663480110395585,0.0,-0.013768271331511315,0.020642908894173816, ,0.22473788261413574
0.00893982241331932,0.02105490229644795,-0.08092842207925106, ,0.009254347441028226,0.020897836884568016,-0.08112042795668571, ,0.00040057682613170524, ,0.0032937011760254295,-0.0002519926120179289,-0.004047578462346425,-0.0067336811767839,-0.013156291238060926,0.02114548044328113, ,0.0052244482122338586, ,0.014779393094605948, ,3.6959503281314494e-05, ,0.046351842711095506,-0.19840473027170188,0.09353121237,3.983479856375509,0.8681883195096086,0.032631776767416076, ,0.03845094876761376,0.011712779752958624,0.004082217201435162,0.01205663107165081,-0.017674784708071798,0.03680120472904892, ,0.24176883697509766
0.009010123872454881,0.0210458244964032,-0.0810151913620455, ,0.00931762271774371,0.020891637448756852,-0.08120797833542372, ,0.000394329814521032, ,0.003538168981407117,-0.0005001701090979853,-0.004511965840352002,0.007191277735897877,0.008213325431953578,-0.05265208224404663, ,0.005755575177471832, ,0.010916647299242114, ,3.7434074704308346e-05, ,0.04707777960127261,-0.1981884937512236,0.09361936009,3.985157375923386,0.8680516830098431,0.03347830333237767, ,0.035959432193433415,0.010407364680688437,0.0045175302098695415,0.09973417441744492,-0.014519348726602635,0.05129378611627064, ,0.2593529224395752
0.009070935679168706,0.02104832001037844,-0.08112058448629154, ,0.009380851963890907,0.02088538298056311,-0.08129531618711662, ,0.000391315405388387, ,0.0029774326360581718,8.264368085122726e-05,-0.005376723933296888,0.002748310524254739,-0.0024122878405337996,0.026373541413206143, ,0.006146632845317549, ,0.003656820869249102, ,3.7825504438478216e-05, ,0.04777282555995282,-0.19798770269649377,0.09372565587000001,3.98536706586687,0.8676417735105469,0.034302629484310176, ,0.03309973545813421,0.010291580644732665,0.0054253445231607625,0.020570030062214705,-0.016830703156521153,0.05274475673665925, ,0.2769308090209961
0.009103421148183848,0.021045567099591392,-0.08117678367963108, ,0.009444034888452408,0.020879074169403444,-0.08138244283777978, ,0.0004313157836118901, ,0.002831578246681119,-0.00014579408910595643,-0.005081010395625607,-0.012244630474029116,0.03305247769728663,0.0252702425495794, ,0.005818570092724796, ,0.035247656007012115, ,3.843960067946191e-05, ,0.048112625806418695,-0.19788730716912883,0.09378010005000001,3.986205825640808,0.8672318640112505,0.03488191941582125, ,0.03227787127839142,0.00934578965202454,0.004835704772313298,0.04015574482655602,-0.05280053623197186,0.06902928030077757, ,0.29769182205200195
0.009176632714339099,0.021043528768790266,-0.08128543761568165, ,0.009507171201602695,0.020872711702823402,-0.08146935960939702, ,0.0004150439270249278, ,0.002949414444679635,-4.434803028034078e-05,-0.0037809663058919786,0.002932605415165245,-0.01983106292041319,-0.014184743157163235, ,0.004795489393228293, ,0.020046726174159656, ,3.8879648583345795e-05, ,0.048892621826715374,-0.19766334791577633,0.09389158099000001,3.987254275358231,0.867095227511485,0.035401731020220484, ,0.031984139386070365,0.008039580023641277,0.003961405501119125,0.032597437466217315,0.0,0.021218874933327553, ,0.316087007522583
0.009235389782454195,0.021038960776623483,-0.08137673127888592, ,0.00957026061470713,0.020866296266499242,-0.08155606781992819, ,0.00041726862127797513, ,0.003118780781695756,-0.0005046695024198502,-0.004758857148401455,-0.00424075611242038,0.060624908847325854,-0.007445517361542373, ,0.005712110488238049, ,0.060773049805904145, ,3.928538222206787e-05, ,0.04954133138815023,-0.19748572505966916,0.09397972871000002,3.9883027250756538,0.8662754085128924,0.0365603108832423, ,0.03315756169059077,0.00854389910822683,0.004390521367144433,0.09951823458264988,-0.06521543133994952,0.09716439910969217, ,0.3345968723297119
0.009304850502453586,0.021036588236917734,-0.08147414635591019, ,0.00963330284032022,0.020859828544240056,-0.08164256878331132, ,0.00040925669360103727, ,0.002712489618188037,0.00027906290535591443,-0.0049528772105516365,-0.002061980602685802,-0.00792631828990215,0.057141045148197, ,0.005653889696193704, ,0.008190133250332311, ,3.960360081408173e-05, ,0.05025954554545311,-0.19729265673781354,0.09408083933000001,3.9895608647365606,0.8662754085128924,0.03713206206422626, ,0.03199492297992946,0.0090067885312957,0.005024861678233439,-0.015595580363696243,-0.019609374766903172,0.04692078009319036, ,0.3559868335723877
0.009361736494681604,0.021036507004860105,-0.08156887158781981, ,0.009696297592184384,0.020853309217989252,-0.08172886380946796, ,0.00041363035196242086, ,0.0030723716054744726,-0.0002340836293703583,-0.00465266698622426,0.0017765699669752867,0.03311920376047516,0.027539264092429787, ,0.005580463467523654, ,0.0331668186052742, ,3.9914459208840886e-05, ,0.05090825510688797,-0.1971150338817064,0.09417417221,3.9899802446235295,0.8655922260140653,0.038097545283411194, ,0.03408654510002543,0.008944972252045151,0.004481939088351154,0.052323309646491255,-0.04545597596304201,0.0867311105156712, ,0.3727998733520508
0.00942932812409127,0.02103249022706965,-0.08166060525239965, ,0.009759244585228892,0.020846738967826624,-0.08181495420430863, ,0.00040886672718055993, ,0.0032815460630264567,0.00012563842879119175,-0.004765430344269742,-0.005354160376284038,-0.007702899609101307,0.01473768915397424, ,0.005787370382534747, ,0.009380921770554657, ,4.01716436352709e-05, ,0.05161874653131662,-0.196929688292725,0.09426750509000001,3.9912383842844363,0.8653189530145343,0.03872877479150694, ,0.03705464332622834,0.008245798001167353,0.00486079082087275,0.018853681377729775,-0.021405875284001705,0.03653638583435403, ,0.3916947841644287
0.009463621228757532,0.021033760194456984,-0.081710010309402, ,0.00982214353556826,0.02084011847197004,-0.0819008412697363, ,0.0004499464596934925, ,0.0032098979088838043,-3.818633335460732e-05,-0.004951318166434019,-0.0015219826389010309,-0.011065014887206147,0.024125407948140783, ,0.005900885896776112, ,0.011169197940380805, ,4.0609275650003844e-05, ,0.05200488317502785,-0.19682157003248585,0.09431935669000001,3.9912383842844363,0.8653189530145343,0.03889213227178806, ,0.035959432193433415,0.011189005934524588,0.0050359821435346196,0.01338565035301339,-0.014673994339067353,0.042325749084218545, ,0.4087347984313965
0.009532904911819486,0.021025427963947345,-0.08181562752586431, ,0.00988499416050082,0.020833448406777682,-0.08198652630365211, ,0.0004359235961236882, ,0.0035084492457545203,-0.0005517620785802711,-0.005572531773508456,0.0018786924505939523,0.051711847541764194,-0.0300117682938019, ,0.0066080835246049964, ,0.05174596270370292, ,4.094311505888372e-05, ,0.05273082006520495,-0.19660533351200757,0.09442176360000001,3.992915903832313,0.8644991340159418,0.040050712134809874, ,0.03538290140136867,0.01042899704086806,0.005299005828343314,0.11740021138003043,-0.05276207528102347,0.09319126558560353, ,0.42736196517944336
0.009588637990868818,0.021023456804374188,-0.08188839659987843, ,0.009947796178507634,0.02082672944674937,-0.08207201059995861, ,0.00044878765358629075, ,0.0030346379583566646,-0.0005013733779088692,-0.0029767369759504288,-0.0110698707664922,-0.002190499546370332,-0.002523222305399415, ,0.004280346461019874, ,0.011284517128161212, ,4.1308113322776156e-05, ,0.05335636142801714,-0.19641998792302617,0.09449694842,3.9931255937757975,0.8643624975161763,0.0406522024793497, ,0.03444535083792043,0.010380016491276324,0.002938352982844494,0.03160697436217531,-0.02404797680818592,0.030788135921037477, ,0.4450688362121582
0.009661974391334134,0.021008292637709508,-0.08196517623250733, ,0.010010549309250992,0.020819962264528636,-0.08215729544856591, ,0.0004403210147632673, ,0.004132107392574112,-0.0009703189828643047,-0.004556326525419048,0.010700946062165234,0.020529902585869793,-0.10334240336934139, ,0.006227033148981115, ,0.02315139617489574, ,4.178993835865799e-05, ,0.054144080181188034,-0.19616513773817676,0.09457213324000001,3.9945934233801887,0.8638159515171145,0.04142458905469765, ,0.03931107769613537,0.012118995824369469,0.004516249367734619,0.15823513419546306,-0.01765537091124294,0.05891105893515437, ,0.46040892601013184
0.00973256688189704,0.021001079213267337,-0.08207062455558152, ,0.010073253273573208,0.020813147530904675,-0.08224238213539517, ,0.00042530718420035016, ,0.0035779426643538204,5.9232343627148645e-05,-0.00614302375703216,-0.00991483807657884,-0.033246867616207834,-0.014674921501643817, ,0.007109284286016166, ,0.03469377770762911, ,4.217547936429819e-05, ,0.054908630735736264,-0.1959180102862016,0.09467583644000001,3.9956418730976115,0.8631327690182873,0.04263510849430424, ,0.03820327760002849,0.013132707107455132,0.006356269561053473,0.018567044468312525,0.0,0.004952706896161624, ,0.48228883743286133
0.009772359339615507,0.02100281119003677,-0.08213300813463424, ,0.010135907793495021,0.02080628591481427,-0.08232727194238396, ,0.00045664875902698193, ,0.003541644145110305,-2.9461524983135246e-05,-0.005117873346779481,0.000234122366681494,-0.029135523114775817,0.009567585497373922, ,0.006223884544697487, ,0.029136463700028533, ,4.266418806967769e-05, ,0.05534110377669284,-0.19577900109446555,0.09474194723000001,3.9956418730976115,0.8632694055180528,0.04260536933074838, ,0.03871764241471676,0.012167834537565172,0.0053416537625754525,0.012550800498063544,9.127376248610448e-06,0.026375384918866145, ,0.4978189468383789
0.009846013176866081,0.02098784101098332,-0.08223149916942983, ,0.010198512592214444,0.020799378083343284,-0.08241196614749001, ,0.00043856862984687276, ,0.003930101718495411,-0.0012206421145680639,-0.004653338608726821,-0.008085737484866705,0.06220932418210186,-0.061131648492739804, ,0.0062120227701647586, ,0.06273260048560222, ,4.305012110654059e-05, ,0.05610565433124106,-0.19551642817674192,0.09483657640000001,3.997529082588972,0.8624495865194601,0.043845627933910836, ,0.03970583328806308,0.013558642885908098,0.0042273915923566885,0.14853374322782198,-0.06526146347253123,0.09126019079656626, ,0.5131809711456299
0.009875482237954276,0.02098321630423488,-0.08226630089201925, ,0.010261067394105311,0.020792424701728762,-0.08249646602469703, ,0.00048790709825892974, ,0.003690664283963289,-0.0005494611759816843,-0.004499055494671146,-0.008459625636670907,0.012845445088830306,-0.009146891213004063, ,0.00584503300118691, ,0.0153808557499064, ,4.360206775810445e-05, ,0.056422286379084266,-0.19540830991650276,0.09487157623,3.9979484624759416,0.8623129500196947,0.04412040331788847, ,0.040142530270080704,0.012200686752181895,0.004406310240663901,0.060093516601136765,-0.03587683966228064,0.054407639755768386, ,0.5295729637145996
0.009956427100989991,0.02097979599784338,-0.0823720044956732, ,0.010323571924716257,0.020785426433360833,-0.08258077284401806, ,0.00046492910476412293, ,0.0036938581212266953,-0.00011225607113254238,-0.0050399920831703145,-0.0012625772503081587,-0.022151785679584736,0.02090611516563747, ,0.006249696748137302, ,0.02218773775884465, ,4.403532358907195e-05, ,0.05731812339249431,-0.19514573699877913,0.09498046459000001,3.9983678423629105,0.8620396770201638,0.044833311566124634, ,0.04090385412003051,0.012605863650168808,0.005214013590834698,0.01129921718630713,-0.00875769950504122,0.037158389384759016, ,0.5446479320526123
0.010010484911270589,0.020970779018517096,-0.08245734559530012, ,0.010386025910768903,0.02077838393978434,-0.08266488787150075, ,0.0004702347339737009, ,0.003831791947201232,-0.0007568161109541005,-0.006505291568358971,-0.02273354388138781,0.07593854142462175,-0.03400959863613178, ,0.00758776769160721, ,0.07926838007336699, ,4.446268643422095e-05, ,0.0578818828923127,-0.19496811414267198,0.09506083457000002,3.999835671967302,0.8610832215218057,0.04610330933284296, ,0.039589879665611505,0.012705441365439923,0.005974798019504878,0.1253129859433211,-0.08879625932592221,0.09348351823392521, ,0.5614478588104248
0.010068962068877248,0.020967624736411054,-0.0825513190062328, ,0.010448429080156548,0.020771297880700947,-0.08274881236923215, ,0.0004706836255395475, ,0.0035910060674749803,0.0001298764156590442,-0.005209243387896603,-0.012594634819362283,-0.04210014404821025,0.008583860571642933, ,0.006328381241228364, ,0.0439436793097391, ,4.4867553103466655e-05, ,0.05851514698799911,-0.19476732308794215,0.09515416745000001,4.000464741797756,0.8605366755227439,0.046875695908190795, ,0.04005780563886483,0.01183617396250403,0.005485127933884298,-0.00988582397647991,0.0,-0.00047577702334131514, ,0.5763649940490723
0.010148872696184624,0.020965258831279147,-0.08267014384694137, ,0.0105107811619434,0.020764168913970843,-0.08283254759534288, ,0.0004447357304352707, ,0.00432812273651239,-0.000748141424962634,-0.005605655799334952,-0.005564230568218677,0.027567135140324633,-0.09624309388933766, ,0.007121498364436953, ,0.02812307942110955, ,4.51613726432185e-05, ,0.05934920213841536,-0.19452791836884117,0.09527601871000001,4.001513191515178,0.860263402523213,0.04726188919586488, ,0.042120258126263105,0.011699086037870305,0.005502180145077721,0.14560567403108338,-0.03750299456558319,0.05039093720175822, ,0.5917959213256836
0.010187204745231927,0.020958406798299627,-0.08271869222800135, ,0.010573081886362322,0.020756997695614694,-0.08291609480401202, ,0.0004779482939680451, ,0.0036887890200813316,-0.0006576441249386438,-0.004893088746489402,-0.02000340886290521,0.05761505140422389,0.041441473272837856, ,0.006162952028919269, ,0.06098877365255862, ,4.555023035262615e-05, ,0.059766229713623484,-0.1944120773757278,0.09532138886000001,4.002351951289117,0.8595802200243859,0.04822737241504971, ,0.0424025654863587,0.01247987132541699,0.004464353004484305,0.05361202104804231,-0.08392121251892622,0.10038700287232072, ,0.6101038455963135
0.010264941648854487,0.02095426708236109,-0.08281709473002152, ,0.010635330984814324,0.020749784879815235,-0.08299945524547109, ,0.00046071313085889286, ,0.0038081475536775387,-1.33034791196052e-05,-0.0049398070155220655,0.002476233920629251,-0.03306056502551394,0.027530332115339465, ,0.006237295738037272, ,0.03315317015451974, ,4.586292933976214e-05, ,0.060592562131165505,-0.19414950445800416,0.09542120319000001,4.002561641232601,0.8594435835246205,0.04874718401944894, ,0.04197122581091144,0.01224634682648997,0.005214013590834698,0.0,0.0,0.033525202870594364, ,0.6254129409790039
0.010308696697357192,0.02094767823034032,-0.0828706176989158, ,0.010697528189866646,0.020742531118919612,-0.0830826301660095, ,0.0004880825269301815, ,0.004458460182813969,-0.0006370759371041456,-0.005618365475655163,0.006042120368552995,-0.006739408351029215,-0.11959025931889083, ,0.0072006779937314625, ,0.009051344533923436, ,4.639322147167276e-05, ,0.06104820337074475,-0.19401821799914235,0.09547823995000002,4.003819780893508,0.859306947024855,0.049103638143567, ,0.04169461404150737,0.012241607528182503,0.00579651074235808,0.14235971856379384,-0.0013717773444236864,0.02393839730568819, ,0.6395258903503418
0.010378290238086094,0.02094353420649281,-0.0829820994670766, ,0.010759673235251623,0.02073523706344084,-0.08316562080797903, ,0.0004717210753159091, ,0.0036710496118831292,-0.0003877870124771301,-0.004892726579696561,-0.009538987710906006,0.009061483914274636,0.027882903285447957, ,0.006129091074835029, ,0.013156852757161344, ,4.6849645462400086e-05, ,0.06182819939104142,-0.19377109054716718,0.09558712831,4.004239160780477,0.8583504915264969,0.0505369933905665, ,0.04086862254886769,0.0129853505142954,0.004829839757428745,0.027303077254014884,-0.03799803858087104,0.06022426796736574, ,0.6567938327789307
0.010420726611660434,0.020938524296253695,-0.08303130858265927, ,0.010821765855865424,0.0207279033620597,-0.08324842840979775, ,0.0005023292472571213, ,0.003849741607251651,-0.000340599080914565,-0.004125594046376798,0.0021472830953324033,-0.04102187531768963,0.0014045866439917933, ,0.005653056201031797, ,0.04107803644377852, ,4.7379681112917784e-05, ,0.062283840630620674,-0.19362435862255692,0.09563768362000001,4.004658540667446,0.8582138550267315,0.050975126254825254, ,0.04167630283639472,0.013735264373783584,0.004429591635150168,0.013588689460471447,0.009706162091882464,0.019436736177527524, ,0.6698229312896729
0.010508562938863009,0.020923221125090458,-0.08314542592261082, ,0.010883805787766461,0.020720530661626702,-0.08333105420595495, ,0.0004651327543934321, ,0.003914132460458501,-0.00021432546825103605,-0.0066555103080453044,-0.012270325959950274,0.04882289761971898,0.06498522696952705, ,0.007724130098907789, ,0.050341198020012246, ,4.777692809685531e-05, ,0.06317195491115649,-0.19333089477333637,0.09575046085000001,4.006755440102292,0.8575306725279043,0.052022288214150725, ,0.04391343894422526,0.01278762182434588,0.006366431462829738,0.035161357339815805,-0.07586226077458597,0.10810408515162237, ,0.6831438541412354
0.010541322732807288,0.02092510197505891,-0.08320168691124044, ,0.010945792768174251,0.02071311960716401,-0.08341349942701623, ,0.0005033856132701358, ,0.004131233050996148,6.663683801366987e-05,-0.007241298046498208,-0.011570891711521526,0.0036519592196062652,0.02953190147804397, ,0.008337141259930899, ,0.01213352056210097, ,4.826948528808606e-05, ,0.06353492335624504,-0.19323049924597147,0.09580749761000001,4.006755440102292,0.8572573995283733,0.052571838982105934, ,0.04461539330440563,0.013365766416686024,0.007270110232770426,0.02270207457238191,-0.03807767011887908,0.056977758634423385, ,0.6977829933166504
0.010544236702810019,0.020924804786576327,-0.08320676216775846, ,0.01100772653546782,0.02070567084186716,-0.08349576529962763, ,0.0005885280969768067, ,0.00414685471176221,6.378560345785076e-05,-0.007259944019468131,-0.011570801247150573,0.0010875576167198083,0.027690014386948195, ,0.00836105613959648, ,0.011621798608760295, ,4.89856044308295e-05, ,0.06356581428774194,-0.193215053780223,0.09581268277,4.006755440102292,0.8572573995283733,0.052571838982105934, ,0.04469945433748034,0.013579985912774869,0.007303444071526824,0.022026936862308853,-0.03589218845372944,0.054330151542730284, ,0.7109758853912354
0.010679049812795792,0.020906499847228085,-0.083395178338295, ,0.011069606829184616,0.02069818500710695,-0.08357785304651985, ,0.0004788526962336818, ,0.0038305114791872723,-0.0005255074738761815,-0.0066720472270775195,-0.01687579588224304,0.07082016113563414,0.08593250215433026, ,0.007711367615257232, ,0.0728030747751382, ,4.936642646225211e-05, ,0.06492501527360545,-0.1927439670748953,0.09599675595000001,4.008852339537137,0.8563009440300153,0.054250230449526926, ,0.04373130947394967,0.015435416649068116,0.006100655503638453,0.047603822922222164,-0.0957588375971296,0.13228013728679155, ,0.7239058017730713
0.010720340829343714,0.020903485291995906,-0.0834600384295736, ,0.011131433390018979,0.020690662742431292,-0.08365976388651351, ,0.0005041634548393869, ,0.004463626523486499,-0.00020923443772844028,-0.006756294944448812,-0.014099345152042763,0.006209596741130478,0.014115929668350947, ,0.00810032481864081, ,0.01540618743641086, ,4.9802136543580745e-05, ,0.06540382471180738,-0.19259723515028504,0.09606416303000001,4.00948140936759,0.8557543980309535,0.055022617024874765, ,0.04802476799517752,0.014302478004291,0.006758087195587612,0.03843387948528908,-0.04205831435094174,0.05666088031845142, ,0.7397778034210205
0.010811428680597174,0.02089692901890764,-0.08358733431213052, ,0.011193205959820863,0.020683104685567104,-0.08374149903452356, ,0.0004639412657767068, ,0.004575840278116404,-0.0005258848928481,-0.005221997820232582,-0.0008432877007893392,-0.028626520917322186,-0.044883826171129175, ,0.0069630546749161835, ,0.02863893905320244, ,5.011298913110538e-05, ,0.06632282992384009,-0.19231921676681296,0.09619508832000001,4.010949238971982,0.8554811250314226,0.05549048905268933, ,0.04679336368760887,0.01480451506372399,0.005487017402686876,0.06393297216141965,0.0,0.021931849067975535, ,0.753389835357666
0.010852320729503085,0.020891499284389145,-0.08363846368970257, ,0.011254924281594404,0.020675511472422185,-0.08382305970156344, ,0.0004927636783182784, ,0.004029160238067405,-0.0005869392694550163,-0.005079962833834495,-0.003514460681551212,-0.0008502567226263066,0.044832683792391435, ,0.006510349631409327, ,0.0036158494152184165, ,5.04885784284613e-05, ,0.06677847116341934,-0.19216476210932848,0.09624564363000002,4.011158928915466,0.8550712155321264,0.05615145772434088, ,0.044427407096662354,0.016654429897941518,0.005084204123842963,0.0164738888692763,-0.028831421240675156,0.06929454368342082, ,0.7673728466033936
0.010892743511617113,0.02088315168500017,-0.08369261047177415, ,0.011316588099496488,0.02066788373708717,-0.08390444709475055, ,0.0005204414269707557, ,0.004200047845854956,-0.0006650645045318052,-0.005612169609030241,-0.01973756631667912,0.01965766517381646,0.018509063429307814, ,0.007041247078691504, ,0.027856692528434944, ,5.0922400189426314e-05, ,0.06721094420437591,-0.19200258471896975,0.09629749523000002,4.01178799874592,0.8545246695330646,0.05692384429968872, ,0.045999486940606286,0.016111535069349876,0.0054438863704716345,0.04157485471839362,-0.05366442295471892,0.06426830104218206, ,0.782843828201294
0.010991005970112794,0.02087194811694408,-0.08381324972560915, ,0.011378197158835838,0.020660222111836993,-0.08398566241730973, ,0.00047378376304260434, ,0.0044900230931593284,-0.0002675262023431311,-0.005456864132457604,-0.00239251216540976,-0.03476711851975002,-0.01562890474076989, ,0.00707172141745887, ,0.034849342028070246, ,5.1221703663193194e-05, ,0.06821489947802509,-0.19168595267112656,0.09642193907,4.013255828350312,0.8542513965335337,0.05755507380778446, ,0.046932216398848065,0.014159495905471617,0.00577340033345415,0.033525755511662855,0.0,0.02129919303952203, ,0.7974348068237305
0.011034110443142751,0.020867863176365596,-0.08386904298170576, ,0.011439751206070848,0.02065252722713321,-0.08406670686857855, ,0.0004999850115297039, ,0.004345645720176418,-0.000519535269118146,-0.005145106198408949,-0.007642615143161361,-0.011245946365293486,0.0246831338519863, ,0.006754751765538944, ,0.013597090581149539, ,5.170576092337045e-05, ,0.06870143164910124,-0.19152377528076783,0.09647767954000001,4.013255828350312,0.8538414870342373,0.058134363739295536, ,0.047401069709525866,0.015986681529391977,0.0052397406315789485,0.02076174768398492,-0.024359453660629204,0.05116558055028818, ,0.8085768222808838
0.011076384367408926,0.020859324284894457,-0.08392381276643601, ,0.01150124998880902,0.020644799711625687,-0.08414758164401187, ,0.000525931648938715, ,0.0042411979105333114,-0.000651249690614746,-0.005972178452101195,-0.013294835201083696,0.04300646099048981,0.05630266935706884, ,0.007353829025723929, ,0.04501453456777172, ,5.22396645951489e-05, ,0.06914935015580626,-0.19137704335615757,0.09652953114000001,4.01409458812425,0.8531583045354102,0.058936489478199294, ,0.047001952233021685,0.015986681529391977,0.005692927634024303,0.039960407834357406,-0.07174724384186122,0.1047097275004065, ,0.8208179473876953
0.01112982359592059,0.020849282220732047,-0.08399578537415389, ,0.011562693255805208,0.020637040192154437,-0.0842282879351862, ,0.0005352385094796046, ,0.004868355766778014,-0.0005417826849876111,-0.007186163180594427,-0.012456804475569759,-0.0009485175144199574,-0.07661833866932186, ,0.00869685906565147, ,0.01249286372509406, ,5.278064147785307e-05, ,0.0696667732583793,-0.1911994205000504,0.09660082709000001,4.015562417728641,0.8527483950361139,0.05976081563013186, ,0.04747220688267672,0.01564665153478496,0.007270110232770426,0.10417925376361412,-0.025371761784672427,0.02808388743183154, ,0.8336999416351318
0.011188901931713909,0.020849401433974152,-0.0840953329993191, ,0.011624080756960328,0.02062924929375136,-0.08430882692980413, ,0.0005323788436268645, ,0.004672852108550901,3.195633213981183e-05,-0.0075958260742507045,-0.00453127497643591,-0.020723042938598002,-0.00019733732119925872, ,0.008918135555474547, ,0.021212659811097385, ,5.3299139061410146e-05, ,0.07029231462119148,-0.19099862944532056,0.09670193771,4.015772107672126,0.8523384855368175,0.06034010556164282, ,0.04775890365297976,0.014788365522591676,0.00785444355029586,0.03350490169314478,-0.013798031291423039,0.03784645460684653, ,0.8458399772644043
0.011235929957543954,0.020847981956835758,-0.08417670158630208, ,0.011685412243319843,0.02062142763964241,-0.08438919981169948, ,0.0005463667995607952, ,0.004442124920927257,-8.014003268995342e-05,-0.007703794166819643,-0.00989699615092718,0.013664540752247288,0.058158552207114675, ,0.00889310636407138, ,0.016872171752524888, ,5.3836039452861175e-05, ,0.07124993349759533,-0.1906897201303516,0.09685360364000001,4.017449627220002,0.8515186665382249,0.06158036416480528, ,0.04802476799517752,0.015528872779982128,0.006995525480895917,0.15943683697098768,-0.04749904662314745,0.058248726964627906, ,0.8577849864959717
0.01130495189897177,0.020838308622242552,-0.08427549707483513, ,0.011746687467072699,0.02061357585124919,-0.08446940776084097, ,0.0005321996661320461, ,0.0050776500868189665,-0.0007940772003628463,-0.006769473234086889,0.0004518813560411977,0.007090422128368773,-0.08254306314541976, ,0.008499344496567224, ,0.007104806014417187, ,5.4324785783269775e-05, ,0.07145072455232516,-0.19062021553448358,0.09688212202,4.017869007106971,0.8513820300384595,0.0618551395487828, ,0.04856547674435557,0.016122484124782666,0.006857000223848473,0.12930870226494826,-0.023162864179272297,0.050373933270139504, ,0.871466875076294
0.01133602009315646,0.020835067213708508,-0.0843164280026567, ,0.011807906181549664,0.020605694548191073,-0.08454945195333795, ,0.0005740979547923083, ,0.004708204037655725,-0.0005168106420132888,-0.006188385178533835,-0.00100746668545754,-0.011928702490307357,-0.003226245145505637, ,0.007792970525915846, ,0.011971170500361889, ,5.4896558225879656e-05, ,0.07175963386729414,-0.19051209727424442,0.09692489959000002,4.01828838699394,0.8513820300384595,0.06201849702906387, ,0.04846626228726802,0.016751445994434382,0.006353734152373355,0.049383160479980905,-0.017192833668373216,0.05234775355266588, ,0.8838558197021484
0.01142185879317589,0.020826678638483365,-0.08441927234222835, ,0.011869068141222327,0.020597784348286578,-0.08462933356144402, ,0.000544531461793701, ,0.004602949553247957,-0.0006181664165797215,-0.004861848812211741,-0.0032042009088186774,-0.010554452509878099,0.05283701584707923, ,0.006723603809054881, ,0.01103011190019675, ,5.538554029960334e-05, ,0.07270953001082375,-0.1901954652264012,0.09702989908000001,4.01828838699394,0.8508354840393977,0.06287256234455235, ,0.05091037637257016,0.01710779548557252,0.004977753600000001,0.007414944168335817,-0.02679583150887863,0.06884695526488767, ,0.895737886428833
0.01147486559712205,0.02081399133805643,-0.0844814776622043, ,0.011930173101701294,0.020589845867555898,-0.08470905375356208, ,0.0005561807197573155, ,0.0052186804654088936,-0.0014092449474333133,-0.0061827884923245004,-0.0049492181608724525,0.04679632507794332,-0.10074314689916303, ,0.008212640906719772, ,0.04705731390729379, ,5.58874853174502e-05, ,0.07321923038052258,-0.1900255651031683,0.09708563955,4.019546526654848,0.850288938040336,0.06380830640018154, ,0.049710288925338283,0.01715728467880506,0.005932518256983241,0.17632816937199103,-0.06913718385678276,0.09152631469656129, ,0.9068210124969482
0.011572645308770307,0.020802217381673843,-0.08460666139628491, ,0.011991220819734978,0.020581879720222244,-0.08478861369424832, ,0.0005068143468445451, ,0.004794455116913333,-0.00024996807106897334,-0.007118633506356003,-0.004632020394980282,-0.03199838122584329,0.030441943530574393, ,0.008586281319783597, ,0.03233190368248705, ,5.626688672218436e-05, ,0.07422318565417177,-0.18970121032245085,0.09721786113000001,4.021224046202724,0.8497423920412741,0.06498908667623232, ,0.05007754171950965,0.018791473575934806,0.00739842615884812,0.004736088286679777,-0.007667999989030955,0.04190842817286834, ,0.9228270053863525
0.011620476760514874,0.02079797635979694,-0.08468530608528911, ,0.01205221105320868,0.020573886518713818,-0.08486801454421768, ,0.0005196086386200022, ,0.004403724237748558,-0.000213702309181967,-0.00729229381293366,-0.021077137499729764,0.008714325025015415,0.059234308563897595, ,0.008521502502096349, ,0.02280756815626337, ,5.666428261364047e-05, ,0.07473288602387058,-0.18950814200059524,0.09729563853,4.021433736146208,0.8491958460422123,0.0658431519917208, ,0.04787938524645347,0.01701576861367595,0.007246957015468609,0.0,-0.05136819219992558,0.06512966698281453, ,0.9350788593292236
0.011671469591565342,0.020791735162595793,-0.0847518838045232, ,0.012113143561142369,0.020565866873666037,-0.08494725746034756, ,0.0005331634315443636, ,0.005090880571759888,-0.0008186175369351155,-0.006494922280428077,-0.006648478548822213,0.005193287289896192,-0.055618451746482625, ,0.008292841195663947, ,0.00843637886370033, ,5.708061394093038e-05, ,0.07523486366069518,-0.1893382418773623,0.09736434190000001,4.022272495920146,0.849059209542447,0.06619960611583892, ,0.05018346988813896,0.017021872925286237,0.00656316914709518,0.10170078760666837,-0.03001005260116506,0.049688601176867395, ,0.9467089176177979
0.011722890283700639,0.02078531789673345,-0.08481483362171222, ,0.01217401810369006,0.020557821393922766,-0.08502634359568345, ,0.0005477293472590372, ,0.00497920425775658,-0.0006193542320359485,-0.006336089524987657,-0.0016488136696768772,-0.00830072721274358,-0.03488424843269791, ,0.008082209176571738, ,0.008462898354925209, ,5.763994502313589e-05, ,0.07573684129751977,-0.18916834175412936,0.09743045269000002,4.023111255694085,0.849059209542447,0.06644464233626063, ,0.04958042923640061,0.016386969704450145,0.006517516988543373,0.07700187852125248,-0.018560405612693665,0.046889936839186394, ,0.9579768180847168
0.011766903290794543,0.02078146652779537,-0.08487548656363177, ,0.012234834442138071,0.02054975068653878,-0.0851052740994421, ,0.0005704858500442534, ,0.004988267109282884,-0.00043382383204063155,-0.006414589049451649,-0.00934748324625425,-0.018232863066071914,0.013826848042606848, ,0.008137442137683368, ,0.020489332047794382, ,5.823548537108647e-05, ,0.07620792800284747,-0.18901388709664488,0.09749137832000002,4.023320945637569,0.8486493000431506,0.06710561100791212, ,0.05231363922738191,0.01738039222682615,0.006617703165766515,0.026275759745393416,-0.02214490151956149,0.04545976992401934, ,0.9690380096435547
0.011819854179129907,0.020773823766749768,-0.08494387364052249, ,0.012295592338903743,0.020541655356781235,-0.08518405011701684, ,0.000581303455274055, ,0.004350361516070171,-0.0005171076477947295,-0.0051344382928473955,-0.01470979990678437,0.01566648447842669,0.049433773344028695, ,0.0067494816262413685, ,0.021489926608578507, ,5.8841176453380046e-05, ,0.0767871329684143,-0.18882854150766348,0.09755748911,4.023740325524537,0.847829481044558,0.0681825121307934, ,0.04807342530824254,0.014577103157983221,0.005080960612440192,0.01759291059498858,-0.053292935510179475,0.07354669646850656, ,0.978571891784668
0.011873323804330168,0.02076403543493468,-0.08500147078774122, ,0.012356291557534128,0.020533536008131622,-0.08526267278998266, ,0.0005954950229568329, ,0.0056537404058053,-0.001229876791513595,-0.006278891781265039,-0.001421569453685944,-0.009486351714381176,-0.0981005475791667, ,0.008538258575340577, ,0.009592273911924028, ,5.946367467794602e-05, ,0.07731227880386157,-0.1886509186515563,0.09761711845000001,4.02478877524196,0.8476928445447925,0.06853896625491146, ,0.05413402256615561,0.02011380702807774,0.006454137568881686,0.13243501555300924,-0.01267432806356536,0.03747582924468026, ,0.9880650043487549
0.011924917644407191,0.020755340924116183,-0.08506798839574362, ,0.012416931862704495,0.020525393242287877,-0.08534114325609952, ,0.0006079206404794758, ,0.005276323883757461,-0.0006511178942653975,-0.007320469650105334,0.0002187938395563395,-0.005445074157702141,-0.06394134621653007, ,0.00904725506088202, ,0.005449466240293808, ,6.009885313825225e-05, ,0.07781425644068617,-0.18847329579544916,0.09768452553000001,4.025837224959383,0.8474195715452616,0.06908851702286667, ,0.05034320507080678,0.017191474920012825,0.007520685325779038,0.10502425299291324,-0.0169858374128267,0.04532768143019477, ,0.9981338977813721
0.011974909236789892,0.020750772982566418,-0.08515206197687022, ,0.012477513020217136,0.020517227659165922,-0.0854194626493183, ,0.0006153512012040784, ,0.005119194983551732,-0.00040168419331742394,-0.008630463875814674,-0.007264744952532443,0.06011881453313434,0.07382559812315875, ,0.010042530267941658, ,0.060556158499469936, ,6.073621535588953e-05, ,0.0783316795432592,-0.1883033956722162,0.09776619180000001,4.026466294789837,0.8465997525466691,0.07024709688588843, ,0.05370511689783292,0.01728226945155177,0.008379174918463968,0.052295996992847565,-0.08724943110455981,0.13863966702444497, ,1.008941888809204
0.012055661268686282,0.020746956328797188,-0.08529020325500952, ,0.0125380347969998,0.020509039856901508,-0.08549763209978391, ,0.0005764678603888993, ,0.005578283538738533,-0.0002597624621045614,-0.0093570656128505,-0.008095204810029472,-0.009985483203303494,-0.030841199904401, ,0.010896761016855846, ,0.012854654565183237, ,6.128288225691047e-05, ,0.0791193982964301,-0.18803310002161835,0.09790619112000001,4.027514744507259,0.8460532065476072,0.07126451968165826, ,0.05376597255437438,0.0188512001506696,0.009584122454873648,0.0717598650912942,-0.02367376137479273,0.045416360641083287, ,1.0215208530426025
0.012143608460541126,0.020742199007395247,-0.0854194254174161, ,0.012598496961104511,0.020500830431852562,-0.08557565273384128, ,0.0005381350310114782, ,0.00556107442165737,-0.00044499269654116064,-0.007085234144384036,0.002585340645437143,-0.031442962811994275,-0.0022784101465256716, ,0.009017988140596117, ,0.03154907096562345, ,6.17426453912893e-05, ,0.07998434437834324,-0.18773963617239783,0.09804100528000001,4.028353504281197,0.8459165700478418,0.07235608246704128, ,0.05595338535287192,0.018662132066562594,0.007467797243319269,0.04228340767371769,-0.0049975156142730995,0.0471221739586182, ,1.0309898853302002
0.012143608460541126,0.020742199007395247,-0.0854194254174161, ,0.012658899281705984,0.020492599978600392,-0.08565352567403899, ,0.0006185686992590168, ,0.00556107442165737,-0.00044499269654116064,-0.007085234144384036,0.002585340645437143,-0.031442962811994275,-0.0022784101465256716, ,0.009017988140596117, ,0.03154907096562345, ,6.235139877498786e-05, ,0.08057127207678431,-0.18752339965191955,0.09811489381,4.028982574111651,0.8455066605485455,0.07309872987883342, ,0.05847008105882364,0.021455333836416634,0.007531352964539008,0.05188793926277128,-0.021875194184246893,0.11789192091759496, ,1.0402698516845703
0.01225957250727589,0.020721547822262557,-0.0855694727477545, ,0.012719241529100405,0.02048434908995214,-0.08573125203913379, ,0.0005419699136981306, ,0.005859011669240849,-0.0011978608440370714,-0.007574137957882558,-0.03332864761924976,0.028503866646602653,-0.07595612599479126, ,0.009650412123169404, ,0.0438550925322095, ,6.279928383300963e-05, ,0.08115047704235115,-0.18732260859718972,0.09819007863000001,4.030240713772558,0.8448234780497182,0.07422757057829943, ,0.05814763575886691,0.020602896560675377,0.007415647821229051,0.12225776109190714,-0.06736658053054534,0.04598939296485919, ,1.051156997680664
0.012316468418920604,0.02071426786601136,-0.08564273804448418, ,0.012779523474704204,0.02047607835694217,-0.08580883294409575, ,0.0005465727239758258, ,0.005862222511172081,-0.00046447237021901046,-0.007596302709554591,-0.016141266156829603,-0.03299761315089118,-0.02061217374558766, ,0.009606518735128558, ,0.03673394780727821, ,6.324740773437914e-05, ,0.08172195927504376,-0.18712181754245988,0.09826526345000001,4.030869783603012,0.8445502050501874,0.07436872764555169, ,0.05931058847404423,0.019538180267340083,0.007936627563527655,0.04113185781619769,-0.016186797535815693,0.023200938186681192, ,1.0634899139404297
0.012374029152218531,0.020710097058739094,-0.08572049485292055, ,0.012839744891052279,0.020467788368834228,-0.08588626950011226, ,0.0006275969874812953, ,0.00546422625610106,-0.0004038239245507183,-0.006918037407229304,-0.018307071022607573,-0.038922837760653806,0.020943568100400066, ,0.008824969343160785, ,0.04301320881918905, ,6.396367419048578e-05, ,0.08231660970635905,-0.18692102648773004,0.09834563343000001,4.031079473546496,0.8442769320506565,0.07475492093322572, ,0.05723579104853485,0.019823885848855395,0.0072502555848884855,0.0,-0.015128055593079014,0.024863159529975403, ,1.071124792098999
0.012374029152218531,0.020710097058739094,-0.08572049485292055, ,0.012899905551796946,0.020459479713123285,-0.08596356281459325, ,0.0006312187224320834, ,0.00546422625610106,-0.0004038239245507183,-0.006918037407229304,-0.018307071022607573,-0.038922837760653806,0.020943568100400066, ,0.008824969343160785, ,0.04301320881918905, ,6.467593989384468e-05, ,0.08231660970635905,-0.18692102648773004,0.09834563343000001,4.031079473546496,0.8442769320506565,0.07475492093322572, ,0.05723579104853485,0.019823885848855395,0.0072502555848884855,0.0,-0.015128055593079014,0.024863159529975403, ,1.0788779258728027
0.012431600615464427,0.020697823660525732,-0.08579570486996109, ,0.012960005231706484,0.020451152975537363,-0.08604071399117495, ,0.0006325245724685611, ,0.005971181155277316,-0.0015468909302219658,-0.007745614277120118,-0.030496108954044473,0.05355195096936229,-0.023943279032643067, ,0.009901637060055722, ,0.061626488510078174, ,6.537993389176028e-05, ,0.08291126013767433,-0.1866970672343775,0.09841822567000001,4.031918233320434,0.843457113052064,0.07566846457582577, ,0.06067579383533937,0.024464279855238663,0.0073881315027829325,0.11179492555001658,-0.08914210828553078,0.09321670401187857, ,1.086310863494873
0.012497863599915175,0.020681314173027664,-0.08588271581167427, ,0.013020043706663716,0.020442808740039266,-0.08611772412972465, ,0.0006203110630980016, ,0.0064173222683670565,-0.0012551439180226833,-0.008869407835658592,-0.023588862257473673,0.043829006636557935,-0.05077449404810009, ,0.011019247102514357, ,0.04977364955940087, ,6.605057188714526e-05, ,0.08355224696623496,-0.18644993978240235,0.09850248452000002,4.033595752868311,0.8426372940534712,0.07666368695856662, ,0.063054446218253,0.02298303258863424,0.008680551237057221,0.13105569204166717,-0.07772180780586913,0.08501671630801882, ,1.0938777923583984
0.012497863599915175,0.020681314173027664,-0.08588271581167427, ,0.01308002075366481,0.02043444758882859,-0.08619459432634612, ,0.0007050661458118052, ,0.0064173222683670565,-0.0012551439180226833,-0.008869407835658592,-0.023588862257473673,0.043829006636557935,-0.05077449404810009, ,0.011019247102514357, ,0.04977364955940087, ,6.686850112325514e-05, ,0.08355224696623496,-0.18644993978240235,0.09850248452000002,4.033595752868311,0.8426372940534712,0.07666368695856662, ,0.063054446218253,0.02298303258863424,0.008680551237057221,0.13105569204166717,-0.07772180780586913,0.08501671630801882, ,1.1031808853149414
0.012578825539042519,0.020672823207719838,-0.08600229849978593, ,0.013139936150817523,0.020426070102343645,-0.0862713256733829, ,0.0006694085701519594, ,0.006631493449215008,-0.00022176898423287295,-0.010561408158362824,-0.01589056923377562,-0.011710725302385976,0.034115859406600696, ,0.012472739439949913, ,0.019739583234637793, ,6.760871210973567e-05, ,0.08436313391802855,-0.18616419866605602,0.09862303949000001,4.034434512642249,0.8419541115546441,0.07779252765803274, ,0.06682883208343011,0.022866732905655607,0.010821203478260872,0.026766145067605846,-0.04106711214097601,0.06875469546503432, ,1.1109697818756104
0.012648903287144178,0.020670235221756397,-0.08610857265777233, ,0.013199789677340132,0.020417676859263295,-0.0863479192594232, ,0.0006515737387971877, ,0.006792638398192349,-0.00015566277219201344,-0.010029431131122847,0.0071033165017400125,-0.03954733010406906,0.03036180347976803, ,0.012114192342916623, ,0.04018019813544795, ,6.830549253086592e-05, ,0.08505817987670874,-0.1859325166798293,0.09873322414,4.034853892529218,0.8416808385551131,0.07850543590626896, ,0.06706497636641044,0.022546196616410257,0.010576900079681276,0.02685894460997177,-0.0051529370626117125,0.06826492016301602, ,1.1187448501586914
0.012723582314959809,0.02066020846346387,-0.08621680290549147, ,0.013259581113560284,0.020409268436508487,-0.08642437616930533, ,0.0006271780202461345, ,0.007536553259429843,-0.0012023344527190552,-0.010631669758495905,0.01037006766037301,0.021066149504192222,-0.0671155982325852, ,0.013087308547678327, ,0.023480221940604316, ,6.894788100658766e-05, ,0.08574550310251473,-0.1856853892278541,0.09884081621000002,4.0361120321901245,0.8412709290558168,0.0794931195384827, ,0.06993142340344198,0.025787212380019235,0.010791877723577238,0.16385763058083666,-0.04111382882202492,0.10848576143037031, ,1.1266529560089111
0.012795819725354225,0.020649970226893147,-0.08632538896576544, ,0.013319310240912988,0.020400845409244757,-0.08650069748412115, ,0.0006056719997295535, ,0.0069059190229850305,-0.0007698095990995475,-0.010617782147327295,-0.018922562362088773,0.0368630126959848,0.01978703544495077, ,0.012689429541905915, ,0.04143603427480322, ,6.954226024208891e-05, ,0.08647143999269183,-0.18542281631013047,0.09895100086000001,4.037370171851032,0.8404511100572242,0.08089673562192634, ,0.06891571645495335,0.024134522268176698,0.010555872445328034,0.07990892541763564,-0.07986877470480747,0.10925472555169152, ,1.1349999904632568
0.012795819725354225,0.020649970226893147,-0.08632538896576544, ,0.013378976841939744,0.020392408350883497,-0.08657688428122101, ,0.0006853176170900935, ,0.0069059190229850305,-0.0007698095990995475,-0.010617782147327295,-0.018922562362088773,0.0368630126959848,0.01978703544495077, ,0.012689429541905915, ,0.04143603427480322, ,7.027061189883621e-05, ,0.08647143999269183,-0.18542281631013047,0.09895100086000001,4.037370171851032,0.8404511100572242,0.08089673562192634, ,0.06891571645495335,0.024134522268176698,0.010555872445328034,0.07990892541763564,-0.07986877470480747,0.10925472555169152, ,1.143979787826538
0.01286044242213028,0.020643793507972494,-0.08641528889984502, ,0.013438580700287035,0.020383957833084193,-0.08665293763421833, ,0.0006769308440039873, ,0.007250386959268226,-0.0005765451622300613,-0.009414133969475262,0.0004479463387590584,-0.021887684213037682,0.014976536511158876, ,0.011896488296066435, ,0.02189226580754602, ,7.097371739867394e-05, ,0.08711242682125248,-0.1852065797896522,0.09904303745000001,4.037999241681486,0.8400412005579279,0.08180274051399944, ,0.07221989464114975,0.023512621793476407,0.009838672958616432,0.05303234865003624,-0.025007911932962895,0.07841047149603687, ,1.1518938541412354
0.012966238730827532,0.020633463916459746,-0.08655190603766143, ,0.013498121600704823,0.02037549442575608,-0.08672885861299487, ,0.0006170574197916666, ,0.007547383988019336,-0.0008014745105252088,-0.009030852637686888,0.003891332974384971,-0.04404374980539413,-0.05075366565950027, ,0.011796680287998336, ,0.044215317585307556, ,7.156130567062626e-05, ,0.08813955029352433,-0.18485133407743787,0.09918692564,4.039047691398908,0.8399045640581624,0.0824859095986798, ,0.07266228296973261,0.024128385852649575,0.009624659528700907,0.08887513257710987,0.0,0.04510335576541875, ,1.1593639850616455
0.012966238730827532,0.020633463916459746,-0.08655190603766143, ,0.013557599329045274,0.020367018697060264,-0.08680464828370332, ,0.0006961171273568733, ,0.007547383988019336,-0.0008014745105252088,-0.009030852637686888,0.003891332974384971,-0.04404374980539413,-0.05075366565950027, ,0.011796680287998336, ,0.044215317585307556, ,7.240592533789818e-05, ,0.08813955029352433,-0.18485133407743787,0.09918692564,4.039047691398908,0.8399045640581624,0.0824859095986798, ,0.07266228296973261,0.024128385852649575,0.009624659528700907,0.08887513257710987,0.0,0.04510335576541875, ,1.1649339199066162
0.013041262845054163,0.020623183556618182,-0.08664558853550525, ,0.013617013672261633,0.020358531213411163,-0.08688030770877385, ,0.0006757388312765123, ,0.007452082515482716,-0.001235197701708153,-0.009485204358428881,-0.021682604113311278,0.033807968766429816,0.018397472555830973, ,0.012125524685597178, ,0.04016359043299125, ,7.320613660362735e-05, ,0.08889637811519834,-0.18460420662546267,0.09928155481,4.039886451172846,0.8392213815593352,0.08361475029814597, ,0.07573578735711954,0.02660413276099545,0.009430912682060394,0.08328688563492315,-0.08300726456750608,0.11165486660387128, ,1.1704778671264648
0.013041262845054163,0.020623183556618182,-0.08664558853550525, ,0.013676364418406278,0.020350032539478913,-0.08695583794691794, ,0.0007577731744529307, ,0.007452082515482716,-0.001235197701708153,-0.009485204358428881,-0.021682604113311278,0.033807968766429816,0.018397472555830973, ,0.012125524685597178, ,0.04016359043299125, ,7.414043307001979e-05, ,0.08889637811519834,-0.18460420662546267,0.09928155481,4.039886451172846,0.8392213815593352,0.08361475029814597, ,0.07573578735711954,0.02660413276099545,0.009430912682060394,0.08328688563492315,-0.08300726456750608,0.11165486660387128, ,1.176001787185669
0.013120087947196282,0.020608237816535063,-0.08674511972285057, ,0.013735651356629897,0.02034152323819074,-0.08703124005313269, ,0.0007293283353440179, ,0.008025439465752026,-0.0016474851519693492,-0.01055606746230901,-0.006544832172611734,0.046312293703473825,-0.049693883274979034, ,0.013362351821937207, ,0.04677246246641517, ,7.501592017905945e-05, ,0.08966865140262079,-0.18431846550911637,0.09938136914000001,4.0411445908337535,0.8385381990605081,0.0848252697377525, ,0.07677746080782426,0.028879166633740346,0.010500205352669746,0.16375394376088784,-0.07659377972162514,0.12521025724084642, ,1.182222843170166
0.013120087947196282,0.020608237816535063,-0.08674511972285057, ,0.013794874277179694,0.020333003870733155,-0.08710651507870557, ,0.0008134475516514459, ,0.008025439465752026,-0.0016474851519693492,-0.01055606746230901,-0.006544832172611734,0.046312293703473825,-0.049693883274979034, ,0.013362351821937207, ,0.04677246246641517, ,7.602691638372314e-05, ,0.08966865140262079,-0.18431846550911637,0.09938136914000001,4.0411445908337535,0.8385381990605081,0.0848252697377525, ,0.07677746080782426,0.028879166633740346,0.010500205352669746,0.16375394376088784,-0.07659377972162514,0.12521025724084642, ,1.1882820129394531
0.013181671938166578,0.020597670529059715,-0.0868278150156649, ,0.013854032971398372,0.02032447499655369,-0.08718166407121872, ,0.0008074121079759103, ,0.008421237656875542,-0.0012787630899080684,-0.011400406566151891,-0.010939422661346135,0.02506018681491986,-0.049220977296337065, ,0.014231013617703028, ,0.027343806223466077, ,7.701722639880817e-05, ,0.09026330183393606,-0.1841022289886381,0.0994643317,4.042193040551176,0.8379916530614462,0.08567933505324099, ,0.08069467819597856,0.028243137368592495,0.011525912821997107,0.14351173815828677,-0.06656823968714848,0.10349642921660535, ,1.1952228546142578
0.013181671938166578,0.020597670529059715,-0.0868278150156649, ,0.013913127231722461,0.020315937173362827,-0.08725668807455414, ,0.0008934946171209783, ,0.008372895646972571,-0.00024615305435422494,-0.012811019107771451,-0.014591521511815924,-0.03267024471279084,0.010305922770001356, ,0.015306475212175577, ,0.03578067976638416, ,7.814383003473429e-05, ,0.09146032542944087,-0.1836929241463042,0.09964710859,4.043451180212084,0.8374451070623845,0.08677843658915113, ,0.08117787986182273,0.027113411873848796,0.01335189565800503,0.04352019763660363,-0.030687619129773712,0.06199756097056211, ,1.2018427848815918
0.013305917494550854,0.02058726056226264,-0.08700427659764308, ,0.013972156851681163,0.020307390957135723,-0.08733158812889763, ,0.0007933061926869736, ,0.008372895646972571,-0.00024615305435422494,-0.012811019107771451,-0.014591521511815924,-0.03267024471279084,0.010305922770001356, ,0.015306475212175577, ,0.03578067976638416, ,7.908947250949362e-05, ,0.09146032542944087,-0.1836929241463042,0.09964710859,4.043451180212084,0.8374451070623845,0.08677843658915113, ,0.08117787986182273,0.027113411873848796,0.01335189565800503,0.04352019763660363,-0.030687619129773712,0.06199756097056211, ,1.207427978515625
0.013403019659746877,0.02058061324788348,-0.08715076435546207, ,0.014031121625894798,0.02029883690211429,-0.08740636527074343, ,0.0007343308633079437, ,0.00967061959026053,-0.0011143152298441397,-0.013775340245938655,-0.0034310621589592194,-0.020670169990524734,-0.09962777140579096, ,0.016867797146704444, ,0.020952985919471517, ,7.992627797376882e-05, ,0.09237933064147358,-0.18337629209846099,0.09979877452000001,4.044499629929506,0.8370351975630882,0.08760276274108386, ,0.08893808955807946,0.03207061221982791,0.014273128602150539,0.16019581763147575,-0.026362721189386297,0.06806576968789749, ,1.213460922241211
0.013403019659746877,0.02058061324788348,-0.08715076435546207, ,0.014090021350073418,0.02029027556080892,-0.08748102053289904, ,0.0008156815786706272, ,0.00967061959026053,-0.0011143152298441397,-0.013775340245938655,-0.0034310621589592194,-0.020670169990524734,-0.09962777140579096, ,0.016867797146704444, ,0.020952985919471517, ,8.089093918775428e-05, ,0.09237933064147358,-0.18337629209846099,0.09979877452000001,4.044499629929506,0.8370351975630882,0.08760276274108386, ,0.08893808955807946,0.03207061221982791,0.014273128602150539,0.16019581763147575,-0.026362721189386297,0.06806576968789749, ,1.2190029621124268
0.013498076809481058,0.020566819483697738,-0.08729244396500438, ,0.014148855821015754,0.020281707484000447,-0.08755555494448941, ,0.0007576473861573314, ,0.009391512564196035,-0.0013545724735270276,-0.013881709424042904,0.0032729775086989196,0.06348834448134055,-0.02307180508826693, ,0.016814792040434238, ,0.06357264939634293, ,8.174923013541105e-05, ,0.09325972218913518,-0.18305966005061777,0.09994136642000001,4.046386839420867,0.8362153785644955,0.08908805756466798, ,0.08811229485466182,0.03091105588223804,0.013899486492146597,0.17743397000717906,-0.09409550349896303,0.17106482686544547, ,1.2251429557800293
0.013498076809481058,0.020566819483697738,-0.08729244396500438, ,0.014207624836607417,0.020273133220741785,-0.08762996953096168, ,0.0008388286663692043, ,0.009391512564196035,-0.0013545724735270276,-0.013881709424042904,0.0032729775086989196,0.06348834448134055,-0.02307180508826693, ,0.016814792040434238, ,0.06357264939634293, ,8.28710411089964e-05, ,0.09325972218913518,-0.18305966005061777,0.09994136642000001,4.046386839420867,0.8362153785644955,0.08908805756466798, ,0.08811229485466182,0.03091105588223804,0.013899486492146597,0.17743397000717906,-0.09409550349896303,0.17106482686544547, ,1.2306628227233887
0.013581468637745779,0.02055674049793736,-0.0874090173589696, ,0.014266328195819643,0.02026455331836017,-0.08770426531408966, ,0.0008009852165907816, ,0.009701912902775764,-0.0010496319781763165,-0.012841134697586172,-0.00789599855317092,-0.009748608574831648,-0.003758468940600077, ,0.01612834714359189, ,0.012545190837247942, ,8.392276815265996e-05, ,0.09404744094230608,-0.18278936440001992,0.10006062510000001,4.047644979081774,0.8356688325654338,0.09018715910057817, ,0.09395736787967403,0.03222307013869975,0.013296169883138568,0.09527566724733598,-0.049934974412257666,0.10383401351757154, ,1.235576868057251
0.013581468637745779,0.02055674049793736,-0.0874090173589696, ,0.014324965698708144,0.020255968322458684,-0.08777844331197847, ,0.0008830216961991152, ,0.009701912902775764,-0.0010496319781763165,-0.012841134697586172,-0.00789599855317092,-0.009748608574831648,-0.003758468940600077, ,0.01612834714359189, ,0.012545190837247942, ,8.51029268323527e-05, ,0.09404744094230608,-0.18278936440001992,0.10006062510000001,4.047644979081774,0.8356688325654338,0.09018715910057817, ,0.09395736787967403,0.03222307013869975,0.013296169883138568,0.09527566724733598,-0.049934974412257666,0.10383401351757154, ,1.2394168376922607
0.013688593806858426,0.020546124477070223,-0.0875416516435007, ,0.014383537146411399,0.02024737877691843,-0.08785250453906904, ,0.0008178170707630443, ,0.009605243243425472,-0.0009399898492902905,-0.011307660872753544,-0.015815512853928886,-0.07993542766232391,-0.005007647624237041, ,0.014866320092589856, ,0.08148498547292317, ,8.616807686047497e-05, ,0.0950977326132006,-0.18242639595493138,0.10020062442000001,4.048274048912227,0.835395559565903,0.0909000673488144, ,0.09423728059431061,0.0333556912332059,0.012140862439024392,0.030656450879869138,0.0,0.03409697983613872, ,1.243492841720581
0.013688593806858426,0.020546124477070223,-0.0875416516435007, ,0.014442042341149503,0.02023878522390011,-0.08792645000614252, ,0.0009001177091116277, ,0.009605243243425472,-0.0009399898492902905,-0.011307660872753544,-0.015815512853928886,-0.07993542766232391,-0.005007647624237041, ,0.014866320092589856, ,0.08148498547292317, ,8.736116137750887e-05, ,0.0950977326132006,-0.18242639595493138,0.10020062442000001,4.048274048912227,0.835395559565903,0.0909000673488144, ,0.09423728059431061,0.0333556912332059,0.012140862439024392,0.030656450879869138,0.0,0.03409697983613872, ,1.2472548484802246
0.013688593806858426,0.020546124477070223,-0.0875416516435007, ,0.014500481086222684,0.020230188203846033,-0.088000280720325, ,0.000984539137485654, ,0.009605243243425472,-0.0009399898492902905,-0.011307660872753544,-0.015815512853928886,-0.07993542766232391,-0.005007647624237041, ,0.014866320092589856, ,0.08148498547292317, ,8.868439146693801e-05, ,0.09614030155122093,-0.18204025931122014,0.10033803116000001,4.049951568460103,0.8344391040675448,0.09241510133595443, ,0.10326108983511509,0.03711260913510785,0.0150983995450237,0.24459085403906064,-0.13180319867671134,0.18691269595165377, ,1.2517709732055664
0.013796766928048716,0.020525708269541858,-0.08767807900895988, ,0.014558853186009886,0.020221588255482058,-0.0880739976850918, ,0.0009110521640581547, ,0.011044776945574286,-0.0021598624829820365,-0.015271057075559587,-0.012239234940407982,0.09408707092115762,-0.07307087126725728, ,0.0189699047949082, ,0.09487979213688356, ,8.987931554043032e-05, ,0.09614030155122093,-0.18204025931122014,0.10033803116000001,4.049951568460103,0.8344391040675448,0.09241510133595443, ,0.10326108983511509,0.03711260913510785,0.0150983995450237,0.24459085403906064,-0.13180319867671134,0.18691269595165377, ,1.25563383102417
0.013796766928048716,0.020525708269541858,-0.08767807900895988, ,0.01461715844596776,0.02021298591581924,-0.0881476019002723, ,0.000995635103166664, ,0.011044776945574286,-0.0021598624829820365,-0.015271057075559587,-0.012239234940407982,0.09408707092115762,-0.07307087126725728, ,0.0189699047949082, ,0.09487979213688356, ,9.12037903327774e-05, ,0.09614030155122093,-0.18204025931122014,0.10033803116000001,4.049951568460103,0.8344391040675448,0.09241510133595443, ,0.10326108983511509,0.03711260913510785,0.0150983995450237,0.24459085403906064,-0.13180319867671134,0.18691269595165377, ,1.2593858242034912
0.013909813700256023,0.02050989345968271,-0.08784163722538835, ,0.014675396672628281,0.0202043817201561,-0.0882210943620545, ,0.0009074372866164313, ,0.01148777900606643,-0.0011977807194301655,-0.017207516787506462,-0.008141091215091933,0.048779707451665696,-0.055721786682617, ,0.020724439175436715, ,0.049454380155693076, ,9.237697755923512e-05, ,0.09718287048924124,-0.18169273633188004,0.10050265999,4.052258157838433,0.8333460120694213,0.09412323196693129, ,0.10626757173400983,0.034684554663183764,0.017465802105263162,0.19646870820199824,-0.09966947768067214,0.15493869245066888, ,1.26344895362854
0.013909813700256023,0.02050989345968271,-0.08784163722538835, ,0.014733567673598957,0.020195776202079876,-0.0882944760629891, ,0.0009911121394483042, ,0.01148777900606643,-0.0011977807194301655,-0.017207516787506462,-0.008141091215091933,0.048779707451665696,-0.055721786682617, ,0.020724439175436715, ,0.049454380155693076, ,9.367755527589615e-05, ,0.09718287048924124,-0.18169273633188004,0.10050265999,4.052258157838433,0.8333460120694213,0.09412323196693129, ,0.10626757173400983,0.034684554663183764,0.017465802105263162,0.19646870820199824,-0.09966947768067214,0.15493869245066888, ,1.2698299884796143
0.013976451664919714,0.02050298458615352,-0.08794369350215318, ,0.014791671257559928,0.020187169893469036,-0.08836774799199468, ,0.0009716707851400085, ,0.011822126883563475,-0.0010949884629696382,-0.018011108173372054,-0.015140792606288745,-7.233754983033448e-05,-0.02975996276882291, ,0.02157224377337741, ,0.015140902815291587, ,9.4938512952083e-05, ,0.09780841185205341,-0.18146877707852752,0.10060636319,4.053096917612371,0.8327994660703596,0.09497729728241983, ,0.10996169357876104,0.040024015840772156,0.018521873860465117,0.13605493482923098,-0.06791242961476666,0.1196856397867796, ,1.2740118503570557
0.013976451664919714,0.02050298458615352,-0.08794369350215318, ,0.01484970723426343,0.020178563324494716,-0.08844091113436157, ,0.0010559591934279594, ,0.011822126883563475,-0.0010949884629696382,-0.018011108173372054,-0.015140792606288745,-7.233754983033448e-05,-0.02975996276882291, ,0.02157224377337741, ,0.015140902815291587, ,9.632646514362753e-05, ,0.09780841185205341,-0.18146877707852752,0.10060636319,4.053096917612371,0.8327994660703596,0.09497729728241983, ,0.10996169357876104,0.040024015840772156,0.018521873860465117,0.13605493482923098,-0.06791242961476666,0.1196856397867796, ,1.2780218124389648
0.014142277945000205,0.020494502625118365,-0.08821110359802181, ,0.01490767541453203,0.020169957023622846,-0.08851396647175677, ,0.0008848101797011657, ,0.011547193137388702,-0.00037037326339690174,-0.018818769583372547,-0.016398535285724686,-0.037567312133675465,0.028893998519560486, ,0.022082140619479437, ,0.04099039570712129, ,9.74321476506785e-05, ,0.09934523569402409,-0.18090501757870914,0.10088376925,4.054355057273279,0.8321162835715323,0.09643285294244813, ,0.10771503014582383,0.03924604696380099,0.01959263409594096,0.05515807222723804,-0.04314453364008936,0.09794898281821107, ,1.281916856765747
0.014142277945000205,0.020494502625118365,-0.08821110359802181, ,0.014965575610257568,0.020161351517615844,-0.08858691498222902, ,0.0009643873197777554, ,0.011547193137388702,-0.00037037326339690174,-0.018818769583372547,-0.016398535285724686,-0.037567312133675465,0.028893998519560486, ,0.022082140619479437, ,0.04099039570712129, ,9.865750278519506e-05, ,0.09934523569402409,-0.18090501757870914,0.10088376925,4.054355057273279,0.8321162835715323,0.09643285294244813, ,0.10771503014582383,0.03924604696380099,0.01959263409594096,0.05515807222723804,-0.04314453364008936,0.09794898281821107, ,1.2856168746948242
0.014142277945000205,0.020494502625118365,-0.08821110359802181, ,0.015023407634399619,0.020152747331534562,-0.08865975764021204, ,0.0010461723853205508, ,0.011547193137388702,-0.00037037326339690174,-0.018818769583372547,-0.016398535285724686,-0.037567312133675465,0.028893998519560486, ,0.022082140619479437, ,0.04099039570712129, ,0.00010000489545146515, ,0.09934523569402409,-0.18090501757870914,0.10088376925,4.054355057273279,0.8321162835715323,0.09643285294244813, ,0.10771503014582383,0.03924604696380099,0.01959263409594096,0.05515807222723804,-0.04314453364008936,0.09794898281821107, ,1.289383888244629
0.01427178728372157,0.020481597079848767,-0.08841084129496898, ,0.015081171300984016,0.020144144988740047,-0.0887324954165299, ,0.0009340437757999729, ,0.013187570129748537,-0.0018685307445617163,-0.019499311269733532,-0.00528613427365144,0.04218730294576655,-0.050255250877553476, ,0.02361411766432033, ,0.04251716037541335, ,0.00010116634163009971, ,0.1005422592895289,-0.1804570990720041,0.10108858307000002,4.05582288687767,0.8312964645729397,0.09791814776603236, ,0.12058061189132248,0.0457114362035023,0.01983662704856787,0.20983630206729895,-0.09818776988575895,0.17860610436478286, ,1.2936718463897705
0.01427178728372157,0.020481597079848767,-0.08841084129496898, ,0.015138866425101575,0.020135545010895702,-0.08880512927840162, ,0.0010134304543096956, ,0.013187570129748537,-0.0018685307445617163,-0.019499311269733532,-0.00528613427365144,0.04218730294576655,-0.050255250877553476, ,0.02361411766432033, ,0.04251716037541335, ,0.00010244567565383709, ,0.1005422592895289,-0.1804570990720041,0.10108858307000002,4.05582288687767,0.8312964645729397,0.09791814776603236, ,0.12058061189132248,0.0457114362035023,0.01983662704856787,0.20983630206729895,-0.09818776988575895,0.17860610436478286, ,1.2974209785461426
0.01427178728372157,0.02046362056402638,-0.08859323453109492, ,0.01519649282290681,0.020126947917968808,-0.08887766018944565, ,0.0010948864061912725, ,0.013576067561231225,-0.0018890252206520703,-0.01907041908570698,0.009206589395252249,0.03807472597107303,-0.040444132922174705, ,0.02361411766432033, ,0.04251716037541335, ,0.00010384503894767923, ,0.10168522375491412,-0.180040071496796,0.10127524883000001,4.058129476255999,0.8304766455743471,0.09964847881003802, ,0.12453666871190391,0.04478383273169929,0.019787343503105594,0.21813634009104851,-0.0942717714091847,0.20059262524604654, ,1.301905870437622
0.014398599027760722,0.02046362056402638,-0.08859323453109492, ,0.015254050311616169,0.02011835422823274,-0.08895008910968404, ,0.0009891162378316866, ,0.013576067561231225,-0.0018890252206520703,-0.01907041908570698,0.009206589395252249,0.03807472597107303,-0.040444132922174705, ,0.02348529137174737, ,0.03917197370237113, ,0.0001052347896523637, ,0.10168522375491412,-0.180040071496796,0.10127524883000001,4.058129476255999,0.8304766455743471,0.09964847881003802, ,0.12453666871190391,0.04478383273169929,0.019787343503105594,0.21813634009104851,-0.0942717714091847,0.20059262524604654, ,1.3038477897644043
0.014398599027760722,0.02046362056402638,-0.08859323453109492, ,0.015311538709507294,0.02010976445826828,-0.08902241699554729, ,0.0010690512587725744, ,0.013576067561231225,-0.0018890252206520703,-0.01907041908570698,0.009206589395252249,0.03807472597107303,-0.040444132922174705, ,0.02348529137174737, ,0.03917197370237113, ,0.00010674547377324177, ,0.10168522375491412,-0.180040071496796,0.10127524883000001,4.058129476255999,0.8304766455743471,0.09964847881003802, ,0.12453666871190391,0.04478383273169929,0.019787343503105594,0.21813634009104851,-0.0942717714091847,0.20059262524604654, ,1.3058929443359375
0.014398599027760722,0.02046362056402638,-0.08859323453109492, ,0.015368957835916776,0.02010117912296628,-0.08909464479987889, ,0.0011508137435770232, ,0.013576067561231225,-0.0018890252206520703,-0.01907041908570698,0.009206589395252249,0.03807472597107303,-0.040444132922174705, ,0.02348529137174737, ,0.03917197370237113, ,0.00010837938342864674, ,0.10168522375491412,-0.180040071496796,0.10127524883000001,4.058129476255999,0.8304766455743471,0.09964847881003802, ,0.12453666871190391,0.04478383273169929,0.019787343503105594,0.21813634009104851,-0.0942717714091847,0.20059262524604654, ,1.3085248470306396
0.014398599027760722,0.02046362056402638,-0.08859323453109492, ,0.0154263075112397,0.020092598735528818,-0.08916677347193952, ,0.001234013306614428, ,0.013576067561231225,-0.0018890252206520703,-0.01907041908570698,0.009206589395252249,0.03807472597107303,-0.040444132922174705, ,0.02348529137174737, ,0.03917197370237113, ,0.00011013818643362454, ,0.10168522375491412,-0.180040071496796,0.10127524883000001,4.058129476255999,0.8304766455743471,0.09964847881003802, ,0.12453666871190391,0.04478383273169929,0.019787343503105594,0.21813634009104851,-0.0942717714091847,0.20059262524604654, ,1.3106179237365723
0.014398599027760722,0.02046362056402638,-0.08859323453109492, ,0.015483587556927674,0.020084023807471464,-0.08923880395741213, ,0.0013183526425833108, ,0.013576067561231225,-0.0018890252206520703,-0.01907041908570698,0.009206589395252249,0.03807472597107303,-0.040444132922174705, ,0.02348529137174737, ,0.03917197370237113, ,0.00011202307638081595, ,0.10294402921341271,-0.17958443025721674,0.10145932201,4.059806995803876,0.8296568265757545,0.10154216733432514, ,0.1365423619546342,0.047543557895025436,0.018543435995343426,0.14743877103335215,-0.0757585923450005,0.17617710305747825, ,1.3128139972686768
0.01453329162274214,0.020444845320501698,-0.08877168710646485, ,0.015540797795487485,0.020075454848625,-0.08931073719840611, ,0.0012008717710293403, ,0.014397019710686156,-0.0019178574634741586,-0.017794996673732563,0.000286019280869266,-0.0031324429126719277,0.0065246923721787075, ,0.02296985547229765, ,0.003145190175665326, ,0.0006239971259071142, ,0.10294402921341271,-0.17958443025721674,0.10145932201,4.059806995803876,0.8296568265757545,0.10154216733432514, ,0.1365423619546342,0.047543557895025436,0.018543435995343426,0.14743877103335215,-0.0757585923450005,0.17617710305747825, ,1.314851999282837
0.01453329162274214,0.020444845320501698,-0.08877168710646485, ,0.015597938050479881,0.020066892367137382,-0.08938257413346168, ,0.0012843299462383347, ,0.014397019710686156,-0.0019178574634741586,-0.017794996673732563,0.000286019280869266,-0.0031324429126719277,0.0065246923721787075, ,0.02296985547229765, ,0.003145190175665326, ,0.0006295931667573789, ,0.10294402921341271,-0.17958443025721674,0.10145932201,4.059806995803876,0.8296568265757545,0.10154216733432514, ,0.1365423619546342,0.047543557895025436,0.018543435995343426,0.14743877103335215,-0.0757585923450005,0.17617710305747825, ,1.31703782081604
0.01453329162274214,0.020444845320501698,-0.08877168710646485, ,0.015655008146518216,0.020058336869475512,-0.08945431569755515, ,0.0013688018614105052, ,0.014397019710686156,-0.0019178574634741586,-0.017794996673732563,0.000286019280869266,-0.0031324429126719277,0.0065246923721787075, ,0.02296985547229765, ,0.003145190175665326, ,0.0006358050045275731, ,0.10294402921341271,-0.17958443025721674,0.10145932201,4.059806995803876,0.8296568265757545,0.10154216733432514, ,0.1365423619546342,0.047543557895025436,0.018543435995343426,0.14743877103335215,-0.0757585923450005,0.17617710305747825, ,1.3190388679504395
0.01453329162274214,0.020444845320501698,-0.08877168710646485, ,0.015712007909266794,0.02004978886042723,-0.0895259628221024, ,0.0014540885619402889, ,0.014397019710686156,-0.0019178574634741586,-0.017794996673732563,0.000286019280869266,-0.0031324429126719277,0.0065246923721787075, ,0.02296985547229765, ,0.003145190175665326, ,0.0006426240341726792, ,0.10294402921341271,-0.17958443025721674,0.10145932201,4.059806995803876,0.8296568265757545,0.10154216733432514, ,0.1365423619546342,0.047543557895025436,0.018543435995343426,0.14743877103335215,-0.0757585923450005,0.17617710305747825, ,1.3209238052368164
0.014704529793407943,0.020422183062725394,-0.08899720442773962, ,0.0157689371654399,0.02004124884310291,-0.08959751643496387, ,0.0012800189214745947, ,0.015511171634314914,-0.0018392046334595648,-0.021944619157435084,0.00018481817751566688,0.029219359903887007,-0.010292427600699164, ,0.02693595049590383, ,0.029219857321012642, ,0.0006478917605140173, ,0.10455035765125141,-0.17902839349027258,0.10169135792000002,4.061903895238721,0.8284270980778654,0.10393346704998252, ,0.1427021677570989,0.050937703466704655,0.022594058893617024,0.19457697878582653,-0.10286606807740582,0.20881678166346224, ,1.3228399753570557
0.014704529793407943,0.020422183062725394,-0.08899720442773962, ,0.015825795742799974,0.020032717318937805,-0.08966897746045002, ,0.0013638914554783927, ,0.015511171634314914,-0.0018392046334595648,-0.021944619157435084,0.00018481817751566688,0.029219359903887007,-0.010292427600699164, ,0.02693595049590383, ,0.029219857321012642, ,0.0006537606104727418, ,0.10455035765125141,-0.17902839349027258,0.10169135792000002,4.061903895238721,0.8284270980778654,0.10393346704998252, ,0.1427021677570989,0.050937703466704655,0.022594058893617024,0.19457697878582653,-0.10286606807740582,0.20881678166346224, ,1.3247618675231934
0.014704529793407943,0.020422183062725394,-0.08899720442773962, ,0.015882583470156565,0.020024194787693485,-0.0897403468193243, ,0.0014486082101569165, ,0.015511171634314914,-0.0018392046334595648,-0.021944619157435084,0.00018481817751566688,0.029219359903887007,-0.010292427600699164, ,0.02693595049590383, ,0.029219857321012642, ,0.0006602227860799301, ,0.10455035765125141,-0.17902839349027258,0.10169135792000002,4.061903895238721,0.8284270980778654,0.10393346704998252, ,0.1427021677570989,0.050937703466704655,0.022594058893617024,0.19457697878582653,-0.10286606807740582,0.20881678166346224, ,1.3265819549560547
0.014704529793407943,0.020422183062725394,-0.08899720442773962, ,0.015939300177364717,0.020015681747459824,-0.08981162542880824, ,0.0015340087311977797, ,0.015511171634314914,-0.0018392046334595648,-0.021944619157435084,0.00018481817751566688,0.029219359903887007,-0.010292427600699164, ,0.02693595049590383, ,0.029219857321012642, ,0.0006672694469276548, ,0.10455035765125141,-0.17902839349027258,0.10169135792000002,4.061903895238721,0.8284270980778654,0.10393346704998252, ,0.1427021677570989,0.050937703466704655,0.022594058893617024,0.19457697878582653,-0.10286606807740582,0.20881678166346224, ,1.328549861907959
0.014704529793407943,0.020422183062725394,-0.08899720442773962, ,0.01599594569532381,0.020007178694657016,-0.0898828142025869, ,0.0016199655337512755, ,0.015511171634314914,-0.0018392046334595648,-0.021944619157435084,0.00018481817751566688,0.029219359903887007,-0.010292427600699164, ,0.02693595049590383, ,0.029219857321012642, ,0.0006748910156222438, ,0.10455035765125141,-0.17902839349027258,0.10169135792000002,4.061903895238721,0.8284270980778654,0.10393346704998252, ,0.1427021677570989,0.050937703466704655,0.022594058893617024,0.19457697878582653,-0.10286606807740582,0.20881678166346224, ,1.3304929733276367
0.01487514665470489,0.02040089058427486,-0.08925806549933518, ,0.016052519855975837,0.01999868612403733,-0.08995391405081209, ,0.0014255459619031809, ,0.01918775144225479,-0.0022020939202358515,-0.031037701702842195,0.00803891951272459,0.1187770200521689,-0.05324581608183528, ,0.03655622997572239, ,0.11904862836563408, ,0.0006808485945609814, ,0.10607945876034787,-0.1784646339904542,0.10195709737000001,4.0646298645040195,0.827060733080211,0.10651786340947678, ,0.16945882421155498,0.06146174971403549,0.03141777420118344,0.33921406339360655,-0.18007607541700932,0.31945793892826047, ,1.3323829174041748
0.01487514665470489,0.02040089058427486,-0.08925806549933518, ,0.016109022492304524,0.019990204528686936,-0.09002492588010762, ,0.0015096978050143054, ,0.01918775144225479,-0.0022020939202358515,-0.031037701702842195,0.00803891951272459,0.1187770200521689,-0.05324581608183528, ,0.03655622997572239, ,0.11904862836563408, ,0.0006873749662968344, ,0.10607945876034787,-0.1784646339904542,0.10195709737000001,4.0646298645040195,0.827060733080211,0.10651786340947678, ,0.16945882421155498,0.06146174971403549,0.03141777420118344,0.33921406339360655,-0.18007607541700932,0.31945793892826047, ,1.334265947341919
0.01487514665470489,0.02040089058427486,-0.08925806549933518, ,0.016165453438333432,0.019981734400027824,-0.0900958505935734, ,0.0015945116389660234, ,0.01918775144225479,-0.0022020939202358515,-0.031037701702842195,0.00803891951272459,0.1187770200521689,-0.05324581608183528, ,0.03655622997572239, ,0.11904862836563408, ,0.0006944619715520624, ,0.10607945876034787,-0.1784646339904542,0.10195709737000001,4.0646298645040195,0.827060733080211,0.10651786340947678, ,0.16945882421155498,0.06146174971403549,0.03141777420118344,0.33921406339360655,-0.18007607541700932,0.31945793892826047, ,1.336190938949585
0.01487514665470489,0.02040089058427486,-0.08925806549933518, ,0.01622181252912483,0.019973276227819765,-0.09016668909079109, ,0.0016798689967149106, ,0.01918775144225479,-0.0022020939202358515,-0.031037701702842195,0.00803891951272459,0.1187770200521689,-0.05324581608183528, ,0.03655622997572239, ,0.11904862836563408, ,0.0007021007857006115, ,0.10607945876034787,-0.1784646339904542,0.10195709737000001,4.0646298645040195,0.827060733080211,0.10651786340947678, ,0.16945882421155498,0.06146174971403549,0.03141777420118344,0.33921406339360655,-0.18007607541700932,0.31945793892826047, ,1.3380889892578125
0.01487514665470489,0.02040089058427486,-0.08925806549933518, ,0.016278099600778365,0.019964830500162043,-0.09023744226782664, ,0.0017656738715044421, ,0.01918775144225479,-0.0022020939202358515,-0.031037701702842195,0.00803891951272459,0.1187770200521689,-0.05324581608183528, ,0.03655622997572239, ,0.11904862836563408, ,0.0007102821171298718, ,0.10607945876034787,-0.1784646339904542,0.10195709737000001,4.0646298645040195,0.827060733080211,0.10651786340947678, ,0.16945882421155498,0.06146174971403549,0.03141777420118344,0.33921406339360655,-0.18007607541700932,0.31945793892826047, ,1.3399779796600342
0.01487514665470489,0.02040089058427486,-0.08925806549933518, ,0.016334314490429457,0.019956397703495353,-0.09030811101723661, ,0.0018518478024777472, ,0.01918775144225479,-0.0022020939202358515,-0.031037701702842195,0.00803891951272459,0.1187770200521689,-0.05324581608183528, ,0.03655622997572239, ,0.11904862836563408, ,0.0007189963590027563, ,0.10771667812968345,-0.1778622608262647,0.10229413277,4.068613973430226,0.8251478220834948,0.11003800382460016, ,0.1741228285476528,0.06272104531293508,0.038382678361445786,0.43037748881540594,-0.19388445279627656,0.3658363855580151, ,1.3420028686523438
0.015066722003859473,0.020380427306905174,-0.08959239570625943, ,0.016390457036248102,0.019947978322603765,-0.090378696228072, ,0.0015992357770507027, ,0.020758673223608217,-0.0016401108181119256,-0.037922363805263856,0.030632092482868176,0.15372653582046694,-0.10257318953885489, ,0.04326335809988659, ,0.15674850709394916, ,0.0007256648394425135, ,0.10771667812968345,-0.1778622608262647,0.10229413277,4.068613973430226,0.8251478220834948,0.11003800382460016, ,0.1741228285476528,0.06272104531293508,0.038382678361445786,0.43037748881540594,-0.19388445279627656,0.3658363855580151, ,1.3442058563232422
0.015066722003859473,0.020380427306905174,-0.08959239570625943, ,0.016446527077437528,0.019939572840616458,-0.09044919878588288, ,0.001682951638868651, ,0.020758673223608217,-0.0016401108181119256,-0.037922363805263856,0.030632092482868176,0.15372653582046694,-0.10257318953885489, ,0.04326335809988659, ,0.15674850709394916, ,0.0007328624845509808, ,0.10771667812968345,-0.1778622608262647,0.10229413277,4.068613973430226,0.8251478220834948,0.11003800382460016, ,0.1741228285476528,0.06272104531293508,0.038382678361445786,0.43037748881540594,-0.19388445279627656,0.3658363855580151, ,1.3461198806762695
0.015066722003859473,0.020380427306905174,-0.08959239570625943, ,0.016502524454232406,0.019931181739009745,-0.0905196195727228, ,0.0017672278730570872, ,0.020758673223608217,-0.0016401108181119256,-0.037922363805263856,0.030632092482868176,0.15372653582046694,-0.10257318953885489, ,0.04326335809988659, ,0.15674850709394916, ,0.0007405816292413248, ,0.10771667812968345,-0.1778622608262647,0.10229413277,4.068613973430226,0.8251478220834948,0.11003800382460016, ,0.1741228285476528,0.06272104531293508,0.038382678361445786,0.43037748881540594,-0.19388445279627656,0.3658363855580151, ,1.348132848739624
0.015066722003859473,0.020380427306905174,-0.08959239570625943, ,0.01655844900789816,0.01992280549760872,-0.09058995946715302, ,0.001851972092654251, ,0.020758673223608217,-0.0016401108181119256,-0.037922363805263856,0.030632092482868176,0.15372653582046694,-0.10257318953885489, ,0.04326335809988659, ,0.15674850709394916, ,0.0007488141511925317, ,0.10771667812968345,-0.1778622608262647,0.10229413277,4.068613973430226,0.8251478220834948,0.11003800382460016, ,0.1741228285476528,0.06272104531293508,0.038382678361445786,0.43037748881540594,-0.19388445279627656,0.3658363855580151, ,1.3502039909362793
0.015066722003859473,0.020380427306905174,-0.08959239570625943, ,0.016614300580728738,0.019914444594589496,-0.09066021934424813, ,0.0019371078084632245, ,0.020758673223608217,-0.0016401108181119256,-0.037922363805263856,0.030632092482868176,0.15372653582046694,-0.10257318953885489, ,0.04326335809988659, ,0.15674850709394916, ,0.0007575516045548161, ,0.10939251116339017,-0.17725988766207518,0.10267264945000001,4.072178702469462,0.8237814570858404,0.11294911514465678, ,0.19017423158010174,0.06725509678134002,0.04305084194594595,0.3160832654551913,-0.13244990363987105,0.29435614435041957, ,1.352212905883789
0.015267759794088537,0.0203703973645999,-0.08996190820314423, ,0.016670079016046155,0.019906099506480635,-0.09073040007559953, ,0.0016651280609478083, ,0.022621930845288317,-0.0005264766244871336,-0.041762968492377046,0.020348875524410386,0.049636586684515635,-0.05686019135322164, ,0.04749920494177157, ,0.05364457501019144, ,0.0007641762502219183, ,0.10939251116339017,-0.17725988766207518,0.10267264945000001,4.072178702469462,0.8237814570858404,0.11294911514465678, ,0.19017423158010174,0.06725509678134002,0.04305084194594595,0.3160832654551913,-0.13244990363987105,0.29435614435041957, ,1.3541769981384277
0.015267759794088537,0.0203703973645999,-0.08996190820314423, ,0.01672578415819825,0.01989777070816536,-0.09080050252932001, ,0.0017471266258071386, ,0.022621930845288317,-0.0005264766244871336,-0.041762968492377046,0.020348875524410386,0.049636586684515635,-0.05686019135322164, ,0.04749920494177157, ,0.05364457501019144, ,0.0007712990790305068, ,0.10939251116339017,-0.17725988766207518,0.10267264945000001,4.072178702469462,0.8237814570858404,0.11294911514465678, ,0.19017423158010174,0.06725509678134002,0.04305084194594595,0.3160832654551913,-0.13244990363987105,0.29435614435041957, ,1.3561217784881592
0.015267759794088537,0.0203703973645999,-0.08996190820314423, ,0.016781415852557748,0.019889458672883213,-0.090870527570049, ,0.0018297666087359696, ,0.022621930845288317,-0.0005264766244871336,-0.041762968492377046,0.020348875524410386,0.049636586684515635,-0.05686019135322164, ,0.04749920494177157, ,0.05364457501019144, ,0.0007789139533449347, ,0.10939251116339017,-0.17725988766207518,0.10267264945000001,4.072178702469462,0.8237814570858404,0.11294911514465678, ,0.19017423158010174,0.06725509678134002,0.04305084194594595,0.3160832654551913,-0.13244990363987105,0.29435614435041957, ,1.3580398559570312
0.015267759794088537,0.0203703973645999,-0.08996190820314423, ,0.016836973945520983,0.019881163872232113,-0.09094047605895657, ,0.0019129499500874004, ,0.022621930845288317,-0.0005264766244871336,-0.041762968492377046,0.020348875524410386,0.049636586684515635,-0.05686019135322164, ,0.04749920494177157, ,0.05364457501019144, ,0.0007870142104645237, ,0.10939251116339017,-0.17725988766207518,0.10267264945000001,4.072178702469462,0.8237814570858404,0.11294911514465678, ,0.19017423158010174,0.06725509678134002,0.04305084194594595,0.3160832654551913,-0.13244990363987105,0.29435614435041957, ,1.3598859310150146
0.015267759794088537,0.0203703973645999,-0.08996190820314423, ,0.01689245828450618,0.019872886776169982,-0.09101034885374767, ,0.001996594542766015, ,0.022621930845288317,-0.0005264766244871336,-0.041762968492377046,0.020348875524410386,0.049636586684515635,-0.05686019135322164, ,0.04749920494177157, ,0.05364457501019144, ,0.0007955927943815556, ,0.10939251116339017,-0.17725988766207518,0.10267264945000001,4.072178702469462,0.8237814570858404,0.11294911514465678, ,0.19017423158010174,0.06725509678134002,0.04305084194594595,0.3160832654551913,-0.13244990363987105,0.29435614435041957, ,1.3618278503417969
0.01552325549082111,0.020369900139997038,-0.09043788603964575, ,0.016947868717952168,0.019864627853016827,-0.0910801468086675, ,0.001642352528031476, ,0.02342502570480891,0.0005762758383360926,-0.043127167554106005,-0.001329552632892906,-0.029908168105605006,0.0358725411335691, ,0.049081732898836626, ,0.029935213954393757, ,0.0008015558910974001, ,0.11156259910104727,-0.1764876143746527,0.10316523965,4.074694981791278,0.8224150920881861,0.11594190520485387, ,0.19978303485993848,0.06773514743645309,0.04499664271186441,0.16675570312360896,-0.097502377306392,0.23495327656652346, ,1.3637428283691406
0.01552325549082111,0.020369900139997038,-0.09043788603964575, ,0.017003205095317032,0.01985638756945682,-0.0911498707745055, ,0.001720717366281795, ,0.02342502570480891,0.0005762758383360926,-0.043127167554106005,-0.001329552632892906,-0.029908168105605006,0.0358725411335691, ,0.049081732898836626, ,0.029935213954393757, ,0.0008079835937210672, ,0.11156259910104727,-0.1764876143746527,0.10316523965,4.074694981791278,0.8224150920881861,0.11594190520485387, ,0.19978303485993848,0.06773514743645309,0.04499664271186441,0.16675570312360896,-0.097502377306392,0.23495327656652346, ,1.365664005279541
0.01552325549082111,0.020369900139997038,-0.09043788603964575, ,0.01705846726707703,0.019848166390539268,-0.0912195215985999, ,0.0018000098472785344, ,0.02342502570480891,0.0005762758383360926,-0.043127167554106005,-0.001329552632892906,-0.029908168105605006,0.0358725411335691, ,0.049081732898836626, ,0.029935213954393757, ,0.0008148726649263273, ,0.11156259910104727,-0.1764876143746527,0.10316523965,4.074694981791278,0.8224150920881861,0.11594190520485387, ,0.19978303485993848,0.06773514743645309,0.04499664271186441,0.16675570312360896,-0.097502377306392,0.23495327656652346, ,1.3675580024719238
0.01552325549082111,0.020369900139997038,-0.09043788603964575, ,0.017113655084724445,0.01983996477968175,-0.09128910012484213, ,0.0018800978094868092, ,0.02342502570480891,0.0005762758383360926,-0.043127167554106005,-0.001329552632892906,-0.029908168105605006,0.0358725411335691, ,0.049081732898836626, ,0.029935213954393757, ,0.000822219045233641, ,0.11156259910104727,-0.1764876143746527,0.10316523965,4.074694981791278,0.8224150920881861,0.11594190520485387, ,0.19978303485993848,0.06773514743645309,0.04499664271186441,0.16675570312360896,-0.097502377306392,0.23495327656652346, ,1.3694469928741455
0.01552325549082111,0.020369900139997038,-0.09043788603964575, ,0.017168768400767025,0.019831783198670933,-0.09135860719368172, ,0.001960869710824805, ,0.02342502570480891,0.0005762758383360926,-0.043127167554106005,-0.001329552632892906,-0.029908168105605006,0.0358725411335691, ,0.049081732898836626, ,0.029935213954393757, ,0.0008300180223952243, ,0.11156259910104727,-0.1764876143746527,0.10316523965,4.074694981791278,0.8224150920881861,0.11594190520485387, ,0.19978303485993848,0.06773514743645309,0.04499664271186441,0.16675570312360896,-0.097502377306392,0.23495327656652346, ,1.3713338375091553
0.015783762416398943,0.020361982631142028,-0.0908940428915224, ,0.01722380706872612,0.019823622107665008,-0.09142804364213059, ,0.0016274880815491857, ,0.02593376072592743,-0.0019538158878321145,-0.04324842579830171,-0.004518037141409685,0.04716044417489226,-0.04315316964933742, ,0.05046586644400758, ,0.04737477018410856, ,0.0008354429887840267, ,0.11370179610720746,-0.1757230638201045,0.10362283002000001,4.077211261113091,0.8210487270905317,0.11877133778476989, ,0.22017851869714797,0.08346256953251607,0.04474385258426967,0.3294632439855326,-0.16328698701598154,0.3095320146480447, ,1.373187780380249
0.015783762416398943,0.020361982631142028,-0.0908940428915224, ,0.017278770943135305,0.019815481965195562,-0.09149741030376773, ,0.001702282499191595, ,0.02593376072592743,-0.0019538158878321145,-0.04324842579830171,-0.004518037141409685,0.04716044417489226,-0.04315316964933742, ,0.05046586644400758, ,0.04737477018410856, ,0.0008413000125029967, ,0.11370179610720746,-0.1757230638201045,0.10362283002000001,4.077211261113091,0.8210487270905317,0.11877133778476989, ,0.22017851869714797,0.08346256953251607,0.04474385258426967,0.3294632439855326,-0.16328698701598154,0.3095320146480447, ,1.3750770092010498
0.015783762416398943,0.020361982631142028,-0.0908940428915224, ,0.017333659879539307,0.019807363228168853,-0.0915667080087434, ,0.001778275340977656, ,0.02593376072592743,-0.0019538158878321145,-0.04324842579830171,-0.004518037141409685,0.04716044417489226,-0.04315316964933742, ,0.05046586644400758, ,0.04737477018410856, ,0.0008475884375263166, ,0.11370179610720746,-0.1757230638201045,0.10362283002000001,4.077211261113091,0.8210487270905317,0.11877133778476989, ,0.22017851869714797,0.08346256953251607,0.04474385258426967,0.3294632439855326,-0.16328698701598154,0.3095320146480447, ,1.3769779205322266
0.015783762416398943,0.020361982631142028,-0.0908940428915224, ,0.017388473734492205,0.01979926635186866,-0.09163593758378404, ,0.001855304761968194, ,0.02593376072592743,-0.0019538158878321145,-0.04324842579830171,-0.004518037141409685,0.04716044417489226,-0.04315316964933742, ,0.05046586644400758, ,0.04737477018410856, ,0.000854306546355929, ,0.11370179610720746,-0.1757230638201045,0.10362283002000001,4.077211261113091,0.8210487270905317,0.11877133778476989, ,0.22017851869714797,0.08346256953251607,0.04474385258426967,0.3294632439855326,-0.16328698701598154,0.3095320146480447, ,1.3788988590240479
0.015783762416398943,0.020361982631142028,-0.0908940428915224, ,0.01744321236555635,0.01979119178995721,-0.09170509985219662, ,0.0019332329687849516, ,0.02593376072592743,-0.0019538158878321145,-0.04324842579830171,-0.004518037141409685,0.04716044417489226,-0.04315316964933742, ,0.05046586644400758, ,0.04737477018410856, ,0.0008614517544514855, ,0.11370179610720746,-0.1757230638201045,0.10362283002000001,4.077211261113091,0.8210487270905317,0.11877133778476989, ,0.22017851869714797,0.08346256953251607,0.04474385258426967,0.3294632439855326,-0.16328698701598154,0.3095320146480447, ,1.3808438777923584
0.01604866189683554,0.020333998273529805,-0.09130854260977744, ,0.017497875631300758,0.01978313999447776,-0.09177419563387314, ,0.0016187952404835746, ,0.027382289471543957,-0.0032185379266770134,-0.0391907079942478,0.010254091130752506,0.06376525975615045,-0.07305362993450527, ,0.04791722400326717, ,0.06458376177376053, ,0.0008664342773859072, ,0.11597227957222946,-0.174881285936814,0.10405060572000001,4.081195370039298,0.819272452593581,0.12218006029619688, ,0.23665072707848075,0.0848051309727174,0.040843106461538464,0.3796478599584257,-0.17980222584802244,0.35043660862214104, ,1.3827478885650635
0.01604866189683554,0.020333998273529805,-0.09130854260977744, ,0.017552463391300083,0.01977511141585589,-0.09184322574529519, ,0.0016910527815066888, ,0.027382289471543957,-0.0032185379266770134,-0.0391907079942478,0.010254091130752506,0.06376525975615045,-0.07305362993450527, ,0.04791722400326717, ,0.06458376177376053, ,0.0008718239408115333, ,0.11597227957222946,-0.174881285936814,0.10405060572000001,4.081195370039298,0.819272452593581,0.12218006029619688, ,0.23665072707848075,0.0848051309727174,0.040843106461538464,0.3796478599584257,-0.17980222584802244,0.35043660862214104, ,1.3846697807312012
0.01604866189683554,0.020333998273529805,-0.09130854260977744, ,0.017606975506132702,0.019767106502901876,-0.09191219099953846, ,0.0017646809805138962, ,0.027382289471543957,-0.0032185379266770134,-0.0391907079942478,0.010254091130752506,0.06376525975615045,-0.07305362993450527, ,0.04791722400326717, ,0.06458376177376053, ,0.0008776217137966134, ,0.11597227957222946,-0.174881285936814,0.10405060572000001,4.081195370039298,0.819272452593581,0.12218006029619688, ,0.23665072707848075,0.0848051309727174,0.040843106461538464,0.3796478599584257,-0.17980222584802244,0.35043660862214104, ,1.386969804763794
0.01604866189683554,0.020333998273529805,-0.09130854260977744, ,0.017661411837379726,0.01975912570281222,-0.09198109220627748, ,0.0018395009657624782, ,0.027382289471543957,-0.0032185379266770134,-0.0391907079942478,0.010254091130752506,0.06376525975615045,-0.07305362993450527, ,0.04791722400326717, ,0.06458376177376053, ,0.0008838273863899416, ,0.11597227957222946,-0.174881285936814,0.10405060572000001,4.081195370039298,0.819272452593581,0.12218006029619688, ,0.23665072707848075,0.0848051309727174,0.040843106461538464,0.3796478599584257,-0.17980222584802244,0.35043660862214104, ,1.3890609741210938
0.01604866189683554,0.020333998273529805,-0.09130854260977744, ,0.017715772247623544,0.01975116946117162,-0.09204993017178975, ,0.0019153594606041743, ,0.027382289471543957,-0.0032185379266770134,-0.0391907079942478,0.010254091130752506,0.06376525975615045,-0.07305362993450527, ,0.04791722400326717, ,0.06458376177376053, ,0.0008904397714810585, ,0.11597227957222946,-0.174881285936814,0.10405060572000001,4.081195370039298,0.819272452593581,0.12218006029619688, ,0.23665072707848075,0.0848051309727174,0.040843106461538464,0.3796478599584257,-0.17980222584802244,0.35043660862214104, ,1.3911168575286865
0.016321653402343733,0.020298912895961755,-0.09166888680469576, ,0.01777005660044629,0.019743238221954958,-0.09211870569896054, ,0.0016152347214085823, ,0.028606778377515255,-0.00367815492979812,-0.03516319468165703,0.024626117273167228,-0.009239572266366907,0.02857619177181777, ,0.045478861606772725, ,0.02630136098760012, ,0.000895056299824546, ,0.1184744450234782,-0.17398544892340398,0.10444208530000001,4.084340719191566,0.8176328145963956,0.12572240112434918, ,0.25647822042829943,0.08977950951605561,0.037216849345794396,0.2746008062143165,-0.13150201688016697,0.3521205849669949, ,1.3930509090423584
0.016321653402343733,0.020298912895961755,-0.09166888680469576, ,0.017824264760428615,0.019735332427529055,-0.09218741958728743, ,0.0016865171462119143, ,0.028606778377515255,-0.00367815492979812,-0.03516319468165703,0.024626117273167228,-0.009239572266366907,0.02857619177181777, ,0.045478861606772725, ,0.02630136098760012, ,0.0009000655456877572, ,0.1184744450234782,-0.17398544892340398,0.10444208530000001,4.084340719191566,0.8176328145963956,0.12572240112434918, ,0.25647822042829943,0.08977950951605561,0.037216849345794396,0.2746008062143165,-0.13150201688016697,0.3521205849669949, ,1.3949968814849854
0.016321653402343733,0.020298912895961755,-0.09166888680469576, ,0.017878396593148275,0.01972745251865435,-0.09225607263288477, ,0.0017592053665716903, ,0.028606778377515255,-0.00367815492979812,-0.03516319468165703,0.024626117273167228,-0.009239572266366907,0.02857619177181777, ,0.045478861606772725, ,0.02630136098760012, ,0.0009054689407876561, ,0.1184744450234782,-0.17398544892340398,0.10444208530000001,4.084340719191566,0.8176328145963956,0.12572240112434918, ,0.25647822042829943,0.08977950951605561,0.037216849345794396,0.2746008062143165,-0.13150201688016697,0.3521205849669949, ,1.397087812423706
0.016321653402343733,0.020298912895961755,-0.09166888680469576, ,0.017932451965178405,0.019719598934487388,-0.09232466562848773, ,0.0018331182563390046, ,0.028606778377515255,-0.00367815492979812,-0.03516319468165703,0.024626117273167228,-0.009239572266366907,0.02857619177181777, ,0.045478861606772725, ,0.02630136098760012, ,0.0009112667490098521, ,0.1184744450234782,-0.17398544892340398,0.10444208530000001,4.084340719191566,0.8176328145963956,0.12572240112434918, ,0.25647822042829943,0.08977950951605561,0.037216849345794396,0.2746008062143165,-0.13150201688016697,0.3521205849669949, ,1.399158000946045
0.016321653402343733,0.020298912895961755,-0.09166888680469576, ,0.01798643074408689,0.019711772112581873,-0.09239319936345843, ,0.0019081002541456449, ,0.028606778377515255,-0.00367815492979812,-0.03516319468165703,0.024626117273167228,-0.009239572266366907,0.02857619177181777, ,0.045478861606772725, ,0.02630136098760012, ,0.0009174582614641117, ,0.1184744450234782,-0.17398544892340398,0.10444208530000001,4.084340719191566,0.8176328145963956,0.12572240112434918, ,0.25647822042829943,0.08977950951605561,0.037216849345794396,0.2746008062143165,-0.13150201688016697,0.3521205849669949, ,1.4011309146881104
0.016572745404005548,0.020265081101634788,-0.09196423166630441, ,0.018040332798434068,0.019703972488891264,-0.09246167462378818, ,0.0016480610217861045, ,0.029222243817851528,-0.0042702198296179425,-0.03307788123075346,-0.03456529965903711,-0.0973865937952644,-0.04574726169181087, ,0.044343212985292986, ,0.10333861326812946, ,0.0009219681550463462, ,0.12073720575562598,-0.17318228470448463,0.10475708377000001,4.086437618626411,0.8166763590980376,0.12780918629247306, ,0.26433688456398546,0.09653808907270679,0.035476194922048995,0.21647047467817138,-0.09428577008483804,0.20177420788675982, ,1.4031918048858643
0.016572745404005548,0.020265081101634788,-0.09196423166630441, ,0.018094157997772135,0.019696200497770076,-0.09253009219210351, ,0.0017200347544694234, ,0.029222243817851528,-0.0042702198296179425,-0.03307788123075346,-0.03456529965903711,-0.0973865937952644,-0.04574726169181087, ,0.044343212985292986, ,0.10333861326812946, ,0.0009268642691532362, ,0.12073720575562598,-0.17318228470448463,0.10475708377000001,4.086437618626411,0.8166763590980376,0.12780918629247306, ,0.26433688456398546,0.09653808907270679,0.035476194922048995,0.21647047467817138,-0.09428577008483804,0.20177420788675982, ,1.405073881149292
