NicholasDascanio/dvrk_moveit_final/test/execution/third_experiment_notsharpbends/thirdexp_600vel5.0/thirdexp_600vel5.0_18.csv
Current Position (x),Current Position (y),Current Position (z), ,Planned Position (x),Planned Position (y),Planned Position (z), ,Position Error,,Cartesian linear Velocity(x),Cartesian linear Velocity(y),Cartesian linear Velocity(z),Cartesian Angular Velocity(x),Cartesian Angular Velocity(y),Cartesian Angular Velocity(z), ,Total Linear Velocity, ,Total Angular Velocity, ,MSE, ,Joint 1 Position,Joint 2 Position,Joint 3 Position,Joint 4 Position,Joint 5 Position,Joint 6 Position, ,Joint 1 Velocity,Joint 2 Velocity,Joint 3 Velocity,Joint 4 Velocity,Joint 5 Velocity,Joint 6 Velocity, ,Time Stamp
0.00926294414799007,0.020528752834371437,-0.07704167452249, ,0.009336548168804592,0.02042138808842788,-0.07700506034111623, ,0.00013522329248047437, ,7.68573158286664e-06,-8.072629231863284e-06,-7.037105073193345e-06,0.0002766141660860683,-0.0008089632879045525,-0.005312745425312602, ,1.3181754833487493e-05, ,0.0008549485353264458, ,1.1268607706706198e-05, ,0.10650420906843021,-0.14926498099301133,0.09314362166000001,3.257533272032086,1.322504681229698,-0.69738256712194, ,0.0001521815550103658,0.0001220897211257472,5.610705093465701e-06,-0.0005608097298580879,0.0,-0.005896956570379697, ,0.0202329158782959
0.009271922150403,0.020527316982824784,-0.077049547863572, ,0.009388230201045135,0.020424491284666824,-0.07717965847087611, ,0.00020255729307751486, ,0.0012530168169899913,5.4039715813555974e-05,-3.071011043525118e-05,0.08017556008959056,0.10267961815193016,0.9017860594933736, ,0.001254557509812876, ,0.1302736520540732, ,1.5353662979908603e-05, ,0.10651193180130444,-0.1492263673286402,0.09315658456,3.2583720318060236,1.3230512272287598,-0.6859848214163441, ,0.00011016168970022447,0.002021884143361264,0.001468424899887804,0.1364194294544679,0.14917732641888734,1.0308937214067706, ,0.03902888298034668
0.00928260268569499,0.020531292607073703,-0.07705002601198661, ,0.00944001729877128,0.02042749002355872,-0.07735382017540716, ,0.0003575545140013419, ,0.0008968245261967297,0.0008084371518261386,-0.0014444724232741616,0.34271827668981686,0.032243577697831816,0.6932680807551633, ,0.0018826485176049927, ,0.3442317031884014, ,2.1729221861229097e-05, ,0.10651965453417866,-0.14920319913001753,0.09318510294000001,3.2594204815234464,1.3260572302235996,-0.6777361003392518, ,0.0003156712333525214,0.002887095994664211,0.00513501338491296,0.06959348492030144,0.39928402119327755,0.7322195977197348, ,0.05911993980407715
0.009322883835777344,0.020570628739205468,-0.07720921496418644, ,0.009491908214650794,0.020430385154886172,-0.07752754521922477, ,0.00038674494808471247, ,0.002591853592739735,0.001429546176418288,-0.012303893010909093,0.10089411070586354,-0.020474141343569043,-0.4297291043157315, ,0.012654923569133385, ,0.10295053062955582, ,2.5763810658191515e-05, ,0.10658915913004668,-0.14909508086977838,0.09345473126,3.2610980010713226,1.3378079692034275,-0.6692670384860797, ,0.0029484422358015865,0.0058550379530288715,0.013153436432700248,0.11618086536770744,0.06984959546827582,-0.32311085414479934, ,0.07836604118347168
0.00936572452270762,0.020586616773068573,-0.0774408876465636, ,0.009543901706045558,0.020433177526310315,-0.07770083337065717, ,0.00035051746116636606, ,0.0022084982870487417,0.00027338276126699017,-0.01307663102254441,-0.4772763468491002,0.053476347293799326,-0.11457231518388074, ,0.013264632739651184, ,0.4802628765573533, ,2.7549952092507877e-05, ,0.10671272285603428,-0.14896379441091656,0.09365695250000002,3.2621464507887454,1.334255420209526,-0.6811540249554144, ,0.007239905649093966,0.007884497019633006,0.00881018336283186,0.041205214267932305,-0.4814996584794185,-0.031056202994835247, ,0.09808707237243652
0.009411386551817,0.02059548551436903,-0.07764913921621433, ,0.009595996535005242,0.020435867983373664,-0.07787368440183895, ,0.00033163103365188, ,0.0018123021009716733,0.0004929593546533223,-0.006507164037554979,0.11223745310854255,-0.01806425281120959,-0.09991635917776279, ,0.00677278610633581, ,0.11368185034671363, ,2.8455299071972412e-05, ,0.10685945478064454,-0.1488170624863063,0.09382806278000001,3.2636142803931367,1.3298830522170317,-0.6778336882575505, ,0.007668981742074098,0.008509500966681719,0.007585148342857144,0.054557284230445154,0.11189616097110892,-0.05559415623873137, ,0.11904788017272949
0.00945200292816269,0.02059988354972656,-0.07780242339046632, ,0.00964819146826084,0.020438457369501468,-0.07804609808870455, ,0.00035203084167356654, ,0.0029155081850668844,0.0001316802522835401,-0.00804863917242646,0.030623479182087156,0.020869871346537616,-0.08188775712867809, ,0.008561432134517632, ,0.037058723311258854, ,2.9392491446331335e-05, ,0.10702163217100326,-0.1485699350343311,0.09399139532,3.264872420054044,1.3309761442151555,-0.6760296330624836, ,0.007228391673007384,0.01227168518795691,0.008423485732416712,0.16690078527150992,0.03183924789764691,0.08131117125073323, ,0.1418459415435791
0.009502759730546867,0.02060502141932606,-0.07798206165401139, ,0.00970048527721779,0.02044094652600437,-0.07821807421098254, ,0.00034888091015831886, ,0.0017299280648265965,0.00017783069201578823,-0.008499228500199133,0.009926028042975935,-0.014049604197449283,-0.009564318391326423, ,0.008675319012180169, ,0.01720224887811273, ,3.0062686515782618e-05, ,0.1072224232257331,-0.14831508484948172,0.09417157963000002,3.2665499396019206,1.3316593267139827,-0.6755248989591383, ,0.010389251059857491,0.014088025765806231,0.008600870151187908,0.0,0.024456499686531383,-0.010943145488738825, ,0.16086888313293457
0.009514644396375822,0.0206073944733373,-0.07805257931955194, ,0.009752876737949789,0.02044333629208009,-0.07838961255218886, ,0.000444140895787513, ,0.0018474503442569023,0.000220334845527101,-0.009182893074449264,-0.016256926023609355,-0.00419829032974741,0.029888920457787165, ,0.009369479464485561, ,0.016790271591975364, ,3.197012296793064e-05, ,0.10730737328734956,-0.14819152112349412,0.09424935703000001,3.266340249658436,1.3317959632137482,-0.6753096019022724, ,0.009617813255188087,0.01421677027093195,0.009143979058553388,0.011069609671792432,0.0,0.04259353662270946, ,0.1792759895324707
0.009570752622260084,0.020609431202309632,-0.07821964223041664, ,0.00980536463119185,0.02044562750481589,-0.07856071289962074, ,0.00044520068220854896, ,0.00295855413303481,0.0001694227090399019,-0.00923061278114415,-0.0035790956809498885,0.00625185777512143,-0.08779873233882947, ,0.009694635574783485, ,0.00720385900207155, ,3.354481872290237e-05, ,0.1075081643420794,-0.1479366709386447,0.09441787473,3.2688565289802503,1.3317959632137482,-0.6748195294614291, ,0.01232587888796867,0.013691666651056237,0.009309650216247809,0.11172000428806066,0.0,0.023696791644819797, ,0.19609498977661133
0.009615940563699469,0.020614982167883496,-0.07841111547171066, ,0.0098579477423343,0.020447820999190288,-0.07873137504435031, ,0.0004348293052417234, ,0.00368355445718642,7.364551857411269e-06,-0.009086810817229651,0.0020627139399344227,0.01931785713252613,-0.13819975449400237, ,0.009805037404508143, ,0.019427669212707704, ,3.476432272965101e-05, ,0.10789430098579063,-0.1475196433634366,0.09470824369000001,3.2705340485281265,1.3316593267139827,-0.6732378942352026, ,0.01295344547617674,0.014347889561304924,0.009218062222222224,0.18922634233029903,0.0,0.0497759322816515, ,0.21667098999023438
0.009681682663056463,0.020617671953178845,-0.07860896004739974, ,0.009910624861415536,0.02044991760807549,-0.07890159878121861, ,0.00040766834439486346, ,0.002322634237423217,7.815391629448568e-05,-0.008624634469855012,-0.011932492814937147,-0.0036085652118166833,-0.015052533543566627, ,0.00893224818139834, ,0.01246619749346707, ,3.556762306717647e-05, ,0.10804875564327511,-0.14735746597307786,0.09480805802000002,3.2717921881890337,1.3316593267139827,-0.6726661430542187, ,0.012610889243650602,0.014389225406894735,0.008628825308775734,0.04337955289688358,0.0,0.029363713841671222, ,0.23355698585510254
0.00972841794643233,0.02061874537160468,-0.07878403981784451, ,0.009963394783116104,0.020451918162239218,-0.07907138390882931, ,0.00040695461440615216, ,0.0024293084924960117,0.00012375986997479487,-0.00910422756901139,-0.01398389420514064,-0.007009842881064666,0.0010327119562258907, ,0.009423577658483876, ,0.015642478442033318, ,3.6251449892385636e-05, ,0.1083267740267472,-0.14705627939098312,0.09498305717000001,3.2724212580194867,1.3316593267139827,-0.6717676769126726, ,0.01458606541015536,0.014825330660595342,0.009117808540354896,0.031142165942740444,0.0,0.033496441792747175, ,0.2503080368041992
0.009803163267167105,0.020623132826644314,-0.07900573241610995, ,0.010016256306751665,0.020453823490346974,-0.07924073022954187, ,0.0003595806824547396, ,0.0028603812720422754,0.00030523665105875613,-0.009691128654403873,-0.0083614067937633,-0.009432682065806894,-0.04575950501231814, ,0.010109051638546892, ,0.012605099327016539, ,3.649643249108614e-05, ,0.1087051879375842,-0.14673192461026568,0.09520731534000001,3.274727847397817,1.3316593267139827,-0.6706241745507047, ,0.017064726048996722,0.01341489137100237,0.009784282260442262,0.049488336104450525,0.0,0.004394393744636144, ,0.2713320255279541
0.009860702202072006,0.02062877122489495,-0.07919833347543027, ,0.01006920823626687,0.02045563441896411,-0.07940963754946581, ,0.0003436575789468628, ,0.003284938739564398,0.0002980298784077918,-0.009521695267551455,-0.003833701344929525,0.005228545813578442,-0.06391924670976264, ,0.010076821180274385, ,0.006483431117943496, ,3.660118894989364e-05, ,0.10904498818405008,-0.14646162895966783,0.09540175884,3.27577629711524,1.3316593267139827,-0.6696440296690178, ,0.015577304917674128,0.012302440119125792,0.009671409544626596,0.11254499017308621,0.0,0.0484405696316032, ,0.29311490058898926
0.009886343544882522,0.020630403271325246,-0.07926312658589565, ,0.01012224938022847,0.020457351772557815,-0.0795781056784546, ,0.00042989558397961804, ,0.0025850746675829387,0.0002762666869542789,-0.008353882251869574,-0.01112447623441176,-0.005694871380099024,0.013103441222481582, ,0.008749073265060775, ,0.012497419367220066, ,3.725368819294932e-05, ,0.10941567936201285,-0.14622222424056686,0.09559231347000001,3.2776635066065998,1.3315226902142172,-0.6687158243639159, ,0.016367185505082923,0.011356742647016608,0.008454783184713377,0.03973626925212149,0.0,0.053802018269598656, ,0.31171584129333496
0.009947916739617693,0.020637580586281422,-0.07946269993484778, ,0.010175378551818728,0.020458976373499332,-0.07974613443009912, ,0.00040493635787821074, ,0.0024993078531836783,0.0002689990598536299,-0.008550925618679478,-0.011640757703241158,-0.010239655227268898,0.0054872289885094655, ,0.008912756541910968, ,0.0155034748802704, ,3.768100821835832e-05, ,0.10956241128662311,-0.14611410598032773,0.09566879458000001,3.2776635066065998,1.3315226902142172,-0.668307430663213, ,0.016657353266363133,0.01197437748371871,0.00863350217886179,0.024601199371926997,0.0,0.031211546094194086, ,0.3296630382537842
0.010012446632785606,0.020641816720969094,-0.07962653745332302, ,0.01022859456882951,0.02046050904206589,-0.07991372362172106, ,0.0004025770733716142, ,0.0032399244615177267,0.0002672623612384559,-0.008644609776077061,-0.00014250704379829707,0.0064912021425563,-0.08601420422343763, ,0.009235681775955839, ,0.006492762527425344, ,3.8272405923766194e-05, ,0.10988676606734055,-0.14589786945984945,0.09583601599000001,3.27997009598493,1.3315226902142172,-0.6674906432618073, ,0.014834600837653708,0.010782472905733748,0.008815058948533483,0.12356235964755577,0.0,0.036942894608673255, ,0.345430850982666
0.010038789634465596,0.02064619313981879,-0.07971866264811604, ,0.010281896253654646,0.02046195059644294,-0.08008087307436723, ,0.00047354253871030377, ,0.0026176884839203135,0.0005817385019508496,-0.010603605488051811,-0.01508687713415712,-0.009958037360379566,0.044573375953968215, ,0.010937420263926204, ,0.01807695316367123, ,3.920739637806885e-05, ,0.11004122072482504,-0.1457897511996103,0.09592934887000001,3.280389475871899,1.3315226902142172,-0.6669188920808234, ,0.01671309291272821,0.011966827434863906,0.010712045406859449,0.010807029363741266,0.0,0.05692040772877855, ,0.360245943069458
0.010103671066820133,0.020657548458763525,-0.07992884687733215, ,0.010335282433284443,0.020463301852726285,-0.08024758261280338, ,0.0004392812744686882, ,0.004301483857275814,0.0005614312060901777,-0.011420674568297332,0.005952915888685654,0.016188562261183002,-0.13955311848280413, ,0.012216782553869482, ,0.017248378514174486, ,3.987917233231557e-05, ,0.11035013003979402,-0.14557351467913202,0.09614323672000001,3.28227668536326,1.3315226902142172,-0.6655303534984338, ,0.016503815923212307,0.011170195456455059,0.011703755709037473,0.19284971636668527,0.0,0.05169430273648275, ,0.3762550354003906
0.010142401383859787,0.02066321115833404,-0.08005392174459124, ,0.010388751939298462,0.02046456362492396,-0.08041385206550698, ,0.0004792695218865529, ,0.002972214021906336,0.0004861422156792073,-0.011253007615503663,-0.01195294250228968,-0.003760564144970927,-5.6716940341636796e-05, ,0.011649058796334816, ,0.012530542554383956, ,4.070089614374136e-05, ,0.11052003016302696,-0.14543450548739598,0.09627027314000002,3.283534825024167,1.3315226902142172,-0.6648769235773093, ,0.01576099344933911,0.013609198559941315,0.011361491811697575,0.050414948006431454,0.0,0.05138856006030563, ,0.39133286476135254
0.010205427500826985,0.02067391497817772,-0.08028444703452697, ,0.01044230360785913,0.020465736724958373,-0.08057968126466201, ,0.0004319857935622343, ,0.003980531021371492,0.00034028625238887063,-0.0116224992222445,-0.000593855189280154,0.01192139397553224,-0.11017654624691788, ,0.012289951591309856, ,0.01193616714974744, ,4.1224928776314284e-05, ,0.11084438494374439,-0.14517193256967234,0.09650230905000001,3.284792964685074,1.3313860537144517,-0.663458645831364, ,0.015708813368394435,0.014437386514296482,0.011807866212008898,0.1599138644621448,0.0,0.04903177088200471, ,0.4078559875488281
0.010252974201208336,0.020678225378224696,-0.08042614584695969, ,0.010495936279705471,0.020466821962668632,-0.08074507004615254, ,0.0004532489608672278, ,0.0028969144785006428,0.0004281751179734483,-0.01060265054522458,-0.011511554676201461,-0.005527111873419187,-0.0011882176021411385, ,0.010999620266697815, ,0.012769679821143248, ,4.180999764198591e-05, ,0.11105289873134845,-0.14499430971356517,0.09664619724000001,3.2864704842329497,1.3313860537144517,-0.6626418584299585, ,0.0161581715577168,0.013109123022305675,0.010712045406859449,0.04505102986558529,0.0,0.044889227599406015, ,0.4228999614715576
0.010315232115430638,0.020682838777064935,-0.08064766573748305, ,0.01054964880014609,0.020467820145812266,-0.08091001824955572, ,0.0004123263688506898, ,0.004011369393625162,2.3117109574211266e-05,-0.011020055891486852,-0.0024074886985267895,0.014398326249455345,-0.11159882522262682, ,0.011727457126946226, ,0.014598206673928613, ,4.2165460599587754e-05, ,0.11135408531344321,-0.14467767766572195,0.09686915912,3.287938313837342,1.3313860537144517,-0.6614983560679906, ,0.015608049598432696,0.016819734413057567,0.011154629915966389,0.17071248806864925,0.0,0.058572842655998235, ,0.44162988662719727
0.010379912147605322,0.020683384205231223,-0.08086182989446114, ,0.01060344001905296,0.020468732080067595,-0.08107452571813632, ,0.00037587199624345243, ,0.0023346566377978597,-0.00013921812401524662,-0.009619856110311551,-0.022534892446083508,-0.00958804333483306,0.052419333433647734, ,0.009900082569633772, ,0.024489831974988868, ,4.2335276949573437e-05, ,0.1116707173612864,-0.14433015468638186,0.09708434326000001,3.2896158333852177,1.3313860537144517,-0.660109817485601, ,0.015106167073936768,0.01853817963634905,0.009555375836832634,0.0019072061997940737,0.0,0.05676910912011374, ,0.4573400020599365
0.010409076758959059,0.020682329714203137,-0.08095891548220445, ,0.010657308790854886,0.02046955856903565,-0.08123859229884012, ,0.0004302439117971058, ,0.002778844527339384,-1.127084697868366e-06,-0.00938628880677944,-0.014893003657288057,-0.009244864178598487,-0.00021331644828731598, ,0.009788993602087855, ,0.01752909007222045, ,4.2724901188724576e-05, ,0.11184834021739358,-0.1441525318302747,0.09718156501000001,3.290035213272187,1.3313860537144517,-0.6596197450447576, ,0.017367668660042235,0.01605701210803228,0.009419758438793615,0.033892820158304436,0.0,0.03516421766114956, ,0.4726269245147705
0.010440194160135889,0.020679994361392163,-0.08104131774792642, ,0.010711253974530594,0.02047030041424232,-0.08140221784228768, ,0.0004976885095729489, ,0.004051554825683346,-0.0003331765041320056,-0.009434523207497778,3.403257732908366e-05,0.01714575056760655,-0.1428032264635902, ,0.010273087717002994, ,0.017145782163402873, ,4.3545621028608364e-05, ,0.11197962667625538,-0.1439980771727902,0.09726452757000001,3.2912933529330943,1.3313860537144517,-0.6591296726039143, ,0.015536499927712962,0.017731117630506495,0.009543925416417017,0.1947633555036447,0.0,0.051086717632232805, ,0.49005985260009766
0.010500882015091638,0.020673734217464178,-0.0812226591470943, ,0.01076527443360252,0.02047095841514047,-0.08156540220276834, ,0.0004780106475663858, ,0.0025114308506969784,-0.000166560060081946,-0.00852948207691418,-0.016573990909842254,-0.007012779092177768,0.012528933249665532, ,0.00889309235709645, ,0.017996560786156898, ,4.4241168419636986e-05, ,0.11233487238846972,-0.14362738599482744,0.09744471188,3.292551492594001,1.3312494172146863,-0.6573846798974066, ,0.015554325775851629,0.01643237083263563,0.00851808102673797,0.03041192267266813,-0.00022747051808199315,0.04462417300556065, ,0.5035519599914551
0.01057765538229302,0.0206729211810014,-0.08143680335428191, ,0.010819369036130266,0.02047153336911197,-0.08172814523823345, ,0.0004287920644944308, ,0.004291135837912017,0.00018601169018429278,-0.011877212420990041,-0.0017434047752537662,0.01650665664323968,-0.10181653537001421, ,0.012629988995308674, ,0.01659846189828828, ,4.470641797259391e-05, ,0.11265922716918715,-0.14328758574836156,0.09766119231,3.295487151802785,1.3312494172146863,-0.6556694263544547, ,0.016503815923212307,0.01577671513856538,0.012067281454545456,0.18013407201879567,-0.0002309600754717505,0.0776986529535509, ,0.5166728496551514
0.01061590702951535,0.02067596839472749,-0.08156913579137227, ,0.010873536654703845,0.020472026071469737,-0.08189044681029037, ,0.0004595718288458486, ,0.0033703386646452855,0.000465446442447172,-0.013230079879468682,-0.016018900451388988,-0.0028921814871204383,0.014527972092307053, ,0.01366055770173062, ,0.016277883157604017, ,4.526393471418209e-05, ,0.11282912729242009,-0.1431099628922544,0.09779471018000001,3.2965356015202074,1.3312494172146863,-0.6548526389530491, ,0.016967091285262074,0.016581677714218205,0.013329549389121339,0.0531119705562082,-0.00023448300741864896,0.06915239207465151, ,0.5298280715942383
0.010648045409312235,0.02068172050678416,-0.08170156635902466, ,0.010927776166437333,0.020472437315459925,-0.0820523067841964, ,0.0004950430249001445, ,0.0033958193799893807,0.0006443985386317709,-0.014620017199408886,-0.020663026528088428,-0.0041836455466659275,0.05858914120930069, ,0.015023040359697962, ,0.021082288476766485, ,4.592391798048161e-05, ,0.1129913046827788,-0.1429555082347699,0.09792822805000001,3.2969549814071764,1.3312494172146863,-0.6539541728115029, ,0.01752482761929285,0.01710471188869336,0.014721637264325326,0.03229476035603755,-0.00023675072699874425,0.0929767061907588, ,0.5435068607330322
0.010693925910747474,0.02068843431515363,-0.08186143961669763, ,0.010982086452962218,0.020472767892263804,-0.08221372502885252, ,0.0005036402641456778, ,0.004376420036516811,0.0005899678288629356,-0.01389648546016117,-0.00954308890291599,0.018031972421925873,0.0014346801554695119, ,0.014581269578455432, ,0.020401520948234855, ,4.6581581656591016e-05, ,0.11319209573750864,-0.14277788537866273,0.09809026430000001,3.298213121068083,1.3312494172146863,-0.6527289917093946, ,0.017727805260315855,0.014724118162679717,0.014133816787932567,0.15065098743255606,-0.00023863896601204748,0.15239203652459332, ,0.557675838470459
0.01076079400024646,0.020695370278951845,-0.08208270415113104, ,0.011036466400420882,0.020473018591000217,-0.08237470141679654, ,0.0004590184620567992, ,0.003337846713911145,0.0003388816667497961,-0.012318197390798832,-0.014836072556837231,-0.005299381908041635,0.011906045078060888, ,0.012766912251140041, ,0.01575411736339768, ,4.704970627088912e-05, ,0.11351645051822606,-0.14250758972806488,0.09831322618,3.29989064061596,1.3311127807149208,-0.6510656777430273, ,0.018030959824904193,0.01641531595891209,0.012424969984399377,0.049062337535004975,0.0006965001902124062,0.062411308306687195, ,0.5716989040374756
0.010838629306713891,0.020698014218287278,-0.08231039002445316, ,0.011090914899459783,0.020473190198727228,-0.08253523582419756, ,0.0004058934512171652, ,0.004189031070739583,-6.409216122419065e-05,-0.01100773404803943,-0.003051768806806864,0.008999629565233005,-0.0994761764453886, ,0.011778043045817015, ,0.00950297130079049, ,4.731274925137346e-05, ,0.11389486442906308,-0.14218323494734744,0.09854396580000001,3.3021972299942894,1.3311127807149208,-0.6499221753810593, ,0.0185526767465241,0.017200823193487546,0.011170274558204768,0.15706403272109387,0.0006965001902124062,0.0573069954974731, ,0.58555006980896
0.010865612985437924,0.02069805069846945,-0.08238590126214458, ,0.011145430845223604,0.020473283500444438,-0.08269532813084937, ,0.0004738811191000394, ,0.0039019662356283473,-5.81839100506935e-05,-0.010844025330080347,-0.01178330315841854,0.007299694662398484,-0.00734774170434493, ,0.011524825865530317, ,0.013861155274194245, ,4.7791581044462135e-05, ,0.11402615088792488,-0.14206739395423407,0.09862044691,3.3030359897682278,1.3311127807149208,-0.6491870667197943, ,0.019538180267340083,0.017437879742460635,0.01097781634734666,0.11680900989319609,0.0006965001902124062,0.11026182854942705, ,0.5996980667114258
0.010865612985437924,0.02069805069846945,-0.08238590126214458, ,0.011200013137347975,0.020473299279095164,-0.08285497822016429, ,0.0006183606186144467, ,0.0039019662356283473,-5.81839100506935e-05,-0.010844025330080347,-0.01178330315841854,0.007299694662398484,-0.00734774170434493, ,0.011524825865530317, ,0.013861155274194245, ,4.888240713771106e-05, ,0.11402615088792488,-0.14206739395423407,0.09862044691,3.3030359897682278,1.3311127807149208,-0.6491870667197943, ,0.019538180267340083,0.017437879742460635,0.01097781634734666,0.11680900989319609,0.0006965001902124062,0.11026182854942705, ,0.6112408638000488
0.010945341865811654,0.02069506740647221,-0.0826253910677506, ,0.011254660679953277,0.02047323831556815,-0.08301418597916665, ,0.0005441027085912347, ,0.0034079982597306976,-3.841776872541276e-05,-0.011108404155809787,-0.01735253174259733,-0.0009248681021026411,0.028229554842826927, ,0.011619490993674958, ,0.017377156549316333, ,4.969146605953354e-05, ,0.11447406939462991,-0.14165036637902595,0.09886155685,3.3047135093161035,1.3311127807149208,-0.6467367045155774, ,0.018713654418945132,0.018316336915358188,0.011178113347368422,0.06386450883206901,0.0006965001902124062,0.09375961652739523, ,0.6226298809051514
0.011041260284990778,0.020696777253145875,-0.08288694772212285, ,0.011309372381638056,0.020473101388700107,-0.08317295129848698, ,0.00045134580356665947, ,0.0047964907645067605,0.00047853091669738815,-0.01423266973099909,-0.005103477988875568,0.0063295610159291105,-0.06188408030659747, ,0.015026782861408877, ,0.008130697769056588, ,5.017626671525967e-05, ,0.11490654243558648,-0.1412796752010632,0.09912729630000001,3.3080685484118564,1.3311127807149208,-0.6450214509726258, ,0.022203308740868222,0.016177453385351308,0.014507114316939893,0.14641471109378354,0.0006965001902124062,0.08452929167993625, ,0.6350739002227783
0.01108292482196508,0.020700661006204837,-0.08303185031442857, ,0.011364147155472432,0.020472889275277337,-0.08333127407235535, ,0.00046970261771042644, ,0.0041002563917428465,0.0005311115477160367,-0.015378866327257535,-0.01701305966726678,-0.006375276788068469,0.015697540761536698, ,0.015924939920319986, ,0.018168310133926797, ,5.070000900538038e-05, ,0.11511505622319054,-0.1410943296120818,0.09927377707000001,3.3089073081857943,1.3311127807149208,-0.64420466357122, ,0.021528344273700265,0.018754336276377626,0.01554030392195122,0.05773775655167939,0.0006965001902124062,0.07512796657101235, ,0.6460509300231934
0.011129431230918516,0.020705451229507475,-0.08318524398547657, ,0.011418983918991791,0.02047260275003815,-0.0834891541985956, ,0.00048002144868712816, ,0.004986455107634353,0.0005032956077413307,-0.01653381890321936,-0.011475626588409825,0.001783684038863735,-0.038501093213937326, ,0.01727672447351286, ,0.011613367245605632, ,5.123604984274272e-05, ,0.11534673820941728,-0.1409089840231004,0.09942933187000001,3.3099557579032166,1.3311127807149208,-0.6433878761698144, ,0.023553472712452415,0.019919593106312087,0.016767170021052633,0.12319853144515096,0.0006965001902124062,0.08552655543886224, ,0.6569859981536865
0.01117836097882309,0.02070955445294239,-0.08333846515005885, ,0.011473881594189658,0.020472242585674854,-0.08364659157861834, ,0.0004884580354845878, ,0.0052508117955403395,0.0003838839027882645,-0.01602975956934966,-0.00819966567822122,0.007715113774110477,-0.0615823167008556, ,0.016872213346628903, ,0.011258616230163882, ,5.1778090969773054e-05, ,0.11556297472989556,-0.140723638434119,0.09958488667000001,3.311423587507609,1.3311127807149208,-0.6424894100282683, ,0.023641490174008666,0.019828027906074127,0.016287128343558284,0.15834071310220035,0.0006965001902124062,0.09708738215711078, ,0.6688120365142822
0.01120942560194186,0.020711728675678026,-0.08343558993465583, ,0.01152883910751191,0.020471809552835597,-0.08380358611741541, ,0.0005431458032348697, ,0.0048947456104706626,0.0003484047878382088,-0.015081360375558671,-0.010468356501380793,0.005416108354103888,-0.03261944236466855, ,0.01585961384349826, ,0.011786430220784698, ,5.2461847609232555e-05, ,0.11570970665450583,-0.14060007470813143,0.09968340471,3.3122623472815462,1.3311127807149208,-0.6419176588472844, ,0.02313995161142911,0.018990782781362972,0.015316164923076924,0.13462812885668898,0.0006965001902124062,0.10267669390174791, ,0.6805448532104492
0.01127679556904094,0.020714177948385093,-0.08364029728861591, ,0.011583855389849542,0.020471304420127,-0.08396013772355333, ,0.0005055404910632826, ,0.004319881247132922,4.270142318562025e-05,-0.01344877584776771,-0.015950121332742553,0.00013690480675457306,0.001779298819434521, ,0.014125606861454585, ,0.015950695078733444, ,5.301320427226113e-05, ,0.11604950690097171,-0.1403143335917851,0.09989081111,3.313939866829423,1.3311127807149208,-0.6404474415247541, ,0.022540841225289973,0.020329250548087142,0.013591136109215017,0.0954453648305826,0.0006853413174838223,0.0986732623694983, ,0.6919460296630859
0.011327449065763478,0.02071326802454588,-0.08377838530196173, ,0.011638929376532712,0.0204707279541155,-0.08411624630916698, ,0.0005196111333978662, ,0.005052814292286398,-0.0002038010810818322,-0.01267054273062498,-0.009271012245625458,0.005303779753163626,-0.060601785791085695, ,0.01364240155696853, ,0.010680890466564744, ,5.358573810113698e-05, ,0.11630435708582111,-0.14009809707130683,0.10003081043,3.315407696433814,1.3311127807149208,-0.6393039391627864, ,0.025801234790231317,0.020879415084372008,0.01287696970088925,0.15702510981520487,0.0006695984694793296,0.09691480727996592, ,0.703808069229126
0.011367489227968559,0.020711013897094156,-0.08388472522660592, ,0.01169406000732382,0.020470080919330023,-0.08427191178995312, ,0.0005609016032599745, ,0.004191631829554565,-0.00021426549773581821,-0.012133261152965848,-0.016951714385953984,-0.0015850955778519303,0.002744753982698721, ,0.01283868035680167, ,0.01702565375118014, ,5.440639051781567e-05, ,0.1165205936062994,-0.13991275148232543,0.10013840250000001,3.316456146151237,1.3311127807149208,-0.6384871517613808, ,0.02320786049363433,0.02108352400765847,0.012243513850883937,0.09053179131087628,0.0006572519653616609,0.09487972809505028, ,0.7158539295196533
0.011425655701294807,0.02070621431827986,-0.08405084084061704, ,0.011749246226410931,0.020469364078263757,-0.08442713408516518, ,0.0005499140569517985, ,0.004492243068444169,-0.00045730684449348446,-0.012053373735556969,-0.015667569628284618,0.001730610749560585,-0.026354955333966434, ,0.012871410013864831, ,0.01576285181077353, ,5.517402064036462e-05, ,0.11684494838701683,-0.13960384216735647,0.10030562391000002,3.3177142858121447,1.3311127807149208,-0.6372619706592724, ,0.023807561856114094,0.0231795167460847,0.01215012320366133,0.11915729182388844,0.0006385067671831488,0.09418428205789486, ,0.725132942199707
0.011471920853315073,0.02070293278943168,-0.08417664040035433, ,0.011804486982401536,0.020468578191376412,-0.08458191311760538, ,0.0005742545456443931, ,0.004902963915571795,-0.0003814827363048663,-0.013218676281912986,-0.013557439499461702,0.005308510694271875,-0.04675820072836823, ,0.014103828802190797, ,0.014559671973752878, ,5.5987057268273536e-05, ,0.1170843531061178,-0.13937988291400394,0.10043266033,3.318972425473052,1.3311127807149208,-0.6362818257775855, ,0.024295171929972034,0.023700534854762933,0.01335189565800503,0.1449576070552337,0.0006253498929718259,0.09926314045895179, ,0.7345659732818604
0.01152517955577864,0.020701055024920104,-0.08431451392751271, ,0.011859781228315892,0.02046772401709603,-0.08473624881362005, ,0.0005867384022176239, ,0.0056981387039243825,-6.166758652504257e-06,-0.015121777172279255,-0.006868221707629326,0.013291332670040491,-0.07730123882094987, ,0.01615973290516088, ,0.014960989367899708, ,5.681179682708067e-05, ,0.11732375782521876,-0.13916364639352566,0.10057265965000001,3.3208596349644117,1.3311127807149208,-0.6351383234156176, ,0.025544264214931566,0.0215527916326302,0.015390156057971019,0.1971891739877579,0.0006131818644462663,0.12000115408445222, ,0.7485129833221436
0.011581088005643163,0.020700971996575453,-0.08447299097552506, ,0.01191512792158019,0.020466802311821325,-0.08489014110309226, ,0.0005834657964494519, ,0.005616734750119322,4.028352780423034e-05,-0.016415053311115507,-0.013587374769638286,0.009872742942218923,-0.031229429848188932, ,0.017349446885205722, ,0.01679543433530346, ,5.760597935311263e-05, ,0.11758633074294239,-0.13893196440729894,0.10073339961000001,3.3225371545122884,1.3311127807149208,-0.6339131423135091, ,0.02597781044578997,0.023518448961207132,0.016644526144200627,0.16529723116051806,0.000600998503837145,0.1350570770848161, ,0.7583010196685791
0.011655178620762124,0.020704582708094034,-0.08470572754850261, ,0.011970526024020543,0.020465813829923563,-0.08504358991943606, ,0.0005201976005494273, ,0.004830417381465092,0.00031527341934281614,-0.01606600221385525,-0.019687308672690994,-0.005162382589216266,0.03096484047614819, ,0.01677941466630186, ,0.020352868259497982, ,5.8213748211185574e-05, ,0.11795702192090517,-0.13862305509232994,0.10096932439,3.324214674060165,1.3311127807149208,-0.632116210030417, ,0.02622186834995048,0.02119654714283466,0.016270491848825334,0.07640536144484428,0.000584540648719801,0.10937135867718424, ,0.7677440643310547
0.01171457187184229,0.02070564085035572,-0.08488347226031265, ,0.012025974501856159,0.020464759323748978,-0.08519659519959019, ,0.000503032288170211, ,0.00547437846281538,-8.113597602671689e-05,-0.015332620284686677,-0.012821490945634796,0.002082237016308006,-0.048236270626693, ,0.01628080610397188, ,0.012989437773586406, ,5.8761457635253486e-05, ,0.11827365396874837,-0.13836820490748053,0.10114950870000002,3.325472813721072,1.3311127807149208,-0.630972707668449, ,0.027530299262683716,0.023270461392464633,0.015555480000000002,0.1459046975897704,0.0005719721491039379,0.09869885607282554, ,0.7775790691375732
0.01171457187184229,0.02070564085035572,-0.08488347226031265, ,0.012081472325692512,0.020463639543620283,-0.08534915688401183, ,0.0006403458005226622, ,0.00547437846281538,-8.113597602671689e-05,-0.015332620284686677,-0.012821490945634796,0.002082237016308006,-0.048236270626693, ,0.01628080610397188, ,0.012989437773586406, ,5.964548445246368e-05, ,0.11851305868784932,-0.13815969111987647,0.10128950802000002,3.3271503332689476,1.3311127807149208,-0.6299925627867622, ,0.027013077585673433,0.02191615278486623,0.014480737745454548,0.19509896050097156,0.000562227348236513,0.10120957256814475, ,0.7875480651855469
0.011827780916261464,0.020701473526238242,-0.08517420133258963, ,0.012137018470515355,0.02046245523783926,-0.0855012749166702, ,0.0005096417727712468, ,0.005245536733874349,-0.0002216074004206029,-0.013244629066829518,-0.01158929725138043,0.004461512242601805,-0.03497003375745875, ,0.01424727919935072, ,0.012418393402721327, ,6.032997898519447e-05, ,0.1188219680028183,-0.1379125636679013,0.10144506282000001,3.3290375427603087,1.3311127807149208,-0.6287673816846537, ,0.02722230107816144,0.02129644110378608,0.01347615187817259,0.14942624860283618,0.0005506500178442826,0.11533462036266137, ,0.7963309288024902
0.011877385974664183,0.020700657594253765,-0.08530679561795598, ,0.01219261191568388,0.02046120715268837,-0.08565294924504054, ,0.0005258576246489226, ,0.005190525713272802,-3.560904988211388e-05,-0.015090814750662526,-0.01773631690616325,0.0032442615278958564,0.015097574801613554, ,0.01595855616976026, ,0.01803056814453489, ,6.104132325696483e-05, ,0.11908454092054194,-0.13771177261317147,0.10157987698000001,3.3302956824212155,1.3311127807149208,-0.6275422005825453, ,0.02679190896625375,0.022498089511254336,0.015301451988472626,0.12132997731110282,0.0005411950359278316,0.13809024388807534, ,0.8046848773956299
0.011940518854962714,0.020699397787907612,-0.08547776568295022, ,0.012248251644924213,0.020459896032433512,-0.0858041798200975, ,0.0005085339219976033, ,0.006471867664671589,-1.1560435665405964e-05,-0.017060517366248487,-0.010248437787290128,0.015782878451995174,-0.04585471439566148, ,0.018246820476914893, ,0.018818296522280703, ,6.169570105144439e-05, ,0.1193857275026367,-0.13745692242832205,0.10175357984000001,3.3321828919125767,1.3311127807149208,-0.6259903045198747, ,0.029553703381647704,0.023670975694305506,0.017389532227074237,0.21237140618175443,0.0005311232420630081,0.16704474663295793, ,0.812809944152832
0.011940518854962714,0.020699397787907612,-0.08547776568295022, ,0.012303936646322846,0.020458522619325244,-0.08595496659630911, ,0.0006463853723802969, ,0.006471867664671589,-1.1560435665405964e-05,-0.017060517366248487,-0.010248437787290128,0.015782878451995174,-0.04585471439566148, ,0.018246820476914893, ,0.018818296522280703, ,6.267511911069566e-05, ,0.1193857275026367,-0.13745692242832205,0.10175357984000001,3.3321828919125767,1.3311127807149208,-0.6259903045198747, ,0.029553703381647704,0.023670975694305506,0.017389532227074237,0.21237140618175443,0.0005311232420630081,0.16704474663295793, ,0.823538064956665
0.012056034806923528,0.020701911115380223,-0.0858198962439309, ,0.012359665912320211,0.020457087653601595,-0.08610530953163077, ,0.000483312652842169, ,0.0057601559373431244,0.00018937389673128434,-0.018546445246579526,-0.02202774264056862,0.008518545153635452,0.048964653076212394, ,0.019421274164679432, ,0.02361746944607389, ,6.323971177185922e-05, ,0.11990315060520974,-0.1370012811887428,0.10210098556000001,3.335537931008329,1.3311127807149208,-0.622559797433971, ,0.027237928116667847,0.024868171267943072,0.018783975849056604,0.13142658840293348,0.0005138834033585464,0.18252898190303474, ,0.8332028388977051
0.012056034806923528,0.020701911115380223,-0.0858198962439309, ,0.0124154384397041,0.020455591873489578,-0.08625520858749856, ,0.0006159066298099327, ,0.0057601559373431244,0.00018937389673128434,-0.018546445246579526,-0.02202774264056862,0.008518545153635452,0.048964653076212394, ,0.019421274164679432, ,0.02361746944607389, ,6.411218240340369e-05, ,0.11990315060520974,-0.1370012811887428,0.10210098556000001,3.335537931008329,1.3311127807149208,-0.622559797433971, ,0.027237928116667847,0.024868171267943072,0.018783975849056604,0.13142658840293348,0.0005138834033585464,0.18252898190303474, ,0.8406579494476318
0.012110915533737953,0.020704210552136306,-0.0860071432262416, ,0.012471253229602911,0.020454036015207646,-0.08640466372882308, ,0.0005919907971931363, ,0.004870921765092934,0.00018788726220194708,-0.01709258109580991,-0.027459908744959637,-0.00608937612788794,0.08595838034808728, ,0.01777406844202509, ,0.028126955593623496, ,6.491109208811682e-05, ,0.12018889172155604,-0.1367464310038934,0.10229024390000001,3.336376690782267,1.3311127807149208,-0.6205995076705976, ,0.026905852440734554,0.02392158849469896,0.017257650617551468,0.051845510352584494,0.0005046078580391131,0.14083727828057419, ,0.8486659526824951
0.012173105859688008,0.020702500790145895,-0.08617822590604651, ,0.012527109287479672,0.020452420812967605,-0.08655367492398366, ,0.0005734286241056625, ,0.007149626227788807,-0.00026605480490754074,-0.017855127969959268,-0.0036838572302536534,0.0171104019224621,-0.13663499795502962, ,0.019235216015941223, ,0.017502423926397028, ,6.565114929508191e-05, ,0.12047463283790236,-0.13649158081904397,0.10246394676000001,3.338263900273628,1.3311127807149208,-0.6192926478283486, ,0.030790701349276698,0.026374914274171976,0.018204356022857145,0.26210843398653166,0.0004964457341402246,0.125226072955372, ,0.8565700054168701
0.012242742955279641,0.020702276212292488,-0.08634786265703279, ,0.012583005623124753,0.0204507469989767,-0.08670224214482103, ,0.0005519333742811622, ,0.007095442945511504,8.303327678965775e-05,-0.017796468555210245,-0.006263392360432617,0.012693826491888832,-0.074357104891312, ,0.01915897956976442, ,0.014154911859130159, ,6.632715111073808e-05, ,0.12078354215287133,-0.13626762156569147,0.10263764962000001,3.340780179595442,1.3311127807149208,-0.617904109245959, ,0.03347334799240592,0.02290536846692512,0.018225184805491994,0.22856167885633483,0.0004886423315588824,0.154318143857355, ,0.8646240234375
0.012242742955279641,0.020702276212292488,-0.08634786265703279, ,0.012638941250649922,0.020449015303439726,-0.08685036536663288, ,0.0006882028410016008, ,0.007095442945511504,8.303327678965775e-05,-0.017796468555210245,-0.006263392360432617,0.012693826491888832,-0.074357104891312, ,0.01915897956976442, ,0.014154911859130159, ,6.746223553688515e-05, ,0.12078354215287133,-0.13626762156569147,0.10263764962000001,3.340780179595442,1.3311127807149208,-0.617904109245959, ,0.03347334799240592,0.02290536846692512,0.018225184805491994,0.22856167885633483,0.0004886423315588824,0.154318143857355, ,0.8702130317687988
0.012314966232293877,0.02070181259977101,-0.08654392953975355, ,0.012694915188481664,0.020447226454560912,-0.08699804456816505, ,0.0006445120430762359, ,0.006376066443251942,3.0337723688873657e-05,-0.01843886832076511,-0.018976469638708693,0.0023314376775688296,0.0065210406992742605, ,0.01951017705241952, ,0.01911909700174258, ,6.848095751030814e-05, ,0.12114651059795989,-0.1359896031822194,0.10283727828000001,3.342667389086803,1.3311127807149208,-0.6162705344431477, ,0.03249895258851739,0.025815272458778772,0.01873977825882353,0.14551015029549833,0.00047996117487477297,0.1538725907565147, ,0.8757169246673584
0.012314966232293877,0.02070181259977101,-0.08654392953975355, ,0.012750926459354267,0.020445381178546433,-0.08714527973160795, ,0.0007857737884487624, ,0.006376066443251942,3.0337723688873657e-05,-0.01843886832076511,-0.018976469638708693,0.0023314376775688296,0.0065210406992742605, ,0.01951017705241952, ,0.01911909700174258, ,6.980894587625284e-05, ,0.12114651059795989,-0.1359896031822194,0.10283727828000001,3.342667389086803,1.3311127807149208,-0.6162705344431477, ,0.03249895258851739,0.025815272458778772,0.01873977825882353,0.14551015029549833,0.00047996117487477297,0.1538725907565147, ,0.8812839984893799
0.012385874795434099,0.02070328629442142,-0.08675038981382957, ,0.012806974090304023,0.020443480199605884,-0.08729207084258857, ,0.0007336498892255436, ,0.007821782992488929,0.0002252885369831469,-0.02243135032580707,-0.012605495262733976,0.019424525787189725,-0.04261998744900398, ,0.023757030991804724, ,0.023156101438016826, ,7.100036190260918e-05, ,0.12147858811155154,-0.13571930753162154,0.10304727726000001,3.344554598578163,1.3311127807149208,-0.6144736021600554, ,0.033485159336087075,0.027812702684194248,0.0228533881205165,0.24391514849017248,0.00047241062679470315,0.20213129298215188, ,0.8874008655548096
0.012385874795434099,0.02070328629442142,-0.08675038981382957, ,0.012863057112662106,0.020441524239954847,-0.08743841789016456, ,0.0008772713211195693, ,0.007821782992488929,0.0002252885369831469,-0.02243135032580707,-0.012605495262733976,0.019424525787189725,-0.04261998744900398, ,0.023757030991804724, ,0.023156101438016826, ,7.249984324665375e-05, ,0.12147858811155154,-0.13571930753162154,0.10304727726000001,3.344554598578163,1.3311127807149208,-0.6144736021600554, ,0.033485159336087075,0.027812702684194248,0.0228533881205165,0.24391514849017248,0.00047241062679470315,0.20213129298215188, ,0.8935189247131348
0.012475317231511797,0.020705779043140304,-0.08700077304950221, ,0.012919174562048065,0.020439514019816758,-0.08758432086681864, ,0.0007800220814893868, ,0.008514429881385713,0.0003985698058893922,-0.02467195007243706,-0.009435026428500429,0.033150913410569735,-0.04851473131429313, ,0.02610286372166908, ,0.03446728364932744, ,7.376110457344619e-05, ,0.12183383382376586,-0.13541812094952677,0.10330264639000002,3.347699947730431,1.3311127807149208,-0.6120232399558385, ,0.03242123046070064,0.027993198099843887,0.025163999241706165,0.30090410535817974,0.00046461409787243126,0.2526973607105048, ,0.8995270729064941
0.012527214185305675,0.020709679103817203,-0.08715976025698449, ,0.012975325478363607,0.02043745025742505,-0.08772977976845155, ,0.0007744898444958418, ,0.008434194565188843,0.0006742519418198329,-0.026135926594717453,-0.014482343385158278,0.02909053840275804,0.001525450946606761, ,0.02747138352193001, ,0.03249593050324379, ,7.499319038809096e-05, ,0.1220346248784957,-0.13524822082629384,0.10346468264000001,3.3493774672783077,1.3311127807149208,-0.6103079864128869, ,0.03296177198974323,0.027715228258899178,0.026636808561872914,0.26448846575887286,0.0004601500396831914,0.2670014965025978, ,0.9053800106048584
0.012527214185305675,0.020709679103817203,-0.08715976025698449, ,0.013031508905785949,0.02043533366902499,-0.08787479459437608, ,0.000916980199537937, ,0.008434194565188843,0.0006742519418198329,-0.026135926594717453,-0.014482343385158278,0.02909053840275804,0.001525450946606761, ,0.02747138352193001, ,0.03249593050324379, ,7.652416522962562e-05, ,0.1220346248784957,-0.13524822082629384,0.10346468264000001,3.3493774672783077,1.3311127807149208,-0.6103079864128869, ,0.03296177198974323,0.027715228258899178,0.026636808561872914,0.26448846575887286,0.0004601500396831914,0.2670014965025978, ,0.9117100238800049
0.01264497291766075,0.020720273954786872,-0.08755544754792832, ,0.013087723892760951,0.020433164968876132,-0.08801936534731092, ,0.0007026234555769274, ,0.00825067720698288,0.000547522644858656,-0.026943572178506688,-0.023909678793738173,0.013063369779029117,0.0333117321711902, ,0.02818385241869641, ,0.02724536970590151, ,7.756383766894002e-05, ,0.12254432524819452,-0.13480802505246303,0.10386782883000001,3.352103436543606,1.3312494172146863,-0.6066621822701175, ,0.03620638746984769,0.03135016239130188,0.027369091958762887,0.19581507528072006,0.0002211729568427808,0.23146062382180665, ,0.9181170463562012
0.01264497291766075,0.020720273954786872,-0.08755544754792832, ,0.013143969491997328,0.020430944869253998,-0.0881634920333742, ,0.0008381091797707946, ,0.00825067720698288,0.000547522644858656,-0.026943572178506688,-0.023909678793738173,0.013063369779029117,0.0333117321711902, ,0.02818385241869641, ,0.02724536970590151, ,7.905832673772101e-05, ,0.12254432524819452,-0.13480802505246303,0.10386782883000001,3.352103436543606,1.3312494172146863,-0.6066621822701175, ,0.03620638746984769,0.03135016239130188,0.027369091958762887,0.19581507528072006,0.0002211729568427808,0.23146062382180665, ,0.9220280647277832
0.012727370309080993,0.02072373805935899,-0.08779439706579988, ,0.01320024476045916,0.020428674080452548,-0.0883071746620776, ,0.0007573730003496738, ,0.00949330821175275,0.0003186609213942171,-0.026476396778343094,-0.0060496773007096705,0.023020465774275654,-0.1193565862730577, ,0.02812870476844628, ,0.023801836681122308, ,8.036389612088927e-05, ,0.12289184822753463,-0.13453000666899095,0.10411153135000001,3.3546197158654207,1.3312494172146863,-0.6047835712468845, ,0.038860336428530214,0.0307109843231297,0.02704382261460102,0.31588451949709884,0.0002211729568427808,0.19654588361365136, ,0.9263608455657959
0.012727370309080993,0.02072373805935899,-0.08779439706579988, ,0.01325654875936026,0.02042635331078588,-0.08845041324631983, ,0.0008937699648275543, ,0.00949330821175275,0.0003186609213942171,-0.026476396778343094,-0.0060496773007096705,0.023020465774275654,-0.1193565862730577, ,0.02812870476844628, ,0.023801836681122308, ,8.195400929352653e-05, ,0.12289184822753463,-0.13453000666899095,0.10411153135000001,3.3546197158654207,1.3312494172146863,-0.6047835712468845, ,0.038860336428530214,0.0307109843231297,0.02704382261460102,0.31588451949709884,0.0002211729568427808,0.19654588361365136, ,0.9301459789276123
0.012727370309080993,0.02072373805935899,-0.08779439706579988, ,0.013312880554156841,0.020423983266590565,-0.08859320780238028, ,0.0010347819943121103, ,0.00949330821175275,0.0003186609213942171,-0.026476396778343094,-0.0060496773007096705,0.023020465774275654,-0.1193565862730577, ,0.02812870476844628, ,0.023801836681122308, ,8.383494660610764e-05, ,0.12289184822753463,-0.13453000666899095,0.10411153135000001,3.3546197158654207,1.3312494172146863,-0.6047835712468845, ,0.038860336428530214,0.0307109843231297,0.02704382261460102,0.31588451949709884,0.0002211729568427808,0.19654588361365136, ,0.9339768886566162
0.01282439479787598,0.020724597848244507,-0.08804650492657194, ,0.013369239214541829,0.02042156465222752,-0.08873555834991284, ,0.0009292358024086402, ,0.0100992011165391,5.50316766999414e-05,-0.026779068556855187,-0.01099456896706149,0.017360987032243827,-0.09722080535573752, ,0.028620192250411163, ,0.020549224952032315, ,8.547272275491715e-05, ,0.12330115306986852,-0.134221097354022,0.10436949306000001,3.357974754961173,1.3312494172146863,-0.6028232814835109, ,0.04549230180175972,0.03398887591635773,0.027369091958762887,0.3106336993316494,0.0002211729568427808,0.2140603455759446, ,0.9382410049438477
0.01282439479787598,0.020724597848244507,-0.08804650492657194, ,0.013425623814437595,0.020419098170084277,-0.08887746491193999, ,0.0010701873111724459, ,0.0100992011165391,5.50316766999414e-05,-0.026779068556855187,-0.01099456896706149,0.017360987032243827,-0.09722080535573752, ,0.028620192250411163, ,0.020549224952032315, ,8.739829420173218e-05, ,0.12330115306986852,-0.134221097354022,0.10436949306000001,3.357974754961173,1.3312494172146863,-0.6028232814835109, ,0.04549230180175972,0.03398887591635773,0.027369091958762887,0.3106336993316494,0.0002211729568427808,0.2140603455759446, ,0.9420619010925293
0.01293420585200388,0.020724362322619663,-0.08833842446522729, ,0.013482033431989782,0.020416584520576885,-0.08901892751484582, ,0.000926243290590336, ,0.010822861609779357,0.00029971925003919285,-0.029321644642459975,-0.012468680417499774,0.02356025488546907,-0.06365384173561697, ,0.03125672742933882, ,0.026655804761705794, ,8.900052597611784e-05, ,0.1237954079738189,-0.13384268344318498,0.10466763976000001,3.3613297940569256,1.3312494172146863,-0.600209561799013, ,0.04763902688678252,0.03438294984002565,0.02999776180790961,0.33230204095148763,0.0002211729568427808,0.2694182102681981, ,0.9464280605316162
0.01293420585200388,0.020724362322619663,-0.08833842446522729, ,0.013538467149560687,0.020414024402152023,-0.08915994618837082, ,0.0010659921586024645, ,0.010822861609779357,0.00029971925003919285,-0.029321644642459975,-0.012468680417499774,0.02356025488546907,-0.06365384173561697, ,0.03125672742933882, ,0.026655804761705794, ,9.088585741274253e-05, ,0.1237954079738189,-0.13384268344318498,0.10466763976000001,3.3613297940569256,1.3312494172146863,-0.600209561799013, ,0.04763902688678252,0.03438294984002565,0.02999776180790961,0.33230204095148763,0.0002211729568427808,0.2694182102681981, ,0.9501888751983643
0.01293420585200388,0.020724362322619663,-0.08833842446522729, ,0.0135949240537229,0.02041141851128915,-0.08930052096560451, ,0.001208350961919169, ,0.010822861609779357,0.00029971925003919285,-0.029321644642459975,-0.012468680417499774,0.02356025488546907,-0.06365384173561697, ,0.03125672742933882, ,0.026655804761705794, ,9.305621522900824e-05, ,0.1237954079738189,-0.13384268344318498,0.10466763976000001,3.3613297940569256,1.3312494172146863,-0.600209561799013, ,0.04763902688678252,0.03438294984002565,0.02999776180790961,0.33230204095148763,0.0002211729568427808,0.2694182102681981, ,0.9539568424224854
0.013064341289037029,0.02072878838525892,-0.08868384875543031, ,0.01365140323525249,0.020408767542502464,-0.08944065188298005, ,0.001009854465931551, ,0.012919712614881241,0.00028242286388169193,-0.03484146786034993,-0.009342349943880498,0.04319757927012585,-0.11292659127415401, ,0.03716082102684172, ,0.0441956899952626, ,9.479040898789988e-05, ,0.12433599927501461,-0.13345654679947375,0.10502282322,3.3657332828701003,1.3313860537144517,-0.5969721513569464, ,0.051295644085659876,0.03990619914149318,0.03563492510067114,0.45276226068139785,-0.0013213778347015209,0.3399756822548422, ,0.9576928615570068
0.013064341289037029,0.02072878838525892,-0.08868384875543031, ,0.013707903789122683,0.0204060721883431,-0.08958033898026721, ,0.0011497883102973441, ,0.012919712614881241,0.00028242286388169193,-0.03484146786034993,-0.009342349943880498,0.04319757927012585,-0.11292659127415401, ,0.03716082102684172, ,0.0441956899952626, ,9.680342259863687e-05, ,0.12433599927501461,-0.13345654679947375,0.10502282322,3.3657332828701003,1.3313860537144517,-0.5969721513569464, ,0.051295644085659876,0.03990619914149318,0.03563492510067114,0.45276226068139785,-0.0013213778347015209,0.3399756822548422, ,0.9614670276641846
0.013195148267805674,0.02073297168991267,-0.0890490650482461, ,0.01376442481449716,0.020403333139401087,-0.08971958230056729, ,0.000939324622405224, ,0.013707870537539196,0.0006383830232298488,-0.039056120122390826,-0.019360442666601266,0.0510327831542958,0.0036135223555010944, ,0.0413967844955729, ,0.05458095658283434, ,9.836024468049063e-05, ,0.12485342237758765,-0.13304724195713985,0.10539615474000001,3.370136771683275,1.3313860537144517,-0.5930515718301994, ,0.05416492098086232,0.041841684990507395,0.03992183338345865,0.4486627242796161,-0.0013213778347015209,0.4535883908302075, ,0.9652059078216553
0.013195148267805674,0.02073297168991267,-0.0890490650482461, ,0.013820965414723793,0.0204005510843074,-0.08985838189030526, ,0.0010757064242851418, ,0.013707870537539196,0.0006383830232298488,-0.039056120122390826,-0.019360442666601266,0.0510327831542958,0.0036135223555010944, ,0.0413967844955729, ,0.05458095658283434, ,0.00010018765826661154, ,0.12485342237758765,-0.13304724195713985,0.10539615474000001,3.370136771683275,1.3313860537144517,-0.5930515718301994, ,0.05416492098086232,0.041841684990507395,0.03992183338345865,0.4486627242796161,-0.0013213778347015209,0.4535883908302075, ,0.9688999652862549
0.013195148267805674,0.02073297168991267,-0.0890490650482461, ,0.013877524697327982,0.020397726709736143,-0.08999673779922475, ,0.001214952851450878, ,0.013707870537539196,0.0006383830232298488,-0.039056120122390826,-0.019360442666601266,0.0510327831542958,0.0036135223555010944, ,0.0413967844955729, ,0.05458095658283434, ,0.00010250044912384032, ,0.12485342237758765,-0.13304724195713985,0.10539615474000001,3.370136771683275,1.3313860537144517,-0.5930515718301994, ,0.05416492098086232,0.041841684990507395,0.03992183338345865,0.4486627242796161,-0.0013213778347015209,0.4535883908302075, ,0.9710550308227539
0.013195148267805674,0.02073297168991267,-0.0890490650482461, ,0.013934101774005876,0.020394860700406626,-0.09013465008038199, ,0.001356048003408365, ,0.013707870537539196,0.0006383830232298488,-0.039056120122390826,-0.019360442666601266,0.0510327831542958,0.0036135223555010944, ,0.0413967844955729, ,0.05458095658283434, ,0.00010509578567515403, ,0.12485342237758765,-0.13304724195713985,0.10539615474000001,3.370136771683275,1.3313860537144517,-0.5930515718301994, ,0.05416492098086232,0.041841684990507395,0.03992183338345865,0.4486627242796161,-0.0013213778347015209,0.4535883908302075, ,0.9730918407440186
0.013195148267805674,0.02073297168991267,-0.0890490650482461, ,0.013990695760618429,0.020391953739085176,-0.09027211879013806, ,0.001498348928542075, ,0.013707870537539196,0.0006383830232298488,-0.039056120122390826,-0.019360442666601266,0.0510327831542958,0.0036135223555010944, ,0.0413967844955729, ,0.05458095658283434, ,0.00010797440787116006, ,0.12485342237758765,-0.13304724195713985,0.10539615474000001,3.370136771683275,1.3313860537144517,-0.5930515718301994, ,0.05416492098086232,0.041841684990507395,0.03992183338345865,0.4486627242796161,-0.0013213778347015209,0.4535883908302075, ,0.9755198955535889
0.013335822053856722,0.02074115737841435,-0.08947065286829937, ,0.014047305777184067,0.020389006506587634,-0.0904091439881542, ,0.0012292212604467973, ,0.013445837415549958,0.0007848562192902591,-0.041108761644850014,-0.028492998624362734,0.03380728764536694,0.03909427969112173, ,0.04325895083174641, ,0.04421160783659715, ,0.0001102862570517284, ,0.12541718187740603,-0.13259932345043482,0.10582652302000001,3.374330570552966,1.3313860537144517,-0.5885592411224686, ,0.05582173032851222,0.044406617481736445,0.04191792505263159,0.3662123401844565,-0.0013213778347015209,0.4079784395021999, ,0.9781029224395752
0.013335822053856722,0.02074115737841435,-0.08947065286829937, ,0.0141039309478732,0.020386019681781,-0.0905457257373845, ,0.0013681724052472958, ,0.013445837415549958,0.0007848562192902591,-0.041108761644850014,-0.028492998624362734,0.03380728764536694,0.03909427969112173, ,0.04325895083174641, ,0.04421160783659715, ,0.0006163708660150063, ,0.12541718187740603,-0.13259932345043482,0.10582652302000001,3.374330570552966,1.3313860537144517,-0.5885592411224686, ,0.05582173032851222,0.044406617481736445,0.04191792505263159,0.3662123401844565,-0.0013213778347015209,0.4079784395021999, ,0.9800710678100586
0.013335822053856722,0.02074115737841435,-0.08947065286829937, ,0.014160570401000619,0.02038299394158587,-0.09068186410407049, ,0.001508483855152441, ,0.013445837415549958,0.0007848562192902591,-0.041108761644850014,-0.028492998624362734,0.03380728764536694,0.03909427969112173, ,0.04325895083174641, ,0.04421160783659715, ,0.0006262832325609778, ,0.12541718187740603,-0.13259932345043482,0.10582652302000001,3.374330570552966,1.3313860537144517,-0.5885592411224686, ,0.05582173032851222,0.044406617481736445,0.04191792505263159,0.3662123401844565,-0.0013213778347015209,0.4079784395021999, ,0.981997013092041
0.013335822053856722,0.02074115737841435,-0.08947065286829937, ,0.014217223269019667,0.020379929960978163,-0.09081755915773426, ,0.0016496999429343484, ,0.013445837415549958,0.0007848562192902591,-0.041108761644850014,-0.028492998624362734,0.03380728764536694,0.03909427969112173, ,0.04325895083174641, ,0.04421160783659715, ,0.0006375295700376082, ,0.12541718187740603,-0.13259932345043482,0.10582652302000001,3.374330570552966,1.3313860537144517,-0.5885592411224686, ,0.05582173032851222,0.044406617481736445,0.04191792505263159,0.3662123401844565,-0.0013213778347015209,0.4079784395021999, ,0.9838800430297852
0.013475115212182186,0.020747937326147093,-0.08989652947798911, ,0.014273888688515604,0.020376828412991457,-0.09095281097117244, ,0.0013753150492737815, ,0.013234639901861361,0.0007233849119041786,-0.040443603517273115,-0.03158163839060643,0.013246693252181953,0.05717163955186292, ,0.04256012270336045, ,0.034245679436698706, ,0.0006455489774206101, ,0.126035000507344,-0.1321205140122329,0.10625948388,3.3776856096487182,1.3312494172146863,-0.584527243692025, ,0.06075348371220921,0.045253667886729035,0.04126635108808291,0.29364056118738835,0.0014954358980682364,0.35416420371634194, ,0.9858770370483398
0.013475115212182186,0.020747937326147093,-0.08989652947798911, ,0.014330565800198636,0.020373689968719015,-0.09108761962044998, ,0.0015134571419591115, ,0.013234639901861361,0.0007233849119041786,-0.040443603517273115,-0.03158163839060643,0.013246693252181953,0.05717163955186292, ,0.04256012270336045, ,0.034245679436698706, ,0.0006548813232758628, ,0.126035000507344,-0.1321205140122329,0.10625948388,3.3776856096487182,1.3312494172146863,-0.584527243692025, ,0.06075348371220921,0.045253667886729035,0.04126635108808291,0.29364056118738835,0.0014954358980682364,0.35416420371634194, ,0.9877650737762451
0.013475115212182186,0.020747937326147093,-0.08989652947798911, ,0.014387253748898323,0.020370515297315584,-0.09122198518489381, ,0.0016526575352976784, ,0.013234639901861361,0.0007233849119041786,-0.040443603517273115,-0.03158163839060643,0.013246693252181953,0.05717163955186292, ,0.04256012270336045, ,0.034245679436698706, ,0.0006654959638292865, ,0.126035000507344,-0.1321205140122329,0.10625948388,3.3776856096487182,1.3312494172146863,-0.584527243692025, ,0.06075348371220921,0.045253667886729035,0.04126635108808291,0.29364056118738835,0.0014954358980682364,0.35416420371634194, ,0.9896459579467773
0.013475115212182186,0.020747937326147093,-0.08989652947798911, ,0.014443951683555964,0.02036730506599999,-0.09135590774708671, ,0.0017925707679316318, ,0.013234639901861361,0.0007233849119041786,-0.040443603517273115,-0.03158163839060643,0.013246693252181953,0.05717163955186292, ,0.04256012270336045, ,0.034245679436698706, ,0.0006773599091356269, ,0.126035000507344,-0.1321205140122329,0.10625948388,3.3776856096487182,1.3312494172146863,-0.584527243692025, ,0.06075348371220921,0.045253667886729035,0.04126635108808291,0.29364056118738835,0.0014954358980682364,0.35416420371634194, ,0.9915368556976318
0.013475115212182186,0.020747937326147093,-0.08989652947798911, ,0.014500658757218773,0.020364059940056644,-0.09148938739286064, ,0.0019329505289289535, ,0.013234639901861361,0.0007233849119041786,-0.040443603517273115,-0.03158163839060643,0.013246693252181953,0.05717163955186292, ,0.04256012270336045, ,0.034245679436698706, ,0.0006904389780918074, ,0.126035000507344,-0.1321205140122329,0.10625948388,3.3776856096487182,1.3312494172146863,-0.584527243692025, ,0.06075348371220921,0.045253667886729035,0.04126635108808291,0.29364056118738835,0.0014954358980682364,0.35416420371634194, ,0.9934539794921875
0.013475115212182186,0.020747937326147093,-0.08989652947798911, ,0.014557374127033285,0.020360780582837933,-0.09162242421129135, ,0.0020736169687540795, ,0.013234639901861361,0.0007233849119041786,-0.040443603517273115,-0.03158163839060643,0.013246693252181953,-0.40170215994431674, ,0.04256012270336045, ,0.034245679436698706, ,0.0007046985450058515, ,0.12673776919889843,-0.1315799227110372,0.10673781489,3.383976307953254,1.3312494172146863,-0.5800349129842941, ,0.07987958043642322,0.06178186299379608,0.057297883165467633,0.9650449533849571,-0.007237672696802634,0.5599988080559933, ,0.9960570335388184
0.013653455873686514,0.020748502123555966,-0.0903634289000878, ,0.014614096954238567,0.020357467655766258,-0.0917550182946913, ,0.0017355864380136, ,0.02281404770437985,-0.00016350699357059462,-0.05581295580305102,0.01397099652481032,0.10495415832875521,-0.40170215994431674, ,0.06029588329785038, ,0.10587739370993883, ,0.0007152178092202162, ,0.12673776919889843,-0.1315799227110372,0.10673781489,3.383976307953254,1.3312494172146863,-0.5800349129842941, ,0.07987958043642322,0.06178186299379608,0.057297883165467633,0.9650449533849571,-0.007237672696802634,0.5599988080559933, ,0.9979560375213623
0.013653455873686514,0.020748502123555966,-0.0903634289000878, ,0.014670826404159794,0.020354121818336124,-0.09188716973860378, ,0.0018741304021818077, ,0.02281404770437985,-0.00016350699357059462,-0.05581295580305102,0.01397099652481032,0.10495415832875521,-0.40170215994431674, ,0.06029588329785038, ,0.10587739370993883, ,0.000726923997027909, ,0.12673776919889843,-0.1315799227110372,0.10673781489,3.383976307953254,1.3312494172146863,-0.5800349129842941, ,0.07987958043642322,0.06178186299379608,0.057297883165467633,0.9650449533849571,-0.007237672696802634,0.5599988080559933, ,0.9998269081115723
0.013653455873686514,0.020748502123555966,-0.0903634289000878, ,0.014727561646201908,0.020350743728116023,-0.09201887864179659, ,0.002013064529273098, ,0.02281404770437985,-0.00016350699357059462,-0.05581295580305102,0.01397099652481032,0.10495415832875521,-0.40170215994431674, ,0.06029588329785038, ,0.10587739370993883, ,0.0007397854023503608, ,0.12673776919889843,-0.1315799227110372,0.10673781489,3.383976307953254,1.3312494172146863,-0.5800349129842941, ,0.07987958043642322,0.06178186299379608,0.057297883165467633,0.9650449533849571,-0.007237672696802634,0.5599988080559933, ,1.001723051071167
0.013653455873686514,0.020748502123555966,-0.0903634289000878, ,0.014784301853843006,0.020347334040750707,-0.09215014510625566, ,0.0021522321582209936, ,0.02281404770437985,-0.00016350699357059462,-0.05581295580305102,0.01397099652481032,0.10495415832875521,-0.40170215994431674, ,0.06029588329785038, ,0.10587739370993883, ,0.0007537700236956147, ,0.12673776919889843,-0.1315799227110372,0.10673781489,3.383976307953254,1.3312494172146863,-0.5800349129842941, ,0.07987958043642322,0.06178186299379608,0.057297883165467633,0.9650449533849571,-0.007237672696802634,0.5599988080559933, ,1.0035970211029053
0.013653455873686514,0.020748502123555966,-0.0903634289000878, ,0.014841046204627563,0.020343893409963232,-0.09228096923717924, ,0.0022915147718556316, ,0.02281404770437985,-0.00016350699357059462,-0.05581295580305102,0.01397099652481032,0.10495415832875521,-0.40170215994431674, ,0.06029588329785038, ,0.10587739370993883, ,0.0007688459525991442, ,0.12673776919889843,-0.1315799227110372,0.10673781489,3.383976307953254,1.3312494172146863,-0.5800349129842941, ,0.07987958043642322,0.06178186299379608,0.057297883165467633,0.9650449533849571,-0.007237672696802634,0.5599988080559933, ,1.005491018295288
0.013917057431228744,0.020750453949567725,-0.09100243782133496, ,0.014897793880160307,0.020340422487556853,-0.0924113511429708, ,0.0017649381093921123, ,0.026595709746510144,0.001341000314537634,-0.0685227752375291,-0.02204192979898785,0.15547453451862253,-0.26616865210794527, ,0.07351530986819778, ,0.1570244148699585, ,0.0007785167502379109, ,0.1276104380136858,-0.1309466586153508,0.10739244134,3.3957189447883875,1.3308395077153898,-0.5724312514006948, ,0.0885232663791705,0.05779350886630376,0.07017097585903086,1.1149589033049916,-0.05025144949914517,0.8484460525088251, ,1.0082299709320068
0.013917057431228744,0.020750453949567725,-0.09100243782133496, ,0.014954544066099366,0.020336921923417364,-0.09254129093523394, ,0.0019014352895493916, ,0.026595709746510144,0.001341000314537634,-0.0685227752375291,-0.02204192979898785,0.15547453451862253,-0.26616865210794527, ,0.07351530986819778, ,0.1570244148699585, ,0.0007893140438851367, ,0.1276104380136858,-0.1309466586153508,0.10739244134,3.3957189447883875,1.3308395077153898,-0.5724312514006948, ,0.0885232663791705,0.05779350886630376,0.07017097585903086,1.1149589033049916,-0.05025144949914517,0.8484460525088251, ,1.010171890258789
0.013917057431228744,0.020750453949567725,-0.09100243782133496, ,0.015011295952150018,0.02033339236551498,-0.09267078872876518, ,0.0020383064185454988, ,0.026595709746510144,0.001341000314537634,-0.0685227752375291,-0.02204192979898785,0.15547453451862253,-0.26616865210794527, ,0.07351530986819778, ,0.1570244148699585, ,0.0008012092093580925, ,0.1276104380136858,-0.1309466586153508,0.10739244134,3.3957189447883875,1.3308395077153898,-0.5724312514006948, ,0.0885232663791705,0.05779350886630376,0.07017097585903086,1.1149589033049916,-0.05025144949914517,0.8484460525088251, ,1.012204885482788
0.013917057431228744,0.020750453949567725,-0.09100243782133496, ,0.015068048732057984,0.02032983445990635,-0.09279984464154806, ,0.0021754018035793125, ,0.026595709746510144,0.001341000314537634,-0.0685227752375291,-0.02204192979898785,0.15547453451862253,-0.26616865210794527, ,0.07351530986819778, ,0.1570244148699585, ,0.0008141732904356511, ,0.1276104380136858,-0.1309466586153508,0.10739244134,3.3957189447883875,1.3308395077153898,-0.5724312514006948, ,0.0885232663791705,0.05779350886630376,0.07017097585903086,1.1149589033049916,-0.05025144949914517,0.8484460525088251, ,1.0142199993133545
0.013917057431228744,0.020750453949567725,-0.09100243782133496, ,0.01512480160360294,0.020326248850736885,-0.09292845879474679, ,0.0023126073470868644, ,0.026595709746510144,0.001341000314537634,-0.0685227752375291,-0.02204192979898785,0.15547453451862253,-0.26616865210794527, ,0.07351530986819778, ,0.1570244148699585, ,0.000828177347039868, ,0.1276104380136858,-0.1309466586153508,0.10739244134,3.3957189447883875,1.3308395077153898,-0.5724312514006948, ,0.0885232663791705,0.05779350886630376,0.07017097585903086,1.1149589033049916,-0.05025144949914517,0.8484460525088251, ,1.0161800384521484
0.013917057431228744,0.020750453949567725,-0.09100243782133496, ,0.015181553768592104,0.02032263618024257,-0.09305663131270023, ,0.002449834674202142, ,0.026595709746510144,0.001341000314537634,-0.0685227752375291,-0.02204192979898785,0.15547453451862253,-0.26616865210794527, ,0.07351530986819778, ,0.1570244148699585, ,0.0008431926926617409, ,0.1276104380136858,-0.1309466586153508,0.10739244134,3.3957189447883875,1.3308395077153898,-0.5724312514006948, ,0.0885232663791705,0.05779350886630376,0.07017097585903086,1.1149589033049916,-0.05025144949914517,0.8484460525088251, ,1.0182158946990967
0.014105886097275486,0.020765225711373382,-0.09152403884844659, ,0.015238304432853572,0.020318997088752216,-0.09318436232291552, ,0.002058680477945132, ,0.024710013699068,0.0023801359972299516,-0.07157066685318188,0.0018939279520094054,0.07733920649456305,0.10017908807924418, ,0.07575361495125223, ,0.07735025476327474, ,0.0008543439567469097, ,0.12829776123949177,-0.1305141855743942,0.10792780911000001,3.402429022979892,1.3307028712156246,-0.5660305705061752, ,0.09753025853902444,0.06017561290962003,0.07374449777777779,0.7385124750753325,0.024299393703726403,0.8380639525213875, ,1.0206408500671387
0.014105886097275486,0.020765225711373382,-0.09152403884844659, ,0.015295052806229791,0.02031533221468931,-0.09331165195606161, ,0.002193645879024431, ,0.024710013699068,0.0023801359972299516,-0.07157066685318188,0.0018939279520094054,0.07733920649456305,0.10017908807924418, ,0.07575361495125223, ,0.07735025476327474, ,0.0008665194287676145, ,0.12829776123949177,-0.1305141855743942,0.10792780911000001,3.402429022979892,1.3307028712156246,-0.5660305705061752, ,0.09753025853902444,0.06017561290962003,0.07374449777777779,0.7385124750753325,0.024299393703726403,0.8380639525213875, ,1.0229198932647705
0.014105886097275486,0.020765225711373382,-0.09152403884844659, ,0.01535179810257113,0.020311642194574427,-0.09343850034596334, ,0.002328775978303961, ,0.024710013699068,0.0023801359972299516,-0.07157066685318188,0.0018939279520094054,0.07733920649456305,0.10017908807924418, ,0.07575361495125223, ,0.07735025476327474, ,0.0008796929111958698, ,0.12829776123949177,-0.1305141855743942,0.10792780911000001,3.402429022979892,1.3307028712156246,-0.5660305705061752, ,0.09753025853902444,0.06017561290962003,0.07374449777777779,0.7385124750753325,0.024299393703726403,0.8380639525213875, ,1.0248379707336426
0.014105886097275486,0.020765225711373382,-0.09152403884844659, ,0.015408539539729415,0.020307927663026963,-0.09356490762959499, ,0.002463975015706259, ,0.024710013699068,0.0023801359972299516,-0.07157066685318188,0.0018939279520094054,0.07733920649456305,0.10017908807924418, ,0.07575361495125223, ,0.07735025476327474, ,0.0008938382871289983, ,0.12829776123949177,-0.1305141855743942,0.10792780911000001,3.402429022979892,1.3307028712156246,-0.5660305705061752, ,0.09753025853902444,0.06017561290962003,0.07374449777777779,0.7385124750753325,0.024299393703726403,0.8380639525213875, ,1.0267488956451416
0.014105886097275486,0.020765225711373382,-0.09152403884844659, ,0.01546527633955128,0.020304189252767307,-0.09369087394707382, ,0.00259916732658779, ,0.024710013699068,0.0023801359972299516,-0.07157066685318188,0.0018939279520094054,0.07733920649456305,0.10017908807924418, ,0.07575361495125223, ,0.07735025476327474, ,0.0009089296945578371, ,0.12829776123949177,-0.1305141855743942,0.10792780911000001,3.402429022979892,1.3307028712156246,-0.5660305705061752, ,0.09753025853902444,0.06017561290962003,0.07374449777777779,0.7385124750753325,0.024299393703726403,0.8380639525213875, ,1.0287010669708252
0.014447454105639506,0.020806681958073656,-0.09266186536534061, ,0.01552200772787173,0.02030042759461905,-0.09381639944165486, ,0.001656474539780195, ,0.017368133781678244,0.002118261440628653,-0.06207152108650455,0.04530111657113052,-0.09108034648796788,0.44083624121565695, ,0.06449040884179218, ,0.10171970924960526, ,0.0009154871054808402, ,0.1299118124102047,-0.12943300297200278,0.10910095156,3.4072518916800365,1.3319325997135134,-0.5543731269176557, ,0.09703163758534844,0.06763858984923077,0.06448911546558705,0.0,0.14755261848284892,0.43935146926098434, ,1.0309019088745117
0.014447454105639506,0.020806681958073656,-0.09266186536534061, ,0.015578732934507367,0.020296643317510958,-0.09394148425972287, ,0.0017825138760671005, ,0.017368133781678244,0.002118261440628653,-0.06207152108650455,0.04530111657113052,-0.09108034648796788,0.44083624121565695, ,0.06449040884179218, ,0.10171970924960526, ,0.0009230264687033295, ,0.1299118124102047,-0.12943300297200278,0.10910095156,3.4072518916800365,1.3319325997135134,-0.5543731269176557, ,0.09703163758534844,0.06763858984923077,0.06448911546558705,0.0,0.14755261848284892,0.43935146926098434, ,1.032778024673462
0.014447454105639506,0.020806681958073656,-0.09266186536534061, ,0.015635451193250452,0.02029283704847884,-0.09406612855078776, ,0.001909798095425472, ,0.017368133781678244,0.002118261440628653,-0.06207152108650455,0.04530111657113052,-0.09108034648796788,0.44083624121565695, ,0.06449040884179218, ,0.10171970924960526, ,0.0009315331206578307, ,0.1299118124102047,-0.12943300297200278,0.10910095156,3.4072518916800365,1.3319325997135134,-0.5543731269176557, ,0.09703163758534844,0.06763858984923077,0.06448911546558705,0.0,0.14755261848284892,0.43935146926098434, ,1.0347158908843994
0.014447454105639506,0.020806681958073656,-0.09266186536534061, ,0.01569216174186166,0.02028900941266807,-0.0941903324674774, ,0.0020380121801036604, ,0.017368133781678244,0.002118261440628653,-0.06207152108650455,0.04530111657113052,-0.09108034648796788,0.44083624121565695, ,0.06449040884179218, ,0.10171970924960526, ,0.0009409902066360002, ,0.1299118124102047,-0.12943300297200278,0.10910095156,3.4072518916800365,1.3319325997135134,-0.5543731269176557, ,0.09703163758534844,0.06763858984923077,0.06448911546558705,0.0,0.14755261848284892,0.43935146926098434, ,1.0366179943084717
0.014447454105639506,0.020806681958073656,-0.09266186536534061, ,0.015748863822064085,0.020285161033335247,-0.09431409616553188, ,0.0021669143827214256, ,0.017368133781678244,0.002118261440628653,-0.06207152108650455,0.04530111657113052,-0.09108034648796788,0.44083624121565695, ,0.06449040884179218, ,0.10171970924960526, ,0.0009513793945689276, ,0.1299118124102047,-0.12943300297200278,0.10910095156,3.4072518916800365,1.3319325997135134,-0.5543731269176557, ,0.09703163758534844,0.06763858984923077,0.06448911546558705,0.0,0.14755261848284892,0.43935146926098434, ,1.038517951965332
0.014708662995155516,0.020801576728980094,-0.09334366402270372, ,0.01580555667953668,0.02028129253185042,-0.09443741980379664, ,0.0022963166624693073, ,0.03267462527591877,-0.0020788615858977934,-0.0728228961478541,0.0052584290146729384,0.12905552355806704,-0.6494429061384333, ,0.06449040884179218, ,0.12915467932066185, ,0.00096268138841683, ,0.1310161632112188,-0.12860667055446076,0.10980354074000001,3.4150104195889637,1.3323425092128096,-0.5487448325984837, ,0.12166274558778303,0.08960995425729064,0.07478315267605636,1.3399220101600808,-0.035212069466625175,0.6879934533715844, ,1.0412678718566895
0.014708662995155516,0.020801576728980094,-0.09334366402270372, ,0.015862239563907376,0.020277404527699144,-0.09456030354421689, ,0.00175661809220924, ,0.03267462527591877,-0.0020788615858977934,-0.0728228961478541,0.0052584290146729384,0.12905552355806704,-0.6494429061384333, ,0.0798443924504168, ,0.12915467932066185, ,0.0009692975276151001, ,0.1310161632112188,-0.12860667055446076,0.10980354074000001,3.4150104195889637,1.3323425092128096,-0.5487448325984837, ,0.12166274558778303,0.08960995425729064,0.07478315267605636,1.3399220101600808,-0.035212069466625175,0.6879934533715844, ,1.0432310104370117
0.014708662995155516,0.020801576728980094,-0.09334366402270372, ,0.015918911728746914,0.020273497638484683,-0.09468274755183083, ,0.0018806153835799477, ,0.03267462527591877,-0.0020788615858977934,-0.0728228961478541,0.0052584290146729384,0.12905552355806704,-0.6494429061384333, ,0.0798443924504168, ,0.12915467932066185, ,0.0009768290801437352, ,0.1310161632112188,-0.12860667055446076,0.10980354074000001,3.4150104195889637,1.3323425092128096,-0.5487448325984837, ,0.12166274558778303,0.08960995425729064,0.07478315267605636,1.3399220101600808,-0.035212069466625175,0.6879934533715844, ,1.0451469421386719
0.014708662995155516,0.020801576728980094,-0.09334366402270372, ,0.015975572431562127,0.020269572479929835,-0.09480475199476429, ,0.002005708379392108, ,0.03267462527591877,-0.0020788615858977934,-0.0728228961478541,0.0052584290146729384,0.12905552355806704,-0.6494429061384333, ,0.0798443924504168, ,0.12915467932066185, ,0.0009852625170228202, ,0.1310161632112188,-0.12860667055446076,0.10980354074000001,3.4150104195889637,1.3323425092128096,-0.5487448325984837, ,0.12166274558778303,0.08960995425729064,0.07478315267605636,1.3399220101600808,-0.035212069466625175,0.6879934533715844, ,1.047083854675293
0.014708662995155516,0.020801576728980094,-0.09334366402270372, ,0.01603222093378979,0.02026562966587907,-0.09492631704422264, ,0.0021316274200458597, ,0.03267462527591877,-0.0020788615858977934,-0.0728228961478541,0.0052584290146729384,0.12905552355806704,-0.6494429061384333, ,0.0798443924504168, ,0.12915467932066185, ,0.0009945825568847962, ,0.1310161632112188,-0.12860667055446076,0.10980354074000001,3.4150104195889637,1.3323425092128096,-0.5487448325984837, ,0.12166274558778303,0.08960995425729064,0.07478315267605636,1.3399220101600808,-0.035212069466625175,0.6879934533715844, ,1.048996925354004
0.015064040174802928,0.020782516651937123,-0.0941033164435787, ,0.016088856500789395,0.02026166980830085,-0.0950474428744867, ,0.0014875834948241933, ,0.032223468096183136,-0.0014574797427885956,-0.06864792668203147,0.0637261267837819,0.10171267769123225,-0.4738162959087471, ,0.07584862543967386, ,0.1200206794845944, ,0.0009985583709004365, ,0.13232902779983696,-0.1277417244725476,0.11058649990000001,3.4301080955198495,1.3319325997135134,-0.5405694198339006, ,0.1284126408098387,0.0782332576739248,0.07142964807174888,1.2544644720242626,0.028009098654184935,0.7729058558378581, ,1.050940990447998
0.015064040174802928,0.020782516651937123,-0.0941033164435787, ,0.016145478401837277,0.02025769351728941,-0.09516812966290543, ,0.0016058565171289784, ,0.032223468096183136,-0.0014574797427885956,-0.06864792668203147,0.0637261267837819,0.10171267769123225,-0.4738162959087471, ,0.07584862543967386, ,0.1200206794845944, ,0.0010034167560702648, ,0.13232902779983696,-0.1277417244725476,0.11058649990000001,3.4301080955198495,1.3319325997135134,-0.5405694198339006, ,0.1284126408098387,0.0782332576739248,0.07142964807174888,1.2544644720242626,0.028009098654184935,0.7729058558378581, ,1.0528619289398193
0.015064040174802928,0.020782516651937123,-0.0941033164435787, ,0.01620208591011989,0.020253701401066762,-0.09528837758988913, ,0.0017260253722702968, ,0.032223468096183136,-0.0014574797427885956,-0.06864792668203147,0.0637261267837819,0.10171267769123225,-0.4738162959087471, ,0.07584862543967386, ,0.1200206794845944, ,0.0010091517450877253, ,0.13232902779983696,-0.1277417244725476,0.11058649990000001,3.4301080955198495,1.3319325997135134,-0.5405694198339006, ,0.1284126408098387,0.0782332576739248,0.07142964807174888,1.2544644720242626,0.028009098654184935,0.7729058558378581, ,1.054744005203247
0.015064040174802928,0.020782516651937123,-0.0941033164435787, ,0.01625867830272736,0.02024969406598516,-0.09540818683890426, ,0.0018476327864022164, ,0.032223468096183136,-0.0014574797427885956,-0.06864792668203147,0.0637261267837819,0.10171267769123225,-0.4738162959087471, ,0.07584862543967386, ,0.1200206794845944, ,0.0010157539580114613, ,0.13232902779983696,-0.1277417244725476,0.11058649990000001,3.4301080955198495,1.3319325997135134,-0.5405694198339006, ,0.1284126408098387,0.0782332576739248,0.07142964807174888,1.2544644720242626,0.028009098654184935,0.7729058558378581, ,1.05668306350708
0.015064040174802928,0.020782516651937123,-0.0941033164435787, ,0.016315254860646725,0.020245672116528824,-0.09552755759646685, ,0.0019703307100203053, ,0.032223468096183136,-0.0014574797427885956,-0.06864792668203147,0.0637261267837819,0.10171267769123225,-0.4738162959087471, ,0.07584862543967386, ,0.1200206794845944, ,0.0010232115888865305, ,0.13232902779983696,-0.1277417244725476,0.11058649990000001,3.4301080955198495,1.3319325997135134,-0.5405694198339006, ,0.1284126408098387,0.0782332576739248,0.07142964807174888,1.2544644720242626,0.028009098654184935,0.7729058558378581, ,1.058608055114746
0.015340084786900157,0.020766959168524085,-0.09471930779558355, ,0.01637181486875538,0.020241636155316205,-0.09564649005213585, ,0.0014832727890972098, ,0.032223468096183136,-0.0014574797427885956,-0.06864792668203147,0.0637261267837819,0.10171267769123225,-0.4738162959087471, ,0.07584862543967386, ,0.1200206794845944, ,0.0010267779547796366, ,0.13364961512132936,-0.12693856025362826,0.11122297829000001,3.4378666234287767,1.3319325997135134,-0.5326465820402662, ,0.14334885431793168,0.0891051094445735,0.06397113060240965,0.5243528745498242,0.01742575620253474,0.8129217903119881, ,1.0606169700622559
0.015340084786900157,0.020766959168524085,-0.09471930779558355, ,0.016428357615815355,0.020237586783101755,-0.09576498439850735, ,0.0015993787639283828, ,0.02668772709585377,-0.0017745788767097453,-0.061946956833952835,-0.054248954851964556,0.00047233906936101216,0.28127602250019396, ,0.06747450902911445, ,0.05424260305436443, ,0.001031182576388473, ,0.13364961512132936,-0.12693856025362826,0.11122297829000001,3.4378666234287767,1.3319325997135134,-0.5326465820402662, ,0.14334885431793168,0.0891051094445735,0.06397113060240965,0.5243528745498242,0.01742575620253474,0.8129217903119881, ,1.0628468990325928
0.015340084786900157,0.020766959168524085,-0.09471930779558355, ,0.01648488239446549,0.020233524598778502,-0.095883040831208, ,0.0017173784034657772, ,0.02668772709585377,-0.0017745788767097453,-0.061946956833952835,-0.054248954851964556,0.00047233906936101216,0.28127602250019396, ,0.06747450902911445, ,0.05424260305436443, ,0.0010364207124730325, ,0.13364961512132936,-0.12693856025362826,0.11122297829000001,3.4378666234287767,1.3319325997135134,-0.5326465820402662, ,0.14334885431793168,0.0891051094445735,0.06397113060240965,0.5243528745498242,0.01742575620253474,0.8129217903119881, ,1.0647270679473877
0.015340084786900157,0.020766959168524085,-0.09471930779558355, ,0.01654138850121617,0.020229450199379582,-0.09600065954888884, ,0.0018368203019453987, ,0.02668772709585377,-0.0017745788767097453,-0.061946956833952835,-0.054248954851964556,0.00047233906936101216,0.28127602250019396, ,0.06747450902911445, ,0.05424260305436443, ,0.0010424843457266112, ,0.13364961512132936,-0.12693856025362826,0.11122297829000001,3.4378666234287767,1.3319325997135134,-0.5326465820402662, ,0.14334885431793168,0.0891051094445735,0.06397113060240965,0.5243528745498242,0.01742575620253474,0.8129217903119881, ,1.0666329860687256
0.015340084786900157,0.020766959168524085,-0.09471930779558355, ,0.01659787523644187,0.020225364180080772,-0.09611784075321962, ,0.001957359542868803, ,0.02668772709585377,-0.0017745788767097453,-0.061946956833952835,-0.054248954851964556,0.00047233906936101216,0.28127602250019396, ,0.06747450902911445, ,0.05424260305436443, ,0.0010493631066073794, ,0.13364961512132936,-0.12693856025362826,0.11122297829000001,3.4378666234287767,1.3319325997135134,-0.5326465820402662, ,0.14334885431793168,0.0891051094445735,0.06397113060240965,0.5243528745498242,0.01742575620253474,0.8129217903119881, ,1.0685150623321533
0.015340084786900157,0.020766959168524085,-0.09471930779558355, ,0.01665434190437544,0.02022126713420214,-0.09623458464888135, ,0.0020787293015919494, ,0.02668772709585377,-0.0017745788767097453,-0.061946956833952835,-0.054248954851964556,0.00047233906936101216,0.28127602250019396, ,0.06747450902911445, ,0.05424260305436443, ,0.0010570449438833836, ,0.13507059797018667,-0.12601955504159554,0.11187371587000002,3.441850732354983,1.332069236213279,-0.5250801983707498, ,0.14712704117592368,0.0956622394742649,0.066370048,0.4289445689258924,0.0,0.7481953437148019, ,1.0704569816589355
0.015597623473964779,0.02075044910600315,-0.09535150246095439, ,0.01671078781310059,0.020217159653210567,-0.09635089144356099, ,0.0015881784613005349, ,0.026771860058268572,-0.0020101960732943538,-0.06456789864699504,-0.08561526524829366,-0.016917040159090006,0.30818834336893625, ,0.06992701133983367, ,0.08726418313197967, ,0.0010609792662346217, ,0.13507059797018667,-0.12601955504159554,0.11187371587000002,3.441850732354983,1.332069236213279,-0.5250801983707498, ,0.14712704117592368,0.0956622394742649,0.066370048,0.4289445689258924,0.0,0.7481953437148019, ,1.0729539394378662
0.015597623473964779,0.02075044910600315,-0.09535150246095439, ,0.016767212274546573,0.02021304232672137,-0.09646676134794543, ,0.0017030990558029445, ,0.026771860058268572,-0.0020101960732943538,-0.06456789864699504,-0.08561526524829366,-0.016917040159090006,0.30818834336893625, ,0.06992701133983367, ,0.08726418313197967, ,0.0010657007352755652, ,0.13507059797018667,-0.12601955504159554,0.11187371587000002,3.441850732354983,1.332069236213279,-0.5250801983707498, ,0.14712704117592368,0.0956622394742649,0.066370048,0.4289445689258924,0.0,0.7481953437148019, ,1.0748698711395264
0.015597623473964779,0.02075044910600315,-0.09535150246095439, ,0.01682361460448067,0.020208915742500586,-0.09658219457571374, ,0.001819592184315175, ,0.026771860058268572,-0.0020101960732943538,-0.06456789864699504,-0.08561526524829366,-0.016917040159090006,0.30818834336893625, ,0.06992701133983367, ,0.08726418313197967, ,0.0010712035925678253, ,0.13507059797018667,-0.12601955504159554,0.11187371587000002,3.441850732354983,1.332069236213279,-0.5250801983707498, ,0.14712704117592368,0.0956622394742649,0.066370048,0.4289445689258924,0.0,0.7481953437148019, ,1.0767359733581543
0.015597623473964779,0.02075044910600315,-0.09535150246095439, ,0.016879994122502198,0.020204780486467185,-0.09669719134353295, ,0.0019372938061306326, ,0.026771860058268572,-0.0020101960732943538,-0.06456789864699504,-0.08561526524829366,-0.016917040159090006,0.30818834336893625, ,0.06992701133983367, ,0.08726418313197967, ,0.0010774796086081354, ,0.13507059797018667,-0.12601955504159554,0.11187371587000002,3.441850732354983,1.332069236213279,-0.5250801983707498, ,0.14712704117592368,0.0956622394742649,0.066370048,0.4289445689258924,0.0,0.7481953437148019, ,1.0786590576171875
0.015884392888779138,0.020721546133792956,-0.09598643025999042, ,0.016936350152035953,0.020200637142694787,-0.09681175187105023, ,0.0014349620282112182, ,0.030748434503234702,-0.003943505867800998,-0.06395406814460225,-0.026192261593083653,0.024435229926953763,-0.17789784804871137, ,0.07107137465374877, ,0.03580565785789086, ,0.001080051424576503, ,0.1365301944834151,-0.12505421343231748,0.11252963861000001,3.4485608105464873,1.3322058727130444,-0.5180855658822172, ,0.1499161793972682,0.10214956034281031,0.06609465360995852,0.8512289479807849,0.0037931118517300923,0.6773412688240279, ,1.081063985824585
0.015884392888779138,0.020721546133792956,-0.09598643025999042, ,0.01699268202032519,0.02019648629341418,-0.09692587638088711, ,0.0015448468044273946, ,0.030748434503234702,-0.003943505867800998,-0.06395406814460225,-0.026192261593083653,0.024435229926953763,-0.17789784804871137, ,0.07107137465374877, ,0.03580565785789086, ,0.001083371391575438, ,0.1365301944834151,-0.12505421343231748,0.11252963861000001,3.4485608105464873,1.3322058727130444,-0.5180855658822172, ,0.1499161793972682,0.10214956034281031,0.06609465360995852,0.8512289479807849,0.0037931118517300923,0.6773412688240279, ,1.0830938816070557
0.015884392888779138,0.020721546133792956,-0.09598643025999042, ,0.017048989058426015,0.02019232851901494,-0.09703956509863361, ,0.001656939501162168, ,0.030748434503234702,-0.003943505867800998,-0.06395406814460225,-0.026192261593083653,0.024435229926953763,-0.17789784804871137, ,0.07107137465374877, ,0.03580565785789086, ,0.0010874392505086771, ,0.1365301944834151,-0.12505421343231748,0.11252963861000001,3.4485608105464873,1.3322058727130444,-0.5180855658822172, ,0.1499161793972682,0.10214956034281031,0.06609465360995852,0.8512289479807849,0.0037931118517300923,0.6773412688240279, ,1.0850658416748047
0.015884392888779138,0.020721546133792956,-0.09598643025999042, ,0.01710527060120005,0.020188164398047707,-0.09715281825284185, ,0.0017707341456527925, ,0.030748434503234702,-0.003943505867800998,-0.06395406814460225,-0.026192261593083653,0.024435229926953763,-0.17789784804871137, ,0.07107137465374877, ,0.03580565785789086, ,0.0010922511863899738, ,0.1365301944834151,-0.12505421343231748,0.11252963861000001,3.4485608105464873,1.3322058727130444,-0.5180855658822172, ,0.1499161793972682,0.10214956034281031,0.06609465360995852,0.8512289479807849,0.0037931118517300923,0.6773412688240279, ,1.0871570110321045
0.015884392888779138,0.020721546133792956,-0.09598643025999042, ,0.017161525987308246,0.020183994507226424,-0.09726563607501862, ,0.001885841515023162, ,0.030748434503234702,-0.003943505867800998,-0.06395406814460225,-0.026192261593083653,0.024435229926953763,-0.17789784804871137, ,0.07107137465374877, ,0.03580565785789086, ,0.0010978007691076882, ,0.1365301944834151,-0.12505421343231748,0.11252963861000001,3.4485608105464873,1.3322058727130444,-0.5180855658822172, ,0.1499161793972682,0.10214956034281031,0.06609465360995852,0.8512289479807849,0.0037931118517300923,0.6773412688240279, ,1.0892400741577148
0.015884392888779138,0.020721546133792956,-0.09598643025999042, ,0.017217754559204445,0.02017981942143016,-0.09737801879962138, ,0.0020019590002492583, ,0.030748434503234702,-0.003943505867800998,-0.06395406814460225,-0.026192261593083653,0.024435229926953763,-0.17789784804871137, ,0.07107137465374877, ,0.03580565785789086, ,0.0011040796457128382, ,0.1365301944834151,-0.12505421343231748,0.11252963861000001,3.4485608105464873,1.3322058727130444,-0.5180855658822172, ,0.1499161793972682,0.10214956034281031,0.06609465360995852,0.8512289479807849,0.0037931118517300923,0.6773412688240279, ,1.0922229290008545
0.015884392888779138,0.020721546133792956,-0.09598643025999042, ,0.017273955663128917,0.020175639713705076,-0.09748996666405026, ,0.002118848801043863, ,0.030748434503234702,-0.003943505867800998,-0.06395406814460225,-0.026192261593083653,0.024435229926953763,-0.17789784804871137, ,0.07107137465374877, ,0.03580565785789086, ,0.0011110780536806384, ,0.13790484093502706,-0.12409659455591365,0.11310130250000001,3.457158098229353,1.3322058727130444,-0.5120413391118157, ,0.14667224352159317,0.10171162010554209,0.05750473472924188,0.9225456589823973,0.0034481476930075757,0.6504066588133335, ,1.0957350730895996
0.01616910519303484,0.0206760621104419,-0.09653890284088472, ,0.017330128649101353,0.020171455955267013,-0.09760147990864183, ,0.0016527773178200134, ,0.03001515887252419,-0.005342909365854831,-0.055445412405619635,-0.013077164590155926,0.03323342301106621,-0.27478109752447377, ,0.06327440398347381, ,0.035706422988127186, ,0.0011147883226130999, ,0.13790484093502706,-0.12409659455591365,0.11310130250000001,3.457158098229353,1.3322058727130444,-0.5120413391118157, ,0.14667224352159317,0.10171162010554209,0.05750473472924188,0.9225456589823973,0.0034481476930075757,0.6504066588133335, ,1.0978548526763916
0.01616910519303484,0.0206760621104419,-0.09653890284088472, ,0.017386272870914883,0.020167268715503,-0.09771255877666433, ,0.0017657395420616463, ,0.03001515887252419,-0.005342909365854831,-0.055445412405619635,-0.013077164590155926,0.03323342301106621,-0.27478109752447377, ,0.06327440398347381, ,0.035706422988127186, ,0.0011192165622011853, ,0.13790484093502706,-0.12409659455591365,0.11310130250000001,3.457158098229353,1.3322058727130444,-0.5120413391118157, ,0.14667224352159317,0.10171162010554209,0.05750473472924188,0.9225456589823973,0.0034481476930075757,0.6504066588133335, ,1.0997600555419922
0.01616910519303484,0.0206760621104419,-0.09653890284088472, ,0.01744238768612939,0.020163078561973632,-0.09782320351430945, ,0.0018798480385338046, ,0.03001515887252419,-0.005342909365854831,-0.055445412405619635,-0.013077164590155926,0.03323342301106621,-0.27478109752447377, ,0.06327440398347381, ,0.035706422988127186, ,0.0011243559640682975, ,0.13790484093502706,-0.12409659455591365,0.11310130250000001,3.457158098229353,1.3322058727130444,-0.5120413391118157, ,0.14667224352159317,0.10171162010554209,0.05750473472924188,0.9225456589823973,0.0034481476930075757,0.6504066588133335, ,1.1016418933868408
0.01616910519303484,0.0206760621104419,-0.09653890284088472, ,0.01749847245606488,0.020158886060415084,-0.09793341437068767, ,0.0019948310187809623, ,0.03001515887252419,-0.005342909365854831,-0.055445412405619635,-0.013077164590155926,0.03323342301106621,-0.27478109752447377, ,0.06327440398347381, ,0.035706422988127186, ,0.0011301980785294564, ,0.13790484093502706,-0.12409659455591365,0.11310130250000001,3.457158098229353,1.3322058727130444,-0.5120413391118157, ,0.14667224352159317,0.10171162010554209,0.05750473472924188,0.9225456589823973,0.0034481476930075757,0.6504066588133335, ,1.104306936264038
0.01665803788174482,0.020581690099454035,-0.097430308092218, ,0.0175545265457953,0.02015469177474099,-0.09804319159782099, ,0.0011668957474937354, ,0.027243315937470286,-0.005234974684143908,-0.04998372016642476,-0.07776841351442344,-0.0480669611476874,0.15368930587775156, ,0.05716620946755091, ,0.09142235450335583, ,0.0011304427296558847, ,0.14056918377663452,-0.12231264326196778,0.11402555727000001,3.4689007350644863,1.3322058727130444,-0.5008513517125586, ,0.1644661032209199,0.10439707542186004,0.05188537954397395,0.4442534526789371,0.0027928881949223824,0.6091592823786909, ,1.1066288948059082
0.01665803788174482,0.020581690099454035,-0.097430308092218, ,0.017610549324141345,0.020150496267044994,-0.0981525354506375, ,0.0012707551008174257, ,0.027243315937470286,-0.005234974684143908,-0.04998372016642476,-0.07776841351442344,-0.0480669611476874,0.15368930587775156, ,0.05716620946755091, ,0.09142235450335583, ,0.0011313719506569546, ,0.14056918377663452,-0.12231264326196778,0.11402555727000001,3.4689007350644863,1.3322058727130444,-0.5008513517125586, ,0.1644661032209199,0.10439707542186004,0.05188537954397395,0.4442534526789371,0.0027928881949223824,0.6091592823786909, ,1.1087770462036133
0.01665803788174482,0.020581690099454035,-0.097430308092218, ,0.017666540163664944,0.02014630009760224,-0.09826144618696399, ,0.0013774729902573722, ,0.027243315937470286,-0.005234974684143908,-0.04998372016642476,-0.07776841351442344,-0.0480669611476874,0.15368930587775156, ,0.05716620946755091, ,0.09142235450335583, ,0.0011329910364437994, ,0.14056918377663452,-0.12231264326196778,0.11402555727000001,3.4689007350644863,1.3322058727130444,-0.5008513517125586, ,0.1644661032209199,0.10439707542186004,0.05188537954397395,0.4442534526789371,0.0027928881949223824,0.6091592823786909, ,1.110687017440796
0.01665803788174482,0.020581690099454035,-0.097430308092218, ,0.01772249844066165,0.020142103824871863,-0.0983699240675213, ,0.0014863346040968482, ,0.027243315937470286,-0.005234974684143908,-0.04998372016642476,-0.07776841351442344,-0.0480669611476874,0.15368930587775156, ,0.05716620946755091, ,0.09142235450335583, ,0.0011353004715264992, ,0.14056918377663452,-0.12231264326196778,0.11402555727000001,3.4689007350644863,1.3322058727130444,-0.5008513517125586, ,0.1644661032209199,0.10439707542186004,0.05188537954397395,0.4442534526789371,0.0027928881949223824,0.6091592823786909, ,1.1125879287719727
0.01665803788174482,0.020581690099454035,-0.097430308092218, ,0.017778423535154984,0.02013790800549889,-0.09847796935591652, ,0.0015968095323916685, ,0.027243315937470286,-0.005234974684143908,-0.04998372016642476,-0.07776841351442344,-0.0480669611476874,0.15368930587775156, ,0.05716620946755091, ,0.09142235450335583, ,0.0011382972836100392, ,0.14056918377663452,-0.12231264326196778,0.11402555727000001,3.4689007350644863,1.3322058727130444,-0.5008513517125586, ,0.1644661032209199,0.10439707542186004,0.05188537954397395,0.4442534526789371,0.0027928881949223824,0.6091592823786909, ,1.1145210266113281
0.016923405418600636,0.020537876973287912,-0.09792650571192246, ,0.017834314830889555,0.02013371319431627,-0.09858558231863776, ,0.0011947745775452937, ,0.02806759937254652,-0.004192859030834132,-0.0511867978478609,-0.06697596546950285,-0.07691380637096495,0.061683419099481926, ,0.05852741644142511, ,0.1019860881233811, ,0.001138661653248331, ,0.14221412587884436,-0.12133957891981549,0.11454148069000002,3.472465464103723,1.3322058727130444,-0.4957055910837032, ,0.17316960138407075,0.0959524181582111,0.053452387651006725,0.3976342632002832,0.0024979601944927045,0.4693129695377216, ,1.116692066192627
0.016923405418600636,0.020537876973287912,-0.09792650571192246, ,0.01789017171532444,0.020129519944347064,-0.0986927632250469, ,0.0012994395376415557, ,0.02806759937254652,-0.004192859030834132,-0.0511867978478609,-0.06697596546950285,-0.07691380637096495,0.061683419099481926, ,0.05852741644142511, ,0.1019860881233811, ,0.0011396922807123903, ,0.14221412587884436,-0.12133957891981549,0.11454148069000002,3.472465464103723,1.3322058727130444,-0.4957055910837032, ,0.17316960138407075,0.0959524181582111,0.053452387651006725,0.3976342632002832,0.0024979601944927045,0.4693129695377216, ,1.1186749935150146
0.016923405418600636,0.020537876973287912,-0.09792650571192246, ,0.017945993579627027,0.020125328806806515,-0.09879951234737497, ,0.0014064220996139827, ,0.02806759937254652,-0.004192859030834132,-0.0511867978478609,-0.06697596546950285,-0.07691380637096495,0.061683419099481926, ,0.05852741644142511, ,0.1019860881233811, ,0.0011413911967563496, ,0.14221412587884436,-0.12133957891981549,0.11454148069000002,3.472465464103723,1.3322058727130444,-0.4957055910837032, ,0.17316960138407075,0.0959524181582111,0.053452387651006725,0.3976342632002832,0.0024979601944927045,0.4693129695377216, ,1.1205408573150635
0.016923405418600636,0.020537876973287912,-0.09792650571192246, ,0.01800177981866602,0.02012114033110398,-0.0989058299607141, ,0.0015151358882708943, ,0.02806759937254652,-0.004192859030834132,-0.0511867978478609,-0.06697596546950285,-0.07691380637096495,0.061683419099481926, ,0.05852741644142511, ,0.1019860881233811, ,0.0011437566694874543, ,0.14221412587884436,-0.12133957891981549,0.11454148069000002,3.472465464103723,1.3322058727130444,-0.4957055910837032, ,0.17316960138407075,0.0959524181582111,0.053452387651006725,0.3976342632002832,0.0024979601944927045,0.4693129695377216, ,1.1224210262298584
0.016923405418600636,0.020537876973287912,-0.09792650571192246, ,0.018057529831005528,0.020116955064845062,-0.09901171634301213, ,0.0016251447780582353, ,0.02806759937254652,-0.004192859030834132,-0.0511867978478609,-0.06697596546950285,-0.07691380637096495,0.061683419099481926, ,0.05852741644142511, ,0.1019860881233811, ,0.001146784267654566, ,0.14221412587884436,-0.12133957891981549,0.11454148069000002,3.472465464103723,1.3322058727130444,-0.4957055910837032, ,0.17316960138407075,0.0959524181582111,0.053452387651006725,0.3976342632002832,0.0024979601944927045,0.4693129695377216, ,1.1242940425872803
0.017228658315413526,0.02048352572382247,-0.09843089147695311, ,0.01811324301889794,0.02011277355383383,-0.09911717177506685, ,0.0011793760709667535, ,0.031512823123829484,-0.006306212570534427,-0.048169400478496945,-0.004745466113102745,-0.005523685557574735,-0.3594261448981826, ,0.05610570019151674, ,0.007264380132692411, ,0.001146987966425267, ,0.14394401804267062,-0.12035106911191476,0.11507166330000002,3.479385232238713,1.3323425092128096,-0.49075292709868457, ,0.16855584646264793,0.09813541009148995,0.05072869910828026,0.891889936150168,0.0,0.5349942867625406, ,1.1267290115356445
0.017228658315413526,0.02048352572382247,-0.09843089147695311, ,0.0181689187882777,0.020108596342074698,-0.09922219654051839, ,0.0012848445438077647, ,0.031512823123829484,-0.006306212570534427,-0.048169400478496945,-0.004745466113102745,-0.005523685557574735,-0.3594261448981826, ,0.05790610918267908, ,0.007264380132692411, ,0.0011478442184586987, ,0.14394401804267062,-0.12035106911191476,0.11507166330000002,3.479385232238713,1.3323425092128096,-0.49075292709868457, ,0.16855584646264793,0.09813541009148995,0.05072869910828026,0.891889936150168,0.0,0.5349942867625406, ,1.128633975982666
0.017228658315413526,0.02048352572382247,-0.09843089147695311, ,0.018224556548755055,0.02010442397177448,-0.09932679092584437, ,0.001392180754105695, ,0.031512823123829484,-0.006306212570534427,-0.048169400478496945,-0.004745466113102745,-0.005523685557574735,-0.3594261448981826, ,0.05790610918267908, ,0.007264380132692411, ,0.0011493524686787418, ,0.14394401804267062,-0.12035106911191476,0.11507166330000002,3.479385232238713,1.3323425092128096,-0.49075292709868457, ,0.16855584646264793,0.09813541009148995,0.05072869910828026,0.891889936150168,0.0,0.5349942867625406, ,1.1306979656219482
0.017228658315413526,0.02048352572382247,-0.09843089147695311, ,0.01828015571360886,0.02010025698334476,-0.0994309552203527, ,0.001500889468515693, ,0.031512823123829484,-0.006306212570534427,-0.048169400478496945,-0.004745466113102745,-0.005523685557574735,-0.3594261448981826, ,0.05790610918267908, ,0.007264380132692411, ,0.001151509137389398, ,0.14394401804267062,-0.12035106911191476,0.11507166330000002,3.479385232238713,1.3323425092128096,-0.49075292709868457, ,0.16855584646264793,0.09813541009148995,0.05072869910828026,0.891889936150168,0.0,0.5349942867625406, ,1.1328330039978027
0.017228658315413526,0.02048352572382247,-0.09843089147695311, ,0.018335715699780788,0.020096095915403567,-0.099534689716176, ,0.00161060499864031, ,0.031512823123829484,-0.006306212570534427,-0.048169400478496945,-0.004745466113102745,-0.005523685557574735,-0.3594261448981826, ,0.05790610918267908, ,0.007264380132692411, ,0.0011543085023970254, ,0.14394401804267062,-0.12035106911191476,0.11507166330000002,3.479385232238713,1.3323425092128096,-0.49075292709868457, ,0.16855584646264793,0.09813541009148995,0.05072869910828026,0.891889936150168,0.0,0.5349942867625406, ,1.1347198486328125
