NicholasDascanio/dvrk_moveit_final/test/execution/third_experiment_notsharpbends/thirdexp_600vel5.0/thirdexp_600vel5.0_28.csv
Current Position (x),Current Position (y),Current Position (z), ,Planned Position (x),Planned Position (y),Planned Position (z), ,Position Error,,Cartesian linear Velocity(x),Cartesian linear Velocity(y),Cartesian linear Velocity(z),Cartesian Angular Velocity(x),Cartesian Angular Velocity(y),Cartesian Angular Velocity(z), ,Total Linear Velocity, ,Total Angular Velocity, ,MSE, ,Joint 1 Position,Joint 2 Position,Joint 3 Position,Joint 4 Position,Joint 5 Position,Joint 6 Position, ,Joint 1 Velocity,Joint 2 Velocity,Joint 3 Velocity,Joint 4 Velocity,Joint 5 Velocity,Joint 6 Velocity, ,Time Stamp
0.008880157116753516,0.020122511485947563,-0.07517591542799847, ,0.009125879392976596,0.020093874525379214,-0.0751023940686545, ,0.00025807925686236166, ,6.352138626059271e-05,-2.8634250373434568e-05,-1.611306186817869e-07,0.1075847858688262,0.06669098778527059,0.20128032225557857, ,6.967720409138294e-05, ,0.12657872649942523, ,2.1506604738530137e-05, ,0.05073835498365503,-0.20252866962653776,0.0875643895,3.9830604764885402,0.8407243830567551,0.015820980142926988, ,0.0009001064004394063,0.00044518759511776084,0.0,-0.0010076983627604998,0.0,0.23749547067809118, ,0.018410921096801758
0.008900567070926839,0.020127702905080726,-0.07517635754381256, ,0.009186374887174933,0.020100943181097796,-0.07534420705074055, ,0.0003325291680922354, ,0.003023577109934715,0.001059844726665059,-0.0006369678527581084,0.8599439853191789,0.0009286579048026558,0.7899713037564675, ,0.0032666523276602567, ,0.8599444867502415, ,2.684583749793623e-05, ,0.0507615231822777,-0.20247461049641818,0.08758901901,3.983899236262478,0.8440036590511257,0.02858423234077917, ,0.0018510081067418835,0.004614407801831432,0.004291166896551724,0.14296850793596338,0.4876530087475261,1.1675264984863007, ,0.03812098503112793
0.009015523863459683,0.020214854507775337,-0.0752281914613741, ,0.009246875878252,0.02010797672196622,-0.07558510328861714, ,0.00043855748571183843, ,0.005124923229739767,0.0048140545376910895,-0.005439273214683368,0.7851753264958646,-0.6612535356112973,0.12412175709128648, ,0.008889637355177228, ,1.0265264398404785, ,3.216143470832611e-05, ,0.05089280964113952,-0.20237421496905328,0.08781327718000001,3.9849476859799005,0.8658654990135961,0.04710440711190189, ,0.006320724187906996,0.004599243933996684,0.01345338810810811,-0.004205717390667983,0.9952515169636823,0.27536947835415826, ,0.057333946228027344
0.009079180020120446,0.02028435747484513,-0.07544089776686436, ,0.009307381838152532,0.02011497515754491,-0.07582508436199767, ,0.0004778763219152725, ,0.0012197881390546956,0.0018481346810425808,-0.013512974102715802,-0.19461727500583945,-0.029367772651655938,-0.2719487521830291, ,0.013693208316684545, ,0.1968206019466858, ,3.58819579186121e-05, ,0.05107043249724668,-0.20226609670881412,0.08809975727000001,3.985157375923386,0.8746102349985843,0.04953007387177677, ,0.010587303468228202,0.006922610196046054,0.013251923061564062,0.0160961590291636,-0.055473244546414203,-0.28606918840194107, ,0.07687902450561523
0.009086340879219208,0.02029202139649727,-0.07575752486696584, ,0.009367892240732178,0.020121938497974712,-0.07606415185001501, ,0.00044968819005337485, ,-0.0006346912165633625,-0.0005662728235308013,-0.016682598261631935,-0.9074011305750096,0.2560918119694079,-0.7769909147097436, ,0.01670426839493598, ,0.9428466612521963, ,3.762943120452083e-05, ,0.051363896346467215,-0.2020730283869585,0.08834345979000001,3.9864155155842926,0.8662754085128924,0.03386491245860379, ,0.01888496349422304,0.011313416971682259,0.01159302148471616,0.0462311351453035,-0.698124452855606,-0.9885606670963872, ,0.09576106071472168
0.009086005229713352,0.020281076386430133,-0.07605221000163145, ,0.00942840656175513,0.020128866753975592,-0.07630230733122204, ,0.0004505054035905349, ,-0.000622222639838522,-0.00038003766404465494,-0.0174548464028825,-0.42780935476288023,0.5405751935932512,0.2045664291529105, ,0.01747006733209235, ,0.6893782578024709, ,3.882638429396158e-05, ,0.05177320118880111,-0.2018104554692349,0.08855994022000001,3.9874639653017154,0.8545246695330646,0.03184847107653621, ,0.02497287935749231,0.016406801790883607,0.012177990458715598,0.10898647378544075,-0.26091519955209513,0.3955898847544649, ,0.11715388298034668
0.009139784823567646,0.020300008845621144,-0.07621554365161481, ,0.009488924278892167,0.020135759936845805,-0.0765395523835896, ,0.0005038429534032426, ,0.003716217696029635,0.0011533425875652546,-0.008583145320005061,0.2089097901554017,-0.20462467601237644,-0.008677489291406985, ,0.0094239512240302, ,0.2924287236393861, ,4.043164971706751e-05, ,0.05215933783251234,-0.20151699162001435,0.08874660598,3.9880930351321684,0.8573940360281388,0.03424606202706393, ,0.023442920345472032,0.019823885848855395,0.010821203478260872,0.04129907432725718,0.2869576669146697,0.0772372861721676, ,0.13816595077514648
0.009202517612000916,0.020313285348346356,-0.0764200708333932, ,0.009549444871717595,0.02014261805846088,-0.07677588858450567, ,0.0005254446872679506, ,0.0028306860609981837,0.00039378939366702635,-0.010398183762090847,0.058762117409121656,0.0031907351589248005,0.11569215746295072, ,0.010783787795237062, ,0.05884867977872322, ,4.1908822767034285e-05, ,0.05268448366795961,-0.20106907311330932,0.08896827157000001,3.988512415019138,0.8595802200243859,0.0384259235981822, ,0.02791086516425611,0.02211019141623271,0.010562872360742707,0.012273476927213605,0.01788425718556865,0.15343020940150373, ,0.15774989128112793
0.00925816222921972,0.020313023873135612,-0.07659097371721117, ,0.009609967821707126,0.020149441131272483,-0.07701131751077445, ,0.0005720274408872696, ,0.0036502341529934795,-2.2725733553797915e-05,-0.012266723906547646,-0.023941830539018244,-0.007879146522932094,-0.09892845692736871, ,0.01279832962656116, ,0.025204997951716004, ,4.357120551939219e-05, ,0.053178738571909974,-0.20069838193534656,0.08914197443,3.9899802446235295,0.8599901295236821,0.03866342106807691, ,0.03328549335618056,0.024999194298859533,0.012196639754977033,0.10118186225721779,-0.006848626683594674,0.0007369271216499133, ,0.17818403244018555
0.009337118950734483,0.020319806847755036,-0.07687778003573517, ,0.009670492612235558,0.0201562291683077,-0.07724584073861579, ,0.0005228425541221604, ,0.0032927296075160625,0.00012178312922111675,-0.0114406889256861,-0.029716317738317437,-0.033715163940501336,-0.008092605277486054, ,0.01190572393821948, ,0.04494186938098312, ,4.442542609712001e-05, ,0.053997348256577773,-0.20006511783966016,0.08942845452,3.9901899345670135,0.8598534930239167,0.038856517711913896, ,0.0344078830886406,0.02754628201987541,0.011434896999282127,0.0037848029424141496,-0.00123814210175709,-0.0035639291003639953, ,0.1971299648284912
0.009409134511187928,0.02032065371494043,-0.07712613498814609, ,0.009731018728574,0.02016298218316779,-0.07747945984366303, ,0.0005032973423929833, ,0.003413748522679909,0.0001967957846827871,-0.012575467478099596,-0.013810908936607521,-0.0072472211617433165,-0.051169233103666126, ,0.013032067750349858, ,0.015596894104995873, ,4.535757481350653e-05, ,0.054669226016635306,-0.19956314020283555,0.08967474962000001,3.99186745411489,0.8595802200243859,0.03940606847986894, ,0.03118532420587275,0.02469988067633284,0.012542371275590552,0.0714851067563717,-0.004779457704107011,0.02296896975065334, ,0.21513986587524414
0.009475104007390527,0.020329429994793168,-0.07737351900631914, ,0.009791545657887748,0.02016970019002723,-0.07771217640096276, ,0.0004902425518524191, ,0.0033248506836388585,0.00025619571084226946,-0.011878688881360896,-0.029532705674573813,-0.024974951048486193,0.006889048288706035, ,0.012337889521750255, ,0.038677236817397924, ,4.60411113012637e-05, ,0.05532565831094439,-0.19907660803175942,0.08992234101,3.992286834001859,0.8594435835246205,0.03968084386384657, ,0.03482456570953056,0.026492725169869006,0.011842982542750931,0.0,-0.010247231307928156,0.008443351391060583, ,0.23538899421691895
0.009547521535339314,0.020331922319862472,-0.07762845385010134, ,0.009852072889233595,0.020176383203632728,-0.07794399198497425, ,0.00046530447923423535, ,0.0034082085902600134,0.0004320552596908528,-0.013565363484317573,-0.011604027096511822,0.01004917805943751,0.004956282232111054, ,0.013993628693223402, ,0.015350536315146423, ,4.643595221229364e-05, ,0.05598981333812769,-0.19861324405930594,0.09016474724000001,3.9939643535497353,0.8588970375255587,0.04053490917933511, ,0.032633061058621314,0.02469345343702076,0.013363096912751681,0.04716975156656613,-0.023449677570503178,0.05846829287047838, ,0.25323987007141113
0.009607562210979722,0.020349120109604286,-0.07788323337061984, ,0.00991259991355769,0.02018303123930233,-0.07817490816956683, ,0.00045355010877850903, ,0.0030541803677190714,0.0009871053645599216,-0.01364475690713877,-0.019996863885685435,0.001517005145063123,0.03859057236325426, ,0.01401719607390204, ,0.02005431118008712, ,4.6694115537423105e-05, ,0.056592186502317204,-0.19819621648409783,0.09042919040000001,3.99417404349322,0.8586237645260277,0.04124781742757122, ,0.030671280400281442,0.020692747832200344,0.013591136109215017,0.0,-0.027727461032275365,0.04299599571974882, ,0.27442097663879395
0.009676523003446581,0.020357112401608316,-0.07813568054456406, ,0.00997312622369298,0.020189644312924075,-0.0784049265280207, ,0.0004341801821774205, ,0.0031206872972947626,0.00019034530240141095,-0.010885914199190709,-0.00238114783366814,-0.007805152945560339,-0.02651879738747835, ,0.011325989956457892, ,0.008160277240300905, ,4.678889881865176e-05, ,0.057210005132255166,-0.19776374344314124,0.09068196695000001,3.9956418730976115,0.8584871280262623,0.04201266525239217, ,0.028480474657404192,0.021220246323450532,0.010917622700479782,0.05650033005151962,0.0,0.03516167728418215, ,0.29151201248168945
0.00971488225983657,0.020361805597241628,-0.0782834132567407, ,0.010033651314356424,0.02019622244095543,-0.07863404863302438, ,0.0005019727670569222, ,0.0029165367400378465,0.000711921926691418,-0.011194611847879836,-0.0032188983401436402,-0.010735801921782301,0.03961395949870085, ,0.01159018351064323, ,0.011207969201298962, ,4.7307313419222636e-05, ,0.05758069631021794,-0.19749344779254338,0.09082844772000001,3.996061252984581,0.8582138550267315,0.04288893098090957, ,0.029253064598788774,0.018810097434781126,0.011273044246284503,0.0,-0.007836812225284689,0.04668827562979469, ,0.3128669261932373
0.009793759798545597,0.020370070542978125,-0.07854969540155442, ,0.010094174682147444,0.020202765640421807,-0.07886227605667423, ,0.00046470065489949685, ,0.003037432529027058,0.0004653079607774384,-0.011246355456653525,0.011090043150737122,0.00331506930090226,0.033918637973042766, ,0.011658602786104134, ,0.011574910869784375, ,4.754328211089836e-05, ,0.05827574226889815,-0.1970532520187126,0.09109677975000001,3.9979484624759416,0.8582138550267315,0.043624039642174595, ,0.025921043856452004,0.018498429153698006,0.009498396851520574,0.06766621313200034,-0.0052924698318491,0.02305538195825253, ,0.32986903190612793
0.009823497212316533,0.020373534354458718,-0.07866561269080463, ,0.010154695825544471,0.02020927392891592,-0.07908961037047398, ,0.0005625371464788777, ,0.002911206129890542,0.0006800980895535795,-0.012086785652283624,0.007362165737239473,-0.004930276835975381,0.018539424651963288, ,0.012451025738724338, ,0.008860522335670088, ,4.8317118935500613e-05, ,0.05856148338524446,-0.19682929276536007,0.09121214956000001,3.998158152419426,0.8580772185269661,0.04414385124657383, ,0.026120820687715603,0.01961491144242885,0.012177990458715598,0.029368576903986133,0.0,0.056771117063227856, ,0.34910106658935547
0.00991175458513971,0.020404281508900907,-0.0790820818415065, ,0.010215214244903093,0.02021574732459661,-0.07931605314533216, ,0.0004270544166366555, ,0.003031254088633215,0.0007805420999724717,-0.01364919700947714,-0.010682588795944727,0.00027221174593710165,-0.08854169659660513, ,0.014003511214092153, ,0.010686034291673724, ,4.8274497876577936e-05, ,0.05930286574117001,-0.19629642419703858,0.09162955494000001,3.9996259820238174,0.8576673090276697,0.04562160731963094, ,0.022610660366564398,0.017547511382853324,0.013708099414802067,0.09598918256499639,-0.0029612715208789334,0.007217235164776246, ,0.37221407890319824
0.00993905464002185,0.02041246603991964,-0.0792042095435599, ,0.010275729442453875,0.020222185846187634,-0.07954160595156277, ,0.0005132180928733636, ,0.002901438197974092,0.0005569628326741946,-0.011662360552505236,-0.0039290376306089,-0.0068732956057505346,-0.009844080890733423, ,0.012030760776870007, ,0.007917026805938778, ,4.868464168899544e-05, ,0.05954227046027097,-0.1961110786080572,0.09175270249,3.999835671967302,0.8576673090276697,0.045866643540052654, ,0.025647822042829938,0.019128591324021525,0.01172097977924945,0.038362693152858646,-0.0029612715208789334,0.033445481698787756, ,0.389193058013916
0.009981917898281017,0.02041909507629317,-0.07936867714593576, ,0.010336240922299143,0.020228589512976902,-0.07976627035888235, ,0.000565612533440511, ,0.00267883018278112,0.00024536107360887023,-0.009238780421745967,-0.01263448206000374,-0.008905668697623985,0.028391987014738464, ,0.009622442355548731, ,0.015457716667327757, ,4.956531868863818e-05, ,0.05995157530260487,-0.19580989202596244,0.09191733132,4.000045361910786,0.8575306725279043,0.04614141892403023, ,0.0272770743197674,0.019002190940823144,0.009218062222222224,0.0,-0.012634352890271313,0.033015923762780904, ,0.40647006034851074
0.01005710274697759,0.020418548208684086,-0.07963796027008498, ,0.010396748190411247,0.02023495834481542,-0.07999004793641094, ,0.0005225227173429178, ,0.002883340295358234,0.000634264521607749,-0.013536489027355113,-0.0021343851510338633,0.029101306339079605,0.05240745583118723, ,0.013854691549432351, ,0.02917946497312435, ,5.017108872630074e-05, ,0.060608007596913954,-0.19531563712201208,0.09218177448,4.0021422613456314,0.856847490029077,0.047515295843918004, ,0.02607058834023922,0.02162646799418204,0.01335189565800503,0.027491983203154824,-0.03397101508218675,0.09027450168108181, ,0.4215209484100342
0.010086253141217458,0.02042912225227798,-0.07978069672253207, ,0.010457250754629957,0.020241292362116192,-0.08021294025266947, ,0.0005997947700185402, ,0.0028592337935898146,0.0010023476707921855,-0.015016961834185216,-0.0151413686685427,0.015120606411024017,0.03123758062998647, ,0.015319564663165985, ,0.02139843498285895, ,5.1089727893930993e-05, ,0.06086285778176336,-0.1950994006015338,0.09232566267,4.0021422613456314,0.856847490029077,0.047923689544620784, ,0.024829131752608785,0.021484478505426938,0.014900665594013098,0.01766812620523944,-0.029040717097760748,0.054797600113075585, ,0.43821001052856445
0.010154553634928783,0.020444504884849758,-0.08008247070170507, ,0.010517748124659769,0.020247591585852997,-0.08043494887557857, ,0.0005430708496595428, ,0.0038865288291071074,0.0005859112155026771,-0.016144121115822453,-0.010261884182571155,0.014903218965419752,-0.07620671435164056, ,0.016615686711486735, ,0.01809450485223815, ,5.168951819084213e-05, ,0.061388003617210626,-0.1946669275605772,0.09262899453000001,4.003819780893508,0.856847490029077,0.04857711946574528, ,0.03054294868312545,0.023653275562928906,0.01608970860606061,0.11298400654572363,-0.017091081113352925,0.03993760473530306, ,0.45513296127319336
0.010225835418083473,0.020465501415317645,-0.08039181480160802, ,0.010578239812068051,0.02025385603755973,-0.08065607537245918, ,0.0004886883179824431, ,0.0036878404872379977,0.00046273561555749184,-0.01365757866857956,-0.0070956455591458635,-0.008318376449513245,0.02011844110438421, ,0.014154283690729692, ,0.010933576609027034, ,5.2013536175565005e-05, ,0.06204443591151971,-0.19421128632099796,0.09293880784000001,4.004029470836993,0.8564375805297808,0.04980983931838057, ,0.03427119594022057,0.025124951431948844,0.013684545979381443,0.02384587321194287,-0.009796161537709045,0.05158231087261947, ,0.4707069396972656
0.01026580422878377,0.020467025129688114,-0.08053051951422395, ,0.010638725330282005,0.02026008573932908,-0.08087632131002928, ,0.0005490655163156918, ,0.0035647989255901402,0.00040367020588811305,-0.013019559239547666,-0.01628501803689955,0.004898950744395382,0.011031002864207001, ,0.0135048015093559, ,0.017005915346242937, ,5.256752462102822e-05, ,0.062399681623734035,-0.1939641588690228,0.09307621458000001,4.0048682306109304,0.8561643075302499,0.050359390086335776, ,0.033556202814169295,0.022988600183738078,0.012939733160032494,0.03211860952936216,-0.025613739739599233,0.04833084840120483, ,0.48598194122314453
0.010352633715529204,0.020473447523430985,-0.08083790446463923, ,0.01069920419458658,0.020266280713811553,-0.08109568825440433, ,0.00047904244720860554, ,0.0035229882354170555,0.0004267794255565409,-0.012828608052857612,-0.011844873382322037,-0.011838158961573912,-0.007098295236952412, ,0.013310400871454194, ,0.016746423068477647, ,5.280342079135233e-05, ,0.06316423217828226,-0.19341584483495283,0.09338343531000001,4.006336060215322,0.855891034530719,0.05139901329513419, ,0.031855300959540374,0.022877758331357467,0.01287696970088925,0.033136518879865094,-0.007137690592450332,0.03055095901017723, ,0.5060999393463135
0.010388092998104299,0.020476989007982317,-0.08096004222814526, ,0.010759675922122125,0.020272440984214463,-0.08131417777109552, ,0.0005525628889363161, ,0.003522678402498674,9.239208610335031e-05,-0.01155772630637715,0.004116094834504962,-0.005515123861341724,0.03859362929793746, ,0.012082997839862736, ,0.006881760069759875, ,5.3311762676530056e-05, ,0.06350403242474814,-0.19316871738297767,0.09350658286,4.006336060215322,0.855891034530719,0.051807406995837024, ,0.03334397103249149,0.02463575845235482,0.011576171162790699,0.021043188754496418,-0.006131001411823557,0.07050739362768504, ,0.5219008922576904
0.010466104623959471,0.020471150575096245,-0.08119903213530939, ,0.010820140031881859,0.020278566574300872,-0.08153179142500891, ,0.0005226455895790668, ,0.004177574286102139,-0.00033013805972291043,-0.011799833926642078,0.006494343016692532,0.016261096985343802,-0.061240639408304494, ,0.012521868820216605, ,0.01750998394132739, ,5.367597285898015e-05, ,0.0641836329176799,-0.19266673974615306,0.09374380393000001,4.008223269706683,0.8556177615311881,0.05276535146449496, ,0.035823684997535216,0.023466108199424032,0.01174691115044248,0.12251798966229949,-0.01313771581920299,0.06907818627823101, ,0.5434870719909668
0.01055568706097616,0.020474365427178426,-0.08146773970188306, ,0.010880596044709326,0.020284657508388586,-0.08174853078044375, ,0.00046946626285747757, ,0.0036310440510146785,0.0002746799348827501,-0.011355974338651407,-0.009016760877300623,-0.014029000860654568,0.04071486825459332, ,0.011925522342738096, ,0.016676769861531382, ,5.382324668245676e-05, ,0.06505630173246726,-0.1921107029792089,0.09401343225000001,4.008642649593652,0.8553444885316571,0.053641617193012414, ,0.03583721357948292,0.02287224428982183,0.011410323438395417,0.0,-0.011630215349430035,0.048082962456089735, ,0.5590550899505615
0.01059289980876173,0.020474879998002012,-0.08158630706520414, ,0.01094104348329619,0.02029071381134901,-0.08196439740109249, ,0.0005459610833354552, ,0.003717889213979247,0.00047917182710382165,-0.01359927237014779,-0.012664997244307037,-0.009855323906965564,-0.006552056204668478, ,0.014106470672878398, ,0.016047713213265577, ,5.442969240488779e-05, ,0.0653806565131847,-0.19187902099298218,0.09413269093000001,4.009271719424105,0.8553444885316571,0.05380497467329354, ,0.033007631846424614,0.02336787529142349,0.013649367197943447,0.035163057063831236,-0.009845227051635826,0.03330971984802311, ,0.5727109909057617
0.010646246183195495,0.02048243685138118,-0.08178962836279838, ,0.01100148187217981,0.020296735508606067,-0.08217939285003835, ,0.0005591008307542377, ,0.004007127070551854,0.0009506732249044665,-0.016124475611023294,-0.004033965286567312,0.008503696044409832,-0.020960154646497715, ,0.016642102050840355, ,0.009411940944628541, ,5.5052395145866895e-05, ,0.0658208522870155,-0.19159327987663585,0.09433491217000001,4.010529859085013,0.8549345790323609,0.05471097956536669, ,0.03296177198974323,0.02103212357235611,0.016187816585365857,0.06918662266173378,-0.017992432010172754,0.05436385536123107, ,0.5930209159851074
0.010709632525257952,0.020505881828459905,-0.08206772405281589, ,0.01106191073774072,0.020302722626135434,-0.08239351868975522, ,0.0005210717282079365, ,0.003149068594013439,0.0008030931454933096,-0.012926740879522287,-0.006183747098874509,0.009378740073442358,0.037140480084916876, ,0.013328999263877718, ,0.011233838729461671, ,5.5515552013398865e-05, ,0.06636144358821121,-0.19124575689729575,0.09461620710000002,4.010739549028497,0.8547979425325954,0.05547582739018747, ,0.028150976433838855,0.018298677508382332,0.012918744136253043,0.015778180825991847,-0.024163076264645582,0.06021714184852822, ,0.6060960292816162
0.010744242025549723,0.02050825927134668,-0.08218476920876552, ,0.011122329608200358,0.020308675190463067,-0.08260677648210604, ,0.0006007280285196092, ,0.0032569120146335316,0.0001065798302870985,-0.011301418564494342,-0.01673680030079224,-0.002225505425298714,0.010772599024168439, ,0.011761840702083396, ,0.016884110114170653, ,5.622261589481826e-05, ,0.06666263017030596,-0.19102952037681747,0.09473416949,4.011158928915466,0.8547979425325954,0.05563918487046865, ,0.030049696503632293,0.022616048989149373,0.011233294442877295,0.021389217727479773,-0.01831338517473386,0.03678768665362156, ,0.6196730136871338
0.010818846706006796,0.020507871242560878,-0.08242569364368989, ,0.0111827380136184,0.02031459322866448,-0.08281916778834196, ,0.0005697325485881066, ,0.0036011761250247343,0.000527607417655165,-0.012188234776422769,-0.011372877447156487,-0.0050973659986321435,-0.02627177124808347, ,0.012720059199383245, ,0.012462953605864047, ,5.679647334538626e-05, ,0.06729589426599238,-0.19061249280160936,0.09497268685000002,4.0130461384068274,0.8542513965335337,0.0569833226268005, ,0.031474939157038404,0.0181725280655823,0.012271811648690295,0.0500072660341202,-0.012874265540719059,0.0265531144181373, ,0.6369459629058838
0.010852519435605862,0.020516987717397815,-0.08255815827326789, ,0.011243135485890794,0.020320476768363613,-0.08303069416910067, ,0.0006438071331392738, ,0.0035937827860361184,0.0011056219679515126,-0.016460226867987336,-0.01657938749611112,0.0004528513186931437,0.012441058637308086, ,0.01688421580041071, ,0.01658553453317263, ,5.7580651115200176e-05, ,0.06787509923155921,-0.1902186334250239,0.09526564839000001,4.013675208237281,0.8539781235340028,0.05785958835531785, ,0.029618271397774898,0.0222085049282637,0.01648945291925466,0.02179835473141958,-0.020380823526074104,0.03900443562749333, ,0.6506400108337402
0.010927243338229479,0.020534155656288768,-0.08287872250703236, ,0.011303521558746903,0.020326325837731602,-0.08324135718440599, ,0.0005623899376332588, ,0.004017784306533205,0.0006033859768789672,-0.01604877292657795,-0.00036413146172981775,0.005358349782149045,-0.11333853363338148, ,0.016555052939201977, ,0.005370608853159257, ,5.807699186232435e-05, ,0.06816084034790552,-0.19001011963741984,0.09542768464000001,4.014723657954703,0.8538414870342373,0.058216042479436014, ,0.027739532756056937,0.02087023126423373,0.016154981257606494,0.13672623752798013,-0.00032984899792148887,0.02581448499640667, ,0.663567066192627
0.01098653256981491,0.02055188729906977,-0.08314567775348283, ,0.011363895767747392,0.020332140465485857,-0.0834511583936663, ,0.000532925956912299, ,0.003842760169361479,0.0010804083711619438,-0.016992423211266917,-0.00828767507111265,0.006965138825784438,0.02916442202610149, ,0.017454985951255032, ,0.010825770192049966, ,5.846231812414151e-05, ,0.06863964978610744,-0.18967031939095397,0.09569472038000001,4.0153527277851575,0.853431577534941,0.05912204737150928, ,0.0317912702038428,0.023202186200115105,0.01701796102564103,0.02517980435098798,-0.02260076336009454,0.062378910057447105, ,0.683729887008667
0.011037316703925465,0.02056479744448769,-0.08336483005114871, ,0.011424257650281775,0.0203379206808891,-0.0836600993556737, ,0.0005370105436793183, ,0.0032785494171502735,0.0007601601326889086,-0.012796892415779972,-0.015478494050362805,0.01316349463730446,0.0343550427488901, ,0.01323205143615581, ,0.020318981912314574, ,5.884373399521711e-05, ,0.06907212282706401,-0.18937685554173342,0.09591249710000001,4.015772107672126,0.8528850315358792,0.060139470167278775, ,0.029636771254987752,0.01769804952601096,0.012743049216000004,0.013180023835638332,-0.03437536128556361,0.05288575311901984, ,0.6967720985412598
0.01107642330824598,0.020564564299557622,-0.08348137623103893, ,0.011484606745565902,0.020343666513748204,-0.08386818162860264, ,0.0006041754429486765, ,0.0041488276149183444,-0.0004787309122461633,-0.010572397290705462,0.003686534614276288,-0.019795535995041087,-0.08273340684907785, ,0.011367389248950935, ,0.02013587968537767, ,5.9405924945457334e-05, ,0.06938103214203299,-0.1891837872198778,0.09602138546000001,4.016610867446064,0.8527483950361139,0.06033256681111576, ,0.034333191591342536,0.023448713011729867,0.010762710486486488,0.10226660633559534,0.015371564185883507,0.024482711548609745, ,0.7101609706878662
0.011115696642681921,0.020559950032937258,-0.08358508174827381, ,0.01154494259463969,0.020349377994412995,-0.08407540677000848, ,0.0006848439950963281, ,0.0037030262959054823,-0.0002654687791239707,-0.010499402380539546,-0.004434789303030034,-0.014407065554901214,-0.014657050526537293, ,0.011136441432043565, ,0.015074175482382138, ,6.0349627374835453e-05, ,0.06974400058712155,-0.18891349156927995,0.09613416269000001,4.017239937276517,0.8528850315358792,0.06038450638770049, ,0.03284767793647309,0.023939692623226736,0.010555872445328034,0.045094295268353804,0.0,0.036609530786396574, ,0.722585916519165
0.011186247849487498,0.020559875608455798,-0.08381457939424851, ,0.011605264740364697,0.020355055153775396,-0.08428177633682729, ,0.0006601511619703805, ,0.003525942877017517,0.00034331459846351827,-0.014195231144066341,-0.01955453302164594,0.058126794581643375,0.0750626057307456, ,0.014630609191656365, ,0.06132783571630945, ,6.119158612546078e-05, ,0.07040043288143064,-0.18847329579544916,0.09635971715000001,4.017869007106971,0.8520652125372866,0.06195147995142519, ,0.03256586875719657,0.02280080287325103,0.013779248719723186,0.025248801938453184,-0.0739399172111275,0.11048878099678712, ,0.7352519035339355
0.011230622310475499,0.02056271362415103,-0.08398417641982217, ,0.011665572727421615,0.020360698023268363,-0.08448729188537396, ,0.0006950664283929843, ,0.004706303935403938,0.0006346150597613181,-0.019110411294528708,0.008088937377992746,0.04324162796706001,-0.03641670221231196, ,0.019691618847939466, ,0.04399166680477262, ,6.210246643557251e-05, ,0.07073251039502229,-0.18821844561059975,0.09652823485,4.019127146767878,0.8517919395377558,0.06266438819966147, ,0.034697236401634655,0.025668634449140054,0.01900812830548926,0.129069542715001,-0.03366380831987362,0.10397971686231294, ,0.7468349933624268
0.011277709059757448,0.020576420843909336,-0.08418337037542378, ,0.011725866102308146,0.020366306634864544,-0.08469195497134101, ,0.0007096837371918524, ,0.004705833457044336,0.0016499825227886296,-0.02057200960585963,-0.010347639001818178,-0.01882493788573327,-0.04418438889648147, ,0.021167779526311364, ,0.021481346204811725, ,6.302341981966653e-05, ,0.07109547884011083,-0.18797904089149878,0.0967291598,4.019756216598332,0.8516553030379903,0.0631841998040607, ,0.035056129131315394,0.022916431190164403,0.020876555072083886,0.059641458429401696,0.0,0.018653089797619257, ,0.759192943572998
0.011313656282259343,0.02058929939475402,-0.08433951367515019, ,0.011786144413336294,0.02037188102107559,-0.08489576714979827, ,0.0007615337886657576, ,0.004474424412605437,0.0017442166430433632,-0.020492845045899467,-0.015347581605989273,-0.013857044455140445,0.015597217787075839, ,0.02104802754647654, ,0.020677580322458748, ,6.405404688888094e-05, ,0.07135805175783447,-0.18780141803539163,0.09688860347000001,4.020175596485301,0.8517919395377558,0.06331781812078596, ,0.035317060498128314,0.023795622256386855,0.02071366907672302,0.013729600696001052,-0.012496938076668759,0.03466229731978391, ,0.7711780071258545
0.011378987064719938,0.020604953129585137,-0.08460506853977477, ,0.011846407210630086,0.020377421214950866,-0.08509872997519073, ,0.0007169058360738508, ,0.00468227733017116,0.0007469215035596222,-0.017115031560426073,-0.012513477346532069,-0.01193286212321994,-0.014719348832405565, ,0.017759671113044155, ,0.017291004748269515, ,6.493389227179249e-05, ,0.07188319759328174,-0.1874461723231773,0.09715563921,4.020804666315755,0.8515186665382249,0.06419408384930325, ,0.038560317577598854,0.025850433549024998,0.017257650617551468,0.04651151752991107,-0.010319750103975234,0.037231200277353584, ,0.7825860977172852
0.0114848374772183,0.020617309601676643,-0.08496295805905038, ,0.011906654046123436,0.020382927250076437,-0.0853008450013381, ,0.0005890941268703033, ,0.005253324580986391,0.0008958165988640493,-0.0176109387957515,-0.0132960397887509,0.01119261212291722,-0.023061339270673144, ,0.018399594337911405, ,0.017379802824011074, ,6.545339949377047e-05, ,0.07277131187381755,-0.18691330375485582,0.09751471154000001,4.022272495920146,0.850972120539163,0.06561990034577575, ,0.044282287241470264,0.022423662939147163,0.01769867946666667,0.07514933861574352,-0.03411215998612724,0.0574405647649831, ,0.7953500747680664
0.01153072274041544,0.02062173104303429,-0.08510814369470097, ,0.011966884473557255,0.020388399160574028,-0.08550211378143302, ,0.0006323711363348084, ,0.005120832224217801,0.0002325890492996894,-0.01618960332406998,-0.004098420081114348,0.01053180134924498,-0.0004418697543878466, ,0.01698176304525473, ,0.01130109616922099, ,6.606788856908377e-05, ,0.07315744851752878,-0.1866893445015033,0.09766119231,4.0229015657506,0.8508354840393977,0.06613971195017493, ,0.04367093490955857,0.02741893717378526,0.016204284354018314,0.06931157073029154,-0.02625282100616455,0.07862467563829531, ,0.8092799186706543
0.011558307024825567,0.02062298619855353,-0.08519620663484677, ,0.012027098048477547,0.020393836981099756,-0.08570253786804101, ,0.0007270802606482646, ,0.005013177462137692,0.0003357066716071057,-0.016184359907568002,-0.017468528311160598,-0.015068843539998426,-0.02797819122647524, ,0.01694633154561604, ,0.023069859483651197, ,6.690292121866398e-05, ,0.07338913050375552,-0.18654261257689303,0.09774934003,4.023320945637569,0.8506988475396322,0.06649616607429304, ,0.042308043494636995,0.027707136221451323,0.01630379889457523,0.05427823161616044,-0.01161320551635568,0.030683780277345432, ,0.8210840225219727
0.01163549789270441,0.02062997030941443,-0.08545628956908455, ,0.01208729432823275,0.020399240746843513,-0.08590211881309824, ,0.00067536646719992, ,0.00470616526752108,0.00022246603918812946,-0.01622667523410774,-0.008938372610012558,-0.011945891283133062,0.007496403936307584, ,0.016896818393325394, ,0.014919708391128012, ,6.758438624326084e-05, ,0.07403011733231615,-0.186094694070188,0.09801248690000001,4.023950015468023,0.8506988475396322,0.06698623851513641, ,0.03916506048636846,0.03002117733580221,0.01630379889457523,0.036571624723040146,-0.008056987488304634,0.05258723842701352, ,0.8328509330749512
0.011730730464569915,0.020625159596472976,-0.0857721784890761, ,0.012147472871971474,0.020404610493527233,-0.0861008581679108, ,0.0005747577508967551, ,0.004793841576552629,-4.702386686776007e-06,-0.016412886846822603,-0.0297357284615646,0.02872002211036265,0.004183300121352129, ,0.017098648888731752, ,0.041340682458368465, ,6.799921818795984e-05, ,0.0748332815512355,-0.18550776637174696,0.09832230021,4.025627535015898,0.8496057555415087,0.06885772662639456, ,0.04115218627860832,0.029553703381647704,0.016154981257606494,0.05716641116488372,-0.0538817929191796,0.06732685305131951, ,0.8452708721160889
0.011781923603907049,0.020629459448786074,-0.08593309886552895, ,0.012207633240640076,0.020409946257404492,-0.08629875748315356, ,0.0006025951880334201, ,0.005139273271191282,0.0005096049066929727,-0.01624200576771903,-0.005171259755521898,0.002447208701917822,0.05703249862948681, ,0.017043314767835657, ,0.0057209813474540855, ,6.863505135283543e-05, ,0.0752734773250663,-0.18522202525540063,0.09848563275000001,4.025837224959383,0.8496057555415087,0.06934779906723787, ,0.045733465811311214,0.026982354722340285,0.01632050360655738,0.01731299616613667,-0.028229931488379337,0.08617650907299304, ,0.8557898998260498
0.011839186493588238,0.020634062777784946,-0.08610381782503644, ,0.012267774996979943,0.020415248075259178,-0.0864958183088696, ,0.0006206708939578301, ,0.005504413932027154,0.00031641901652500453,-0.01719470441268523,-0.007110052482506797,-0.005222628945342424,0.004167794266615808, ,0.018057036123592662, ,0.008821972361905829, ,6.929891651358581e-05, ,0.07575228676326821,-0.18494400687192855,0.09865933561000001,4.026466294789837,0.8496057555415087,0.06991955024822188, ,0.04658661833994638,0.029379858067638008,0.017313925565217395,0.052803044528766024,-0.017812868328953374,0.0663237505851626, ,0.8656320571899414
0.011895703715523195,0.020635570692990296,-0.08627357279263648, ,0.012327897705526057,0.020420515984404034,-0.08669204219446733, ,0.0006388715152113029, ,0.006029703896839197,0.0003867974822147416,-0.018058225714421103,-0.004985410459871095,-0.018241287438314525,-0.08776639386896012, ,0.01904222826585127, ,0.018910234385980818, ,6.999011493591056e-05, ,0.07620792800284747,-0.18466598848845647,0.09883044589000001,4.027514744507259,0.8494691190417433,0.07035768311248047, ,0.04766295407256192,0.027474505373037285,0.01835116534562212,0.1142814662426119,0.0,0.03093302591934915, ,0.8748528957366943
0.011895703715523195,0.020635570692990296,-0.08627357279263648, ,0.012388000932603558,0.020425750022680288,-0.0868874306887216, ,0.0008143726298325966, ,0.006029703896839197,0.0003867974822147416,-0.018058225714421103,-0.004985410459871095,-0.018241287438314525,-0.08776639386896012, ,0.01904222826585127, ,0.018910234385980818, ,7.107521319561393e-05, ,0.07668673744104938,-0.18436480190636173,0.09903007455000001,4.028143814337713,0.849059209542447,0.07093697304399149, ,0.0451245561381221,0.030318511680022617,0.020986576442687747,0.04001368228120569,-0.014671555023876879,0.03962971346849316, ,0.8842160701751709
0.012001983284514826,0.0206518504532233,-0.08668009128196816, ,0.012448084246325881,0.02043095022845605,-0.087081985339771, ,0.0006397826280294015, ,0.005279693925880537,0.0016055110964103628,-0.024390324737382577,-0.04259792922948995,0.06686076800023463,0.06480456758969852, ,0.025006814563767472, ,0.07927759608293677, ,7.17320412834923e-05, ,0.07708059681763484,-0.1841022289886381,0.09923359208000002,4.028563194224682,0.8482393905438543,0.07176883794645111, ,0.04257377369155261,0.02733206842121854,0.02402535674208145,0.030367699839538572,-0.09944196313330578,0.1027561671617461, ,0.8949739933013916
0.01206206292521167,0.020667030524729454,-0.08693408358391558, ,0.012508147216592347,0.020436116640625453,-0.08727570769511728, ,0.0006074697113790517, ,0.005697807415087835,0.001225712399023719,-0.023245499725189234,-0.029764986134812932,0.023248714933635672,-0.04377211051230305, ,0.02396498774667584, ,0.03776837775721723, ,7.23000995139982e-05, ,0.07753623805721407,-0.18381648787229177,0.09948636863000002,4.0294019539986206,0.8475562080450271,0.07240760620507375, ,0.04245948168164241,0.027829015119786152,0.023219841865889216,0.08882829106477369,-0.047555122695402,0.048260583275048466, ,0.9048268795013428
0.012123895699054539,0.020679433893339226,-0.08716609905627284, ,0.012568189415085838,0.020441249298607543,-0.08746859930162408, ,0.0005879074805698211, ,0.005733489349563654,0.0009448497526499209,-0.020428508567025078,-0.02354723918623037,-0.012031105733986167,-0.05922006079813394, ,0.021238870107650725, ,0.02644270070664796, ,7.281117622505876e-05, ,0.07799960202966755,-0.18352302402307125,0.09972099712000002,4.030240713772558,0.8474195715452616,0.07276406032919192, ,0.04411759254229232,0.02710566739744952,0.020633175544041454,0.07630445366927296,-0.017005087806494994,0.018949909600183758, ,0.914233922958374
0.012123895699054539,0.020679433893339226,-0.08716609905627284, ,0.012628210415270237,0.02044634824234513,-0.08766066170551567, ,0.0007438107741335485, ,0.005733489349563654,0.0009448497526499209,-0.020428508567025078,-0.02354723918623037,-0.012031105733986167,-0.05922006079813394, ,0.021238870107650725, ,0.02644270070664796, ,7.365884339695219e-05, ,0.07847841146786946,-0.18322956017385073,0.09992062578000001,4.030869783603012,0.8471462985457309,0.07339528983728755, ,0.047048558035929985,0.02883529065890938,0.018414811005780348,0.06100086231345991,-0.006437839834549735,0.040721177220294044, ,0.9236850738525391
0.012239992824824235,0.02068665122326718,-0.08753608697791206, ,0.012688209792388008,0.020451413512303968,-0.08785189645237625, ,0.000596632931401397, ,0.0058162954403760654,0.0004826989207734715,-0.018160235757942532,-0.009878604513678816,-0.019876528102865106,-0.026825542259083585, ,0.01907502172166286, ,0.022195973089241504, ,7.416290236917435e-05, ,0.07894949817319716,-0.1829438190575044,0.10009173606,4.03170854337695,0.8467363890464344,0.0743829734695014, ,0.04934838354574663,0.030337896917669686,0.016714387743966424,0.08829319184294712,-0.04265626907343994,0.10312615931033373, ,0.9351918697357178
0.012299973679336822,0.020686855139638034,-0.08770547823734441, ,0.012748187123458245,0.020456445149471283,-0.08804230508714839, ,0.0006061653089782527, ,0.005509305490974713,4.736035858488811e-05,-0.01633465396359047,-0.009024708280174876,0.01585446796634737,0.013766845033732548, ,0.017238782152654845, ,0.018243035688135425, ,7.467676873845903e-05, ,0.07945147581002175,-0.18263490974253543,0.10026284634,4.032337613207403,0.8465997525466691,0.07498446381404106, ,0.04647254728622467,0.0283867608610442,0.01632050360655738,0.060563701451533745,-0.03681441422728557,0.08470042302181688, ,0.9448459148406982
0.012299973679336822,0.020686855139638034,-0.08770547823734441, ,0.01280814198727389,0.020461443195355065,-0.08823188915413185, ,0.0007656069664847931, ,0.005509305490974713,4.736035858488811e-05,-0.01633465396359047,-0.009024708280174876,0.01585446796634737,0.013766845033732548, ,0.017238782152654845, ,0.018243035688135425, ,7.56873745642836e-05, ,0.07945147581002175,-0.18263490974253543,0.10026284634,4.032337613207403,0.8465997525466691,0.07498446381404106, ,0.04647254728622467,0.0283867608610442,0.01632050360655738,0.060563701451533745,-0.03681441422728557,0.08470042302181688, ,0.9524400234222412
0.012358134520293081,0.020689813764878166,-0.08787622787899843, ,0.012868073964399495,0.0204664076919827,-0.08842065019698264, ,0.0007786810453461896, ,0.005938637764444773,0.0005179332047327272,-0.018814062141382884,-0.022117836146933512,-0.00982428044528594,-0.007299770451911366, ,0.019735871086974374, ,0.024201504184678348, ,7.670868689709272e-05, ,0.07992256251534945,-0.18234916862618913,0.10043654920000002,4.0329666830378565,0.8465997525466691,0.07539285751474384, ,0.04899170963266432,0.02960903012744798,0.01896287085714286,0.04531220896308323,-0.024801956790292616,0.04377697648501204, ,0.960258960723877
0.012422312654341756,0.02069478675811348,-0.0880876369634198, ,0.01292798263716895,0.020471338681900077,-0.08860858975871166, ,0.0007596202927899801, ,0.006729336505145636,0.0007537676833537718,-0.02248130722773161,0.008062687832922476,0.005519950770830406,-0.069676573947177, ,0.023478954622972715, ,0.009770928769243917, ,7.767206039752168e-05, ,0.08041681741929982,-0.18204025931122014,0.10064914076,4.03401513275528,0.8463264795471381,0.0761874445031207, ,0.04927151690470964,0.029562910142825787,0.02275544502857143,0.1362241656417038,-0.011992207356549885,0.07660290040823436, ,0.9685029983520508
0.012475597735413395,0.02070363242871062,-0.08828267887230834, ,0.012987867589682775,0.020476236208170583,-0.08879570938168435, ,0.0007598221820002848, ,0.00642579006411691,0.0012779175560294533,-0.025066287162518363,-0.006884153065317977,0.07808095256480271,0.04363147811044581, ,0.025908350069850934, ,0.07838377906858791, ,7.861960035619298e-05, ,0.08082612226163371,-0.18180857732499342,0.10084358426000001,4.034853892529218,0.8457799335480763,0.0772865460390309, ,0.0492971124979069,0.02804283142980815,0.024849939968798754,0.09571145021191187,-0.08832554213279722,0.15497793771474228, ,0.9771060943603516
0.012475597735413395,0.02070363242871062,-0.08828267887230834, ,0.01304772840780622,0.020481100314373765,-0.08898201060761798, ,0.0009305476474716894, ,0.00642579006411691,0.0012779175560294533,-0.025066287162518363,-0.006884153065317977,0.07808095256480271,0.04363147811044581, ,0.025908350069850934, ,0.07838377906858791, ,7.990844815127023e-05, ,0.08082612226163371,-0.18180857732499342,0.10084358426000001,4.034853892529218,0.8457799335480763,0.0772865460390309, ,0.0492971124979069,0.02804283142980815,0.024849939968798754,0.09571145021191187,-0.08832554213279722,0.15497793771474228, ,0.9854249954223633
0.012563763684679576,0.020721247133218056,-0.08862304732505615, ,0.013107564679166732,0.020485931044604416,-0.08916749497758186, ,0.0008046840557053477, ,0.006695521722308986,0.0013775377229930993,-0.02474602252547546,-0.025450039738582897,-0.007095544809384587,0.006657373406836045, ,0.025672811535621093, ,0.026420484463484464, ,8.091477649795128e-05, ,0.08149800002169125,-0.18138382701691105,0.10118450853000001,4.035692652303156,0.8450967510492492,0.07857874421877808, ,0.05196984751285365,0.0318981316162927,0.024966789216300942,0.03801034549421195,-0.031206470899563545,0.05144108249170188, ,0.9938209056854248
0.012633874385563746,0.020734248315271687,-0.08886200667291518, ,0.013167375993151445,0.020490728443471468,-0.08935216403199588, ,0.0007643167732826633, ,0.006987355212280272,0.0009954887427712882,-0.023502707804602924,-0.014332392987256717,-0.013375635780625823,-0.031151358870050095, ,0.024539588522387818, ,0.019604028925595134, ,8.182147951706827e-05, ,0.08203086859001274,-0.1810749177019421,0.10142821105000001,4.036321722133609,0.8450967510492492,0.07882378043919974, ,0.05361409127597219,0.03195183217456929,0.02380988269058296,0.07404069153522028,-0.017220103049689028,0.05001165986023613, ,1.002026081085205
0.012703466288280608,0.020740148079227538,-0.0890861394104641, ,0.013227161940904723,0.020495492556097106,-0.08953601931062888, ,0.000732465279824165, ,0.007262583518034455,0.0006177073564459235,-0.02251388688417244,-0.008408454700433199,-0.025893711590109954,-0.08023783484465077, ,0.02366435683402245, ,0.02722463270716178, ,8.264837617371295e-05, ,0.08255601442546001,-0.18075056292122466,0.10165506180000002,4.037370171851032,0.8449601145494837,0.07942527078373957, ,0.05475876604643438,0.03266676129379373,0.022919153266187053,0.10867294011637578,0.0,0.034099097838228884, ,1.0103600025177002
0.012773797157879992,0.020746792851369524,-0.08931622960321481, ,0.013286922115326425,0.020500223428115104,-0.08971906235259801, ,0.0006974008362584956, ,0.006803683186396356,0.0006146347970151164,-0.022128395838281502,-0.020374263702868912,0.06268599411863739,0.05711733658278957, ,0.023158881303081726, ,0.06591387694780786, ,8.339090113639238e-05, ,0.0831197739252784,-0.18043393087338144,0.10188450513000001,4.03820893162497,0.8442769320506565,0.08055411148320568, ,0.05648627473718499,0.030464507723425613,0.02191033221458047,0.06657055793568249,-0.09050218117207472,0.13758618460495525, ,1.0225880146026611
0.012842678183896797,0.02075113387435466,-0.08952826415760967, ,0.013346656111068632,0.020504921105670676,-0.08990129469636739, ,0.0006736217494895216, ,0.006998472972112463,0.00020856532707421403,-0.020474824320811075,-0.014826733654899497,0.02118894859953119,0.018566353312753345, ,0.021638866754179226, ,0.02586116732279263, ,8.407374881700273e-05, ,0.08369125615797102,-0.18011729882553823,0.1020958004,4.038838001455424,0.8435937495518293,0.08168295218267169, ,0.05772320046135693,0.03296177198974323,0.02050040092664093,0.06894933144036938,-0.05113249436819171,0.09937131009066362, ,1.0303418636322021
0.012842678183896797,0.02075113387435466,-0.08952826415760967, ,0.013406363524534204,0.02050958563541833,-0.09008271787974692, ,0.0008267440020796049, ,0.006687412197175361,0.0001984900387562022,-0.01867096166301887,-0.02552502041798401,-0.019742440871512192,-0.013184365129095517, ,0.019833448757398082, ,0.03226900013804569, ,8.522050082424542e-05, ,0.08369125615797102,-0.18011729882553823,0.1020958004,4.038838001455424,0.8435937495518293,0.08168295218267169, ,0.05772320046135693,0.03296177198974323,0.02050040092664093,0.06894933144036938,-0.05113249436819171,0.09937131009066362, ,1.0362119674682617
0.012914887718505342,0.020754717495232028,-0.08973011169145004, ,0.013466043953873583,0.020514217064521754,-0.0902633334398913, ,0.0008037033569470031, ,0.006687412197175361,0.0001984900387562022,-0.01867096166301887,-0.02552502041798401,-0.019742440871512192,-0.013184365129095517, ,0.019833448757398082, ,0.03226900013804569, ,8.630788545613882e-05, ,0.08427046112353785,-0.17978522131194657,0.10230191051000001,4.039467071285877,0.8435937495518293,0.08184630966295281, ,0.05533349362009957,0.03191959016430231,0.01889538733096086,0.0450493921427899,-0.02249669929157327,0.03731157995157701, ,1.042222023010254
0.012987703531712406,0.020755322930252975,-0.08993341782462178, ,0.013525696998983056,0.020518815440652087,-0.09044314291329865, ,0.000777941147831799, ,0.007395222731357592,9.473160848143952e-05,-0.021402790718418323,-0.009243496237942203,-0.02663209678903356,-0.07499786586407925, ,0.022644596350132783, ,0.02819053584074896, ,8.733158859511985e-05, ,0.08481105242473357,-0.1794685892641034,0.10249246514000002,4.040305831059816,0.843457113052064,0.08236612126735193, ,0.056352103063224926,0.035108006495919636,0.02149637182186235,0.10681693428673199,0.0,0.03852104384948279, ,1.0482909679412842
0.012987703531712406,0.020755322930252975,-0.08993341782462178, ,0.01358532226150218,0.020523380811987103,-0.0906221478358092, ,0.0009409008028115564, ,0.007395222731357592,9.473160848143952e-05,-0.021402790718418323,-0.009243496237942203,-0.02663209678903356,-0.07499786586407925, ,0.022644596350132783, ,0.02819053584074896, ,8.866277690301435e-05, ,0.08481105242473357,-0.1794685892641034,0.10249246514000002,4.040305831059816,0.843457113052064,0.08236612126735193, ,0.056352103063224926,0.035108006495919636,0.02149637182186235,0.10681693428673199,0.0,0.03852104384948279, ,1.0538768768310547
0.013051295314249995,0.0207542927984453,-0.09013304758555017, ,0.013644919344811369,0.020527913227210193,-0.09080034974260497, ,0.0009213736314560467, ,0.00768288433798084,0.00023948874260577152,-0.025640671139742444,-0.012582488578214895,0.06718629384643413,-0.04394861719196669, ,0.026768042197834477, ,0.06835426846149006, ,8.994033109550363e-05, ,0.08532075279443238,-0.17913651175051173,0.10270635299000001,4.041773660664207,0.842910567053002,0.0833835440631217, ,0.05672261898294727,0.03583721357948292,0.025445385814696485,0.1610263305450411,-0.0774057038737644,0.12981181445857298, ,1.0602500438690186
0.01313485168996795,0.020766010971074188,-0.09043490194949147, ,0.013704487854029477,0.020532412735509074,-0.09097775016820776, ,0.0008208152554803779, ,0.007863380534957685,0.0016475687767972067,-0.028911512801412013,-0.017766076659108142,0.042651041552290374,0.0728126815933625, ,0.03000704598553545, ,0.04620308025690757, ,9.100814943308863e-05, ,0.08596946235586725,-0.17875809783967472,0.10300579598000001,4.042612420438145,0.8418174750548786,0.08525503217437974, ,0.06055963086054293,0.03373513741858186,0.028961475490909095,0.044783298673702475,-0.07611277912960747,0.13316337334734374, ,1.0672740936279297
0.01313485168996795,0.020766010971074188,-0.09043490194949147, ,0.01376402739601179,0.02053687938657481,-0.09115435064647803, ,0.0009828376161333172, ,0.007863380534957685,0.0016475687767972067,-0.028911512801412013,-0.017766076659108142,0.042651041552290374,0.0728126815933625, ,0.03000704598553545, ,0.04620308025690757, ,9.237580486244134e-05, ,0.08596946235586725,-0.17875809783967472,0.10300579598000001,4.042612420438145,0.8418174750548786,0.08525503217437974, ,0.06055963086054293,0.03373513741858186,0.028961475490909095,0.044783298673702475,-0.07611277912960747,0.13316337334734374, ,1.073258876800537
0.013222146961107076,0.020784655603094816,-0.09074661352636748, ,0.013823537579347274,0.020541313230600954,-0.09133015271061459, ,0.0008725847612181025, ,0.00864648919205659,0.0018687449554461617,-0.031032481604116757,-0.012181024800422397,-0.014574643108401293,-0.04294438638806454, ,0.032268698417610556, ,0.01899391501173248, ,9.35165277487072e-05, ,0.08660272645155365,-0.1784028521274604,0.10332209074000001,4.043451180212084,0.8415442020553477,0.08604961916275644, ,0.06146174971403549,0.03490141285710584,0.031542201029702975,0.09299776798686314,-0.018573994996328544,0.05848382005748693, ,1.0789039134979248
0.013222146961107076,0.020784655603094816,-0.09074661352636748, ,0.013883018014356435,0.020545714318281942,-0.09150515789315215, ,0.0010340372541604594, ,0.00864648919205659,0.0018687449554461617,-0.031032481604116757,-0.012181024800422397,-0.014574643108401293,-0.04294438638806454, ,0.032268698417610556, ,0.01899391501173248, ,9.49517423599726e-05, ,0.08660272645155365,-0.1784028521274604,0.10332209074000001,4.043451180212084,0.8415442020553477,0.08604961916275644, ,0.06146174971403549,0.03490141285710584,0.031542201029702975,0.09299776798686314,-0.018573994996328544,0.05848382005748693, ,1.0844659805297852
0.01331457025972124,0.02080091580933565,-0.09105896335809607, ,0.01394246831308895,0.020550082700812572,-0.09167936772596139, ,0.0009176463335188931, ,0.009411261902205217,0.001615312022689764,-0.03172194678051322,-0.020476827740076288,-0.026064218704692485,-0.11445580702081248, ,0.03312797897651256, ,0.033145314136926236, ,9.615021036459188e-05, ,0.08724371328011428,-0.17804760641524608,0.10364097808000002,4.044919009816475,0.8415442020553477,0.08637633412331869, ,0.06631512338118153,0.03658324655299568,0.03230996251521299,0.13672142139358248,-0.011655999611959851,0.025655707594565536, ,1.0905609130859375
0.01331457025972124,0.02080091580933565,-0.09105896335809607, ,0.014001888089321223,0.020554418429886572,-0.09185278374024718, ,0.0010785719985609752, ,0.009411261902205217,0.001615312022689764,-0.03172194678051322,-0.020476827740076288,-0.026064218704692485,-0.11445580702081248, ,0.03312797897651256, ,0.033145314136926236, ,9.782242088880281e-05, ,0.08724371328011428,-0.17804760641524608,0.10364097808000002,4.044919009816475,0.8415442020553477,0.08637633412331869, ,0.06631512338118153,0.03658324655299568,0.03230996251521299,0.13672142139358248,-0.011655999611959851,0.025655707594565536, ,1.0944209098815918
0.013402576040794811,0.02081617698826636,-0.09136634601588643, ,0.0140612769585541,0.020558721557695753,-0.09202540746654733, ,0.0009667120530615493, ,0.009606898120540072,0.0016408101248989674,-0.03234701693460794,-0.014417066052280696,-0.010532658265501961,-0.02499096456486892, ,0.03378334284721126, ,0.01785366264954668, ,9.927179534610346e-05, ,0.08788470010867493,-0.17769236070303174,0.10395079139,4.045967459533897,0.840997656056286,0.08739375691908835, ,0.07034613903518962,0.0391812310315734,0.03284291035051547,0.09150741096011127,-0.029005306679658588,0.07738788085795581, ,1.103369951248169
0.01350214142774327,0.02083105148267615,-0.09170779859244384, ,0.014120634538010548,0.020562992136928693,-0.09219724043473199, ,0.0008330323266674963, ,0.009476484362853858,0.001411887973825375,-0.03230113837374943,-0.016635595197752113,0.06590575419479419,0.03235292112293737, ,0.0336921463218085, ,0.06797261434068394, ,0.00010045997649961524, ,0.08864152793034892,-0.17729077859357206,0.10429171566,4.04701590925132,0.8399045640581624,0.0889385300697842, ,0.07113713760005305,0.03755320204134183,0.03230996251521299,0.10890600658534877,-0.09607328428050779,0.15835372050584648, ,1.107306957244873
0.01350214142774327,0.02083105148267615,-0.09170779859244384, ,0.014179960446633333,0.02056723022076979,-0.09236828417400182, ,0.0009824873963817245, ,0.009476484362853858,0.001411887973825375,-0.03230113837374943,-0.016635595197752113,0.06590575419479419,0.03235292112293737, ,0.0336921463218085, ,0.06797261434068394, ,0.00010191812471488108, ,0.08864152793034892,-0.17729077859357206,0.10429171566,4.04701590925132,0.8399045640581624,0.0889385300697842, ,0.07113713760005305,0.03755320204134183,0.03230996251521299,0.10890600658534877,-0.09607328428050779,0.15835372050584648, ,1.1112239360809326
0.01350214142774327,0.02083105148267615,-0.09170779859244384, ,0.014239254305082535,0.0205714358628982,-0.0925385402128871, ,0.0011405556996082027, ,0.009476484362853858,0.001411887973825375,-0.03230113837374943,-0.016635595197752113,0.06590575419479419,0.03235292112293737, ,0.0336921463218085, ,0.06797261434068394, ,0.0001036592389345436, ,0.08864152793034892,-0.17729077859357206,0.10429171566,4.04701590925132,0.8399045640581624,0.0889385300697842, ,0.07113713760005305,0.03755320204134183,0.03230996251521299,0.10890600658534877,-0.09607328428050779,0.15835372050584648, ,1.114966869354248
0.013598458948155777,0.020845024340945782,-0.09202619793558824, ,0.014298515735733267,0.020575609117486703,-0.09270801007924719, ,0.0010136724656937435, ,0.010260773620688793,0.0014830250099125714,-0.0326766279424302,-0.01664555452596641,-0.003945062234253395,-0.06102153127093714, ,0.03428184435182943, ,0.017105576470026636, ,0.0001051524870601448, ,0.08935201935477757,-0.17690464194986083,0.10461319558000001,4.048064358968743,0.8393580180591006,0.0899559528655538, ,0.07483985927324195,0.03879678722750236,0.033185024,0.1263285085165079,-0.036390473254182154,0.07455492691880046, ,1.1190030574798584
0.013598458948155777,0.020845024340945782,-0.09202619793558824, ,0.014357744362673473,0.020579750039200692,-0.09287669530026814, ,0.0011705684786432254, ,0.010260773620688793,0.0014830250099125714,-0.0326766279424302,-0.01664555452596641,-0.003945062234253395,-0.06102153127093714, ,0.03428184435182943, ,0.017105576470026636, ,0.00010692419094302846, ,0.08935201935477757,-0.17690464194986083,0.10461319558000001,4.048064358968743,0.8393580180591006,0.0899559528655538, ,0.07483985927324195,0.03879678722750236,0.033185024,0.1263285085165079,-0.036390473254182154,0.07455492691880046, ,1.1227710247039795
0.013709915602778833,0.02086287833382093,-0.09237713148198422, ,0.014416939811701267,0.020583858683196975,-0.09304459740246261, ,0.0010115562033010212, ,0.01124669630146338,0.001821648485373058,-0.03542807634793163,0.0035053574008277674,-0.0167690568294867,-0.08278002676227825, ,0.037214985887629795, ,0.017129885701245726, ,0.00010839056561474713, ,0.09015518357369692,-0.1765107825732754,0.10497097162,4.049532188573134,0.8390847450595699,0.09091389733421179, ,0.07974532904073174,0.03942540156147519,0.03620184436363637,0.15618630918016907,-0.015590799115088925,0.0855533850437283, ,1.1271259784698486
0.013709915602778833,0.02086287833382093,-0.09237713148198422, ,0.014476101710322894,0.02058793510512282,-0.09321171791166805, ,0.0011658342244988613, ,0.01124669630146338,0.001821648485373058,-0.03542807634793163,0.0035053574008277674,-0.0167690568294867,-0.08278002676227825, ,0.037214985887629795, ,0.017129885701245726, ,0.00011012875809326247, ,0.09015518357369692,-0.1765107825732754,0.10497097162,4.049532188573134,0.8390847450595699,0.09091389733421179, ,0.07974532904073174,0.03942540156147519,0.03620184436363637,0.15618630918016907,-0.015590799115088925,0.0855533850437283, ,1.1308059692382812
0.013709915602778833,0.02086287833382093,-0.09237713148198422, ,0.014535229687750319,0.020591979361114843,-0.0933780583530463, ,0.0013252864571403667, ,0.01124669630146338,0.001821648485373058,-0.03542807634793163,0.0035053574008277674,-0.0167690568294867,-0.08278002676227825, ,0.037214985887629795, ,0.017129885701245726, ,0.00011214523426288626, ,0.09015518357369692,-0.1765107825732754,0.10497097162,4.049532188573134,0.8390847450595699,0.09091389733421179, ,0.07974532904073174,0.03942540156147519,0.03620184436363637,0.15618630918016907,-0.015590799115088925,0.0855533850437283, ,1.1347219944000244
0.013824662166900727,0.02087879189946262,-0.09276054050603937, ,0.014594323374898688,0.02059599150779778,-0.09354362025108143, ,0.0011338290540102625, ,0.011583454796575845,0.0016938375364745246,-0.03983336014575578,0.000735044719397452,0.08659121309302452,0.02566685011805864, ,0.04151797310955547, ,0.08659375376407386, ,0.00011379894078194896, ,0.09098151599123895,-0.17607830953231882,0.10535596975000001,4.051209708121011,0.8381282895612117,0.0929190037621952, ,0.08273490981558046,0.04461539330440563,0.03992183338345865,0.1632084327381784,-0.10582461217804336,0.21340974748050884, ,1.1400868892669678
0.013824662166900727,0.02087879189946262,-0.09276054050603937, ,0.014653382404384303,0.020599971602283666,-0.09370840512957913, ,0.0012895601322512964, ,0.011583454796575845,0.0016938375364745246,-0.03983336014575578,0.000735044719397452,0.08659121309302452,0.02566685011805864, ,0.04151797310955547, ,0.08659375376407386, ,0.00011572278543899137, ,0.09098151599123895,-0.17607830953231882,0.10535596975000001,4.051209708121011,0.8381282895612117,0.0929190037621952, ,0.08273490981558046,0.04461539330440563,0.03992183338345865,0.1632084327381784,-0.10582461217804336,0.21340974748050884, ,1.145824909210205
0.013824662166900727,0.02087879189946262,-0.09276054050603937, ,0.014712406410521973,0.020603919702170608,-0.09387241451166611, ,0.0014491060593742838, ,0.011583454796575845,0.0016938375364745246,-0.03983336014575578,0.000735044719397452,0.08659121309302452,0.02566685011805864, ,0.04151797310955547, ,0.08659375376407386, ,0.0001179207285590208, ,0.09098151599123895,-0.17607830953231882,0.10535596975000001,4.051209708121011,0.8381282895612117,0.0929190037621952, ,0.08273490981558046,0.04461539330440563,0.03992183338345865,0.1632084327381784,-0.10582461217804336,0.21340974748050884, ,1.1507508754730225
0.013908741156535537,0.020893041343372144,-0.0930483760214984, ,0.014771395029322771,0.02060783586554173,-0.09403564991978758, ,0.0013417241218158058, ,0.011759415071203604,0.0020719164336488113,-0.03992443077589483,0.0027468734523876277,0.04599003048485229,0.01699629196216542, ,0.04167177525980976, ,0.04607088865432475, ,0.00011990972615739808, ,0.09157616642255424,-0.1757616774844756,0.10564633871000001,4.052258157838433,0.83758174356215,0.09426314151852705, ,0.08353604010428767,0.043391377027192854,0.04032610511392406,0.13685516587259555,-0.0738019252635727,0.17579904586372047, ,1.1544840335845947
0.013908741156535537,0.020893041343372144,-0.0930483760214984, ,0.014830347898491856,0.02061172015096398,-0.09419811287570745, ,0.0015001318055570363, ,0.011759415071203604,0.0020719164336488113,-0.03992443077589483,0.0027468734523876277,0.04599003048485229,0.01699629196216542, ,0.04167177525980976, ,0.04607088865432475, ,0.00012216835044636268, ,0.09157616642255424,-0.1757616774844756,0.10564633871000001,4.052258157838433,0.83758174356215,0.09426314151852705, ,0.08353604010428767,0.043391377027192854,0.04032610511392406,0.13685516587259555,-0.0738019252635727,0.17579904586372047, ,1.158262014389038
0.013908741156535537,0.020893041343372144,-0.0930483760214984, ,0.014889264657425945,0.020615572617487258,-0.09435980490050616, ,0.00166080129285177, ,0.011759415071203604,0.0020719164336488113,-0.03992443077589483,0.0027468734523876277,0.04599003048485229,0.01699629196216542, ,0.04167177525980976, ,0.04607088865432475, ,0.00012492082440415412, ,0.09157616642255424,-0.1757616774844756,0.10564633871000001,4.052258157838433,0.83758174356215,0.09426314151852705, ,0.08353604010428767,0.043391377027192854,0.04032610511392406,0.13685516587259555,-0.0738019252635727,0.17579904586372047, ,1.160167932510376
0.013908741156535537,0.020893041343372144,-0.0930483760214984, ,0.014948144947211183,0.02061939332464323,-0.09452072751458036, ,0.0018229268765932007, ,0.012533816835163502,0.002055309938555284,-0.03971883718651285,-0.007928537404064847,-0.041813687560206154,0.0010616714380956606, ,0.04170020252768166, ,0.042557576545134326, ,0.00012795297806877741, ,0.09311299026452491,-0.1749430677998078,0.10636966853000002,4.05393567738631,0.8373084705626191,0.09611955212873113, ,0.0902062182114741,0.04849102787862584,0.04063472326530613,0.07493864726969039,-0.013036961828729592,0.0919207541279627, ,1.1622169017791748
0.014125478915154492,0.02093253161247423,-0.09375610971377989, ,0.015006988410620366,0.020623182332444225,-0.09468088223764097, ,0.0013145189951233036, ,0.012533816835163502,0.002055309938555284,-0.03971883718651285,-0.007928537404064847,-0.041813687560206154,0.0010616714380956606, ,0.04170020252768166, ,0.042557576545134326, ,0.00013006806900826853, ,0.09311299026452491,-0.1749430677998078,0.10636966853000002,4.05393567738631,0.8373084705626191,0.09611955212873113, ,0.0902062182114741,0.04849102787862584,0.04063472326530613,0.07493864726969039,-0.013036961828729592,0.0919207541279627, ,1.1643240451812744
0.014125478915154492,0.02093253161247423,-0.09375610971377989, ,0.015065794692111122,0.020626939701382144,-0.09484027058871271, ,0.0014673053462907998, ,0.012533816835163502,0.002055309938555284,-0.03971883718651285,-0.007928537404064847,-0.041813687560206154,0.0010616714380956606, ,0.04170020252768166, ,0.042557576545134326, ,0.00013244749476855775, ,0.09311299026452491,-0.1749430677998078,0.10636966853000002,4.05393567738631,0.8373084705626191,0.09611955212873113, ,0.0902062182114741,0.04849102787862584,0.04063472326530613,0.07493864726969039,-0.013036961828729592,0.0919207541279627, ,1.1665148735046387
0.014125478915154492,0.02093253161247423,-0.09375610971377989, ,0.015124563437823185,0.0206306654924276,-0.09499889408613256, ,0.0016229005003487308, ,0.012533816835163502,0.002055309938555284,-0.03971883718651285,-0.007928537404064847,-0.041813687560206154,0.0010616714380956606, ,0.04170020252768166, ,0.042557576545134326, ,0.00013509483580866462, ,0.09311299026452491,-0.1749430677998078,0.10636966853000002,4.05393567738631,0.8373084705626191,0.09611955212873113, ,0.0902062182114741,0.04849102787862584,0.04063472326530613,0.07493864726969039,-0.013036961828729592,0.0919207541279627, ,1.1686210632324219
0.014125478915154492,0.02093253161247423,-0.09375610971377989, ,0.0151832942955765,0.02063435976702841,-0.09515675424754858, ,0.0017803609011798785, ,0.012533816835163502,0.002055309938555284,-0.03971883718651285,-0.007928537404064847,-0.041813687560206154,0.0010616714380956606, ,0.04170020252768166, ,0.042557576545134326, ,0.0007557160530238647, ,0.09311299026452491,-0.1749430677998078,0.10636966853000002,4.05393567738631,0.8373084705626191,0.09611955212873113, ,0.0902062182114741,0.04849102787862584,0.04063472326530613,0.07493864726969039,-0.013036961828729592,0.0919207541279627, ,1.1705620288848877
0.014260545356516928,0.020945415737040375,-0.09416763613587611, ,0.015241986914868326,0.02063802258710896,-0.09531385258991885, ,0.001539977350678343, ,0.015547215951661968,0.0013577518965385976,-0.04598171540509448,0.019849181967759554,0.011438219585314123,-0.12823344391010355, ,0.048557981482504696, ,0.02290452658563695, ,0.0007632570270397731, ,0.09407060914092875,-0.174433367430109,0.10678707391000002,4.05582288687767,0.8367619245635572,0.09762704736534411, ,0.10759290426130474,0.055430456517798356,0.046849445647058834,0.2677620479653449,-0.03650172519638726,0.16099991270538477, ,1.1724610328674316
0.014260545356516928,0.020945415737040375,-0.09416763613587611, ,0.015300640946871343,0.020641654015068834,-0.09547019062951055, ,0.0016943194001418612, ,0.015547215951661968,0.0013577518965385976,-0.04598171540509448,0.019849181967759554,0.011438219585314123,-0.12823344391010355, ,0.048557981482504696, ,0.02290452658563695, ,0.0007721242877359836, ,0.09407060914092875,-0.174433367430109,0.10678707391000002,4.05582288687767,0.8367619245635572,0.09762704736534411, ,0.10759290426130474,0.055430456517798356,0.046849445647058834,0.2677620479653449,-0.03650172519638726,0.16099991270538477, ,1.1743450164794922
0.014260545356516928,0.020945415737040375,-0.09416763613587611, ,0.01535925604443102,0.020645254113781895,-0.0956257698818982, ,0.0018502476042687472, ,0.015547215951661968,0.0013577518965385976,-0.04598171540509448,0.019849181967759554,0.011438219585314123,-0.12823344391010355, ,0.048557981482504696, ,0.02290452658563695, ,0.0007822952624202549, ,0.09407060914092875,-0.174433367430109,0.10678707391000002,4.05582288687767,0.8367619245635572,0.09762704736534411, ,0.10759290426130474,0.055430456517798356,0.046849445647058834,0.2677620479653449,-0.03650172519638726,0.16099991270538477, ,1.1762380599975586
0.014260545356516928,0.020945415737040375,-0.09416763613587611, ,0.015417831862063443,0.02064882294659514,-0.09578059186196336, ,0.002007213370217971, ,0.015547215951661968,0.0013577518965385976,-0.04598171540509448,0.019849181967759554,0.011438219585314123,-0.12823344391010355, ,0.048557981482504696, ,0.02290452658563695, ,0.0007937430952034111, ,0.09407060914092875,-0.174433367430109,0.10678707391000002,4.05582288687767,0.8367619245635572,0.09762704736534411, ,0.10759290426130474,0.055430456517798356,0.046849445647058834,0.2677620479653449,-0.03650172519638726,0.16099991270538477, ,1.1781730651855469
0.014260545356516928,0.020945415737040375,-0.09416763613587611, ,0.015476368055953154,0.02065236057732752,-0.09593465808389234, ,0.0021648262581255304, ,0.015547215951661968,0.0013577518965385976,-0.04598171540509448,0.019849181967759554,0.011438219585314123,-0.12823344391010355, ,0.048557981482504696, ,0.02290452658563695, ,0.0008064383096749123, ,0.09407060914092875,-0.174433367430109,0.10678707391000002,4.05582288687767,0.8367619245635572,0.09762704736534411, ,0.10759290426130474,0.055430456517798356,0.046849445647058834,0.2677620479653449,-0.03650172519638726,0.16099991270538477, ,1.1801328659057617
0.014425857694144468,0.020963183196241145,-0.09470192171412695, ,0.01553486428395031,0.020655867070269163,-0.09608797006117625, ,0.0018015184811356574, ,0.017779419857587082,0.0026636641522887056,-0.059866809319760975,0.013300309113334075,0.1901675454952062,-0.014412081258827647, ,0.06250790138308251, ,0.1906300725874717, ,0.0008155674855598732, ,0.0952212963391882,-0.1738696079302906,0.10732114539000001,4.058968236029938,0.8349856500666065,0.10070905491620885, ,0.12135158767067875,0.05685856294695672,0.059882750075187986,0.3337223190697883,-0.19969470751568588,0.3567510079510907, ,1.1823029518127441
0.014425857694144468,0.020963183196241145,-0.09470192171412695, ,0.015593320205568997,0.02065934249017993,-0.0962405293066091, ,0.0019551473637261178, ,0.017779419857587082,0.0026636641522887056,-0.059866809319760975,0.013300309113334075,0.1901675454952062,-0.014412081258827647, ,0.06250790138308251, ,0.1906300725874717, ,0.0008259273026341118, ,0.0952212963391882,-0.1738696079302906,0.10732114539000001,4.058968236029938,0.8349856500666065,0.10070905491620885, ,0.12135158767067875,0.05685856294695672,0.059882750075187986,0.3337223190697883,-0.19969470751568588,0.3567510079510907, ,1.1843159198760986
0.014425857694144468,0.020963183196241145,-0.09470192171412695, ,0.015651735481984133,0.020662786902288694,-0.09639233733228679, ,0.0021096253805492965, ,0.017779419857587082,0.0026636641522887056,-0.059866809319760975,0.013300309113334075,0.1901675454952062,-0.014412081258827647, ,0.06250790138308251, ,0.1906300725874717, ,0.0008374921501828973, ,0.0952212963391882,-0.1738696079302906,0.10732114539000001,4.058968236029938,0.8349856500666065,0.10070905491620885, ,0.12135158767067875,0.05685856294695672,0.059882750075187986,0.3337223190697883,-0.19969470751568588,0.3567510079510907, ,1.1870360374450684
0.014425857694144468,0.020963183196241145,-0.09470192171412695, ,0.01571010977602994,0.020666200372291815,-0.0965433956496059, ,0.002264625457464532, ,0.017779419857587082,0.0026636641522887056,-0.059866809319760975,0.013300309113334075,0.1901675454952062,-0.014412081258827647, ,0.06250790138308251, ,0.1906300725874717, ,0.0008502344118550547, ,0.0952212963391882,-0.1738696079302906,0.10732114539000001,4.058968236029938,0.8349856500666065,0.10070905491620885, ,0.12135158767067875,0.05685856294695672,0.059882750075187986,0.3337223190697883,-0.19969470751568588,0.3567510079510907, ,1.189079999923706
0.014425857694144468,0.020963183196241145,-0.09470192171412695, ,0.01576844275219713,0.02066958296635252,-0.09669370576926278, ,0.0024199048442842303, ,0.017779419857587082,0.0026636641522887056,-0.059866809319760975,0.013300309113334075,0.1901675454952062,-0.014412081258827647, ,0.06250790138308251, ,0.1906300725874717, ,0.0008641253006376137, ,0.0952212963391882,-0.1738696079302906,0.10732114539000001,4.058968236029938,0.8349856500666065,0.10070905491620885, ,0.12135158767067875,0.05685856294695672,0.059882750075187986,0.3337223190697883,-0.19969470751568588,0.3567510079510907, ,1.1910529136657715
0.014624593750574287,0.02100225328519787,-0.09539091475416736, ,0.01582673407663057,0.020672934751099666,-0.09684326920125219, ,0.0019138770860215601, ,0.02052904549038307,0.005368880477067437,-0.07504447527503921,0.00975040578613292,0.12198071916387757,-0.0070973709048093025, ,0.07798679282820409, ,0.1223600677074783, ,0.0008733336496322098, ,0.0965418836606806,-0.17325951203322687,0.10801466054000002,4.06232327512569,0.8332093755696558,0.10411777742763584, ,0.13309528970332507,0.060637023360045235,0.07585148342857144,0.27931593700452445,-0.15675342728208155,0.30733662194705713, ,1.193023920059204
0.014624593750574287,0.02100225328519787,-0.09539091475416736, ,0.015884983417127047,0.020676255793626478,-0.09699208745486622, ,0.0020636401075592352, ,0.02052904549038307,0.005368880477067437,-0.07504447527503921,0.00975040578613292,0.12198071916387757,-0.0070973709048093025, ,0.07798679282820409, ,0.1223600677074783, ,0.0008836841405707056, ,0.0965418836606806,-0.17325951203322687,0.10801466054000002,4.06232327512569,0.8332093755696558,0.10411777742763584, ,0.13309528970332507,0.060637023360045235,0.07585148342857144,0.27931593700452445,-0.15675342728208155,0.30733662194705713, ,1.1950829029083252
0.014624593750574287,0.02100225328519787,-0.09539091475416736, ,0.015943190443133276,0.020679546161489624,-0.0971401620386926, ,0.002214204865801379, ,0.02052904549038307,0.005368880477067437,-0.07504447527503921,0.00975040578613292,0.12198071916387757,-0.0070973709048093025, ,0.07798679282820409, ,0.1223600677074783, ,0.0008951541468226941, ,0.0965418836606806,-0.17325951203322687,0.10801466054000002,4.06232327512569,0.8332093755696558,0.10411777742763584, ,0.13309528970332507,0.060637023360045235,0.07585148342857144,0.27931593700452445,-0.15675342728208155,0.30733662194705713, ,1.197072982788086
0.014624593750574287,0.02100225328519787,-0.09539091475416736, ,0.016001354825742668,0.020682805922708346,-0.09728749446061513, ,0.0023652763598382798, ,0.02052904549038307,0.005368880477067437,-0.07504447527503921,0.00975040578613292,0.12198071916387757,-0.0070973709048093025, ,0.07798679282820409, ,0.1223600677074783, ,0.0009077192939424855, ,0.0965418836606806,-0.17325951203322687,0.10801466054000002,4.06232327512569,0.8332093755696558,0.10411777742763584, ,0.13309528970332507,0.060637023360045235,0.07585148342857144,0.27931593700452445,-0.15675342728208155,0.30733662194705713, ,1.1991310119628906
0.014624593750574287,0.02100225328519787,-0.09539091475416736, ,0.016059476237694083,0.020686035145762883,-0.09743408622781015, ,0.002516630949157715, ,0.02052904549038307,0.005368880477067437,-0.07504447527503921,0.00975040578613292,0.12198071916387757,-0.0070973709048093025, ,0.07798679282820409, ,0.1223600677074783, ,0.0009213541384782077, ,0.0965418836606806,-0.17325951203322687,0.10801466054000002,4.06232327512569,0.8332093755696558,0.10411777742763584, ,0.13309528970332507,0.060637023360045235,0.07585148342857144,0.27931593700452445,-0.15675342728208155,0.30733662194705713, ,1.2010369300842285
0.014844488148467592,0.021063789275041184,-0.09619381256632262, ,0.01611755435336889,0.02068923389959387,-0.09757993884674776, ,0.0019189412071826254, ,0.02252330498171741,0.0066256544381974244,-0.08277858255263804,0.0022369289707822575,0.037172359913801696,-0.0017309323607738545, ,0.08604354881952378, ,0.037187382444376346, ,0.0009297372230891692, ,0.09796286650953791,-0.17260307973891778,0.10883002695,4.0646298645040195,0.8319796470717669,0.10683579210385535, ,0.14356572096591644,0.0667348393519485,0.08427942603174604,0.21089700813110868,-0.10021082867748703,0.24070240427361803, ,1.2028958797454834
0.014844488148467592,0.021063789275041184,-0.09619381256632262, ,0.01617558884878852,0.020692402253601007,-0.09772505382318858, ,0.0020626335546619816, ,0.02252330498171741,0.0066256544381974244,-0.08277858255263804,0.0022369289707822575,0.037172359913801696,-0.0017309323607738545, ,0.08604354881952378, ,0.037187382444376346, ,0.000939178025852276, ,0.09796286650953791,-0.17260307973891778,0.10883002695,4.0646298645040195,0.8319796470717669,0.10683579210385535, ,0.14356572096591644,0.0667348393519485,0.08427942603174604,0.21089700813110868,-0.10021082867748703,0.24070240427361803, ,1.2047889232635498
0.014844488148467592,0.021063789275041184,-0.09619381256632262, ,0.01623357940161247,0.02069554027764208,-0.09786943266218438, ,0.002207461107087698, ,0.02252330498171741,0.0066256544381974244,-0.08277858255263804,0.0022369289707822575,0.037172359913801696,-0.0017309323607738545, ,0.08604354881952378, ,0.037187382444376346, ,0.0009496597042095935, ,0.09796286650953791,-0.17260307973891778,0.10883002695,4.0646298645040195,0.8319796470717669,0.10683579210385535, ,0.14356572096591644,0.0667348393519485,0.08427942603174604,0.21089700813110868,-0.10021082867748703,0.24070240427361803, ,1.206712007522583
0.014844488148467592,0.021063789275041184,-0.09619381256632262, ,0.01629152569113604,0.020698648042031795,-0.09801307686807575, ,0.0023530763628851663, ,0.02252330498171741,0.0066256544381974244,-0.08277858255263804,0.0022369289707822575,0.037172359913801696,-0.0017309323607738545, ,0.08604354881952378, ,0.037187382444376346, ,0.0009611631194446391, ,0.09796286650953791,-0.17260307973891778,0.10883002695,4.0646298645040195,0.8319796470717669,0.10683579210385535, ,0.14356572096591644,0.0667348393519485,0.08427942603174604,0.21089700813110868,-0.10021082867748703,0.24070240427361803, ,1.2086260318756104
0.014844488148467592,0.021063789275041184,-0.09619381256632262, ,0.01634942739828748,0.02070172561754082,-0.09815598794449137, ,0.0024992127665372328, ,0.02252330498171741,0.0066256544381974244,-0.08277858255263804,0.0022369289707822575,0.037172359913801696,-0.0017309323607738545, ,0.08604354881952378, ,0.037187382444376346, ,0.0009736675881201887, ,0.09796286650953791,-0.17260307973891778,0.10883002695,4.0646298645040195,0.8319796470717669,0.10683579210385535, ,0.14356572096591644,0.0667348393519485,0.08427942603174604,0.21089700813110868,-0.10021082867748703,0.24070240427361803, ,1.210547924041748
0.01506309206616183,0.021125629273165147,-0.09700155880762276, ,0.016407284205626513,0.02070477307539455,-0.0982981673943465, ,0.0019144623982116523, ,0.024465316878123214,0.0064282451149207664,-0.0884067597569306,-0.0013333215095817363,0.03386134027765448,-0.02656015898754904, ,0.09195449546337649, ,0.03380780521960213, ,0.0009812546430402812, ,0.09933751296114987,-0.17193120197886025,0.10965187481000001,4.066726763938865,0.8310231915734089,0.10908593475226047, ,0.15405347655595905,0.07597833591550904,0.08999328542372882,0.24018172974229937,-0.1009465711535167,0.24657139854604762, ,1.2124419212341309
0.01506309206616183,0.021125629273165147,-0.09700155880762276, ,0.016465095797340956,0.020707790487272195,-0.09843961671984285, ,0.002051393251459962, ,0.024465316878123214,0.0064282451149207664,-0.0884067597569306,-0.0013333215095817363,0.03386134027765448,-0.02656015898754904, ,0.09195449546337649, ,0.03380780521960213, ,0.0009898157519076386, ,0.09933751296114987,-0.17193120197886025,0.10965187481000001,4.066726763938865,0.8310231915734089,0.10908593475226047, ,0.15405347655595905,0.07597833591550904,0.08999328542372882,0.24018172974229937,-0.1009465711535167,0.24657139854604762, ,1.2143299579620361
0.01506309206616183,0.021125629273165147,-0.09700155880762276, ,0.0165228618592452,0.02071077792530573,-0.09858033742246576, ,0.0021898793127259355, ,0.024465316878123214,0.0064282451149207664,-0.0884067597569306,-0.0013333215095817363,0.03386134027765448,-0.02656015898754904, ,0.09195449546337649, ,0.03380780521960213, ,0.000999340065882387, ,0.09933751296114987,-0.17193120197886025,0.10965187481000001,4.066726763938865,0.8310231915734089,0.10908593475226047, ,0.15405347655595905,0.07597833591550904,0.08999328542372882,0.24018172974229937,-0.1009465711535167,0.24657139854604762, ,1.2162199020385742
0.01506309206616183,0.021125629273165147,-0.09700155880762276, ,0.016580582078777707,0.02071373546207856,-0.09872033100298477, ,0.002329508598299203, ,0.024465316878123214,0.0064282451149207664,-0.0884067597569306,-0.0013333215095817363,0.03386134027765448,-0.02656015898754904, ,0.09195449546337649, ,0.03380780521960213, ,0.001009813833854173, ,0.09933751296114987,-0.17193120197886025,0.10965187481000001,4.066726763938865,0.8310231915734089,0.10908593475226047, ,0.15405347655595905,0.07597833591550904,0.08999328542372882,0.24018172974229937,-0.1009465711535167,0.24657139854604762, ,1.2180850505828857
0.01506309206616183,0.021125629273165147,-0.09700155880762276, ,0.01663825614499845,0.020716663170624677,-0.0988595989614512, ,0.0024699612064814263, ,0.024465316878123214,0.0064282451149207664,-0.0884067597569306,-0.0013333215095817363,0.03386134027765448,-0.02656015898754904, ,0.09195449546337649, ,0.03380780521960213, ,0.0010212212352028235, ,0.09933751296114987,-0.17193120197886025,0.10965187481000001,4.066726763938865,0.8310231915734089,0.10908593475226047, ,0.15405347655595905,0.07597833591550904,0.08999328542372882,0.24018172974229937,-0.1009465711535167,0.24657139854604762, ,1.2200279235839844
0.01530929316147494,0.021187282169939453,-0.09787355985513105, ,0.016695883748586948,0.020719561124427365,-0.09899814279719725, ,0.001845557700606735, ,0.026098603822854585,0.006170423907917846,-0.0906055277786511,0.002248555268087718,0.08030503182118856,-0.04276390983788003, ,0.09449112612702655, ,0.08029849252746644, ,0.0010276114403609934, ,0.100889782268869,-0.17119754235580892,0.11053853717,4.069452733204164,0.8297934630755199,0.11172227068833945, ,0.1650381592321231,0.07640655520005699,0.09207405502890174,0.30261655977557644,-0.14308673582301862,0.2963864103938476, ,1.222538948059082
0.01530929316147494,0.021187282169939453,-0.09787355985513105, ,0.016753464581839465,0.020722429397418564,-0.09913596400883554, ,0.0019736725763936616, ,0.026098603822854585,0.006170423907917846,-0.0906055277786511,0.002248555268087718,0.08030503182118856,-0.04276390983788003, ,0.09449112612702655, ,0.08029849252746644, ,0.0010348888337150908, ,0.100889782268869,-0.17119754235580892,0.11053853717,4.069452733204164,0.8297934630755199,0.11172227068833945, ,0.1650381592321231,0.07640655520005699,0.09207405502890174,0.30261655977557644,-0.14308673582301862,0.2963864103938476, ,1.2244839668273926
0.01530929316147494,0.021187282169939453,-0.09787355985513105, ,0.016810998338667123,0.020725268063977346,-0.09927306409425732, ,0.002104088303433621, ,0.026098603822854585,0.006170423907917846,-0.0906055277786511,0.002248555268087718,0.08030503182118856,-0.04276390983788003, ,0.09449112612702655, ,0.08029849252746644, ,0.0010430506617282093, ,0.100889782268869,-0.17119754235580892,0.11053853717,4.069452733204164,0.8297934630755199,0.11172227068833945, ,0.1650381592321231,0.07640655520005699,0.09207405502890174,0.30261655977557644,-0.14308673582301862,0.2963864103938476, ,1.2265839576721191
0.01552124954355684,0.02122676959728332,-0.09856225935126768, ,0.016868484714593342,0.020728077198928937,-0.09940944455063112, ,0.0016677708104756717, ,0.027001024583131968,0.004088888777828002,-0.08255786446201978,0.010919843668209847,0.025410329955237128,-0.048055696287070876, ,0.08695731898181758, ,0.027587907074799897, ,0.0010477833901278114, ,0.10226442872048096,-0.17054111006149986,0.11123983006000002,4.071759322582494,0.8288370075771617,0.1140540920768851, ,0.17837770969637368,0.08472941210577749,0.08427942603174604,0.2876404346636565,-0.10015109874689714,0.27788884741493536, ,1.2339050769805908
0.01552124954355684,0.02122676959728332,-0.09856225935126768, ,0.016925923406751683,0.020730856877543717,-0.09954510687440234, ,0.0017846644898339252, ,0.027001024583131968,0.004088888777828002,-0.08255786446201978,0.010919843668209847,0.025410329955237128,-0.048055696287070876, ,0.08695731898181758, ,0.027587907074799897, ,0.0010533238495240979, ,0.10226442872048096,-0.17054111006149986,0.11123983006000002,4.071759322582494,0.8288370075771617,0.1140540920768851, ,0.17837770969637368,0.08472941210577749,0.08427942603174604,0.2876404346636565,-0.10015109874689714,0.27788884741493536, ,1.2358238697052002
0.01552124954355684,0.02122676959728332,-0.09856225935126768, ,0.016983314113883385,0.020733607175536253,-0.0996800525612914, ,0.0019053355721244205, ,0.027001024583131968,0.004088888777828002,-0.08255786446201978,0.010919843668209847,0.025410329955237128,-0.048055696287070876, ,0.08695731898181758, ,0.027587907074799897, ,0.0010596821459614135, ,0.10226442872048096,-0.17054111006149986,0.11123983006000002,4.071759322582494,0.8288370075771617,0.1140540920768851, ,0.17837770969637368,0.08472941210577749,0.08427942603174604,0.2876404346636565,-0.10015109874689714,0.27788884741493536, ,1.2377839088439941
0.01552124954355684,0.02122676959728332,-0.09856225935126768, ,0.017040656536334915,0.020736328169064025,-0.09981428310629308, ,0.0020289637471784918, ,0.027001024583131968,0.004088888777828002,-0.08255786446201978,0.010919843668209847,0.025410329955237128,-0.048055696287070876, ,0.08695731898181758, ,0.027587907074799897, ,0.0010668620096741326, ,0.10226442872048096,-0.17054111006149986,0.11123983006000002,4.071759322582494,0.8288370075771617,0.1140540920768851, ,0.17837770969637368,0.08472941210577749,0.08427942603174604,0.2876404346636565,-0.10015109874689714,0.27788884741493536, ,1.2397868633270264
0.01552124954355684,0.02122676959728332,-0.09856225935126768, ,0.01709795037605589,0.020739019934726387,-0.09994780000367431, ,0.0021549032804279162, ,0.027001024583131968,0.004088888777828002,-0.08255786446201978,0.010919843668209847,0.025410329955237128,-0.048055696287070876, ,0.08695731898181758, ,0.027587907074799897, ,0.0010748623131355574, ,0.10226442872048096,-0.17054111006149986,0.11123983006000002,4.071759322582494,0.8288370075771617,0.1140540920768851, ,0.17837770969637368,0.08472941210577749,0.08427942603174604,0.2876404346636565,-0.10015109874689714,0.27788884741493536, ,1.2419888973236084
0.01552124954355684,0.02122676959728332,-0.09856225935126768, ,0.017155195336597068,0.02074168254956339,-0.10008060474697512, ,0.0022826434323225983, ,0.02723747098504144,0.004127711838105633,-0.08171839236294667,0.0400384371898667,-0.017315394191533637,-0.05288905176193375, ,0.08623696122350273, ,0.043580444638642586, ,0.001083678233713565, ,0.10226442872048096,-0.17054111006149986,0.11123983006000002,4.071759322582494,0.8288370075771617,0.1140540920768851, ,0.17837770969637368,0.08472941210577749,0.08427942603174604,0.2876404346636565,-0.10015109874689714,0.27788884741493536, ,1.2446038722991943
0.01552124954355684,0.02122676959728332,-0.09856225935126768, ,0.017212391123106924,0.020744316091055284,-0.10021269882900517, ,0.0024117777048122176, ,0.02723747098504144,0.004127711838105633,-0.08171839236294667,0.0400384371898667,-0.017315394191533637,-0.05288905176193375, ,0.08623696122350273, ,0.043580444638642586, ,0.0010933021429244249, ,0.10226442872048096,-0.17054111006149986,0.11123983006000002,4.071759322582494,0.8288370075771617,0.1140540920768851, ,0.17837770969637368,0.08472941210577749,0.08427942603174604,0.2876404346636565,-0.10015109874689714,0.27788884741493536, ,1.246527910232544
0.01552124954355684,0.02122676959728332,-0.09856225935126768, ,0.017269537442330528,0.020746920637120594,-0.10034408374184423, ,0.002541980283247933, ,0.02723747098504144,0.004127711838105633,-0.08171839236294667,0.0400384371898667,-0.017315394191533637,-0.05288905176193375, ,0.08623696122350273, ,0.043580444638642586, ,0.0011037242878188386, ,0.10226442872048096,-0.17054111006149986,0.11123983006000002,4.071759322582494,0.8288370075771617,0.1140540920768851, ,0.17837770969637368,0.08472941210577749,0.08427942603174604,0.2876404346636565,-0.10015109874689714,0.27788884741493536, ,1.248425006866455
0.01552124954355684,0.02122676959728332,-0.09856225935126768, ,0.017326634002606613,0.02074949626611555,-0.10047476097683974, ,0.002672988093022154, ,0.02723747098504144,0.004127711838105633,-0.08171839236294667,0.0400384371898667,-0.017315394191533637,-0.05288905176193375, ,0.08623696122350273, ,0.043580444638642586, ,0.0011149333149988623, ,0.10226442872048096,-0.17054111006149986,0.11123983006000002,4.071759322582494,0.8288370075771617,0.1140540920768851, ,0.17837770969637368,0.08472941210577749,0.08427942603174604,0.2876404346636565,-0.10015109874689714,0.27788884741493536, ,1.2505290508270264
0.016171891077120377,0.021274703331394085,-0.10018728746465595, ,0.017383680513865296,0.020752043056833,-0.10060473202460714, ,0.0013841486055491568, ,0.025998576470799912,-0.0002953808126364976,-0.05173290885824219,-0.03231942391382703,-0.1378824478704861,-0.0011342511608366523, ,0.057899111282192384, ,0.141618304090233, ,0.0011168426433006374, ,0.10685173204777032,-0.16853319951420148,0.11291593303000001,4.077420951056576,0.8276072790792728,0.11922246895732164, ,0.19770196158014744,0.08698161462737927,0.0539959712542373,0.09400728928096005,-0.015330393715879033,0.11715068242676174, ,1.2525360584259033
0.016171891077120377,0.021274703331394085,-0.10018728746465595, ,0.017440676687625896,0.020754561088501235,-0.10073399837502706, ,0.001476230909372334, ,0.025998576470799912,-0.0002953808126364976,-0.05173290885824219,-0.03231942391382703,-0.1378824478704861,-0.0011342511608366523, ,0.057899111282192384, ,0.141618304090233, ,0.0011193735465828325, ,0.10685173204777032,-0.16853319951420148,0.11291593303000001,4.077420951056576,0.8276072790792728,0.11922246895732164, ,0.19770196158014744,0.08698161462737927,0.0539959712542373,0.09400728928096005,-0.015330393715879033,0.11715068242676174, ,1.254446029663086
0.016171891077120377,0.021274703331394085,-0.10018728746465595, ,0.017497622236994508,0.020757050440782875,-0.10086256151724522, ,0.0015752849486742667, ,0.025998576470799912,-0.0002953808126364976,-0.05173290885824219,-0.03231942391382703,-0.1378824478704861,-0.0011342511608366523, ,0.057899111282192384, ,0.141618304090233, ,0.0011225617382058493, ,0.10685173204777032,-0.16853319951420148,0.11291593303000001,4.077420951056576,0.8276072790792728,0.11922246895732164, ,0.19770196158014744,0.08698161462737927,0.0539959712542373,0.09400728928096005,-0.015330393715879033,0.11715068242676174, ,1.2563209533691406
0.016171891077120377,0.021274703331394085,-0.10018728746465595, ,0.01755451687666179,0.020759511193773863,-0.10099042293967163, ,0.0016799117927593355, ,0.025998576470799912,-0.0002953808126364976,-0.05173290885824219,-0.03231942391382703,-0.1378824478704861,-0.0011342511608366523, ,0.057899111282192384, ,0.141618304090233, ,0.0011264322246958042, ,0.10685173204777032,-0.16853319951420148,0.11291593303000001,4.077420951056576,0.8276072790792728,0.11922246895732164, ,0.19770196158014744,0.08698161462737927,0.0539959712542373,0.09400728928096005,-0.015330393715879033,0.11715068242676174, ,1.258202075958252
0.016171891077120377,0.021274703331394085,-0.10018728746465595, ,0.017611360322900352,0.020761943428002517,-0.10111758412997811, ,0.001788979126088961, ,0.025998576470799912,-0.0002953808126364976,-0.05173290885824219,-0.03231942391382703,-0.1378824478704861,-0.0011342511608366523, ,0.057899111282192384, ,0.141618304090233, ,0.0011310015136709293, ,0.10685173204777032,-0.16853319951420148,0.11291593303000001,4.077420951056576,0.8276072790792728,0.11922246895732164, ,0.19770196158014744,0.08698161462737927,0.0539959712542373,0.09400728928096005,-0.015330393715879033,0.11715068242676174, ,1.2601380348205566
0.016434035948198047,0.021251568874395395,-0.10063516966106748, ,0.01766815229356293,0.02076434722442804,-0.10124404657509785, ,0.001459849028678252, ,0.026180790839418926,-0.003934251149163646,-0.03889589600232703,-0.07342484592893771,-0.1099747006088263,0.06672238163406374, ,0.04705106658627344, ,0.1322329525771502, ,0.0011332538939107055, ,0.1086742970060873,-0.1677145898295337,0.11333074583000001,4.077840330943546,0.8271973695799765,0.1203735100698165, ,0.21325155406397928,0.09844081074530164,0.04158958621409923,0.022081791723181157,-0.04588880909434588,0.11252466861866305, ,1.262782096862793
0.016434035948198047,0.021251568874395395,-0.10063516966106748, ,0.01772489250807962,0.02076672266444005,-0.1013698117612249, ,0.0015623973632917683, ,0.026180790839418926,-0.003934251149163646,-0.03889589600232703,-0.07342484592893771,-0.1099747006088263,0.06672238163406374, ,0.04705106658627344, ,0.1322329525771502, ,0.0011361732372398286, ,0.1086742970060873,-0.1677145898295337,0.11333074583000001,4.077840330943546,0.8271973695799765,0.1203735100698165, ,0.21325155406397928,0.09844081074530164,0.04158958621409923,0.022081791723181157,-0.04588880909434588,0.11252466861866305, ,1.2647850513458252
0.016434035948198047,0.021251568874395395,-0.10063516966106748, ,0.01778158068745572,0.020769069829856903,-0.10149488117381159, ,0.001669666444960295, ,0.026180790839418926,-0.003934251149163646,-0.03889589600232703,-0.07342484592893771,-0.1099747006088263,0.06672238163406374, ,0.04705106658627344, ,0.1322329525771502, ,0.0011397779210757775, ,0.1086742970060873,-0.1677145898295337,0.11333074583000001,4.077840330943546,0.8271973695799765,0.1203735100698165, ,0.21325155406397928,0.09844081074530164,0.04158958621409923,0.022081791723181157,-0.04588880909434588,0.11252466861866305, ,1.2667748928070068
0.016434035948198047,0.021251568874395395,-0.10063516966106748, ,0.01783821655426947,0.020771388802925034,-0.10161925629756866, ,0.0017806522916180457, ,0.026180790839418926,-0.003934251149163646,-0.03889589600232703,-0.07342484592893771,-0.1099747006088263,0.06672238163406374, ,0.04705106658627344, ,0.1322329525771502, ,0.0011440790913478734, ,0.1086742970060873,-0.1677145898295337,0.11333074583000001,4.077840330943546,0.8271973695799765,0.1203735100698165, ,0.21325155406397928,0.09844081074530164,0.04158958621409923,0.022081791723181157,-0.04588880909434588,0.11252466861866305, ,1.2690670490264893
0.016434035948198047,0.021251568874395395,-0.10063516966106748, ,0.01789479983266956,0.020773679666317817,-0.1017429386164634, ,0.0018945609728674075, ,0.026180790839418926,-0.003934251149163646,-0.03889589600232703,-0.07342484592893771,-0.1099747006088263,0.06672238163406374, ,0.04705106658627344, ,0.1322329525771502, ,0.001149082303891337, ,0.1086742970060873,-0.1677145898295337,0.11333074583000001,4.077840330943546,0.8271973695799765,0.1203735100698165, ,0.21325155406397928,0.09844081074530164,0.04158958621409923,0.022081791723181157,-0.04588880909434588,0.11252466861866305, ,1.271131992340088
0.016434035948198047,0.021251568874395395,-0.10063516966106748, ,0.017951330248373122,0.0207759425031342,-0.10186592961371874, ,0.002010764158083438, ,0.026868950650170413,-0.0060216552580966524,-0.03923081499507342,-0.030004674545591185,0.03138188825831475,-0.05798564075716876, ,0.04792971610876006, ,0.04341670737597125, ,0.00115478880623698, ,0.11094478047110931,-0.166625684494268,0.11374426234000001,4.080146920321875,0.8256943680825566,0.12306932433300727, ,0.21421431503040805,0.10462727845476381,0.04012295093198993,0.30347296315425537,-0.14769965906417604,0.284597437686279, ,1.2731878757476807
0.016434035948198047,0.021251568874395395,-0.10063516966106748, ,0.018007807528663083,0.020778177396898065,-0.1019882307718118, ,0.002128762750485636, ,0.026868950650170413,-0.0060216552580966524,-0.03923081499507342,-0.030004674545591185,0.03138188825831475,-0.05798564075716876, ,0.04792971610876006, ,0.04341670737597125, ,0.0011611965295544053, ,0.11094478047110931,-0.166625684494268,0.11374426234000001,4.080146920321875,0.8256943680825566,0.12306932433300727, ,0.21421431503040805,0.10462727845476381,0.04012295093198993,0.30347296315425537,-0.14769965906417604,0.284597437686279, ,1.2751579284667969
0.016679832609148883,0.021199478755310794,-0.10098822106067269, ,0.018064231402385843,0.020780384431556873,-0.10210984357247328, ,0.0018303652995772662, ,0.026868950650170413,-0.0060216552580966524,-0.03923081499507342,-0.030004674545591185,0.03138188825831475,-0.05798564075716876, ,0.04792971610876006, ,0.04341670737597125, ,0.0011655701816460579, ,0.11094478047110931,-0.166625684494268,0.11374426234000001,4.080146920321875,0.8256943680825566,0.12306932433300727, ,0.21421431503040805,0.10462727845476381,0.04012295093198993,0.30347296315425537,-0.14769965906417604,0.284597437686279, ,1.2772629261016846
0.016679832609148883,0.021199478755310794,-0.10098822106067269, ,0.018120601599949326,0.020782563691480637,-0.10223076949668587, ,0.0019477063616314017, ,0.026868950650170413,-0.0060216552580966524,-0.03923081499507342,-0.030004674545591185,0.03138188825831475,-0.05798564075716876, ,0.04792971610876006, ,0.04341670737597125, ,0.0011706489880095993, ,0.11094478047110931,-0.166625684494268,0.11374426234000001,4.080146920321875,0.8256943680825566,0.12306932433300727, ,0.21421431503040805,0.10462727845476381,0.04012295093198993,0.30347296315425537,-0.14769965906417604,0.284597437686279, ,1.2792210578918457
0.016679832609148883,0.021199478755310794,-0.10098822106067269, ,0.01817691785332028,0.020784715261460755,-0.10235101002468279, ,0.0020665156047255336, ,0.026868950650170413,-0.0060216552580966524,-0.03923081499507342,-0.030004674545591185,0.03138188825831475,-0.05798564075716876, ,0.04792971610876006, ,0.04341670737597125, ,0.001176428772633573, ,0.11094478047110931,-0.166625684494268,0.11374426234000001,4.080146920321875,0.8256943680825566,0.12306932433300727, ,0.21421431503040805,0.10462727845476381,0.04012295093198993,0.30347296315425537,-0.14769965906417604,0.284597437686279, ,1.2812249660491943
0.01697359555964723,0.021142686701553476,-0.10142212084425187, ,0.018233179896022068,0.02078683922670938,-0.10247056663594768, ,0.001677026745141063, ,0.028033931970809146,-0.0046816736392404565,-0.040437206366712185,-0.00818526243962923,-0.09139051437044143,-0.09115369350569061, ,0.049426582610497996, ,0.09175574378848379, ,0.0011796377339958004, ,0.11325387760050243,-0.16552133369325392,0.11419407497000002,4.083082579530658,0.8247379125841986,0.12572786068211506, ,0.2191615278486623,0.09968166130091469,0.042476830720000004,0.251384886328349,-0.042120902567780824,0.1932447752338216, ,1.2831599712371826
0.01697359555964723,0.021142686701553476,-0.10142212084425187, ,0.018289387463132464,0.020788935672857674,-0.10258944080921258, ,0.0017941805996544789, ,0.028033931970809146,-0.0046816736392404565,-0.040437206366712185,-0.00818526243962923,-0.09139051437044143,-0.09115369350569061, ,0.049426582610497996, ,0.09175574378848379, ,0.0011835520197643272, ,0.11325387760050243,-0.16552133369325392,0.11419407497000002,4.083082579530658,0.8247379125841986,0.12572786068211506, ,0.2191615278486623,0.09968166130091469,0.042476830720000004,0.251384886328349,-0.042120902567780824,0.1932447752338216, ,1.2850549221038818
0.01697359555964723,0.021142686701553476,-0.10142212084425187, ,0.018345540291281204,0.02079100468595527,-0.10270763402245663, ,0.0019127092612552324, ,0.028033931970809146,-0.0046816736392404565,-0.040437206366712185,-0.00818526243962923,-0.09139051437044143,-0.09115369350569061, ,0.049426582610497996, ,0.09175574378848379, ,0.0011881669390142694, ,0.11325387760050243,-0.16552133369325392,0.11419407497000002,4.083082579530658,0.8247379125841986,0.12572786068211506, ,0.2191615278486623,0.09968166130091469,0.042476830720000004,0.251384886328349,-0.042120902567780824,0.1932447752338216, ,1.2869560718536377
0.01697359555964723,0.021142686701553476,-0.10142212084425187, ,0.01840163811864764,0.020793046352469015,-0.1028251477529056, ,0.0020322495984575356, ,0.028033931970809146,-0.0046816736392404565,-0.040437206366712185,-0.00818526243962923,-0.09139051437044143,-0.09115369350569061, ,0.049426582610497996, ,0.09175574378848379, ,0.0011934756349856108, ,0.11325387760050243,-0.16552133369325392,0.11419407497000002,4.083082579530658,0.8247379125841986,0.12572786068211506, ,0.2191615278486623,0.09968166130091469,0.042476830720000004,0.251384886328349,-0.042120902567780824,0.1932447752338216, ,1.2889139652252197
0.01697359555964723,0.021142686701553476,-0.10142212084425187, ,0.01845768068495856,0.020795060759281787,-0.1029419834770304, ,0.002152518264133228, ,0.028033931970809146,-0.0046816736392404565,-0.040437206366712185,-0.00818526243962923,-0.09139051437044143,-0.09115369350569061, ,0.049426582610497996, ,0.09175574378848379, ,0.0011994696514177835, ,0.11325387760050243,-0.16552133369325392,0.11419407497000002,4.083082579530658,0.8247379125841986,0.12572786068211506, ,0.2191615278486623,0.09968166130091469,0.042476830720000004,0.251384886328349,-0.042120902567780824,0.1932447752338216, ,1.2908740043640137
0.0172715225765237,0.02110794421357677,-0.10189204246107382, ,0.018513667731485852,0.02079704799369153,-0.10305814267054562, ,0.0017318691475007755, ,0.028033931970809146,-0.0046816736392404565,-0.040437206366712185,-0.00818526243962923,-0.09139051437044143,-0.09115369350569061, ,0.049426582610497996, ,0.09175574378848379, ,0.001202776480586001, ,0.1155398065312729,-0.16452510115247895,0.11468796146000002,4.085389168908988,0.8243280030849022,0.1276956891960157, ,0.22648434739491832,0.09693252457453604,0.05473818391752577,0.21556896118927418,-0.04286785247757188,0.21033452332811575, ,1.2928719520568848
0.0172715225765237,0.02110794421357677,-0.10189204246107382, ,0.01856959900104402,0.020799008143410295,-0.103173626808409, ,0.0018501087369881522, ,0.030221900092454835,-0.0022951848585968104,-0.05218255531543643,-0.001661491606285835,-0.09955284925363031,-0.04139514164513238, ,0.06034608684895846, ,0.09956476999393676, ,0.0012067723587119402, ,0.1155398065312729,-0.16452510115247895,0.11468796146000002,4.085389168908988,0.8243280030849022,0.1276956891960157, ,0.22648434739491832,0.09693252457453604,0.05473818391752577,0.21556896118927418,-0.04286785247757188,0.21033452332811575, ,1.2949090003967285
0.0172715225765237,0.02110794421357677,-0.10189204246107382, ,0.018625474237987955,0.020800941296563066,-0.10328843736481991, ,0.0019690999517151947, ,0.030221900092454835,-0.0022951848585968104,-0.05218255531543643,-0.001661491606285835,-0.09955284925363031,-0.04139514164513238, ,0.06034608684895846, ,0.09956476999393676, ,0.001211449215110733, ,0.1155398065312729,-0.16452510115247895,0.11468796146000002,4.085389168908988,0.8243280030849022,0.1276956891960157, ,0.22648434739491832,0.09693252457453604,0.05473818391752577,0.21556896118927418,-0.04286785247757188,0.21033452332811575, ,1.2968220710754395
